nelsonifechukwu/NELSON_IML_WORK/CNN-GradCAM/train2dof/data_sample_2022-02-21-14-48-02/robot_state.csv
position_joint1,position_joint2,position_joint3,position_joint4,position_joint5,position_joint6,position_joint7,velocity_joint1,velocity_joint2,velocity_joint3,velocity_joint4,velocity_joint5,velocity_joint6,velocity_joint7,ee_T_00,ee_T_10,ee_T_20,ee_T_30,ee_T_01,ee_T_11,ee_T_21,ee_T_31,ee_T_02,ee_T_12,ee_T_22,ee_T_32,ee_T_03,ee_T_13,ee_T_23,ee_T_33,v_x,v_y,time
0.465069457488,0.54788219703,-0.12398742504,-1.35583913562,0.0794547608798,1.89409314601,0.159162053865,0.000160309376763,0.000285738380933,-0.000213722603205,0.00116972133618,0.000385817871499,7.81200484434e-05,0.00134995584789,0.573799257191,0.818982202914,0.00181952140714,0.0,0.818937746127,-0.573741609042,-0.0119281567561,0.0,-0.00872518094374,0.00833460271342,-0.999927200158,0.0,0.661674891913,0.260878394302,0.303139140732,1.0,0.0,0.0,0.0
0.465067329753,0.547882197363,-0.123985039156,-1.35584164128,0.0794537939525,1.89409314601,0.159155388956,-0.000336619955285,0.000314865882044,-3.12218434679e-05,0.000115196830853,-0.000143565588778,-4.00805825667e-05,-0.00184665360435,0.573799206708,0.818982250547,0.0018139932134,0.0,0.818937751034,-0.573741609994,-0.0119277740827,0.0,-0.00872803991731,0.00832985520455,-0.999927214767,0.0,0.661675037553,0.260876444946,0.303136185806,1.0,-0.00014,-0.000184,0.008
0.465069132523,0.547883957897,-0.123989083928,-1.35583842164,0.0794537544073,1.89409314601,0.159156678811,0.000901977979888,0.00142876369858,-0.00212193857021,0.00113488913366,-3.9924959378e-05,0.000175547007213,-0.00194968451342,0.573795977774,0.818984504683,0.00181765787824,0.0,0.818940041829,-0.573738355321,-0.0119270459247,0.0,-0.00872537374789,0.00833240422178,-0.999927216798,0.0,0.661675531015,0.260877117441,0.303138286219,1.0,-0.00034,-0.000446857142857,0.018
0.465074343493,0.547878717649,-0.123983233073,-1.35584230568,0.0794539142014,1.89409080633,0.159157365921,0.00199946366387,0.00188200928667,6.1038869948e-05,0.00116320602584,0.000376624163172,-0.000668977959572,-0.00132008942665,0.573788413638,0.818989801887,0.00181870345231,0.0,0.818945313348,-0.57373075013,-0.0119309263205,0.0,-0.00872802892922,0.00833540643772,-0.999927168603,0.0,0.661671600527,0.260883426139,0.303139753301,1.0,-0.00062,-0.000814857142857,0.032
0.46507390542,0.547843338702,-0.123985363943,-1.35587489721,0.0794497247665,1.89409712582,0.159158028156,0.00153570411464,-0.00133803387629,-0.000442700548278,-0.00242056355118,-5.1405010086e-05,-0.000150685225011,0.000336068431473,0.573791455146,0.818987656344,0.00182528310571,0.0,0.818943277951,-0.573733786711,-0.0119246126382,0.0,-0.00871905183805,0.0083372046845,-0.999927231929,0.0,0.661667166308,0.260878251824,0.303149916376,1.0,-0.00096,-0.00126171428571,0.049
0.465073660303,0.547731896268,-0.123983646028,-1.35599200751,0.0794498246864,1.89411800002,0.159156836065,0.00098512131536,-0.00769358888494,1.46173324464e-05,-0.00982527938138,0.000347488292801,-0.000287030864214,-0.000342363621209,0.573795848425,0.81898453561,0.00184435991365,0.0,0.81894030128,-0.573737998709,-0.0119263857697,0.0,-0.00870951383051,0.00835389214306,-0.999927175776,0.0,0.661647096093,0.260868084785,0.303174881155,1.0,-0.00128,-0.00168228571429,0.065
0.465062082317,0.547602457156,-0.123982858442,-1.35617753058,0.0794475767821,1.89415791085,0.159149944682,0.000275425398645,-0.00717411080815,0.000265019018793,-0.0109244890518,6.19352263583e-05,0.00202890271175,-0.00184069980123,0.573808712624,0.818975539286,0.0018369185381,0.0,0.818931083132,-0.573750773225,-0.0119447982395,0.0,-0.00872873220339,0.00835849991539,-0.99992696969,0.0,0.661618904226,0.26084290137,0.303181711616,1.0,-0.00162,-0.00212914285714,0.082
0.465038310842,0.547440204527,-0.12399133669,-1.35638811554,0.0794436396641,1.89426989697,0.15915046698,-0.000380768742557,-0.00505180278462,-0.000170626788713,-0.0114722420051,0.000472856736212,0.0132826311483,0.000246534441421,0.573840717414,0.818952966335,0.00190180697395,0.0,0.818909317086,-0.573782463358,-0.0119147821579,0.0,-0.0086665895598,0.00839475621665,-0.999927206497,0.0,0.661602840444,0.26080981702,0.303208551479,1.0,-0.00198,-0.00260228571429,0.1
0.465017942044,0.54725464919,-0.123986126054,-1.35659011525,0.0794415981873,1.89437984015,0.159143376508,-0.000447678250264,-0.0123533866008,-0.000307981921661,-0.0131518816498,-0.00105333892544,0.000346101418107,0.0010362274118,0.573863629953,0.818936727787,0.00197914122483,0.0,0.818894063795,-0.573805032,-0.0118762129521,0.0,-0.00859039117127,0.00843619609811,-0.99992751526,0.0,0.661590364545,0.260781536018,0.303251077809,1.0,-0.00228,-0.00299657142857,0.115
0.464991777373,0.547031714497,-0.123986047026,-1.35688849994,0.0794331229581,1.89452715724,0.159119618619,0.000585344299341,-0.00517211032441,0.000429298055652,-0.0204419813015,-5.62132123752e-05,0.0111207426558,-0.00169634281712,0.573880202278,0.818924953594,0.00204467988352,0.0,0.818883105156,-0.573821299603,-0.0118458057305,0.0,-0.0085277092249,0.00847259032443,-0.999927744084,0.0,0.661564482002,0.260740424918,0.303279737808,1.0,-0.00264,-0.00346971428571,0.133
0.464959005454,0.546805599054,-0.123986126164,-1.35723447761,0.0794261731396,1.8946470305,0.159102097359,-0.00384530316123,-0.0154882228697,-0.000398868035639,-0.0210999959565,-0.00459930728233,0.00985538761283,-0.00114001800363,0.573910202434,0.818903910345,0.00205233160307,0.0,0.818862025543,-0.573851130162,-0.0118579271451,0.0,-0.00853293438328,0.0084861251661,-0.999927584733,0.0,0.661523937213,0.260687613598,0.303285611229,1.0,-0.00296,-0.00389028571429,0.149
0.464918557662,0.546556207027,-0.123988187203,-1.35761580362,0.07941267835,1.89478597648,0.158979838372,-0.00429045125091,-0.0150222778914,-0.000116100025232,-0.019054406257,-0.000353320242803,0.00389863419314,-0.012437579683,0.573862381466,0.818937393269,0.00206396362999,0.0,0.818895572397,-0.573803181153,-0.0118616065005,0.0,-0.00852976843534,0.00849726403127,-0.99992751715,0.0,0.661482500476,0.260624924081,0.303292842525,1.0,-0.00328,-0.00431085714286,0.165
0.464873820224,0.546242223566,-0.12398700593,-1.35813022351,0.0793932443498,1.89495614854,0.158933653539,-0.00257938845089,-0.0219556194799,-0.00022316167877,-0.026885449461,-0.000283936872679,0.00246175324702,-0.00210540337542,0.573883872634,0.818922381202,0.00204479792459,0.0,0.818880169432,-0.573824606732,-0.0118884700832,0.0,-0.00856254371994,0.00849720931958,-0.999927237492,0.0,0.66141911514,0.260547477095,0.303285044061,1.0,-0.00364,-0.004784,0.183
0.464835511455,0.545923131857,-0.123984527988,-1.35868009267,0.0793418276635,1.89514139907,0.15888288066,-0.00710682406344,-0.0208657109989,0.000460463594353,-0.0309770401293,0.000620832161223,0.0108619634602,-0.00129153204266,0.573888945814,0.818918946665,0.00199588745392,0.0,0.818876220837,-0.573830000906,-0.011900080211,0.0,-0.0086000666301,0.00846387221866,-0.99992719821,0.0,0.661350500422,0.260466734916,0.303265177491,1.0,-0.00398,-0.00523085714286,0.2
0.46476919707,0.545591286457,-0.123994533147,-1.35925196161,0.0792610592657,1.89534756158,0.158791180392,-0.00259325648922,-0.0266241775913,-0.00215856158148,-0.0403270743935,-0.00218498760005,0.013601271798,-0.00339973213901,0.573885656719,0.818921390071,0.00193824613254,0.0,0.818878372522,-0.573827398856,-0.0118774676948,0.0,-0.00861465947744,0.0084036579832,-0.999927580465,0.0,0.661293087138,0.260354471401,0.30324602237,1.0,-0.0043,-0.00565142857143,0.216
0.464704519892,0.545203283036,-0.123986740702,-1.35994802829,0.0792522939273,1.89555945379,0.158713467606,-0.00320781034666,-0.0238514832962,0.000104985132998,-0.0367255939557,0.000641079177636,0.0128295003228,-0.00247963161481,0.573905837891,0.818907391117,0.00187640887023,0.0,0.818863154126,-0.573847434815,-0.0119583975661,0.0,-0.00871621555011,0.00839967798075,-0.999926733814,0.0,0.661201133033,0.260251636492,0.30320752964,1.0,-0.00464,-0.00609828571429,0.233
0.464639650064,0.54477822912,-0.123990058954,-1.36066263267,0.0792296537322,1.89580307938,0.158624625953,-0.00402526147687,-0.0229268217357,0.00010376020793,-0.0470397254084,-0.000321651846972,0.0119267665755,-0.00597216857152,0.573922284362,0.818895930897,0.00184736965489,0.0,0.818851106314,-0.573863802829,-0.0119978494954,0.0,-0.00876502030971,0.00839871557681,-0.999926315283,0.0,0.66111552205,0.260140446812,0.303189499847,1.0,-0.00498,-0.00654514285714,0.25
0.464581675949,0.544339429826,-0.123990644042,-1.36138208086,0.0791977110207,1.8960738036,0.158542027968,-0.00268154419333,-0.0268842406742,0.000889563846442,-0.044579326541,-0.00269820926562,0.00858662015296,-0.00768887051917,0.573934207776,0.818887582172,0.00184385770739,0.0,0.818842607061,-0.573875639665,-0.0120117426341,0.0,-0.0087782908713,0.00840394104676,-0.999926154966,0.0,0.661032581222,0.260035347032,0.303181096495,1.0,-0.0053,-0.00696571428571,0.266
0.464501213813,0.543803384028,-0.123990996427,-1.36225896995,0.0791513965023,1.89637756645,0.15841838717,-0.00465206496797,-0.0352154420636,0.00713598169098,-0.0518453066598,-0.000395661801881,0.0158846670603,-0.0053945734638,0.573935505265,0.818886735645,0.00181573167398,0.0,0.818841293879,-0.573876964428,-0.0120379416306,0.0,-0.00881587387738,0.00839595983361,-0.999925891367,0.0,0.660929046611,0.259898024335,0.303169360687,1.0,-0.00566,-0.00743885714286,0.284
0.464421220102,0.543269241893,-0.123998141681,-1.36312378559,0.0790932382626,1.89667572268,0.158335257512,-0.0044548493603,-0.031544474377,-0.000750940449,-0.0520863273524,-0.00113498303925,0.0209241664607,-0.00424633201378,0.573970444454,0.818862319301,0.00178264520655,0.0,0.818816501065,-0.573912097425,-0.0120494362865,0.0,-0.00884391796719,0.00837584087233,-0.99992581245,0.0,0.660829086834,0.259756196378,0.303161675609,1.0,-0.006,-0.00788571428571,0.301
0.464349475231,0.54272722567,-0.123998839658,-1.36396458992,0.0790505604368,1.896977715,0.158208650413,-0.00677306475377,-0.0342437931054,-0.00039279415577,-0.0492400766467,-0.000676989441018,0.0197050001198,-0.0140409873146,0.573961313111,0.818868703637,0.00179001594084,0.0,0.818822887151,-0.573902845144,-0.0120561484416,0.0,-0.00884527770297,0.00838563026072,-0.999925718375,0.0,0.660731026655,0.259629287221,0.303171068123,1.0,-0.00632,-0.00830628571429,0.317
0.46427173121,0.542123302482,-0.124002028629,-1.36489406401,0.0789997772759,1.89732066431,0.158084771332,-0.00512292280645,-0.0361366980671,-0.000179720198286,-0.0514437029265,-0.00412107537144,0.0163561003048,-0.00335040517681,0.573963835474,0.818866898466,0.00180694917951,0.0,0.818821259568,-0.57390525122,-0.0120521534764,0.0,-0.00883226196268,0.00839723031089,-0.999925736078,0.0,0.660624774871,0.25948873432,0.303185594037,1.0,-0.00666,-0.00875314285714,0.334
0.464186137024,0.541483727571,-0.123997055574,-1.36585883757,0.0789379535157,1.8976908418,0.157942601983,-0.00247322454589,-0.0337412228732,0.00066631059124,-0.0591386081489,-0.00578458276702,0.0194716171799,-0.0065794460043,0.573951109577,0.818875734752,0.00184438353156,0.0,0.818830601423,-0.573892379079,-0.012030391078,0.0,-0.0087930869747,0.00841525600403,-0.999925929801,0.0,0.660517382836,0.25934407798,0.303210515846,1.0,-0.007,-0.0092,0.351
0.464108249555,0.540845521572,-0.124008756555,-1.36685495029,0.0788803145742,1.89805712184,0.157828654068,-0.00781745800393,-0.0412468455447,-0.00098402787208,-0.0611773265086,-0.00318039112686,0.0165184961438,-0.0100692544878,0.573969591584,0.818862768674,0.0018495720693,0.0,0.818817727745,-0.573910859859,-0.012024997593,0.0,-0.00878550247375,0.00841660740209,-0.999925985094,0.0,0.660403354016,0.259191522248,0.30321968684,1.0,-0.00732,-0.00962057142857,0.367
0.464009639718,0.540118719291,-0.124010926841,-1.36797162507,0.0788087331813,1.89846712302,0.157684889415,-0.00908511506735,-0.0464744125224,-0.00213645829044,-0.06893416215,-0.00626607997671,0.0276583343386,-0.00777833051354,0.573976785805,0.818857693403,0.00186392378369,0.0,0.818812874396,-0.573918024202,-0.0120135390585,0.0,-0.00876780823534,0.00842185947281,-0.99992609618,0.0,0.660276304933,0.259018383776,0.303237453082,1.0,-0.00766,-0.0100674285714,0.384
0.463896907989,0.539327947995,-0.124011617473,-1.36919097678,0.0787475808665,1.89892980208,0.157534599951,-0.00355070350932,-0.0431750200513,-0.000899846952362,-0.065288028476,0.000138599260076,0.0246237549196,-0.00349091098936,0.573997660681,0.818842980349,0.00189893846971,0.0,0.818798511552,-0.573938642795,-0.0120074430018,0.0,-0.00874250456621,0.00844725482214,-0.99992610352,0.0,0.660140214972,0.258830701283,0.303255975166,1.0,-0.00802,-0.0105405714286,0.402
0.463807374406,0.53866271408,-0.124014721787,-1.37023985826,0.0786886975586,1.89934020089,0.157407770073,-0.007307254059,-0.0450630996341,-0.000653751883695,-0.0709410993385,-0.00114339767754,0.0206141617622,-0.0109829762615,0.574015567668,0.818830396068,0.00191244620967,0.0,0.818786096615,-0.573956482946,-0.0120012739122,0.0,-0.00872951504076,0.00845496520875,-0.999926151838,0.0,0.660014663547,0.258657080397,0.303257966523,1.0,-0.00834,-0.0109611428571,0.418
0.463685580249,0.537829764402,-0.124026461345,-1.3715464448,0.0786104051661,1.89983775765,0.157247939509,-0.0130545748411,-0.0454065671833,-0.000824022829134,-0.0777613671435,-0.00819611370373,0.0237086608729,-0.00572261945139,0.574039941519,0.818813247981,0.00193839431259,0.0,0.818769348878,-0.57398080324,-0.0119807241593,0.0,-0.00869754199211,0.00846467501615,-0.999926348308,0.0,0.659881114945,0.258462093567,0.303272261514,1.0,-0.00868,-0.011408,0.435
0.463565505113,0.537006033399,-0.124026301624,-1.37284483256,0.078531829989,1.90031655591,0.157087375224,-0.0104927006873,-0.0462940314337,0.00467148344834,-0.0770955695564,-0.00321729900635,0.0305181218854,-0.00747245904775,0.574057121771,0.818801196613,0.00194120328486,0.0,0.818757317571,-0.573997953312,-0.0119812945204,0.0,-0.00869621900698,0.00846748486717,-0.999926336024,0.0,0.659732668282,0.258259432508,0.303277379448,1.0,-0.00902,-0.0118548571429,0.452
0.463462247927,0.536204330777,-0.124033125386,-1.3740847465,0.0784690267085,1.90078613349,0.156934334775,-0.00528330357247,-0.049923172606,-0.000645831037771,-0.0797481363691,-0.00449925215176,0.0310478196162,-0.00876484953415,0.574072583549,0.818790282158,0.00197219714656,0.0,0.818746733016,-0.574013209551,-0.0119736935513,0.0,-0.00867204367112,0.00848866259531,-0.999926366422,0.0,0.659591466476,0.258072400353,0.303294077789,1.0,-0.00934,-0.0122754285714,0.468
0.463347144408,0.535313998219,-0.124038446999,-1.37549768864,0.0783827184687,1.90129249878,0.156758377952,-0.00386640163468,-0.0524769355625,-0.00134528786858,-0.0783020347757,-0.0062039080979,0.025248036321,-0.0157855128795,0.574080831554,0.818784537317,0.00195632162104,0.0,0.818740774532,-0.574021517176,-0.0119828560415,0.0,-0.00868857381661,0.00848101152567,-0.999926287848,0.0,0.659423468379,0.257857770024,0.303293934516,1.0,-0.00968,-0.0127222857143,0.485
0.463216169559,0.53436024849,-0.124035515709,-1.37705956983,0.0782985770389,1.90185049963,0.156572228055,-0.00310891537409,-0.0564565992832,0.000590077564192,-0.0863670817935,-0.00359538547089,0.0283474213345,-0.0180606124206,0.574096571726,0.818773589636,0.00191889260874,0.0,0.818729176884,-0.574037257989,-0.0120211588763,0.0,-0.00874125984961,0.00847252258748,-0.999925900623,0.0,0.659234525797,0.257624486262,0.303271700829,1.0,-0.01004,-0.0131954285714,0.503
0.463100785989,0.533546381873,-0.124039282652,-1.37836693938,0.078221925034,1.90234170948,0.156418814709,-0.00805635627818,-0.0589415254706,-0.00135498857633,-0.0861553962829,-0.00397613877407,0.0268400108216,-0.00450240744325,0.574107577796,0.818765876912,0.00191698253313,0.0,0.818721389679,-0.5740482229,-0.0120279162084,0.0,-0.00874777536707,0.00847495561298,-0.999925823026,0.0,0.659070374539,0.257415477722,0.303266367172,1.0,-0.01036,-0.013616,0.519
0.462964110797,0.532546734841,-0.124041815977,-1.37998729741,0.0781331758712,1.90296000708,0.15620319437,-0.0107610509159,-0.0541067330244,-0.00850236015133,-0.0871640537184,-0.00178168238999,0.030851571491,-0.0150968793363,0.5741211579,0.818756356952,0.00191596034663,0.0,0.818711823363,-0.574061773746,-0.0120323360137,0.0,-0.00875184050526,0.00847680127802,-0.999925771809,0.0,0.658897391216,0.257179490882,0.303253491824,1.0,-0.0107,-0.0140628571429,0.536
0.462837620163,0.531562555418,-0.12403718047,-1.3815621817,0.0780489163387,1.90352811778,0.156004828812,-0.0107109650627,-0.0617520152249,-0.000501767982532,-0.0938383136621,-0.000348774827332,0.0355726943522,-0.00622607550714,0.574122215121,0.818755645,0.00190336203158,0.0,0.818710776062,-0.574062720231,-0.0120584120895,0.0,-0.00878041283274,0.00848146856022,-0.999925481744,0.0,0.658705483374,0.256949747847,0.303246742917,1.0,-0.01104,-0.0145097142857,0.553
0.46269562167,0.530543114383,-0.124037420263,-1.38321344999,0.0779353947362,1.9041023131,0.155798591892,-0.012530066972,-0.0569510484353,-0.000992340131549,-0.0970464011866,-0.0072639734371,0.0325838924523,-0.0135212138002,0.574128844128,0.818751126353,0.00184670998507,0.0,0.818705562678,-0.574069640514,-0.0120828962603,0.0,-0.00883291484647,0.00844921367464,-0.999925292411,0.0,0.658504140415,0.256694089391,0.303228912754,1.0,-0.01138,-0.0149565714286,0.57
0.462564349516,0.52956171465,-0.124037603808,-1.38475282059,0.077842079481,1.90467631639,0.155591087631,-0.0104535591862,-0.0658902405461,0.000200446323025,-0.0962711992949,-0.00322420837756,0.0440142290956,-0.0139086888885,0.574125066201,0.818753746298,0.00185961923485,0.0,0.81870833671,-0.574065792164,-0.0120777717139,0.0,-0.00882134688681,0.00845680007511,-0.999925330398,0.0,0.658323594016,0.256461569202,0.303237306942,1.0,-0.0117,-0.0153771428571,0.586
0.462423331808,0.528460104435,-0.124042743278,-1.38645126739,0.0777387476947,1.90532591409,0.155352695111,-0.00922042912084,-0.0613453061115,0.000964567176852,-0.101059056853,-0.00264516221044,0.0350622179488,-0.016216443659,0.574113308846,0.818761892626,0.00190228566444,0.0,0.818717077643,-0.574053885448,-0.0120511526079,0.0,-0.00877517899009,0.00847632405468,-0.999925571312,0.0,0.658127831284,0.256205977433,0.303261108632,1.0,-0.01204,-0.015824,0.603
0.462292623596,0.527400558635,-0.124043570031,-1.38808007023,0.0776361264234,1.90595587989,0.155124340403,-0.0093621354726,-0.0639682398983,-0.000463738180362,-0.110700941234,-0.000845133720758,0.0399789127135,-0.0140177522533,0.574094524625,0.818774949949,0.00195064917874,0.0,0.818730823533,-0.574034950266,-0.0120192084098,0.0,-0.00872145387485,0.00849738194785,-0.999925862623,0.0,0.657939206499,0.25596620293,0.303286330058,1.0,-0.01236,-0.0162445714286,0.619
0.462107319982,0.525946999066,-0.124046058643,-1.3903182934,0.0774851732866,1.90678858623,0.154819605245,-0.00620820428173,-0.0703948598632,0.000664477574313,-0.105055755828,-0.0133418002219,0.0364682761382,-0.0138059724218,0.57407846671,0.818786132501,0.00198246941843,0.0,0.818742548376,-0.574018883109,-0.0119878360711,0.0,-0.00867766612433,0.0085052543671,-0.999926176654,0.0,0.657674911922,0.255628385372,0.303316038939,1.0,-0.01278,-0.0167965714286,0.64
0.461988751907,0.525046386287,-0.124049550751,-1.39173498888,0.0773967260777,1.90729112978,0.15462481953,-0.00366186532857,-0.0700826782884,-0.000226910626239,-0.108109399395,-0.00532969968377,0.0418695617431,-0.0108513854477,0.574075641941,0.818788145943,0.00196883065419,0.0,0.818744357299,-0.574016090471,-0.0119980070149,0.0,-0.00869385282743,0.00849989621704,-0.999926081612,0.0,0.657489435328,0.255395875732,0.303317371807,1.0,-0.01306,-0.0171645714286,0.654
0.461828223949,0.523874745133,-0.124055628577,-1.39362747019,0.0772762926359,1.90797344179,0.154367773383,-0.013232616391,-0.066463037595,-0.000665155860833,-0.110837196946,-0.00819990573163,0.0347394913559,-0.0211296130354,0.574065102585,0.818795624785,0.00193125059875,0.0,0.818751377136,-0.574005743387,-0.0120139875679,0.0,-0.00872861957421,0.00847818832435,-0.999925963021,0.0,0.657273130382,0.255120402387,0.303301355532,1.0,-0.01338,-0.0175851428571,0.67
0.461672723715,0.522639223105,-0.124053852483,-1.39556434381,0.0771768291659,1.90871792633,0.154115225667,-0.0131172374248,-0.0683148930586,0.000952755470197,-0.119192582611,-0.00314953059258,0.0531947083921,-0.0149269063817,0.574061618718,0.818797959129,0.00197659848475,0.0,0.818754138021,-0.574001905059,-0.0120092199517,0.0,-0.00869872096872,0.00851254432646,-0.999925931678,0.0,0.657042951429,0.254839970681,0.303312423922,1.0,-0.01372,-0.018032,0.687
0.461504305264,0.521396324339,-0.124064015606,-1.39754623697,0.0770376336094,1.90949132905,0.153839767768,-0.0134775050561,-0.0739771481381,-0.00125610156136,-0.118997375899,-0.00224782929256,0.0476819700077,-0.0148054673478,0.574049716789,0.818806270225,0.00199032544625,0.0,0.818762871062,-0.57399018455,-0.0119739681166,0.0,-0.00866209967539,0.0085034213001,-0.999926327214,0.0,0.656815641484,0.254534466289,0.303309749789,1.0,-0.01406,-0.0184788571429,0.704
0.461349246293,0.520177666414,-0.124065244336,-1.39945781962,0.0769234706117,1.91018314466,0.153581733932,-0.005358535723,-0.0754804946868,-0.000314170641566,-0.123197737084,-0.00282386392208,0.0419018669943,-0.0130393594394,0.574037246939,0.818815012263,0.00199040715841,0.0,0.81877154635,-0.573977649342,-0.0119816461412,0.0,-0.00866846940495,0.0085077637125,-0.999926235077,0.0,0.656580526242,0.25424954307,0.303315820213,1.0,-0.01438,-0.0188994285714,0.72
0.461179110685,0.518830993593,-0.124069190282,-1.40154073122,0.0767927655135,1.91092606997,0.153309302506,-0.0149799275834,-0.0847959135901,-0.000634209037714,-0.126258234143,-0.00838439723587,0.0471963584867,-0.0129672566726,0.574031462789,0.818819058385,0.00199405489272,0.0,0.818775622873,-0.573971833668,-0.0119816712831,0.0,-0.00866645631087,0.00851070368757,-0.999926227508,0.0,0.656323174702,0.253935347257,0.303334346817,1.0,-0.01472,-0.0193462857143,0.737
0.461003957761,0.517487270528,-0.124072293834,-1.40366272805,0.0766531548209,1.91168894357,0.153017276583,-0.00519274874488,-0.079689366566,0.00042382099018,-0.130098013099,-0.00218936785424,0.0402131902454,-0.013966136217,0.574016257745,0.818829782972,0.0019670444998,0.0,0.818786060912,-0.573956809119,-0.0119881034052,0.0,-0.0086873847841,0.00849211837134,-0.999926203913,0.0,0.656048282033,0.253586545267,0.303329916491,1.0,-0.01508,-0.0198194285714,0.755
0.460820925141,0.516206323783,-0.124083234823,-1.40568508341,0.0765160008551,1.91244786634,0.152738034363,-0.0140023326499,-0.0874665299017,-0.00214366585736,-0.125443827754,-0.00957521691371,0.0496067952454,-0.0203772402547,0.574011348557,0.818833197576,0.00197817508062,0.0,0.818789751892,-0.573951981965,-0.0119671005565,0.0,-0.00866384851215,0.00848912445418,-0.999926433541,0.0,0.655823447616,0.253293361935,0.303335579639,1.0,-0.01538,-0.0202137142857,0.77
0.460637704887,0.514852162808,-0.124085915499,-1.40789393794,0.0763942455671,1.91327614849,0.152436293484,-0.0163509506215,-0.0774205225586,-0.00196468972422,-0.131924022375,-0.00783058315474,0.0501564067001,-0.0231092269768,0.574000034528,0.818841173077,0.00195972900184,0.0,0.818797349888,-0.573940613386,-0.0119924569622,0.0,-0.00869531687342,0.00848845505265,-0.999926166072,0.0,0.655553702417,0.252963804631,0.303305689039,1.0,-0.01572,-0.0206605714286,0.787
0.460418391593,0.513274219981,-0.124090315246,-1.41044124312,0.0762360424872,1.91415311815,0.152091948913,-0.0146385854291,-0.0781917384131,-0.00153412162135,-0.133899805422,-0.00581824475062,0.0486038661362,-0.0196037303236,0.573991469938,0.818847364559,0.00187959945945,0.0,0.818802391336,-0.573932293509,-0.0120462986395,0.0,-0.00878548621282,0.00845365595461,-0.999925672704,0.0,0.655229645725,0.252569964316,0.303275320694,1.0,-0.0161,-0.02116,0.806
0.460237559497,0.511916259365,-0.124088359754,-1.41258724552,0.0761094837327,1.91492331642,0.151772678833,-0.015282790746,-0.0814765679557,0.000700224818693,-0.131700211218,-0.00645747328498,0.0435399726135,-0.0207244514223,0.573954803667,0.818873092038,0.00186798941988,0.0,0.818827835374,-0.573895555886,-0.0120670565075,0.0,-0.00880952665825,0.00845566957961,-0.999925444167,0.0,0.654960169882,0.252247666462,0.303271853922,1.0,-0.01642,-0.0215805714286,0.822
0.46004761433,0.510538583724,-0.124094015377,-1.41477978578,0.0759681069163,1.91577079966,0.151470047203,-0.00921222693826,-0.0875099331528,0.000624652142616,-0.134028820398,-0.0144503090314,0.0445566609358,-0.0243743027501,0.5739430516,0.818881283833,0.00188769925439,0.0,0.818836388929,-0.573883819518,-0.0120447815732,0.0,-0.00878009518398,0.00845889839283,-0.999925675721,0.0,0.654699582352,0.251912554797,0.30326656337,1.0,-0.01674,-0.0220011428571,0.838
0.459848387489,0.509046638406,-0.124099969803,-1.41714687833,0.0758168233828,1.91663328266,0.151139039455,-0.0116632284969,-0.0906474576767,-0.0011698672669,-0.134987554533,-0.00366318424035,0.0547361994868,-0.0238721451244,0.5739215705,0.818896376104,0.00187163581885,0.0,0.818851290442,-0.573862429375,-0.0120508586583,0.0,-0.00879451232791,0.00844900180201,-0.999925632695,0.0,0.654405357163,0.251551533131,0.30325901765,1.0,-0.01708,-0.022448,0.855
0.459651709873,0.507617458428,-0.12410040834,-1.41938623652,0.075675065433,1.91743145734,0.150825290707,-0.0103697456958,-0.086967826586,-0.000426138172914,-0.144626746231,-0.0169069630547,0.0510181802483,-0.0187534140301,0.573903607345,0.818908992325,0.00185974908168,0.0,0.81886370641,-0.573844477281,-0.0120620529058,0.0,-0.00881068648387,0.0084454993027,-0.999925519899,0.0,0.654123846751,0.251207008,0.303262091053,1.0,-0.0174,-0.0228685714286,0.871
0.459420219213,0.505957889984,-0.124106480137,-1.42196385189,0.075513897255,1.91840060389,0.150475677166,-0.0108450384287,-0.0908732791513,1.17876147798e-05,-0.14690986451,-0.00866971005508,0.0546459103001,-0.0198064084003,0.573900976456,0.818910745681,0.00189913963148,0.0,0.818866008872,-0.573841708343,-0.0120374490999,0.0,-0.00876795969835,0.00846360763344,-0.999925742357,0.0,0.653811641681,0.250807802609,0.303279725374,1.0,-0.01776,-0.0233417142857,0.889
0.459193429137,0.504314778087,-0.124115965431,-1.42444368111,0.0753644347696,1.91935400165,0.15013716658,-0.0152196612443,-0.101769759295,-0.00105687384684,-0.147042826852,-0.0056970925433,0.0546953098902,-0.0206521863153,0.573903828793,0.81890851369,0.00199709913765,0.0,0.818865093165,-0.573844178459,-0.0119818590201,0.0,-0.00866618949848,0.0085119534206,-0.999926219182,0.0,0.653517178462,0.250421931353,0.303330449766,1.0,-0.0181,-0.0237885714286,0.906
0.458981678259,0.502735124477,-0.124118519583,-1.42677624643,0.0752106919914,1.92023913826,0.149811612375,-0.0106711628503,-0.101509433249,-0.00492650410025,-0.14838513985,-1.27302033902e-05,0.0561801186338,-0.0172089741314,0.573890505726,0.818917582536,0.00210412740785,0.0,0.818875667689,-0.573830522984,-0.01191296181,0.0,-0.00854848594028,0.00855991921882,-0.999926822908,0.0,0.653236667748,0.250061395892,0.303400118591,1.0,-0.01842,-0.0242091428571,0.922
0.458703976812,0.500717782172,-0.124120267895,-1.42980782019,0.0750195548506,1.92129945938,0.14938609404,-0.0110742442986,-0.102749661955,0.00140702906769,-0.159586364345,-0.00219137885018,0.0558332630589,-0.024807488846,0.573873445194,0.818929432842,0.00214472073081,0.0,0.81888796308,-0.573813215758,-0.0119014388102,0.0,-0.00851593339352,0.00858637099767,-0.999926873882,0.0,0.652851498671,0.249587187534,0.303457105273,1.0,-0.01882,-0.0247348571429,0.942
0.458484204645,0.499220858533,-0.124120506106,-1.43211865557,0.0748784853648,1.9221427449,0.14906488633,-0.018996181831,-0.0998054242143,-0.0014588136799,-0.161343476838,-0.00764268186996,0.0568235238887,-0.0200550115068,0.57387004507,0.818931746488,0.00217091378905,0.0,0.818890551571,-0.573809643483,-0.0118955662266,0.0,-0.00849612913488,0.00860441557838,-0.999926887238,0.0,0.652564284578,0.249223705153,0.303474548734,1.0,-0.01912,-0.0251291428571,0.957
0.458260311161,0.497736182231,-0.124122862689,-1.43444199341,0.0747343220081,1.9230141166,0.148722200929,-0.013494593002,-0.101580857275,0.000205977192808,-0.153889167835,-0.00350592896683,0.0530529074157,-0.0250883676517,0.573853522634,0.818943255271,0.00219684043895,0.0,0.818902389802,-0.573793010939,-0.0118829068328,0.0,-0.00847105780783,0.00861821175788,-0.999926981137,0.0,0.652280076068,0.248856118949,0.303479531057,1.0,-0.01942,-0.0255234285714,0.972
0.457987456674,0.495973646807,-0.124118828637,-1.43729900073,0.0745593041346,1.92400277888,0.148303484023,-0.0129698090173,-0.0964456757325,0.001091158575,-0.16067386942,-0.0123194877334,0.0534398857145,-0.0154473587509,0.573828056476,0.818961328756,0.00210962174963,0.0,0.818919123799,-0.573767696883,-0.0119518028577,0.0,-0.00857779668594,0.00858605470812,-0.999926347822,0.0,0.651908727038,0.248403972196,0.303433680301,1.0,-0.01978,-0.0259965714286,0.99
0.457732975247,0.494396209948,-0.124128098251,-1.43988065826,0.0743962661941,1.92489851444,0.147942479566,-0.0138021337991,-0.105379640434,-0.00371972155599,-0.164177904275,-0.0100926065812,0.0584855453735,-0.0167325122025,0.573838292993,0.818954416289,0.00200610002725,0.0,0.818910775861,-0.573778281326,-0.0120154882601,0.0,-0.00868924784364,0.00853792858402,-0.999925797621,0.0,0.651555740969,0.247956359389,0.303375838759,1.0,-0.0213514285714,-0.028061877551,1.007
0.45747282127,0.492581916688,-0.124174341503,-1.44272232221,0.0742214690592,1.9259611038,0.147533960554,-0.0114262436428,-0.12060149456,0.00101546742865,-0.188060291856,-0.007498633973,0.0749300050902,-0.0266907615233,0.573840465548,0.818952828841,0.00203251901649,0.0,0.818909702014,-0.573780508324,-0.0119822834432,0.0,-0.00864687160639,0.00854053308323,-0.999926142726,0.0,0.651231091654,0.24751633385,0.303385658294,1.0,-0.02478,-0.032568,1.022
0.457118420997,0.490245378729,-0.124181651969,-1.44648855013,0.0739993613905,1.92731661012,0.146985166366,-0.0215055814661,-0.134891509651,-1.2651088029e-05,-0.222050068799,-0.00879067181056,0.075660669675,-0.0359219574732,0.573814728678,0.818971006666,0.00197339642174,0.0,0.818926887903,-0.573754809466,-0.0120381803208,0.0,-0.00872684298658,0.00852391667664,-0.99992558976,0.0,0.650747672222,0.246921931581,0.303336371596,1.0,-0.0288942857143,-0.0379753469388,1.04
0.456680207217,0.487460594468,-0.124215039042,-1.4508482727,0.0737338151473,1.92892813174,0.146355547905,-0.0250221026136,-0.162336078332,-0.00304446660132,-0.254397963188,-0.0167345930655,0.0925796533555,-0.0368620321354,0.573826926502,0.818962397874,0.00199904744847,0.0,0.818918630794,-0.573766912337,-0.0120230340538,0.0,-0.00869959301044,0.00853636222915,-0.999925721042,0.0,0.650208523117,0.246203885739,0.303337610063,1.0,-0.0330085714286,-0.0433826938775,1.058
0.456271488127,0.484861816937,-0.124251169957,-1.45484708762,0.073481983357,1.93045317409,0.145750835063,-0.0296756472942,-0.181768611552,-7.21117886889e-05,-0.274659762706,-0.023249886585,0.103500883366,-0.0405943329224,0.573822028412,0.81896559258,0.00209398670847,0.0,0.818923253822,-0.573761804102,-0.0119517113404,0.0,-0.00858675609027,0.00857313471249,-0.999926381781,0.0,0.649724971995,0.245540325224,0.30337218527,1.0,-0.0364371428571,-0.0478888163265,1.073
0.455746927154,0.481616060686,-0.124298378517,-1.45993349447,0.0731813699047,1.93219340807,0.144985576233,-0.0298421932164,-0.195019815151,-0.007487059547,-0.316495405403,-0.020602837316,0.111454988989,-0.038277170798,0.573826663311,0.818962547545,0.00201322956615,0.0,0.818918891875,-0.573766516281,-0.0120241517874,0.0,-0.00869237362039,0.00854861521206,-0.999925679148,0.0,0.649064596459,0.244682275089,0.30335531483,1.0,-0.0403228571429,-0.052995755102,1.09
0.455169670355,0.478019130049,-0.124354476244,-1.46549718853,0.0728370771418,1.93420335394,0.144162578905,-0.0367268969154,-0.215042164769,-1.82550519594e-05,-0.333939162186,-0.0214881829887,0.122786613006,-0.0488734159188,0.573843406306,0.818950745007,0.00204186031517,0.0,0.818907500928,-0.573783173086,-0.0120050867688,0.0,-0.00866015639742,0.00856129944391,-0.999925850172,0.0,0.648362214545,0.243744622046,0.303375546153,1.0,-0.0442085714286,-0.0581026938775,1.107
0.454520908065,0.474083746113,-0.124397117889,-1.47150268735,0.0724765994496,1.93641458491,0.14331101888,-0.0425668931062,-0.237061683266,-0.000812640710231,-0.369822863631,-0.0182441593024,0.130381985275,-0.0502188869772,0.573900688852,0.818910293625,0.0021626910582,0.0,0.81886855876,-0.573839879104,-0.0119508796975,0.0,-0.00854582456041,0.00862974394998,-0.999926245481,0.0,0.647609337665,0.24273235522,0.30343345298,1.0,-0.0480942857143,-0.0632096326531,1.124
0.453764422346,0.469596327683,-0.124427442799,-1.4783407158,0.072059030609,1.93886017885,0.142263423936,-0.0360451526614,-0.260316114565,-0.00463725414723,-0.382987901056,-0.0286659898094,0.143586700189,-0.0554516148743,0.57389761103,0.818912215909,0.00224979778282,0.0,0.81887139284,-0.573836220251,-0.0119323600974,0.0,-0.00848070327223,0.00869041531532,-0.999926274459,0.0,0.646730595422,0.241574345959,0.303492576729,1.0,-0.0522085714286,-0.0686169795918,1.142
0.453007360459,0.465033445689,-0.124433530367,-1.4852586962,0.0716108345676,1.94139715133,0.141147694346,-0.0443370993364,-0.271817203836,0.000366152983452,-0.430268352646,-0.0240707711105,0.149287132218,-0.0627130325468,0.573813178231,0.81897095203,0.00240065002247,0.0,0.818932077383,-0.573751185709,-0.0118564932652,0.0,-0.00833290821456,0.00876955023417,-0.999926826137,0.0,0.645840213782,0.240424213687,0.303568011757,1.0,-0.0560942857143,-0.0737239183673,1.159
0.452225952898,0.460474599753,-0.124451557469,-1.49231110985,0.0711430058248,1.94382280751,0.140097024643,-0.0481712129715,-0.294885227453,-0.00326955302852,-0.446178080361,-0.0295375480715,0.153512702653,-0.0559557666273,0.573806789997,0.818975614894,0.00233599312417,0.0,0.818935729808,-0.573744875102,-0.0119094768822,0.0,-0.00841346905479,0.00874693533992,-0.999926349618,0.0,0.644894574373,0.239226666685,0.30356275834,1.0,-0.0597514285714,-0.0785304489796,1.175
0.451338556109,0.455398028299,-0.124469465176,-1.50019792304,0.0706130026807,1.94659841331,0.138881298806,-0.0513278927468,-0.292268804125,0.000367010687355,-0.467460595819,-0.0381283281432,0.170701829657,-0.0721936861304,0.573769647666,0.819001757881,0.00229323036996,0.0,0.818961246346,-0.573707836567,-0.0119391015617,0.0,-0.00846266386476,0.00872852894968,-0.99992609532,0.0,0.643841740053,0.237884487416,0.303541696107,1.0,-0.0636371428571,-0.0836373877551,1.192
0.450381472071,0.449890413674,-0.12450724176,-1.50835592196,0.0700409358065,1.94966953914,0.137568262464,-0.0536893043611,-0.337563987196,-0.00394331872338,-0.483169121488,-0.0376431283205,0.190683681756,-0.0787433276432,0.573720491689,0.819035222962,0.00261684258512,0.0,0.81899952272,-0.573658099133,-0.0117010249636,0.0,-0.00808253426065,0.00885648113832,-0.999928115107,0.0,0.642802751067,0.236473964468,0.303706259437,1.0,-0.0675228571429,-0.0887443265306,1.209
0.449358192915,0.444221698707,-0.124548920039,-1.51708146009,0.0694649030021,1.95266320044,0.136282654104,-0.0612158570676,-0.339263453267,0.000434838873111,-0.531555249814,-0.0374437469849,0.177963849125,-0.0758588184007,0.573769848806,0.819000838155,0.00255628730654,0.0,0.818964135085,-0.573707433209,-0.0117589721752,0.0,-0.00816420422434,0.00884062151944,-0.999927591969,0.0,0.641612325949,0.234951313259,0.303697989069,1.0,-0.0714085714286,-0.0938512653061,1.226
0.448266193419,0.438275199021,-0.124583238933,-1.52634892223,0.0688296423182,1.9557446346,0.134786797199,-0.06602067485,-0.357093269589,-0.00120519108853,-0.553604438397,-0.0414803117338,0.188580497074,-0.0903299031308,0.573698307167,0.819051596642,0.00234121626012,0.0,0.819011783385,-0.573636389332,-0.0119053942605,0.0,-0.00840828722123,0.00874775665933,-0.99992638602,0.0,0.640311586376,0.233328715574,0.303621590361,1.0,-0.0752942857143,-0.0989582040816,1.243
0.447142400482,0.43234625827,-0.124607487693,-1.53517955917,0.0682347495066,1.9590037123,0.133327260313,-0.0735609156853,-0.374402857087,-0.00345686707004,-0.558317222221,-0.041887350406,0.203368773741,-0.09481450047,0.573662764418,0.81907560983,0.00263153998882,0.0,0.819039768169,-0.573599962289,-0.0117340666497,0.0,-0.00810179254313,0.00888690411493,-0.999927689332,0.0,0.639146807738,0.23176252545,0.303746561415,1.0,-0.0789514285714,-0.103764734694,1.259
0.445933383761,0.426298269101,-0.124653869548,-1.54450454843,0.0675687870935,1.96220485088,0.131834587627,-0.0732876823163,-0.391732087408,-0.00677283968366,-0.590875571008,-0.0404348806997,0.200428869511,-0.0985976311488,0.573679246775,0.819064364124,0.00253695537385,0.0,0.819027386973,-0.573616889141,-0.0117707596047,0.0,-0.00818592688593,0.00883064645203,-0.999927502514,0.0,0.637859012272,0.230061718602,0.303705269325,1.0,-0.0826085714286,-0.108571265306,1.275
0.44464852739,0.419965072144,-0.124772485417,-1.55424737696,0.0668650701904,1.96539512318,0.130241004284,-0.080875938317,-0.39916355457,-0.00872877629254,-0.615966365816,-0.0378230274794,0.200463805871,-0.0949119886589,0.57372799297,0.819030886052,0.00231185579788,0.0,0.818991125388,-0.573666638732,-0.0118689107222,0.0,-0.00839493154893,0.00870308327035,-0.99992688806,0.0,0.63648627187,0.228222513934,0.303650815902,1.0,-0.0862657142857,-0.113377795918,1.291
0.443120050159,0.412499979141,-0.124834297809,-1.56536964986,0.0660976799598,1.96943406917,0.128396076507,-0.0901587424958,-0.414700919057,-0.000958113154623,-0.63824054665,-0.0454606783802,0.222474160315,-0.115548264723,0.57376291009,0.819005524291,0.00261172117393,0.0,0.818969951033,-0.573700742315,-0.0116800887591,0.0,-0.0080678661731,0.00884069308917,-0.999928373275,0.0,0.634980750854,0.226165375751,0.303767042245,1.0,-0.09038,-0.118785142857,1.309
0.441753857959,0.406121392907,-0.124867721475,-1.57508466606,0.0654251078417,1.97262359884,0.126780403482,-0.0919153144537,-0.434245409361,-0.00589890459595,-0.664245698025,-0.0482052116353,0.211151699917,-0.111065971684,0.573789660421,0.818987172058,0.00248686555611,0.0,0.81894951575,-0.573727445127,-0.0118006890768,0.0,-0.0082379885603,0.00880790030041,-0.999927275574,0.0,0.633578046121,0.22434242981,0.303732453205,1.0,-0.0938085714286,-0.123291265306,1.324
0.440038379323,0.398166936831,-0.124982487743,-1.58697201938,0.0645810814377,1.97677986535,0.124772822677,-0.0990515407708,-0.457092796922,-0.00452365168504,-0.66033430933,-0.0557023070562,0.240333977421,-0.106262562147,0.573873344346,0.81892805257,0.00264126179995,0.0,0.81889272567,-0.57381090776,-0.0116830168112,0.0,-0.00805212040259,0.00886765273389,-0.999928261473,0.0,0.631919547433,0.222060800505,0.303800239641,1.0,-0.0979228571428,-0.128698612245,1.342
0.438309330199,0.390468486238,-0.125015397275,-1.59858247799,0.0636885222842,1.98070394988,0.122789064052,-0.104642354393,-0.453812843397,-0.0022726259772,-0.685513115111,-0.0518083717174,0.22872809526,-0.104141324552,0.573886581586,0.818918896513,0.00260371101065,0.0,0.818883357706,-0.573824578035,-0.0116682053115,0.0,-0.00806139565282,0.00882853205096,-0.999928532907,0.0,0.630243785218,0.219832826146,0.30379039109,1.0,-0.101808571429,-0.13380555102,1.359
0.436512854772,0.382467786964,-0.125066647939,-1.61062109918,0.0627796157475,1.98456935154,0.120614457034,-0.10730684756,-0.48499383015,-0.000597058195136,-0.687942762252,-0.0523764268807,0.23691963528,-0.120585447226,0.573812474518,0.818971356464,0.00243069539426,0.0,0.818933377016,-0.573750900491,-0.011780284192,0.0,-0.00825326055385,0.00875042008317,-0.999927654302,0.0,0.628442996755,0.217508281264,0.303759655162,1.0,-0.105694285714,-0.138912489796,1.376
0.434616004291,0.374269778011,-0.125108788457,-1.62286135624,0.0619085243456,1.98875831314,0.118463063046,-0.117044171048,-0.484052690096,-0.000569205585815,-0.727021858925,-0.0571621201514,0.24456103108,-0.124665717207,0.573843347761,0.818949370199,0.00254719116016,0.0,0.818912666657,-0.573781083532,-0.0117498711203,0.0,-0.008161176578,0.0088286824644,-0.999927722169,0.0,0.62664943856,0.21513923725,0.303776141355,1.0,-0.10958,-0.144019428571,1.393
0.432593830694,0.365822700937,-0.125214838887,-1.63547424802,0.0609281853524,1.99280943264,0.116266473782,-0.116737659649,-0.502202289343,-0.0132297067141,-0.740232144111,-0.0552533898385,0.247421730038,-0.135882788594,0.573952778918,0.818873114337,0.00240355754787,0.0,0.818834666095,-0.573891166984,-0.0118095283893,0.0,-0.00829128447786,0.00874639627414,-0.99992737494,0.0,0.624749555641,0.212599554053,0.303753552656,1.0,-0.113465714286,-0.149126367347,1.41
0.430635970422,0.357648594334,-0.125297280026,-1.6475243637,0.0599777816083,1.99681938845,0.114008700412,-0.123959491539,-0.505664189211,-0.00405954887259,-0.756657429909,-0.0591915917142,0.245803457123,-0.150740098732,0.573917720295,0.818897498773,0.00246652302114,0.0,0.81886026014,-0.573856293262,-0.0117292773456,0.0,-0.00818980380165,0.008751546292,-0.999928166196,0.0,0.62293991994,0.2101849936,0.303794767417,1.0,-0.117122857143,-0.153932897959,1.426
0.428392199832,0.348795966209,-0.125334942822,-1.66073760406,0.0590082705075,2.00098996048,0.111554872889,-0.134843350072,-0.527332250909,-0.007787596504,-0.75398059236,-0.0618261495355,0.253323962568,-0.152209336625,0.573946299909,0.818877906473,0.00231646529878,0.0,0.818837840916,-0.573884521517,-0.0119118911038,0.0,-0.00842516308013,0.00873376341978,-0.999926366291,0.0,0.620882186588,0.207515299446,0.303727713851,1.0,-0.121008571429,-0.159039836735,1.443
0.426114926789,0.339621044463,-0.125399822583,-1.67395694025,0.0579671224164,2.00543571093,0.109070513381,-0.132364700683,-0.529284112666,0.000537192552271,-0.802273683491,-0.0685044508618,0.254988008763,-0.148387779979,0.573960501362,0.81886705883,0.00261337718219,0.0,0.818831274144,-0.573898047427,-0.0117099335259,0.0,-0.00808922250601,0.00886112488947,-0.999928019882,0.0,0.618869858792,0.20482935384,0.303871268365,1.0,-0.124894285714,-0.16414677551,1.46
0.423887921829,0.330887864265,-0.125389738613,-1.68690741975,0.0569216138328,2.00943361649,0.106565278135,-0.139556423304,-0.553359087831,0.00091009370328,-0.780517841572,-0.0723529812609,0.25149954702,-0.154077298771,0.573830987912,0.8189584515,0.00240809682672,0.0,0.81891949924,-0.573768780508,-0.0118738022084,0.0,-0.0083426205117,0.00878576225213,-0.999926602839,0.0,0.616773436835,0.202228537743,0.303793377056,1.0,-0.128551428571,-0.168953306122,1.476
0.421391537965,0.321320202704,-0.125397467643,-1.70068762249,0.055790230546,2.01391901107,0.103837455487,-0.154143448604,-0.557893867742,-0.000997127976631,-0.806428199946,-0.0662567296541,0.257655654402,-0.162019270258,0.573738783259,0.819022473524,0.0025967957957,0.0,0.818986202509,-0.57367612124,-0.0117496774768,0.0,-0.00813368676913,0.00886815632613,-0.99992759685,0.0,0.614592685118,0.199399563391,0.303886197345,1.0,-0.132437142857,-0.174060244898,1.493
0.418764721138,0.311593122311,-0.125433372433,-1.71481118802,0.0546584606314,2.01832711468,0.100994789113,-0.156897810933,-0.581273142288,-0.00272825200991,-0.810950381993,-0.0670750892718,0.264661978544,-0.179341218088,0.573675610951,0.819066741188,0.00259109639347,0.0,0.819030006066,-0.573612553327,-0.0117997766847,0.0,-0.00817867668256,0.0088916009844,-0.999927021677,0.0,0.612297928124,0.196449402581,0.30389034166,1.0,-0.136322857143,-0.179167183673,1.51
0.416002440879,0.301647164484,-0.125494432751,-1.72909921509,0.0534152886223,2.02281479642,0.0980400376759,-0.164006816196,-0.58659600664,-0.00476626020801,-0.873243507355,-0.0727598252017,0.257757614493,-0.178371545425,0.573599462739,0.819119902211,0.00264368087672,0.0,0.819084360511,-0.573536781482,-0.0117097205231,0.0,-0.0080755723883,0.00888225807216,-0.999927942715,0.0,0.609975849981,0.193391403775,0.303939406389,1.0,-0.140208571429,-0.184274122449,1.527
0.413052316482,0.291476745452,-0.125593871991,-1.74367814773,0.0522836583782,2.02723931415,0.0951088805817,-0.17925092321,-0.617437675975,-0.00799699771961,-0.860894723349,-0.0705886135575,0.274433495872,-0.176661010918,0.573757990182,0.819008775291,0.00267237727694,0.0,0.818972785899,-0.573694281354,-0.011798067606,0.0,-0.00812974986225,0.0089580122906,-0.999926827914,0.0,0.607562084034,0.190198968511,0.303964036339,1.0,-0.144094285714,-0.189381061224,1.544
0.410035152904,0.281183351213,-0.12570799888,-1.75842736758,0.0510081075715,2.03177391191,0.0919488866795,-0.176996372121,-0.623976191071,-0.00406247300541,-0.89152881833,-0.0701428594487,0.264252176853,-0.187889466169,0.573730702619,0.819027860112,0.00268181531631,0.0,0.818992247395,-0.573667243166,-0.0117617909191,0.0,-0.00809492070065,0.00894465873346,-0.999927230022,0.0,0.605104193482,0.186945812786,0.303968766561,1.0,-0.14798,-0.194488,1.561
0.407013688553,0.271242415435,-0.125773652991,-1.77251062681,0.0497898364557,2.03600583264,0.0888868311838,-0.187624637344,-0.633908966032,-0.00404427476054,-0.894448955533,-0.0717028942907,0.274612559643,-0.199249148087,0.573730494217,0.819027870576,0.00272288953269,0.0,0.818992733455,-0.573666822392,-0.0117484610177,0.0,-0.00806044081242,0.00897064980007,-0.999927275724,0.0,0.60271923907,0.183795565097,0.304007917519,1.0,-0.151637142857,-0.199294530612,1.577
0.403631485629,0.260615928438,-0.125946940897,-1.78767087063,0.0484402688197,2.04051145954,0.0855794376153,-0.202323442529,-0.621117163341,-0.00406314521729,-0.895099792466,-0.0757813110388,0.260580315547,-0.198958351902,0.573874779805,0.818927065821,0.00263531216018,0.0,0.818891025731,-0.573811665414,-0.0117646722838,0.0,-0.0081223920754,0.00890965373275,-0.999927319767,0.0,0.600139722194,0.18027974176,0.303971341985,1.0,-0.155522857143,-0.204401469388,1.594
0.400125993029,0.249723008812,-0.126073537061,-1.80291425674,0.0470390500555,2.04501533082,0.0821776277754,-0.208599459266,-0.633285423718,-0.00603633733182,-0.909944072344,-0.0860137475063,0.2623852952,-0.209535614603,0.573967966736,0.818861569884,0.00269247640159,0.0,0.818826746155,-0.573905159668,-0.0116779445163,0.0,-0.00801754824315,0.00890760925979,-0.99992818413,0.0,0.597512004897,0.176729516286,0.304029482264,1.0,-0.159408571429,-0.209508408163,1.611
0.396518656129,0.238736361306,-0.126091680864,-1.81843423926,0.0456897000049,2.04946461674,0.0785582144056,-0.216849625056,-0.667521767699,-0.000351273176275,-0.899894346525,-0.0756194064092,0.262702561929,-0.204148598743,0.57387354653,0.81892805019,0.00259771163461,0.0,0.818891126504,-0.573810140118,-0.0118318608853,0.0,-0.00819900734416,0.00891740666281,-0.999926625377,0.0,0.594899743377,0.173399359293,0.303962045763,1.0,-0.163065714286,-0.214314938775,1.627
0.393050917029,0.228123574582,-0.126112559969,-1.83304427212,0.0443438802283,2.05378273164,0.0751340592685,-0.216142201908,-0.656496935079,0.00061745363323,-0.927166414153,-0.0924566368319,0.258891880107,-0.220699978766,0.573808833686,0.818972553246,0.00285066912692,0.0,0.818939174842,-0.573744815706,-0.0116730998953,0.0,-0.00792454436476,0.0090328263689,-0.999927802216,0.0,0.592143605071,0.169830135769,0.304075924542,1.0,-0.166951428571,-0.219421877551,1.644
0.388910807833,0.215979666105,-0.126169884707,-1.84977236743,0.0427677265877,2.05845620675,0.0710553058241,-0.228553021589,-0.688765873202,-0.00942908776364,-0.925055058541,-0.0830329661161,0.266218961686,-0.225178336331,0.573717241389,0.819036614006,0.00288075553083,0.0,0.819003556376,-0.573653052881,-0.011666038998,0.0,-0.00790251102277,0.00905253102596,-0.999927798394,0.0,0.589095186241,0.165880317262,0.304122441388,1.0,-0.171065714286,-0.22482922449,1.662
0.385314702664,0.205792972329,-0.12627465207,-1.86381871719,0.041468702566,2.06234136666,0.0676110005304,-0.23561267864,-0.689017670237,-0.00771994929225,-0.950375177552,-0.0890654490978,0.255061179446,-0.239362364952,0.573757524868,0.819008392892,0.0028813069617,0.0,0.818975036079,-0.573692978527,-0.0117048523313,0.0,-0.00793353946918,0.00907564030965,-0.999927343213,0.0,0.586512096829,0.162489251995,0.304121070585,1.0,-0.174494285714,-0.229335346939,1.677
0.381077421162,0.193998774339,-0.126392421529,-1.87983831669,0.0399151980597,2.06670621259,0.0635311653096,-0.257539638801,-0.695374358558,-0.0049437454484,-0.952161386865,-0.092422038819,0.25773341817,-0.239413197125,0.57373843901,0.81902152672,0.00294775708986,0.0,0.81898914754,-0.573673800685,-0.0116573375922,0.0,-0.00785671068503,0.00910261899296,-0.999927704599,0.0,0.583532564682,0.158564023932,0.304184253954,1.0,-0.17838,-0.234442285714,1.694
0.376280745349,0.181451949902,-0.126584600154,-1.89699756716,0.0383241714938,2.0712261887,0.0590249556738,-0.267858514399,-0.699821088648,-0.0126375128486,-0.936438495508,-0.090500051416,0.255004667536,-0.256820093636,0.573873241277,0.818927335266,0.00287565673906,0.0,0.818893139916,-0.573807826405,-0.0118046878767,0.0,-0.00801726160069,0.00912942584016,-0.999926185826,0.0,0.580296619089,0.154213164674,0.304144318208,1.0,-0.182494285714,-0.239849632653,1.712
0.371911090123,0.170108924943,-0.126681045646,-1.91230324799,0.0367710635708,2.07526890442,0.0549883372314,-0.276117594978,-0.694771793414,-0.0028079234702,-0.971497221276,-0.0920134456053,0.245097813545,-0.257960950306,0.573917393893,0.818896362176,0.00288442429835,0.0,0.818862461969,-0.573852148285,-0.0117782506255,0.0,-0.00799008734375,0.00912186531006,-0.999926472336,0.0,0.577371410601,0.150343359188,0.304160734596,1.0,-0.186151428571,-0.244656163265,1.728
0.366598729048,0.156347661318,-0.126715403722,-1.9306130529,0.0349059155484,2.08004542762,0.0499253851558,-0.283258084161,-0.728576355534,0.00218666953305,-0.952349892118,-0.102110329132,0.263305759457,-0.262448151399,0.573750042314,0.819013119804,0.00302414213571,0.0,0.818981143424,-0.573684458303,-0.0116951236963,0.0,-0.00784370741773,0.00918696997745,-0.999927035256,0.0,0.573802052033,0.145756939329,0.304238959907,1.0,-0.190494285714,-0.250363918367,1.747
0.361895986211,0.144787436841,-0.126800501885,-1.94627332338,0.0332516080231,2.0838854579,0.0455859398741,-0.299134252574,-0.713327097778,-0.0021764272852,-0.975734273424,-0.106028210128,0.229177307667,-0.265271374371,0.573724757566,0.81903177658,0.00275652134611,0.0,0.818995965272,-0.57365972567,-0.0118690738287,0.0,-0.00814000006525,0.00906733593984,-0.999925759153,0.0,0.570671042188,0.141732192544,0.304119520524,1.0,-0.194151428571,-0.25517044898,1.763
0.357007479096,0.132902104226,-0.126953685715,-1.96177493864,0.0316748063032,2.08782092343,0.0410277512436,-0.309471929794,-0.747202231603,-0.0132164876099,-0.964984586458,-0.102850451862,0.241698116186,-0.291998537998,0.573733096849,0.8190250912,0.00299674253919,0.0,0.818992503941,-0.573667311471,-0.01174057665,0.0,-0.00789684566465,0.00919044402057,-0.999926585089,0.0,0.567600989471,0.137635743685,0.304232429052,1.0,-0.197808571429,-0.259976979592,1.779
0.351540825492,0.120202424795,-0.12715664846,-1.97842330937,0.0298709692761,2.09182777984,0.0361018031743,-0.33143261145,-0.748325589325,-0.00763862949839,-0.969219845913,-0.111285312213,0.248716474993,-0.286043370701,0.573853908493,0.818940505857,0.00298101913289,0.0,0.818907927501,-0.573788409365,-0.0117223911685,0.0,-0.00788961862641,0.00916829670698,-0.999926845451,0.0,0.56423668516,0.133114359723,0.304251442448,1.0,-0.201694285714,-0.265083918367,1.796
0.345834182178,0.107338078364,-0.127293915925,-1.99518675004,0.0280405131805,2.09579446543,0.0309207308814,-0.335330843569,-0.766964774521,-0.00054679042518,-0.991164253011,-0.105779718977,0.227148458996,-0.305778782426,0.573872181527,0.818927680284,0.00298674309791,0.0,0.818895223924,-0.573806715679,-0.011713760182,0.0,-0.007879060902,0.0091682072839,-0.999926929518,0.0,0.560793637928,0.128534298936,0.304260297526,1.0,-0.20558,-0.270190857143,1.813
0.340073069365,0.094271755086,-0.127387521418,-2.0119408226,0.026202110542,2.09967407979,0.0256061293895,-0.341223325812,-0.788533351149,-0.00288213307589,-1.00100665762,-0.102053342388,0.216126054621,-0.313869082975,0.573758402586,0.819006946038,0.00310881082962,0.0,0.818976111457,-0.573692584489,-0.0116487881961,0.0,-0.00775708607396,0.00922980961441,-0.999927316474,0.0,0.557281061532,0.124000837745,0.304331376805,1.0,-0.209465714286,-0.275297795918,1.83
0.333992628745,0.0811741344633,-0.1275172603,-2.02883202149,0.0244095087166,2.1033133988,0.0200651304129,-0.366273001111,-0.809339739228,-0.00928259393995,-0.967786329816,-0.103623051836,0.215508962103,-0.337099679172,0.573742257519,0.819018594535,0.0030183844784,0.0,0.818985276389,-0.573675216639,-0.0118578992307,0.0,-0.00798042124031,0.00927556890376,-0.999925135547,0.0,0.553655294311,0.119312956705,0.304285978252,1.0,-0.213351428571,-0.280404734694,1.847
0.327648476815,0.0678651810446,-0.127691491946,-2.04574158488,0.02246517701,2.10706538703,0.0143891801828,-0.378890502297,-0.77022377041,-0.0171959496688,-1.00253221968,-0.111241073898,0.205434679012,-0.337508147253,0.573776489139,0.818994357958,0.00308691522163,0.0,0.818962223039,-0.573709540155,-0.0117893032648,0.0,-0.00788453194753,0.00929267090165,-0.999925737454,0.0,0.550028822686,0.114500584155,0.304308796884,1.0,-0.217237142857,-0.285511673469,1.864
0.32174261005,0.0559287245808,-0.12790380424,-2.06064041215,0.0207012277963,2.11015951867,0.00918403597807,-0.399358831279,-0.800219282744,-0.0108673203191,-0.977410109544,-0.113417107446,0.207653165245,-0.346781602372,0.573899573017,0.818907901266,0.003142647919,0.0,0.818876799942,-0.573832781446,-0.0117248606059,0.0,-0.00779837673784,0.00930251306885,-0.999926321571,0.0,0.546784293892,0.110095149702,0.304382962247,1.0,-0.21998,-0.289116571429,1.879
0.314646480598,0.0417885527921,-0.127989781369,-2.07858575355,0.0186794165642,2.11374793206,0.00285537709101,-0.389023862473,-0.813389754597,0.000197484070181,-0.986744260577,-0.109234323523,0.189604452998,-0.368091020471,0.573860768733,0.818935633758,0.00299879505671,0.0,0.81890127912,-0.573792879537,-0.0119655066433,0.0,-0.00807844805057,0.00932243143403,-0.99992391258,0.0,0.542749350021,0.104967272988,0.304272585759,1.0,-0.21998,-0.289116571429,1.897
0.307711012626,0.0283789748327,-0.128112194268,-2.09505124283,0.016647883012,2.11704523498,-0.00327380698001,-0.417814014585,-0.770004139011,-0.0141430219994,-0.957105898639,-0.122308436158,0.181012843043,-0.356559584654,0.573839239471,0.818950250117,0.0031244163977,0.0,0.818918238146,-0.573771718673,-0.0118186710123,0.0,-0.00788635365198,0.00934083859699,-0.999925274288,0.0,0.539047377774,0.100058025438,0.304355569713,1.0,-0.21998,-0.289116571429,1.914
0.301056526282,0.0158188017867,-0.128243365557,-2.11035804619,0.0147792648565,2.11992555883,-0.00918009148154,-0.418370448322,-0.786472251042,-0.00623058144206,-0.929538552553,-0.11739895166,0.177659737834,-0.374333192316,0.573814882826,0.818966999612,0.00320635215282,0.0,0.81893611511,-0.573747152803,-0.0117724645224,0.0,-0.00780177473772,0.00938119354325,-0.999925559989,0.0,0.535533536235,0.0954330716967,0.304418416183,1.0,-0.21998,-0.289116571429,1.93
0.294158113328,0.00342929590039,-0.128410717135,-2.12547974107,0.0129724308309,2.12262192185,-0.0151700886898,-0.437846075085,-0.776124912568,-0.00552713409185,-0.935786563772,-0.106425582697,0.164149397589,-0.381536653195,0.573953240565,0.818870062536,0.00320081681538,0.0,0.818838348104,-0.573884601839,-0.0118730934345,0.0,-0.00788577310511,0.00943573367305,-0.999924387898,0.0,0.532007613064,0.0907327592381,0.304410113318,1.0,-0.21998,-0.289116571429,1.946
0.286432130588,-0.0104865872762,-0.128474181059,-2.14210179936,0.0108731227445,2.12563510849,-0.022043619096,-0.435309959801,-0.770641377247,-0.00250543624992,-0.933267202287,-0.113864836665,0.163312447415,-0.380662130956,0.573810308381,0.818969402061,0.0034051996855,0.0,0.818940941403,-0.57374171317,-0.0117016222634,0.0,-0.00762971238257,0.00950335188461,-0.999925734138,0.0,0.528089160427,0.0856177647606,0.304508414036,1.0,-0.21998,-0.289116571429,1.964
0.279359912226,-0.0226487859424,-0.128574901756,-2.15682278699,0.00897097145436,2.12792673264,-0.028250314353,-0.439397480222,-0.755418103575,-0.00655681067956,-0.911284480248,-0.115014945769,0.128300645129,-0.384576067723,0.573766676332,0.819000872636,0.0031809831562,0.0,0.818968723692,-0.573697925063,-0.011902407093,0.0,-0.00792331090759,0.00943451191723,-0.999924102684,0.0,0.52450279993,0.080991690617,0.304427419172,1.0,-0.21998,-0.289116571429,1.98
0.271584991426,-0.0355952107094,-0.128796631577,-2.1720145378,0.00700413408486,2.13045617359,-0.0348965274294,-0.463792203999,-0.74326124003,-0.0156156610213,-0.885684138447,-0.113404910492,0.13493617333,-0.388770624729,0.573985315857,0.818846860776,0.00337974534598,0.0,0.818817831396,-0.5739164853,-0.0117462244848,0.0,-0.00767881531619,0.00950973921787,-0.999925297537,0.0,0.520835836589,0.0759844120171,0.304516325263,1.0,-0.21998,-0.289116571429,1.997
0.263283738346,-0.0491709547616,-0.128920723383,-2.18796737515,0.00501698590036,2.13281397964,-0.0421849341714,-0.459921310342,-0.765179854423,-0.00468926627132,-0.879807397883,-0.118952503429,0.136502858966,-0.405604430907,0.573991877065,0.818842065895,0.00342681864476,0.0,0.818812625998,-0.573921615513,-0.0118578941821,0.0,-0.00774316635649,0.00961244238224,-0.999923819261,0.0,0.516856828176,0.0707940727166,0.304517911214,1.0,-0.21998,-0.289116571429,2.015
0.256275376496,-0.0603423259759,-0.128989021817,-2.20100037812,0.00324927546284,2.13473180205,-0.0483391272283,-0.475053402002,-0.735714749134,-0.00911298146372,-0.897437321358,-0.107799481524,0.118679022204,-0.416439393194,0.573908476076,0.818900470714,0.00343904829761,0.0,0.818871421159,-0.573838471207,-0.0118216527769,0.0,-0.00770744719832,0.00960086994327,-0.999924206405,0.0,0.513572781563,0.0664985565213,0.304517010502,1.0,-0.21998,-0.289116571429,2.03
0.247680631815,-0.0737741546552,-0.129155662456,-2.21646032135,0.00113648236374,2.13677336975,-0.0558642627264,-0.48285392522,-0.756631620729,-0.0117204658967,-0.85404703775,-0.123809296446,0.128631444941,-0.419187603395,0.573893643879,0.818910877152,0.00343623316924,0.0,0.818881714499,-0.573823555676,-0.0118326460433,0.0,-0.00771823961509,0.00960473378447,-0.999924086052,0.0,0.50959807271,0.0612855064782,0.304536425157,1.0,-0.21998,-0.289116571429,2.048
0.23981062021,-0.0855585526354,-0.129300947473,-2.23002900447,-0.000643656019083,2.13847759718,-0.0627001372606,-0.490847737651,-0.736850807316,-0.00320213829864,-0.852984986774,-0.111881105197,0.101137695906,-0.42700857258,0.573943479664,0.81887603252,0.00341649176324,0.0,0.818845612584,-0.573872216259,-0.0119703407687,0.0,-0.00784174643446,0.00966806446449,-0.999922514769,0.0,0.505828180188,0.0563466925955,0.304489113482,1.0,-0.21998,-0.289116571429,2.065
0.231952684565,-0.0973158720804,-0.129364505606,-2.24325183497,-0.00249198050163,2.14003719885,-0.0696405530604,-0.494665174278,-0.728251189162,-0.0049740921481,-0.804393864372,-0.120254153906,0.112793664268,-0.433561430153,0.573835592426,0.818951325527,0.00349087148846,0.0,0.818922146037,-0.573764411408,-0.0119023456635,0.0,-0.00774465304166,0.00968892808781,-0.999923069552,0.0,0.502546690144,0.0520778308994,0.304545096317,1.0,-0.21998,-0.289116571429,2.08
0.222841869677,-0.110401966438,-0.129528926139,-2.25802739557,-0.00457646822154,2.14159126317,-0.0775411454267,-0.510934831978,-0.724640257151,-0.00935789986983,-0.802076740602,-0.117804957779,0.0836738196089,-0.444603606295,0.573882026793,0.818919168891,0.00340015408946,0.0,0.818888206611,-0.573810428192,-0.0120185054241,0.0,-0.00789129253106,0.00968173673975,-0.999921992695,0.0,0.498547977996,0.0468607481037,0.304504368943,1.0,-0.21998,-0.289116571429,2.098
0.212958435206,-0.124173101868,-0.12971686024,-2.27316450958,-0.0066966771835,2.14314431909,-0.0861351604007,-0.523145410289,-0.715912380891,-0.00762110826076,-0.793014335426,-0.10536816122,0.0789211773297,-0.452674038229,0.573967266812,0.818858680669,0.00357555899207,0.0,0.818830102828,-0.573895131594,-0.0119326248575,0.0,-0.00771928616963,0.00977689964811,-0.999922409417,0.0,0.4944115406,0.0413312131771,0.30458236615,1.0,-0.21998,-0.289116571429,2.117
0.205655655992,-0.134203973763,-0.12980079581,-2.28426498254,-0.00830912685727,2.14410132968,-0.0925908153204,-0.526321800682,-0.70664292472,-0.0128869371903,-0.80448407677,-0.120702748667,0.0659121024255,-0.46882941318,0.57386325255,0.818931898515,0.00350140954011,0.0,0.818901915477,-0.573790853983,-0.0120189689274,0.0,-0.00783379109646,0.00976474358179,-0.99992163768,0.0,0.491294307857,0.0373278799016,0.304552660742,1.0,-0.21998,-0.289116571429,2.131
0.196017853991,-0.147045059716,-0.129976263322,-2.29808504,-0.0103231922138,2.14534969654,-0.101025521497,-0.540414957252,-0.706218740617,-0.0137613958056,-0.775857459817,-0.107777843426,0.0660290867269,-0.471800304497,0.573890471695,0.81891189334,0.00371272739333,0.0,0.818885335969,-0.573818165538,-0.0118434089285,0.0,-0.00756842372287,0.00983730695395,-0.99992297021,0.0,0.487404013374,0.0321219140202,0.304646066296,1.0,-0.21998,-0.289116571429,2.149
0.186741743741,-0.158999794414,-0.130126610361,-2.31111859495,-0.0122953961797,2.14619458408,-0.109150622533,-0.544544173212,-0.710253606121,-0.000239418721845,-0.760026102188,-0.115360828,0.0386986502602,-0.478018099624,0.573864527778,0.81893080787,0.00354719327089,0.0,0.818901396809,-0.573791926748,-0.0120030830847,0.0,-0.00779449373417,0.00979313367872,-0.999921667132,0.0,0.483610254133,0.0271969473641,0.304582452316,1.0,-0.21998,-0.289116571429,2.166
0.177944348467,-0.170269732137,-0.130235203203,-2.32295712805,-0.0139504862223,2.14700619479,-0.116933519012,-0.5544093097,-0.693886534409,-0.0113995043856,-0.739782295253,-0.106529334059,0.0507159650124,-0.49066623326,0.5738372685,0.818948718461,0.00381217954189,0.0,0.818922762075,-0.573763717425,-0.0118934109088,0.0,-0.00755294873409,0.00994695453872,-0.999922002489,0.0,0.480144947413,0.0226501648604,0.304685464644,1.0,-0.21998,-0.289116571429,2.182
0.167156350986,-0.183407320466,-0.130456581071,-2.33703328472,-0.0161368685699,2.14771083887,-0.126370980285,-0.576335945801,-0.678917824246,-0.0102267743478,-0.733115379792,-0.110532342955,0.0353976013332,-0.509433145726,0.573878816674,0.818920322016,0.00365470417319,0.0,0.818891617395,-0.573804930537,-0.0120485498501,0.0,-0.00776986464278,0.00990740489032,-0.999920733124,0.0,0.475911120202,0.0171061006034,0.304607249762,1.0,-0.21998,-0.289116571429,2.201
0.158509084751,-0.193849304622,-0.130584493929,-2.34771621901,-0.0177591466206,2.14826476471,-0.133988095258,-0.570869279967,-0.697030546634,-0.00826252509866,-0.706728347162,-0.117185634829,0.0407790227894,-0.508039925621,0.573882886389,0.818916316437,0.00390464915813,0.0,0.818891779151,-0.573809296171,-0.0118276188883,0.0,-0.00744544945501,0.00998534541165,-0.999922426071,0.0,0.47267512586,0.0127774493904,0.304734125693,1.0,-0.21998,-0.289116571429,2.216
0.147998706815,-0.206079105646,-0.130750029452,-2.36055443277,-0.0197065155583,2.14864399951,-0.143320777323,-0.588933916476,-0.691165204687,-0.00662286743254,-0.718340072295,-0.111252855801,0.0129306538153,-0.514168015667,0.573832304817,0.818952174586,0.00381688220636,0.0,0.818925307083,-0.573757460534,-0.0120193511816,0.0,-0.00765345649813,0.0100230263982,-0.999920478611,0.0,0.46866356319,0.00759662659812,0.304667225302,1.0,-0.21998,-0.289116571429,2.234
0.138997326214,-0.216244278739,-0.13096389975,-2.37084443244,-0.0212749495698,2.14892417112,-0.15120330569,-0.606089286266,-0.676885787878,-0.00655399059099,-0.675783019169,-0.107565596653,0.0229892678809,-0.521774271084,0.573982015761,0.818846393288,0.00399708426508,0.0,0.81882199593,-0.573906656937,-0.0119346137303,0.0,-0.00747880613047,0.0101233490679,-0.999920789494,0.0,0.465413153844,0.00320836511146,0.304743254922,1.0,-0.21998,-0.289116571429,2.249
0.127035311323,-0.229597568104,-0.131078677047,-2.38451422223,-0.023452835647,2.14914056539,-0.16192519014,-0.611238913033,-0.667670557228,-0.00700885774182,-0.677246556428,-0.100640054079,0.00492806966112,-0.548518111538,0.573783033885,0.818986032172,0.00395677068806,0.0,0.818960844107,-0.573707492971,-0.0119831227093,0.0,-0.00754412637683,0.0101163475372,-0.999920369664,0.0,0.460994111726,-0.00245870203424,0.304712698337,1.0,-0.21998,-0.289116571429,2.269
0.118980299131,-0.238191950827,-0.131223062076,-2.39321050017,-0.0248926274384,2.14917379903,-0.169037289895,-0.627434460987,-0.665408814409,-0.00828461334791,-0.663479160168,-0.11171361937,0.0036301268968,-0.553493113514,0.573803411509,0.818971943811,0.00391753663807,0.0,0.818946170614,-0.57372791237,-0.0120082932041,0.0,-0.00758700118348,0.010098845669,-0.999920222182,0.0,0.458124153051,-0.0062452614685,0.30469857385,1.0,-0.21998,-0.289116571429,2.282
0.107656813608,-0.250031505791,-0.131406598281,-2.40486651802,-0.0267234994483,2.14922893002,-0.179088504413,-0.621201976856,-0.651088786959,-0.00392470817268,-0.656130044798,-0.104341931743,-0.00308699627961,-0.565546198164,0.573860101385,0.818931046345,0.00415599223173,0.0,0.818908974672,-0.573784563659,-0.0118369172388,0.0,-0.0073091155537,0.0101963101745,-0.999921302948,0.0,0.454234244209,-0.011462366991,0.304787774557,1.0,-0.21998,-0.289116571429,2.3
0.0969573685388,-0.261037867877,-0.13157306905,-2.41592768709,-0.0284748903367,2.14910504461,-0.188737215064,-0.641425273445,-0.645758547267,-0.00541593002497,-0.642916645931,-0.103954483758,-0.00862594362586,-0.567453478999,0.573759472422,0.819001721529,0.00412247992457,0.0,0.818978239766,-0.573682718599,-0.0119803202091,0.0,-0.00744705076403,0.0102502409036,-0.999919733777,0.0,0.450445823654,-0.0163025177809,0.304713350203,1.0,-0.21998,-0.289116571429,2.317
0.0864650648859,-0.27132566971,-0.131815211739,-2.42577726263,-0.0301746796614,2.14899169399,-0.197995144898,-0.660348088384,-0.641970637076,-0.0129238898808,-0.618204680513,-0.104859672172,-0.00775539693423,-0.591585934639,0.573911697862,0.818893945483,0.00433774252133,0.0,0.81887482839,-0.573836402016,-0.011685292113,0.0,-0.00707999671313,0.010258591509,-0.999922314456,0.0,0.447020555101,-0.0210270893439,0.304828432295,1.0,-0.21998,-0.289116571429,2.333
0.0754460107784,-0.282072812729,-0.131904145289,-2.43630504271,-0.0319112547536,2.14861923736,-0.208008295231,-0.647374786618,-0.628547309204,-0.00311896849611,-0.607144674002,-0.0946996677486,-0.0310472984607,-0.61036249736,0.573708087777,0.81903686199,0.00428901167468,0.0,0.819016586184,-0.57363222372,-0.0117749890029,0.0,-0.00718397305212,0.0102683758224,-0.999921472411,0.0,0.443255996584,-0.0258227073259,0.304785394181,1.0,-0.21998,-0.289116571429,2.35
0.0640187342553,-0.29270112085,-0.132157325187,-2.44653039081,-0.0335406868457,2.14815565163,-0.218252959866,-0.687991986205,-0.623516757757,-0.0198349568449,-0.590822082591,-0.100940546957,-0.0233274967958,-0.609665919579,0.573822802449,0.818955958315,0.00439051606418,0.0,0.818936184818,-0.573745404866,-0.0118525310512,0.0,-0.00718780089615,0.0103970052335,-0.999920115709,0.0,0.439509360346,-0.0307768888343,0.304779582698,1.0,-0.21998,-0.289116571429,2.367
0.0531207099608,-0.302620376753,-0.132301726106,-2.4557865018,-0.0352269017034,2.14774420535,-0.228018715989,-0.672261479241,-0.615658083269,-0.00467501800587,-0.585733925378,-0.102106231328,-0.024894166173,-0.613714658307,0.573803773551,0.8189686387,0.00451056393028,0.0,0.818952116821,-0.573728490941,-0.0115670193981,0.0,-0.00688531965702,0.0103313341683,-0.999922924983,0.0,0.436064240883,-0.0354183311424,0.304874316857,1.0,-0.21998,-0.289116571429,2.383
0.0415118920352,-0.312955970628,-0.132513079683,-2.46567879868,-0.0368774608165,2.14699914059,-0.238553105023,-0.692645848647,-0.604973391316,-0.0171769444274,-0.573915883336,-0.0955590713841,-0.0423918487875,-0.617355735771,0.573797729303,0.818973332027,0.00442653089213,0.0,0.818954118473,-0.57372034653,-0.0118263568099,0.0,-0.00714601758799,0.0104112628372,-0.999920266841,0.0,0.432032862827,-0.0405709781523,0.304791344772,1.0,-0.21998,-0.289116571429,2.401
0.0287686480432,-0.323770439025,-0.132747303103,-2.47563243096,-0.0386278320602,2.14630614219,-0.249980680953,-0.701049373616,-0.601255229475,-0.00750562246703,-0.543513503256,-0.0931146989298,-0.0316963769972,-0.634029245993,0.573901289643,0.818899852642,0.00459216624875,0.0,0.818883767425,-0.573824810426,-0.0116279529368,0.0,-0.00688716261857,0.0104339484706,-0.999921846801,0.0,0.42835395468,-0.0455522423927,0.304870892524,1.0,-0.21998,-0.289116571429,2.418
0.0182527355383,-0.332611315657,-0.132882287688,-2.48381278048,-0.0399987390312,2.14563908646,-0.259690810895,-0.707706865021,-0.580507040593,-0.00972016117522,-0.553993974173,-0.0867509600582,-0.0504000184211,-0.646204452447,0.573756906848,0.819000527312,0.00467921016742,0.0,0.818985417415,-0.573679952157,-0.0116166026246,0.0,-0.00682976610427,0.0104975129917,-0.999921575183,0.0,0.42507819608,-0.0497983995551,0.304874520186,1.0,-0.21998,-0.289116571429,2.433
0.00512274685224,-0.343085189663,-0.133157340882,-2.49347945047,-0.0417610774226,2.1446035513,-0.27145935337,-0.733419945301,-0.586256076566,-0.00230852351028,-0.534545316851,-0.0979211877706,-0.0615457051604,-0.652214707129,0.573935994169,0.818875448151,0.00460672489697,0.0,0.818858636902,-0.573858081093,-0.0117551025881,0.0,-0.00698249302501,0.0105191354861,-0.999920293113,0.0,0.421059249879,-0.0550831052437,0.304834153967,1.0,-0.21998,-0.289116571429,2.451
-0.00721272404894,-0.352834182232,-0.133310844913,-2.5021343225,-0.0432812634536,2.14366509565,-0.282883441869,-0.729875547723,-0.573882521075,-0.0102639858733,-0.496803233912,-0.0829199906553,-0.0526198907216,-0.680616882079,0.573788079703,0.818978123587,0.00477698408708,0.0,0.818964255937,-0.573710786101,-0.0115856942087,0.0,-0.00674795272668,0.0105601157655,-0.999921471461,0.0,0.417388576623,-0.059926511,0.304924399695,1.0,-0.21998,-0.289116571429,2.468
-0.0191970811964,-0.361766169629,-0.133583643876,-2.51022248029,-0.044815891909,2.14269834925,-0.293759352,-0.754978102526,-0.558159454936,-0.0166739260162,-0.512093743535,-0.0953691620931,-0.0643584298062,-0.682539315831,0.57390111582,0.818899099099,0.0047456988317,0.0,0.81888461877,-0.573823575457,-0.011628942052,0.0,-0.00679986721676,0.0105602459155,-0.999921118395,0.0,0.413848798517,-0.0646251034496,0.304896846656,1.0,-0.21998,-0.289116571429,2.484
-0.0318906108006,-0.371116145312,-0.13370357485,-2.51865541031,-0.0462686279705,2.14155381025,-0.305555492991,-0.741671131676,-0.547741846025,-0.00915748947069,-0.493994539242,-0.0879334889599,-0.0683771023589,-0.702236923245,0.573738939445,0.819012784319,0.00473660094076,0.0,0.818997102757,-0.573659783298,-0.0117875189304,0.0,-0.00693706479014,0.0106424259569,-0.999919304695,0.0,0.410077909977,-0.0694357306634,0.3048481784,1.0,-0.21998,-0.289116571429,2.501
-0.0457282658121,-0.380804133943,-0.133973725308,-2.52707434264,-0.047909609424,2.14033313679,-0.318170073011,-0.777148536395,-0.53413181032,-0.00958434862689,-0.45312912322,-0.0888692437858,-0.0595598370007,-0.701230076731,0.573864512478,0.818924440261,0.00479889188119,0.0,0.818910247459,-0.573786186527,-0.0116690042018,0.0,-0.00680262583391,0.0106264937382,-0.999920397788,0.0,0.406155257074,-0.0747012648614,0.304906553005,1.0,-0.21998,-0.289116571429,2.519
-0.0572705505321,-0.388676927426,-0.13411052011,-2.53394077641,-0.0491680717759,2.13935244855,-0.328935133575,-0.771995376375,-0.516490477553,-0.0166408744831,-0.463396157464,-0.0844138256793,-0.0686457745565,-0.72128935051,0.573762492389,0.818995471127,0.00487519258849,0.0,0.818982485959,-0.573684291132,-0.0116089922763,0.0,-0.00671101990231,0.0106537068051,-0.99992072723,0.0,0.402675291146,-0.0792704373287,0.304918323879,1.0,-0.21998,-0.289116571429,2.535
-0.0714962113092,-0.397965795747,-0.134364346969,-2.54207262367,-0.0507559221137,2.13790376459,-0.342027048538,-0.787505309878,-0.513495277659,-0.0086770654788,-0.43910593736,-0.0929152291677,-0.0850101161685,-0.720496209381,0.573813886788,0.818959988289,0.0047862106454,0.0,0.818944963128,-0.573734571715,-0.011770109959,0.0,-0.00689336731805,0.0106737011458,-0.999919273537,0.0,0.398873282343,-0.0842290533807,0.304877712141,1.0,-0.21998,-0.289116571429,2.552
-0.0848783072207,-0.406511065987,-0.134517322151,-2.54944932269,-0.052085342156,2.13660337663,-0.354600089696,-0.786042205619,-0.494224750855,-0.0153477095177,-0.422862845994,-0.0786624060258,-0.0703050091344,-0.751513455519,0.573673565093,0.81905797748,0.00483912605841,0.0,0.819043035729,-0.573593158203,-0.0118381327999,0.0,-0.00692056075166,0.0107548834093,-0.999918215817,0.0,0.395139432992,-0.089045552586,0.304863253326,1.0,-0.21998,-0.289116571429,2.569
-0.0978969418264,-0.414354213679,-0.134786442817,-2.55595226663,-0.0533196342324,2.13546320294,-0.366601680196,-0.829783779699,-0.48174988508,-0.0188613157404,-0.40800831587,-0.0777842570615,-0.0721756728044,-0.755913056712,0.573865153314,0.818922475038,0.00505099894147,0.0,0.818911304407,-0.573785647164,-0.0116212531355,0.0,-0.00661884211751,0.0108055603845,-0.999919712174,0.0,0.391686547984,-0.0937537288377,0.304952675197,1.0,-0.21998,-0.289116571429,2.585
-0.111677783822,-0.422498596799,-0.134918531164,-2.56287520089,-0.0547152893255,2.13404235659,-0.379596808281,-0.819567817941,-0.471492975973,-0.015993849515,-0.399520925996,-0.0826487804772,-0.0893054146817,-0.769581675142,0.573669050769,0.819060326507,0.00497479975411,0.0,0.819047810718,-0.57358924144,-0.0116966988262,0.0,-0.00672693985679,0.0107848406017,-0.999919214484,0.0,0.387924471706,-0.0985984121505,0.304930789005,1.0,-0.21998,-0.289116571429,2.602
-0.125761878098,-0.430369643787,-0.135198998294,-2.56955761655,-0.0560226322095,2.13261059542,-0.392699824364,-0.836806301224,-0.463287748286,-0.0174239390926,-0.384875254897,-0.0835152290323,-0.06952947829,-0.772512359885,0.573788593215,0.818976574457,0.00497671460997,0.0,0.818962994361,-0.573707019597,-0.0118581800263,0.0,-0.00685652756037,0.010880043009,-0.999917302928,0.0,0.38413497546,-0.103536186069,0.304885179567,1.0,-0.21998,-0.289116571429,2.619
-0.139011296632,-0.437500505663,-0.135315207404,-2.57553344799,-0.0572121145822,2.13131857461,-0.405250840458,-0.831989406632,-0.448348177529,-0.00725015731225,-0.368998719603,-0.074874307487,-0.0878652129235,-0.789419736922,0.573634967955,0.819084267831,0.00496312723609,0.0,0.819070268759,-0.573553085558,-0.0118953681417,0.0,-0.0068968247499,0.0108889587281,-0.999916928743,0.0,0.380639035468,-0.108082784553,0.304866119378,1.0,-0.21998,-0.289116571429,2.635
-0.154386408271,-0.445378616232,-0.135571806733,-2.581739949,-0.0585110677035,2.1299070383,-0.419592801538,-0.854996272568,-0.439509251878,-0.0142876380256,-0.339750065469,-0.0711186572649,-0.0726472034536,-0.803590908569,0.573793511757,0.818972057822,0.00514988081725,0.0,0.818962250885,-0.573713850209,-0.0115756902018,0.0,-0.00652573451407,0.010859823003,-0.999919736296,0.0,0.376756331953,-0.113384577961,0.305004290098,1.0,-0.21998,-0.289116571429,2.653
-0.169650840339,-0.452900155984,-0.135778706162,-2.58800765701,-0.0597086301208,2.12835235032,-0.434140204006,-0.860596161931,-0.407190235875,-0.0190564450964,-0.349671617273,-0.0674339101477,-0.0965164376968,-0.811018282491,0.573695214242,0.819040799151,0.00516888602401,0.0,0.819029801879,-0.573613132195,-0.0117858011546,0.0,-0.00668823986349,0.0109951411051,-0.999917183731,0.0,0.372767567334,-0.118503314601,0.304946318111,1.0,-0.21998,-0.289116571429,2.671
-0.181788487019,-0.458575751038,-0.135958686483,-2.59265218715,-0.0607013990605,2.12712815381,-0.445603410053,-0.860284710914,-0.406939320515,-0.00176954158791,-0.319946723103,-0.0711346398886,-0.0885897908335,-0.829665975975,0.573709354841,0.819031074711,0.0051402069208,0.0,0.81901907269,-0.573626337614,-0.0118882406789,0.0,-0.00678841116706,0.0110305347678,-0.99991611887,0.0,0.3696506984,-0.122557944212,0.304924395961,1.0,-0.21998,-0.289116571429,2.685
-0.201055576217,-0.467008410428,-0.136263817965,-2.5995100747,-0.0621533315715,2.12542505312,-0.463875149527,-0.889195580431,-0.373170749149,-0.0133930040613,-0.302357511862,-0.0549971118045,-0.0763327533101,-0.840343343939,0.573760125555,0.818995135781,0.00519930674275,0.0,0.818983721302,-0.573676591013,-0.0118987422598,0.0,-0.00676242166244,0.0110853848653,-0.999915688394,0.0,0.364819241137,-0.128945026302,0.304901902558,1.0,-0.21998,-0.289116571429,2.707
-0.212499362032,-0.471836709965,-0.136343491925,-2.60325864164,-0.062946422134,2.12439005047,-0.474733523131,-0.878115053403,-0.373729782637,-0.0105890886373,-0.277548550616,-0.0588416954741,-0.0877725873523,-0.837512642925,0.573733378705,0.819013357367,0.00527991621756,0.0,0.81900366892,-0.57365068953,-0.0117738522933,0.0,-0.00661424206163,0.0110795361258,-0.999916744375,0.0,0.361791950313,-0.132957700812,0.304963083302,1.0,-0.21998,-0.289116571429,2.721
-0.226743190943,-0.477582959589,-0.136605049544,-2.60768593317,-0.0639638233646,2.12314561152,-0.488370244966,-0.900327507233,-0.356168642777,-0.024320726421,-0.27336599815,-0.0638737825112,-0.0851641036318,-0.860001728606,0.573763830178,0.818991559784,0.00535154951614,0.0,0.818983620297,-0.573682287028,-0.0116279893993,0.0,-0.006453260255,0.0110547639704,-0.999918070457,0.0,0.358516899974,-0.137338448752,0.305023606962,1.0,-0.21998,-0.289116571429,2.736
-0.241916650423,-0.483346430776,-0.136736312126,-2.61232892561,-0.0649272129412,2.12179135656,-0.502989818928,-0.901775087481,-0.340208551078,-0.00917788305191,-0.263126458213,-0.0469700343496,-0.0715827275479,-0.863459487064,0.57364546118,0.819074408385,0.00536146419184,0.0,0.81906572909,-0.573562425304,-0.0117568112654,0.0,-0.00655469502482,0.0111358473972,-0.999916510953,0.0,0.354765453151,-0.142173412332,0.304982446731,1.0,-0.219522857143,-0.288515755102,2.753
-0.25824938073,-0.488981797196,-0.136903656593,-2.61688060439,-0.0659076534017,2.12039187443,-0.518547802337,-0.904215849257,-0.299158007839,0.00120656861848,-0.242096250841,-0.0581356303554,-0.0712640981764,-0.862960424424,0.573729296082,0.819015745497,0.00535260179224,0.0,0.819005634289,-0.573644057292,-0.0119588226042,0.0,-0.00672410526114,0.0112451544047,-0.999914162771,0.0,0.350792534223,-0.147355565685,0.30491948276,1.0,-0.215408571429,-0.283108408163,2.771
-0.272561132519,-0.493644094641,-0.13695439754,-2.62056610295,-0.0666077562097,2.11932813503,-0.532328646231,-0.896216011871,-0.281564918969,-0.00227575885026,-0.218453912627,-0.0468175656348,-0.0630681967531,-0.862501359963,0.573695626634,0.819038662655,0.00545380228524,0.0,0.819029657497,-0.573609655139,-0.0119637190559,0.0,-0.00667052323617,0.0113305772671,-0.999913557333,0.0,0.347389897572,-0.151831210273,0.304906848017,1.0,-0.211751428571,-0.278301877551,2.787
-0.287789366788,-0.498287770929,-0.137013618423,-2.62416082792,-0.0674236629272,2.11815204202,-0.546850667565,-0.882814569188,-0.266063728396,0.0120467135331,-0.205018218129,-0.0439689426744,-0.071597780296,-0.848180340368,0.57376459869,0.818990320231,0.00545779789625,0.0,0.818981266344,-0.573678427757,-0.0119788899351,0.0,-0.00667970259277,0.011343115599,-0.999913353897,0.0,0.343787705921,-0.156577883942,0.304911858529,1.0,-0.207865714286,-0.273194938776,2.804
-0.303724901363,-0.502825868114,-0.137010673478,-2.62762569084,-0.068062024327,2.11699965014,-0.5620925298,-0.893507031163,-0.24747848262,-0.00292027221719,-0.183270114717,-0.0376275855089,-0.0579317787985,-0.849821514268,0.573861101171,0.818921839289,0.00558610774865,0.0,0.818914336243,-0.573774212846,-0.0119670159335,0.0,-0.00659501309716,0.0114421689577,-0.999912787483,0.0,0.340067618184,-0.161474077,0.304933740257,1.0,-0.203751428571,-0.267787591837,2.822
-0.316840636624,-0.506238655074,-0.136948080177,-2.63022182603,-0.0686109387276,2.11616539189,-0.574714718548,-0.862461483262,-0.220978519394,0.00219512079738,-0.169285144795,-0.0263689332456,-0.051244713826,-0.838194189727,0.57383767368,0.818938029986,0.00561909332246,0.0,0.818931418276,-0.573751470758,-0.0118881817237,0.0,-0.00651184643608,0.0114237585514,-0.999913543061,0.0,0.337052602826,-0.165481986015,0.304954668703,1.0,-0.200322857143,-0.263281469388,2.837
-0.331591032038,-0.509856031227,-0.136925531322,-2.63293129185,-0.0691327539857,2.11527090622,-0.588850717795,-0.867427394257,-0.205350026049,-0.000567745990956,-0.15684325079,-0.0344059130958,-0.0535864844231,-0.832081597863,0.57396575194,0.818847448621,0.00573745484248,0.0,0.818842845724,-0.57387992563,-0.0117886329758,0.0,-0.00636060433797,0.0114645661691,-0.999914049524,0.0,0.333465919733,-0.170235339284,0.304989415315,1.0,-0.196208571429,-0.257874122449,2.855
-0.346846022829,-0.51324678333,-0.136771376262,-2.635562597,-0.0696682593729,2.11429400443,-0.603667337052,-0.839609819667,-0.183261070958,0.00648699026021,-0.147158662422,-0.0284628265608,-0.0492066800723,-0.81012389606,0.573815716769,0.818952717478,0.00571984486666,0.0,0.818947305873,-0.573728945094,-0.0118808528804,0.0,-0.00644834034143,0.011501893102,-0.999913058902,0.0,0.330161488879,-0.174529935143,0.304970026522,1.0,-0.192322857143,-0.252767183674,2.872
-0.359571655234,-0.515749644502,-0.136711697528,-2.63758409298,-0.0700656865363,2.11357553929,-0.615881276787,-0.838746324234,-0.16219825781,0.00259638979858,-0.132107704039,-0.0234417133674,-0.0476212539531,-0.810448711437,0.573906923369,0.818888670091,0.00573900757006,0.0,0.818882534964,-0.573818330351,-0.0120276592008,0.0,-0.00655629233445,0.0116025533395,-0.99991119395,0.0,0.327240729211,-0.178333930985,0.304915686081,1.0,-0.188894285714,-0.248261061225,2.887
-0.374366409688,-0.518425412458,-0.136523181331,-2.63970024715,-0.0704511884521,2.11283174574,-0.630264627227,-0.828501330447,-0.142051677027,0.00909435330874,-0.112680035855,-0.0229933488968,-0.0399161205076,-0.796031291995,0.573823719663,0.818946816638,0.0057616986526,0.0,0.818940458152,-0.573734132477,-0.012100336065,0.0,-0.00660397566964,0.0116621725172,-0.999910186586,0.0,0.323892614043,-0.182708219253,0.304881271124,1.0,-0.18478,-0.242853714286,2.905
-0.38833143592,-0.52068878443,-0.136414821,-2.64139635307,-0.0708084559339,2.11218185493,-0.643684405545,-0.814803769518,-0.127967979729,0.00979482355916,-0.0975492542963,-0.0164809453037,-0.0381740127309,-0.78507603417,0.573942543612,0.818863254749,0.0058028919798,0.0,0.818857492478,-0.573852865577,-0.0120848079109,0.0,-0.00656592536209,0.0116879519964,-0.999910136163,0.0,0.320757940867,-0.186860939067,0.304890049677,1.0,-0.180894285714,-0.23774677551,2.922
-0.400997078389,-0.522573437825,-0.136212989338,-2.64279551994,-0.0710297764313,2.11162045084,-0.656154966939,-0.791003548733,-0.115440520797,0.0124213295639,-0.0815134781535,-0.014066368,-0.0383984487204,-0.773935998359,0.573783567891,0.818974244333,0.00586099296546,0.0,0.818969248155,-0.573693695524,-0.0120690179446,0.0,-0.00652192570452,0.0117252029261,-0.999909988,0.0,0.31793262965,-0.190571569734,0.30490337143,1.0,-0.177237142857,-0.232940244898,2.938
-0.416102191055,-0.52455132073,-0.136059712799,-2.64422419764,-0.0713316364877,2.11099844866,-0.670686410649,-0.783904434416,-0.0982357058785,0.0227112970624,-0.0695827608244,-0.00931071990176,-0.0307178517602,-0.758224999942,0.573932717745,0.818869389486,0.00590807629817,0.0,0.818865177212,-0.573842927268,-0.0120359160676,0.0,-0.00646565992873,0.0117459501101,-0.999910109909,0.0,0.314559891989,-0.195020206082,0.304929889557,1.0,-0.172894285714,-0.227232489796,2.957
-0.428368738348,-0.525899070719,-0.135886899749,-2.64522601231,-0.0715094444759,2.11061018531,-0.682725537845,-0.773505642062,-0.0836667842044,0.0117639911534,-0.0593593075886,-0.0140958954378,-0.0247076618417,-0.747116931853,0.573862690396,0.818918110687,0.00595713533869,0.0,0.818914760798,-0.573773120701,-0.0119903048059,0.0,-0.00640115686656,0.0117594010404,-0.999910366822,0.0,0.311846739281,-0.198611299746,0.304939262565,1.0,-0.169237142857,-0.222425959184,2.973
-0.440632025233,-0.52706654526,-0.13576347403,-2.64610366624,-0.0716906821822,2.11022726373,-0.694546446178,-0.754573123164,-0.0666632543986,0.0162332564157,-0.049338047616,-0.0106294170708,-0.0254607353405,-0.726348739316,0.574009495448,0.818814897545,0.00600079945465,0.0,0.818812022143,-0.573919542887,-0.0119990661013,0.0,-0.00638116085757,0.0118013318268,-0.999910000627,0.0,0.309115372491,-0.202201585057,0.304937785051,1.0,-0.16558,-0.217619428571,2.989
-0.453101506581,-0.528050757712,-0.135535375103,-2.64687137412,-0.0717965971444,2.10990897555,-0.706849288044,-0.735447047578,-0.0557520493989,0.0142552682458,-0.0409166761897,-0.00467920206175,-0.0191677833631,-0.715220165498,0.573895365059,0.81889458002,0.00604348243219,0.0,0.818892130503,-0.573805018129,-0.0120094409231,0.0,-0.00636680811519,0.0118413506699,-0.999909619,0.0,0.306360561955,-0.205810867911,0.304927195146,1.0,-0.161694285714,-0.212512489796,3.006
-0.466328836132,-0.528841957893,-0.135359521633,-2.64750095854,-0.0719327275483,2.10959491506,-0.71962902991,-0.723192869563,-0.038296736981,0.0216128439712,-0.0244887401359,-0.0101148421237,-0.0161206656032,-0.699892968008,0.574043481703,0.818790566864,0.00606923639185,0.0,0.818788061465,-0.573952266983,-0.0120686589206,0.0,-0.00639837528146,0.0118975823514,-0.999908750001,0.0,0.30342677146,-0.20965728793,0.304907603624,1.0,-0.15758,-0.207105142857,3.024
-0.476842181437,-0.529294596178,-0.135143729628,-2.64787346485,-0.0719746445692,2.10941598223,-0.730072031731,-0.696361256855,-0.0301386314973,0.012337698135,-0.0216687040189,-0.00284553873927,-0.0180617731667,-0.690640964667,0.57390962854,0.818884197256,0.00609562583755,0.0,0.81888185742,-0.573817996049,-0.0120895781708,0.0,-0.00640230797704,0.0119301524176,-0.999908336757,0.0,0.301121087892,-0.212691978472,0.304893759176,1.0,-0.154151428571,-0.202599020408,3.039
-0.489480966747,-0.529701254771,-0.134988885096,-2.64819614658,-0.0720113168574,2.1092034047,-0.742304443115,-0.696194453994,-0.0163887372467,0.0049127153387,-0.0115698400513,-0.00324543198745,-0.00780589751472,-0.672478594454,0.574098977362,0.818750882125,0.0061728528517,0.0,0.818749205665,-0.574006320991,-0.0121337787698,0.0,-0.00639140857026,0.0120202397791,-0.999907327572,0.0,0.298321373365,-0.216356878467,0.304881285847,1.0,-0.150037142857,-0.197191673469,3.057
-0.500200405714,-0.529883192802,-0.134696123658,-2.64833576339,-0.0720282149695,2.10907663849,-0.75299901426,-0.657527387926,-0.00734104003455,0.0206861920107,-0.00711637061232,0.00395855872565,-0.00904152166086,-0.661811669638,0.573897667089,0.818892116068,0.00615766614218,0.0,0.818890224613,-0.573805089983,-0.012135305651,0.0,-0.0064043292521,0.0120071073868,-0.999907402682,0.0,0.295982868811,-0.21942958352,0.304880861001,1.0,-0.14638,-0.192385142857,3.073
-0.510856437912,-0.529992098276,-0.134528770236,-2.64843983754,-0.0720415223453,2.10899570454,-0.763396776439,-0.673162059938,-0.00236340856293,0.00786466837941,-0.00487322615182,-0.000827996854195,-0.00619841147334,-0.656336434911,0.573979660384,0.818834336891,0.00619879783921,0.0,0.818832930753,-0.573886785148,-0.0121382143874,0.0,-0.0063819014366,0.0120430998406,-0.999907113226,0.0,0.293619349199,-0.222500684007,0.304870641131,1.0,-0.142722857143,-0.187578612245,3.089
-0.521888020788,-0.529965321055,-0.134287400252,-2.64841615313,-0.0720423656156,2.10889861133,-0.774209247617,-0.625060311876,0.00416013706932,0.0133302696186,0.000418210211854,0.00116225510285,-0.00289368703629,-0.629913056006,0.573989907788,0.818827119365,0.00620332579074,0.0,0.818825631747,-0.573896744799,-0.0121596876801,0.0,-0.00639673671429,0.012059212347,-0.999906824238,0.0,0.291180737481,-0.225661996877,0.304869499852,1.0,-0.138837142857,-0.182471673469,3.106
-0.532485920039,-0.529824616638,-0.134054912501,-2.64830407382,-0.0720421359386,2.10890398465,-0.784702330046,-0.620362450999,0.00372240315596,0.0154489220898,0.00991056335455,-0.000406332979266,-0.000850489442026,-0.620677404236,0.573918354949,0.818877309837,0.00619840204826,0.0,0.818876085621,-0.573825848121,-0.0121078209457,0.0,-0.00635813894555,0.0120248554013,-0.999907484181,0.0,0.288843115986,-0.228704619049,0.304875485782,1.0,-0.134951428571,-0.177364734694,3.123
-0.543017898313,-0.529590595666,-0.133861230621,-2.64812226555,-0.0720344029697,2.1089055376,-0.794953020331,-0.610195509616,0.0207886829329,0.0142257301186,0.0088007772441,-0.000467651007469,0.000455359222822,-0.595461253576,0.574025834364,0.818801909622,0.00620654363039,0.0,0.818800923482,-0.573933518298,-0.0120876457938,0.0,-0.00633536601195,0.0120207760557,-0.999907677779,0.0,0.286496760324,-0.23172689621,0.304877784408,1.0,-0.131065714286,-0.172257795918,3.14
-0.552359744814,-0.529210872537,-0.133546145889,-2.64784924826,-0.0719847280076,2.10891845604,-0.804322639745,-0.58216955095,0.0289750140699,0.0150162930905,0.0226173129113,-0.00111100333938,-0.00075499012597,-0.59181874796,0.573817767964,0.818948050228,0.00616498963015,0.0,0.818946379412,-0.573725410322,-0.0121131374833,0.0,-0.0063831420142,0.011999760483,-0.999907626357,0.0,0.284446186628,-0.234374649952,0.304872410052,1.0,-0.127408571429,-0.167451265306,3.156
-0.561645982288,-0.528767877579,-0.133343675533,-2.6475138591,-0.0719582967372,2.1089689874,-0.813450143676,-0.577656445619,0.029525034868,0.00882259820321,0.0241310501949,0.00791683938585,0.00564499400489,-0.565411099639,0.573835339477,0.818935847803,0.00615038626503,0.0,0.818934031666,-0.573743127335,-0.012108778502,0.0,-0.00638769392126,0.0119854363994,-0.999907769087,0.0,0.282380606287,-0.237035832153,0.304872555554,1.0,-0.123751428571,-0.162644734694,3.172
-0.570202706161,-0.528246671458,-0.13316633262,-2.64707986952,-0.0719122600854,2.10907907678,-0.821747073611,-0.551309200137,0.0417550252647,0.0167291772054,0.0330881564327,0.0020269416626,0.00857214703884,-0.55076912926,0.573966979477,0.818843646158,0.00614300563963,0.0,0.818842249119,-0.573875740874,-0.0120312923199,0.0,-0.00632654716425,0.0119359468704,-0.999908749823,0.0,0.280493954999,-0.239508058767,0.304893338283,1.0,-0.120322857143,-0.158138612245,3.187
-0.58089444702,-0.527338924052,-0.132816074969,-2.64643111269,-0.0717552556325,2.10920472647,-0.832518768882,-0.537514282996,0.0504237432397,0.0163805159607,0.0362569759631,0.00259425377617,0.00193674818556,-0.532798086283,0.573782983784,0.818972553597,0.00614742838658,0.0,0.81897083511,-0.573691051521,-0.012086999038,0.0,-0.00637231849912,0.0119701093943,-0.999908050792,0.0,0.278035822803,-0.242717024733,0.304877105847,1.0,-0.115522857143,-0.151830040816,3.208
-0.589935930191,-0.526534338727,-0.132593247733,-2.64581093715,-0.0716155304833,2.10934705554,-0.841307666311,-0.52677478459,0.0515053629346,0.0101435179397,0.0431720072596,0.00255872919635,0.00787944845481,-0.514573496744,0.573902071751,0.818888926263,0.00617133580225,0.0,0.818887595284,-0.573810152602,-0.0120731918435,0.0,-0.00634555013837,0.0119826908504,-0.999908070331,0.0,0.276165550681,-0.245153944387,0.304881547659,1.0,-0.111865714286,-0.147023510204,3.224
-0.598998305186,-0.525533807548,-0.132299460448,-2.64508229662,-0.0714370098332,2.10951886887,-0.850332063708,-0.48311102419,0.0574323120056,0.0101352979239,0.0412364665913,0.0138365239193,0.0086045059847,-0.483668188805,0.573842811268,0.818930339641,0.0061865719427,0.0,0.818928940512,-0.573750334197,-0.0121116184943,0.0,-0.00636914675333,0.0120167593721,-0.999907511455,0.0,0.274187629684,-0.247748471819,0.304868660213,1.0,-0.107751428571,-0.141616163265,3.242
-0.607175131451,-0.524546214191,-0.131992865207,-2.64438023692,-0.0712690280388,2.10967196235,-0.858552091214,-0.48425997447,0.059645234479,0.016262314957,0.0422669214316,0.00990093132656,0.00540630202003,-0.479666449264,0.573701893045,0.819029096056,0.0061826072233,0.0,0.819027141452,-0.573608517182,-0.0121884158832,0.0,-0.00643639500206,0.0120564725107,-0.999906602783,0.0,0.272399807903,-0.250075292375,0.304846824418,1.0,-0.103865714286,-0.13650922449,3.259
-0.614339807948,-0.523711970551,-0.131762840827,-2.64370579564,-0.07111362128,2.10982779072,-0.865491987129,-0.474042664555,0.0543073431636,0.0123965063492,0.0503053805462,0.0083481599377,0.0141861010693,-0.457603620726,0.573826869412,0.818941445241,0.00619516823325,0.0,0.81893992841,-0.573733924032,-0.0121459858439,0.0,-0.00639259609767,0.0120433955348,-0.999907041349,0.0,0.270828041446,-0.252129581883,0.304866660944,1.0,-0.100437142857,-0.132003102041,3.274
-0.622550379507,-0.522576774521,-0.131507031231,-2.64282249272,-0.0709159153338,2.11003887516,-0.873592650795,-0.444511023781,0.0644528695011,0.0168383641594,0.0470402396674,0.0103152062425,0.0150694485474,-0.444848237993,0.573869072302,0.818911705122,0.00621723181338,0.0,0.818910542173,-0.573776143253,-0.0121329407734,0.0,-0.00636863054113,0.0120543082238,-0.99990706278,0.0,0.269035052154,-0.254500756641,0.304876122578,1.0,-0.0963228571429,-0.126595755102,3.292
-0.629792752047,-0.521512559519,-0.131194807424,-2.64200266309,-0.0707054460098,2.11023733829,-0.880923774193,-0.426635116221,0.0597515451611,0.0132893341989,0.0496398930934,0.00674733034309,0.0128088802,-0.426696897482,0.573710330593,0.819022891174,0.00622151147346,0.0,0.819021786886,-0.573617421999,-0.0121290018594,0.0,-0.0063652853491,0.0120543191937,-0.999907083949,0.0,0.267468222301,-0.256570031636,0.304882736245,1.0,-0.0924371428572,-0.121488816327,3.309
-0.636595059391,-0.52051635492,-0.13095323202,-2.64121971306,-0.0705242941263,2.11042230168,-0.887529252468,-0.416465764609,0.0621953075301,0.0177638631025,0.0525681200853,0.0141929657736,0.0143807421001,-0.405680575244,0.573820617058,0.818945540948,0.00623276030367,0.0,0.818944682656,-0.573727822519,-0.0121136005295,0.0,-0.00634459329421,0.0120555517463,-0.999907200598,0.0,0.265972573309,-0.258521079428,0.304894300533,1.0,-0.0887800000001,-0.116682285714,3.325
-0.643448074133,-0.519400836851,-0.13071834544,-2.64035327969,-0.070302503084,2.11064503773,-0.894290331126,-0.390939961827,0.0707177482809,0.0105351942071,0.0539176151166,0.0138480027236,0.0141255455972,-0.389620607033,0.573871447506,0.818909625885,0.00627162428539,0.0,0.818909371992,-0.573778654538,-0.0120930955852,0.0,-0.00630474962317,0.0120760066738,-0.999907205792,0.0,0.264474351505,-0.260498983819,0.304902660427,1.0,-0.0848942857143,-0.111575346939,3.342
-0.648465581187,-0.518544828128,-0.130529831806,-2.63970465665,-0.0701467132401,2.11081618146,-0.899217250987,-0.377422421846,0.0676225180599,0.0197595328174,0.0522840954647,0.0102181007183,0.0175995171387,-0.38299564346,0.573913896986,0.818879776904,0.00628464202819,0.0,0.818879664817,-0.573820983048,-0.0120963161284,0.0,-0.0062992904667,0.0120888422336,-0.9999070851,0.0,0.26337495311,-0.26194293914,0.304901638895,1.0,-0.0819228571429,-0.107670040816,3.355
-0.655354746049,-0.517319775618,-0.130168340596,-2.63879596253,-0.0698919427515,2.11105655014,-0.906182914895,-0.352540708491,0.0674943839661,0.0164754468272,0.0521739921665,0.0180017056421,0.0112486329293,-0.354437619375,0.573753107096,0.818992416808,0.00628810067615,0.0,0.818992151403,-0.573659832291,-0.0121243415334,0.0,-0.00632263472561,0.0121065168152,-0.99990672392,0.0,0.261883113644,-0.263896365522,0.304892766038,1.0,-0.0775800000001,-0.101962285714,3.374
-0.661739990045,-0.516176676926,-0.129871606721,-2.63792137638,-0.0696840813823,2.1112976251,-0.912401643376,-0.343666526087,0.0663397403929,0.0144975593034,0.0491033668328,0.00672202033287,0.00860349425342,-0.335076552744,0.57381489676,0.818949208065,0.00627740124531,0.0,0.818948898788,-0.573721839939,-0.0121119136713,0.0,-0.00631768155168,0.0120911001211,-0.999906941769,0.0,0.260486667866,-0.265721441918,0.304896578553,1.0,-0.0734657142858,-0.0965549387756,3.392
-0.667350462128,-0.515081144396,-0.129622400486,-2.63707027161,-0.0694398558294,2.11153827224,-0.917960080211,-0.327889181611,0.0662785247391,0.0108243687656,0.0480325636167,0.0176950991907,0.0191745096003,-0.314338018742,0.57383056979,0.818937939978,0.00631462900834,0.0,0.818938315737,-0.573737726551,-0.0120748934365,0.0,-0.00626576810053,0.0121004675969,-0.999907155107,0.0,0.259273459472,-0.267339651741,0.304905685634,1.0,-0.0695800000001,-0.0914480000001,3.409
-0.672448194363,-0.514071034174,-0.129438221049,-2.63630884573,-0.0692428677658,2.11173569172,-0.922979623125,-0.311706237995,0.0670153604649,0.0179464732219,0.0449076186021,0.00885248270396,0.0149285917102,-0.317716034066,0.573888837976,0.818896805408,0.00635378949111,0.0,0.818897565694,-0.57379556221,-0.0120903511117,0.0,-0.00625509411839,0.0121418540657,-0.999906720238,0.0,0.258144610025,-0.268810353754,0.304899937538,1.0,-0.0659228571429,-0.0866414693878,3.425
-0.677750659832,-0.512982115013,-0.129097793097,-2.63550824623,-0.0690096752213,2.11195913432,-0.928206923014,-0.288649052724,0.0570999350995,0.0227850789464,0.0492326542318,0.0160915614645,0.019375055132,-0.283017749548,0.573850965658,0.818923417143,0.00634452280385,0.0,0.818923877344,-0.573757393068,-0.0121195674705,0.0,-0.00628490174686,0.0121507406501,-0.999906425378,0.0,0.257002065321,-0.27030490182,0.304888553487,1.0,-0.0618085714286,-0.0812341224491,3.443
-0.682204769387,-0.512053188207,-0.128807289542,-2.63479460252,-0.0688210022338,2.11214167057,-0.932658420909,-0.280785474035,0.0569872409785,0.0147675833589,0.0500989399,0.017541487121,0.0129187146314,-0.277474764229,0.573765041138,0.818983778028,0.00632422293494,0.0,0.818983954058,-0.573671542555,-0.0121239910345,0.0,-0.00630144657807,0.0121359929758,-0.999906500352,0.0,0.256044206787,-0.271566307202,0.304891765004,1.0,-0.0581514285715,-0.0764275918368,3.459
-0.686734184272,-0.511073520942,-0.128552901447,-2.63405659913,-0.0686085637415,2.11234785182,-0.93702691713,-0.257342455878,0.053332064695,0.0128834143502,0.0413608675976,0.0123301333528,0.0098949556906,-0.243277328973,0.573845780656,0.818927110463,0.00633677152192,0.0,0.818927420787,-0.573752150401,-0.0121283261212,0.0,-0.00629660000694,0.0121493786428,-0.99990636833,0.0,0.255061648475,-0.272857975611,0.304888121388,1.0,-0.0542657142858,-0.0713206530613,3.476
-0.690909585674,-0.510153533146,-0.128308527337,-2.63338305257,-0.0683964385395,2.11254091502,-0.941124474362,-0.236070423473,0.0498397813585,0.00950723219404,0.0437311102879,0.0114985976504,0.0185948587068,-0.23573874351,0.573861980171,0.818915573474,0.00636067112705,0.0,0.818916035276,-0.573767926765,-0.0121507318863,0.0,-0.00630099579906,0.0121819331818,-0.999905944555,0.0,0.254152748878,-0.274040286797,0.304875653629,1.0,-0.0503800000001,-0.0662137142858,3.493
-0.694850611269,-0.509315403019,-0.128073702195,-2.63275413496,-0.0681950533752,2.11271640086,-0.944911486205,-0.222833622876,0.0485858889238,0.0116662851471,0.0356422186554,0.0141928842374,0.00705453639314,-0.208447460524,0.573940122775,0.818860645956,0.00638160441459,0.0,0.818861341281,-0.573845878176,-0.0121556059759,0.0,-0.00629181110883,0.0122024740721,-0.999905751928,0.0,0.253289260825,-0.275150258368,0.304871264147,1.0,-0.0464942857143,-0.0611067755103,3.51
-0.698269335643,-0.508558376256,-0.127826744979,-2.63216922297,-0.067996279312,2.1128906047,-0.948268553845,-0.209793461125,0.0496770787079,0.0193908171952,0.0373920924292,0.0156253381694,0.0139536036692,-0.201978606535,0.573930264067,0.818867479013,0.00639145558385,0.0,0.818868469144,-0.573836299152,-0.0121276097698,0.0,-0.0062633766096,0.0121943985072,-0.999906028964,0.0,0.252559958404,-0.276112854852,0.304876932661,1.0,-0.0428371428572,-0.056300244898,3.526
-0.7015536548,-0.507780625385,-0.12751088453,-2.63158954364,-0.067789794817,2.11305561401,-0.951467659754,-0.185604315182,0.0441341961584,0.0250940801277,0.0328427368224,0.00806876310707,0.0104954964588,-0.185909893777,0.573893542177,0.818893327706,0.00637706725706,0.0,0.818894076529,-0.573799547584,-0.0121374428996,0.0,-0.00628023361283,0.0121879773574,-0.999906001519,0.0,0.251878250128,-0.27702138812,0.304873203264,1.0,-0.0389514285715,-0.0511933061225,3.543
-0.704557586771,-0.507079770793,-0.127193127719,-2.63105397316,-0.0675851682855,2.11321492612,-0.954438221999,-0.171636775715,0.0412780896367,0.023269404258,0.0312262248323,0.0107303906684,0.0138711667962,-0.17011760614,0.57380962072,0.818952262505,0.00636064527723,0.0,0.818952902338,-0.573715924253,-0.0121214236955,0.0,-0.00627778474295,0.0121646926519,-0.999906300446,0.0,0.251262934236,-0.277846263317,0.304877357173,1.0,-0.0350657142858,-0.046086367347,3.56
-0.70714871629,-0.506475953366,-0.126928345951,-2.63056845574,-0.0674087220613,2.11334879553,-0.956933683242,-0.159714957375,0.0346458120009,0.0124592236502,0.0311076207622,0.0147303755131,0.0155169868005,-0.146873556632,0.573799567474,0.818959419599,0.00634604735655,0.0,0.81896009342,-0.573706374358,-0.0120875269815,0.0,-0.00625854675711,0.0121332108917,-0.99990680355,0.0,0.250732490413,-0.278564510438,0.304891230964,1.0,-0.0314085714286,-0.0412798367348,3.576
