nelsonifechukwu/NELSON_IML_WORK/CNN-GradCAM/train2dof/data_sample_2022-02-21-17-22-28/robot_state.csv
position_joint1,position_joint2,position_joint3,position_joint4,position_joint5,position_joint6,position_joint7,velocity_joint1,velocity_joint2,velocity_joint3,velocity_joint4,velocity_joint5,velocity_joint6,velocity_joint7,ee_T_00,ee_T_10,ee_T_20,ee_T_30,ee_T_01,ee_T_11,ee_T_21,ee_T_31,ee_T_02,ee_T_12,ee_T_22,ee_T_32,ee_T_03,ee_T_13,ee_T_23,ee_T_33,v_x,v_y,time
0.465027904032,0.547772060821,-0.124045271703,-1.35583198306,0.0794734634492,1.89409316345,0.159161226944,-0.000958974171829,0.000357998942309,-0.000952483986743,-0.00566236779008,0.00028040402381,-0.000190925491658,0.00092640088046,0.573877408281,0.818927217112,0.00191839475913,0.0,0.818884185456,-0.573819470918,-0.0118597009792,0.0,-0.00861158545272,0.00837711887617,-0.999927829633,0.0,0.661702545393,0.260822776974,0.303222517345,1.0,0.0,0.0,0.0
0.465030694825,0.547772060821,-0.124046744894,-1.35583747121,0.0794676247769,1.89409396562,0.159156547578,0.000288712268101,0.000238665963708,-0.000634999369795,-0.00599741073175,-0.000694682907635,0.000143983700006,-0.000942219952188,0.573871078319,0.818931670206,0.0019109951858,0.0,0.818888598093,-0.573813226359,-0.0118571527022,0.0,-0.00861380939568,0.00836953031504,-0.999927874024,0.0,0.661701384464,0.260822226673,0.303220013033,1.0,-0.0,-0.0,0.001
0.465024725335,0.547769638613,-0.124047487336,-1.35583734974,0.0794728530976,1.89409327834,0.15916042626,-0.000520412958383,0.000229184041871,4.28905413598e-05,-0.000579251733605,5.12182588727e-05,-0.000262893880118,0.000383822672239,0.573881031451,0.818924685283,0.00191532648863,0.0,0.8188816254,-0.573823117617,-0.0118600241015,0.0,-0.00861357372578,0.008374829774,-0.999927831683,0.0,0.661702773669,0.260818694417,0.303221761261,1.0,-0.00034,-0.000446857142857,0.018
0.465029022039,0.547770439111,-0.124043186333,-1.3558411975,0.0794728530977,1.89409378575,0.15916310714,0.00113130062327,-6.22894108811e-05,0.000469752872956,0.000484455559028,6.86986531819e-05,-0.00962642216246,0.00114718446805,0.573876917986,0.818927573557,0.00191289645886,0.0,0.818884456593,-0.573818989886,-0.01186425293,0.0,-0.00861847348253,0.00837522333188,-0.999927786167,0.0,0.661699862654,0.260823593083,0.303219264463,1.0,-0.00064,-0.000841142857143,0.033
0.465024290728,0.547748393246,-0.12404529448,-1.35587978692,0.0794710764156,1.894104861,0.159157820834,-0.000285076371959,-0.00107966236519,-0.000294526873996,-0.00697236620904,-0.000364594013755,-0.00148791330185,-0.000610337553791,0.573879610695,0.818925697862,0.00190806451934,0.0,0.818882519373,-0.573821703466,-0.011866718125,0.0,-0.00862323761305,0.00837270945911,-0.999927766146,0.0,0.661695624455,0.260815414367,0.303217543881,1.0,-0.00102,-0.00134057142857,0.052
0.465024686458,0.547673753099,-0.124040478255,-1.35598811272,0.0794690414675,1.8941278595,0.159158119027,0.0006584976986,-0.0113533279143,0.00124877836077,-0.00968332363017,0.000165249769318,0.00124150175897,0.00101729944225,0.573881568569,0.818924336984,0.00190327444321,0.0,0.818881007811,-0.573823595144,-0.011879545555,0.0,-0.00863647146254,0.00837616879837,-0.999927622959,0.0,0.661676253042,0.260807815884,0.303220695409,1.0,-0.0013,-0.00170857142857,0.066
0.46501794946,0.547531047675,-0.124044975873,-1.35621383312,0.0794698766808,1.89416756301,0.159155146076,-0.00116031140532,-0.00852542536034,-0.00179184532014,-0.0123368428969,-5.23590957432e-05,0.00297476593761,0.000534862682049,0.573900358208,0.818911235498,0.00187459996127,0.0,0.818867365589,-0.573842340059,-0.011914412671,0.0,-0.0086812887139,0.00837289563574,-0.999927262277,0.0,0.661638925126,0.260778659645,0.303217952054,1.0,-0.00168,-0.002208,0.085
0.465006241364,0.547385934563,-0.124049650356,-1.35642199393,0.0794646001293,1.89429115084,0.159146062665,0.000451123795668,-0.00927002069162,-0.00115055013575,-0.0145875144282,0.000810714277154,0.0144118040225,0.000296768510217,0.573913334903,0.818902029694,0.00192267646541,0.0,0.818858807223,-0.573855135696,-0.0118862933147,0.0,-0.00863053812157,0.00839626444711,-0.99992750565,0.0,0.661623301042,0.260755760239,0.303233118309,1.0,-0.00198,-0.00260228571429,0.1
0.464981188815,0.547191446274,-0.124045665507,-1.35666381864,0.0794609996032,1.89439426997,0.159134391565,-0.0055486591294,-0.0107025422039,0.000672084327174,-0.0201937000056,5.71495509059e-06,0.00491057750543,0.000266952856689,0.57393713399,0.818885208822,0.00198189342698,0.0,0.818842652794,-0.573878586683,-0.0118669547048,0.0,-0.00858047268335,0.00843390722259,-0.999927619729,0.0,0.661600174511,0.260718964036,0.303264024089,1.0,-0.00234,-0.00307542857143,0.118
0.464951783572,0.546988146033,-0.124045666477,-1.35696268702,0.0794527996494,1.89453068594,0.15912114264,-0.00649143012932,-0.0139138558687,0.000311696397563,-0.0181124421388,-5.42660312953e-05,0.0099944110954,0.000694396918573,0.573965084518,0.818865522833,0.00202093322931,0.0,0.818823420327,-0.573906321572,-0.0118527332697,0.0,-0.00854613280967,0.00845800535483,-0.999927710267,0.0,0.66157232552,0.260674644379,0.303277600666,1.0,-0.00268,-0.00352228571429,0.135
0.46491782774,0.546740395309,-0.124052808655,-1.3573568,0.0794444937834,1.89468255285,0.159075517927,-0.00549485372095,-0.0143804214503,-0.00125411825541,-0.0211621324752,-0.000333730767963,0.0135068084635,-0.00163362949477,0.573980433464,0.818854737316,0.00203176676407,0.0,0.818812676959,-0.57392152698,-0.0118586601613,0.0,-0.00854460987778,0.0084704383649,-0.999927618038,0.0,0.661529686665,0.260613483955,0.303278893721,1.0,-0.00304,-0.00399542857143,0.153
0.464889873771,0.546486868092,-0.124048251056,-1.35772821301,0.0794358616283,1.89481025841,0.158951131198,-0.00157742473601,-0.0134143596426,-0.00116997306894,-0.0291268035452,-0.00240429568443,0.00560554044086,-0.00727634730848,0.573916685893,0.818899371254,0.00205044258432,0.0,0.818857383607,-0.573857542645,-0.011868149069,0.0,-0.00854232233398,0.0084905122999,-0.999927467335,0.0,0.661483334691,0.260564145895,0.303292580543,1.0,-0.00334,-0.00438971428571,0.168
0.464848005124,0.546176253796,-0.124048464435,-1.35823393496,0.0794099323273,1.89499010531,0.158921486152,-0.00421845667747,-0.0198941013391,0.0011175134343,-0.0315074914979,-0.00502263019525,0.0218402377693,0.00164799764161,0.573948227906,0.818877292567,0.00203919164275,0.0,0.818835106471,-0.573889074775,-0.0118804531017,0.0,-0.00855852824347,0.00848869014397,-0.999927344228,0.0,0.66142371332,0.260488382435,0.303287405486,1.0,-0.0037,-0.00486285714286,0.186
0.464812844319,0.545877308806,-0.124043619053,-1.35872488274,0.0793789873319,1.89515649121,0.158875289664,-0.00449817509489,-0.0216240784483,0.000997481942822,-0.0318726105563,-0.00258096521025,0.00947122422596,-0.00512873647958,0.573954958018,0.818872628881,0.0020176066663,0.0,0.818830124427,-0.573895855217,-0.0118962849921,0.0,-0.00858381132715,0.00848017214045,-0.999927199782,0.0,0.661361819437,0.260419859448,0.303279633706,1.0,-0.004,-0.00525714285714,0.201
0.464759964469,0.545542655039,-0.124046377744,-1.3592959134,0.079299640394,1.89535585801,0.158785521942,-0.00920264392212,-0.0239480209778,5.73455211656e-05,-0.0322923723277,-0.00155563509372,0.0165971274698,-0.0064674351709,0.573937475473,0.818885021755,0.00196017698885,0.0,0.818842168316,-0.573879002526,-0.0118802671693,0.0,-0.00860383407474,0.00842376830658,-0.999927504456,0.0,0.661298069098,0.260320578428,0.303262033872,1.0,-0.00432,-0.00567771428571,0.217
0.464720515451,0.545150741939,-0.124045702536,-1.35999439076,0.0792808095053,1.89557878689,0.158682792758,-0.00215650864645,-0.0244001585941,-0.000507063360256,-0.0405267423268,-0.00156017234162,0.0123302423895,-0.00494664635638,0.573919033001,0.818898085155,0.00190173313695,0.0,0.818854194133,-0.573860536471,-0.0119432128303,0.0,-0.00868911181148,0.00841184126782,-0.999926867457,0.0,0.661203492799,0.260229185756,0.303226330306,1.0,-0.00466,-0.00612457142857,0.234
0.46466872091,0.544713309409,-0.124040385537,-1.36070722072,0.0792583104612,1.89582615623,0.158636294064,-0.00170878891831,-0.0212249355948,0.000589928603211,-0.0428996808704,-0.00197972281678,0.0127240913448,-0.00658179857174,0.57394538519,0.818879640103,0.00189122870422,0.0,0.818835344959,-0.573886671658,-0.011979684482,0.0,-0.00872473674896,0.00842445172969,-0.999926451086,0.0,0.661109183087,0.260129361267,0.303217434701,1.0,-0.00502,-0.00659771428571,0.252
0.464606480695,0.544251077346,-0.124042589598,-1.36147112342,0.0792243302674,1.8961056692,0.158521575193,-0.000972638503004,-0.0291603437834,0.000614754992311,-0.046033410543,-0.000138828301942,0.0135807671454,-0.00548834290823,0.573945516169,0.818879582652,0.00187629594108,0.0,0.818835000999,-0.573886778118,-0.0119980807716,0.0,-0.00874837037569,0.00842278361496,-0.999926258647,0.0,0.661024762756,0.260018719769,0.303205764255,1.0,-0.00534,-0.00701828571429,0.268
0.46453244436,0.543713672089,-0.124040741499,-1.36234604351,0.0791835777799,1.89640066223,0.158407433619,-0.00461833624031,-0.030323392211,0.00120397509276,-0.0474067754998,-0.00211578012326,0.0158163525966,-0.00917301660248,0.573949117346,0.818877124323,0.00184739250215,0.0,0.818831993458,-0.57389033875,-0.0120329747223,0.0,-0.00879349633082,0.00841918140147,-0.999925893157,0.0,0.660917471601,0.25988746719,0.303195090781,1.0,-0.0057,-0.00749142857143,0.286
0.464454505276,0.543205020162,-0.124037951382,-1.36315934368,0.0791334314088,1.89668754481,0.158304687289,-0.000763681565609,-0.02943281802,0.00126036169965,-0.0524604726787,5.52284432814e-05,0.0118332878001,-0.00358381211557,0.573958682271,0.818870454231,0.00183224832036,0.0,0.818825092846,-0.573899937262,-0.0120447597763,0.0,-0.00881174036631,0.00841364733928,-0.999925779131,0.0,0.660823195079,0.259759059642,0.303192586455,1.0,-0.00602,-0.007912,0.302
0.464379084566,0.542661400874,-0.12404536513,-1.3640209811,0.0790834628261,1.89699194985,0.158200640285,-0.0084630508869,-0.033604951917,-0.00019760031063,-0.0518646157184,-0.00302394517885,0.0183706619316,-0.00901023714014,0.573974948219,0.818859080469,0.00181990434962,0.0,0.818813548513,-0.573916246387,-0.0120524605731,0.0,-0.00882496401708,0.00840813465448,-0.999925708881,0.0,0.66072375092,0.259622350806,0.30319360838,1.0,-0.00634,-0.00833257142857,0.318
0.464276304478,0.542024599817,-0.124049122483,-1.36500735409,0.0790270017205,1.89735734372,0.158063674959,-0.00238759899633,-0.0336504475926,-0.00241167634408,-0.051406322516,-0.00694054542461,0.020668131563,-0.0108066869471,0.573989330492,0.818848967617,0.00183401621788,0.0,0.818803601966,-0.573930547826,-0.0120471814959,0.0,-0.00881239386382,0.00841681477616,-0.999925746715,0.0,0.660616654316,0.25945920112,0.303206250759,1.0,-0.0067,-0.00880571428571,0.336
0.464171734802,0.541369798416,-0.124046078828,-1.36599206954,0.0789687650223,1.89773274799,0.157927349115,-0.00593212228107,-0.0397782228131,-0.000297895986548,-0.0657163633546,-0.00133788960991,0.02098232226,-0.00621824202824,0.574000341661,0.818841158189,0.00187412124247,0.0,0.818796297492,-0.573941364995,-0.0120282859323,0.0,-0.00877378880238,0.0084389262446,-0.999925899832,0.0,0.66051124683,0.259299653338,0.303232954095,1.0,-0.00704,-0.00925257142857,0.353
0.464074731877,0.540713352818,-0.124051616902,-1.36699015757,0.0789105204678,1.89810253365,0.157807915671,-0.0032003263608,-0.0401644522718,-0.00117271496039,-0.0626237271833,-0.00325936073843,0.0245852127781,-0.0160592711398,0.57402561303,0.818823388012,0.00189782275286,0.0,0.818778840289,-0.573966534296,-0.0120156191971,0.0,-0.00874955172789,0.00845133300259,-0.99992600742,0.0,0.660401497266,0.259138190185,0.303254155186,1.0,-0.00736,-0.00967314285714,0.369
0.46395303682,0.539979811447,-0.124060238154,-1.36808781449,0.0788377019444,1.89851795535,0.157668255361,-0.00555683499107,-0.0455093785517,-0.000395823757364,-0.0628190558984,-0.00382904383932,0.0276938123718,-0.00912388106866,0.574058280591,0.818800396874,0.00193583682013,0.0,0.818756456014,-0.573999142722,-0.0119831878681,0.0,-0.00870083782512,0.00846419007973,-0.99992632374,0.0,0.660287602164,0.25894858078,0.303286385901,1.0,-0.0077,-0.01012,0.386
0.46384154865,0.539231930296,-0.124066339174,-1.36924878763,0.0787755018486,1.89896494747,0.157532190425,-0.00957318042725,-0.0483530533546,0.000284747612049,-0.0690086684882,-0.00179625172408,0.0292470985584,-0.00314686217121,0.574084304756,0.818782084196,0.00196380588001,0.0,0.818738496374,-0.574025033888,-0.0119700428553,0.0,-0.00867374989669,0.00847982046665,-0.999926426647,0.0,0.660168857523,0.258775387509,0.303300965194,1.0,-0.00802,-0.0105405714286,0.402
0.463728886077,0.538460349741,-0.12407556263,-1.37044282049,0.0787093219857,1.89943192807,0.157389476241,-0.00704743934446,-0.0478499729251,-0.00132385978904,-0.0711289614305,-0.00918438386168,0.0282451527074,-0.00573166010223,0.574120420303,0.818756663654,0.00200390013222,0.0,0.818713600435,-0.574060978709,-0.0119490622185,0.0,-0.00863317966013,0.00850098458557,-0.999926598041,0.0,0.66003375177,0.25857336643,0.303318681641,1.0,-0.00838,-0.0110137142857,0.42
0.463629216513,0.537738890201,-0.12408014391,-1.37160387532,0.0786348200873,1.89987224942,0.157247894209,-0.00885056271023,-0.0517876058116,0.000398400126313,-0.0764937847538,-0.00552967118585,0.0222604979943,-0.0132680436807,0.574133659691,0.818747349547,0.00201626395956,0.0,0.818704508973,-0.574074225692,-0.0119355470681,0.0,-0.00861487821911,0.00850348743206,-0.999926734603,0.0,0.659895399247,0.258380842345,0.30332664811,1.0,-0.00872,-0.0114605714286,0.437
0.463517968359,0.536852461616,-0.124084035864,-1.37297641599,0.078555451194,1.90037825078,0.157071529101,-0.010074451068,-0.0554869575376,0.00164772247802,-0.0698050340241,-0.000132842520856,0.0282942870075,-0.0105504646928,0.574137258009,0.818744824006,0.00201718362822,0.0,0.818701966161,-0.574077790871,-0.0119384895837,0.0,-0.00861672213068,0.00850596764315,-0.99992669762,0.0,0.659742688032,0.258188955014,0.30333043699,1.0,-0.00906,-0.0119074285714,0.454
0.463421700402,0.536123405699,-0.124084022272,-1.37416117514,0.0784939607489,1.90082318198,0.156924631808,-0.00765421317682,-0.0489818306934,0.00168932957836,-0.0822073011737,-0.0114118299222,0.0250362847047,-0.0123039491937,0.574144588378,0.818739696309,0.00201202014284,0.0,0.818696671162,-0.574085043149,-0.0119528558299,0.0,-0.00863137306236,0.00851006552878,-0.999926536393,0.0,0.659603974184,0.258014629719,0.303319735311,1.0,-0.00936,-0.0123017142857,0.469
0.463331564769,0.535167111662,-0.124089034353,-1.37565465533,0.0784063152147,1.90135245154,0.156745848366,-0.00496042437209,-0.0513580648009,-0.000543797113326,-0.0854606183442,-0.00763036764981,0.0301452926781,-0.0172430981707,0.574133879037,0.818747221292,0.00200585890396,0.0,0.818704065077,-0.574074310875,-0.0119618694531,0.0,-0.00864240170119,0.00851008319376,-0.999926440983,0.0,0.659417106847,0.2578092869,0.303329753964,1.0,-0.00972,-0.0127748571429,0.487
0.46322718074,0.534271252681,-0.124087238123,-1.37713076562,0.0783382934247,1.9018838298,0.156572005034,-0.00945582220769,-0.0528557790411,-0.00595631142968,-0.0895487654299,-0.00588670426498,0.0293229517305,-0.011999937509,0.574138441596,0.81874409689,0.00197499132925,0.0,0.818700289398,-0.574078759035,-0.0120067258132,0.0,-0.00869680275154,0.00851061267555,-0.999925964806,0.0,0.659233755858,0.257603080631,0.303305227493,1.0,-0.01006,-0.0132217142857,0.504
0.463128054895,0.533394402164,-0.124078735388,-1.3785271349,0.0782455063866,1.90239930028,0.156390070089,-0.00758402371185,-0.0603734576455,0.00041256997447,-0.0828068676561,-0.0094232296799,0.0353933692139,-0.0158012092303,0.574116152648,0.818759742853,0.00196815972318,0.0,0.81871585631,-0.574056511839,-0.0120089442759,0.0,-0.00870277277721,0.00850605622613,-0.999925951635,0.0,0.659063420963,0.257408401321,0.303303408265,1.0,-0.01038,-0.0136422857143,0.52
0.463011531104,0.532399504137,-0.124071043127,-1.38016524435,0.0781676679203,1.90301096587,0.156193775974,-0.00818478779869,-0.0537205239686,0.0011603383073,-0.0938127498108,-0.00564077509418,0.0290093213533,-0.00774953589058,0.574114182127,0.81876116212,0.00195248215104,0.0,0.818716815967,-0.574054360065,-0.0120463207776,0.0,-0.00874239702558,0.00851465750432,-0.999925532778,0.0,0.658862538083,0.257183572838,0.303278018172,1.0,-0.01074,-0.0141154285714,0.538
0.462892602128,0.531470368241,-0.12407310347,-1.38164476484,0.0780796229423,1.90355443497,0.155993012513,-0.00658587067489,-0.0586576886145,-0.00102287746421,-0.097485609261,-0.00475187669074,0.0320460489384,-0.0129938850798,0.574105641204,0.818767165737,0.00194626563206,0.0,0.818722705525,-0.574045815085,-0.01205323784,0.0,-0.00875171824079,0.00851344761292,-0.999925461541,0.0,0.658686281324,0.256963220184,0.303275895617,1.0,-0.01106,-0.014536,0.554
0.462766810625,0.530505765334,-0.124075883439,-1.38319367491,0.0779759948943,1.90409598584,0.155800057461,-0.00580678627115,-0.0611188673906,0.000640948883419,-0.0942511842086,-0.00275437325826,0.0350835958061,-0.0137577481011,0.574108822245,0.818765035027,0.00190382207032,0.0,0.81872005357,-0.574049212546,-0.012071551632,0.0,-0.0087910460894,0.00848924504181,-0.999925322325,0.0,0.65849676123,0.256727550554,0.303265378962,1.0,-0.01138,-0.0149565714286,0.57
0.46261082857,0.529389555632,-0.124081158543,-1.38493559563,0.0778671273025,1.90474632222,0.155570801821,-0.00829113198172,-0.0653653063434,-0.000534346334603,-0.0992921504777,-0.00638421153023,0.0398486237999,-0.0131039417005,0.574117888368,0.818758637785,0.0019209921058,0.0,0.818713923105,-0.574058243763,-0.0120578515115,0.0,-0.00876987757096,0.00849553479661,-0.999925454789,0.0,0.658296005639,0.256456172845,0.303279071494,1.0,-0.01174,-0.0154297142857,0.588
0.462458521493,0.528299816372,-0.124082294296,-1.38663388178,0.077763275987,1.9054050694,0.155340189666,-0.0102660628394,-0.0678631906791,0.000590202261733,-0.0959317542554,-0.00399361335115,0.0431101698921,-0.0122192391874,0.574118861596,0.818757859678,0.00196134566312,0.0,0.818713707185,-0.574059076746,-0.0120328290661,0.0,-0.00872621309809,0.0085142186292,-0.999925677881,0.0,0.658103760748,0.2561958548,0.303295218497,1.0,-0.01208,-0.0158765714286,0.605
0.462314357679,0.527228370966,-0.124089335389,-1.38828623408,0.0776521983563,1.90603979729,0.155100473166,-0.010225276421,-0.0679041610364,0.000458856982204,-0.104566377479,-0.0158131679647,0.0449253356966,-0.0136083809074,0.574105134004,0.818767395148,0.00199866321712,0.0,0.818723875185,-0.574045334224,-0.0119965561044,0.0,-0.008675232723,0.00852380185382,-0.999926039835,0.0,0.657916159526,0.255939920862,0.303318167839,1.0,-0.0124,-0.0162971428571,0.621
0.462149293136,0.526053963713,-0.124098602644,-1.39009875947,0.0775377549979,1.90671492573,0.154855557202,-0.00699938131496,-0.0688223928464,-0.000871816004082,-0.111190804469,-0.00714063563483,0.0449534460973,-0.011379349339,0.574113259896,0.818761631958,0.00202527670754,0.0,0.81871852842,-0.574053415267,-0.01197474605,0.0,-0.00864201199289,0.00853315634655,-0.999926247716,0.0,0.657707290261,0.255653514887,0.30334063951,1.0,-0.01274,-0.016744,0.638
0.461981601217,0.524883202645,-0.124110631174,-1.39192813306,0.0774251991234,1.90737304459,0.154609610289,-0.0121408944406,-0.064832420728,-0.000926660972578,-0.106932843738,-0.00424551372942,0.0395486622386,-0.0131612462171,0.574125708867,0.818752911838,0.0020215526789,0.0,0.818709778772,-0.574065897086,-0.0119745917438,0.0,-0.00864389382793,0.00853015015165,-0.9999262571,0.0,0.657491575267,0.255360928473,0.303350844072,1.0,-0.01308,-0.0171908571429,0.655
0.461835892064,0.523765453006,-0.124117378909,-1.39371762131,0.077311351227,1.90802477451,0.154354619023,-0.0117298714721,-0.066212314867,-0.000110136436236,-0.107860123479,-0.00639580038576,0.0412973865226,-0.0104787942733,0.574106377699,0.81876652097,0.00199953143425,0.0,0.81872313212,-0.574046691826,-0.0119822967442,0.0,-0.00866304580392,0.00851633958488,-0.999926209076,0.0,0.657275239438,0.255089301378,0.303341751843,1.0,-0.0134,-0.0176114285714,0.671
0.461667829084,0.522474810742,-0.124118479365,-1.39577654511,0.0771795370388,1.90881084244,0.154084823568,-0.00720980168192,-0.0693920012037,-0.000164882550772,-0.115335340103,-0.00403166377423,0.0464756835619,-0.0173469680015,0.574098794055,0.818771816819,0.00200836959393,0.0,0.818728608454,-0.57403913615,-0.0119700780411,0.0,-0.00864804630011,0.00851648097969,-0.99992633771,0.0,0.657031640222,0.254782785628,0.303337099932,1.0,-0.01376,-0.0180845714286,0.689
0.461503999855,0.521301944609,-0.124120614132,-1.39765221204,0.077081435713,1.90953707333,0.153820407568,-0.0140970072227,-0.0748546941591,-0.00217827063722,-0.113455329994,-0.0111764743493,0.0480140052391,-0.0202977263651,0.574092101555,0.818776445624,0.00203418918778,0.0,0.818733451829,-0.574032215851,-0.0119706692751,0.0,-0.00863377814089,0.00853788979739,-0.999926278439,0.0,0.656812822318,0.254500049219,0.303331459151,1.0,-0.01408,-0.0185051428571,0.705
0.461354186919,0.52008505813,-0.124120729468,-1.39957377593,0.0769542128612,1.91022587592,0.153562169525,-0.0103351992764,-0.0784699970191,-0.000658787110054,-0.120635601793,-0.0020319834178,0.0410725483868,-0.0182816766571,0.574071300492,0.818791077111,0.00201516628672,0.0,0.818747862842,-0.574011524351,-0.0119772244553,0.0,-0.00865028238525,0.00852585805906,-0.999926238459,0.0,0.656573785468,0.254215707017,0.303331192757,1.0,-0.0144,-0.0189257142857,0.721
0.461169888149,0.518655061939,-0.124121648925,-1.40177656183,0.0768090627238,1.91101521576,0.153270391702,-0.0119761898217,-0.0828035504772,-0.000730271798159,-0.118585268875,-0.00601132690437,0.0399335382915,-0.0165722049619,0.574061565089,0.81879788066,0.00202410831539,0.0,0.818754817297,-0.574001786509,-0.0119685061243,0.0,-0.00863811197053,0.00852807198325,-0.999926324791,0.0,0.656303189584,0.253881657208,0.303355018291,1.0,-0.01476,-0.0193988571429,0.739
0.460996735731,0.517322622853,-0.124118111448,-1.40391160066,0.0766664007284,1.91177831057,0.152977345241,-0.00965606200705,-0.0777166501083,-0.000454397240465,-0.127066899666,-0.0116191889302,0.0446295674099,-0.0234959713883,0.574035291007,0.818816398402,0.00198425986178,0.0,0.818772830438,-0.573975698162,-0.011987366615,0.0,-0.00867670247193,0.00850599331334,-0.999926178731,0.0,0.656036007753,0.253562965714,0.303339828469,1.0,-0.0151,-0.0198457142857,0.756
0.46082023275,0.51595604103,-0.124119173585,-1.40605917682,0.0765375359883,1.91258815171,0.15268222963,-0.0125372652092,-0.0799226824264,0.000321448685916,-0.130689070132,-0.00994791036906,0.0445240852896,-0.0148822915591,0.57401775787,0.818828630855,0.00200844305591,0.0,0.818785348333,-0.573958035797,-0.0119780382734,0.0,-0.00865536529095,0.00852025446182,-0.999926242238,0.0,0.655776462408,0.25324374618,0.303346416118,1.0,-0.01544,-0.0202925714286,0.773
0.46063310929,0.51455977863,-0.124116416095,-1.40827083667,0.076396902957,1.91340553087,0.152377284066,-0.0100992319225,-0.0784929935352,0.00131378895272,-0.127054727222,-0.0114061383532,0.043417761974,-0.0174309182452,0.573997842438,0.818842595738,0.00200678435413,0.0,0.818799286346,-0.573938124668,-0.0119793419351,0.0,-0.00865759208201,0.00851943404708,-0.99992622995,0.0,0.655505629724,0.252911276088,0.303343413502,1.0,-0.01578,-0.0207394285714,0.79
0.460459781178,0.513250765322,-0.12411638985,-1.41041960657,0.076271105508,1.91414716491,0.152088850088,-0.0109541841569,-0.0825405502975,0.000808977367318,-0.134524630165,-0.00902123210037,0.0505684347922,-0.0126802041325,0.573982268855,0.818853705358,0.00192643770706,0.0,0.818809168915,-0.573922721415,-0.0120416629161,0.0,-0.00875490248503,0.00848924930359,-0.9999256394,0.0,0.6552277944,0.252589930378,0.303302375845,1.0,-0.0161,-0.02116,0.806
0.46027012714,0.51189193115,-0.124121518461,-1.41256269734,0.0761499059109,1.91491563518,0.15177976963,-0.00956963277626,-0.0834024961454,-0.00055678633358,-0.131961914368,-0.000315250752185,0.0516770555887,-0.0204288952109,0.573967606054,0.818864003498,0.00191777909989,0.0,0.818819210538,-0.573907959085,-0.0120624149487,0.0,-0.00877701769232,0.00849391333403,-0.999925405916,0.0,0.654962251635,0.252258793681,0.303300976409,1.0,-0.01642,-0.0215805714286,0.822
0.460059346938,0.510342657724,-0.124114628199,-1.41503551286,0.0759924322991,1.9158613895,0.151436314813,-0.00927617600145,-0.0870621007897,0.00188791051464,-0.14300303416,-0.00960853169443,0.0465640947008,-0.0227664480402,0.573940824671,0.818882740904,0.00193218176702,0.0,0.818838154247,-0.573881136077,-0.0120526223422,0.0,-0.00876101042772,0.00849979980582,-0.999925496274,0.0,0.654662203555,0.251890421095,0.303290522616,1.0,-0.01678,-0.0220537142857,0.84
0.459843088949,0.508835767652,-0.124132288975,-1.41740358633,0.0758330388578,1.91672357769,0.15110771591,-0.0155992843768,-0.0852193375153,-0.00216532650511,-0.145257493196,-0.0174365206182,0.0482346383219,-0.0184087270347,0.573941356112,0.818882394817,0.00192096436389,0.0,0.818837813501,-0.573881863237,-0.0120411431881,0.0,-0.00875804218133,0.00848403165399,-0.999925656189,0.0,0.654375356321,0.25151017326,0.303293203417,1.0,-0.01712,-0.0225005714286,0.857
0.459643533607,0.507415297785,-0.124141292309,-1.4196631985,0.0756924213538,1.91752632146,0.15078914661,-0.00517973945328,-0.0895601938244,-0.00242457901386,-0.137941077782,-0.00625954613505,0.0556056280184,-0.019269494428,0.57392932961,0.818890902282,0.00188724006709,0.0,0.818845845943,-0.573869951531,-0.0120625955957,0.0,-0.00879508875807,0.00846859913957,-0.999925461843,0.0,0.654092172562,0.251156728214,0.303281179241,1.0,-0.01744,-0.0229211428571,0.873
0.459414215435,0.505848611796,-0.124144307367,-1.4221111165,0.0755392098588,1.91845102581,0.150459260945,-0.0129368139824,-0.096585980369,-0.000368973370894,-0.146644611724,-0.00256769725951,0.0595855166866,-0.0250992368341,0.573934383888,0.818887282681,0.00192045723917,0.0,0.818842686691,-0.573874886279,-0.0120422693887,0.0,-0.00875932772152,0.00848418817456,-0.9999256436,0.0,0.653797967579,0.250773153604,0.30329161399,1.0,-0.01778,-0.023368,0.89
0.459153325885,0.504005527889,-0.124162136373,-1.42487716521,0.0753677728717,1.91951617513,0.1500676216,-0.0130410361081,-0.0997712555124,-0.00153236596132,-0.141003457451,-0.00778569577016,0.0514132066449,-0.0338546811779,0.573936379355,0.818885604817,0.00203606913955,0.0,0.818842641529,-0.573876511152,-0.0119676757518,0.0,-0.00863187133228,0.00853606906863,-0.999926310446,0.0,0.653473864329,0.250332821172,0.303355665876,1.0,-0.01816,-0.0238674285714,0.909
0.458957244501,0.50263681947,-0.124162513752,-1.42692762271,0.0752339763206,1.92028501367,0.149790489518,-0.0140915203463,-0.0957282320957,0.000213862316904,-0.14568870767,-0.00726756204197,0.0555674037354,-0.01459555403,0.573939231517,0.818883428022,0.0021063566623,0.0,0.818841441182,-0.573879132421,-0.0119240293441,0.0,-0.00855576061609,0.00856860533553,-0.999926686294,0.0,0.653226782339,0.250009829822,0.303402121514,1.0,-0.01844,-0.0242354285714,0.923
0.458722437303,0.500927424368,-0.124166466569,-1.4294926301,0.0750739896783,1.92118389342,0.149425356863,-0.0134849102204,-0.096144147888,-0.000363338703467,-0.151442004142,-0.00934826583216,0.0554903580629,-0.0239357336252,0.573922837391,0.818894818306,0.00214480163574,0.0,0.818853260057,-0.573862511185,-0.0119123318977,0.0,-0.00852428973127,0.00859320258004,-0.999926743994,0.0,0.652901761816,0.249607668448,0.303452347816,1.0,-0.01878,-0.0246822857143,0.94
0.458478880732,0.49922482919,-0.124168188378,-1.43209828835,0.0749084567642,1.92213722185,0.149051739593,-0.0150984409639,-0.101814989963,-0.000512003942574,-0.155062638686,-0.00280924864684,0.0577561559002,-0.0244484395081,0.573905428012,0.818906911953,0.00218544154762,0.0,0.81886587746,-0.573844934498,-0.0118917107098,0.0,-0.0084842628818,0.00861446669041,-0.999926901452,0.0,0.652578461662,0.249199048808,0.30348252139,1.0,-0.01912,-0.0251291428571,0.957
0.458239959851,0.49764257272,-0.12415899874,-1.43458388698,0.0747584194433,1.92305923229,0.148691612586,-0.014714943065,-0.0994999335062,-0.000908394507888,-0.153841250971,-0.00312000537302,0.0581283375598,-0.0240471608566,0.573886679764,0.818920016083,0.00219839700699,0.0,0.818879058508,-0.573826043368,-0.011895645907,0.0,-0.00848024835222,0.00862714010369,-0.999926826244,0.0,0.652250146528,0.248782787416,0.303480580729,1.0,-0.01946,-0.025576,0.974
0.457974037109,0.495863021019,-0.124155172227,-1.43744528549,0.0745817336135,1.92404699075,0.148266359571,-0.014865494658,-0.0982928702385,0.00552490292644,-0.158276517149,-0.0134452045549,0.0489572037021,-0.0192745208222,0.573848711726,0.818946810502,0.00212709210668,0.0,0.818904706083,-0.573788149994,-0.0119577666194,0.0,-0.00857243963492,0.00860400035973,-0.999926239508,0.0,0.651895345351,0.248364581458,0.303446106949,1.0,-0.0198,-0.0260228571429,0.991
0.45770286189,0.494165641416,-0.124163840679,-1.44019192532,0.0744105960919,1.925021729,0.14788559707,-0.0196084895973,-0.102973481004,-0.00332314354786,-0.160498394,-0.0116537616721,0.0660571178641,-0.0287047966632,0.573857136489,0.818941076684,0.00206075747455,0.0,0.818898029887,-0.573796773048,-0.0120011161297,0.0,-0.00864591743645,0.00857464146128,-0.999925859069,0.0,0.651547023676,0.247918105708,0.303405849947,1.0,-0.022684,-0.0298132571429,1.008
0.457444680612,0.49212691334,-0.124222346773,-1.44330813242,0.0742280497802,1.92618879,0.147435014234,-0.0209710105916,-0.133263407142,-0.000285371245267,-0.204813737574,-0.0148199242175,0.0858382800837,-0.0334150199019,0.57384897476,0.818946620198,0.00212939784673,0.0,0.81890461587,-0.573788473817,-0.0119484025045,0.0,-0.00856344478001,0.00860051783953,-0.999926346541,0.0,0.651163534673,0.247422753679,0.303444567056,1.0,-0.0288645714286,-0.0379362938776,1.024
0.45707450661,0.48952514845,-0.12422868879,-1.4474961043,0.0739972993687,1.92772744411,0.146809603469,-0.0242498005751,-0.161196745076,-0.00363267673941,-0.263347508706,-0.00780008545758,0.102676041781,-0.0441355606973,0.573791863185,0.818986707952,0.00210162860122,0.0,0.818943989431,-0.57373113226,-0.0120032058565,0.0,-0.00862486234764,0.00860862370627,-0.999925748917,0.0,0.650624642188,0.246783090809,0.303394573523,1.0,-0.0354314285714,-0.0465670204082,1.041
0.456535636833,0.486060524014,-0.124268864465,-1.45289667595,0.073669783564,1.92975438901,0.146038764675,-0.0318988533529,-0.211374312724,-6.79308750613e-05,-0.317994454631,-0.0178008378709,0.117786149395,-0.0392292155056,0.573810485205,0.818973476527,0.00217226031693,0.0,0.818931733164,-0.573749512954,-0.0119607567767,0.0,-0.00854937386242,0.00864230694689,-0.999926106638,0.0,0.649960602082,0.24589940656,0.303408256049,1.0,-0.0423845714286,-0.0557054367347,1.059
0.455991850109,0.482480185359,-0.124365793753,-1.45846819503,0.0733314081114,1.93174215215,0.145171214094,-0.0373035247379,-0.231168926692,-0.00286083616629,-0.359447531188,-0.0175980227414,0.123232179773,-0.0528777256476,0.57379777156,0.818982426702,0.00215615557858,0.0,0.818940603858,-0.573736998764,-0.0119536816055,0.0,-0.00855295360961,0.00862492527524,-0.999926226103,0.0,0.649259025354,0.244956892917,0.303416355607,1.0,-0.0485651428571,-0.0638284734694,1.075
0.4552815684,0.478125219095,-0.12445559142,-1.46531113243,0.0729272489648,1.93414632529,0.144160157598,-0.0469552053913,-0.275529294238,-0.00702927398758,-0.419504858757,-0.0302677370023,0.148870755811,-0.0530931670259,0.573840690918,0.818952545139,0.00208258427796,0.0,0.818909606197,-0.57378006186,-0.0120101786773,0.0,-0.00864098742529,0.0085975430305,-0.999925705035,0.0,0.648384477046,0.243788656565,0.303388866476,1.0,-0.055132,-0.0724592,1.092
0.454481863594,0.473229182816,-0.124538474165,-1.47287757287,0.0724716777644,1.93691210374,0.143081348837,-0.0511273701379,-0.29720899292,-0.00223395290864,-0.463413108216,-0.0238487249629,0.168731849098,-0.0665405053842,0.57391438098,0.81890071205,0.00215731526749,0.0,0.818858752642,-0.573853435751,-0.0119718169022,0.0,-0.00856591152781,0.00863750067425,-0.999926006633,0.0,0.647431732825,0.242505177366,0.303417628855,1.0,-0.0616988571429,-0.0810899265306,1.109
0.453618276729,0.468090602921,-0.12459141815,-1.48062659863,0.0720069647113,1.93976765138,0.141850484465,-0.0587727637587,-0.33324506909,0.000756687428934,-0.491625744548,-0.0339442517148,0.193723207818,-0.0858280586136,0.573896257567,0.818912820607,0.0023716443356,0.0,0.81887354924,-0.573834347007,-0.0118743189798,0.0,-0.00836326208863,0.00875687263525,-0.999926683827,0.0,0.646456973578,0.24118549184,0.303527731413,1.0,-0.0678794285714,-0.0892129632653,1.125
0.452471379527,0.46143170179,-0.124634461276,-1.49089348927,0.071344003852,1.94337009816,0.140238484428,-0.0638607980743,-0.369355628696,-0.00107341579365,-0.570071788177,-0.0395521854512,0.188644647774,-0.0773223197443,0.573848311711,0.818946449503,0.00236112113019,0.0,0.818906829982,-0.573786227797,-0.0119044319947,0.0,-0.00839447514844,0.00876504517627,-0.999926350673,0.0,0.645105777097,0.239432716387,0.303545075657,1.0,-0.0752188571429,-0.0988590693877,1.144
0.45147446295,0.455737409233,-0.124707926729,-1.49975007712,0.0707582369133,1.94636773362,0.138931923332,-0.0703940611021,-0.374575092024,-0.00651583131539,-0.599267640137,-0.0391707089354,0.207160693905,-0.0902863924104,0.573897522356,0.818912398272,0.00220560448429,0.0,0.818870617059,-0.573835922638,-0.011999721188,0.0,-0.00856123020263,0.0086928823287,-0.999925566797,0.0,0.643912159094,0.237887021344,0.303509035776,1.0,-0.0810131428571,-0.106474416327,1.159
0.450337429066,0.449120635871,-0.124790247159,-1.50955274126,0.0700710451689,1.95005412648,0.137343133002,-0.0692171058016,-0.424076781167,-0.00605744688289,-0.625612346522,-0.0455957347815,0.239470172812,-0.0924842102126,0.573846631166,0.818946955751,0.00258349908001,0.0,0.818910946162,-0.573784476662,-0.0117039950246,0.0,-0.00810273543069,0.0088321238378,-0.999928167054,0.0,0.642667179334,0.236178312358,0.303706289507,1.0,-0.0871937142857,-0.114597453061,1.175
0.449003770824,0.441752384035,-0.124808541042,-1.52080096738,0.0693550759212,1.95398450394,0.135635705291,-0.0806687128863,-0.44500206322,-0.000156683455123,-0.676343838166,-0.0434409620509,0.233588171613,-0.105720170844,0.573862461086,0.81893568578,0.00263916919069,0.0,0.818899869085,-0.573799524513,-0.0117412512928,0.0,-0.00810113162458,0.00889925000602,-0.999927584886,0.0,0.641137879609,0.234237055898,0.303739165101,1.0,-0.0937605714286,-0.123228179592,1.192
0.447568507145,0.433905898009,-0.124847778529,-1.53278169207,0.0685367162334,1.95811901965,0.133666802159,-0.0831985314693,-0.476334321815,-0.00166145021618,-0.701147883635,-0.0517876812734,0.255490127995,-0.111479132679,0.573754758565,0.819011193308,0.00262472098012,0.0,0.818975018644,-0.573691701576,-0.0117684867494,0.0,-0.00813289831434,0.00890197757788,-0.999927302738,0.0,0.639484222592,0.232141170417,0.303754789508,1.0,-0.100327428571,-0.131858906122,1.209
0.445988275062,0.425612745535,-0.124873828848,-1.54538287874,0.0676419665247,1.96257145471,0.131606944687,-0.0964430387736,-0.489490068762,-0.00402546887793,-0.750443435119,-0.0539722177216,0.25339595689,-0.122148686713,0.573674912035,0.819066833602,0.00271372369546,0.0,0.819032000332,-0.573611750634,-0.0116999515922,0.0,-0.00802657304065,0.00893476726909,-0.999927869428,0.0,0.637753939597,0.229908141685,0.303790993826,1.0,-0.106894285714,-0.140489632653,1.226
0.444265229589,0.416874728726,-0.124973185099,-1.55868570369,0.0666861436066,1.96709934582,0.129435957664,-0.104956176302,-0.520752988929,-0.00375491075752,-0.804512304851,-0.0637312108898,0.284255710309,-0.123941093889,0.57367398917,0.819067726619,0.00263823093631,0.0,0.819032117217,-0.573611321215,-0.0117128153164,0.0,-0.00808042545373,0.00888030432984,-0.999927920862,0.0,0.635889640945,0.227467466954,0.303786787798,1.0,-0.113461142857,-0.149120359184,1.243
0.442408957371,0.407693394828,-0.125049040198,-1.57257676367,0.0657530684478,1.97193234035,0.127097846109,-0.116426687201,-0.544070703747,-0.0063973146457,-0.838072988181,-0.0520263240724,0.277088398485,-0.141754521535,0.57364761516,0.819085869688,0.00273835696735,0.0,0.819051267586,-0.573584271818,-0.0116983370591,0.0,-0.00801141834152,0.00895375028795,-0.999927821161,0.0,0.633935256662,0.224924337441,0.303809138132,1.0,-0.120028,-0.157751085714,1.26
0.440456516733,0.398590872795,-0.125147487498,-1.58624102013,0.0648228511225,1.97653078303,0.124814630517,-0.121027044292,-0.589621649034,-0.00578384598262,-0.837249769125,-0.0554174813114,0.300572924021,-0.141946516183,0.573737494518,0.819022817624,0.00276739891432,0.0,0.818988201221,-0.573673598838,-0.011733505772,0.0,-0.00802257972288,0.0089985925132,-0.999927329133,0.0,0.631983034259,0.222326504848,0.303845440903,1.0,-0.126208571429,-0.165874122449,1.276
0.438259031535,0.388606670019,-0.125272182817,-1.60126841419,0.0636537690101,1.98167283469,0.122241456092,-0.127356326197,-0.603789380336,-0.00461489720174,-0.904652904206,-0.070874451912,0.303071573047,-0.159059496811,0.573774924994,0.818996608086,0.00276374615962,0.0,0.818962790263,-0.573711987753,-0.0116297108169,0.0,-0.00793925226438,0.00893641377179,-0.999928551839,0.0,0.62983417971,0.21942156975,0.303851759194,1.0,-0.132775428571,-0.17450484898,1.293
0.435921924973,0.378122972704,-0.125372738098,-1.61686217549,0.0625064245646,1.98683269453,0.119434435173,-0.136417524118,-0.639394059287,-0.00753741206188,-0.932725014476,-0.0724718130012,0.309205162617,-0.166866373001,0.573727797734,0.819029578203,0.00277687531576,0.0,0.818995832518,-0.573664711289,-0.0116349576789,0.0,-0.0079365319067,0.00894972026673,-0.999928454425,0.0,0.627531414847,0.216402008342,0.303897555527,1.0,-0.139342285714,-0.18313557551,1.31
0.433517226936,0.368018405632,-0.125475359351,-1.63202125845,0.0613747992781,1.99182315623,0.116764902818,-0.154016760868,-0.626809603218,-0.00215738787799,-0.957008244452,-0.0714598443132,0.306268621532,-0.165606982948,0.573819078894,0.81896592268,0.00268869607012,0.0,0.818930915377,-0.57375615481,-0.0116951938215,0.0,-0.00803546398787,0.00891295328197,-0.999927992699,0.0,0.625272619362,0.213388787365,0.303856431741,1.0,-0.145522857143,-0.191258612245,1.326
0.430810743218,0.356825241259,-0.125626555597,-1.64851266047,0.0600740386631,1.99727706474,0.113727305547,-0.163831196442,-0.665942477629,-0.0103931683817,-0.976447908079,-0.0744716652229,0.304139195051,-0.191488107853,0.573868494861,0.818931103706,0.00274679615086,0.0,0.818897437432,-0.57380602066,-0.0115924338257,0.0,-0.00791742889366,0.00890204827243,-0.99992903141,0.0,0.622807157449,0.210040410225,0.303916637883,1.0,-0.152089714286,-0.199889338775,1.343
0.427732016402,0.344582920267,-0.12577919951,-1.66658226771,0.058762183602,2.00311894423,0.110317980099,-0.167149843084,-0.699591611404,-0.00926364541026,-1.00635905373,-0.0780602004397,0.34027359617,-0.186658954192,0.573952371987,0.818872273192,0.00276075868963,0.0,0.818838111883,-0.573889079528,-0.0116712393734,0.0,-0.00797303855915,0.00895952245373,-0.99992807622,0.0,0.620035382469,0.206338099538,0.303919859428,1.0,-0.159042857143,-0.209027755102,1.361
0.424688214826,0.33269577891,-0.125859708252,-1.68416438909,0.0573728551438,2.00874354886,0.106982066179,-0.182779464086,-0.696095199504,-0.00152412916953,-1.05822611392,-0.0783680709312,0.32544137979,-0.196492379915,0.573941012743,0.818880561356,0.00266214671665,0.0,0.818844889032,-0.573877813557,-0.0117494559414,0.0,-0.00809380997076,0.00892355168102,-0.999927427599,0.0,0.617268067016,0.202747584439,0.303863140589,1.0,-0.165609714286,-0.217658481633,1.378
0.421663455225,0.321085887756,-0.125871897582,-1.70098007561,0.0559456098988,2.01411647282,0.103673793972,-0.199256306657,-0.722799788022,-0.00143043548468,-1.07507703667,-0.0850186051596,0.334327001998,-0.205428288097,0.573816740995,0.818967414771,0.00273280054305,0.0,0.818933051658,-0.573753743156,-0.0116638766397,0.0,-0.007984534084,0.00893108032004,-0.999928238935,0.0,0.614586835226,0.199291281826,0.30392758302,1.0,-0.171790285714,-0.225781518367,1.394
0.418253743565,0.308427164913,-0.125958964697,-1.71921744847,0.0544891124498,2.01987361287,0.0999858238571,-0.204481638639,-0.768784916332,-0.00774681491328,-1.08525479042,-0.0995323415671,0.350663782989,-0.217341442141,0.5737678927,0.819001204053,0.00286006414199,0.0,0.81896820935,-0.573704146954,-0.0116348933508,0.0,-0.00788831287902,0.00901820347705,-0.999928220687,0.0,0.611642432266,0.195455069757,0.3039964644,1.0,-0.178357142857,-0.234412244898,1.411
0.414624313388,0.295504849605,-0.126059279271,-1.73803582611,0.0528873673612,2.02554027625,0.096150010925,-0.222921110788,-0.774383009037,-0.00327231804911,-1.11841912288,-0.0880730473491,0.323628332466,-0.225715079755,0.573725289041,0.819031880814,0.00261109675564,0.0,0.818995394187,-0.57366213846,-0.0117916113468,0.0,-0.00815997537541,0.00890379327044,-0.999927065974,0.0,0.608506373881,0.191420458688,0.303911110925,1.0,-0.184924,-0.243042971429,1.428
0.410757303324,0.282148160888,-0.12619431224,-1.75696081977,0.0513387485381,2.03141669327,0.092143054436,-0.236999694587,-0.805885912153,-0.0123707679622,-1.12529267999,-0.092003421509,0.337015721465,-0.240417293802,0.573765112236,0.819003270928,0.00282579058799,0.0,0.818969262936,-0.573700837851,-0.0117235624452,0.0,-0.00798063121349,0.00904098082412,-0.999927282452,0.0,0.605177425322,0.187007334964,0.304013621576,1.0,-0.191877142857,-0.252181387755,1.446
0.406664198826,0.268459899489,-0.126355419385,-1.77634540837,0.0496662850188,2.03724397092,0.0879131695977,-0.249882969468,-0.801650267972,-0.0185760587947,-1.14535810497,-0.100304089191,0.345641452958,-0.251264771625,0.573757687957,0.81900819117,0.00290606405877,0.0,0.818975435336,-0.573693377677,-0.0116572564154,0.0,-0.00788035050635,0.00906861016532,-0.999927827588,0.0,0.60189443086,0.18266841629,0.304082131965,1.0,-0.198444,-0.260812114286,1.463
0.402502872524,0.255363682653,-0.126529071983,-1.79486005557,0.0480138844521,2.04268244732,0.0838453696554,-0.264482945543,-0.82121880007,-0.0125251327266,-1.15591903529,-0.102699453485,0.358554616461,-0.257565436848,0.573887580311,0.818917341591,0.00286001869774,0.0,0.818884006061,-0.573823430514,-0.011679131476,0.0,-0.00792325010707,0.00904470621013,-0.999927705085,0.0,0.598908081355,0.178647330924,0.304087811622,1.0,-0.204238285714,-0.268427461224,1.478
0.397629600061,0.240313656022,-0.126663365573,-1.81612287765,0.0461007952034,2.04878185915,0.0789900729821,-0.278401992936,-0.87601763992,-0.00943730238597,-1.19083384654,-0.102025206752,0.329738188641,-0.272017418969,0.573878747174,0.818924016269,0.00271772339274,0.0,0.818888399956,-0.573814616817,-0.0118034251717,0.0,-0.00810679502107,0.00899942027724,-0.999926642464,0.0,0.59514723009,0.173747384041,0.304032095123,1.0,-0.211191428571,-0.277565877551,1.496
0.39316012198,0.226588759184,-0.126752435547,-1.83507167372,0.0443825542569,2.05436231617,0.0745172421469,-0.281448584202,-0.835888541108,-0.00664202996676,-1.20880747406,-0.120072195113,0.340121902991,-0.291655694139,0.573791764228,0.818984075576,0.00297357655944,0.0,0.818951888078,-0.57372686548,-0.0116634360565,0.0,-0.00784629870359,0.00912777542746,-0.999927557032,0.0,0.591775826583,0.169376092372,0.30413373547,1.0,-0.217372,-0.285688914286,1.512
0.388367230083,0.212563803942,-0.126838641524,-1.85435702512,0.0425560688239,2.05976637548,0.0698210815163,-0.304800816945,-0.880420183962,-0.00959039292231,-1.19954115449,-0.106548764138,0.334728629247,-0.293392210694,0.573716612034,0.819036482265,0.00303919338021,0.0,0.819005150706,-0.573651509885,-0.0116299279814,0.0,-0.00778204725999,0.00916157430076,-0.999927750038,0.0,0.588259938281,0.164805746503,0.304193747607,1.0,-0.223552571429,-0.29381195102,1.528
0.382967357588,0.197491818166,-0.127024730923,-1.87509309915,0.040573390981,2.06540207659,0.0646154712379,-0.321847891338,-0.927883991164,-0.0108092193686,-1.21771690676,-0.121440483791,0.348468850595,-0.310372776181,0.573738414914,0.819021487426,0.00296332384704,0.0,0.818988924528,-0.573673276584,-0.011698723676,0.0,-0.00788167811188,0.00913911254511,-0.999927175234,0.0,0.584416111001,0.159735236569,0.30417845264,1.0,-0.230119428571,-0.302442677551,1.545
0.376837375609,0.181220204313,-0.127261089353,-1.89727577795,0.0384593909129,2.07135141805,0.0588472321232,-0.352506503482,-0.913922622846,-0.0133719401355,-1.224423694,-0.110186957359,0.317561718176,-0.329782371112,0.573876513795,0.81892472568,0.0029643692853,0.0,0.818891688739,-0.57381078869,-0.0117612838848,0.0,-0.00793077179336,0.00917719865315,-0.999926438236,0.0,0.580255374626,0.154148596267,0.304173441268,1.0,-0.237072571429,-0.311581093878,1.563
0.371502230008,0.167417362738,-0.127425176326,-1.91596726398,0.0365779324176,2.07625582231,0.0538849923237,-0.353754000102,-0.920621714577,-0.00973174243891,-1.25927028417,-0.122382482649,0.321800976019,-0.331179896003,0.573944643851,0.818877136607,0.00292024638695,0.0,0.818843473589,-0.573879005315,-0.0117898227672,0.0,-0.00797870183163,0.00915810664635,-0.999926231979,0.0,0.57667377842,0.14940176846,0.304155464653,1.0,-0.242866857143,-0.319196440816,1.578
0.365286372856,0.151441875797,-0.127581892797,-1.93724049998,0.0343991553663,2.08177254703,0.047980534492,-0.373259478828,-0.928034465818,-0.00272360177201,-1.26886632102,-0.137458882098,0.32910366567,-0.349651784247,0.57384940351,0.818943446358,0.00303984528017,0.0,0.818911487378,-0.573783534101,-0.0117123326727,0.0,-0.00784767600795,0.00921065667139,-0.999926786212,0.0,0.572520568267,0.143994680738,0.30421886718,1.0,-0.249433714286,-0.327827167347,1.595
0.358308026859,0.134235964204,-0.127775602697,-1.95998196003,0.032064035351,2.08739688697,0.0414673808596,-0.396410323095,-0.974469841273,-0.00776586426214,-1.26956714861,-0.125545783616,0.317295140971,-0.3776808607,0.573836911094,0.818951968598,0.00310153138001,0.0,0.818920413227,-0.57377036351,-0.0117334418671,0.0,-0.00782970927432,0.00927316793409,-0.999926349292,0.0,0.568235122706,0.138408374817,0.304268038602,1.0,-0.256000571429,-0.336457893878,1.612
0.352121464135,0.119699587118,-0.127993507179,-1.97902753588,0.0300245985439,2.09200550624,0.0358150669826,-0.417076302669,-1.00205787072,-0.0210185306979,-1.26348829726,-0.141435204673,0.321734727213,-0.366169910735,0.573897315286,0.818909524438,0.00313196337886,0.0,0.818878497626,-0.573830814511,-0.011702535864,0.0,-0.00778625089185,0.00928093006735,-0.999926616625,0.0,0.563867683431,0.132603639881,0.30430041662,1.0,-0.262567428571,-0.345088620408,1.629
0.343863241562,0.101024165108,-0.128253221689,-2.00328243648,0.0273353885403,2.0976841853,0.0282753169211,-0.439018057069,-0.997663408541,-0.00639930500013,-1.25163950702,-0.148080233441,0.301653994337,-0.409366922396,0.573912609568,0.818898885069,0.00311119152323,0.0,0.818867601175,-0.57384619202,-0.0117109585882,0.0,-0.00780489579116,0.00926889919835,-0.99992658286,0.0,0.559115098207,0.126305652891,0.304309013901,1.0,-0.269520571429,-0.354227036735,1.647
0.336705798472,0.0850340562956,-0.128412628563,-2.02395882925,0.0251307329594,2.10231424788,0.0216370327618,-0.448416141709,-0.993296625961,-0.0142101039363,-1.30472016569,-0.12536264477,0.273255338482,-0.421089139523,0.573789806825,0.818985021158,0.00308862502955,0.0,0.818952249881,-0.573722074915,-0.0118718183311,0.0,-0.00795098210751,0.00934154461752,-0.999924755883,0.0,0.554707943382,0.120702148746,0.304268724663,1.0,-0.275701142857,-0.362350073469,1.663
0.329117172362,0.0687125788883,-0.128618589939,-2.04449790815,0.0227555664988,2.10689983909,0.0147075611231,-0.479518033637,-1.02961441459,-0.0112521683535,-1.30845417748,-0.149105845458,0.284207056287,-0.436666865264,0.573703533298,0.819044564141,0.00331733824475,0.0,0.819015442036,-0.573635834664,-0.0116782617527,0.0,-0.0076622202358,0.00941699258552,-0.9999263026,0.0,0.550313654556,0.114911237376,0.304396512376,1.0,-0.27998,-0.367973714286,1.679
0.320616213128,0.0514815685257,-0.128917615721,-2.06617700907,0.0202179152178,2.11137510562,0.00715147834726,-0.508249179515,-1.01914709254,-0.00985351157026,-1.27403915235,-0.143764289355,0.246166320397,-0.439507891416,0.573822599382,0.818961235618,0.00329634570356,0.0,0.818931632487,-0.57375469838,-0.0117164115812,0.0,-0.00770414139923,0.00942280493539,-0.999925925733,0.0,0.545560732046,0.108569024416,0.304415083359,1.0,-0.27998,-0.367973714286,1.696
0.311944217605,0.0344098272849,-0.12908465926,-2.08744822113,0.0177549618325,2.11562838684,-0.000517268761451,-0.517778624471,-1.0044592125,-0.0123326484087,-1.23253613532,-0.147337538332,0.261080353108,-0.463614401524,0.573862978763,0.818932726313,0.00334937011473,0.0,0.818903078529,-0.573793992637,-0.0117876583566,0.0,-0.00773159960113,0.00950749328396,-0.99992491215,0.0,0.540787348017,0.102344211128,0.304423857734,1.0,-0.27998,-0.367973714286,1.713
0.303572026337,0.0184909860808,-0.129251979009,-2.10706379077,0.0153259149527,2.11932930493,-0.00795278540954,-0.524112264557,-0.988204483844,-0.0137962316129,-1.19864092009,-0.149787705278,0.241022892014,-0.469070368043,0.57381041865,0.8189697352,0.00330502288652,0.0,0.818939429363,-0.573741493868,-0.0118176203352,0.0,-0.00778219445983,0.00948786989963,-0.999924706052,0.0,0.536292778101,0.096467818077,0.304429262926,1.0,-0.27998,-0.367973714286,1.729
0.293758247031,0.000639671067362,-0.129530705965,-2.12872328749,0.0126398077377,2.12320948905,-0.0165177651795,-0.547545101966,-0.989470007793,-0.0100073797518,-1.19741554903,-0.152699625553,0.206714882046,-0.491124090849,0.573955452202,0.818867937778,0.00334458782864,0.0,0.818837853738,-0.573886010404,-0.0118390561099,0.0,-0.00777536099636,0.00953394948054,-0.999924320921,0.0,0.531248662246,0.0897392530296,0.304473736676,1.0,-0.27998,-0.367973714286,1.747
0.284425645092,-0.0160044275427,-0.129679380906,-2.14861882073,0.0101207743558,2.12676103768,-0.0247936511477,-0.554262778291,-0.954962079543,-0.0165893093394,-1.17860855365,-0.15835852876,0.1938809465,-0.486972190952,0.573860775602,0.818933415759,0.00355213736273,0.0,0.818906433852,-0.573791152074,-0.0116924461979,0.0,-0.00753729503004,0.00961888957751,-0.999925330286,0.0,0.526536212797,0.0835594520651,0.3045573805,1.0,-0.27998,-0.367973714286,1.764
0.275322507609,-0.0315536683194,-0.129872983828,-2.16697983759,0.00767225932368,2.12972163142,-0.0327414440173,-0.575063050206,-0.969751510692,-0.0180489797723,-1.13396238867,-0.152755978704,0.189372279417,-0.48990118673,0.573874026836,0.818923875201,0.00361038086742,0.0,0.818898134188,-0.573804840426,-0.011601630402,0.0,-0.00742934114778,0.00961459362341,-0.999926179515,0.0,0.522085008822,0.0776496968666,0.304629642401,1.0,-0.27998,-0.367973714286,1.78
0.265352456024,-0.0478813857756,-0.13009542847,-2.18626846129,0.00523492964801,2.13259262723,-0.04142190456,-0.591693089196,-0.969604236077,-0.00892394193514,-1.10177082518,-0.14598308792,0.168270334732,-0.513496598185,0.573985667336,0.818845667236,0.00360192193333,0.0,0.818818582441,-0.573914903013,-0.0117711532671,0.0,-0.00757170695297,0.00970598074508,-0.999924228725,0.0,0.517293862523,0.0713461886596,0.304600186566,1.0,-0.27998,-0.367973714286,1.797
0.254692188232,-0.0649938296029,-0.130286514802,-2.20621037451,0.0025179146553,2.13546405807,-0.0508049359954,-0.599384048253,-0.960675005918,-0.0143535140276,-1.10925449943,-0.153244014032,0.144792492234,-0.536629976018,0.573894029585,0.818909896832,0.00360146892725,0.0,0.818882872491,-0.573823364998,-0.0117615400683,0.0,-0.00756518019832,0.00969924558479,-0.99992434348,0.0,0.512248288988,0.0647720396586,0.30459237708,1.0,-0.27998,-0.367973714286,1.815
0.245496254646,-0.0791869067182,-0.130513630541,-2.22241022872,0.000300797836642,2.13761158736,-0.0588479291113,-0.620779115343,-0.949683785524,-0.0133866654042,-1.08760390479,-0.146375712271,0.126202542088,-0.54306990082,0.57393525698,0.818880519699,0.00370973770016,0.0,0.81885498783,-0.573864342316,-0.0117035219412,0.0,-0.00745504347672,0.00975498890595,-0.999924628419,0.0,0.50807820473,0.05922046766,0.304650036532,1.0,-0.27998,-0.367973714286,1.83
0.234295951589,-0.0959646137458,-0.130682462639,-2.24153890221,-0.00229833817989,2.1398694937,-0.0687021736951,-0.627109188295,-0.944467561748,-0.00930318761362,-1.03655552366,-0.153112961792,0.137831645056,-0.557504277892,0.573861157147,0.818932545072,0.0036886096284,0.0,0.818905782592,-0.57378907932,-0.0118388593588,0.0,-0.00757888921988,0.00981467424824,-0.999923113348,0.0,0.50301541482,0.0526650578078,0.304622139702,1.0,-0.27998,-0.367973714286,1.848
0.223405146713,-0.111609645135,-0.130904715619,-2.2593224281,-0.00488776290874,2.1417387474,-0.0781868996028,-0.652495495027,-0.925648350057,-0.0131735430148,-1.05081576115,-0.156341956165,0.0999259302921,-0.563402238951,0.573858356973,0.818935484917,0.00346476227471,0.0,0.818905124938,-0.57378622227,-0.0120214136054,0.0,-0.00785688059292,0.00973608769337,-0.999921735949,0.0,0.498198756903,0.0464004214022,0.304519322886,1.0,-0.27998,-0.367973714286,1.865
0.21281885639,-0.126374405457,-0.131172920403,-2.27558941554,-0.00721841902294,2.14337176888,-0.0873699495953,-0.655476242546,-0.914385309602,-0.00965767435584,-1.03079503697,-0.141720189259,0.0950383995115,-0.570291172878,0.573989366256,0.818843121268,0.00359125028645,0.0,0.818814394159,-0.573916722633,-0.011972063402,0.0,-0.00774231223303,0.00981259343528,-0.999921881754,0.0,0.493737518629,0.0404501973951,0.304573238412,1.0,-0.27998,-0.367973714286,1.881
0.201462203429,-0.141885534022,-0.131385784117,-2.29250707961,-0.00966922442104,2.14480854042,-0.0974230722666,-0.674181086657,-0.916910290385,-0.0151580704233,-0.972876894687,-0.150262374105,0.0895182285257,-0.611110345154,0.573899780241,0.818905606933,0.00366006464365,0.0,0.818877373456,-0.573826383491,-0.0119948219118,0.0,-0.00772253394262,0.00988116002423,-0.999921359481,0.0,0.488971774378,0.0342407897799,0.304609210124,1.0,-0.27998,-0.367973714286,1.898
0.189663812298,-0.157194742267,-0.131705594891,-2.3091335813,-0.012215237352,2.14607865185,-0.10767752841,-0.702804080615,-0.889515178742,-0.0128027457953,-0.981111294038,-0.157699401566,0.0692901046827,-0.603592261601,0.574023207596,0.81881926928,0.00362053836602,0.0,0.818790444788,-0.573949842619,-0.0120221704556,0.0,-0.00776612692421,0.00986565701072,-0.999921174935,0.0,0.484197282634,0.0278853956712,0.304587496332,1.0,-0.27998,-0.367973714286,1.915
0.177873016749,-0.172420706309,-0.131849685927,-2.32520850095,-0.0145214310769,2.14709153917,-0.118177005955,-0.702219878829,-0.889622008581,-0.0151725174323,-0.946908528501,-0.143106485192,0.055453610055,-0.617278367376,0.573882576606,0.818916800279,0.00384829705118,0.0,0.81889053585,-0.57380786362,-0.011982188641,0.0,-0.0076043788806,0.0100278963931,-0.999920804222,0.0,0.479466144928,0.0217826630893,0.304680592652,1.0,-0.27998,-0.367973714286,1.932
0.166310017315,-0.186506443377,-0.132147429473,-2.34015862981,-0.016879277749,2.14779802149,-0.12830373289,-0.736042200447,-0.873781445966,-0.0231279634033,-0.927615904801,-0.146263491099,0.0346495353405,-0.639066131152,0.573954011468,0.818867180234,0.00375243341942,0.0,0.818839131031,-0.573878947514,-0.0120904091803,0.0,-0.00774714588859,0.0100121709351,-0.999919865871,0.0,0.474953407921,0.0158348162168,0.304642818467,1.0,-0.27998,-0.367973714286,1.948
0.153147173165,-0.202208812165,-0.13235100542,-2.35641175378,-0.0194272661766,2.14853556697,-0.140048012936,-0.73296894055,-0.851864197515,-0.0167047086471,-0.917012070526,-0.136015056033,0.0187838523896,-0.657628492152,0.573795026354,0.818977850169,0.00391095450527,0.0,0.818952486653,-0.573720212587,-0.0119452574153,0.0,-0.00753925274148,0.0100572088431,-0.999921002989,0.0,0.469968441176,0.00928699707069,0.304709600476,1.0,-0.27998,-0.367973714286,1.966
0.1411007218,-0.216023269038,-0.132655133636,-2.37056083421,-0.021595630056,2.14886952674,-0.150669315265,-0.77009163456,-0.867449669954,-0.0231352680578,-0.864535525757,-0.137217807401,0.0313296991028,-0.665938174442,0.573910680895,0.818896262014,0.00402359478308,0.0,0.818871639495,-0.573834465061,-0.0119996516574,0.0,-0.00751773726752,0.0101817319398,-0.999919904773,0.0,0.465494042974,0.00338402725036,0.304741911179,1.0,-0.27998,-0.367973714286,1.982
0.128077859047,-0.230456719709,-0.132865031848,-2.38530762513,-0.0240277748035,2.14910763038,-0.16221490456,-0.77111873132,-0.856182017915,-0.0076017116272,-0.86860024884,-0.13041086896,0.0082928376362,-0.695170582246,0.573836399566,0.818948533209,0.00397911911787,0.0,0.81892333289,-0.57376036115,-0.0120153952547,0.0,-0.00755707499475,0.0101536601317,-0.999919893693,0.0,0.460727461203,-0.00282794252714,0.304718174999,1.0,-0.27998,-0.367973714286,1.999
0.114682923834,-0.244795988792,-0.133210345995,-2.39958854285,-0.0263762302748,2.14923221878,-0.174117468901,-0.799273174089,-0.846211595764,-0.0281417986835,-0.846269117502,-0.134115199561,0.016725657037,-0.708164942109,0.573905971181,0.818898892694,0.00415772642627,0.0,0.818876597578,-0.573830077452,-0.0118704276057,0.0,-0.00733499276623,0.010217370869,-0.999920898478,0.0,0.456011670681,-0.00912924902043,0.304783733625,1.0,-0.27998,-0.367973714286,2.016
0.101873916322,-0.2580525156,-0.133437939309,-2.41285669268,-0.0285353085198,2.14915017184,-0.185589699851,-0.803430506862,-0.817228298252,-0.0100097519074,-0.851318880761,-0.13166285501,-0.00252411266585,-0.734450680256,0.573844635826,0.81894179867,0.00417267613861,0.0,0.818919143814,-0.573767927873,-0.01193933585,0.0,-0.00738361559163,0.0102686059062,-0.999920015778,0.0,0.451506281028,-0.0149792264406,0.304740214853,1.0,-0.27998,-0.367973714286,2.032
0.0862458233883,-0.273648271409,-0.133860261929,-2.4279324201,-0.031112189705,2.14889217761,-0.199496855418,-0.833524734126,-0.805964697793,-0.0232286933532,-0.780059689776,-0.132190942512,-0.0182586960719,-0.732863851991,0.57398645712,0.818841189325,0.00440461219764,0.0,0.818822578404,-0.57391041139,-0.0117120321143,0.0,-0.00706257748401,0.0103293426073,-0.999921709276,0.0,0.446251192848,-0.0220365776883,0.304841299462,1.0,-0.27998,-0.367973714286,2.051
0.0738092650512,-0.285675362768,-0.134040056436,-2.43967486105,-0.0331037290864,2.14845319211,-0.210785126913,-0.834724884456,-0.821785315658,-0.0211128662397,-0.782872167558,-0.124400042664,-0.0282748700772,-0.758173889962,0.573810409546,0.818964791601,0.00436244370098,0.0,0.818945084614,-0.573733732331,-0.0118025282632,0.0,-0.0071631119049,0.0103452145797,-0.999920830048,0.0,0.442027359714,-0.0274619229485,0.304794935677,1.0,-0.27998,-0.367973714286,2.066
0.0600951625094,-0.298386289068,-0.134384419906,-2.45165934814,-0.0351899903781,2.14791888367,-0.223095415659,-0.862680233045,-0.792083706514,-0.0192610794021,-0.7335953754,-0.142130336416,-0.0377885549771,-0.762200600244,0.573904079304,0.818898100627,0.00455581471758,0.0,0.818881638162,-0.573827852662,-0.0116277723893,0.0,-0.00690784034496,0.0104040993377,-0.999922015189,0.0,0.437606207491,-0.0334041142701,0.304879049598,1.0,-0.27998,-0.367973714286,2.082
0.0453988465869,-0.31162502978,-0.134600661351,-2.46421963741,-0.0373710245522,2.14711104074,-0.236373600966,-0.866306245451,-0.783576519184,-0.0199654963164,-0.729963430341,-0.128860100066,-0.0501749216563,-0.780177349573,0.573829552496,0.818950360599,0.00454955584285,0.0,0.818933394044,-0.573752721942,-0.0116900421153,0.0,-0.00696337822391,0.0104340757318,-0.999921317618,0.0,0.432829545947,-0.0395739991307,0.304857058251,1.0,-0.27998,-0.367973714286,2.099
0.0302915244084,-0.324620710017,-0.134984481622,-2.47624670235,-0.0395281125787,2.14620625336,-0.250049474886,-0.881401664346,-0.76470663284,-0.0207812065473,-0.687953229669,-0.122154386065,-0.0466693403707,-0.809638153048,0.573906050618,0.818896041164,0.0046760808323,0.0,0.818880992707,-0.573829237966,-0.0116048412518,0.0,-0.00682001796526,0.0104894442791,-0.999921726393,0.0,0.428104984477,-0.0458683660122,0.304904812454,1.0,-0.27998,-0.367973714286,2.116
0.0159347645363,-0.336580328023,-0.135182878881,-2.48732490057,-0.0414637598691,2.14524839418,-0.26326043538,-0.906099141299,-0.74784164696,-0.0129665939171,-0.698194904964,-0.132556435542,-0.0729922884734,-0.831647988331,0.573722369362,0.819024448626,0.00472676936335,0.0,0.81900975523,-0.573644966582,-0.0116284157946,0.0,-0.00681260054476,0.0105429554655,-0.999921214178,0.0,0.423636405423,-0.0516563594128,0.304888705813,1.0,-0.27998,-0.367973714286,2.132
-0.000719527288881,-0.349743758389,-0.135558845888,-2.4993195992,-0.0437100001104,2.14388410926,-0.278346572394,-0.928375470928,-0.724519778518,-0.00510537040185,-0.650136434772,-0.121081627023,-0.079745947786,-0.838910147625,0.573830400566,0.818948974116,0.00468999798341,0.0,0.818933228516,-0.573752210929,-0.0117266614011,0.0,-0.00691277370429,0.0105701135068,-0.999920239949,0.0,0.418578695894,-0.0583200827544,0.304878018214,1.0,-0.27998,-0.367973714286,2.15
-0.0157146804036,-0.36123878493,-0.135924364391,-2.50953273914,-0.0456344869167,2.14277867738,-0.292139508646,-0.944696230573,-0.703901060065,-0.0359325903601,-0.642132547048,-0.115366784083,-0.0786591758804,-0.864950115746,0.57382814242,0.818949534141,0.00486522339548,0.0,0.818937019146,-0.573750913382,-0.0115236698262,0.0,-0.00664600562501,0.0105971216226,-0.999921762751,0.0,0.414160621489,-0.0642229570849,0.304948322766,1.0,-0.27998,-0.367973714286,2.166
-0.0319015216698,-0.373088492469,-0.136224890186,-2.52024731141,-0.0476256533122,2.14128204394,-0.307112985751,-0.951825839468,-0.693654870348,-0.0202451748506,-0.621240427653,-0.117180715848,-0.0916638741325,-0.888737477471,0.573721927644,0.819024476725,0.00477526621873,0.0,0.819009314569,-0.573642672251,-0.0117717510882,0.0,-0.00690218868928,0.0106649045712,-0.999919306545,0.0,0.409340789752,-0.0704220422988,0.304863324387,1.0,-0.27998,-0.367973714286,2.183
-0.0484923984805,-0.384713859407,-0.136576382303,-2.53026544246,-0.049608473625,2.13984609705,-0.322307712259,-0.976725262358,-0.669751153761,-0.019485574545,-0.588740809944,-0.117591768015,-0.0808818543611,-0.909808798606,0.573830621657,0.81894746006,0.00492160650793,0.0,0.818935403158,-0.573752792079,-0.0115449528974,0.0,-0.00663105204467,0.0106555304598,-0.999921241308,0.0,0.404363640363,-0.0770852148451,0.304958577659,1.0,-0.27998,-0.367973714286,2.201
-0.0662492589609,-0.396609803677,-0.136900625683,-2.54067447715,-0.0516449540789,2.13815592907,-0.338870803703,-0.998612160279,-0.65602841489,-0.0248110625684,-0.563215330512,-0.111047491212,-0.0971913961845,-0.933851456379,0.573670864205,0.819059548245,0.00489314748195,0.0,0.819046715309,-0.573592495544,-0.0116135308006,0.0,-0.00670562972,0.0106702660592,-0.999920586823,0.0,0.39987304723,-0.0829160471146,0.304930716927,1.0,-0.27998,-0.367973714286,2.217
-0.0813321204099,-0.406229788139,-0.137183500748,-2.54901355178,-0.0531740337032,2.1365820373,-0.352879692625,-1.01425673533,-0.637832896733,-0.0123798048521,-0.53813906924,-0.0975695345264,-0.0969034430407,-0.941040533023,0.573718149884,0.819026257768,0.00492143094612,0.0,0.819012112383,-0.573637023417,-0.0118520899359,0.0,-0.00688419041004,0.0108306791895,-0.999917648764,0.0,0.395349189589,-0.0887625345043,0.304885599106,1.0,-0.27998,-0.367973714286,2.233
-0.0997868354796,-0.417452430551,-0.13760592334,-2.55833192338,-0.0551136895247,2.13495143167,-0.37008251923,-1.03287042629,-0.611048001133,-0.0204771797304,-0.510818549856,-0.109059634475,-0.095747338523,-0.959720079633,0.573766729583,0.818990991349,0.00512279368383,0.0,0.818981314232,-0.573687953251,-0.0115102621175,0.0,-0.00648804087377,0.0107998856868,-0.999920630748,0.0,0.390402545687,-0.0954444420914,0.305000371492,1.0,-0.27998,-0.367973714286,2.251
-0.117417334135,-0.427607417844,-0.137908371447,-2.56703187174,-0.056869558845,2.13305448334,-0.386671277008,-1.0475310952,-0.591490878684,-0.0289664686284,-0.512264486133,-0.0968653708622,-0.122839260777,-0.981702363978,0.573654557093,0.819070220139,0.00501702191444,0.0,0.819057377213,-0.573573207514,-0.0118125084271,0.0,-0.00679777540439,0.0108857376847,-0.999917642091,0.0,0.385573488294,-0.10163886358,0.304914316404,1.0,-0.27998,-0.367973714286,2.268
-0.134289954983,-0.436804989119,-0.138229024111,-2.57476752213,-0.058464440915,2.13139579821,-0.402484669357,-1.04601440227,-0.560170322776,-0.0130216408001,-0.471175796648,-0.0982648135267,-0.101739634063,-0.99742415694,0.573678901969,0.819053122112,0.00502468866805,0.0,0.819039745946,-0.573596510191,-0.0119031490874,0.0,-0.00686729975505,0.0109442159387,-0.999916528682,0.0,0.381080417982,-0.107505301826,0.304877795726,1.0,-0.27998,-0.367973714286,2.284
-0.152569137168,-0.446292302646,-0.138616246353,-2.582284843,-0.0600310837266,2.12969393973,-0.419688769906,-1.08281493185,-0.54719519969,-0.0187158796102,-0.437582983789,-0.0959735928151,-0.0989722984611,-1.02897744414,0.573778393259,0.818981795892,0.00528396889131,0.0,0.818973401716,-0.57369777807,-0.0115833337757,0.0,-0.00645526256952,0.0109739079016,-0.999918948181,0.0,0.376410730795,-0.113819328117,0.305021307838,1.0,-0.27998,-0.367973714286,2.301
-0.172104109108,-0.455776285782,-0.138923552539,-2.59015720824,-0.0617319942839,2.12772090774,-0.438190840958,-1.0932453438,-0.51716980139,-0.0266769954286,-0.440724717531,-0.0976467487249,-0.114536709893,-1.03943676448,0.573701715859,0.81903601138,0.00520578374756,0.0,0.819025393386,-0.573619341621,-0.0117899452275,0.0,-0.00667037989307,0.0110277932078,-0.999916943455,0.0,0.371326390799,-0.120392783077,0.304953097782,1.0,-0.27998,-0.367973714286,2.319
-0.188530128398,-0.463286957474,-0.1391947495,-2.59628502369,-0.0630502707969,2.12613819426,-0.453903335169,-1.1020709875,-0.494334999931,-0.0261775629736,-0.402532466313,-0.0807922359267,-0.100978323289,-1.06246190345,0.573587998199,0.819115560363,0.00522053584321,0.0,0.819104478659,-0.573504511475,-0.0118817195571,0.0,-0.0067386302542,0.0110915895736,-0.999915780205,0.0,0.367132702123,-0.12585600394,0.304925215784,1.0,-0.27998,-0.367973714286,2.334
-0.208697705407,-0.471905540146,-0.139558705478,-2.6031583804,-0.0646677158513,2.12434776173,-0.472988555357,-1.12096847663,-0.473788304142,-0.0148304927609,-0.365593483283,-0.0852602264538,-0.0927276847663,-1.05449375303,0.573667971794,0.819059409618,0.00524295297262,0.0,0.819049212167,-0.573585372838,-0.0117879182083,0.0,-0.00664785218451,0.0110568005096,-0.999916773149,0.0,0.362099608235,-0.132524577077,0.304944331838,1.0,-0.278108,-0.365513371429,2.352
-0.227785234197,-0.479415429365,-0.13981674671,-2.60898344269,-0.0658448555939,2.12269450992,-0.49113511057,-1.11969853814,-0.429881770183,-0.0203011319702,-0.333681547275,-0.0696395112707,-0.0953902026334,-1.06845967052,0.573796792649,0.818967782276,0.00545520312562,0.0,0.818960673825,-0.573714022388,-0.0116782765606,0.0,-0.00643452961213,0.0111687694952,-0.999916924258,0.0,0.357461539846,-0.138721993569,0.305010502107,1.0,-0.271541142857,-0.356882644898,2.369
-0.245525987054,-0.485937613078,-0.139855660324,-2.61423421707,-0.0669240950309,2.1210913044,-0.508124312096,-1.10701025,-0.402650085183,0.00109988757844,-0.322775630454,-0.0701026074931,-0.106629346665,-1.05048817978,0.573683094158,0.819047587029,0.00543181006568,0.0,0.819038926075,-0.5735982792,-0.0118742820343,0.0,-0.00661005240527,0.0112611555533,-0.999914743157,0.0,0.353111819314,-0.144320930956,0.304957131312,1.0,-0.265360571429,-0.348759608163,2.385
-0.264440349455,-0.492231917114,-0.139955461755,-2.61928490928,-0.0679527236809,2.11953777706,-0.526041890787,-1.10766546969,-0.355820252498,0.00187256402979,-0.280103505504,-0.0478607077031,-0.0779575196979,-1.03624991727,0.573844648988,0.818934134543,0.00547256887443,0.0,0.818924711388,-0.573757452845,-0.0120602357041,0.0,-0.00673674121393,0.0114025431446,-0.999912295318,0.0,0.348563113902,-0.150264037646,0.304898763542,1.0,-0.258793714286,-0.340128881633,2.402
-0.283059409815,-0.498005091745,-0.139945737843,-2.6237221425,-0.0688630021813,2.11817688229,-0.543761714077,-1.08624580907,-0.329047959098,0.00368417985134,-0.253738380996,-0.0507505707374,-0.0886275299222,-1.03550216599,0.573929551857,0.818873995205,0.00556743964273,0.0,0.818866313379,-0.573842833587,-0.0119628614743,0.0,-0.00660136792592,0.0114250484677,-0.999912941315,0.0,0.344196605444,-0.156050362185,0.304931394427,1.0,-0.252226857143,-0.331498155102,2.419
-0.300180188104,-0.502872012111,-0.139810860444,-2.62744266578,-0.0695543390078,2.11694639796,-0.56019253751,-1.07270268354,-0.293851548465,-0.00325694395835,-0.223604287673,-0.0357707136745,-0.0752251242422,-1.01516061065,0.573886980974,0.818903256566,0.00565122594923,0.0,0.818896751902,-0.573800100916,-0.0119289905044,0.0,-0.00652614080003,0.0114738838285,-0.999912875943,0.0,0.340225481951,-0.161279123216,0.304956443882,1.0,-0.246046285714,-0.323375118367,2.435
-0.319212321974,-0.507749569066,-0.139677442403,-2.63112101825,-0.0702837315074,2.11575421497,-0.578449484038,-1.04137718616,-0.262083174581,0.00697403247096,-0.199207116835,-0.0311326018237,-0.0708223088797,-1.01196709983,0.57390030774,0.818893293071,0.00574092689243,0.0,0.818888725824,-0.573814464581,-0.0117882083629,0.0,-0.00635918030868,0.0114666574839,-0.999914034601,0.0,0.335877120428,-0.167076773886,0.305000693002,1.0,-0.239093142857,-0.314236702041,2.453
-0.336914356698,-0.511894461041,-0.139508809397,-2.63429276771,-0.0709028283575,2.11464823842,-0.595364655792,-1.03383706923,-0.230050355016,0.0130281669032,-0.183668978634,-0.0404265851938,-0.0624522522508,-0.998788668509,0.57397455506,0.818840990727,0.00577831727849,0.0,0.818836853211,-0.573888460707,-0.0117893762144,0.0,-0.00633763691017,0.0114985224865,-0.999913805455,0.0,0.331820000944,-0.172396153031,0.305005296048,1.0,-0.232526285714,-0.30560597551,2.47
-0.352054644949,-0.515039913595,-0.139269433822,-2.63681840626,-0.0712682121596,2.11370803561,-0.610057335869,-1.0157500471,-0.19979439688,0.00599571340452,-0.161263815354,-0.0239357211968,-0.0656168991165,-0.97746822009,0.57387306173,0.818911684796,0.00584024197965,0.0,0.818906846872,-0.573784027759,-0.0120088524185,0.0,-0.00648327682348,0.0116743958181,-0.999910833827,0.0,0.328123687737,-0.17716266457,0.304943046634,1.0,-0.226345714286,-0.297482938776,2.486
-0.370004183497,-0.518316880612,-0.139018158148,-2.6394472926,-0.0717182478001,2.1127988928,-0.627335936277,-0.975519926434,-0.177670155303,0.0181139748591,-0.137072948719,-0.0140259660611,-0.0499955972574,-0.949120905715,0.573892934446,0.818897600792,0.00586226161157,0.0,0.81889227044,-0.573802405068,-0.012124201172,0.0,-0.00656482583268,0.0117587805024,-0.999909312959,0.0,0.324294421331,-0.182161698158,0.304887738406,1.0,-0.219778857143,-0.288852212245,2.503
-0.386590454819,-0.520951952613,-0.138815408373,-2.64149092577,-0.07206098631,2.11202915151,-0.643279216199,-0.978931358181,-0.148860126622,0.0168346973331,-0.111724881466,-0.016673530072,-0.0472890096439,-0.92812061054,0.574009349632,0.818815479963,0.00593491432491,0.0,0.818810620233,-0.573917623043,-0.0121851161358,0.0,-0.00657133631341,0.0118541696972,-0.999908143881,0.0,0.320581516558,-0.187059838942,0.304867404534,1.0,-0.213212,-0.280221485714,2.52
-0.401651065723,-0.523149816522,-0.138494411389,-2.64312774719,-0.0722943256491,2.11137920075,-0.657997429175,-0.930118525249,-0.131942299733,0.0170975080882,-0.102845086197,-0.0138217496828,-0.0394898345782,-0.914978015736,0.573866063538,0.818915511,0.00598947948957,0.0,0.81891145794,-0.573774298026,-0.0121583666983,0.0,-0.00652019122185,0.0118823561895,-0.99990814414,0.0,0.317239505041,-0.191445716885,0.304882984693,1.0,-0.207031428571,-0.27209844898,2.536
-0.417489596472,-0.525106753176,-0.138262735824,-2.64453543115,-0.0725372814588,2.1107922299,-0.673217735529,-0.904350487176,-0.100159455782,0.022292425243,-0.0747709286381,-0.0149709129428,-0.036638277013,-0.881368487073,0.574021176385,0.81880625528,0.00606236563721,0.0,0.818803574415,-0.573929836322,-0.0120828972732,0.0,-0.00641430284654,0.0118999546711,-0.999908619724,0.0,0.31373972202,-0.196092452847,0.304916096443,1.0,-0.200464571429,-0.263467722449,2.553
-0.432791408969,-0.526689624434,-0.137987251886,-2.64569971735,-0.0726888556077,2.11033325682,-0.688070571804,-0.8947279508,-0.0768083882996,0.0111771073164,-0.0645536764319,-0.00524040019942,-0.0273025451558,-0.865492152823,0.574060548304,0.818778037082,0.0061448982418,0.0,0.818776792167,-0.573969522579,-0.0120124377435,0.0,-0.00630865734726,0.0119273963074,-0.999908964886,0.0,0.310374419315,-0.200547641468,0.304934078187,1.0,-0.193897714286,-0.254836995918,2.57
-0.4468006007,-0.527895273976,-0.137675506808,-2.64659375932,-0.0728077586121,2.10994739221,-0.701657009824,-0.860806368628,-0.0705393432498,0.0172947810115,-0.0476872095813,-0.00313785008499,-0.0229468060808,-0.840306872345,0.574083004524,0.818762051726,0.00617684962482,0.0,0.818761398465,-0.573992172597,-0.0119793606728,0.0,-0.00626290316716,0.011934743185,-0.999909164849,0.0,0.307296605495,-0.204596329606,0.304943543952,1.0,-0.187717142857,-0.246713959184,2.586
-0.462132757802,-0.528868490338,-0.137370412716,-2.64735309512,-0.0728655108498,2.10959426512,-0.716471036326,-0.860489719635,-0.0461631987842,0.00723375118522,-0.0361851179652,-0.00256601537987,-0.0186843431724,-0.812440576093,0.574222718764,0.818663516748,0.00625000022492,0.0,0.818663581419,-0.574131097112,-0.012007109906,0.0,-0.00624158350532,0.0120116341239,-0.999908377443,0.0,0.303929360606,-0.209024824132,0.304931616287,1.0,-0.180764,-0.237575542857,2.604
-0.475975984597,-0.529495728183,-0.136930330616,-2.64784938994,-0.0728845990059,2.1093320719,-0.730033066349,-0.804278990097,-0.0296047877046,0.0256505523459,-0.0232631552737,-0.00106829840891,-0.0128105946015,-0.789362461372,0.57410536227,0.818745912948,0.006237783717,0.0,0.818745702296,-0.574013595307,-0.0120255675672,0.0,-0.00626543226739,0.0120113326902,-0.999908231912,0.0,0.300920184336,-0.212976020805,0.304924024802,1.0,-0.174197142857,-0.228944816327,2.621
-0.487929568982,-0.529843749279,-0.136636173515,-2.64813926526,-0.0728980399921,2.1091493319,-0.741609350906,-0.788886708733,-0.0185803807151,0.0175874304066,-0.00728145481666,-0.000105365505071,-0.00977142388153,-0.763024230321,0.57420826788,0.818673641027,0.00625151867011,0.0,0.818673327911,-0.574115879555,-0.0120700418877,0.0,-0.00629245014887,0.0120489014184,-0.999907610255,0.0,0.298131397935,-0.216634213626,0.304909365061,1.0,-0.168016571429,-0.220821779592,2.637
-0.501585616206,-0.530037062205,-0.136133942452,-2.64831471076,-0.0728955779673,2.10899636548,-0.755095043163,-0.737264200869,-0.00998336349095,0.0244109501924,-0.00746407360643,-0.000681634721299,-0.00569693250316,-0.734849142244,0.573960711414,0.818847755198,0.00618081406429,0.0,0.81884648457,-0.573868618887,-0.012082626577,0.0,-0.00634697861781,0.0119963217806,-0.999907897822,0.0,0.295346070859,-0.220283802909,0.304901978534,1.0,-0.161449714286,-0.212191053061,2.654
-0.514221512846,-0.530092526032,-0.135771843142,-2.64839076263,-0.0728958019034,2.10888745754,-0.767299428727,-0.735593935545,0.00171073047129,0.0169326488532,-0.00346367961453,-0.000731585031294,-0.0033158080344,-0.706518994814,0.574054502446,0.81878223486,0.0061503659272,0.0,0.818780384014,-0.573962178946,-0.0121180359289,0.0,-0.00639207817836,0.0119924429531,-0.999907657061,0.0,0.292569198674,-0.223881742182,0.304887686008,1.0,-0.154882857143,-0.203560326531,2.671
-0.525472216842,-0.530010770583,-0.135332534309,-2.64835029455,-0.0728434022464,2.10886031571,-0.778385617199,-0.69227663742,0.00515171739672,0.0277076571363,0.00867123700949,0.00503340953901,0.00026551954371,-0.68193760995,0.573904326282,0.818887886321,0.00609924694277,0.0,0.818885530235,-0.573812560917,-0.0120987688028,0.0,-0.00640783407478,0.0119383506756,-0.99990820351,0.0,0.290122521721,-0.227053603755,0.30488529523,1.0,-0.148702285714,-0.195437289796,2.687
-0.537074401363,-0.529799680434,-0.134966471771,-2.64820148592,-0.0728060163501,2.10885246191,-0.789640448783,-0.675611697795,0.0122630577344,0.0214078324273,0.00956217762323,0.00220451727744,-0.000392318782554,-0.66023950722,0.573955294642,0.818852451764,0.006060436743,0.0,0.818849723099,-0.573863934728,-0.0120856236952,0.0,-0.00641860009632,0.0118994237585,-0.999908598466,0.0,0.287572927997,-0.230344459639,0.304884677075,1.0,-0.142135428572,-0.186806563265,2.704
-0.548786339207,-0.52941675171,-0.134503286173,-2.64790519207,-0.0726898009743,2.10888400985,-0.801064131743,-0.624634422237,0.0248315804499,0.0259610928745,0.0182404632117,0.0127673239616,0.00318808565613,-0.61193884538,0.573931215906,0.818869603008,0.00602325317696,0.0,0.818866625259,-0.573840455898,-0.0120552110361,0.0,-0.00641538304223,0.0118513311049,-0.999909190283,0.0,0.285025041573,-0.233643687713,0.304894251192,1.0,-0.135182285714,-0.177668146939,2.722
-0.558656690098,-0.528910575028,-0.134064046173,-2.64757328777,-0.0725536104406,2.10894094121,-0.810773441349,-0.614137281011,0.0356000281093,0.0185309531104,0.0176477513435,0.0112724487016,0.00831226694238,-0.581556966478,0.573830627268,0.818940370905,0.00598556704857,0.0,0.818936646519,-0.573739579434,-0.0121000363857,0.0,-0.00647517623177,0.0118453997361,-0.999908875147,0.0,0.282882288939,-0.2364073612,0.304876489362,1.0,-0.129001714286,-0.169545110204,2.738
-0.568851102025,-0.52830270152,-0.133688029418,-2.64711371291,-0.0723570234169,2.10904906071,-0.820586817536,-0.590045770173,0.0425699437778,0.0225724667157,0.0343978176231,0.0162526737704,0.0104446198883,-0.558559365443,0.573987267971,0.818830346984,0.00601880109271,0.0,0.818827232272,-0.57389636948,-0.0120692869992,0.0,-0.00642865413716,0.01185620358,-0.999909047285,0.0,0.280665252467,-0.239285996364,0.304882294074,1.0,-0.122434857143,-0.160914383674,2.755
-0.577687446219,-0.527571500385,-0.133209149063,-2.64660983314,-0.0721087016175,2.10917071097,-0.829444384832,-0.54273177763,0.0429984695687,0.0319801331609,0.0328460273798,0.00562509499665,0.00548329247014,-0.540097055202,0.573766555592,0.818984974447,0.00602480000875,0.0,0.818981663274,-0.573675171567,-0.0121070082645,0.0,-0.00645930403706,0.0118810259091,-0.999908555126,0.0,0.278782742479,-0.241746967033,0.304866804245,1.0,-0.116254285714,-0.152791346939,2.771
-0.586835634824,-0.526782884815,-0.132787040663,-2.64605252627,-0.0718637302553,2.10929749481,-0.83832792,-0.53016225968,0.0441146511109,0.0235438859912,0.0363469400503,0.0159249957102,0.00599122656121,-0.512947407482,0.573821323541,0.818946401929,0.00605196809758,0.0,0.818943171572,-0.573729305777,-0.012145465396,0.0,-0.0064744183832,0.0119257745847,-0.999907924665,0.0,0.276803241298,-0.24430554235,0.304853382246,1.0,-0.109687428572,-0.144160620408,2.788
-0.595520232092,-0.525924279499,-0.132384019043,-2.6454029082,-0.0716095650439,2.10944894146,-0.846717379679,-0.494397007621,0.0502993300484,0.022670866084,0.0384702702028,0.0239301121861,0.013390606551,-0.48874670844,0.573923130875,0.818874846885,0.00608045122834,0.0,0.818871998005,-0.573830984069,-0.0121408199007,0.0,-0.00645278496139,0.0119472386363,-0.999907808278,0.0,0.274936274794,-0.246748714781,0.304857691695,1.0,-0.103120571429,-0.135529893878,2.805
-0.603869621849,-0.524942878218,-0.13184343128,-2.64470936781,-0.0712835181345,2.10960688998,-0.855038995885,-0.458111166597,0.0496679714122,0.0288995038909,0.0377056459406,0.012409337859,0.00836627245532,-0.450932898438,0.573741850133,0.819001762083,0.00609508103909,0.0,0.818998651299,-0.573648839266,-0.0122051333907,0.0,-0.00649971472977,0.0119946898982,-0.999906936231,0.0,0.273174809363,-0.249057429028,0.304840762333,1.0,-0.0961674285715,-0.126391477551,2.823
-0.611066165109,-0.524124127231,-0.131438167289,-2.64410707815,-0.0710308881056,2.10975666877,-0.861943978642,-0.441823635277,0.0465605804877,0.0254656485101,0.0408712599713,0.0154556099056,0.0118228458581,-0.429961581647,0.573835363177,0.818936126658,0.00611091837533,0.0,0.818933124803,-0.573742079364,-0.0122192621964,0.0,-0.00650082939935,0.0120165095958,-0.999906667002,0.0,0.271629977922,-0.251057233081,0.304837508025,1.0,-0.0899868571429,-0.118268440816,2.839
-0.618612209776,-0.52318259173,-0.130997577728,-2.6433582347,-0.0707144845747,2.10994599343,-0.869215317055,-0.410181300098,0.0526921858326,0.0207216431678,0.0407928961637,0.020476878725,0.00726892301387,-0.387889061033,0.573924742196,0.818873208512,0.00614862409114,0.0,0.818871017859,-0.573831860695,-0.012165470112,0.0,-0.00643382501182,0.0120172257345,-0.999907091775,0.0,0.270033267196,-0.253167565645,0.30485985297,1.0,-0.0830337142858,-0.10913002449,2.857
-0.62505673217,-0.522264096974,-0.130521428528,-2.64266436125,-0.0704061252459,2.11012567154,-0.875559286494,-0.359253967589,0.047216330098,0.0297114687223,0.0403378584324,0.0163957441978,0.00982409912891,-0.36373263975,0.573839778596,0.818932678662,0.00615818328781,0.0,0.818930632815,-0.573746909781,-0.0121593196889,0.0,-0.00642454930479,0.0120208576938,-0.999907107759,0.0,0.268694430887,-0.254950110498,0.304865407156,1.0,-0.0764668571429,-0.100499297959,2.874
-0.630389543011,-0.521557428413,-0.130079062946,-2.64211163621,-0.0701400168367,2.11026986366,-0.880765079443,-0.351863385741,0.0514188415852,0.0285379300077,0.0417096823312,0.0164571209276,0.00803439744098,-0.340935001733,0.573774204094,0.818978658463,0.00615358428577,0.0,0.818976759136,-0.573681756641,-0.0121267057897,0.0,-0.00640143744405,0.0119978644743,-0.999907532148,0.0,0.267584654565,-0.25640286515,0.30488043881,1.0,-0.0706725714287,-0.0928839510205,2.889
-0.636078311914,-0.520766137211,-0.129624911551,-2.64148687826,-0.0698499680788,2.11043971164,-0.886141557246,-0.317466424993,0.0471976274954,0.0197150032992,0.035364392477,0.0186871803465,0.0142118534294,-0.30133309871,0.573865839741,0.81891443717,0.00615544260983,0.0,0.818912871988,-0.573773946663,-0.0120794504582,0.0,-0.00636032622958,0.0119729856838,-0.999908092709,0.0,0.266398902795,-0.257961102123,0.304899387573,1.0,-0.0641057142858,-0.0842532244899,2.906
-0.641432466642,-0.519912870905,-0.12917816899,-2.64083508954,-0.0695084011374,2.11061713628,-0.891380914607,-0.289121587101,0.0432100482571,0.0198330548725,0.0316744327599,0.0233067604879,0.0117441961575,-0.278147955589,0.57382426473,0.81894323072,0.00620040040825,0.0,0.818942345455,-0.573732362341,-0.0120564556678,0.0,-0.00631630399039,0.0119962882277,-0.999908092463,0.0,0.265300117639,-0.259428439146,0.304908077898,1.0,-0.0571525714287,-0.0751148081634,2.924
-0.645562504998,-0.51927071011,-0.12884078733,-2.6403850083,-0.0692537524191,2.11075378734,-0.895235549685,-0.26830110158,0.0368093115983,0.0207904676445,0.0295668967991,0.0111814420479,0.010291087425,-0.257461281267,0.573943779299,0.818859201801,0.00623640372632,0.0,0.818858635018,-0.573851406518,-0.0120766715356,0.0,-0.00631044605973,0.0120382953197,-0.999907624592,0.0,0.264433056647,-0.260546321082,0.304896354148,1.0,-0.0513582857144,-0.0674994612246,2.939
-0.649697052142,-0.518619222512,-0.128337031386,-2.63992404037,-0.0689600187445,2.11089292332,-0.899146522147,-0.233451937113,0.0315992989568,0.0343812926938,0.0308448055603,0.0114904310446,0.012764416259,-0.224038988016,0.573919919404,0.818876028767,0.00622274232503,0.0,0.818875197766,-0.573827448136,-0.0120920283494,0.0,-0.00633121370119,0.012035737013,-0.999907524108,0.0,0.263602796872,-0.261625317457,0.304890256417,1.0,-0.0447914285715,-0.058868734694,2.956
-0.653499164856,-0.518005390044,-0.127757672721,-2.6394701521,-0.0686675601193,2.11103152071,-0.902871715698,-0.204569172732,0.0336569171577,0.0323922324614,0.0233734416677,0.00985183142913,0.0126733023974,-0.196213998713,0.573735662526,0.819005530628,0.00617067647749,0.0,0.819004081963,-0.573643575992,-0.0120875288153,0.0,-0.00636010648226,0.0119890864037,-0.999907901185,0.0,0.262826925727,-0.262649234395,0.304894492289,1.0,-0.0374520000001,-0.0492226285715,2.975
-0.656454339577,-0.517492695404,-0.127325025188,-2.63910445878,-0.0684158807262,2.11113790862,-0.905535429015,-0.175624562433,0.0277648747767,0.0294550949354,0.0219827200524,0.0156826142117,0.00373068216407,-0.155017147031,0.573779679758,0.818974825058,0.00615320400323,0.0,0.818973126667,-0.573687619201,-0.0120946382329,0.0,-0.00637531002035,0.0119791970103,-0.999907922891,0.0,0.262300501613,-0.263354260881,0.304893264556,1.0,-0.0316577142858,-0.0416072816328,2.99
-0.659140726135,-0.517025709759,-0.126915531287,-2.63878049265,-0.0681398339362,2.11124404448,-0.908037709859,-0.146527937027,0.0231772337432,0.0279366503016,0.0106088095639,0.0105312582878,0.00107165535661,-0.136403163118,0.573774936195,0.818978001538,0.00617272159352,0.0,0.818976485382,-0.573682654845,-0.0121026782946,0.0,-0.00637076662862,0.0119997583347,-0.999907705307,0.0,0.261787264617,-0.264032681596,0.304887342703,1.0,-0.0250908571429,-0.0329765551022,3.007
-0.661372658675,-0.516665210707,-0.126492719573,-2.63856074809,-0.0678765387423,2.11129337326,-0.910012118647,-0.119169119731,0.0204078648272,0.0208012443876,0.0110256763492,0.0157869004004,0.00130111288609,-0.106295551398,0.573809962968,0.818953351526,0.00618719029933,0.0,0.818951593629,-0.57371679966,-0.0121683188185,0.0,-0.00641571398382,0.0120495439174,-0.999906819211,0.0,0.261364290178,-0.264556421682,0.304868708294,1.0,-0.0199046153846,-0.0261603516484,3.024
-0.663071267993,-0.516399555227,-0.126199267199,-2.63836503905,-0.0676626686787,2.11135089738,-0.911495753689,-0.0976881680286,0.0173523209062,0.0156293463701,0.0137056577055,0.00514140491935,0.00340721961606,-0.0940362409675,0.573879253764,0.818904578553,0.0062161262509,0.0,0.818903232628,-0.573786008846,-0.0121597099402,0.0,-0.00639103891925,0.0120688435104,-0.999906744471,0.0,0.261046409398,-0.264969724783,0.304871655106,1.0,-0.0195846153846,-0.0257397802198,3.04
-0.664686716376,-0.516122164954,-0.125962299841,-2.63814295839,-0.0675181388418,2.1114113382,-0.913097712426,-0.0915591055741,0.0126611820602,0.0135407991101,0.014430136704,0.0149316218043,0.00279112950908,-0.0905395429675,0.573795291978,0.818963443748,0.00621189261453,0.0,0.8189621693,-0.57370232375,-0.012139023056,0.0,-0.00637776168953,0.0120528513846,-0.999907022142,0.0,0.260737261958,-0.265387158087,0.304881075644,1.0,-0.0192446153846,-0.0252929230769,3.057
-0.666323213705,-0.515831071537,-0.125788966793,-2.63790620669,-0.0674286827779,2.11148686424,-0.914656931104,-0.0920761658286,0.0163575939361,0.00890017225655,0.0142329704818,0.00746564570488,0.00452938887092,-0.0907785142318,0.573785950242,0.818970166172,0.00618846726597,0.0,0.818968812138,-0.573693515435,-0.0121071051317,0.0,-0.00636519691038,0.0120152798398,-0.999907554386,0.0,0.260408053802,-0.265834668966,0.304891812357,1.0,-0.0188846153846,-0.0248197802198,3.075
-0.667706433922,-0.515576370168,-0.125710707525,-2.6377099775,-0.0673924173867,2.11152482307,-0.91604865465,-0.0786758428862,0.0178821302502,0.00227993388858,0.0119752565118,0.00278161412366,0.000625445870635,-0.0839755506896,0.573749144956,0.818996057189,0.0061744531998,0.0,0.818994446945,-0.573656641839,-0.0121202330447,0.0,-0.00638452991002,0.0120110474795,-0.999907481978,0.0,0.260105318238,-0.266226357123,0.304892056094,1.0,-0.0185646153846,-0.0243992087912,3.091
-0.669133096297,-0.515334408873,-0.125683734574,-2.637497437,-0.0673439766022,2.11156796904,-0.9173885687,-0.0822398523139,0.0117972045767,0.00133623858918,0.0132375043222,0.00437414915535,0.00605338575571,-0.0763897092368,0.573832666623,0.818937412729,0.00619125599765,0.0,0.818936161554,-0.573740335057,-0.0120970297774,0.0,-0.00635465932395,0.0120121455483,-0.999907659069,0.0,0.259784838001,-0.266644043486,0.304903627095,1.0,-0.0182246153846,-0.0239523516484,3.108
-0.670845850574,-0.515033460917,-0.125627771202,-2.63722337897,-0.0672917285495,2.11165978707,-0.919158649897,-0.0774150990033,0.0152798138973,0.000421266399291,0.0140770866754,0.0010984208801,0.00495971895458,-0.086246473031,0.57378229115,0.818972726864,0.00618885430392,0.0,0.818971917823,-0.573690878242,-0.0120216862908,0.0,-0.00629506514168,0.0119665589752,-0.999908582632,0.0,0.259414187808,-0.267151022975,0.304926180498,1.0,-0.0178046153846,-0.0234003516484,3.129
-0.671789475598,-0.514838031298,-0.125593210349,-2.6370725342,-0.0672709192456,2.11172321237,-0.920098437859,-0.0764159486502,0.0138110870676,0.00351217338956,0.0143329594143,0.000671683897059,0.00342778013786,-0.0699160920641,0.57377760562,0.818976087396,0.00617854862909,0.0,0.818975301021,-0.573686535869,-0.011998407486,0.0,-0.00628197960574,0.011944726215,-0.999908925977,0.0,0.259210985821,-0.2674314074,0.304928765354,1.0,-0.0175646153846,-0.0230849230769,3.141
-0.673093424575,-0.514568326829,-0.125573336066,-2.63687264693,-0.0672278337589,2.11173155062,-0.921425190545,-0.0800246981339,0.0118875855978,0.000999279386186,0.0107450606354,0.00694783035616,0.000475090248315,-0.0816830100729,0.573773717831,0.818978629677,0.00620256077546,0.0,0.818977803684,-0.573681876004,-0.0120502746467,0.0,-0.00631074221701,0.01199412141,-0.999908153574,0.0,0.258910572492,-0.267809518111,0.304921144243,1.0,-0.0172246153846,-0.0226380659341,3.158
-0.674403792649,-0.514309428771,-0.125548262108,-2.63666815088,-0.0672024030287,2.11177195849,-0.922750428717,-0.0754382377552,0.017566109485,0.00213097027877,0.0110130268337,1.83364587454e-05,0.00850645803063,-0.0721356215426,0.573765215582,0.818984579844,0.00620340772436,0.0,0.818983719296,-0.573673285264,-0.0120572054602,0.0,-0.00631605766255,0.0119987260333,-0.999908064769,0.0,0.258613674956,-0.268195615093,0.304922434925,1.0,-0.0168846153846,-0.0221912087912,3.175
-0.675445598213,-0.514096013454,-0.125531355454,-2.63648799966,-0.0671750856863,2.11184883747,-0.923745508093,-0.0746837551112,0.0166992345358,0.0006601422521,0.0111832126004,0.00330007097314,0.00302981451735,-0.0744879250842,0.57381239148,0.818951536772,0.0062021531936,0.0,0.818950975328,-0.573721056932,-0.012008153161,0.0,-0.0062759104302,0.0119699169476,-0.999908662847,0.0,0.258387872616,-0.268513241279,0.304932374878,1.0,-0.0166046153846,-0.0218232087912,3.189
-0.676892579023,-0.513785863818,-0.125515425206,-2.63625491399,-0.0671398048906,2.11192291601,-0.925257828138,-0.0739300196853,0.0138312703502,-0.00130227814619,0.0116559781074,0.00281023220892,0.00112659486462,-0.079255765284,0.5737747862,0.818977811756,0.00621172068192,0.0,0.818977397892,-0.573683462741,-0.0120022173128,0.0,-0.00626610888268,0.0119740590508,-0.999908674725,0.0,0.258062513863,-0.268946503164,0.30493033178,1.0,-0.0162046153846,-0.0212974945055,3.209
-0.678126308374,-0.513540856144,-0.125486287122,-2.63605736944,-0.0671065473089,2.11192894421,-0.926464990702,-0.0751152277989,0.0189979776468,0.00533319900399,0.013750981325,0.000311246092179,-0.000631552696276,-0.0668424811778,0.573800289905,0.818959873783,0.00622087935007,0.0,0.818959359569,-0.573708502176,-0.0120361458583,0.0,-0.00628827018746,0.012001222412,-0.999908209947,0.0,0.257779707579,-0.269303730623,0.304930705733,1.0,-0.0158646153846,-0.0208506373626,3.226
-0.679235151118,-0.513308595462,-0.12546994877,-2.6358753244,-0.0670785112164,2.11197899608,-0.927574117438,-0.0686785345624,0.011045659325,8.67115524548e-05,0.00944551614316,0.00691252414111,0.00362645577561,-0.0669943211869,0.573809858493,0.818953127156,0.00622645315227,0.0,0.818952720777,-0.573718111866,-0.0120298025959,0.0,-0.00627973641321,0.012002221155,-0.99990825159,0.0,0.257530330405,-0.269634278339,0.304932185358,1.0,-0.0155446153846,-0.0204300659341,3.242
-0.680365385794,-0.513047700318,-0.125455358383,-2.63567898902,-0.0670587867297,2.1120656472,-0.928789492134,-0.066208892456,0.0128530569635,0.00167518804779,0.00990503153014,6.12929644127e-05,0.004151324344,-0.0657063279104,0.573748381262,0.818996237111,0.00622137437763,0.0,0.818995937054,-0.57365699948,-0.0120020389123,0.0,-0.00626081028874,0.0119816614201,-0.999908616847,0.0,0.257281782708,-0.269979873253,0.304932624609,1.0,-0.0152046153846,-0.0199832087912,3.259
-0.681508216909,-0.512810082011,-0.125438725325,-2.63549250502,-0.0670206154013,2.1120845721,-0.929914788943,-0.0705223529175,0.0137739178194,-0.000268115099664,0.0116639230248,0.00168045531805,-9.75067938376e-05,-0.0694688874411,0.573773146899,0.818978777774,0.00623573215816,0.0,0.818978444399,-0.573681276428,-0.0120352643093,0.0,-0.00627942416861,0.0120126729802,-0.99990812804,0.0,0.257003761544,-0.270331328356,0.304928484051,1.0,-0.0148446153846,-0.0195100659341,3.277
-0.682574581984,-0.512586157093,-0.12539583741,-2.63532374573,-0.0670040194656,2.11210956732,-0.930948661476,-0.065141915159,0.0214221193547,0.00263145559665,0.00836449771151,0.00275909812663,0.00744541597291,-0.0587114872055,0.57379780086,0.818961557355,0.00622882048392,0.0,0.818961074794,-0.573705842107,-0.0120462278734,0.0,-0.006292007979,0.0120134918775,-0.999908039096,0.0,0.256763025398,-0.270645071636,0.304930843038,1.0,-0.0145246153846,-0.0190894945055,3.293
-0.683734742339,-0.512331547941,-0.125394258017,-2.63511816362,-0.0669632759032,2.11217133289,-0.932158942809,-0.0605814984599,0.0189709880167,-0.000281113965932,0.0109352486318,0.00218281396559,0.00327371779437,-0.0637184283365,0.57377473096,0.818977578857,0.00624742689548,0.0,0.818977414688,-0.573682841684,-0.012030722725,0.0,-0.00626897125173,0.0120196576378,-0.999908109693,0.0,0.256518115682,-0.270973877624,0.304932910302,1.0,-0.0141846153846,-0.0186426373626,3.31
-0.684731437601,-0.512113359856,-0.1253803771,-2.63494136909,-0.0669431822575,2.11222589167,-0.933129064827,-0.0649812237622,0.0131281099406,0.00415317724202,0.0123098075425,0.000283814009838,-0.000385663600494,-0.0599925330485,0.573804306269,0.818956875289,0.00624511206683,0.0,0.818956798817,-0.573712646726,-0.012012808119,0.0,-0.00625519245946,0.0120077092012,-0.999908339543,0.0,0.256295627267,-0.271275375323,0.304937449193,1.0,-0.0138646153846,-0.0182220659341,3.326
-0.685766484045,-0.511900591897,-0.125346155542,-2.63474825801,-0.0669166736903,2.11225285878,-0.934169683065,-0.0594314481862,0.0132069794035,0.00382423517236,0.0109630950369,0.000249871873921,-0.000673244190541,-0.0607563048651,0.573796554918,0.818962346871,0.00623978148913,0.0,0.818962283833,-0.573705078984,-0.0120002878396,0.0,-0.00624810985564,0.0119961004814,-0.999908523164,0.0,0.256067114198,-0.271581958366,0.304949518575,1.0,-0.0135246153846,-0.0177752087912,3.343
-0.686776704902,-0.511692944769,-0.125306337347,-2.6345850825,-0.0668879605014,2.11230602384,-0.935200672989,-0.0579305550946,0.00694035638059,0.000497348534217,0.00926129972106,-0.000521566788789,0.00878626235513,-0.0571034090523,0.573771885654,0.818979669648,0.00623464819316,0.0,0.818979630645,-0.573680611406,-0.0119861414376,0.0,-0.00623982950365,0.0119835915701,-0.999908724865,0.0,0.255843997843,-0.271876581531,0.304952242114,1.0,-0.0131846153846,-0.0173283516484,3.36
-0.687743355885,-0.511468611917,-0.125270003883,-2.63441067489,-0.066863334779,2.11234581303,-0.936162098706,-0.0571120756375,0.0118268558299,0.00144008648428,0.0136486847701,0.000127434700568,0.00212027425722,-0.0555567785886,0.573769837582,0.818981153982,0.00622814615162,0.0,0.818981002291,-0.573678537637,-0.0119916739077,0.0,-0.00624812145432,0.0119814248475,-0.999908699051,0.0,0.255631305419,-0.272161755294,0.304952649017,1.0,-0.0128446153846,-0.0168814945055,3.377
-0.688626951217,-0.511270071565,-0.125254088452,-2.63425027178,-0.0668396215456,2.11239380565,-0.937063208374,-0.0566054732173,0.010894919808,0.000753028562227,0.0116292222754,3.58515444558e-05,0.00146593224722,-0.0635329373166,0.573762539262,0.818986256768,0.00622949967307,0.0,0.818986212968,-0.573671408359,-0.0119768569131,0.0,-0.00623531540942,0.0119739767169,-0.999908868209,0.0,0.255434906249,-0.272427916682,0.304956451994,1.0,-0.0125246153846,-0.0164609230769,3.393
-0.689631764873,-0.511066549926,-0.125234969005,-2.63407245583,-0.0668162294623,2.11243254296,-0.938081367462,-0.0580517818429,0.00835182917075,-0.00158927404521,0.00792011795998,0.000724190771964,1.12171551455e-06,-0.0506864808761,0.57375705893,0.818990100287,0.00622895344565,0.0,0.818990163551,-0.57366615091,-0.0119585203587,0.0,-0.00622068980809,0.0119629673956,-0.999909091082,0.0,0.255208196544,-0.27272741486,0.304965590945,1.0,-0.0121646153846,-0.0159877802198,3.411
-0.690541288392,-0.510868398093,-0.125220667419,-2.63390421162,-0.0667941009417,2.11247468723,-0.939005391414,-0.0545897716295,0.0107538822749,-0.000587278823371,0.0121331840283,-5.46146488768e-05,0.00492927272819,-0.0547492151809,0.573753052791,0.818992903536,0.00622938770866,0.0,0.818993077805,-0.573662346564,-0.0119414213436,0.0,-0.00620649366219,0.0119534825045,-0.999909292732,0.0,0.255004473727,-0.273001626752,0.304972536309,1.0,-0.0118246153846,-0.0155409230769,3.428
-0.691343133312,-0.510688062903,-0.125209278504,-2.63377110517,-0.0667762018182,2.11253034533,-0.93979140692,-0.0556550851343,0.00984343227915,0.000142067591415,0.0100108186949,0.000668719781343,0.00323517162276,-0.0532614858736,0.573772445953,0.81897931917,0.00622912013498,0.0,0.818979569726,-0.573681890422,-0.011928951098,0.0,-0.00619615012902,0.0119462555795,-0.99990944325,0.0,0.254823560115,-0.273242234278,0.304971196025,1.0,-0.0115246153846,-0.0151466373626,3.443
-0.692278453479,-0.510483726859,-0.125204038473,-2.63360262972,-0.0667529474086,2.11255722743,-0.940698620578,-0.0504386982856,0.012390851681,-0.000193137083319,0.00407652445763,0.000896299406787,0.00129542461951,-0.0514290850584,0.573810318119,0.818952721148,0.0062374871515,0.0,0.818953054011,-0.573719668556,-0.0119324825667,0.0,-0.00619368925455,0.0119554209485,-0.999909348953,0.0,0.254607867116,-0.273522255899,0.304974417429,1.0,-0.0111646153846,-0.0146734945055,3.461
-0.693009976294,-0.510319404317,-0.125189313328,-2.63346768114,-0.0667332617862,2.11259176608,-0.941462681847,-0.04577838741,0.00730821585367,0.000680799590101,0.00482946545323,0.000519018722221,0.00366455925275,-0.0499508898064,0.573788506276,0.818967996229,0.00623843883667,0.0,0.818968395779,-0.573697962283,-0.0119231576272,0.0,-0.00618582395853,0.011950685139,-0.999909454254,0.0,0.25444420377,-0.273741511454,0.304978104965,1.0,-0.0108646153846,-0.0142792087912,3.476
-0.693765368005,-0.510144757602,-0.125164323962,-2.63332985752,-0.0667124598041,2.11263096564,-0.942217877657,-0.0497996555479,0.0122646672096,0.000872346236068,0.00795246261011,0.00532484430645,0.00285528816061,-0.0410902477832,0.573791675329,0.818965772872,0.0062388370546,0.0,0.818966163902,-0.573701102542,-0.0119253606734,0.0,-0.00618735364959,0.0119522992483,-0.999909425497,0.0,0.254266063099,-0.273979239615,0.304976628389,1.0,-0.0105246153846,-0.0138323516484,3.493
-0.694697531854,-0.50992705568,-0.125142906866,-2.63314960489,-0.066687121794,2.11266876489,-0.943119342894,-0.0427895464944,0.0142742483441,0.000742023021286,0.00724808141658,0.000509690385205,0.00018154553295,-0.0481754304948,0.573816769936,0.818948226078,0.00623413545187,0.0,0.818948646435,-0.573726386072,-0.0119119825418,0.0,-0.00617872792826,0.0119409620362,-0.999909614289,0.0,0.254069678661,-0.27424543072,0.304984793855,1.0,-0.0101446153846,-0.0133329230769,3.512
-0.695376493371,-0.509766872055,-0.125124419243,-2.63302890374,-0.0666623466729,2.11270378403,-0.943785331215,-0.0420218899645,0.0124324831819,-0.00145902426263,0.00844654077811,-0.000739717365784,0.000647374814586,-0.0447056323138,0.573831042141,0.818938191278,0.00623865715575,0.0,0.818938666314,-0.57374062861,-0.0119121282208,0.0,-0.00617604456918,0.0119448564973,-0.999909584351,0.0,0.253918239625,-0.274446085538,0.304983649846,1.0,-0.00984461538462,-0.0129386373626,3.527
-0.696133730795,-0.509581549631,-0.125085045755,-2.63288563658,-0.0666460304669,2.1127384151,-0.944562786358,-0.0403970399064,0.013051545194,0.00300503780522,0.0129439987393,0.000604695659806,0.00220772936791,-0.0418749178001,0.573801367871,0.818959095278,0.00622393697169,0.0,0.818959359287,-0.573710983575,-0.0119173009801,0.0,-0.0061891601876,0.0119355448345,-0.999909614448,0.0,0.253744097165,-0.274682461196,0.304984843738,1.0,-0.00948461538462,-0.0124654945055,3.545
-0.696902182435,-0.50939835532,-0.125067300764,-2.63274000971,-0.0666188730625,2.112771592,-0.945326904743,-0.0407941302602,0.0095496236538,0.000578779755955,0.00918284088491,0.000473722681145,0.0026704135533,-0.0350178478785,0.573810752528,0.818952469082,0.00623061545079,0.0,0.818952819268,-0.573720337353,-0.011916426523,0.0,-0.00618447519564,0.0119405836531,-0.999909583277,0.0,0.253581862656,-0.274897539892,0.304985324028,1.0,-0.00914461538462,-0.0120186373626,3.562
