nelsonifechukwu/NELSON_IML_WORK/CNN-GradCAM/train2dof/data_sample_2022-02-21-10-23-31/robot_state.csv
position_joint1,position_joint2,position_joint3,position_joint4,position_joint5,position_joint6,position_joint7,velocity_joint1,velocity_joint2,velocity_joint3,velocity_joint4,velocity_joint5,velocity_joint6,velocity_joint7,ee_T_00,ee_T_10,ee_T_20,ee_T_30,ee_T_01,ee_T_11,ee_T_21,ee_T_31,ee_T_02,ee_T_12,ee_T_22,ee_T_32,ee_T_03,ee_T_13,ee_T_23,ee_T_33,v_x,v_y,time
0.465088621462,0.547667439307,-0.123968976895,-1.35575501595,0.0794672299371,1.89408541978,0.159177948199,0.000760772737416,3.48296151342e-05,0.00215686907167,0.00058543007725,-0.000231004596386,-5.00905689484e-06,0.0010836040506,0.573781974143,0.818993684366,0.00208279098986,0.0,0.818952529397,-0.573723128997,-0.0118013876078,0.0,-0.00847047963674,0.00847729364273,-0.999928190655,0.0,0.661688422914,0.260916115817,0.303330055773,1.0,0.0,0.0,0.0
0.465085878625,0.547669239135,-0.123971505863,-1.35575803047,0.0794669153541,1.89408542517,0.159172584713,-0.00104951247573,0.00196988118683,-0.000267721612662,-0.000913403927123,-5.50953634762e-05,2.99107973393e-05,-0.000813296814985,0.573781679993,0.818993902631,0.00207799402225,0.0,0.818952697332,-0.573722865848,-0.0118025267217,0.0,-0.00847416788908,0.00847401557119,-0.999928187191,0.0,0.66168899911,0.260912404386,0.303327429445,1.0,-0.00022,-0.000289142857143,0.012
0.465086091764,0.547661175411,-0.123971624133,-1.35576419463,0.0794714079806,1.89408632905,0.159177946729,0.00101357453868,-0.000541725458,-0.000369808243913,-0.00158034883886,-2.13579440105e-06,0.000409119792333,2.41602332705e-05,0.573787497542,0.818989813802,0.00208313585636,0.0,0.818948631066,-0.573728618084,-0.0118050568529,0.0,-0.00847322979366,0.00847973854911,-0.999928146624,0.0,0.661687699042,0.260912641212,0.303330298687,1.0,-0.00056,-0.000736,0.029
0.465081878345,0.547628849082,-0.123970065635,-1.35579473939,0.079466739964,1.89409313002,0.159179693999,-0.000638211752103,-0.00147172295226,-0.000146561453953,-0.00220500500419,-0.000158696157293,5.83655496645e-05,0.00222646485937,0.573791710319,0.818986845475,0.00208973898481,0.0,0.818945761189,-0.573732816928,-0.0118000809765,0.0,-0.0084653222446,0.00848233484025,-0.999928191579,0.0,0.661683911943,0.26090726065,0.303339191117,1.0,-0.00096,-0.00126171428571,0.049
0.465089474662,0.547495882718,-0.123970382064,-1.35593595265,0.0794641515329,1.89411869822,0.159168486987,0.00125417890899,-0.00811621211961,-0.00113139398933,-0.0119904472614,-0.000219275369209,0.000102964525679,-0.0011686004069,0.573783494313,0.818992550078,0.00210985094598,0.0,0.81895164122,-0.573724436478,-0.0117994590022,0.0,-0.00845335872605,0.00849836433206,-0.999928156684,0.0,0.661658388912,0.260898406433,0.303368396245,1.0,-0.0013,-0.00170857142857,0.066
0.465081807115,0.54737578333,-0.123970329358,-1.35608985362,0.079463879508,1.89414815863,0.159173089115,0.000668405075698,-0.0101922650016,-0.000994416290181,-0.0128108263485,-7.54170355617e-05,-0.00102468334191,0.0013493005235,0.57380182503,0.818979700429,0.002112529143,0.0,0.818938711264,-0.573742638661,-0.0118118024087,0.0,-0.00846174126817,0.00850782947495,-0.999928005295,0.0,0.661634155453,0.260878627085,0.303382773864,1.0,-0.00158,-0.00207657142857,0.08
0.465061967095,0.547242784399,-0.123972307922,-1.35627540718,0.0794590903943,1.89423550212,0.159164128044,-8.52088478205e-05,-0.0102316545487,-0.000526859481617,-0.0132241935584,-0.000175342977331,0.00287470009522,-0.000193045214627,0.573821341186,0.818965943218,0.00214456296813,0.0,0.818925348946,-0.573762004918,-0.0117975195314,0.0,-0.00843146029412,0.00852606961043,-0.999928105723,0.0,0.661618444956,0.260849237787,0.303396307806,1.0,-0.00188,-0.00247085714286,0.095
0.465041124246,0.54702988428,-0.123960038067,-1.35652147911,0.079453838422,1.89437196655,0.159146735872,-0.00058539564276,-0.00926228895742,0.00144980500925,-0.0136987029071,-0.00032412126829,0.00171958589521,-0.00112226552676,0.57382817851,0.818960896317,0.00224025731341,0.0,0.818921462603,-0.573768387573,-0.0117568027433,0.0,-0.00834313351719,0.00858114471263,-0.999928375474,0.0,0.661597775229,0.260824568647,0.303441422737,1.0,-0.00226,-0.00297028571429,0.114
0.465018776124,0.546844822963,-0.12396583196,-1.35673127122,0.0794502730839,1.89449118129,0.159133182454,-0.00250418528043,-0.013322427121,0.000405751255596,-0.0179558645729,-1.3471823721e-05,0.00872901344963,-0.000277446618503,0.573850406003,0.818945088841,0.00232376752247,0.0,0.818906747214,-0.573790306386,-0.0117119838751,0.0,-0.00825827539384,0.00862404164448,-0.999928710856,0.0,0.661585684968,0.260791488506,0.303483182977,1.0,-0.00256,-0.00336457142857,0.129
0.464980435573,0.546610501434,-0.123968833939,-1.3570874255,0.0794435136118,1.89462373663,0.159092381321,-0.00352688517906,-0.0120040407345,-0.00169678481647,-0.0236104651096,0.000203615440418,0.0159334092531,-0.00331717586689,0.573868623076,0.818932276717,0.00234019254442,0.0,0.818894034596,-0.573808341395,-0.0117172671515,0.0,-0.00825298515834,0.00864070804127,-0.999928610652,0.0,0.661547674208,0.260733093149,0.303491212022,1.0,-0.0029,-0.00381142857143,0.146
0.464933567961,0.54634324114,-0.123970728233,-1.35748959821,0.0794315683829,1.89476467225,0.158954823739,-0.00157220879124,-0.0194615264994,-0.000961509571786,-0.0234540728767,-0.000449969647817,0.0072371891678,-0.00407505887649,0.573814942026,0.818969854339,0.00235306046952,0.0,0.818931661882,-0.573754496236,-0.0117242533763,0.0,-0.00825188992996,0.0086547141223,-0.999928498562,0.0,0.661503879031,0.260664397174,0.303501330996,1.0,-0.00324,-0.00425828571429,0.163
0.464888953128,0.546054075252,-0.123965447641,-1.35795818179,0.0794097787177,1.89493608062,0.158938144207,-0.00240727175307,-0.0168427899876,0.00136779066702,-0.0312768000197,1.66544537463e-05,0.0162952679893,-0.000889940499467,0.573854562679,0.818942100893,0.00235014429869,0.0,0.818903785494,-0.573794033627,-0.0117364380896,0.0,-0.0082631235801,0.00865971733639,-0.999928362476,0.0,0.661449783451,0.26059422519,0.303497726038,1.0,-0.00358,-0.00470514285714,0.18
0.464838425254,0.545756328686,-0.123970790042,-1.35845229927,0.0793612241993,1.89510064903,0.158903613758,-0.00291428126707,-0.0220385410359,-0.000146580603769,-0.0307227559147,-0.00178799775019,0.0105082752888,-0.00455641690749,0.573886047794,0.818920148818,0.00231104033833,0.0,0.818881488912,-0.57382583164,-0.0117375022993,0.0,-0.00828610201875,0.00862862308645,-0.999928441128,0.0,0.661394124321,0.260506273715,0.303487729864,1.0,-0.0039,-0.00512571428571,0.196
0.464760655327,0.545418363377,-0.123972985214,-1.35905852824,0.0792610161312,1.89529821505,0.158789270795,-0.00648558654158,-0.0236804696323,-0.000151769385494,-0.0345750925661,-0.00123138549251,0.0142234356337,-0.00323057544913,0.573864802683,0.818935302081,0.00221498260352,0.0,0.818895920171,-0.573805493403,-0.0117249549692,0.0,-0.00833117075478,0.00854254365759,-0.999928805737,0.0,0.661329569599,0.260383224035,0.303455490901,1.0,-0.00424,-0.00557257142857,0.213
0.464703109646,0.544987742362,-0.123978701817,-1.35978687903,0.0792574065944,1.89553543348,0.158711286607,-0.00277438599196,-0.0267831511403,-0.000337002369448,-0.0379887976424,0.000705586824843,0.0159761782177,0.00109707299756,0.573891616433,0.818916594764,0.0021841039433,0.0,0.818876433544,-0.573832035561,-0.0117867913472,0.0,-0.00839925193319,0.00855301665844,-0.999928146655,0.0,0.661237360542,0.260276573671,0.30343442561,1.0,-0.0046,-0.00604571428571,0.231
0.464637548074,0.544620045334,-0.123979665234,-1.3604090335,0.0792382886784,1.89574869315,0.15866013832,-0.00168282997837,-0.0262433205184,-0.00056864700178,-0.0418037892423,-3.85990547974e-05,0.014831089455,-0.000476978908115,0.573933664768,0.818887194747,0.00215815360666,0.0,0.818846510035,-0.573873990996,-0.0118229591438,0.0,-0.00844332418363,0.00855295548966,-0.999927776006,0.0,0.661164907708,0.260175022799,0.303417067714,1.0,-0.0049,-0.00644,0.246
0.464574586742,0.544140796197,-0.12398250474,-1.36120124811,0.0792016741751,1.89603498458,0.158518327855,-0.00163201976984,-0.0242873584335,0.00105518901247,-0.0468330657111,-0.00246239123677,0.016130518333,-0.00761442970791,0.573905520024,0.818906966138,0.00214051335186,0.0,0.818865943665,-0.573845809936,-0.0118448143125,0.0,-0.00847163944035,0.00855076243208,-0.999927555269,0.0,0.661071502745,0.260057514273,0.303404049636,1.0,-0.00526,-0.00691314285714,0.264
0.464501231322,0.543633761399,-0.123988286258,-1.36202669327,0.0791637043409,1.89632264668,0.15844504066,-0.0069163715018,-0.0354176909752,0.00122399141892,-0.0525113187833,-0.000587024699072,0.0164821305179,-0.00985079880488,0.57394542071,0.818879057964,0.0021188146676,0.0,0.818837645797,-0.573885684189,-0.0118692126762,0.0,-0.00850365601159,0.00854741004135,-0.999927312166,0.0,0.660974796057,0.259927729058,0.30339503611,1.0,-0.0056,-0.00736,0.281
0.464429847023,0.543105350559,-0.123989657867,-1.36287299993,0.079104862652,1.89662010727,0.15831548096,-0.00669173179905,-0.0329178888388,0.000791242618033,-0.048048104654,-0.00588931809853,0.019392625062,-0.00722941300008,0.573930088482,0.818889860302,0.00209693355221,0.0,0.818848207718,-0.573870486405,-0.0118753715863,0.0,-0.00852141716545,0.00853286763035,-0.999927285166,0.0,0.660875325198,0.259796901462,0.303391824097,1.0,-0.00594,-0.00780685714286,0.298
0.464369444591,0.542574667796,-0.123995280873,-1.36372193185,0.0790622895159,1.89692084463,0.158209187758,-0.00341160097284,-0.0329337712482,0.00017632724506,-0.0472991181625,-0.00022737692557,0.0178633645999,-0.0131178453316,0.573932245219,0.818888378638,0.00208521726405,0.0,0.818846495948,-0.573872612671,-0.0118906433884,0.0,-0.00854062503948,0.00853206077558,-0.999927128176,0.0,0.660773051534,0.259673446132,0.303389362602,1.0,-0.00626,-0.00822742857143,0.314
0.464278101801,0.541877206581,-0.123987465847,-1.36481581649,0.0789995585657,1.89732032888,0.158060528402,-0.0035294834675,-0.0361234744714,0.000811696305174,-0.0530467828684,-0.00774227680323,0.0218391484341,-0.00404844444144,0.573923837965,0.818894255364,0.00209132683374,0.0,0.818852364692,-0.573864094171,-0.0118976115958,0.0,-0.00854291288681,0.00854097527305,-0.999927032528,0.0,0.660644330917,0.259513897338,0.303396281208,1.0,-0.00666,-0.00875314285714,0.334
0.464215380266,0.541378744256,-0.123990995612,-1.36555375071,0.0789486331755,1.89759195376,0.157973432232,-0.00150844488623,-0.0383827542408,0.00049080379262,-0.0553869026444,-0.00142756075899,0.0174473919174,-0.00966872062837,0.573933650148,0.818887318332,0.00211471147778,0.0,0.818845802091,-0.573873880675,-0.011877220999,0.0,-0.00851269186656,0.00854852400338,-0.999927225759,0.0,0.66056132615,0.259399565936,0.303421104891,1.0,-0.00692,-0.00909485714286,0.347
0.464131097287,0.540712423237,-0.123990346318,-1.36657330961,0.0788986694301,1.89797993631,0.157827333571,-0.00337896257413,-0.0386754739262,0.000675964703471,-0.0606191118161,-0.0021697877881,0.0219980269392,-0.0136844631546,0.573925814801,0.818892716527,0.00215054069403,0.0,0.81885156484,-0.57386579999,-0.0118703522419,0.0,-0.00848658663084,0.00857384026799,-0.999927230908,0.0,0.660445409482,0.259250243292,0.303440459083,1.0,-0.00726,-0.00954171428571,0.364
0.464036781087,0.539941612997,-0.12399316566,-1.36773187329,0.0788221297324,1.89842053065,0.157690598654,-0.00240011210175,-0.0419123838578,-0.000106426732254,-0.0678640517491,-0.00226791566397,0.0319313514822,-0.00736917523154,0.573936778485,0.818884925449,0.00219090737329,0.0,0.818844381676,-0.573876685898,-0.0118395473749,0.0,-0.00843807866611,0.00858932924367,-0.999927508498,0.0,0.660315309925,0.259076438773,0.303472025458,1.0,-0.00762,-0.0100148571429,0.382
0.463939641283,0.539240923738,-0.123998839781,-1.3688188723,0.0787658264116,1.89882538308,0.157555662082,-0.00217605140156,-0.0478230766022,-0.00144537385369,-0.0729646098053,-0.0014117636353,0.0208929316622,-0.0040686820887,0.573954889707,0.818872180142,0.00220999385227,0.0,0.818831824127,-0.573894658084,-0.0118368965682,0.0,-0.00842476383551,0.00860362360804,-0.999927497879,0.0,0.660192806374,0.258907542141,0.30348501096,1.0,-0.00794,-0.0104354285714,0.398
0.463820617512,0.538450104035,-0.124002366893,-1.37005831487,0.0786880336836,1.89931471203,0.157391658477,-0.00923091231292,-0.0446447903082,-0.00149755364069,-0.0717179818268,-0.00104238407412,0.027344717716,0.000855863031234,0.573968389214,0.818862635529,0.00224036127775,0.0,0.81882274791,-0.5739081126,-0.0118123960015,0.0,-0.00838712968749,0.0086145665406,-0.999927720037,0.0,0.660060403258,0.258710799627,0.303496224439,1.0,-0.0083,-0.0109085714286,0.416
0.463698110835,0.537623671278,-0.124005936179,-1.37136813667,0.0786146618105,1.89981428435,0.157241341198,-0.00751741041661,-0.0474778300165,-0.000879220315973,-0.070641461577,-0.00256169838034,0.0221454225272,-0.00588903093725,0.574000851643,0.818839841068,0.00225474900497,0.0,0.818800115262,-0.573940489278,-0.0118081715224,0.0,-0.00837507079169,0.00862425529903,-0.999927737594,0.0,0.659915061767,0.258505272957,0.303499850795,1.0,-0.00866,-0.0113817142857,0.434
0.463602996325,0.536948839413,-0.124012327316,-1.37242165819,0.0785515392223,1.90020207685,0.15710766029,-0.00500466591658,-0.0491069650131,-0.000622452717042,-0.0753438361984,-0.00122060201527,0.0246164686498,-0.00897815282303,0.574014866347,0.818829999698,0.00226090863551,0.0,0.818790367327,-0.573954492201,-0.0118034806715,0.0,-0.00836754650804,0.00862674968388,-0.99992777907,0.0,0.659795554225,0.258338711058,0.303508681449,1.0,-0.00894,-0.0117497142857,0.448
0.463472935039,0.536101897037,-0.124019441026,-1.37375109764,0.0784773255483,1.90071018002,0.156939806538,-0.0114546780748,-0.0495393249548,0.00046588008181,-0.07971770287,-0.00979699483076,0.0323105231628,-0.00756658854467,0.574042282081,0.81881071872,0.002283022977,0.0,0.818771363599,-0.573981808901,-0.0117933923141,0.0,-0.00834630307096,0.00863934600767,-0.99992784786,0.0,0.659650160287,0.258124558217,0.303518022582,1.0,-0.00928,-0.0121965714286,0.465
0.463361210563,0.535208991477,-0.124023704136,-1.37515115935,0.0783921638945,1.90121271698,0.15676850256,-0.00577792578859,-0.0566314445145,4.28198074057e-05,-0.0868105300333,-0.00381703001365,0.0330963801211,-0.012543649756,0.574050442876,0.818805012188,0.00227770737791,0.0,0.818765576615,-0.573989977334,-0.0117976002103,0.0,-0.00835271379334,0.00863749231871,-0.999927810344,0.0,0.659483362298,0.257914257708,0.303525423415,1.0,-0.00962,-0.0126434285714,0.482
0.46324418357,0.534375199044,-0.12402440271,-1.37650499246,0.0783260950603,1.90170609257,0.156607423096,-0.00803558873419,-0.0495279917084,0.000319514465929,-0.0882059189776,-0.00839733203324,0.0369429669608,-0.0129328055761,0.574071411135,0.81879035397,0.00226231389993,0.0,0.818750553716,-0.574010832609,-0.0118254698587,0.0,-0.00838414938697,0.00864110129532,-0.999927516077,0.0,0.659323085263,0.257709713716,0.303512085449,1.0,-0.00994,-0.013064,0.498
0.463118295873,0.533398158177,-0.124030341451,-1.37806292711,0.0782238401852,1.90227707836,0.156412391201,-0.00535164271318,-0.0525795740775,-8.64391883471e-05,-0.0798685392331,-0.000587792075698,0.0273926770099,-0.00511334935916,0.574076779173,0.818786632308,0.00224705778467,0.0,0.818746704966,-0.574016332733,-0.0118249636085,0.0,-0.00839243584157,0.00862837430221,-0.999927556465,0.0,0.659139717361,0.257473385296,0.303509312563,1.0,-0.0103,-0.0135371428571,0.516
0.462986064096,0.532447568199,-0.124025210413,-1.37959215398,0.0781449057682,1.90285475036,0.156218098803,-0.00580006313921,-0.0545771206511,0.000412735060893,-0.0884470999558,-0.00114916882852,0.0313245802302,-0.00267663090348,0.574084861289,0.818780948956,0.00225312394102,0.0,0.818740950586,-0.57402423599,-0.0118397310274,0.0,-0.00840096020167,0.00864190156519,-0.999927368065,0.0,0.658961074866,0.257246595514,0.303501611503,1.0,-0.01064,-0.013984,0.533
0.462876702404,0.531585824643,-0.124025268839,-1.38098280319,0.0780656484017,1.90336592094,0.156032727346,-0.00917895881836,-0.0578402946484,0.00143371359909,-0.0904326963408,-0.00564891228941,0.03394383897,-0.0172240002526,0.574077253705,0.81878631983,0.00223967402088,0.0,0.818746076407,-0.574016610136,-0.0118549802574,0.0,-0.00842124770244,0.00863956516431,-0.999927217602,0.0,0.65879406056,0.257042611811,0.303491439813,1.0,-0.01094,-0.0143782857143,0.548
0.462729728788,0.530525793797,-0.124025505498,-1.38271962024,0.0779527872666,1.903969116,0.155811690069,-0.00879842673271,-0.0570451235705,0.00118664133714,-0.0961988720706,-0.0142645312588,0.0374509729959,-0.016432551424,0.5740807722,0.818784034265,0.00217235473298,0.0,0.81874289832,-0.574020379219,-0.0118919128753,0.0,-0.00849009597221,0.00860568422274,-0.999926927565,0.0,0.658581006725,0.256776120212,0.303464004578,1.0,-0.0113,-0.0148514285714,0.566
0.462585652736,0.529477431177,-0.124033274668,-1.38436084596,0.0778509962559,1.90457408675,0.155586627657,-0.0111833796311,-0.0615571065476,0.00106611638508,-0.100588489625,-0.00190239681834,0.041591604566,-0.0163043660282,0.574081686504,0.818783375174,0.00217914202288,0.0,0.818742361415,-0.574021300501,-0.0118844056172,0.0,-0.00848004307233,0.00860694121577,-0.999927002052,0.0,0.658390200424,0.256520275151,0.303473988483,1.0,-0.01164,-0.0152982857143,0.583
0.462461663121,0.528448783829,-0.124038931603,-1.38594465851,0.0777651029333,1.90516982984,0.155377707228,-0.00738716620292,-0.0669025658418,-0.00171169105469,-0.098379051832,-0.00805764234407,0.0336523503846,-0.0182047666206,0.574078959258,0.818785184532,0.00221743760445,0.0,0.818744602371,-0.574018352831,-0.0118723882281,0.0,-0.00844824835995,0.00863136952828,-0.99992706062,0.0,0.658203499065,0.256287391734,0.303496317683,1.0,-0.01196,-0.0157188571429,0.599
0.462312265373,0.527342039983,-0.124035863034,-1.387673698,0.0776386982176,1.90583391333,0.155132803265,-0.00748379285539,-0.0667481208187,0.00202976069739,-0.100760909807,-0.00597972912014,0.0421519125578,-0.0146048322616,0.574058158406,0.818799705632,0.00224047459999,0.0,0.818759609535,-0.573997654583,-0.0118381260285,0.0,-0.00840718880622,0.0086303490965,-0.999927415491,0.0,0.658004775296,0.256024784169,0.303509845475,1.0,-0.0123,-0.0161657142857,0.616
0.462168466638,0.526185677263,-0.124037080973,-1.38946314907,0.0775334627488,1.90651635021,0.154889837615,-0.00932939868933,-0.0667071815512,-0.000155882218668,-0.101379677754,-0.00711426990282,0.0406306169066,-0.0170705084307,0.574046184927,0.818807982579,0.00228301033562,0.0,0.818768421996,-0.573985498883,-0.0118179996205,0.0,-0.00836641868041,0.00865350097221,-0.999927557356,0.0,0.657794708068,0.255761525884,0.303531020215,1.0,-0.01264,-0.0166125714286,0.633
0.462025368658,0.525076691126,-0.12404035001,-1.39118991606,0.0774197576951,1.9071326138,0.154657552115,-0.00987714334741,-0.0717941896258,0.00050236993005,-0.105814610598,-0.0139448737041,0.0398514508472,-0.0137066727929,0.574037610446,0.818814011529,0.00227666809389,0.0,0.818774406666,-0.573976989486,-0.0118166590226,0.0,-0.00836905200873,0.00864745076675,-0.99992758766,0.0,0.65758509589,0.25549856826,0.303542712476,1.0,-0.01296,-0.0170331428571,0.649
0.461864836378,0.523844643921,-0.124048998791,-1.39320150345,0.0772954647379,1.90784756167,0.154378774453,-0.0069687734663,-0.068797095976,-0.000377322016073,-0.118645143304,-0.00319168973346,0.0411040229718,-0.0168212575177,0.5740213743,0.818825555388,0.00221778967227,0.0,0.818785164163,-0.573960964128,-0.0118496204746,0.0,-0.00843000967151,0.00861799463373,-0.999927329912,0.0,0.657337163159,0.255193843276,0.303513864137,1.0,-0.01332,-0.0175062857143,0.667
0.461709939536,0.522631497922,-0.124049301714,-1.39512483737,0.0771742796623,1.90858226354,0.154126512703,-0.00989966577283,-0.0749336151059,-0.00286195569862,-0.114072498085,-0.00180721587596,0.0439689058908,-0.0151729196181,0.574012411853,0.818831793799,0.00223414510789,0.0,0.818791656983,-0.573951981206,-0.0118360730584,0.0,-0.00840962283424,0.00862351824737,-0.999927453957,0.0,0.657109274044,0.254909757692,0.303514820091,1.0,-0.01366,-0.0179531428571,0.684
0.461550705756,0.521482672931,-0.124049973099,-1.39697348253,0.0770601578823,1.9093020264,0.153869275349,-0.00962223938363,-0.070850260123,-0.000521646165905,-0.114801112481,-0.00826503569141,0.0441098380643,-0.0126640753372,0.574000970014,0.818839779022,0.00224713494615,0.0,0.818799846976,-0.573940526857,-0.0118249365696,0.0,-0.00839316822716,0.00862764492023,-0.999927556611,0.0,0.656894489783,0.25463078159,0.303504551187,1.0,-0.01398,-0.0183737142857,0.7
0.461384165911,0.520199727761,-0.124052784242,-1.39901943679,0.0769351212791,1.91004327102,0.153604830564,-0.010605782286,-0.076741130508,0.0013084451402,-0.118383015578,-0.0055842076123,0.0429670922819,-0.0200570433541,0.573998082296,0.81884185837,0.00222697142622,0.0,0.818801625541,-0.573937678782,-0.0118400078574,0.0,-0.00841711328151,0.00861975558536,-0.999927423375,0.0,0.656643264035,0.254323881605,0.303496169157,1.0,-0.01432,-0.0188205714286,0.717
0.461207139258,0.518868547247,-0.124064813547,-1.40108109937,0.076807052815,1.9107849728,0.153311871718,-0.0104100791471,-0.0791498080935,-0.000516191357896,-0.123798469418,-0.012623583161,0.0377087045318,-0.0131152184189,0.573986569404,0.818849911692,0.00223319667301,0.0,0.818809778541,-0.573926162097,-0.0118344381805,0.0,-0.00840910056455,0.00862153783665,-0.999927475427,0.0,0.656393884521,0.254003090794,0.303514088044,1.0,-0.01466,-0.0192674285714,0.734
0.461042169079,0.517594200808,-0.124063437121,-1.40307796707,0.0766771427185,1.91149733235,0.15305120784,-0.00811015334068,-0.0760917634261,0.000506335816655,-0.120309080435,-0.00485315501067,0.042471208135,-0.0168907248824,0.573977813483,0.818856082915,0.00222081169005,0.0,0.818815785764,-0.573917452854,-0.0118411652622,0.0,-0.00842180976129,0.00861516768401,-0.999927423369,0.0,0.656145746217,0.253702752831,0.303519601984,1.0,-0.01498,-0.019688,0.75
0.460850092458,0.516151715021,-0.124069134551,-1.40533233702,0.0765280821737,1.91233841852,0.152731126545,-0.00890247074375,-0.0793517165153,0.000666433664468,-0.126335843748,-0.0116094586098,0.0412860157245,-0.0138410436921,0.573955948953,0.818871363743,0.0022372313432,0.0,0.818831382205,-0.57389563141,-0.0118202650652,0.0,-0.00839550091882,0.00861639257768,-0.999927634053,0.0,0.655875505974,0.253357821861,0.303531483407,1.0,-0.01534,-0.0201611428571,0.768
0.460663231485,0.514785348895,-0.124072560151,-1.40752932761,0.076398375514,1.91317463722,0.152423846424,-0.00903608831119,-0.0834397331873,-0.00113279057247,-0.131885411404,-0.00398568938545,0.0463385137084,-0.0232845021525,0.573940846322,0.818881938628,0.00224107431884,0.0,0.818841975621,-0.573880483419,-0.0118218701247,0.0,-0.00839476873772,0.00862030583481,-0.999927606472,0.0,0.655612154624,0.2530262619,0.303516433249,1.0,-0.01568,-0.020608,0.785
0.460491169655,0.51353277496,-0.124077981836,-1.40952307386,0.0762845560711,1.91386308362,0.152161020867,-0.0120544151817,-0.0791741402038,0.000487775656863,-0.131312122298,-0.00608770065893,0.0426969647091,-0.0164460645097,0.573937238248,0.818884602536,0.00219116032587,0.0,0.818843858175,-0.57387693714,-0.0118635512746,0.0,-0.00845758592829,0.00860331766997,-0.999927223434,0.0,0.655342961182,0.252699169482,0.303499554774,1.0,-0.016,-0.0210285714286,0.801
0.460286861452,0.512026952542,-0.124084973042,-1.41193806678,0.0761338289475,1.91472654643,0.151818865881,-0.0158905414502,-0.0853126566562,-0.000396084705065,-0.136589522199,-0.0155549510508,0.0501844885906,-0.0158128430441,0.573922045809,0.818895338457,0.00215798248172,0.0,0.818854111595,-0.573861827759,-0.0118866928166,0.0,-0.00849573713521,0.00858927325724,-0.999927020755,0.0,0.655058196346,0.252348080059,0.303485699384,1.0,-0.01634,-0.0214754285714,0.818
0.4600851694,0.510579354569,-0.124091154507,-1.41425662562,0.0759960573078,1.9156172807,0.151482911466,-0.0151128047875,-0.0866793775208,-0.00079092228639,-0.138621627069,-0.0133996720646,0.0545389489187,-0.0179643285855,0.573900760818,0.818910216237,0.00217287279683,0.0,0.818869176966,-0.573840479393,-0.0118794833647,0.0,-0.00848151121892,0.00859710862089,-0.999927074186,0.0,0.654781152664,0.251994414543,0.303473193911,1.0,-0.01668,-0.0219222857143,0.835
0.459892837952,0.50918555524,-0.124097175505,-1.41647958696,0.0758576995972,1.91643581695,0.151179588003,-0.0155098117375,-0.0917046184725,-0.000478363541468,-0.138230052181,-0.0113176729806,0.0451598224607,-0.0260664596045,0.573892564311,0.818915994188,0.00216009091268,0.0,0.818874787827,-0.573832334443,-0.0118861562158,0.0,-0.00849439696699,0.00859038604987,-0.999927022581,0.0,0.6545078092,0.251652745374,0.303461781508,1.0,-0.017,-0.0223428571429,0.851
0.459684532706,0.507666047109,-0.124106105667,-1.41886853838,0.0756996459195,1.91728103322,0.150844609017,-0.0133414483329,-0.0944123103246,-0.00105661389393,-0.139254107957,-0.00770865628506,0.0485034797518,-0.019837390874,0.573876135736,0.818927580539,0.00213203330621,0.0,0.818886053698,-0.573816066178,-0.0118953838019,0.0,-0.00851822691405,0.00857253427768,-0.999926973067,0.0,0.654208241649,0.251279653772,0.30346119172,1.0,-0.01734,-0.0227897142857,0.868
0.459457596982,0.506014065681,-0.124117653566,-1.42144343769,0.0755378226719,1.9182269841,0.150492806399,-0.00830547054591,-0.0907583685601,0.0046966190366,-0.140739767844,-0.0114291666365,0.0561961785577,-0.0154971541698,0.573871517843,0.818930778387,0.00214665320795,0.0,0.818889476034,-0.57381142434,-0.0118836963624,0.0,-0.00850031423473,0.00857775173805,-0.999927080758,0.0,0.653892196101,0.250878779338,0.303472982082,1.0,-0.0177,-0.0232628571429,0.886
0.4592416669,0.504478872487,-0.124124895615,-1.42376685242,0.0753922522612,1.91913087309,0.150167879656,-0.0100366620501,-0.10304391789,-0.00140217059401,-0.145362235884,-0.0132785297787,0.061399374514,-0.0268257707455,0.573868056924,0.818932951995,0.0022405981042,0.0,0.81889296356,-0.573807685188,-0.0118237706342,0.0,-0.00839736465286,0.00862026026778,-0.999927585068,0.0,0.653619333395,0.250515697868,0.303518412488,1.0,-0.01802,-0.0236834285714,0.902
0.459013995887,0.502827616712,-0.124129085371,-1.42623029244,0.0752326787685,1.92007359957,0.149822275033,-0.012729933302,-0.0946767666096,-0.00035979234829,-0.143746533215,-0.00891469607677,0.0521494943516,-0.0161902049762,0.573857866142,0.818939797243,0.00234624364251,0.0,0.818901287583,-0.573797200885,-0.0117558646211,0.0,-0.00828123679401,0.00866770420611,-0.999928143429,0.0,0.653325657001,0.250132135846,0.303580907245,1.0,-0.01836,-0.0241302857143,0.919
0.458784197688,0.501123953149,-0.124135864663,-1.4287817597,0.075072274503,1.92097977261,0.149466748338,-0.0140055268314,-0.0985680824812,-0.000662025182704,-0.148855193669,-0.00550746477907,0.0534928839622,-0.0241795861202,0.573846584179,0.8189475601,0.00239552378037,0.0,0.81890966448,-0.57378570914,-0.0117332139339,0.0,-0.00823452815243,0.0086949497174,-0.999928292627,0.0,0.653004918595,0.249733503525,0.303634357185,1.0,-0.0187,-0.0245771428571,0.936
0.458562682904,0.499519673357,-0.124135187848,-1.43122973717,0.0749096873996,1.92186145023,0.149119010977,-0.0137630546601,-0.0941417101903,-0.00271871924922,-0.154225398248,-0.010250850769,0.0589854016513,-0.0190094205936,0.573823232869,0.818963841027,0.0024230995078,0.0,0.818926330459,-0.573762287699,-0.0117153487168,0.0,-0.00820432182579,0.00870704690077,-0.999928435658,0.0,0.652696882427,0.249353708029,0.303664765824,1.0,-0.01902,-0.0249977142857,0.952
0.45830813795,0.497852350662,-0.124135214135,-1.4338765474,0.0747488177461,1.92283799281,0.148734519391,-0.0135599070122,-0.100410476786,0.000685706027461,-0.157937408306,-0.0087156243376,0.0629482606956,-0.0282228278021,0.573807943884,0.818974559866,0.00242089435869,0.0,0.818936944326,-0.573746927736,-0.0117256570292,0.0,-0.00821419225258,0.00871100269303,-0.99992832017,0.0,0.652368661439,0.248935956694,0.303652289455,1.0,-0.01936,-0.0254445714286,0.969
0.458048956474,0.496170791704,-0.124133469714,-1.43655230912,0.0745847078641,1.92378710655,0.148338250094,-0.013741971708,-0.0951150036495,0.000842808076997,-0.160735689441,-0.0127201410726,0.0506096273704,-0.0241081204023,0.573785339544,0.818990504336,0.00238428873316,0.0,0.818952281549,-0.573724322915,-0.0117604736934,0.0,-0.00826395094896,0.0087007736061,-0.999927999235,0.0,0.652028006075,0.248510797648,0.303632883369,1.0,-0.0197,-0.0258914285714,0.986
0.457779820101,0.494499944731,-0.124141537478,-1.43929634454,0.0744174241412,1.92472611383,0.147949719424,-0.0127572513602,-0.0980143242594,-0.00124734975346,-0.162089514137,-0.0091695827718,0.0537285434022,-0.0238312648964,0.57378623795,0.818990198617,0.00227037658265,0.0,0.818950330602,-0.573725485727,-0.0118393384867,0.0,-0.00839389087947,0.00865274173515,-0.999927333688,0.0,0.651672052805,0.24806418519,0.30357241819,1.0,-0.0202371428571,-0.0265973877551,1.003
0.45749540129,0.492682524367,-0.124140819517,-1.44216553457,0.0742353022847,1.92579163138,0.147551253807,-0.0166021767103,-0.111351685006,-0.000738717379593,-0.175910991004,-0.0137074261161,0.0604882330914,-0.0274791935703,0.573787167012,0.818989525618,0.00227833318402,0.0,0.818949747738,-0.57372636985,-0.0118368121084,0.0,-0.00838724678697,0.00865781796225,-0.9999273455,0.0,0.651316134715,0.247606057171,0.303564315395,1.0,-0.0224228571429,-0.0294700408163,1.02
0.457192932613,0.490703496719,-0.124151506162,-1.44533132795,0.074037308516,1.92692531697,0.147089649977,-0.0191750702209,-0.119793973716,-0.00238820971273,-0.200821322476,-0.0188948741689,0.0589112535504,-0.0265486182912,0.573769122142,0.81900230124,0.00222978488734,0.0,0.818961828084,-0.57370845268,-0.0118693877891,0.0,-0.00844197201022,0.00863656320031,-0.999927068783,0.0,0.650912251024,0.247098785389,0.303533003219,1.0,-0.0246085714286,-0.0323426938776,1.037
0.456894378254,0.488816339864,-0.12416040937,-1.44836126954,0.0738510963134,1.92800316469,0.146653985729,-0.0205962106215,-0.135284871429,-2.01966428207e-05,-0.200688837091,-0.0148839963783,0.0778105809416,-0.0325310690666,0.573763579094,0.819006335369,0.00217366765087,0.0,0.81896502027,-0.573703021711,-0.0119115639236,0.0,-0.00850877043826,0.00861474518169,-0.999926690808,0.0,0.650524196328,0.2466083028,0.303496729149,1.0,-0.0265371428571,-0.0348773877551,1.052
0.456460245849,0.486160712059,-0.124187292386,-1.45247809697,0.0735932534623,1.92958398226,0.146057847062,-0.0270929715345,-0.143911416102,-0.000389983614884,-0.220714852311,-0.00545138266041,0.086354107461,-0.0340310516061,0.573784775656,0.818991237349,0.00226523123181,0.0,0.818951267416,-0.573724007693,-0.0118461595324,0.0,-0.00840244508575,0.00865242656402,-0.99992726457,0.0,0.650030656148,0.245923037582,0.303520014608,1.0,-0.02898,-0.038088,1.071
0.456042844636,0.483583243585,-0.12422346663,-1.45643364137,0.0733479884165,1.93098319177,0.145445598676,-0.0272186001633,-0.15550426765,-0.00468366808327,-0.242682164879,-0.0166953996428,0.0899947733989,-0.0395618570049,0.573779273641,0.818995052184,0.00227959209523,0.0,0.818955255268,-0.573718436003,-0.0118403108505,0.0,-0.00838947351463,0.0086607756325,-0.999927301207,0.0,0.649532550667,0.24525159745,0.303548656388,1.0,-0.0311657142857,-0.0409606530612,1.088
0.455652255763,0.481149793085,-0.124264710099,-1.46024090652,0.073112327432,1.93230845441,0.144876718311,-0.0269580143897,-0.171802616804,-0.00485493423155,-0.257686647685,-0.0267554196461,0.100634448238,-0.0356400992933,0.573785262669,0.818990983322,0.00223349102322,0.0,0.818950548995,-0.573724566878,-0.011868721997,0.0,-0.00843913010856,0.00863938280311,-0.999927068414,0.0,0.649043592755,0.244607180882,0.303540360698,1.0,-0.0330942857143,-0.0434953469388,1.103
0.455167075649,0.478226583984,-0.124288608292,-1.46472215362,0.0728369383602,1.93397071528,0.144221034708,-0.0284581515859,-0.17837233117,-0.00141052002934,-0.264021489142,-0.020183100755,0.102808864379,-0.0417045191476,0.573806513963,0.818975854551,0.0023197190489,0.0,0.818936538673,-0.573745474794,-0.0118246640479,0.0,-0.0083533468641,0.00868493915668,-0.999927394078,0.0,0.648487489339,0.243854836996,0.303577657153,1.0,-0.03528,-0.046368,1.12
0.454605545187,0.474936221825,-0.124307371771,-1.46976096855,0.0725348040841,1.93582694178,0.143501169493,-0.0286488068805,-0.181635695807,-0.00225970581798,-0.292668375483,-0.0162011132188,0.101376464747,-0.0399407500642,0.573852273306,0.818943515049,0.00241546716,0.0,0.818905318723,-0.573790731487,-0.0117907730105,0.0,-0.008270163652,0.00874436915682,-0.999927567577,0.0,0.647857130765,0.243004255056,0.303618227071,1.0,-0.0375942857143,-0.0494096326531,1.138
0.454123561659,0.472048844987,-0.124320774684,-1.47421980004,0.0722563634598,1.93737318239,0.142843162213,-0.028169744351,-0.1906363483,-0.00258029166364,-0.298908562901,-0.0140238506521,0.101798985544,-0.0455033480968,0.573855621795,0.818941223125,0.00239693603357,0.0,0.818902591573,-0.573793944945,-0.0118237540749,0.0,-0.00830777219189,0.00874815330538,-0.999927222719,0.0,0.647271829619,0.24225535421,0.303626837375,1.0,-0.0395228571429,-0.0519443265306,1.153
0.453526944514,0.468391222982,-0.124319491039,-1.47973967328,0.0719131882297,1.93945145757,0.141965070514,-0.0322141621122,-0.20340391782,0.000219240695145,-0.311419277708,-0.0160002580291,0.112784924594,-0.05080813796,0.57379400496,0.818983827619,0.00258396428104,0.0,0.818947568094,-0.573731576606,-0.0117348037952,0.0,-0.00812826912206,0.00884966171447,-0.999927804758,0.0,0.64657343581,0.24135145421,0.303705645978,1.0,-0.0418371428571,-0.0549859591837,1.171
0.452916044115,0.464755065551,-0.124319459667,-1.48527486097,0.0715396230105,1.94141959059,0.141109613633,-0.0363404329998,-0.219877128475,-0.000221580761016,-0.336091865533,-0.0200119102101,0.116656237082,-0.0441060121008,0.573752169813,0.819012975314,0.00263454047177,0.0,0.81897737192,-0.573689564311,-0.0117087567508,0.0,-0.00807837086194,0.00887572450855,-0.999927978126,0.0,0.645848429955,0.240424452558,0.303749728182,1.0,-0.0440228571429,-0.0578586122449,1.188
0.452305788529,0.461229418337,-0.124321245397,-1.49080264663,0.0711685641648,1.94333672227,0.140286856407,-0.0349732678537,-0.218432036191,0.00189744824453,-0.346059209676,-0.0242187797779,0.12647684836,-0.0513852450881,0.57373588769,0.81902463395,0.00255481137606,0.0,0.818987866949,-0.573673433391,-0.0117648847326,0.0,-0.00817026030067,0.00884246634987,-0.999927526192,0.0,0.645106821892,0.239494226873,0.303714131901,1.0,-0.04608,-0.0605622857143,1.204
0.451613537697,0.457324527659,-0.124332990439,-1.49682165345,0.0707538925496,1.94547556781,0.13936129187,-0.046030240726,-0.234816503299,8.1632210346e-05,-0.362856000117,-0.022295311234,0.128599500488,-0.0473132143174,0.573718049976,0.819037114485,0.00255951722732,0.0,0.81900048953,-0.573655668298,-0.0117524159342,0.0,-0.00815754032736,0.00883898919235,-0.999927660786,0.0,0.644314518893,0.238461176665,0.303721897284,1.0,-0.0482657142857,-0.0634349387755,1.221
0.450866647118,0.453314778027,-0.124367969281,-1.50315227479,0.0703257000223,1.94769397719,0.138358398175,-0.0423992888341,-0.246635373703,-0.0019769094491,-0.374466244308,-0.0282689111741,0.136858292636,-0.0560839932061,0.573706683602,0.819045395786,0.0024551442518,0.0,0.819007427512,-0.573644705371,-0.0118039223122,0.0,-0.00825972674638,0.00878293959986,-0.999927315802,0.0,0.643474409837,0.23734839817,0.303657729746,1.0,-0.0504514285714,-0.0663075918367,1.238
0.45013941289,0.449248204622,-0.124427486234,-1.50920364999,0.0699123542032,1.94995832613,0.137423535005,-0.0416723099163,-0.256027994251,-0.000754505377689,-0.386669504845,-0.0294905242659,0.143897184503,-0.0587850167184,0.573745497699,0.819017596377,0.00265096136839,0.0,0.8189826223,-0.573683293659,-0.0116485985607,0.0,-0.0080197493502,0.00885459275016,-0.999928637357,0.0,0.642656472727,0.23620180815,0.303756160421,1.0,-0.0526371428571,-0.069180244898,1.255
0.44932613034,0.444820188981,-0.124453594087,-1.51602997027,0.0694585426072,1.9522080829,0.136415624754,-0.0465257926126,-0.263324425102,0.000742992572505,-0.401571678541,-0.0307733662393,0.147198476942,-0.0624306276504,0.573782499532,0.81899202824,0.00253925408861,0.0,0.818955287492,-0.573720343304,-0.0117452828685,0.0,-0.00816262846713,0.00881894311611,-0.999927796263,0.0,0.641760398736,0.235071647036,0.30374601208,1.0,-0.0546942857143,-0.0718839183673,1.271
0.448477404147,0.44029812466,-0.124471102609,-1.52305671015,0.0689652623158,1.95463092695,0.135288774852,-0.0489243100873,-0.267817084365,-0.00206949752916,-0.412902312741,-0.0270227302696,0.136159259066,-0.072274811688,0.573742758151,0.819020137159,0.00245138695776,0.0,0.818982243312,-0.573680920577,-0.0117912427715,0.0,-0.00825111020481,0.00877295144614,-0.999927474622,0.0,0.640798049358,0.23383663385,0.303705790931,1.0,-0.05688,-0.0747565714286,1.288
0.447561658294,0.435601674535,-0.124472516652,-1.53022671108,0.0685040823814,1.95719485689,0.134125561925,-0.0527465975399,-0.274748397976,-0.00018811275003,-0.41594071481,-0.0265939611626,0.149860144564,-0.0664035510089,0.573729412192,0.81902923393,0.00253425625059,0.0,0.818992150802,-0.573666981701,-0.0117812534188,0.0,-0.00819552961752,0.0088349576765,-0.999927385772,0.0,0.63983351818,0.232569510785,0.303723004738,1.0,-0.0590657142857,-0.0776292244898,1.305
0.446597779996,0.430751509629,-0.124515643141,-1.53754200409,0.0679697021082,1.95986142135,0.132935405283,-0.058020123085,-0.277095379371,-0.00173479480962,-0.443203134394,-0.0286356439645,0.150433616255,-0.0706702783521,0.57374430095,0.819018383599,0.00266671236848,0.0,0.818983531866,-0.573681951741,-0.011650737283,0.0,-0.00801247752598,0.0088687083821,-0.999928570557,0.0,0.638870596652,0.231229246483,0.303780172347,1.0,-0.0612514285714,-0.080501877551,1.322
0.445648515785,0.426057146589,-0.12457424357,-1.54485225443,0.06744167069,1.96221511667,0.131766536115,-0.0604549163736,-0.294478545066,-0.00729746804549,-0.458087083209,-0.0343235388438,0.150734654696,-0.070313099717,0.573761577454,0.819007050987,0.00241858870059,0.0,0.818968969451,-0.573700113812,-0.0117793628629,0.0,-0.0082599956586,0.00873946317504,-0.999927694514,0.0,0.637768590069,0.229786647766,0.303706462749,1.0,-0.0634371428571,-0.0833745306122,1.339
0.444417121943,0.419951318838,-0.124639374914,-1.55413331826,0.066771993084,1.96534965974,0.130255151772,-0.0606553049076,-0.305624010737,-0.000869549075903,-0.473996704797,-0.0379895215946,0.165529728225,-0.0717326475453,0.573794551738,0.818984136302,0.00235452388191,0.0,0.818945312234,-0.573733421404,-0.0118018487963,0.0,-0.00831481798667,0.00870023034179,-0.999927582275,0.0,0.636536123307,0.228150231509,0.303706127365,1.0,-0.06588,-0.0865851428571,1.358
0.443437006768,0.415215611397,-0.124653553622,-1.5611022374,0.0663047174033,1.9679534138,0.12911798518,-0.0621218718428,-0.311389892419,4.07314078877e-05,-0.467919301751,-0.0315590117381,0.17403421343,-0.082978160859,0.573837264586,0.818953265275,0.00266269953294,0.0,0.818918567829,-0.573775145904,-0.0116279022187,0.0,-0.00799507160722,0.00885322814221,-0.999928847059,0.0,0.635610820412,0.226868547483,0.303825383881,1.0,-0.0678085714286,-0.0891198367347,1.373
0.442291901488,0.409811428829,-0.124666034207,-1.56936740503,0.0657221817535,1.97074368567,0.127701718352,-0.0744330751095,-0.322360317542,-1.59368620531e-05,-0.491781871753,-0.0392804912037,0.156681560899,-0.080211379464,0.573799711167,0.818979797071,0.00259429303007,0.0,0.818943989137,-0.573737591245,-0.0116904213035,0.0,-0.008085931112,0.00883271110747,-0.999928297896,0.0,0.634432821153,0.225339365812,0.303791357158,1.0,-0.0699942857143,-0.0919924897959,1.39
0.441180402021,0.404592194682,-0.124714411857,-1.57743503157,0.06514778135,1.97336738243,0.126408517806,-0.0717066310254,-0.323130991327,0.00100725067872,-0.505356909261,-0.0333012904612,0.167285725987,-0.0886377547042,0.573850639014,0.818944734916,0.00239001221226,0.0,0.818906022573,-0.573788999042,-0.0118261436432,0.0,-0.00831375542157,0.00874380382671,-0.999927211034,0.0,0.633255878925,0.223824575817,0.303706312325,1.0,-0.0720514285714,-0.0946961632653,1.406
0.439853357058,0.39844679623,-0.124763661632,-1.58647330658,0.0645178710012,1.97659027815,0.124848877093,-0.0732975383461,-0.346981413712,-0.00119116537779,-0.502507379223,-0.0392708175057,0.186899593444,-0.0872780350211,0.573879828508,0.81892346214,0.00265565224247,0.0,0.818888361239,-0.573817383821,-0.0116708505718,0.0,-0.00803382861039,0.00887251926105,-0.999928365434,0.0,0.632004848678,0.222105610948,0.303826444713,1.0,-0.0743657142857,-0.0977377959184,1.424
0.438630720329,0.392918252426,-0.124774301834,-1.59476031144,0.0638787362827,1.97941060744,0.123445811165,-0.075114752227,-0.344332806208,-0.00167735654146,-0.528282637645,-0.0452822632685,0.178451684082,-0.0988828160189,0.573879061662,0.818923946786,0.0026718659189,0.0,0.81888917782,-0.573816695123,-0.0116473923404,0.0,-0.00800532136105,0.00887232749251,-0.999928595768,0.0,0.630729711076,0.22043482503,0.303846100689,1.0,-0.0765514285714,-0.10061044898,1.441
0.437391703113,0.387283832762,-0.124791760673,-1.60332726458,0.0632528481957,1.98214709852,0.121964653347,-0.0783995418977,-0.352479701989,-0.000804363630139,-0.541881603006,-0.0395974770804,0.172029099983,-0.0982745081246,0.573846052544,0.818947616696,0.00250119735022,0.0,0.818910348005,-0.573783992272,-0.0117694113929,0.0,-0.0082035423527,0.0088022561318,-0.99992760847,0.0,0.629520714106,0.218912168687,0.303787533025,1.0,-0.07848,-0.103145142857,1.456
0.436015805553,0.381087558297,-0.124801311909,-1.61239326638,0.0626049082789,1.98524492019,0.120317383026,-0.0812923071726,-0.377962526845,-0.000292774035183,-0.533792010471,-0.0381160294768,0.185648456017,-0.0880001565154,0.573789143414,0.81898688483,0.00269226267941,0.0,0.818951958591,-0.573726249191,-0.0116887728695,0.0,-0.00802848448421,0.00891189634833,-0.999928058182,0.0,0.628198660435,0.217185229971,0.30388988208,1.0,-0.0806657142857,-0.106017795918,1.473
0.434572604134,0.374903248279,-0.124802040163,-1.62170988728,0.0619140294221,1.98839120783,0.118666179006,-0.0900488991128,-0.367641797919,0.000384145652948,-0.557881290853,-0.0431775032825,0.182903696724,-0.106562167719,0.573766713379,0.819002609057,0.00268921495874,0.0,0.818967500919,-0.573703674883,-0.0117078078669,0.0,-0.00804606759665,0.00892010183444,-0.999927843686,0.0,0.62681762562,0.215394068299,0.303860708392,1.0,-0.0828514285714,-0.10889044898,1.49
0.433150065211,0.368898900746,-0.124859627924,-1.63074133356,0.0611904734323,1.99124575293,0.117114181875,-0.0929815021937,-0.377387017525,-0.00326509651576,-0.564435881114,-0.0481603535694,0.176328637039,-0.0926694924002,0.573821233829,0.818965006422,0.00250135237814,0.0,0.818927576652,-0.573759001198,-0.0117889628334,0.0,-0.00821973283576,0.00881335332437,-0.999927377761,0.0,0.625443423926,0.213594479034,0.303813826674,1.0,-0.0849085714286,-0.111594122449,1.506
0.431521025395,0.361945892679,-0.124899354795,-1.64084480634,0.0603926731157,1.99472743131,0.115270342653,-0.0916230876859,-0.392096214811,-0.000883611383748,-0.569029044797,-0.0436074358966,0.202687778186,-0.115940422485,0.57380332769,0.818976803447,0.0027355894381,0.0,0.818942957995,-0.573740861359,-0.0116018299606,0.0,-0.00793226289535,0.00889763165195,-0.999928953154,0.0,0.623955157856,0.211600104402,0.303929751538,1.0,-0.0872228571428,-0.114635755102,1.524
0.429976034106,0.355755360545,-0.124909268463,-1.65009748944,0.059719741861,1.99771260471,0.113520665148,-0.0964436054606,-0.396478165107,-0.00120771986007,-0.580852264089,-0.0433329109136,0.181558979869,-0.112738318064,0.57377165909,0.818999183285,0.00267729433549,0.0,0.818964049664,-0.573708805329,-0.0116978180546,0.0,-0.00804467098307,0.00890465572628,-0.999927992595,0.0,0.622533081487,0.209756245943,0.303891280827,1.0,-0.08928,-0.117339428571,1.54
0.428369216613,0.349472872824,-0.124979920271,-1.65958617695,0.0589947836138,2.00068998691,0.111784504929,-0.100909528908,-0.387416448937,-0.00400110084727,-0.591727956031,-0.042141871089,0.183533223644,-0.115444969062,0.573832220078,0.818957387759,0.00247530541906,0.0,0.818919310835,-0.573769754574,-0.0118396781287,0.0,-0.00827609582993,0.00882123402959,-0.999926843358,0.0,0.620969383378,0.207689522476,0.303797617141,1.0,-0.0914657142857,-0.120212081633,1.557
0.426623743337,0.342507411274,-0.12502083367,-1.66952755728,0.0582404501221,2.00407449847,0.109929144751,-0.104221213637,-0.40854774082,-0.000166479613908,-0.59212061951,-0.0421805090674,0.198723718336,-0.108370146382,0.57388562875,0.818918937911,0.002793769218,0.0,0.818885226763,-0.573822255994,-0.0116512152091,0.0,-0.0079384266683,0.00897441409084,-0.999928218061,0.0,0.61956366847,0.205780700204,0.30395027211,1.0,-0.0935228571428,-0.122915755102,1.573
0.424817304121,0.335547546028,-0.12503178081,-1.67987817001,0.0574094258286,2.00726957623,0.107931267658,-0.102435530592,-0.412614233394,-0.00215811412451,-0.615252554882,-0.051427058503,0.186673808789,-0.116601692352,0.573817062118,0.818967605339,0.00260528855342,0.0,0.818931069869,-0.573753950256,-0.0117921274612,0.0,-0.0081627329476,0.00890024703563,-0.999927075038,0.0,0.617806737058,0.203551239721,0.303882194546,1.0,-0.0958371428571,-0.125957387755,1.591
0.422985779769,0.328356446164,-0.125030355642,-1.69021857239,0.0565497849207,2.01058254767,0.105899332555,-0.110007870346,-0.429801576344,0.00060464767914,-0.607109835606,-0.0486288137646,0.204691814239,-0.121678748125,0.573733985116,0.819025462436,0.00271166099486,0.0,0.818990537632,-0.573670751344,-0.0117096209727,0.0,-0.00803503183103,0.00893920430828,-0.999927761836,0.0,0.616268145875,0.201567151146,0.30396565905,1.0,-0.0978942857143,-0.128661061224,1.607
0.420942357128,0.320755024316,-0.125028574707,-1.70131925302,0.0556829272872,2.01419140448,0.103747988264,-0.111623057148,-0.424372055539,0.000549843479517,-0.621294362711,-0.0495444945051,0.193103519768,-0.119544177416,0.573730974863,0.81902729396,0.00279412480306,0.0,0.818993200427,-0.573667183809,-0.011698152705,0.0,-0.00797836225554,0.00900013505089,-0.999927669037,0.0,0.614506613569,0.199280139732,0.303968855749,1.0,-0.100208571429,-0.131702693878,1.625
0.418824344748,0.312989421589,-0.125090080256,-1.71268569889,0.0547432045033,2.01765145622,0.101456707625,-0.120382555153,-0.439265167492,-0.00493067449825,-0.630932225768,-0.0530107147961,0.199420368272,-0.131340579887,0.573694971085,0.81905300898,0.00264490726586,0.0,0.819016800743,-0.573631523483,-0.0117941624741,0.0,-0.0081429988564,0.00893264716785,-0.999926947024,0.0,0.612650078437,0.196874015197,0.303926083036,1.0,-0.102522857143,-0.134744326531,1.643
0.417128252944,0.306781060654,-0.125112640358,-1.72146285128,0.053972121968,2.02051206763,0.0996596723983,-0.12470373496,-0.439375489994,0.000338061975529,-0.63797052658,-0.0542022587989,0.195916082504,-0.128581833859,0.573651426268,0.819082861302,0.00283802111637,0.0,0.819049794059,-0.573588013163,-0.0116177841809,0.0,-0.00788822488823,0.00898921214655,-0.999928482429,0.0,0.611252650705,0.195007465961,0.304033200251,1.0,-0.104322857143,-0.137110040816,1.657
0.414955047342,0.299261455767,-0.125149966934,-1.73246478472,0.0530742019395,2.02382383543,0.09742965654,-0.124919323119,-0.447795444199,-0.00335307871162,-0.650317564334,-0.058194704833,0.195516663765,-0.125564060033,0.573675349447,0.819066629085,0.00268280788741,0.0,0.819031076378,-0.573611945613,-0.011754942723,0.0,-0.00808934640422,0.00894099604799,-0.99992730789,0.0,0.609425673094,0.192634462153,0.303962839119,1.0,-0.106508571429,-0.139982693878,1.674
0.412706988738,0.291551543376,-0.125249378362,-1.74341711496,0.0522025200408,2.02723210796,0.0951666167161,-0.125469377418,-0.462647542907,-0.00459402974862,-0.640132173037,-0.0532192845155,0.213379988168,-0.137482004923,0.573780080466,0.818992829442,0.00281273606029,0.0,0.81895882374,-0.573716044345,-0.0117086455999,0.0,-0.0079757385402,0.00902187632898,-0.999927494043,0.0,0.607639371084,0.190206658061,0.304030982118,1.0,-0.108694285714,-0.142855346939,1.691
0.410536051132,0.284277311546,-0.125291801033,-1.75387043961,0.0513094017599,2.03044228431,0.0929552442632,-0.138825249387,-0.446584254977,-0.00128774750303,-0.651959837854,-0.0528521350715,0.186843094594,-0.138028617257,0.573785681816,0.818988920996,0.00280811868193,0.0,0.818954864254,-0.573721671188,-0.0117098772465,0.0,-0.00797933481495,0.00901885599477,-0.999927492598,0.0,0.605899263507,0.18790320958,0.304023163818,1.0,-0.110751428571,-0.145559020408,1.707
0.407991896011,0.275947963282,-0.125344966109,-1.76586297985,0.0502496806162,2.03393339516,0.0903913179468,-0.148907187284,-0.463465017165,-0.00920887880914,-0.658780564616,-0.0565825395785,0.202434375614,-0.141575807528,0.573791665806,0.818985336384,0.0026248698437,0.0,0.818948730332,-0.57372812964,-0.011821897,0.0,-0.00817615604163,0.0089331117885,-0.999926672305,0.0,0.603849555045,0.185222751713,0.303970229339,1.0,-0.113065714286,-0.148600653061,1.725
0.405377258151,0.267458348297,-0.125452922303,-1.77777384415,0.0492041618427,2.03768402788,0.0877601561279,-0.14695414766,-0.46807629035,-0.00490376760426,-0.666946511426,-0.0617164955034,0.200144585742,-0.13933368709,0.573835044788,0.818954204796,0.00284582526506,0.0,0.818921084969,-0.573771406411,-0.0116351484472,0.0,-0.0078959526011,0.00900733566315,-0.999928258345,0.0,0.601875343473,0.1825082114,0.304060642582,1.0,-0.11538,-0.151642285714,1.743
0.403094120933,0.260342869701,-0.125539932318,-1.78797346334,0.0483102599492,2.04056746239,0.0855471114254,-0.155955693787,-0.474505134043,-0.00353481092804,-0.690549650806,-0.0633033139097,0.187076796324,-0.14901429106,0.573926069918,0.818891053655,0.00265620288122,0.0,0.818855126709,-0.573862698833,-0.0117741773544,0.0,-0.00811762903515,0.00893272466506,-0.999927152611,0.0,0.600098373257,0.180152863289,0.303997772898,1.0,-0.117308571429,-0.154176979592,1.758
0.40030771514,0.251601213103,-0.12559273693,-1.80006045315,0.0472154564151,2.04421192665,0.0828374814798,-0.15367498041,-0.489310070872,-0.00102450753361,-0.677392013947,-0.0547747732643,0.201340858008,-0.155334334297,0.57396447849,0.81886344894,0.00285942707656,0.0,0.818830577587,-0.573900860029,-0.0116204547487,0.0,-0.00787468960748,0.00901128806951,-0.999928390411,0.0,0.5980274829,0.177367876464,0.304116301726,1.0,-0.119622857143,-0.157218612245,1.776
0.397781045627,0.243844912208,-0.125587028519,-1.81111931665,0.0462616501438,2.04738113275,0.0802994496843,-0.160314192784,-0.488429269307,-0.00120569421951,-0.695158121027,-0.0516064768833,0.202596421996,-0.16140001964,0.573896320835,0.818911585353,0.00275230969596,0.0,0.818876612465,-0.573832278693,-0.0117624992332,0.0,-0.00805323780003,0.00900443043722,-0.999927030134,0.0,0.59605219625,0.174874475062,0.304042012178,1.0,-0.12168,-0.159922285714,1.792
0.395181035625,0.235878585383,-0.125597388393,-1.82205851107,0.0452886814716,2.05055735403,0.0777387884024,-0.163327512439,-0.510843642955,-1.27015879048e-05,-0.68781129033,-0.0661647035761,0.216480402517,-0.155732486582,0.573860628648,0.818936048379,0.00291109165127,0.0,0.818903011689,-0.57379588957,-0.0116996350366,0.0,-0.0079110327726,0.009098036803,-0.999927318002,0.0,0.594112503938,0.172353545868,0.304137049637,1.0,-0.123737142857,-0.162625959184,1.808
0.392380830377,0.227430514976,-0.125572559953,-1.83388515303,0.0441812776308,2.05397547887,0.0749666116033,-0.169339629991,-0.503248151413,0.00109735575917,-0.702858382756,-0.0682494451904,0.193716332562,-0.162463400277,0.57374836249,0.819014719473,0.00290735772285,0.0,0.818981613728,-0.573683627365,-0.0117029470523,0.0,-0.0079171348019,0.00909579434931,-0.999927290107,0.0,0.591975563661,0.169660652517,0.304117451246,1.0,-0.125922857143,-0.165498612245,1.825
0.389230387794,0.218314835425,-0.125620979643,-1.84651541335,0.0430025761303,2.05743653854,0.071893147667,-0.178418469952,-0.514538088786,-0.00385981369009,-0.691502701843,-0.0731209336196,0.209884715702,-0.174010953811,0.573712821239,0.819039862612,0.00283709354992,0.0,0.819005560079,-0.57364801367,-0.0117726748671,0.0,-0.00801495123883,0.00907790468116,-0.999926673413,0.0,0.58966624439,0.166657070372,0.304116628736,1.0,-0.128237142857,-0.168540244898,1.843
0.386715242705,0.211158647279,-0.125688318704,-1.85629554465,0.042117435154,2.06028423171,0.069527535666,-0.181074491488,-0.505276242803,-0.00263076137977,-0.705009226947,-0.0719922657429,0.198868872767,-0.17041529583,0.573784427107,0.818989095843,0.00300649318125,0.0,0.818957071855,-0.573719110728,-0.0116808966181,0.0,-0.00784179534437,0.00916468187487,-0.99992725478,0.0,0.587909428042,0.164296663088,0.304174390254,1.0,-0.130037142857,-0.170905959184,1.857
0.383194009243,0.201385480348,-0.125732860436,-1.86989371086,0.0407943786309,2.0638131721,0.0661116935491,-0.185783531536,-0.51731599087,-0.00201154272891,-0.700500310686,-0.075725848822,0.191563545421,-0.18406806944,0.573708217416,0.819043459866,0.00272745706773,0.0,0.819007262002,-0.573643287796,-0.0118840252199,0.0,-0.00816910297411,0.00905194434787,-0.999925661267,0.0,0.585340871951,0.161013649733,0.304086128561,1.0,-0.13248,-0.174116571429,1.876
0.37992118924,0.192472784806,-0.12583442888,-1.88190509692,0.0396677795786,2.0672626136,0.0630597364659,-0.191830854458,-0.51834474332,-0.0051997700907,-0.728504842309,-0.0617835503225,0.195533611039,-0.182155418942,0.573799234932,0.818978789762,0.00298777704393,0.0,0.818946329154,-0.573733754641,-0.0117147621682,0.0,-0.00788010491785,0.00916892714224,-0.99992691469,0.0,0.583150912071,0.158028925518,0.30418386855,1.0,-0.134665714286,-0.17698922449,1.893
0.376704342955,0.184054667964,-0.125975118648,-1.89347926838,0.0386031789737,2.07022800572,0.0600476935296,-0.203994676941,-0.522535560955,-0.00665096708476,-0.724456855836,-0.06577803162,0.179097940323,-0.177075119742,0.573909214973,0.818902249605,0.0028399757068,0.0,0.818867012903,-0.573843272328,-0.0118937329859,0.0,-0.00811025989311,0.00915166158265,-0.999925232592,0.0,0.580950047737,0.155094526037,0.304124593697,1.0,-0.136722857143,-0.179692897959,1.909
0.373012624607,0.174432802365,-0.126068428155,-1.90631132114,0.0372966367055,2.07376611397,0.0566450035736,-0.20272796544,-0.525106382635,-0.00137117694092,-0.727056776382,-0.0741895382004,0.196009583367,-0.186168037143,0.573967815318,0.81886044585,0.0030436988244,0.0,0.818828634626,-0.573902031769,-0.0116992285661,0.0,-0.00783340139756,0.00920742568506,-0.999926927898,0.0,0.578550103333,0.151825505818,0.30422787346,1.0,-0.139037142857,-0.182734530612,1.927
0.369691119856,0.165882575589,-0.126063150017,-1.9180414109,0.0361035778775,2.07669976951,0.0534754162779,-0.204273843962,-0.522430945015,0.000293399709808,-0.744752156485,-0.0749791744824,0.177215535921,-0.205878044877,0.573840653889,0.818950445222,0.00279626813778,0.0,0.818914818354,-0.573775085557,-0.0118919458308,0.0,-0.00813464195974,0.00911416286154,-0.999925377033,0.0,0.576089336464,0.148735468499,0.304119801529,1.0,-0.141222857143,-0.185607183673,1.944
0.366023699029,0.156539408828,-0.126097512986,-1.93021880646,0.0348636574877,2.07999942199,0.0500776110184,-0.215427669058,-0.557235988351,-0.00592775988154,-0.720336091917,-0.079545164294,0.19003380341,-0.198121341326,0.573821592111,0.81896249658,0.00315539589327,0.0,0.818932268696,-0.573755615734,-0.0116266763584,0.0,-0.00771153425474,0.00925587166069,-0.999927427906,0.0,0.573907365219,0.145804295528,0.304297461357,1.0,-0.14328,-0.188310857143,1.96
0.362256468586,0.14727062075,-0.126136240621,-1.94278085726,0.0335592472049,2.08303545108,0.0465950300268,-0.225364395565,-0.552711508266,-4.07422342058e-05,-0.737381155398,-0.0743414975327,0.173167392166,-0.202524871873,0.573782222064,0.818990968626,0.00291579377389,0.0,0.818957086015,-0.573716435715,-0.0118105697155,0.0,-0.00800006514612,0.00916478135812,-0.999926000132,0.0,0.571385671747,0.14259309521,0.304198867704,1.0,-0.145465714286,-0.191183510204,1.977
0.358352946995,0.137777311962,-0.12623429281,-1.9551549976,0.0323395464743,2.08617058072,0.0430208048203,-0.231814475989,-0.566403489665,-0.00574725260147,-0.724800682932,-0.0750208259273,0.186598547232,-0.214593024485,0.573843850498,0.818947012252,0.00312622308353,0.0,0.818915716875,-0.573777145411,-0.0117295762849,0.0,-0.00781229650764,0.00929123732272,-0.999926317752,0.0,0.568942534004,0.139330916676,0.30430220839,1.0,-0.147651428571,-0.194056163265,1.994
0.35457038369,0.128887436125,-0.126321041725,-1.96694027087,0.0310798960831,2.08903921947,0.0395015863376,-0.240959217744,-0.557950552739,-0.00822815513076,-0.752230400996,-0.0916370606363,0.168722397963,-0.220923775495,0.573802366419,0.818976313841,0.00306407565616,0.0,0.818944205559,-0.57373587462,-0.0117593050752,0.0,-0.00787277377259,0.00925700230956,-0.999926160945,0.0,0.566567730461,0.136195724621,0.304278062616,1.0,-0.149708571429,-0.196759836735,2.01
0.350406449204,0.11923320746,-0.126455714712,-1.97948812182,0.0297144255497,2.09206295174,0.0358273898294,-0.245919245251,-0.577315515959,-0.0106941860859,-0.726144113174,-0.0818339311722,0.190747277126,-0.216866925224,0.573938705686,0.818880570679,0.00311768844733,0.0,0.818849513478,-0.573872431916,-0.0116898701645,0.0,-0.00778360195874,0.00926236494937,-0.99992680939,0.0,0.564029736352,0.132781473053,0.304333586375,1.0,-0.151894285714,-0.199632489796,2.027
0.346121779354,0.109612301979,-0.126531826229,-1.99209717692,0.0283623995046,2.09508457309,0.031885282062,-0.249950860814,-0.569639287319,-0.00153392274957,-0.740926140028,-0.0837387063738,0.17152009434,-0.2277756107,0.573898315839,0.818908881123,0.00311679260235,0.0,0.81887772822,-0.573831950501,-0.0117006713893,0.0,-0.00779341858495,0.00926744607711,-0.999926685848,0.0,0.561443625617,0.129358418209,0.304313902814,1.0,-0.15408,-0.202505142857,2.044
0.342039673159,0.100411564796,-0.126547431985,-2.0039793214,0.0270234850173,2.09780029185,0.0281953621832,-0.254774518707,-0.582300577141,-0.000924806899915,-0.731238331584,-0.0937638816231,0.183055504667,-0.237541723702,0.573829224003,0.818957363878,0.00309914997747,0.0,0.818926111143,-0.573763080871,-0.011691809885,0.0,-0.0077970660809,0.00924725507071,-0.999926844341,0.0,0.558951555953,0.126154245762,0.304335118066,1.0,-0.156137142857,-0.205208816327,2.06
0.337345646385,0.0900186415021,-0.126546839542,-2.01740050006,0.0256586896016,2.10087442869,0.0239089351234,-0.262981401879,-0.580714994691,-0.00192424666452,-0.739994346789,-0.0694446425864,0.16211424262,-0.235753171965,0.573752432927,0.819010862304,0.00317805590458,0.0,0.81897969078,-0.573684906234,-0.0117746061446,0.0,-0.00782047819657,0.00935865234727,-0.999925625108,0.0,0.556105533461,0.122552251205,0.304330045872,1.0,-0.158451428571,-0.20825044898,2.078
0.332678987895,0.0800692063081,-0.126652850275,-2.03006947117,0.0242278474064,2.1036274856,0.0196424708502,-0.278388628046,-0.595748966193,-0.00783108681579,-0.723768762461,-0.0861116373338,0.171171871384,-0.255874602895,0.573702642587,0.819045749621,0.00317566028778,0.0,0.819014503703,-0.573635079277,-0.0117807236232,0.0,-0.00782743217244,0.00935972431244,-0.999925560663,0.0,0.553401274043,0.118971901971,0.304361595595,1.0,-0.160637142857,-0.211123102041,2.095
0.328194720959,0.0706926178757,-0.126775197706,-2.04199753162,0.0228618067364,2.10632396683,0.0156753382041,-0.284512540972,-0.584923632022,-0.00433679330236,-0.751288537635,-0.0721090513232,0.1657254031,-0.254455721138,0.573767347128,0.819000140874,0.00324769441194,0.0,0.818970199935,-0.57369997443,-0.0117003358283,0.0,-0.00771952311533,0.00937321605405,-0.999926273174,0.0,0.550857489379,0.115571827492,0.304378469939,1.0,-0.162694285714,-0.21382677551,2.111
0.323205354521,0.0605945851133,-0.126950338563,-2.05483418366,0.0213954480881,2.10884887654,0.0112569170671,-0.294608983957,-0.598579855321,-0.00673670241892,-0.721896837705,-0.0935230239145,0.1571816986,-0.265138437595,0.573866255243,0.818931442093,0.0030921104366,0.0,0.818898844222,-0.573798650783,-0.0118548805207,0.0,-0.00793423836276,0.0093354212893,-0.999924946069,0.0,0.547870189152,0.111609172051,0.304351053761,1.0,-0.165008571429,-0.216868408163,2.129
0.317837000135,0.0498112601569,-0.127046434892,-2.06825214748,0.0198459692349,2.11177034103,0.0065062890151,-0.294187362456,-0.59686423925,-0.000491058600128,-0.758833802827,-0.0851625435529,0.15953736454,-0.259740580268,0.573896035169,0.818909893109,0.00326721391676,0.0,0.818879925326,-0.573828238635,-0.0117289106084,0.0,-0.00773025015681,0.00940681229349,-0.99992587481,0.0,0.54510332148,0.107915061803,0.30441417776,1.0,-0.167194285714,-0.219741061224,2.146
0.313281953557,0.04082977767,-0.127060591216,-2.07963070443,0.0185592299617,2.1139674393,0.00245748265516,-0.307484959506,-0.606575371134,-0.00123432980759,-0.751500973107,-0.0926963199849,0.161482498532,-0.273809544462,0.573846783465,0.818944949258,0.00312827322285,0.0,0.818912172382,-0.573778283992,-0.011919800506,0.0,-0.00796687856595,0.0094021012202,-0.999924061786,0.0,0.54251963531,0.104663613079,0.304336869416,1.0,-0.169122857143,-0.222275755102,2.161
0.307943244038,0.0304920727765,-0.127125154654,-2.09227383211,0.0169991767664,2.11659513307,-0.00228617196706,-0.31748827498,-0.598308606605,-0.00204289120807,-0.751125490116,-0.085503953182,0.145065053454,-0.279859317517,0.573787631065,0.818985641894,0.00331959479828,0.0,0.818956333708,-0.57371964881,-0.0117061928179,0.0,-0.00768283499564,0.00943565349676,-0.999925968504,0.0,0.539699174049,0.100903548171,0.304433719442,1.0,-0.16998,-0.223402285714,2.178
0.302143373795,0.0196709891981,-0.127254026455,-2.10575626558,0.0154170979442,2.11903494331,-0.00741287390258,-0.329569972613,-0.596181030459,-0.0131136118766,-0.732493828732,-0.0875023367164,0.146442495468,-0.283615306448,0.573821273678,0.818962699457,0.00316064454941,0.0,0.818930300619,-0.573752607052,-0.0119103119056,0.0,-0.00794082602489,0.00942291935896,-0.999924073054,0.0,0.536583329155,0.0968453354005,0.304360109944,1.0,-0.16998,-0.223402285714,2.196
0.296858028074,0.00998724553152,-0.127408189601,-2.11739754584,0.0139352398695,2.12122796287,-0.0119804817372,-0.329661464478,-0.591139872101,-0.00777888683154,-0.743013440035,-0.0943913039095,0.126658852935,-0.29159594967,0.573931898467,0.818884667186,0.00329008670713,0.0,0.818854748194,-0.573863716947,-0.0117508566942,0.0,-0.00773468390302,0.00943847633317,-0.999925542143,0.0,0.533917745458,0.093199392175,0.304458280263,1.0,-0.16998,-0.223402285714,2.212
0.291221689802,-0.000159290679927,-0.127458903576,-2.12983404426,0.0125082107812,2.1233705801,-0.016959876337,-0.333590194144,-0.597357983363,-0.00569503830915,-0.734272412045,-0.0931760552209,0.120872665926,-0.291342417906,0.573918819378,0.818894062294,0.00323270868942,0.0,0.818862093116,-0.57384926653,-0.0119431428887,0.0,-0.00792523387163,0.00950172000773,-0.999923451063,0.0,0.530970903634,0.0894244182573,0.304407888417,1.0,-0.16998,-0.223402285714,2.229
0.285509804462,-0.0103128557528,-0.127460313739,-2.1418230918,0.0109585276657,2.12562501875,-0.0219739902052,-0.340715412286,-0.590670381106,-0.00183676352991,-0.711204557633,-0.0908320940577,0.124175861683,-0.303049257351,0.573829513781,0.81895554228,0.00350082616481,0.0,0.818928314932,-0.573760595063,-0.0116593935366,0.0,-0.00754003402191,0.00955761380978,-0.999925897207,0.0,0.52816791079,0.0856902445571,0.304543171269,1.0,-0.16998,-0.223402285714,2.246
0.28004565883,-0.0197272317438,-0.127485127299,-2.15331808197,0.00951648201029,2.12736193154,-0.0267966161899,-0.345170979675,-0.590148671017,-0.00324710277698,-0.715925865276,-0.0903324692513,0.10103350514,-0.311257687174,0.573744599483,0.819016092724,0.00324365912598,0.0,0.818984379646,-0.573675167012,-0.011922061468,0.0,-0.00790370568074,0.00949690738395,-0.99992366718,0.0,0.525349650722,0.0821333837563,0.304436968337,1.0,-0.16998,-0.223402285714,2.262
0.274099651995,-0.0298268524001,-0.127624204487,-2.16503335992,0.00800423017492,2.12937465009,-0.0319167019661,-0.352511849561,-0.594272031483,-0.0123376691604,-0.688139329738,-0.0875645897513,0.124650021462,-0.304555380639,0.573859269886,0.818934597581,0.0035228046501,0.0,0.818907464101,-0.573790033391,-0.0116751754471,0.0,-0.00754000007705,0.00958494322028,-0.999925635866,0.0,0.522548044446,0.0782978355572,0.304586105429,1.0,-0.16998,-0.223402285714,2.279
0.268035488482,-0.039708779172,-0.127743363423,-2.17687609202,0.00650152457517,2.13114046037,-0.0371667942744,-0.362384861772,-0.581144299706,-0.00167038742768,-0.688994093746,-0.082620678685,0.103833960128,-0.316242296201,0.573937276692,0.818880498682,0.00338794984072,0.0,0.818850773958,-0.573867433105,-0.0118459322402,0.0,-0.00775631815474,0.00957323175337,-0.9999240935,0.0,0.51961578366,0.0744415099064,0.304510657509,1.0,-0.16998,-0.223402285714,2.296
0.262369034881,-0.0490484653922,-0.127755417825,-2.18776021447,0.00515032316847,2.13279330523,-0.0421395561181,-0.355382311398,-0.589332425223,-0.00106310512908,-0.672369125513,-0.0939809525055,0.114114001389,-0.308432391538,0.573884400201,0.818917065949,0.00350445507186,0.0,0.818888561203,-0.573813789019,-0.0118324453863,0.0,-0.00767903466072,0.00966039998765,-0.99992385165,0.0,0.51690113981,0.0709462716957,0.304550871859,1.0,-0.16998,-0.223402285714,2.312
0.255815020306,-0.0594053458595,-0.127808879169,-2.19987041698,0.00349127144342,2.13456003598,-0.0478655107386,-0.36713288548,-0.570340443301,-0.00480373826389,-0.678568216015,-0.0797969554404,0.0908648917841,-0.322029140967,0.573821074208,0.818961591907,0.00346881494529,0.0,0.818932944469,-0.573750997779,-0.0118055881785,0.0,-0.00767823508192,0.00961520724976,-0.999924293382,0.0,0.513851087299,0.0669318929647,0.304539080543,1.0,-0.16998,-0.223402285714,2.33
0.249925379029,-0.0685969502795,-0.127877769861,-2.21063078437,0.00210546274507,2.135925013,-0.053033540567,-0.36813637831,-0.57886037234,-0.00666585260109,-0.64783526449,-0.0868850951902,0.0858024240491,-0.334793230579,0.573791751364,0.818982516266,0.00337801982889,0.0,0.818951670621,-0.573720745306,-0.0119755790518,0.0,-0.00786990133167,0.00963810902345,-0.999922582757,0.0,0.510907472274,0.0631430088496,0.304492356491,1.0,-0.16998,-0.223402285714,2.347
0.243075525546,-0.0789252561507,-0.128066853875,-2.22232058289,0.000541503106764,2.13756559984,-0.0589528685592,-0.388446457067,-0.568568188438,-0.0035367408727,-0.659323441194,-0.0836431373124,0.0840298635662,-0.332573155841,0.573942177229,0.818876307968,0.0035659987849,0.0,0.818848410971,-0.573871100986,-0.0118315766399,0.0,-0.00764232128586,0.00971084025904,-0.999923644338,0.0,0.508089193535,0.0592559682409,0.304566978148,1.0,-0.16998,-0.223402285714,2.364
0.237050370747,-0.0879900476318,-0.128103760499,-2.23285412303,-0.000833837797327,2.13876927622,-0.0642181251512,-0.378272626262,-0.573085010042,-0.0022426321955,-0.665460997518,-0.0912236534445,0.0726101107503,-0.323819496357,0.573902867914,0.818904516164,0.00341152574792,0.0,0.818873318504,-0.573830752291,-0.0120624570117,0.0,-0.00792051463096,0.00971647315567,-0.999921424712,0.0,0.505289536025,0.0557322132164,0.304473964797,1.0,-0.16998,-0.223402285714,2.38
0.22936657492,-0.0993622741726,-0.128131581159,-2.24546748244,-0.00263113865443,2.14031679505,-0.0709795062336,-0.390113051173,-0.571375573053,-0.00233917202586,-0.626669248225,-0.0826505703653,0.072505827939,-0.338786480101,0.573769233556,0.818997355856,0.00359786428301,0.0,0.81896975978,-0.573697927712,-0.0118307737163,0.0,-0.00762543192118,0.00973486344141,-0.999923539688,0.0,0.501960139534,0.0513260713195,0.304596834367,1.0,-0.16998,-0.223402285714,2.4
0.224274769835,-0.10667307502,-0.128206399249,-2.25374455594,-0.00376419552059,2.14116902688,-0.0753594260784,-0.392963727958,-0.559667958113,-0.00931845533236,-0.633707575503,-0.0855580581201,0.0618200986165,-0.344063329474,0.573826233804,0.818957700296,0.0035334719892,0.0,0.818928693388,-0.57375442151,-0.0119333920042,0.0,-0.00774574722501,0.00974154254438,-0.999922549875,0.0,0.49971663799,0.0484176316943,0.304565185286,1.0,-0.16998,-0.223402285714,2.413
0.215838461417,-0.118480451416,-0.12841261434,-2.26679872817,-0.00562733793044,2.14251057069,-0.0826510959687,-0.406388586239,-0.566978561868,-0.00115460400913,-0.603267501816,-0.088851505556,0.078232894477,-0.351881603409,0.573956078261,0.818866403061,0.00360292478316,0.0,0.818838518647,-0.573884275694,-0.0118770952805,0.0,-0.00765823985645,0.00976733267199,-0.999922972321,0.0,0.49616792006,0.0436346955771,0.304616837213,1.0,-0.16998,-0.223402285714,2.434
0.210650490624,-0.125689720707,-0.128434010578,-2.2747836129,-0.00667116615528,2.14333237598,-0.0872499872401,-0.400267238426,-0.558176061201,-0.00272517259355,-0.622894646436,-0.0775413505489,0.0579435784267,-0.354539966853,0.573876198292,0.818922072676,0.00367352950137,0.0,0.818894582492,-0.573803484975,-0.0119151289358,0.0,-0.00764982533712,0.00984623187361,-0.999922262924,0.0,0.493794921266,0.0405819580755,0.304609447288,1.0,-0.16998,-0.223402285714,2.448
0.202883639119,-0.136163973586,-0.128497567972,-2.28642396588,-0.00838744174278,2.14426472432,-0.0940363283665,-0.410787043042,-0.551284388809,-0.00728267473015,-0.609514282344,-0.0873770690953,0.0497098425072,-0.357427495692,0.573827727853,0.818956756034,0.00350961459492,0.0,0.818926663402,-0.573755033576,-0.0120427703312,0.0,-0.00784900020191,0.0097847808936,-0.999921322534,0.0,0.490679423803,0.0365587721254,0.304557287821,1.0,-0.16998,-0.223402285714,2.466
0.196683201784,-0.144505664384,-0.128598400186,-2.29524633083,-0.00963768533869,2.14515027867,-0.0994889406515,-0.413161576817,-0.553659073022,-0.00693790793376,-0.586684200957,-0.0817275816281,0.0539766693394,-0.367855873791,0.573837042814,0.818948839727,0.00382009224909,0.0,0.818923869874,-0.573764632767,-0.011772359031,0.0,-0.00744926936439,0.00988397071828,-0.999923404821,0.0,0.488220872611,0.0332214930306,0.304696342714,1.0,-0.16998,-0.223402285714,2.481
0.189037581532,-0.154298861612,-0.128768954743,-2.30596216627,-0.0112087808183,2.14588630467,-0.106137282181,-0.425945932527,-0.546435054605,-0.00585418507576,-0.592834662606,-0.0857274963387,0.0355589843159,-0.37403357388,0.573924889398,0.818887783168,0.00371036501712,0.0,0.818860643171,-0.573851870527,-0.0119174099475,0.0,-0.00762996840816,0.00987816025556,-0.999922099732,0.0,0.485125069804,0.0291254940494,0.304642093746,1.0,-0.16998,-0.223402285714,2.499
0.182724224564,-0.162442906199,-0.12878884313,-2.3147697233,-0.0125140378962,2.1464184776,-0.111687580948,-0.424691148801,-0.534752493464,-0.000110340250043,-0.579375371126,-0.0838048763876,0.042509486641,-0.381751274052,0.573837205565,0.818949613738,0.0036247163486,0.0,0.81892092548,-0.573763956629,-0.0120077801827,0.0,-0.00775418464073,0.00985905690927,-0.999921332714,0.0,0.482537581343,0.0258414857407,0.304614897028,1.0,-0.16998,-0.223402285714,2.514
0.174529196115,-0.172734683629,-0.12885725515,-2.32557270144,-0.0140120958352,2.14721936288,-0.118932780176,-0.428953579892,-0.530467970849,-0.00865129423718,-0.582628722439,-0.0805307313865,0.0368425575413,-0.379097995882,0.573811470459,0.818966354917,0.00390548147367,0.0,0.818941680478,-0.573737689803,-0.0118462727137,0.0,-0.00746112051512,0.00999608118197,-0.999922201995,0.0,0.479380490338,0.0216443541284,0.304709189911,1.0,-0.16998,-0.223402285714,2.533
0.167922968259,-0.180763763258,-0.12901066164,-2.33415671783,-0.0153406597616,2.14757207505,-0.124698387952,-0.441551093045,-0.537508103321,-0.0122468946458,-0.569316437395,-0.0815611729646,0.0222184825614,-0.388828796426,0.573869210904,0.818926524355,0.00377139041739,0.0,0.818899464607,-0.573795051937,-0.0119854970855,0.0,-0.00765138362331,0.00996668923802,-0.999921057601,0.0,0.476784246554,0.0182397956066,0.304663759971,1.0,-0.16998,-0.223402285714,2.548
0.159862008657,-0.19040525613,-0.129134511944,-2.34417259083,-0.0168167266624,2.14809141269,-0.131732641477,-0.445721354915,-0.536426005416,-0.00483021387414,-0.541594673274,-0.0860121732769,0.0344747061957,-0.399298534121,0.573952536372,0.818867426359,0.00392057909674,0.0,0.818842521023,-0.573878109463,-0.0118990817172,0.0,-0.00749398018411,0.0100400383054,-0.999921515866,0.0,0.473756796592,0.0141876075131,0.30472303587,1.0,-0.16998,-0.223402285714,2.566
0.153189077102,-0.198359679324,-0.129156914791,-2.35239532545,-0.018118197645,2.14847219943,-0.137704199052,-0.450747885487,-0.523030619862,-0.00366060255258,-0.552400568139,-0.0857710620944,0.0164036815159,-0.403266848233,0.573770200462,0.818995051474,0.00395090171767,0.0,0.818971162823,-0.573696534803,-0.0118011575475,0.0,-0.00739861345449,0.0100070197717,-0.999922557038,0.0,0.471060999264,0.0106824883152,0.304752806863,1.0,-0.16998,-0.223402285714,2.582
0.144067632117,-0.208814238751,-0.129307642606,-2.3634292228,-0.019722138202,2.1487125005,-0.145738710643,-0.458102534076,-0.521259916243,-0.0121482119012,-0.544585367291,-0.0746576719234,0.00816058415033,-0.400116979551,0.573846488372,0.818942097496,0.0038465091755,0.0,0.81891508185,-0.573770830157,-0.012077668665,0.0,-0.00768404448825,0.0100808862157,-0.99991966237,0.0,0.467754158892,0.00643381838293,0.304661977311,1.0,-0.16998,-0.223402285714,2.601
0.137512826794,-0.216167768667,-0.129462533601,-2.37078106417,-0.0208626055827,2.14895432297,-0.151458493404,-0.469828157265,-0.528246643089,-0.00504565932359,-0.518745275,-0.0803367182489,0.023043969304,-0.405365263427,0.573975904398,0.81885045396,0.0040425388675,0.0,0.818826775434,-0.573900558981,-0.0118998796183,0.0,-0.00742434945347,0.0101405784691,-0.999921020733,0.0,0.465439960734,0.00324301644715,0.304759367965,1.0,-0.16998,-0.223402285714,2.615
0.128722625468,-0.22595440544,-0.129476540018,-2.38083205657,-0.0224396892266,2.14914692472,-0.159299099776,-0.466350448634,-0.508382122679,-0.000923938060339,-0.531564911393,-0.0866370544744,-0.000900139470945,-0.413795765584,0.57382034705,0.818959659852,0.00400396652101,0.0,0.818935399926,-0.573745053522,-0.0119235568477,0.0,-0.00746779985261,0.0101211643164,-0.99992089387,0.0,0.462204207329,-0.000900530958528,0.304732840433,1.0,-0.16998,-0.223402285714,2.634
0.121577407212,-0.233629952995,-0.129558510036,-2.38871770284,-0.0236825526188,2.14915787132,-0.16563105438,-0.478717416475,-0.510538857935,-0.00839601493487,-0.517804824444,-0.0798533051926,-0.00126269119061,-0.415757238313,0.573800251822,0.818974235775,0.00390115955261,0.0,0.818947864922,-0.573724304289,-0.0120649951702,0.0,-0.00764287729798,0.0101179383549,-0.999919603643,0.0,0.459608323075,-0.00425448132382,0.304676248782,1.0,-0.16998,-0.223402285714,2.649
0.112842871487,-0.2428725004,-0.129774541182,-2.39777998041,-0.0251474124408,2.14922890332,-0.173327560495,-0.482582827253,-0.51794430817,-0.019513864742,-0.495875720924,-0.080847069817,0.000538721547367,-0.432582709658,0.573932502873,0.818880583316,0.00410113587954,0.0,0.818857753322,-0.573857079085,-0.0118650541273,0.0,-0.00736273834362,0.0101681828934,-0.999921195965,0.0,0.456613762796,-0.0083542973139,0.304782082629,1.0,-0.16998,-0.223402285714,2.667
0.105595885323,-0.250475004087,-0.129837048342,-2.40532863048,-0.0262702155519,2.14923733331,-0.179845918003,-0.481085438723,-0.511670050599,-0.00106986879893,-0.509993651249,-0.0745769625986,-0.00106142166077,-0.435015170492,0.573875248589,0.818920103176,0.00422025730621,0.0,0.818898683565,-0.573799233013,-0.0118377848952,0.0,-0.00727275964549,0.0102495722379,-0.999921023499,0.0,0.454079946263,-0.011649268152,0.304803327979,1.0,-0.16998,-0.223402285714,2.682
0.0957067876282,-0.26044441756,-0.129927349924,-2.41539800334,-0.027904891711,2.14909051062,-0.188642535557,-0.496612292715,-0.494115173281,-0.00351300113432,-0.498720071353,-0.0830918361531,-0.0106499105666,-0.45026144655,0.573831664713,0.818951321059,0.00408671142875,0.0,0.818927369933,-0.573755025027,-0.0119950377889,0.0,-0.00747872481388,0.0102300493048,-0.999919704159,0.0,0.450621348208,-0.0161037484555,0.304712072234,1.0,-0.16998,-0.223402285714,2.702
0.089175312781,-0.266944093922,-0.130070296373,-2.4215966801,-0.0288975139216,2.14901834291,-0.194400911289,-0.504317566763,-0.501697464576,-0.0119739614755,-0.470640062734,-0.0808687868641,-0.000240306779775,-0.450711835478,0.573955595491,0.818863477248,0.00428099702666,0.0,0.818842817704,-0.573879320136,-0.0118200133716,0.0,-0.00722234063988,0.0102898245923,-0.99992097553,0.0,0.448474915134,-0.0190434232687,0.304801623345,1.0,-0.16998,-0.223402285714,2.715
0.0801143849036,-0.275814965529,-0.130178275228,-2.43016847041,-0.0303128091916,2.14884216582,-0.20255549725,-0.500038328859,-0.490808187662,-0.00224910525397,-0.483814817929,-0.0820859538211,-0.0135887756761,-0.461755210438,0.573896720588,0.818904193962,0.0043843028957,0.0,0.81888550692,-0.573821027293,-0.0116919670594,0.0,-0.00705893157535,0.0103004219669,-0.999922033357,0.0,0.445457714721,-0.0230396041271,0.304846047397,1.0,-0.16998,-0.223402285714,2.733
0.0714139073295,-0.284059684744,-0.130248992497,-2.43831173093,-0.0316674815417,2.14849235741,-0.210396414528,-0.514742226711,-0.488944355635,-0.00710712500033,-0.475556500124,-0.0901293284977,-0.0179107380148,-0.460445752764,0.573802661635,0.818970795456,0.00425306849432,0.0,0.818949602898,-0.57372626386,-0.0118519606912,0.0,-0.00726645247956,0.0102839333423,-0.999920716549,0.0,0.442514108038,-0.0268108315699,0.304769335545,1.0,-0.16998,-0.223402285714,2.75
0.063057336596,-0.291803874362,-0.130409183861,-2.44571468117,-0.0328134956455,2.14820212079,-0.217866681667,-0.528458263807,-0.48578188732,-0.0099757825042,-0.455895588467,-0.0669973998636,-0.0188725922599,-0.481313820006,0.573909872851,0.818894937579,0.0043915775632,0.0,0.81887531015,-0.573832649122,-0.0118348692152,0.0,-0.00717162197629,0.0103885027365,-0.99992032025,0.0,0.439808414402,-0.0304185280907,0.304790451995,1.0,-0.16998,-0.223402285714,2.766
0.0541609945284,-0.299992692013,-0.130546983093,-2.45328105935,-0.0340634643084,2.1478997536,-0.225903448035,-0.523939191836,-0.4743930409,-0.0108719291236,-0.443807807951,-0.0791023385313,-0.0296705360576,-0.478411902343,0.573918035043,0.818887831817,0.00464272058701,0.0,0.8188727214,-0.573841888746,-0.0115628616166,0.0,-0.00680463013851,0.0104381330267,-0.99992236818,0.0,0.437008550108,-0.0342117858694,0.304910895596,1.0,-0.16998,-0.223402285714,2.783
0.0445981558348,-0.308431258651,-0.130648093974,-2.46146604948,-0.0354997860676,2.14729231504,-0.234459464197,-0.537260604835,-0.463114880474,-0.0090804225793,-0.452089500466,-0.0742715566924,-0.0328540036436,-0.485706698168,0.573908206137,0.818895877965,0.00443383380609,0.0,0.818877014606,-0.573831153775,-0.0117893515086,0.0,-0.00711011627745,0.0103969703401,-0.999920671481,0.0,0.433877244926,-0.0382196906031,0.304812288355,1.0,-0.16998,-0.223402285714,2.801
0.0364933032679,-0.315456162372,-0.130790531962,-2.46809187127,-0.0365678295372,2.14684464041,-0.241762901006,-0.540942364791,-0.459017800065,-0.00913789724217,-0.437699384478,-0.077164066756,-0.0201044893511,-0.491763450242,0.573973029862,0.81885011604,0.00449392394716,0.0,0.818831572852,-0.573895089429,-0.0118333651657,0.0,-0.00711084845944,0.01047200089,-0.999919883306,0.0,0.431314985569,-0.0415895928149,0.304801895652,1.0,-0.16998,-0.223402285714,2.816
0.0267882554025,-0.323807144488,-0.130891384626,-2.47566540353,-0.0378788897783,2.14634493847,-0.250662954142,-0.535331352809,-0.457905104477,-0.00184623257865,-0.410217605615,-0.0717858544345,-0.0213601794,-0.48934127045,0.573877525428,0.818916014609,0.00467907338227,0.0,0.818901193157,-0.573800998281,-0.0115757124096,0.0,-0.00679481011614,0.0104749416434,-0.999922050038,0.0,0.428512195917,-0.045353796504,0.304907511784,1.0,-0.16998,-0.223402285714,2.833
0.0173999427872,-0.331533271458,-0.130978682832,-2.48288088992,-0.0390989448808,2.14570764978,-0.259142700435,-0.557375362603,-0.454657894101,-0.00317572617427,-0.430486969803,-0.0829265620055,-0.0497447748909,-0.501096505463,0.573869131075,0.818921958382,0.00466833813125,0.0,0.81890663435,-0.573792078952,-0.0116327662737,0.0,-0.00684780413812,0.0104988206754,-0.999921438085,0.0,0.425445132946,-0.0493527848336,0.304880709169,1.0,-0.16998,-0.223402285714,2.851
0.00840720161226,-0.338736608579,-0.131154131612,-2.48955307059,-0.0401946650852,2.14500865534,-0.267259733688,-0.562354239474,-0.453150250329,-0.0094054336548,-0.403886300721,-0.0731456831958,-0.0420656004656,-0.520474885436,0.57398895479,0.818837891141,0.00468345095765,0.0,0.818821745075,-0.573910278859,-0.0117766087286,0.0,-0.00695538672374,0.0105947588032,-0.999919683615,0.0,0.422689545942,-0.0529690807117,0.304850487573,1.0,-0.16998,-0.223402285714,2.867
-0.00105593199305,-0.346323994761,-0.131240540461,-2.49648527419,-0.0413891880851,2.14430802314,-0.275994311076,-0.558598805669,-0.446983771996,-0.00842959963125,-0.402902876757,-0.074810675628,-0.0402714363,-0.520197637633,0.573860092556,0.818928054706,0.00470980770588,0.0,0.818912184228,-0.573781248934,-0.011775389443,0.0,-0.00694093105668,0.0106145493543,-0.999919574175,0.0,0.419802050957,-0.056696369398,0.304848885664,1.0,-0.16998,-0.223402285714,2.884
-0.0108146127658,-0.353847643828,-0.13136677776,-2.50306296685,-0.0425942574225,2.14360645962,-0.284853807062,-0.578547729468,-0.446460197012,-0.00829216499904,-0.386165025919,-0.0728419559902,-0.0345243305885,-0.525373705806,0.57390350171,0.818896718256,0.00486646226642,0.0,0.818884284621,-0.573826360821,-0.01151446609,0.0,-0.00663678193982,0.0105934658381,-0.999921862751,0.0,0.416984858759,-0.0605352299453,0.304961743716,1.0,-0.16998,-0.223402285714,2.901
-0.0200972286695,-0.360735341062,-0.131523268147,-2.50934184174,-0.0436938187846,2.14280032596,-0.293271300901,-0.577935206263,-0.423138336593,-0.00371627563772,-0.393232682282,-0.0739389797636,-0.0587094891663,-0.536769409305,0.573997404054,0.818831118136,0.00482980466093,0.0,0.818817368001,-0.573919024574,-0.0116540977056,0.0,-0.00677095143705,0.0106443547068,-0.999920422798,0.0,0.414228978862,-0.0641412161446,0.304918095031,1.0,-0.16998,-0.223402285714,2.917
-0.0298244195108,-0.368020398239,-0.131597176128,-2.51590396467,-0.0448373269493,2.14195533547,-0.302382174786,-0.583915118249,-0.421550083093,-0.00742279690791,-0.382841867958,-0.0589854144664,-0.048213375375,-0.540702515409,0.573788679253,0.818977443752,0.00482131593838,0.0,0.818963181281,-0.573709731228,-0.0117131934911,0.0,-0.00682693683205,0.0106695834845,-0.999919773243,0.0,0.411323833259,-0.0678348669814,0.304893737968,1.0,-0.16998,-0.223402285714,2.934
-0.0405555491062,-0.375536669457,-0.131756832144,-2.52263152943,-0.0459974757644,2.14098370702,-0.312078332476,-0.601964251975,-0.416871331569,-0.012853485789,-0.366727531647,-0.0642536188279,-0.0591314530618,-0.547775991844,0.573968928362,0.818851082051,0.00482924423222,0.0,0.818836006379,-0.573888496514,-0.0118463127837,0.0,-0.00692905173521,0.0107539815619,-0.999918166713,0.0,0.40823358649,-0.0719036098967,0.304860086715,1.0,-0.16998,-0.223402285714,2.952
-0.0500789850059,-0.382190971435,-0.131870402362,-2.52823239924,-0.0470458449852,2.14023646294,-0.320866011645,-0.586684838191,-0.409847196096,-0.00827502034881,-0.349821892267,-0.0662054021004,-0.0481470827916,-0.560331501875,0.573958690229,0.818857128243,0.00501720416681,0.0,0.818846223698,-0.573880419865,-0.011527034888,0.0,-0.00655984574907,0.0107245670132,-0.99992097292,0.0,0.40561185414,-0.0754897166124,0.304986270625,1.0,-0.16998,-0.223402285714,2.968
-0.0602271854867,-0.38905713491,-0.131986804518,-2.53433222484,-0.0481895046003,2.1392839766,-0.3303333408,-0.606540769198,-0.415360989814,-0.0104148977402,-0.361957967666,-0.0651308033215,-0.058120011685,-0.552407172176,0.573840160275,0.818940610868,0.00494906341085,0.0,0.818928332763,-0.573761319649,-0.0116224254644,0.0,-0.00667862364013,0.0107225491813,-0.999920208279,0.0,0.402701968119,-0.0792465067485,0.304941083944,1.0,-0.16998,-0.223402285714,2.985
-0.0713345320959,-0.396275155466,-0.132152185134,-2.54064726629,-0.0493491388011,2.13817835086,-0.340446987067,-0.621033098752,-0.403124596206,-0.00801314600116,-0.342512146803,-0.0639178156744,-0.0583055026942,-0.571067341904,0.573993618083,0.818833226573,0.00492141863108,0.0,0.818819791474,-0.573913566057,-0.0117522205659,0.0,-0.00679877066613,0.0107756620453,-0.999918827618,0.0,0.399581060598,-0.0833292671215,0.304911739723,1.0,-0.16998,-0.223402285714,3.003
-0.0809797776428,-0.402515869328,-0.132192624602,-2.54604389468,-0.0503329918381,2.13725231058,-0.349546676335,-0.610396858955,-0.388793450957,-0.00359107898393,-0.331240640106,-0.0571544494621,-0.0568668491342,-0.571033823079,0.57379943988,0.818969312927,0.00492079045317,0.0,0.818955770456,-0.573719266083,-0.0117642111024,0.0,-0.00681150673891,0.0107804150344,-0.999918689708,0.0,0.396884575395,-0.086794658754,0.304906580038,1.0,-0.16998,-0.223402285714,3.019
-0.0915739158058,-0.409008557339,-0.132345820243,-2.55154665104,-0.0514060507075,2.13628090438,-0.359362628881,-0.635736130534,-0.379337709177,-0.00751759223547,-0.31576628902,-0.0573275326127,-0.0617943894281,-0.576610339479,0.573832581438,0.818945833924,0.00496351488421,0.0,0.818933303081,-0.573752990791,-0.011683217208,0.0,-0.00672021993475,0.0107692056696,-0.999919428181,0.0,0.394025114042,-0.0906284742943,0.304935685283,1.0,-0.16998,-0.223402285714,3.036
-0.102329839552,-0.415432177506,-0.132481291385,-2.55688551911,-0.052375256181,2.13532126535,-0.369307211907,-0.628133370871,-0.374598770261,-4.32545955659e-05,-0.315809651196,-0.0605822844216,-0.066048877085,-0.582544969736,0.573928986292,0.818877362199,0.00511187561634,0.0,0.818867448238,-0.573850055362,-0.0115309617661,0.0,-0.00650911876988,0.0108041097516,-0.999920448128,0.0,0.391175882533,-0.094470800251,0.304999733904,1.0,-0.16998,-0.223402285714,3.053
-0.111680593267,-0.420992487009,-0.13256403079,-2.5616473342,-0.0532113422455,2.13431455498,-0.378199295977,-0.632782430427,-0.373599525074,-0.00812455479448,-0.311002361347,-0.0653078025977,-0.0722309543597,-0.580680599495,0.573779817761,0.818981909573,0.00510875940993,0.0,0.818970958508,-0.57369927763,-0.0116813898855,0.0,-0.00663608317696,0.0108866809528,-0.999918717986,0.0,0.388597281935,-0.0977358873,0.304966729772,1.0,-0.16998,-0.223402285714,3.068
-0.123305450318,-0.427471098717,-0.132774622091,-2.56718140569,-0.0543264367612,2.13314414637,-0.38889606787,-0.656290522112,-0.358469165387,-0.00785715848609,-0.300452091182,-0.0657130455889,-0.0546812585113,-0.594947439613,0.573948704064,0.818863924108,0.00505032665326,0.0,0.818851456718,-0.573867096892,-0.011814983559,0.0,-0.00677677797954,0.0109168720228,-0.999917445185,0.0,0.385478066558,-0.101828724175,0.304920011084,1.0,-0.16998,-0.223402285714,3.086
-0.134132070322,-0.433408590363,-0.132821825185,-2.57213786803,-0.0552389466903,2.132133295,-0.399144131363,-0.641035529343,-0.342506473881,-0.00640134962611,-0.291112222845,-0.0525500399092,-0.0594951969094,-0.598239899422,0.573822414848,0.818952126236,0.0050988285854,0.0,0.818940422447,-0.57374088085,-0.0117784984183,0.0,-0.00672074931488,0.0109346137666,-0.999917629483,0.0,0.382634122434,-0.105545425376,0.304926621495,1.0,-0.16998,-0.223402285714,3.103
-0.144563253694,-0.438865867862,-0.132980915758,-2.57664758253,-0.0561252606787,2.13109149086,-0.408942655289,-0.666554521147,-0.341717298101,-0.0170121021105,-0.279089309519,-0.0571428672447,-0.0597293189919,-0.607844275336,0.57385321603,0.818930369207,0.00512676742185,0.0,0.818918757035,-0.57377113931,-0.0118108413202,0.0,-0.00673079504708,0.0109763066083,-0.99991710511,0.0,0.379917944236,-0.109144044544,0.304931433257,1.0,-0.16998,-0.223402285714,3.119
-0.155763124551,-0.444629688422,-0.13310962163,-2.58122588575,-0.0570798266601,2.13005492675,-0.419451196385,-0.649322686887,-0.341983188016,-0.00631197885938,-0.271452820809,-0.0527590587675,-0.0569110213408,-0.61319103545,0.573872829928,0.818916084094,0.00521240672044,0.0,0.81890682593,-0.573792525965,-0.0115971760732,0.0,-0.00650639926632,0.0109239900159,-0.999919163338,0.0,0.377071490354,-0.112978648673,0.305016509354,1.0,-0.16998,-0.223402285714,3.136
-0.166928584879,-0.450240703568,-0.13320828298,-2.58585475942,-0.0579538157791,2.12894808576,-0.43004599763,-0.663603818526,-0.324316710607,-0.0053988495659,-0.273365502991,-0.0584445298569,-0.0691904621789,-0.631129540865,0.573803108386,0.818964766992,0.00523928751489,0.0,0.818955441471,-0.573722034064,-0.011651584303,0.0,-0.00653646818099,0.0109766696453,-0.999918390324,0.0,0.374163632281,-0.116718853819,0.305003773492,1.0,-0.16998,-0.223402285714,3.153
-0.177712517808,-0.455279911303,-0.133379699402,-2.59007044005,-0.0587943421678,2.1278677955,-0.440129529618,-0.67145589674,-0.30868028672,-0.00339712657776,-0.258425140907,-0.0555151665954,-0.0632995567532,-0.626952810922,0.573926241775,0.818878653678,0.00521214486038,0.0,0.818867840453,-0.573843346047,-0.0118330456959,0.0,-0.0066990028582,0.0110595661819,-0.999916401184,0.0,0.371384644918,-0.120336515299,0.304948077845,1.0,-0.16998,-0.223402285714,3.169
-0.189659466415,-0.460789953435,-0.13343550141,-2.59445986216,-0.0596001101249,2.12678414207,-0.451628614396,-0.671742274443,-0.302885098504,-0.00494206294581,-0.246596315433,-0.0542653846332,-0.0544771500429,-0.642709097846,0.573760919161,0.818993762313,0.00532652208004,0.0,0.818984841524,-0.573678340486,-0.0117361796118,0.0,-0.00655627377661,0.0110963156816,-0.999916940077,0.0,0.36839878423,-0.124273980602,0.304989562299,1.0,-0.16998,-0.223402285714,3.187
-0.20064490626,-0.465499951614,-0.133613594988,-2.59835354032,-0.0604117320663,2.12578103636,-0.461938823553,-0.688975453986,-0.28976465705,-0.0174474671398,-0.23410108627,-0.053312069683,-0.0619405456475,-0.64076191869,0.573916056352,0.818885157799,0.00531088498927,0.0,0.818875321701,-0.573832304471,-0.0118507702537,0.0,-0.00665699066473,0.0111505146648,-0.999915671693,0.0,0.365467147345,-0.128142688326,0.304942966811,1.0,-0.16998,-0.223402285714,3.204
-0.212161794168,-0.470423447453,-0.133667350719,-2.60226654418,-0.0612405558021,2.12471984392,-0.472923104609,-0.674726047113,-0.285911201664,-0.0033612520412,-0.225840419426,-0.039564303518,-0.063844060123,-0.65163043653,0.573805865782,0.818962357337,0.00531343205067,0.0,0.818952836499,-0.573722598486,-0.0118058662632,0.0,-0.0066202514827,0.0111259397707,-0.999916189355,0.0,0.362772188047,-0.131655579991,0.304961537167,1.0,-0.16998,-0.223402285714,3.22
-0.223894360088,-0.475264441794,-0.133840836366,-2.60593069033,-0.062005079265,2.12370066626,-0.484094109674,-0.701884205043,-0.288536811849,-0.0118421974291,-0.210381267274,-0.0445144765893,-0.0597342729239,-0.662271339696,0.573868027305,0.81891784135,0.0054592359497,0.0,0.818911297587,-0.573786123432,-0.0115981956641,0.0,-0.00636565808296,0.0111266778845,-0.999917834343,0.0,0.359916226241,-0.1354938636,0.305054356427,1.0,-0.16998,-0.223402285714,3.237
-0.235661558879,-0.479786645698,-0.133905274118,-2.60953841887,-0.062768720957,2.12267924319,-0.495352980271,-0.683975640638,-0.265447679807,0.000882469557038,-0.208225606235,-0.0419839476455,-0.0576254320232,-0.661924430859,0.57381041609,0.818958258516,0.00545198101089,0.0,0.818951529397,-0.573728386362,-0.0116137023075,0.0,-0.00638330404722,0.0111291858119,-0.999917693939,0.0,0.35703883475,-0.139267900662,0.305046999699,1.0,-0.16998,-0.223402285714,3.254
-0.246746051559,-0.483870433665,-0.13398008627,-2.61284976494,-0.0634961077099,2.12172463041,-0.506020948705,-0.700564781053,-0.2451602553,-0.00925307717759,-0.207062737225,-0.0445292529772,-0.0564532679146,-0.668761711764,0.573715672408,0.819024939844,0.00540574218611,0.0,0.81901711715,-0.573632955906,-0.0117021628437,0.0,-0.00648357617895,0.0111413241108,-0.999916913617,0.0,0.354315998975,-0.142795856419,0.305007532143,1.0,-0.16998,-0.223402285714,3.27
-0.259517738136,-0.488263337238,-0.134122419118,-2.61639234863,-0.0642468796411,2.12060923501,-0.518163795197,-0.699373459764,-0.237679488711,-9.54260271112e-05,-0.195118446812,-0.0375922654089,-0.055834262988,-0.670628166408,0.573819848849,0.818951994772,0.00539983578429,0.0,0.818942954145,-0.573735186163,-0.0118794324571,0.0,-0.00663073678083,0.0112390279922,-0.999914855165,0.0,0.351207849245,-0.146851541916,0.304959109203,1.0,-0.16998,-0.223402285714,3.288
-0.270722749287,-0.492001641498,-0.134191311816,-2.61934652838,-0.0648492586084,2.11973934048,-0.529026383856,-0.706089344203,-0.225778938137,-0.00515243183064,-0.179840365877,-0.0361075923519,-0.0533831345382,-0.686631011332,0.573730666818,0.81901417783,0.00544475603113,0.0,0.819005546189,-0.573645558563,-0.0118926596679,0.0,-0.00661702416365,0.0112826861753,-0.999914454333,0.0,0.34852027657,-0.150371270837,0.304948835765,1.0,-0.16998,-0.223402285714,3.304
-0.282235088419,-0.495645829692,-0.134354879163,-2.62214441968,-0.0654455737888,2.11885024405,-0.539998459092,-0.71653133253,-0.220433995156,-0.00267431898059,-0.167127478652,-0.0379804480761,-0.0521644911686,-0.685686924025,0.573881222948,0.818908077125,0.00553625046072,0.0,0.818900604528,-0.573795696467,-0.0118762587253,0.0,-0.00654901359604,0.0113494192419,-0.999914146867,0.0,0.345781119499,-0.154005312531,0.304966001845,1.0,-0.16998,-0.223402285714,3.32
-0.294947430806,-0.499566806222,-0.134387737138,-2.62512379848,-0.0660883756375,2.11786802068,-0.552381734235,-0.716312373974,-0.213449230881,-0.00106611083684,-0.163085135042,-0.0333863785161,-0.0503387250525,-0.687679233452,0.573733631654,0.819011220278,0.0055756496726,0.0,0.819004497949,-0.573648404066,-0.0118274152784,0.0,-0.00648844820628,0.0113524866521,-0.999914506889,0.0,0.342765565292,-0.157940545343,0.304995358343,1.0,-0.169508571429,-0.222782693878,3.338
-0.306556448538,-0.502795584877,-0.134504584677,-2.62759554033,-0.0666467100868,2.11706162725,-0.563462782105,-0.724601189069,-0.196433612868,-0.00569208071683,-0.150441807677,-0.0346386898578,-0.0441521271725,-0.694199910432,0.573873529011,0.818912841617,0.00562827117159,0.0,0.818906861145,-0.573788187078,-0.0118074570388,0.0,-0.00643996667331,0.0113852361194,-0.999914447954,0.0,0.339878845474,-0.161777210414,0.305003781631,1.0,-0.167322857143,-0.219910040816,3.355
-0.318593258012,-0.505972978214,-0.134491295449,-2.63003012893,-0.0671756070711,2.11629827856,-0.575169139567,-0.708530664765,-0.180563594491,0.0015698500284,-0.143107700019,-0.031750566818,-0.0435665274522,-0.68280669904,0.573771639237,0.818984017847,0.00565963071919,0.0,0.818978830032,-0.573686890443,-0.0117377423127,0.0,-0.0063662899822,0.0113701203026,-0.999915091753,0.0,0.337258953988,-0.165244523617,0.305017520993,1.0,-0.165265714286,-0.217206367347,3.371
-0.330768267588,-0.508998839741,-0.134551431021,-2.63230461212,-0.0676684137148,2.11553609304,-0.586816268467,-0.724378935908,-0.175512419765,-0.00508489680968,-0.132915394567,-0.0285731335073,-0.0446691979373,-0.681471153537,0.573908077507,0.818887899064,0.00573360627686,0.0,0.818883971264,-0.573823588148,-0.0116738251272,0.0,-0.00626959631476,0.0113950802041,-0.999915418578,0.0,0.334443914851,-0.168978015772,0.305041143515,1.0,-0.16308,-0.214333714286,3.388
-0.3426869356,-0.511809544709,-0.134481329121,-2.63443785993,-0.0681038857758,2.1147906278,-0.598428749522,-0.691711859153,-0.163087643981,-0.000813433223247,-0.121222560391,-0.0160991126462,-0.0456406473053,-0.674693000274,0.573802265105,0.818961864927,0.00575944927785,0.0,0.818958346203,-0.57371784309,-0.0116537807178,0.0,-0.00623982330897,0.0114039343896,-0.999915503873,0.0,0.331694272458,-0.172564320436,0.305051254006,1.0,-0.160894285714,-0.211461061225,3.405
-0.353886966409,-0.514142040075,-0.134476448597,-2.63627973267,-0.0684959763151,2.11410887267,-0.609262006176,-0.704658829265,-0.144580066203,-0.000338844073703,-0.118196733167,-0.0281951219909,-0.0466992229436,-0.678770850532,0.573827832187,0.818943856529,0.00577284691632,0.0,0.818939791738,-0.573742047195,-0.0117655296985,0.0,-0.0063233050007,0.0114792234634,-0.999914117933,0.0,0.329111253728,-0.175939901001,0.305018533276,1.0,-0.158837142857,-0.208757387755,3.421
-0.366392110545,-0.51655009888,-0.134426162249,-2.63816870668,-0.068876928608,2.11342169633,-0.621354632082,-0.67365308769,-0.125392435122,0.00540902662194,-0.103110550392,-0.0158909524711,-0.030227680937,-0.667435481643,0.573860407307,0.818920818745,0.00580279702427,0.0,0.818916593572,-0.573773509221,-0.0118456654236,0.0,-0.00637129348248,0.0115499875301,-0.999912998419,0.0,0.326255210221,-0.179683256515,0.304991336918,1.0,-0.156522857143,-0.205715755102,3.439
-0.378016481588,-0.518592866165,-0.134371692985,-2.63978975582,-0.0692058915417,2.11282303812,-0.632642244694,-0.682990093357,-0.11602049857,0.00246115409883,-0.0949369293161,-0.0193327545987,-0.0354702304699,-0.671701219124,0.57386532858,0.818917198684,0.00582694216742,0.0,0.818912649078,-0.573777181512,-0.0119401028639,0.0,-0.00643471302377,0.0116239914974,-0.99991173475,0.0,0.323606859825,-0.183146063875,0.304957380776,1.0,-0.154337142857,-0.202843102041,3.456
-0.388311154877,-0.520326293562,-0.134358496407,-2.64106991417,-0.0695131727624,2.11231688244,-0.64255836542,-0.673821181378,-0.110569436361,0.0046314680587,-0.0772646315701,-0.0194797445797,-0.0331502107469,-0.656787467051,0.573956074701,0.818853386254,0.00585687925023,0.0,0.818849374835,-0.573868061995,-0.0119119963106,0.0,-0.00639322566073,0.0116330885298,-0.999911895077,0.0,0.321124956464,-0.186422669192,0.304974827078,1.0,-0.15228,-0.200139428571,3.472
-0.400250797676,-0.522158242502,-0.134204837494,-2.64242748983,-0.0697822661478,2.11179431671,-0.654334112241,-0.665921687836,-0.0984167159333,0.00971467224147,-0.078243319323,-0.0192090156908,-0.0314151106318,-0.657535280553,0.573794295929,0.818966577856,0.00588193978849,0.0,0.818963038083,-0.573706484574,-0.0118810232465,0.0,-0.00635577631947,0.0116345786493,-0.999912116482,0.0,0.31859830409,-0.189741515358,0.304985402941,1.0,-0.150094285714,-0.19726677551,3.489
-0.411713950574,-0.523737041201,-0.134187196259,-2.64355461485,-0.0700602649772,2.11130404815,-0.665319979758,-0.671598192584,-0.0931651216288,-0.00121935748729,-0.0639610923106,-0.0197892428837,-0.025557505045,-0.642451577977,0.573989121794,0.818829698719,0.00592954119814,0.0,0.818826964823,-0.573901433208,-0.0118445574833,0.0,-0.00629582445775,0.0116541397482,-0.999912267962,0.0,0.316020443569,-0.193153816974,0.305010780703,1.0,-0.147908571429,-0.194394122449,3.506
-0.42273530223,-0.525047103965,-0.134055425834,-2.64453579374,-0.0702670593163,2.11091847857,-0.676240807013,-0.648597259927,-0.0663445071035,0.00719144986957,-0.0548940259152,-0.00876785518487,-0.0233454229974,-0.64595490806,0.573833826708,0.818938376649,0.00595159465038,0.0,0.818936039859,-0.573746290846,-0.0118196133782,0.0,-0.00626495025699,0.0116566937563,-0.99991243211,0.0,0.313569677825,-0.196392760817,0.305015211433,1.0,-0.145722857143,-0.191521469388,3.523
-0.434487513628,-0.526311826413,-0.134002979071,-2.64550405787,-0.0704806650791,2.11052196292,-0.687633764408,-0.652450818992,-0.0681167129425,-0.00106563450817,-0.0531299033471,-0.00801825844841,-0.0212936037855,-0.624293313096,0.573944534822,0.81886040844,0.00600411010716,0.0,0.818858558426,-0.573856410914,-0.0118417839335,0.0,-0.00625139131028,0.0117132696349,-0.999911855826,0.0,0.310926702921,-0.19985075509,0.305005453189,1.0,-0.143408571429,-0.188479836735,3.541
-0.444057632398,-0.527175396019,-0.133906957461,-2.64618438086,-0.0706453808343,2.1102390406,-0.697060344499,-0.622979323486,-0.0555164453925,0.0133835690912,-0.0469971689962,-0.00473236370255,-0.0244549889845,-0.622629351152,0.573885265352,0.818901888659,0.00601214299589,0.0,0.818899938301,-0.573796738993,-0.0118718268967,0.0,-0.00627223418212,0.0117366360238,-0.999911451306,0.0,0.308788826512,-0.202651037844,0.304990261002,1.0,-0.14148,-0.185945142857,3.556
-0.454119518854,-0.527976774834,-0.133790766661,-2.64679794215,-0.0707924380337,2.10999763349,-0.706934118784,-0.634137232793,-0.0428792710246,0.00777751125581,-0.0358926546785,-0.00143511606296,-0.0070784413524,-0.618103087193,0.573859522267,0.818919814976,0.00602762346306,0.0,0.818918160243,-0.573771117843,-0.01185318753,0.0,-0.00624845418869,0.0117384208513,-0.999911579239,0.0,0.306553580857,-0.205590201611,0.304986546494,1.0,-0.139422857143,-0.183241469388,3.572
-0.465515380543,-0.528698671497,-0.133744972261,-2.64734616014,-0.0709518992648,2.10971552725,-0.71796160994,-0.625952280992,-0.0338993691008,0.00455853328924,-0.0283903196519,-0.0138090112329,-0.0187941521055,-0.609181431829,0.574029530307,0.818800349467,0.00606901545006,0.0,0.818798989636,-0.573940470482,-0.0118868757352,0.0,-0.00624984475217,0.0117929484645,-0.999910928937,0.0,0.3040071784,-0.208938246452,0.304978030267,1.0,-0.137108571429,-0.180199836735,3.59
