nelsonifechukwu/NELSON_IML_WORK/CNN-GradCAM/train2dof/data_sample_2022-02-21-17-17-05/robot_state.csv
position_joint1,position_joint2,position_joint3,position_joint4,position_joint5,position_joint6,position_joint7,velocity_joint1,velocity_joint2,velocity_joint3,velocity_joint4,velocity_joint5,velocity_joint6,velocity_joint7,ee_T_00,ee_T_10,ee_T_20,ee_T_30,ee_T_01,ee_T_11,ee_T_21,ee_T_31,ee_T_02,ee_T_12,ee_T_22,ee_T_32,ee_T_03,ee_T_13,ee_T_23,ee_T_33,v_x,v_y,time
0.46507654042,0.547842559886,-0.123990274342,-1.35585324614,0.0794599114925,1.8940995289,0.159153812268,-0.000416667745197,-3.36477911783e-05,4.24625233868e-07,-0.0017312357814,-0.000163362163663,0.000192882864748,-0.00134657139891,0.573790811419,0.818988051437,0.00185019895314,0.0,0.818943954205,-0.573732996261,-0.0119161979694,0.0,-0.00869787102742,0.00835277496546,-0.999927286451,0.0,0.661672503065,0.260881553975,0.30316116228,1.0,0.0,0.0,0.0
0.465076193893,0.547844899916,-0.123990977493,-1.35584795642,0.0794605176185,1.8940963885,0.15915486149,0.000811699198058,-4.18288339369e-05,-0.00027633823167,0.000306555266978,0.000165804719582,-0.000894383309697,-0.000444024123247,0.573792299929,0.818987008798,0.00185009825066,0.0,0.81894290984,-0.573734484616,-0.0119163117575,0.0,-0.00869800681941,0.00835277359164,-0.999927285282,0.0,0.66167324549,0.260881399873,0.303161773788,1.0,-0.00018,-0.000236571428571,0.01
0.465076113391,0.547844116993,-0.123990548349,-1.35585364524,0.0794605176184,1.8940987277,0.159156494867,0.00035896360432,-0.00142336599247,0.000103341538916,-0.000551485654592,4.08642659949e-05,-0.0095806309631,0.000367273522869,0.573794212566,0.818985681264,0.00184456235829,0.0,0.818941502682,-0.573736413141,-0.0119201645273,0.0,-0.00870431906002,0.00835047086052,-0.999927249587,0.0,0.661671712475,0.260880384592,0.303159357531,1.0,-0.0004,-0.000525714285714,0.021
0.465070184245,0.547833177881,-0.12399068365,-1.35585473864,0.0794605176184,1.89409816167,0.159156092068,-0.000706487700334,0.00099143956179,-0.00128420118822,0.000295681342556,-0.000337076166887,4.47912871095e-05,-1.85062121146e-05,0.573801005505,0.818980895429,0.00185631460595,0.0,0.818936895302,-0.573743180153,-0.0119109882804,0.0,-0.00868999131124,0.00835490242975,-0.999927337188,0.0,0.661674802985,0.260876228999,0.303166098416,1.0,-0.0007,-0.00092,0.036
0.465072334366,0.547796471543,-0.123993467715,-1.3558901141,0.0794560013745,1.89410562108,0.159156784835,-0.000554855715929,-0.00320302343943,-0.000776832965147,-0.00172665520757,-0.000188932730473,9.85198825262e-05,0.00102207446396,0.573799860745,0.818981683746,0.00186236381605,0.0,0.818937768055,-0.573742015581,-0.0119070782171,0.0,-0.0086833297782,0.00835760079941,-0.999927372509,0.0,0.66166853876,0.260872935859,0.303176892256,1.0,-0.00102,-0.00134057142857,0.052
0.465076578749,0.547670849264,-0.123986757892,-1.35603066067,0.0794565633275,1.89412831175,0.159152190981,0.000679858565565,-0.00860146302415,0.000486286725333,-0.0080342776486,-9.41422770282e-06,0.00313544328623,-0.000868860252615,0.573795691464,0.818984569985,0.00187762775935,0.0,0.818940696331,-0.57373763172,-0.0119169099213,0.0,-0.0086826668118,0.00837569861126,-0.999927226837,0.0,0.661641486618,0.260866228739,0.303200739796,1.0,-0.00136,-0.00178742857143,0.069
0.46506809411,0.547526991912,-0.123992287798,-1.35622836472,0.0794548143973,1.89417556402,0.159142982001,0.0005774311459,-0.0118636448759,-0.00165197168578,-0.0105264935731,-0.000340748756683,0.00280567438765,-0.00155543182623,0.573809362823,0.818974991613,0.00187753843197,0.0,0.818931017218,-0.573751205742,-0.0119285308936,0.0,-0.00869209589917,0.00838243855735,-0.999927088438,0.0,0.661612963309,0.260838760348,0.303212831457,1.0,-0.0017,-0.00223428571429,0.086
0.465049138266,0.547363410753,-0.123989354014,-1.35642741977,0.0794527189038,1.89429699833,0.159134941742,-0.00126262184178,-0.0125948717262,-0.000747760044546,-0.0078847691188,0.00118297810689,0.00609223595626,-0.00256401726184,0.573827118756,0.818962367869,0.00195568294697,0.0,0.818919370316,-0.573768594042,-0.0118916909494,0.0,-0.00861690382511,0.00842548361877,-0.99992737746,0.0,0.661600259544,0.260814361855,0.303244407698,1.0,-0.00202,-0.00265485714286,0.102
0.465028348204,0.547175391091,-0.123982926767,-1.35665967577,0.0794525927195,1.89440930779,0.159131118861,-0.00126433704885,-0.0120491462861,0.00190864999024,-0.0186588849707,0.000486246695096,0.00496778623541,-0.000432484712697,0.573849608026,0.818946447408,0.00202251019884,0.0,0.818904198445,-0.573790687634,-0.0118704445387,0.0,-0.00856092569073,0.00846825507902,-0.999927496975,0.0,0.661578321856,0.26078684675,0.303276581778,1.0,-0.00236,-0.00310171428571,0.119
0.465000276681,0.54694238518,-0.123987023452,-1.35697489957,0.0794410011125,1.8945600331,0.159110280598,0.000533709858154,-0.0113283999333,0.000827843188,-0.017955377211,4.4018650618e-05,0.00954260289496,0.000959211315649,0.573873146962,0.818929801084,0.00208302532485,0.0,0.818888340139,-0.573813980569,-0.0118384537863,0.0,-0.00849975719774,0.00849969952579,-0.999927752008,0.0,0.661551148845,0.260739915262,0.30330478468,1.0,-0.00272,-0.00357485714286,0.137
0.464968573411,0.546726828794,-0.123989006657,-1.35731182991,0.0794366786474,1.89467422296,0.15907310565,-2.80667646735e-05,-0.0114345464705,-0.000120255649428,-0.0238334309356,4.43604351726e-05,0.0032992346735,-0.000259170341689,0.573887692301,0.818919601953,0.00208544078929,0.0,0.818878022509,-0.573828364534,-0.0118549234157,0.0,-0.0085117079641,0.00851128013957,-0.999927551845,0.0,0.661511273675,0.260687681677,0.303307055899,1.0,-0.00302,-0.00396914285714,0.152
0.464920883499,0.546431192758,-0.12399452436,-1.35776147057,0.0794201703853,1.89483961588,0.158937949632,-0.00220018487075,-0.0174331976229,-0.00160770362566,-0.0271908254694,-1.91294998778e-05,0.00458597743535,-0.00326636813708,0.573840681635,0.81895250564,0.00210059704527,0.0,0.818911044819,-0.57378122023,-0.0118557532708,0.0,-0.00850417944335,0.00852367976655,-0.99992751028,0.0,0.661463498701,0.260612005878,0.303316920279,1.0,-0.00338,-0.00444228571429,0.17
0.464881590521,0.546164536523,-0.123989225895,-1.35822557988,0.0794036571871,1.89500431026,0.15891723045,-3.21560595993e-05,-0.0164708237056,-0.000157661982607,-0.030266821704,0.000303430900455,0.0119317916363,-0.00279996931795,0.573873769413,0.818929374913,0.00207908256888,0.0,0.818887491559,-0.573814248067,-0.0118840979658,0.0,-0.00853939412737,0.00852267089309,-0.999927218766,0.0,0.661406783949,0.260545993936,0.3032989422,1.0,-0.0037,-0.00486285714286,0.186
0.464819712971,0.545830921369,-0.123981767051,-1.3587891547,0.0793483283099,1.89519258874,0.158856983258,-0.00618913952896,-0.0207517518817,0.00286788528046,-0.0329553728289,-0.0044541732019,0.00759548343333,-0.00702603485869,0.573886602716,0.818920496624,0.00203330630256,0.0,0.818878139885,-0.573827387992,-0.0118940199097,0.0,-0.00857365491612,0.00849101223975,-0.999927194926,0.0,0.661341216427,0.260450684446,0.303282919563,1.0,-0.00404,-0.00530971428571,0.203
0.464756077478,0.545472708618,-0.123991647455,-1.35942441748,0.0792691430722,1.89540210251,0.158757693136,-0.00227624270065,-0.0210605467566,0.000541318465846,-0.0457813931995,-0.00129159671708,0.0136801592392,-0.00308342430196,0.573878660392,0.818926264075,0.00195039916736,0.0,0.818883206233,-0.573820159491,-0.0118939485573,0.0,-0.00862125448169,0.00842299455718,-0.999927360929,0.0,0.661269768213,0.260333565607,0.30325254129,1.0,-0.00438,-0.00575657142857,0.22
0.464684999123,0.545040372253,-0.123994606649,-1.36016169854,0.0792596177435,1.89563578553,0.158686331845,0.000220652197433,-0.0184312840483,-0.000701154864255,-0.0410844681474,0.000129540921427,0.0123596956808,-0.00400086831948,0.573918918072,0.818898150746,0.00190816279239,0.0,0.818854178086,-0.573860234179,-0.0119588277369,0.0,-0.00869821063947,0.00842606677911,-0.999926668576,0.0,0.661178014843,0.260217323364,0.303228045884,1.0,-0.00474,-0.00622971428571,0.238
0.464623011376,0.54465346667,-0.123998141354,-1.36080305419,0.0792364923777,1.89585388494,0.15858947305,-0.00239589776247,-0.0220931579257,-0.000514814975014,-0.0351820869579,-0.00304773019301,0.015168675433,-0.00612317205441,0.57392236961,0.818895785523,0.0018849441402,0.0,0.818851349661,-0.573863629091,-0.0119895482081,0.0,-0.00873665782072,0.00842472117336,-0.999926344729,0.0,0.661102458072,0.260114298755,0.303215652211,1.0,-0.00504,-0.006624,0.253
0.464552935273,0.544186522555,-0.124003386896,-1.36158259056,0.0792010684616,1.89613257689,0.158499354531,-0.000603384736379,-0.0296716599991,0.00127020891178,-0.047225290032,-0.0060886281291,0.00964286650882,-0.00037516851243,0.57394385218,0.818880760816,0.00187109899732,0.0,0.818836028204,-0.573885056705,-0.0120103083383,0.0,-0.00876138335933,0.00842552812245,-0.99992612159,0.0,0.661006177978,0.25999227816,0.30320578404,1.0,-0.0054,-0.00709714285714,0.271
0.464480522971,0.543643993641,-0.123997287731,-1.3624556353,0.0791554175121,1.8964437567,0.158396810475,-0.00112026990975,-0.0275243331859,-0.000190417904605,-0.0482211329958,-0.00137974384281,0.0197099295691,-0.00660894912622,0.57395111148,0.818875723738,0.00184867652202,0.0,0.818830589553,-0.573892307814,-0.0120345978614,0.0,-0.00879406811109,0.00842118583911,-0.99992587125,0.0,0.660907772041,0.25986460268,0.30319448679,1.0,-0.00574,-0.007544,0.288
0.464404840441,0.543126497148,-0.124007308498,-1.36326954073,0.0791017877277,1.89672919657,0.158282893355,-0.00776980045427,-0.0324988740488,-0.000482073544507,-0.0512080809088,-0.00631258684172,0.0150032892635,-0.00697975552379,0.573957713573,0.818871127699,0.00183470781603,0.0,0.818825874325,-0.573899030427,-0.0120348374502,0.0,-0.0088022133477,0.00840995593546,-0.999925894095,0.0,0.660815829037,0.25972965644,0.303198232328,1.0,-0.00606,-0.00796457142857,0.304
0.464329978603,0.542540335848,-0.124009953036,-1.36417515012,0.0790513859894,1.89705286148,0.158167630983,-0.00347331302951,-0.0338703426199,-0.000124769398379,-0.052629945109,-0.000853128330418,0.0178633213718,-0.00632161989683,0.573963303255,0.818867197308,0.00184026914227,0.0,0.81882196628,-0.573904547105,-0.0120376597318,0.0,-0.00880127530993,0.00841618977844,-0.999925849902,0.0,0.660709979653,0.259592668437,0.303209916165,1.0,-0.0064,-0.00841142857143,0.321
0.464238749661,0.541892703323,-0.124011174692,-1.36517647312,0.0789920073824,1.897433836,0.158029448668,-0.0068838262695,-0.0351370651815,-0.00137719341695,-0.0604191966504,-0.00246032364212,0.0237591427671,-0.00592605689309,0.573965544876,0.81886557415,0.00186324110499,0.0,0.818820644263,-0.573906689695,-0.0120254294648,0.0,-0.00877805267316,0.00842800472235,-0.999925954522,0.0,0.660599382755,0.259437582656,0.303224349049,1.0,-0.00676,-0.00888457142857,0.339
0.464168383315,0.541275741719,-0.124014430325,-1.36611278872,0.0789347367939,1.89778379486,0.157908287713,-0.00219391676857,-0.0303172649964,-0.00147877779866,-0.0552830494166,-0.00294086829964,0.0275355322428,-0.00784930281628,0.57396288492,0.818867381701,0.00188807334525,0.0,0.818822796164,-0.573903942247,-0.0120100148311,0.0,-0.00875120515065,0.0084394627421,-0.999926093207,0.0,0.660491560899,0.259300659438,0.303245319111,1.0,-0.00708,-0.00930514285714,0.355
0.46408116384,0.540623938018,-0.124014563905,-1.3671118647,0.0788817928719,1.89814961091,0.157794737053,-0.0072349781071,-0.0459062892426,0.00027971106119,-0.0621677086182,-0.00093488564552,0.0242612842666,-0.00794262910098,0.573982600351,0.818853516545,0.00190783570408,0.0,0.818809108621,-0.573923492719,-0.0120089569134,0.0,-0.00873879311662,0.00845524835865,-0.999926068402,0.0,0.660376578867,0.259149203896,0.303262244697,1.0,-0.0074,-0.00972571428571,0.371
0.46398834525,0.539845448387,-0.124017319353,-1.36829090433,0.0788110892382,1.89859077434,0.157648495989,-0.00169854329839,-0.0470931708998,-0.000344444069324,-0.0671309568502,-0.00897664424425,0.022591056152,-0.00463787161957,0.573987146653,0.818850249552,0.00194195450463,0.0,0.818806293678,-0.573927899343,-0.0119902748112,0.0,-0.00870386522827,0.008472511319,-0.99992622692,0.0,0.660241227104,0.258975083663,0.303289539773,1.0,-0.00776,-0.0101988571429,0.389
0.463889085657,0.539181073031,-0.124017919887,-1.36933205189,0.0787575924548,1.89898274153,0.157521096165,-0.00645758161936,-0.0436413710819,-4.57528911864e-05,-0.0755635269643,-0.00516702941424,0.0234582621862,-0.0105841213012,0.574007837232,0.818835704893,0.00195910425698,0.0,0.818791889205,-0.573948433052,-0.0119910495825,0.0,-0.00869444211378,0.00848721851799,-0.999926184175,0.0,0.660124930536,0.258812280232,0.303297404509,1.0,-0.00806,-0.0105931428571,0.404
0.463778661872,0.538366701693,-0.124023454711,-1.37059736468,0.0786784837084,1.89946883487,0.157360562025,-0.0090100041691,-0.0480333215933,0.000458888580911,-0.0708149432005,-0.0046528801078,0.0246864143855,-0.00620977774044,0.574019495322,0.818827469863,0.0019850667884,0.0,0.818784057997,-0.573960043788,-0.0119700211513,0.0,-0.0086621998869,0.00849653012518,-0.999926384925,0.0,0.659984706435,0.258616864334,0.303312714661,1.0,-0.00842,-0.0110662857143,0.422
0.463669638843,0.537570186174,-0.124029336356,-1.37184980039,0.0786072677779,1.89994491648,0.1572043565,-0.0038669204754,-0.0502647258637,-0.000910820779863,-0.0700157216297,-0.00216324552645,0.033525143164,-0.00832080113228,0.574035076657,0.818816505367,0.00200205089213,0.0,0.818773308145,-0.573975545222,-0.0119620340025,0.0,-0.00864574908405,0.00850601670478,-0.999926446646,0.0,0.659843993099,0.258424073873,0.303320556612,1.0,-0.00876,-0.0115131428571,0.439
0.463562495698,0.536792331125,-0.124027353367,-1.3730613217,0.0785463589817,1.90040247838,0.157068871007,-0.0109949362805,-0.0520461321962,0.000572963440015,-0.0704235893878,-0.00317070283101,0.0308756766612,0.000436857593383,0.574060935409,0.81879831087,0.00202865818543,0.0,0.818755340799,-0.574001171443,-0.0119621902614,0.0,-0.00863033516616,0.0085281650486,-0.999926391149,0.0,0.659705453957,0.25824212308,0.30333270641,1.0,-0.00908,-0.0119337142857,0.455
0.463442747704,0.535932630906,-0.124034324554,-1.37441345813,0.0784546438678,1.90090263699,0.15689019729,-0.00335907648154,-0.0529126009816,-0.00112828654309,-0.076546834468,-0.00926961346443,0.0313796659715,-0.0147953413977,0.574075135519,0.818788357461,0.0020276503531,0.0,0.81874548803,-0.574015486429,-0.0119496473372,0.0,-0.00862049538295,0.00852028903436,-0.999926543169,0.0,0.659541065834,0.258017520325,0.303342077537,1.0,-0.00944,-0.0124068571429,0.473
0.463331136859,0.535027497717,-0.124041719461,-1.37583456072,0.0783860713914,1.90141587505,0.156728131575,-0.0074602140583,-0.0556534465431,-0.00104221257104,-0.0848536132881,-0.000695116252927,0.0364163519923,-0.00780897172433,0.574090769831,0.818777383424,0.00203255722373,0.0,0.818734419231,-0.574030941426,-0.0119656154962,0.0,-0.00863059077606,0.00853363826884,-0.999926342248,0.0,0.659382048884,0.257817998587,0.303346551651,1.0,-0.00976,-0.0128274285714,0.489
0.463208849712,0.534198574126,-0.124037189236,-1.37721813175,0.0783126319615,1.90191666277,0.156558786095,-0.00789982494503,-0.0523282422959,4.22611838268e-05,-0.0872799724041,-0.00189417109606,0.0231981797973,-0.0160545293882,0.574105199458,0.818767366079,0.0019917580725,0.0,0.818723713859,-0.574045387541,-0.0120050118143,0.0,-0.00868611960307,0.00852300336262,-0.999925952128,0.0,0.659216606779,0.257608744216,0.303316074598,1.0,-0.01008,-0.013248,0.505
0.463073501584,0.533223641135,-0.124043119143,-1.37878458929,0.0782125568896,1.90250720054,0.156354837589,-0.00489178654212,-0.0539301387723,-0.000295017706729,-0.0825766142913,-0.00248911225945,0.0383119166466,-0.0041903911533,0.574112128056,0.818762524708,0.00198480571444,0.0,0.81871885245,-0.574052414099,-0.012000558805,0.0,-0.00868639255315,0.00851482814707,-0.999926019406,0.0,0.659037225448,0.257366822216,0.303309438208,1.0,-0.01044,-0.0137211428571,0.523
0.462947027777,0.532317698191,-0.124045013288,-1.38025169669,0.078142133402,1.90305020637,0.156174677428,-0.00387617378702,-0.0566480283053,0.000534734660663,-0.0934831543881,-0.00335400029922,0.0369728235072,-0.0168512728407,0.574119676185,0.818757252528,0.00197629726839,0.0,0.818713265136,-0.574059797707,-0.0120285097834,0.0,-0.00871408458529,0.00852398904452,-0.99992570041,0.0,0.65885270545,0.257135445029,0.303294273655,1.0,-0.01078,-0.014168,0.54
0.462810433739,0.531325290594,-0.12404288253,-1.38184333474,0.0780300644044,1.90363844939,0.155962449867,-0.011420079244,-0.060906005805,-0.00052623347183,-0.0986341062611,-0.0095742431685,0.0432348769492,-0.00874244601594,0.574123977966,0.81875427798,0.00195885569993,0.0,0.818710193283,-0.574064301016,-0.0120226708563,0.0,-0.00871927194113,0.00850640252108,-0.999925804954,0.0,0.658677479916,0.256902711821,0.303289842199,1.0,-0.0111,-0.0145885714286,0.556
0.462669404478,0.530227782405,-0.124046075749,-1.38359088253,0.0779347594832,1.90424963666,0.155745435929,-0.00617734551195,-0.0689963836198,-0.000312153874969,-0.100098314379,-0.00939069791686,0.0381463054153,-0.00993736282488,0.574133249056,0.818747842752,0.001931118777,0.0,0.818703237331,-0.574073536243,-0.0120553337294,0.0,-0.00876184299204,0.00850254481727,-0.999925465642,0.0,0.658462424081,0.2566410129,0.303284460347,1.0,-0.01146,-0.0150617142857,0.574
0.462531330882,0.529176145104,-0.124043669526,-1.38524512833,0.0778202134863,1.90485912308,0.15552244429,-0.00633992177429,-0.0693600271414,0.00119846377201,-0.0997218167256,-0.00689051435025,0.0317216929966,-0.011351167071,0.574120911348,0.818756498833,0.00192916397419,0.0,0.818711958962,-0.574061296929,-0.0120458508017,0.0,-0.00875532882206,0.00849536801885,-0.999925583701,0.0,0.6582661542,0.256391800993,0.303290535318,1.0,-0.0118,-0.0155085714286,0.591
0.462406216149,0.528215732848,-0.124049986964,-1.38674589756,0.0777299538729,1.9054460502,0.155312114536,-0.0091790277496,-0.0626614789465,-0.000969626185359,-0.101002866214,-0.00507307996538,0.0392775158627,-0.0192164155299,0.574112815465,0.818762087949,0.00196605102938,0.0,0.818718078921,-0.57405309129,-0.0120209205051,0.0,-0.00871382406886,0.00851116990387,-0.999925811877,0.0,0.658095791628,0.256165456592,0.303303545314,1.0,-0.0121,-0.0159028571429,0.606
0.462250412093,0.527003848581,-0.124047728391,-1.38860249707,0.0776168171739,1.90615518302,0.155051004782,-0.00938656361007,-0.0696875625452,1.92841107766e-05,-0.108963257209,-0.00903129295057,0.0406110476895,-0.0154905341787,0.57409498218,0.818774459703,0.00202051332563,0.0,0.818731163615,-0.574035031162,-0.0119921484976,0.0,-0.00865918619316,0.00853905390749,-0.999926048792,0.0,0.657879784467,0.255889600118,0.303334253741,1.0,-0.01246,-0.016376,0.624
0.46210294772,0.525819476655,-0.124049946731,-1.39042177703,0.0774987131406,1.90681700594,0.154814652154,-0.00535152280068,-0.0696163266456,0.00103398518743,-0.10884796872,-0.0138673195131,0.041699777504,-0.0169166951827,0.574089889865,0.818777984045,0.00203914156828,0.0,0.818734972748,-0.574029902512,-0.0119775758554,0.0,-0.0086366134586,0.00854588625483,-0.999926185644,0.0,0.657660921141,0.255616744736,0.303359067095,1.0,-0.0128,-0.0168228571429,0.641
0.461948682068,0.524732840293,-0.124060956859,-1.39216901795,0.077389306142,1.90744376257,0.154571551606,-0.00891141821752,-0.0679815396575,-0.00186597210795,-0.114728102621,-0.00587823992559,0.0428872521106,-0.0133415524642,0.574090822662,0.818777384477,0.00201715278836,0.0,0.818734100677,-0.574030941657,-0.0119873812767,0.0,-0.00865725525286,0.00853352164952,-0.99992611274,0.0,0.657466300334,0.25536221385,0.303351897138,1.0,-0.0131,-0.0172171428571,0.656
0.461796007015,0.523524364072,-0.124067424801,-1.39408519122,0.0772752615021,1.90813862183,0.154315770212,-0.0104173889053,-0.0734616207688,-0.00195544215854,-0.114802690311,-0.00240033031556,0.0484422170615,-0.021508342079,0.574081557299,0.818783937533,0.00199401807416,0.0,0.818740319347,-0.574021743205,-0.0120031123385,0.0,-0.00868351303676,0.00852351252255,-0.999925970428,0.0,0.657218590082,0.255053644695,0.303344503397,1.0,-0.01346,-0.0176902857143,0.674
0.46163576901,0.522306464759,-0.124068449849,-1.39602000626,0.0771628379548,1.9088953898,0.154052729275,-0.00751279807055,-0.0742963242234,-0.000107246899782,-0.115867859843,-0.00972798597052,0.0487550350263,-0.0128298004319,0.574071732167,0.818790743285,0.00202779142538,0.0,0.818747550236,-0.574011761401,-0.0119872289304,0.0,-0.00865122252087,0.00854194299676,-0.999926093048,0.0,0.656993284729,0.254767228884,0.303345217009,1.0,-0.0138,-0.0181371428571,0.691
0.461472287313,0.521123932655,-0.124068452862,-1.39790403597,0.0770313846286,1.90961478724,0.153802354264,-0.0111964719739,-0.0745567204399,-0.000305595130412,-0.11892739654,-0.00370532306898,0.0448983654633,-0.00904222936797,0.574065817309,0.81879488082,0.00203161069284,0.0,0.81875189039,-0.574005982233,-0.0119675078816,0.0,-0.00863294370925,0.00853368658838,-0.999926321524,0.0,0.656772547668,0.254479316657,0.303341615184,1.0,-0.01412,-0.0185577142857,0.707
0.461308717743,0.519842408708,-0.124080168723,-1.39995672643,0.0769150124329,1.91036076209,0.153523881455,-0.0107073077518,-0.0714111446575,0.000514579545542,-0.121659260549,-0.00324486898118,0.0434825466498,-0.017234503351,0.574058011925,0.818800403123,0.0020113907112,0.0,0.818757070354,-0.573998185098,-0.0119870826769,0.0,-0.00866066025492,0.00852828541225,-0.999926127927,0.0,0.656521100519,0.254170080786,0.303329658631,1.0,-0.01446,-0.0190045714286,0.724
0.46113206809,0.518483270472,-0.124087237976,-1.40203183255,0.0767788742219,1.9110884224,0.15323263766,-0.0131810618295,-0.0815924981201,-0.0018295231433,-0.123220254057,-0.0080178869879,0.0410639176891,-0.0244199893701,0.57404227695,0.818811421868,0.00201657952237,0.0,0.818768191462,-0.573982464421,-0.0119802373927,0.0,-0.00865224051234,0.00852843811865,-0.999926199515,0.0,0.656265353629,0.253848995475,0.303359288971,1.0,-0.0148,-0.0194514285714,0.741
0.460961349135,0.517209908463,-0.124087586706,-1.4040526465,0.076643880058,1.91182242172,0.152966014943,-0.0141298586359,-0.0798488724939,-0.000697891550493,-0.119571252183,-0.0102536007067,0.0520587399392,-0.0163347853946,0.574036392171,0.81881554993,0.00201557853799,0.0,0.818772375023,-0.573976652152,-0.0119727851564,0.0,-0.00864677411783,0.00852327852153,-0.999926290794,0.0,0.656004570652,0.25352217816,0.303368225502,1.0,-0.01514,-0.0198982857143,0.758
0.460786529636,0.515855006182,-0.124096105219,-1.40620628317,0.0765166199836,1.91263686097,0.152672172795,-0.0112087089996,-0.0761149944627,-0.0015518414514,-0.127338363073,-0.00425276265445,0.0487175959796,-0.014537728262,0.574019733154,0.818827229337,0.0020152782695,0.0,0.818784052415,-0.573959998344,-0.0119725816888,0.0,-0.00864695326063,0.00852273994355,-0.999926293835,0.0,0.655744725835,0.253199200773,0.303351334597,1.0,-0.01548,-0.0203451428571,0.775
0.460586667014,0.514386365462,-0.12409999173,-1.40855197154,0.0763682770446,1.91349305236,0.152340850968,-0.0112478267856,-0.08008624265,-0.000221669409453,-0.136081288844,-0.00945220171374,0.0398000657622,-0.0218071093235,0.574001175763,0.818840305888,0.00198760606707,0.0,0.818796741622,-0.573941533844,-0.0119899349115,0.0,-0.00867723935946,0.00850984594878,-0.999926141292,0.0,0.655470424275,0.252860688318,0.303338196611,1.0,-0.01582,-0.020792,0.792
0.46040967783,0.513057699742,-0.124100161575,-1.41069574545,0.0762356454961,1.91423493142,0.152050471822,-0.011689251675,-0.0848414623595,0.000335626375532,-0.134980703471,-0.00864049418141,0.0511534033858,-0.0260460888526,0.57398487877,0.818851879272,0.00192500866989,0.0,0.818807392774,-0.5739254037,-0.0120345929544,0.0,-0.00874990614176,0.00848404905224,-0.999925727269,0.0,0.655195578227,0.25253662479,0.303313238364,1.0,-0.01614,-0.0212125714286,0.808
0.4602026664,0.511550131647,-0.124097914365,-1.41311920906,0.0760940698282,1.91513993402,0.151700241396,-0.00999187824991,-0.0845801537213,0.00108979379734,-0.135882919697,-0.010054880991,0.0524871158989,-0.0204330379466,0.573954805396,0.818872974917,0.00191812787794,0.0,0.818828286821,-0.5738952556,-0.0120506930618,0.0,-0.00876735118722,0.00848733396285,-0.999925546586,0.0,0.65489808324,0.252173070102,0.303294128465,1.0,-0.0165,-0.0216857142857,0.826
0.459985547162,0.509997386067,-0.124103467625,-1.41558884459,0.0759435564,1.91606436964,0.151352701259,-0.0164169307447,-0.0889067210063,-0.000705768815396,-0.138301855635,-0.00734441611168,0.048239878669,-0.0201374804568,0.573941543936,0.818882258857,0.00192280370107,0.0,0.818837648379,-0.573881991552,-0.0120462554664,0.0,-0.00876117114946,0.00848847395134,-0.999925591077,0.0,0.654616328398,0.251811648425,0.303288848427,1.0,-0.01684,-0.0221325714286,0.843
0.459816349323,0.508735407222,-0.12411195264,-1.41754006031,0.0758111665505,1.91676676072,0.151079094019,-0.0130241722296,-0.0887831772157,-0.000586492154151,-0.134747089884,-0.00455120918286,0.0526964513346,-0.0164041185506,0.573926218059,0.818892995088,0.00192502504078,0.0,0.818848480281,-0.573866722584,-0.0120373565467,0.0,-0.0087527676623,0.00848502171035,-0.999925693972,0.0,0.654357296979,0.25148912554,0.303301512803,1.0,-0.01714,-0.0225268571429,0.858
0.459592846663,0.507115946292,-0.124116122353,-1.42008363611,0.0756529724784,1.91768154061,0.1507292402,-0.0117742629334,-0.0967957957481,9.9081559115e-05,-0.1446503443,-0.00843158223572,0.0496573334246,-0.0195298236122,0.573914648567,0.818901126191,0.00191535464184,0.0,0.818856437818,-0.573855150609,-0.0120477078375,0.0,-0.00876691417996,0.00848291981128,-0.999925587875,0.0,0.654039540443,0.251096537762,0.303302976325,1.0,-0.0175,-0.023,0.876
0.459385971574,0.505635807887,-0.124125577238,-1.42238653877,0.0755024939649,1.91855790604,0.150419078715,-0.0109116803942,-0.0984708444855,-0.000767559763068,-0.149510246293,-0.0148923129498,0.0499701421969,-0.0234904294172,0.573915187368,0.81890066151,0.00195222636508,0.0,0.818856579681,-0.573855652009,-0.0120141363432,0.0,-0.00871825591877,0.00849385224754,-0.9999259205,0.0,0.653763690603,0.250737129743,0.303317830794,1.0,-0.01782,-0.0234205714286,0.892
0.459179738783,0.504077696201,-0.124131259548,-1.42471388061,0.0753578586149,1.91945691474,0.150091700752,-0.0145143670746,-0.100224104396,-0.000612794606975,-0.143691473888,-0.00652662736893,0.0492144902887,-0.0206273180471,0.573900930032,0.818910389105,0.00206010331316,0.0,0.818867782315,-0.573841008999,-0.011949827566,0.0,-0.00860383182833,0.00854513390551,-0.999926474679,0.0,0.653486316876,0.25038099298,0.303376769122,1.0,-0.01814,-0.0238411428571,0.908
0.458930536408,0.502285600953,-0.124136698579,-1.42736008309,0.075191242112,1.92043684856,0.149729318867,-0.0166516850762,-0.101062361813,-0.00142557604378,-0.152625446429,-0.0108939088932,0.0466989290049,-0.0217703354415,0.573902663946,0.81890890142,0.00216573126437,0.0,0.818867704029,-0.573842344938,-0.0118908938388,0.0,-0.00849493405696,0.00859782857362,-0.999926954052,0.0,0.653165443909,0.24996427001,0.303453678769,1.0,-0.0185,-0.0243142857143,0.926
0.45869330223,0.500566430347,-0.124140143659,-1.42994472955,0.0750297928886,1.92135034114,0.14936252892,-0.0102319131962,-0.104078043789,-0.000670324002904,-0.151921358102,-0.0151263653047,0.0540943630357,-0.0160580122581,0.573887081685,0.818919709258,0.00220775134325,0.0,0.818878997588,-0.573826534268,-0.0118761433681,0.0,-0.00845890443242,0.00862361249735,-0.99992703746,0.0,0.652839249212,0.249559384621,0.303502494303,1.0,-0.01884,-0.0247611428571,0.943
0.458460835717,0.498965579364,-0.124136522245,-1.43241157594,0.0748716522896,1.92225310008,0.14901167345,-0.0154726954872,-0.102389325424,-4.77405511411e-05,-0.157346057994,-0.00749830396537,0.0605690421687,-0.0278159553562,0.573870224827,0.818931442431,0.0022370864866,0.0,0.81889109449,-0.573809544732,-0.0118629103071,0.0,-0.00843141100163,0.00863986755075,-0.999927129344,0.0,0.652532129256,0.249174041151,0.303523114745,1.0,-0.01916,-0.0251817142857,0.959
0.458204683344,0.497301578832,-0.124138482407,-1.4350643995,0.0747120346052,1.92322709869,0.148614382832,-0.013125656934,-0.0956747695206,0.000669462525703,-0.158634016847,-0.0151503085291,0.0590849639751,-0.0299013342707,0.573847613106,0.81894731885,0.00222548452043,0.0,0.818906724624,-0.573786884316,-0.0118800106991,0.0,-0.00845231181405,0.00863994636842,-0.999926952208,0.0,0.652202079463,0.248753438818,0.303505122948,1.0,-0.0195,-0.0256285714286,0.976
0.457939869665,0.495619771873,-0.124138756493,-1.43775679591,0.0745460558446,1.92415218688,0.148226724768,-0.0162983466324,-0.101607005531,-0.000109418682951,-0.157727822619,-0.00761971155761,0.0520520955376,-0.0242354933985,0.573838047542,0.818954210859,0.00215467177166,0.0,0.818912525588,-0.573777434018,-0.011936437825,0.0,-0.00853925838637,0.0086142357292,-0.999926435299,0.0,0.651853978763,0.24831964252,0.303475775663,1.0,-0.01984,-0.0260754285714,0.993
0.457677698589,0.494036400451,-0.12414286223,-1.44036054488,0.0743820017364,1.92508680068,0.147863678637,-0.015492711551,-0.101071768406,0.000932543802712,-0.170949174167,-0.0122399677272,0.0623928559775,-0.0223452685678,0.573845066469,0.818949491552,0.00207770967128,0.0,0.818906737666,-0.573784704711,-0.0119839286773,0.0,-0.0086222402717,0.00857853396047,-0.999926030128,0.0,0.65152554665,0.247895572363,0.303420486301,1.0,-0.0230702857143,-0.0303209469388,1.009
0.457400589539,0.49184696256,-0.124225231461,-1.44375961544,0.0741882185214,1.92635536209,0.147371117515,-0.014203197428,-0.12997719037,-0.0016133221985,-0.218602631189,-0.00762770952494,0.0817159629366,-0.0381255929393,0.573846449075,0.818948420426,0.00211765603218,0.0,0.818906370265,-0.573786104275,-0.0119419505097,0.0,-0.00856492480316,0.0085871732395,-0.999926448555,0.0,0.651108026344,0.247347440601,0.303438984469,1.0,-0.0296371428571,-0.0389516734694,1.026
0.456975153553,0.488988035595,-0.124226874683,-1.44833904109,0.0739287950979,1.92802514596,0.146699272021,-0.0265936693561,-0.17143007958,-0.00388638436449,-0.273155097896,-0.0181200822693,0.0980291152152,-0.0345293223814,0.573804537832,0.818977866458,0.00208650811924,0.0,0.818935049335,-0.573743967127,-0.0119996691015,0.0,-0.00863050811717,0.00859434468024,-0.999925823033,0.0,0.650520359176,0.246635935551,0.303392457709,1.0,-0.0365902857143,-0.0480900897959,1.044
0.456485175534,0.48584426379,-0.124280935527,-1.45323414772,0.0736346516692,1.92987445699,0.145986533637,-0.0338283898666,-0.208909897892,-0.00901975817402,-0.320332533759,-0.023632593958,0.128182794639,-0.052600258295,0.573824587582,0.818963625481,0.00216095504691,0.0,0.818921901134,-0.573763827992,-0.0119472353714,0.0,-0.00854463786515,0.00862543689141,-0.999926292785,0.0,0.649924639296,0.245824935248,0.303408549129,1.0,-0.0427708571429,-0.0562131265306,1.06
0.45585355863,0.481767035386,-0.124372631616,-1.45963182173,0.0732491847854,1.93211840696,0.144987866192,-0.0386802485799,-0.240699809533,-0.00821420554137,-0.37201761335,-0.0253978491255,0.126655191931,-0.0564468039095,0.573807565937,0.818975713337,0.00209884248042,0.0,0.818933243174,-0.573747128899,-0.0119717252489,0.0,-0.00860051296499,0.00858844375871,-0.999926132177,0.0,0.649160554954,0.244804902142,0.303395683265,1.0,-0.0493377142857,-0.0648438530612,1.077
0.455126753456,0.477294387126,-0.124474348042,-1.46660478636,0.0728300246055,1.93460646127,0.143975742845,-0.0481812664233,-0.270993722375,-0.0113915074918,-0.425775751118,-0.0209143652987,0.145014749988,-0.0603263731336,0.573865934431,0.818934893714,0.0020678631998,0.0,0.818891937348,-0.573805537735,-0.0119977794895,0.0,-0.00863901524351,0.00857863860506,-0.999925884441,0.0,0.648226009449,0.243550756755,0.303388868541,1.0,-0.0562908571429,-0.0739822693878,1.095
0.45435936987,0.472595657104,-0.124538152923,-1.47382840091,0.0723974938928,1.9372420302,0.142939638124,-0.0495587465122,-0.299611416286,-0.00160499881389,-0.471806807281,-0.0300361811703,0.172817199868,-0.0573573288663,0.573923320918,0.818894435019,0.00216168965612,0.0,0.818852611275,-0.573862435872,-0.0119604600557,0.0,-0.00855400637934,0.00863465841849,-0.999926133096,0.0,0.647312056455,0.242332502344,0.30343153,1.0,-0.0624714285714,-0.0821053061224,1.111
0.453499535288,0.467403002201,-0.124569742835,-1.48164835379,0.0719239523091,1.94016061583,0.141687860553,-0.0523356081433,-0.340608924283,-0.000104060949257,-0.502842489481,-0.0311833730705,0.18874262018,-0.0789322173737,0.573869897846,0.818931162999,0.00241609525866,0.0,0.818892549511,-0.573807902037,-0.0118419093315,0.0,-0.00831149405151,0.00877440663912,-0.99992696176,0.0,0.646327163724,0.241023119887,0.303549213122,1.0,-0.068652,-0.0902283428571,1.127
0.452478801621,0.461423009599,-0.124601115375,-1.49089276834,0.0713206690604,1.94337798423,0.140245060176,-0.0598166222097,-0.356698022185,-0.00300502043146,-0.563714411426,-0.0325164224674,0.200148058844,-0.083029491338,0.573822959197,0.818964220649,0.0023587490309,0.0,0.818924616822,-0.573760936511,-0.0118998570362,0.0,-0.0083923606695,0.0087602174862,-0.999926410728,0.0,0.645022302042,0.239356329183,0.303546341889,1.0,-0.0756051428571,-0.0993667591837,1.145
0.451419774404,0.455349839368,-0.12468321529,-1.50035769124,0.0706885187395,1.94657971104,0.138840739736,-0.0654230306506,-0.376746294663,-0.00338323708159,-0.5970482891,-0.0367663744972,0.199802234612,-0.0932619070467,0.573857361941,0.818940590477,0.002187308184,0.0,0.818898700175,-0.573795974505,-0.0119935563971,0.0,-0.0085671064701,0.00867394146332,-0.999925680951,0.0,0.643822647625,0.237803213275,0.303503792261,1.0,-0.0813994285714,-0.106982106122,1.16
0.450051580727,0.447415417654,-0.124759741908,-1.51209269768,0.0698954767048,1.95099370522,0.136965997362,-0.0756698653473,-0.415689029144,-1.50743187016e-05,-0.640965512321,-0.0434950223246,0.229963509319,-0.0994115525548,0.5738157867,0.818968280755,0.0026730042861,0.0,0.818933389983,-0.573753272921,-0.0116632535994,0.0,-0.00801834416859,0.00888174250213,-0.999928407841,0.0,0.642324906409,0.235771557863,0.303746528527,1.0,-0.0887388571428,-0.116628212245,1.179
0.448696699378,0.439965253247,-0.124782442565,-1.52357614396,0.0691376882089,1.95491329756,0.135175958698,-0.0835172399913,-0.447135042976,-0.00457347419313,-0.704067804658,-0.0460487582435,0.229178822189,-0.115037561444,0.573779850001,0.818993763602,0.00257794799671,0.0,0.818957146734,-0.573717141811,-0.0117719966915,0.0,-0.00816233606933,0.00886593412838,-0.999927383104,0.0,0.64073830162,0.233781665785,0.303719889365,1.0,-0.0953057142857,-0.125258938775,1.196
0.447325872482,0.432409769768,-0.124821636901,-1.53494095011,0.0683688430163,1.95894269504,0.133306654586,-0.0848714095487,-0.486774004989,-0.00213078972554,-0.719213925448,-0.0472969197011,0.271841377886,-0.124919260328,0.573685914637,0.819059000353,0.00275176129497,0.0,0.819024642563,-0.573622598208,-0.0116831759635,0.0,-0.0079908918114,0.00895640623811,-0.999927961623,0.0,0.639191539339,0.231796721237,0.303817346001,1.0,-0.101486285714,-0.13338197551,1.212
0.44571569901,0.424080692144,-0.124857073698,-1.54769480419,0.0674643043231,1.96336234478,0.131227445276,-0.0949238460208,-0.498212305544,-0.00306837694945,-0.745534943645,-0.0503231378675,0.26069021992,-0.128360751526,0.573622852619,0.819103287075,0.00271568736929,0.0,0.819068496295,-0.573559709913,-0.0116963431725,0.0,-0.00802305874832,0.00893379570902,-0.999927906313,0.0,0.637420498046,0.229519358476,0.303800040924,1.0,-0.108053142857,-0.142012702041,1.229
0.443848682032,0.414680280321,-0.124985121192,-1.56186834133,0.0664308408735,1.96825288842,0.12892384135,-0.1071692803,-0.536247232226,-0.00439848536146,-0.810033566856,-0.0596626394373,0.291672308389,-0.13231298066,0.573664019059,0.819074327973,0.00275415945517,0.0,0.819040592403,-0.573601360822,-0.0116074872369,0.0,-0.00792775783054,0.00891473780758,-0.999928836521,0.0,0.635455496631,0.226890515162,0.303858530809,1.0,-0.115006285714,-0.151151118367,1.247
0.4421602381,0.406555300124,-0.125032891502,-1.57429212536,0.0656157151309,1.97248939679,0.126823349918,-0.117877676732,-0.559698801132,-0.000984105239857,-0.858604569036,-0.0557402808674,0.276511314775,-0.138675256655,0.57364433557,0.819088241828,0.00271574447078,0.0,0.819053328675,-0.57358105285,-0.0117118529532,0.0,-0.0080354961794,0.00894294983378,-0.999927724613,0.0,0.633683632468,0.224607884067,0.303809176077,1.0,-0.120800571429,-0.158766465306,1.262
0.439806306237,0.395636538031,-0.12518827783,-1.59057467852,0.0644753437737,1.97804159964,0.124077262219,-0.128922239173,-0.585936211885,-0.0100194422809,-0.879624189651,-0.0628754739092,0.300184093569,-0.137858369473,0.573767718664,0.81900137399,0.00284628227885,0.0,0.818968222026,-0.573704044018,-0.0116390759858,0.0,-0.00789964766325,0.00900931427023,-0.999928211335,0.0,0.631380384946,0.221475364497,0.303902287569,1.0,-0.12814,-0.168412571429,1.281
0.437703402821,0.386200996479,-0.125288049166,-1.60497290979,0.0633627272232,1.98283903637,0.121595114777,-0.135588201354,-0.611033838794,-0.00757676015925,-0.912542154049,-0.062822272665,0.295225855462,-0.157219918303,0.573770204763,0.81900033341,0.00263683550105,0.0,0.818964834762,-0.57370767118,-0.0116984765949,0.0,-0.00806843881946,0.00887188367292,-0.999928092402,0.0,0.629276192661,0.218700074008,0.303803473635,1.0,-0.134320571429,-0.176535608163,1.297
0.435607891993,0.376862899621,-0.125376676463,-1.61872310573,0.062357190398,1.98744616574,0.119120183178,-0.14029428953,-0.616671810802,-0.0108665530879,-0.93087402095,-0.0653273031656,0.309283286867,-0.154624168094,0.573756333524,0.819009580722,0.00277908768521,0.0,0.818975921088,-0.573693300617,-0.0116268829407,0.0,-0.0079283371806,0.00894717588402,-0.999928542204,0.0,0.627259881671,0.216023432175,0.303906675612,1.0,-0.140114857143,-0.184150955102,1.312
0.433029029064,0.366093261085,-0.125513678872,-1.63485891104,0.0611428662279,1.99277671174,0.116264423014,-0.153730303869,-0.6381336921,-0.0121193133728,-0.952257601124,-0.0697596022145,0.315714567095,-0.179847376814,0.573872487853,0.818928453418,0.00270236361627,0.0,0.818893868321,-0.573809781274,-0.0116582263426,0.0,-0.00799676455529,0.00890345576966,-0.999928387552,0.0,0.624862723936,0.212789729577,0.303870106027,1.0,-0.146681714286,-0.192781681633,1.329
0.430289626521,0.354872627323,-0.125637842758,-1.65146033927,0.0598549946851,1.99823333299,0.113159604878,-0.167620794146,-0.646128754869,-0.00713936899962,-0.992269675217,-0.068540841913,0.32099384104,-0.184027547942,0.573877884287,0.818924638567,0.00271241144699,0.0,0.81889040621,-0.57381539045,-0.0116252828713,0.0,-0.00796396047102,0.00889283166461,-0.999928743901,0.0,0.62236014265,0.209430164775,0.303890689075,1.0,-0.153248571429,-0.201412408163,1.346
0.427529618957,0.343879444766,-0.125772046418,-1.66759072568,0.0586701896114,2.00345644098,0.110141202938,-0.179423803573,-0.696906104978,-0.00486327477366,-1.01233330007,-0.0800137872805,0.341452808593,-0.187050165691,0.573973800066,0.818857188209,0.00278011836125,0.0,0.818823372345,-0.573910544395,-0.0116498426815,0.0,-0.00794417112897,0.0089633029375,-0.9999282721,0.0,0.619885747657,0.20612060018,0.303932652725,1.0,-0.159429142857,-0.209535444898,1.362
0.424117128505,0.33055878215,-0.125855331613,-1.68723803665,0.0571039086001,2.0097173769,0.106385994928,-0.187291043381,-0.726867021488,-0.000368403466697,-1.03912234906,-0.0835482072355,0.32892322271,-0.203272097994,0.573934071628,0.818885376186,0.00267749779806,0.0,0.818850022384,-0.573870949771,-0.0117269242358,0.0,-0.00806662386747,0.00892312230396,-0.999927651117,0.0,0.616783394073,0.202105413136,0.303886252981,1.0,-0.166768571429,-0.21918155102,1.381
0.421058424477,0.318869579344,-0.125871614386,-1.70413447989,0.0556704374072,2.01510951484,0.103060716187,-0.199622198492,-0.724286271308,-0.000879366522177,-1.05962231426,-0.0826504420531,0.327148939482,-0.205445598103,0.573822804902,0.818963060487,0.00276424184961,0.0,0.818929217266,-0.573759824028,-0.0116339305697,0.0,-0.00794190137386,0.00893970520281,-0.999928501381,0.0,0.614083275737,0.198622287315,0.303959085872,1.0,-0.172949142857,-0.227304587755,1.397
0.41764510585,0.306144992356,-0.125950303371,-1.72248618718,0.0541740095196,2.02090339396,0.0993096408359,-0.200147912818,-0.763580424193,-0.00261786582785,-1.09281938446,-0.0957800543041,0.344378216743,-0.224585136288,0.573703231926,0.819046476022,0.00286682669802,0.0,0.819013860587,-0.573639805712,-0.0115938074421,0.0,-0.00785149238461,0.00899954887064,-0.99992867855,0.0,0.611105119017,0.194778398336,0.30401207744,1.0,-0.179516,-0.235935314286,1.414
0.413956214894,0.293131702874,-0.126067674931,-1.74130875161,0.0526267659507,2.02655551588,0.0954717643321,-0.219981026238,-0.785032535808,-0.00547887823784,-1.0988404361,-0.0895809325899,0.337594575533,-0.225592328738,0.573735203891,0.819024611634,0.00271076672679,0.0,0.818989346148,-0.573671607364,-0.011750944707,0.0,-0.00806937838018,0.00896219227649,-0.999927279477,0.0,0.607968084067,0.190710571466,0.303973810911,1.0,-0.186082857143,-0.244566040816,1.431
0.410306401443,0.280556813491,-0.126188656503,-1.75928561735,0.0511317075554,2.03208854624,0.0916576302612,-0.226695840679,-0.807727410861,-0.00540260276577,-1.14468411937,-0.0978789132458,0.340758088979,-0.242180679774,0.573720820159,0.81903442136,0.00278999007332,0.0,0.818999976634,-0.573656709731,-0.0117373146224,0.0,-0.00801292243799,0.00901911722243,-0.999927221651,0.0,0.604966326235,0.186779981737,0.303999425213,1.0,-0.192263428571,-0.252689077551,1.447
0.406428013784,0.267644445559,-0.126339556578,-1.77748292386,0.049540557011,2.03759048858,0.0876650474007,-0.245968655706,-0.79655596806,-0.0139121826852,-1.13839369087,-0.102019981225,0.352567005358,-0.246378644687,0.573713364358,0.819039219746,0.00291186803287,0.0,0.819006630327,-0.573649145203,-0.0116423618528,0.0,-0.00786531179156,0.00906439233087,-0.999927984238,0.0,0.601891203395,0.182690569595,0.304088721824,1.0,-0.198444,-0.260812114286,1.463
0.401978899302,0.253672846393,-0.126525550587,-1.79718427307,0.0477956778145,2.04336359796,0.0833231280182,-0.265350594445,-0.823222161972,-0.0118630768216,-1.14172374435,-0.101548515154,0.344308869235,-0.257873375648,0.573870486132,0.81892921269,0.00289078728394,0.0,0.818896336972,-0.57380630294,-0.0116560242748,0.0,-0.00788685866491,0.00905647779997,-0.999927886235,0.0,0.598501100221,0.178125122094,0.304114011403,1.0,-0.205010857143,-0.269442840816,1.48
0.397363951425,0.239471293875,-0.126649447855,-1.81729446628,0.0459787630202,2.04910978875,0.0787100892527,-0.271982038821,-0.87074248845,-0.00819218393353,-1.18228082232,-0.0957136115421,0.329753279935,-0.270640456859,0.57384116662,0.818950380906,0.00270850666345,0.0,0.818914689409,-0.573777124468,-0.0118021103942,0.0,-0.00811141980787,0.00899074578998,-0.999926682992,0.0,0.594932564401,0.173490416922,0.304034210609,1.0,-0.211577714286,-0.278073567347,1.497
0.392570645342,0.224861922964,-0.126727963068,-1.83752225842,0.0441458171523,2.055032584,0.0739322141864,-0.286991475592,-0.851490190412,-0.00283108986955,-1.21869586971,-0.108280845606,0.336987095924,-0.289020108622,0.573747659016,0.819015153933,0.00292374823525,0.0,0.818982200767,-0.573682798187,-0.0117025122165,0.0,-0.0079073830172,0.00910896212873,-0.999927247405,0.0,0.591319307075,0.168822842382,0.304108607918,1.0,-0.218144571429,-0.286704293878,1.514
0.387418410194,0.209910209215,-0.126863175124,-1.85800046363,0.0422098268959,2.06077319191,0.0689338223082,-0.310459261693,-0.889033899658,-0.0069780714872,-1.22267371364,-0.118122565349,0.335871586298,-0.297867392604,0.573740103031,0.819020010023,0.0030437240993,0.0,0.818988722383,-0.573674965359,-0.0116298594379,0.0,-0.00777912904848,0.00916546892718,-0.999927737054,0.0,0.587593083811,0.163916522857,0.304200238631,1.0,-0.224711428571,-0.295335020408,1.531
0.381962855643,0.194789847711,-0.127039029066,-1.87874804486,0.0402179427872,2.06642569041,0.0636790892474,-0.329184186774,-0.90359940816,-0.00683759317955,-1.2193024669,-0.117231637826,0.334116313177,-0.304020917299,0.573748794834,0.819014042742,0.00301083367455,0.0,0.818982165498,-0.573683574256,-0.011666881574,0.0,-0.00782822473778,0.00915985468088,-0.999927405345,0.0,0.583742596271,0.158828633288,0.304198792561,1.0,-0.231278285714,-0.303965746939,1.548
0.376471143422,0.180304437771,-0.127287787283,-1.89849036336,0.0383281491916,2.07168766235,0.058525212801,-0.350253653292,-0.926702927834,-0.0220272869504,-1.2137152041,-0.11862702893,0.332291874938,-0.324641566224,0.573907685644,0.818902812019,0.00298324113204,0.0,0.818870179519,-0.573842075226,-0.0117323781262,0.0,-0.00789592017804,0.00917636585233,-0.999926721692,0.0,0.580034740624,0.153817747503,0.30418686392,1.0,-0.237458857143,-0.312088783673,1.564
0.37005442707,0.163711980203,-0.127454362764,-1.92101919841,0.0360545631442,2.07748123385,0.0525223203569,-0.359530036444,-0.920506485911,-0.00711148117141,-1.26712291961,-0.127787413684,0.31011450076,-0.346543748037,0.573925895387,0.818890670056,0.00280784633229,0.0,0.818855307535,-0.573860399848,-0.0118732350283,0.0,-0.00811172574498,0.00911375238469,-0.999925566941,0.0,0.575671040383,0.148126411175,0.304117498717,1.0,-0.244412,-0.3212272,1.582
0.364131781392,0.148597450152,-0.127608824371,-1.94104524571,0.0339775370104,2.0827060187,0.0469131255103,-0.378059913463,-0.940432262009,-0.0112071817495,-1.26772987234,-0.141360770391,0.308740653328,-0.349359050144,0.573839531899,0.81895053129,0.00299429969675,0.0,0.818918073051,-0.573773927951,-0.0117224628734,0.0,-0.00788221785685,0.00917907547141,-0.999926804929,0.0,0.57176352294,0.143004452157,0.304210290128,1.0,-0.250592571429,-0.329350236735,1.598
0.357900120992,0.133256016281,-0.127776823373,-1.96125725476,0.0319226031244,2.08769992274,0.0410955701906,-0.395876293782,-0.959639204284,-0.00909192108526,-1.27510447915,-0.126388954486,0.305001501137,-0.369008679797,0.573818716089,0.81896478309,0.00308415734788,0.0,0.818932955246,-0.573752175456,-0.0117474623876,0.0,-0.00785136716147,0.00926681029072,-0.99992623841,0.0,0.567715558138,0.137744417866,0.304263127041,1.0,-0.256773142857,-0.337473273469,1.614
0.350836563041,0.116722954651,-0.128040346694,-1.98283024087,0.0295585346828,2.09294801175,0.0346339662392,-0.429429834818,-0.980308486482,-0.018600136392,-1.26957071599,-0.141973703695,0.321076041119,-0.388999252603,0.573882053513,0.818920104974,0.00316183894917,0.0,0.818889866158,-0.57381593457,-0.0116364616496,0.0,-0.00771516736496,0.00926733280589,-0.999927293724,0.0,0.563358381533,0.131903698143,0.304328355342,1.0,-0.26334,-0.346104,1.631
0.342989480554,0.0989691552336,-0.128260353563,-2.00582373589,0.0270114391766,2.09832408945,0.0274544918202,-0.43633838611,-1.00641080813,-0.0138242164349,-1.26040714794,-0.153768766324,0.31983261686,-0.408930787136,0.573858735755,0.818936289724,0.00320182338561,0.0,0.818906722432,-0.573792675304,-0.0115970954805,0.0,-0.00766024702155,0.00927726786151,-0.999927623839,0.0,0.558594656442,0.125619234435,0.304365095672,1.0,-0.270293142857,-0.355242416326,1.649
0.335785460062,0.0830056177323,-0.128410585602,-2.02650520446,0.024841092472,2.10284339119,0.0207878783476,-0.46186890596,-1.00887050508,-0.00926336668681,-1.29554740501,-0.132560219691,0.270680390076,-0.421126118559,0.573752045623,0.819011447778,0.003096038486,0.0,0.81897870565,-0.573684212774,-0.0118764728267,0.0,-0.00795097188358,0.00934992018595,-0.999924677683,0.0,0.554154433962,0.120005011105,0.304288124604,1.0,-0.276473714286,-0.363365453061,1.665
0.327657660511,0.0656944028,-0.1286631043,-2.04841862123,0.0222680259095,2.10769938454,0.0134068361932,-0.482457461064,-1.01703812443,-0.0161881663685,-1.30530352428,-0.154097862468,0.263718269823,-0.432655724326,0.573698951086,0.819048206691,0.00320866646029,0.0,0.81901765167,-0.573631589355,-0.0117317026989,0.0,-0.00776838718116,0.00935860018415,-0.999926031646,0.0,0.549448381123,0.113799031951,0.304350951623,1.0,-0.27998,-0.367973714286,1.682
0.319097674842,0.0485056404022,-0.128931129097,-2.06996832027,0.0197362729253,2.11215038017,0.00582963801225,-0.510453354579,-1.00734298523,-0.00982091423518,-1.26872260259,-0.147161396608,0.255060333125,-0.441863336361,0.573816563073,0.818965698639,0.00323779218331,0.0,0.818935432848,-0.57374897896,-0.0117308511659,0.0,-0.00774963396593,0.00938308009442,-0.999925947749,0.0,0.544715836365,0.107469450075,0.304387636553,1.0,-0.27998,-0.367973714286,1.699
0.311424815732,0.0333952923318,-0.129080979641,-2.08868951611,0.0175930775507,2.11586572937,-0.000959616053651,-0.51969237482,-1.01169947361,-0.00920136935576,-1.23636032495,-0.145107519241,0.252636262724,-0.450544281035,0.573860191391,0.818934680306,0.00334918347763,0.0,0.818905103731,-0.573791296861,-0.0117781845665,0.0,-0.00772398019205,0.00950187763333,-0.999925024415,0.0,0.540504190921,0.101981820275,0.304430631891,1.0,-0.27998,-0.367973714286,1.714
0.301961440354,0.0154277326988,-0.129301198239,-2.11065887605,0.0148377022384,2.12004416611,-0.00935369020782,-0.533515969524,-1.01604552322,-0.0191121396823,-1.2106888088,-0.154398904999,0.23091290151,-0.480942856803,0.573823963981,0.818959799314,0.00341355685051,0.0,0.818931560814,-0.573755481199,-0.0116830389442,0.0,-0.00760953878295,0.00949966005571,-0.999925922945,0.0,0.535480656725,0.0953477932158,0.304503615439,1.0,-0.27998,-0.367973714286,1.732
0.292681501878,-0.00130543248015,-0.129545251582,-2.13107050863,0.0123299627228,2.1236059064,-0.017475689884,-0.549115794663,-0.971638963432,-0.00731628256645,-1.18714232142,-0.140621712456,0.204157168382,-0.482521083206,0.573933613232,0.818883302135,0.00333046376759,0.0,0.818853060763,-0.573864256548,-0.0118417412874,0.0,-0.00778591999761,0.00952371717496,-0.999924336268,0.0,0.530690465751,0.0890161598125,0.304476192469,1.0,-0.27998,-0.367973714286,1.749
0.283867773401,-0.016946946614,-0.129690257071,-2.14980303585,0.00994066904619,2.12693902318,-0.0252727736612,-0.555557946183,-0.952166188486,-0.014806953677,-1.16845946376,-0.155352610455,0.193268083705,-0.498100636647,0.573855291462,0.81893754432,0.00348566575183,0.0,0.818909710909,-0.5737859011,-0.0117205792982,0.0,-0.00759854285959,0.00958054643761,-0.999925234843,0.0,0.52624530311,0.083187589356,0.304531262784,1.0,-0.27998,-0.367973714286,1.765
0.274176794228,-0.0334736421479,-0.129895168649,-2.16929758307,0.00734140731104,2.13008609096,-0.0337205108955,-0.572767794136,-0.960146365475,-0.0134078344916,-1.13806186535,-0.152005100195,0.184154873871,-0.50587779953,0.573878906173,0.818920653647,0.00356524627286,0.0,0.818894403052,-0.573809956794,-0.0116119350235,0.0,-0.00746362330766,0.00958358930199,-0.99992622185,0.0,0.521513789834,0.076910709862,0.30461019077,1.0,-0.27998,-0.367973714286,1.782
0.26360476193,-0.0508026054352,-0.130127174371,-2.18957645824,0.00477869350265,2.13312759232,-0.0429381692958,-0.582401562148,-0.960386403154,-0.0113423699256,-1.10244250398,-0.142096328999,0.17525680501,-0.511483359443,0.573987009137,0.81884428858,0.00370017615191,0.0,0.818818918677,-0.573916492061,-0.0116698525111,0.0,-0.0074323430558,0.00972830527555,-0.999925057368,0.0,0.516477445936,0.070258319826,0.304652997813,1.0,-0.27998,-0.367973714286,1.8
0.254091008875,-0.0659167326225,-0.130287811521,-2.20731013636,0.00235200987878,2.13559035013,-0.0513349045379,-0.601013732821,-0.950683928835,-0.0127413498392,-1.10722941465,-0.153204557421,0.14076146089,-0.528456125277,0.573873618072,0.818924407237,0.00355423897408,0.0,0.818896715913,-0.573803047598,-0.01178889879,0.0,-0.00761493040934,0.00967607891964,-0.999924190292,0.0,0.51196020503,0.0644083430751,0.304575864273,1.0,-0.27998,-0.367973714286,1.816
0.242984740107,-0.0828893175824,-0.130576599728,-2.22667058598,-0.000323149700999,2.13813815025,-0.0610291346001,-0.623229374779,-0.930979297859,-0.0161969569971,-1.07220196941,-0.144899237193,0.129992643647,-0.546654457202,0.573948009664,0.818871774854,0.00366680396255,0.0,0.818845744772,-0.573877309661,-0.0117143768992,0.0,-0.00748842118502,0.00972617738648,-0.999924659673,0.0,0.506966643921,0.0577214336327,0.304635982311,1.0,-0.27998,-0.367973714286,1.834
0.231160533785,-0.10065543537,-0.130720241649,-2.24676953445,-0.00308595528393,2.14048129884,-0.0714703583899,-0.628629092026,-0.93332161055,-0.0128413270847,-1.05076780824,-0.152089170228,0.127177423175,-0.552641347537,0.573791857705,0.81898100489,0.00371006210889,0.0,0.818954974191,-0.573720305742,-0.0117689391633,0.0,-0.00751014424857,0.00979148380077,-0.99992385939,0.0,0.501619310914,0.0508553163524,0.304650034579,1.0,-0.27998,-0.367973714286,1.853
0.221440643827,-0.114418788126,-0.130960287252,-2.26240837839,-0.0053712335413,2.1420467864,-0.0798724684636,-0.661886589258,-0.925369260527,-0.0162167066353,-1.03936822142,-0.150576308585,0.0993784005704,-0.567979148239,0.573881130552,0.818919518508,0.00346656947669,0.0,0.818889458394,-0.573809328503,-0.0119856728972,0.0,-0.00782630225493,0.00971727580161,-0.999922158742,0.0,0.497357350811,0.0452769188058,0.304538694883,1.0,-0.27998,-0.367973714286,1.868
0.209536407718,-0.130945876396,-0.131184597477,-2.28058046839,-0.00793075691434,2.14379223352,-0.0902975868546,-0.662997332858,-0.901342510811,-0.00611147386266,-1.00668777571,-0.14428798154,0.0845318971594,-0.579427392991,0.5739051048,0.818902110846,0.00360699843069,0.0,0.818873427523,-0.573832211003,-0.0119854166907,0.0,-0.00774522026227,0.00983235629326,-0.999921665098,0.0,0.492335282497,0.0386643340887,0.304589712388,1.0,-0.27998,-0.367973714286,1.886
0.198740861023,-0.145547484663,-0.131412344644,-2.29639495409,-0.0102821674855,2.14517621165,-0.0998103666703,-0.682028106089,-0.912939043596,-0.0100601511844,-0.967782849516,-0.150215925048,0.0915631330893,-0.602005262675,0.573862364317,0.81893147572,0.00373788665565,0.0,0.818904924664,-0.573789557252,-0.0118749842281,0.0,-0.00758018397092,0.00987577045471,-0.999922501981,0.0,0.487878150573,0.0327832415299,0.304657192922,1.0,-0.27998,-0.367973714286,1.902
0.1889767653,-0.158103121614,-0.131698420757,-2.31010463081,-0.0123917663887,2.14613148519,-0.108288973586,-0.699163046469,-0.890241242611,-0.0188018063799,-0.981595603082,-0.153919729034,0.0638043485681,-0.596072487542,0.573983928565,0.818846917815,0.00359469549616,0.0,0.818817906543,-0.573910856248,-0.0120129890391,0.0,-0.00777391395016,0.00983885311168,-0.999921378525,0.0,0.483911021343,0.0275278415553,0.304589139909,1.0,-0.27998,-0.367973714286,1.916
0.176470622104,-0.174175639037,-0.131862263287,-2.32710701747,-0.0148418695017,2.14720524289,-0.119440289899,-0.701689622814,-0.884719845629,-0.0134749606874,-0.955855470004,-0.13555972978,0.0538718963192,-0.620311510139,0.573827999615,0.81895522601,0.00380940282203,0.0,0.8189285327,-0.5737535394,-0.0119867117095,0.0,-0.00763106876676,0.00999813196076,-0.999920898945,0.0,0.478899855965,0.0210613901561,0.304665582351,1.0,-0.27998,-0.367973714286,1.934
0.164106396618,-0.189116727134,-0.132181805656,-2.34284032444,-0.0173462570669,2.147932853,-0.130235032822,-0.736119022692,-0.861203991191,-0.0224069143281,-0.890124392528,-0.144275662225,0.0468543457248,-0.647070415929,0.573940707293,0.81887642656,0.00376954080846,0.0,0.818849100604,-0.57386622924,-0.012018663807,0.0,-0.00767873614006,0.00998487774665,-0.999920666467,0.0,0.474141579391,0.0147229743256,0.304669499362,1.0,-0.27998,-0.367973714286,1.951
0.152404753698,-0.20306820473,-0.132334276878,-2.35730267696,-0.0195819709923,2.14855937326,-0.140693924092,-0.738548093963,-0.849363794134,-0.0117487930106,-0.91413299376,-0.135745547397,0.0322124262456,-0.661299643605,0.573782869334,0.818986429758,0.00389790092483,0.0,0.818960872909,-0.573708073214,-0.0119533373346,0.0,-0.00755350926663,0.0100510420516,-0.999920957402,0.0,0.469406436581,0.00856719339971,0.304707163308,1.0,-0.27998,-0.367973714286,1.968
0.139564917627,-0.217749288644,-0.132686443808,-2.37229842305,-0.0219423376842,2.14893664349,-0.152020772973,-0.76335716477,-0.868664394409,-0.0290896199845,-0.857271132012,-0.14332227274,0.0318887823084,-0.674848714753,0.573889731701,0.818910964549,0.00401931469056,0.0,0.818886874105,-0.573814331977,-0.0119225306583,0.0,-0.00745729428309,0.0101337770703,-0.999920844529,0.0,0.464945988776,0.0026339248288,0.304757480955,1.0,-0.27998,-0.367973714286,1.984
0.126553969306,-0.232168261813,-0.132890078957,-2.38706887461,-0.024352643185,2.14914260533,-0.163597949925,-0.764484330655,-0.868507773818,-0.0123752565449,-0.875803733325,-0.143226801703,0.0103835681036,-0.695192519334,0.573781242956,0.818987336669,0.00394645521151,0.0,0.8189618847,-0.573705566633,-0.0120042127739,0.0,-0.00756734061998,0.0101199833651,-0.999920157459,0.0,0.460153735899,-0.00355060716365,0.304705788798,1.0,-0.27998,-0.367973714286,2.001
0.113877365309,-0.245638797916,-0.133238297218,-2.40042884272,-0.0265266535395,2.14922934521,-0.174827944851,-0.796791754403,-0.846537388037,-0.026610106651,-0.851629256687,-0.125177007786,0.000838009709224,-0.712950499515,0.573915766258,0.818892041734,0.00415501217787,0.0,0.818869751268,-0.573839936,-0.0118661371941,0.0,-0.00733291457345,0.0102127736364,-0.999920960686,0.0,0.455729073548,-0.00950848090701,0.304784098868,1.0,-0.27998,-0.367973714286,2.017
0.100267474075,-0.259704168577,-0.133472722321,-2.4145223487,-0.0288226066497,2.14912069712,-0.187025527929,-0.805395805081,-0.81617252683,-0.00896330321559,-0.856162017961,-0.14106245171,-0.0163834839693,-0.713338911917,0.57383535151,0.818948440449,0.00414585865237,0.0,0.818925307491,-0.57375856231,-0.0119666130912,0.0,-0.00742146011469,0.0102622117807,-0.999919801254,0.0,0.450930930878,-0.0157088200072,0.304723381592,1.0,-0.27998,-0.367973714286,2.034
0.0854125571324,-0.274463544363,-0.133869158325,-2.42870912603,-0.031264408861,2.14885728606,-0.200220340999,-0.839861819604,-0.809381445702,-0.0218610462091,-0.772745947288,-0.127709321806,-0.0247557165482,-0.737445489276,0.573991250964,0.81883787464,0.00439610877677,0.0,0.818819276649,-0.573915411751,-0.0116978307486,0.0,-0.00705576813473,0.0103142696953,-0.99992191294,0.0,0.445972885904,-0.0224048342665,0.304847913905,1.0,-0.27998,-0.367973714286,2.052
0.0721157772797,-0.287289362941,-0.134059820088,-2.44122837361,-0.0333540291952,2.14838206061,-0.212289889452,-0.835465854521,-0.823874442039,-0.0161051874619,-0.773785057305,-0.120843545034,-0.0331255954201,-0.761228390593,0.573818751122,0.818958891582,0.00437283212833,0.0,0.818939218101,-0.573741891155,-0.011812971324,0.0,-0.00716559888676,0.0103597876342,-0.999920661349,0.0,0.441460478112,-0.0281892266748,0.304794293402,1.0,-0.27998,-0.367973714286,2.068
0.0574950738889,-0.3007827218,-0.134420621642,-2.45386415014,-0.0356312118242,2.14779803822,-0.225417269339,-0.863732212006,-0.780628058863,-0.0177010228598,-0.736651142502,-0.131414516658,-0.0373176262871,-0.771779977051,0.573888293901,0.818909089053,0.00456912360897,0.0,0.818893381469,-0.573812910834,-0.0115377661579,0.0,-0.00682669089104,0.0103632135423,-0.999922997084,0.0,0.436779227744,-0.0345131703378,0.304912500105,1.0,-0.27998,-0.367973714286,2.085
0.0427785311692,-0.313926569694,-0.134626848735,-2.46639840661,-0.0378082480055,2.14693219291,-0.23875998192,-0.875555033004,-0.764714243545,-0.0126276981584,-0.723769608583,-0.135081796946,-0.0556259366159,-0.784712233193,0.573769379437,0.818992859687,0.00448797323778,0.0,0.818975167242,-0.573692862576,-0.011701357673,0.0,-0.00700874510897,0.010389619396,-0.999921463566,0.0,0.431981607808,-0.040662934358,0.30484651206,1.0,-0.27998,-0.367973714286,2.102
0.0285020717959,-0.326152260821,-0.134983282068,-2.4775980908,-0.0398006953912,2.14609477726,-0.251690981015,-0.894250050839,-0.754223199135,-0.0120575732263,-0.684650537956,-0.115364550329,-0.0575209064745,-0.824433889148,0.57385463283,0.818931959353,0.00469608673238,0.0,0.81891766161,-0.573778528664,-0.0115243415579,0.0,-0.00674326770526,0.010459206531,-0.999922563672,0.0,0.427566026944,-0.0465920643928,0.304937135078,1.0,-0.27998,-0.367973714286,2.118
0.0122540610696,-0.339531884068,-0.135279508681,-2.49001363752,-0.0420117023943,2.14497296093,-0.266580706988,-0.922176441517,-0.74054746615,-0.0238521018338,-0.66776648881,-0.126839123024,-0.0700940188855,-0.837730554821,0.573745038586,0.81900869836,0.00470421184008,0.0,0.818993912795,-0.573668010364,-0.0116073938595,0.0,-0.00680803176529,0.0105126078996,-0.999921564813,0.0,0.422519374476,-0.0531531664764,0.304893798186,1.0,-0.27998,-0.367973714286,2.136
-0.00347062061926,-0.351955525628,-0.13559552858,-2.50123299365,-0.0441122914297,2.14368254637,-0.280920844218,-0.919148690373,-0.752633588609,-0.0152432353759,-0.643587000155,-0.122242290158,-0.062584160637,-0.85099413142,0.573747866495,0.819006629253,0.00471951617492,0.0,0.818991966181,-0.573670674101,-0.0116130920804,0.0,-0.0068038823703,0.0105284353411,-0.99992142653,0.0,0.417764430126,-0.0594045673094,0.304919785214,1.0,-0.27998,-0.367973714286,2.153
-0.0185617758238,-0.363358810435,-0.135988531071,-2.51145387769,-0.0459937492047,2.1425154207,-0.294767499131,-0.95290071569,-0.714432011016,-0.0306290515112,-0.640749585697,-0.114131931557,-0.087024223272,-0.871700892895,0.573818266601,0.818956549706,0.00484907309063,0.0,0.818943561624,-0.573740667025,-0.0115687846401,0.0,-0.00669235037215,0.0106097014059,-0.999921320246,0.0,0.413306716272,-0.0653265931293,0.304934662585,1.0,-0.27998,-0.367973714286,2.169
-0.0347721041303,-0.375153620761,-0.136235712828,-2.52210492529,-0.0480016751265,2.14100187263,-0.309761050661,-0.956296333133,-0.693671260057,-0.0105020314691,-0.613396194122,-0.121422228072,-0.0915131394169,-0.875198857043,0.573666731826,0.819063447924,0.00472186106678,0.0,0.819047488486,-0.573587504849,-0.0118039310147,0.0,-0.00695990192808,0.0106391558123,-0.999919180799,0.0,0.408490008028,-0.0714963436088,0.304847500824,1.0,-0.27998,-0.367973714286,2.186
-0.0523851582161,-0.387400152416,-0.136613344346,-2.53261270125,-0.0501054081175,2.1395010754,-0.325952567104,-0.97969775792,-0.673112397476,-0.0167795021555,-0.58712794159,-0.113335069854,-0.0834985060802,-0.9054034336,0.573729345141,0.819018603842,0.00488998830006,0.0,0.8190064881,-0.573652186854,-0.0115016463782,0.0,-0.0066150372365,0.0106039683483,-0.999921895519,0.0,0.403533272688,-0.0781604815156,0.304963150227,1.0,-0.27998,-0.367973714286,2.204
-0.0672650411015,-0.397262235092,-0.136918768604,-2.54122516707,-0.0517786591382,2.13805583134,-0.339789810859,-1.00777395462,-0.652011255209,-0.0302908688288,-0.561432340103,-0.105426423477,-0.100762396065,-0.920533593641,0.573690214837,0.819046071366,0.00488029512324,0.0,0.819033134086,-0.573611981149,-0.0116089299012,0.0,-0.00670898184277,0.0106572580843,-0.999920703062,0.0,0.39931068805,-0.0836652555011,0.304933293829,1.0,-0.27998,-0.367973714286,2.219
-0.084323305464,-0.408119912519,-0.137238679898,-2.55059856371,-0.0534875184438,2.13629297046,-0.355728378686,-1.00506370258,-0.62955318745,-0.0190793672084,-0.530183871705,-0.0971958757835,-0.0929409291726,-0.939789221105,0.573664328756,0.819063795947,0.00494802811917,0.0,0.819050125192,-0.573583323263,-0.0118241532131,0.0,-0.00684676122379,0.0108359865929,-0.999917848253,0.0,0.394527387465,-0.0898433583696,0.304899764809,1.0,-0.27998,-0.367973714286,2.236
-0.101835153943,-0.418669858628,-0.137627883858,-2.55935764606,-0.0553520591249,2.13474884988,-0.372006724659,-1.03225109425,-0.599463653902,-0.0200256821663,-0.510270394941,-0.105960992487,-0.0935144157453,-0.967273595895,0.573730856393,0.819016271754,0.00509881605404,0.0,0.819006428265,-0.573652395145,-0.0114955167704,0.0,-0.00649019220171,0.010771503191,-0.999920922936,0.0,0.389846211052,-0.0961706413042,0.305002008968,1.0,-0.27998,-0.367973714286,2.253
-0.118476656298,-0.428193854567,-0.137926805669,-2.56751312699,-0.0570002519033,2.13294658646,-0.387663852292,-1.0535302532,-0.589265636807,-0.0332808612365,-0.502280641785,-0.0988892314133,-0.111568490685,-0.979871980121,0.573641866357,0.819079227465,0.00499751937045,0.0,0.819066261774,-0.573560794433,-0.0117991870178,0.0,-0.0067982186937,0.0108620162987,-0.999917897042,0.0,0.385294122361,-0.102014539803,0.304918024366,1.0,-0.27998,-0.367973714286,2.269
-0.136373439932,-0.437936449089,-0.138258636139,-2.57568351065,-0.0586749295477,2.13118294698,-0.40448080887,-1.04472308264,-0.561892947962,-0.0191959268802,-0.470201238571,-0.0873091199088,-0.113884805714,-0.992339889543,0.573634120111,0.819084512069,0.00502048145936,0.0,0.819071227758,-0.573551984877,-0.0118823989222,0.0,-0.00685331376489,0.0109284917707,-0.999916796618,0.0,0.380531598898,-0.108223565752,0.304887070986,1.0,-0.27998,-0.367973714286,2.286
-0.155812217468,-0.447920781823,-0.13863546846,-2.58360092795,-0.0603596747729,2.12940885173,-0.422739809999,-1.07501697604,-0.540299328119,-0.0154447299299,-0.440108871083,-0.100324003921,-0.101929149352,-1.00661401274,0.57373867169,0.819009794544,0.00525737094967,0.0,0.819001527198,-0.573658945348,-0.01151780235,0.0,-0.00641737861642,0.0109142135903,-0.999919845384,0.0,0.375583092355,-0.114918314265,0.305033127728,1.0,-0.27998,-0.367973714286,2.304
-0.172107134981,-0.455774103123,-0.138911923317,-2.59015153499,-0.0617699933091,2.1277222122,-0.438179897712,-1.09803145255,-0.520396671529,-0.0255522647952,-0.426985622695,-0.0953021956317,-0.117118523596,-1.04835524011,0.573688225284,0.81904567362,0.00517219444616,0.0,0.819034803496,-0.57360627172,-0.0117721114343,0.0,-0.00667522228551,0.0109899405689,-0.99991732789,0.0,0.371327997014,-0.120395806192,0.304955174931,1.0,-0.27998,-0.367973714286,2.319
-0.191837497924,-0.464770382959,-0.139212538978,-2.59748217468,-0.0633545646516,2.12584640651,-0.45706080063,-1.1015918922,-0.491065459481,-0.0114531126459,-0.399937187035,-0.095963245399,-0.0975544025284,-1.0449569412,0.573527614272,0.819158065142,0.00518525613955,0.0,0.819146808961,-0.573444730988,-0.0118487455816,0.0,-0.00673266731765,0.0110432814233,-0.999916355065,0.0,0.366298284569,-0.126942882403,0.304926221995,1.0,-0.27998,-0.367973714286,2.337
-0.21095550521,-0.472840743408,-0.139562748717,-2.6038537634,-0.0648507315026,2.12413808114,-0.475114948029,-1.1206187081,-0.467919822348,-0.0117800571909,-0.361152593154,-0.0822767242937,-0.0993284230883,-1.06239102633,0.573660964695,0.819064374919,0.00523394930437,0.0,0.819054424757,-0.573579003939,-0.0117355199039,0.0,-0.0066101901124,0.0110193111618,-0.999917436676,0.0,0.361554080188,-0.133260205796,0.304967455919,1.0,-0.277335428571,-0.364497991837,2.354
-0.228896562501,-0.479833968003,-0.139802038914,-2.60930998734,-0.0659694781707,2.12258748078,-0.492205877536,-1.12322762636,-0.430787947689,-0.012203166079,-0.337797046831,-0.077283114752,-0.104435969113,-1.07207223524,0.573747229441,0.819002854316,0.00540261353346,0.0,0.81899522055,-0.573664912322,-0.0116680755939,0.0,-0.00645702171445,0.0111194547912,-0.999917328881,0.0,0.357190931969,-0.139077900672,0.305012200373,1.0,-0.271154857143,-0.356374955102,2.37
-0.247752086071,-0.486727440322,-0.13984802787,-2.61485863797,-0.067088123285,2.12089332321,-0.510263576333,-1.11672032564,-0.398865788779,-0.00552328929057,-0.314325581277,-0.0672269257695,-0.0981489883664,-1.06831704466,0.573642897856,0.819075954303,0.00539941872761,0.0,0.819066883803,-0.573558228211,-0.011880471789,0.0,-0.00663425545933,0.0112378496999,-0.999914845069,0.0,0.352571010679,-0.145020887876,0.30495492511,1.0,-0.264588,-0.347744228572,2.387
-0.266606681043,-0.492950665395,-0.139924528778,-2.61982118975,-0.0680868912249,2.11937455051,-0.52814012219,-1.09454779668,-0.35871537175,-0.00118255020552,-0.272501785676,-0.0532260921056,-0.0789167511315,-1.04502682113,0.573789755229,0.818972693204,0.00545815735138,0.0,0.818963386086,-0.573703140734,-0.0120177145951,0.0,-0.00671094727955,0.0113658913709,-0.999912886056,0.0,0.34805658374,-0.150934465308,0.304911970932,1.0,-0.258021142857,-0.339113502041,2.404
-0.284129305072,-0.498341110993,-0.13991254099,-2.62396472862,-0.0689537864242,2.11809326599,-0.544813745808,-1.08421690998,-0.325670020092,0.00586230929074,-0.2475716088,-0.0654229936455,-0.0822434256128,-1.0459157654,0.573867219539,0.818917937376,0.00552929328873,0.0,0.818910009859,-0.573781091847,-0.0119332013037,0.0,-0.00659983572484,0.0113762857027,-0.999913507406,0.0,0.343948190896,-0.156376550248,0.30494051812,1.0,-0.251840571429,-0.330990465306,2.42
-0.303405630987,-0.503719775758,-0.139800421471,-2.6280759909,-0.0697113617426,2.11674094321,-0.563239766291,-1.08343357234,-0.278560591069,0.000296456202344,-0.21975072496,-0.0395611705741,-0.0722367665853,-1.03440447822,0.573921357338,0.818879185959,0.00564812316297,0.0,0.818872878879,-0.573834901192,-0.0118937509783,0.0,-0.00649858003975,0.0114513930548,-0.99991331327,0.0,0.339488926172,-0.162274877059,0.304967163077,1.0,-0.244887428571,-0.32185204898,2.438
-0.321268737551,-0.508272461949,-0.139642503835,-2.63150818241,-0.0703969727046,2.11561980286,-0.580446288331,-1.0346515077,-0.261331574529,0.00682381046387,-0.199540450547,-0.0258679048018,-0.0654785060139,-1.01700529206,0.573853009514,0.818926643059,0.00571171267127,0.0,0.818921895432,-0.57376763866,-0.0117632014862,0.0,-0.00635612558774,0.011428015166,-0.999914496413,0.0,0.335404455219,-0.167696691131,0.305008200432,1.0,-0.238320571429,-0.313221322449,2.455
-0.337936539555,-0.512121694301,-0.139476815115,-2.63444318877,-0.0709769147013,2.11458428871,-0.596357260259,-1.02891738275,-0.229067766801,0.0226303430131,-0.179419440652,-0.0346503341703,-0.0578615760339,-0.993760739226,0.573935260061,0.818868804514,0.00573978683369,0.0,0.818864409247,-0.573849751373,-0.0117596351087,0.0,-0.00633594508213,0.0114495968293,-0.999914377601,0.0,0.33159363319,-0.172704910938,0.30501632364,1.0,-0.23214,-0.305098285714,2.471
-0.355100518455,-0.515603336282,-0.139264655211,-2.63726308669,-0.0713893003168,2.11355614633,-0.612999827884,-1.02245970926,-0.187823972078,0.00751281721921,-0.163538313036,-0.0241581609696,-0.0611546685144,-0.973051027665,0.573871144073,0.818913194047,0.00581700245359,0.0,0.818908096653,-0.57378228218,-0.0120070310137,0.0,-0.0064951482269,0.0116543034137,-0.999910991169,0.0,0.327663554918,-0.17778157033,0.304938696014,1.0,-0.225573142857,-0.296467559184,2.488
-0.371952532934,-0.51863440652,-0.138996380274,-2.63969109928,-0.0717930458412,2.11270648648,-0.629217511476,-0.974501376597,-0.164597149783,0.0152513121278,-0.134534386392,-0.0174869889018,-0.0474424976254,-0.938278436149,0.573885867363,0.818902684535,0.00584392023981,0.0,0.818897134399,-0.573795452364,-0.012124727658,0.0,-0.00657588377694,0.0117440054951,-0.999909413941,0.0,0.323858493321,-0.182744699947,0.30488643721,1.0,-0.219006285714,-0.287836832653,2.505
-0.387548071947,-0.521099634217,-0.138810000058,-2.64159838577,-0.0721336178316,2.1119934359,-0.644194917666,-0.969204836434,-0.141036878284,0.0140804340456,-0.109800761863,-0.0200308896573,-0.0407363684621,-0.929931510404,0.574002448745,0.818820577262,0.00589898194463,0.0,0.818815403438,-0.573911159944,-0.0121680929216,0.0,-0.00657811994907,0.0118149198882,-0.999908563823,0.0,0.320365209481,-0.18735130432,0.304869844482,1.0,-0.212825714286,-0.279713795918,2.521
-0.404476205483,-0.523497577682,-0.138460854094,-2.64339503078,-0.0723956415889,2.11126235625,-0.66069669761,-0.941540734711,-0.120237616832,0.0144580313354,-0.0927302810412,-0.0141228307734,-0.0470715967983,-0.900806131976,0.573886405287,0.818901513843,0.00595410399389,0.0,0.818896974787,-0.573794746733,-0.0121688210944,0.0,-0.00654875850657,0.0118595470756,-0.999908228242,0.0,0.316608476977,-0.19228359648,0.304879836471,1.0,-0.205872571429,-0.270575379592,2.539
-0.420226446832,-0.525397081148,-0.138204649795,-2.64476824756,-0.07260910108,2.11069741226,-0.675864879171,-0.915304662406,-0.10442607121,0.0318569340943,-0.0751500942612,-0.0085351744557,-0.0297633263513,-0.88617918437,0.574009295688,0.81881479954,0.00603319318348,0.0,0.818811691412,-0.573917997006,-0.0120951899645,0.0,-0.00644128641352,0.0118830293731,-0.999908647548,0.0,0.313132019844,-0.19689023263,0.304909936731,1.0,-0.199305714286,-0.261944653061,2.556
-0.435485148225,-0.526922990297,-0.137974536863,-2.64587924182,-0.0727623053959,2.11025131797,-0.690642203537,-0.904248307499,-0.0859188627542,0.00210905726037,-0.0655483509176,-0.0102035538172,-0.0281370735392,-0.862520261787,0.574109678239,0.818743699208,0.00613019256269,0.0,0.818742237285,-0.574018656359,-0.0120198976246,0.0,-0.00632249227477,0.0119200166287,-0.999908965504,0.0,0.3097719319,-0.201345338196,0.304931089036,1.0,-0.192738857143,-0.253313926531,2.573
-0.450189634553,-0.528126348388,-0.137598776719,-2.64677495929,-0.0728636878932,2.10985482182,-0.704980503489,-0.849674426024,-0.0640273023892,0.0248280732195,-0.0448370038911,-0.0016835532551,-0.019065505544,-0.834212256313,0.574048048467,0.818786739758,0.00615302756462,0.0,0.818785710816,-0.573957199534,-0.0119933217972,0.0,-0.00628851945708,0.0119229835749,-0.999909144365,0.0,0.306550600745,-0.205578394536,0.304939649161,1.0,-0.186172,-0.2446832,2.59
-0.463790984296,-0.528960211701,-0.137334727902,-2.64743162403,-0.0729229632747,2.10954710412,-0.718090364256,-0.851305678431,-0.0419134788146,0.0165720289221,-0.0357622438637,-0.00243407250216,-0.0217916777364,-0.808623152501,0.57420038611,0.818679478725,0.00621084589903,0.0,0.818678956115,-0.57410878939,-0.012025458881,0.0,-0.00627941608616,0.0119899428134,-0.999908400907,0.0,0.303557235897,-0.209505388625,0.304926254539,1.0,-0.179991428571,-0.236560163265,2.606
-0.476777860822,-0.529527310988,-0.136902299117,-2.64787212796,-0.0729392942932,2.1093164461,-0.730823358209,-0.805159291634,-0.0261789247587,0.0242460313373,-0.0277659442823,-0.00161359582924,-0.00709858414424,-0.782728599389,0.574070471379,0.818770742036,0.00618973162274,0.0,0.818769967505,-0.573979037142,-0.0120229836311,0.0,-0.00629141216133,0.0119702367042,-0.999908561603,0.0,0.300742311294,-0.213210319924,0.304924557764,1.0,-0.173810857143,-0.228437126531,2.622
-0.490285138669,-0.529890011143,-0.13658623771,-2.64818615637,-0.0729544917212,2.10910054053,-0.743884613984,-0.789908566896,-0.01945981378,0.0225438761612,-0.0176264026027,-0.000810957850018,-0.0158474238182,-0.765630505173,0.574176182641,0.818696507215,0.00620381033242,0.0,0.818695537229,-0.574083944553,-0.0120825837239,0.0,-0.00633058306934,0.0120167949925,-0.999907755924,0.0,0.297613114939,-0.217307612833,0.304907179255,1.0,-0.166857714286,-0.219298710204,2.64
-0.503064015481,-0.530071274465,-0.136088530779,-2.64832842254,-0.0729490398361,2.10897997595,-0.75655287988,-0.746177702348,-0.0134157804964,0.0285779738406,-0.00530313933802,-0.00184973534489,-0.00195143363345,-0.733797127877,0.573921915561,0.81887530378,0.00613340023548,0.0,0.818873568833,-0.573830327292,-0.012065680569,0.0,-0.00636087924338,0.0119474678704,-0.999908394418,0.0,0.295018816847,-0.220710731187,0.304907954283,1.0,-0.160677142857,-0.211175673469,2.656
-0.515668061293,-0.53009045687,-0.135745818161,-2.64837775281,-0.0729465594026,2.10887419266,-0.768722241103,-0.733393471973,0.00126440419441,0.0158980949704,1.99526942414e-05,-0.000620252763566,-0.00132360118585,-0.703995170488,0.574034691851,0.818796422002,0.00611054573482,0.0,0.818794146918,-0.573942725796,-0.012109474831,0.0,-0.0064082147668,0.0119547679016,-0.999908004922,0.0,0.292247015049,-0.224305536878,0.304892339159,1.0,-0.154110285714,-0.202544946939,2.673
-0.527535246231,-0.529972987718,-0.135270288583,-2.64831557872,-0.0728802856251,2.10884379496,-0.780405277298,-0.692743916884,0.0149887404372,0.0267568702071,0.00804007922386,-0.00243641549031,-0.00053479851563,-0.685021386442,0.573882249061,0.818903675734,0.00605648275667,0.0,0.818900779665,-0.57379070707,-0.0121030758709,0.0,-0.00643622371228,0.011905628073,-0.999908411328,0.0,0.289667483699,-0.227646435315,0.304887448485,1.0,-0.147543428571,-0.193914220408,2.69
-0.539091762493,-0.529756353237,-0.134933445436,-2.64815712757,-0.0728238292082,2.10884285078,-0.791599595545,-0.674884253258,0.015429950346,0.021344963952,0.0142372109514,0.00455980858707,-0.000714528251932,-0.645306807753,0.573974593758,0.818839021718,0.00604724174807,0.0,0.818836166841,-0.573883371419,-0.0120811746935,0.0,-0.00642224943324,0.0118862164363,-0.999908732121,0.0,0.287121092214,-0.230926857114,0.304889040781,1.0,-0.140976571429,-0.185283493878,2.707
-0.549398657677,-0.52938956736,-0.134469124137,-2.64788166542,-0.0726772368576,2.10887582574,-0.801695446631,-0.623626160235,0.0263354438524,0.0364164766012,0.0210588003816,0.0177460988048,0.00333787518971,-0.621862429547,0.573898246878,0.818892722108,0.00602152885428,0.0,0.818889676171,-0.573807416641,-0.0120620797905,0.0,-0.00642247509038,0.0118536024776,-0.999909117831,0.0,0.284893399788,-0.233812929929,0.304895206116,1.0,-0.134796,-0.177160457143,2.723
-0.559860747678,-0.528848667663,-0.134032009339,-2.64751661383,-0.0725110573659,2.10896269614,-0.811975450985,-0.614644196625,0.0333423879389,0.0221146100481,0.0241077194325,0.00718669323392,0.00119497551546,-0.586556274943,0.573830981955,0.818939922739,0.00601281907852,0.0,0.818936684167,-0.57374005698,-0.0120748185646,0.0,-0.00643887979007,0.0118532513244,-0.999909016491,0.0,0.282623439658,-0.236751046585,0.3048823489,1.0,-0.128229142857,-0.168529730612,2.74
-0.570003971256,-0.528213166494,-0.133646576542,-2.64704423037,-0.0723152961464,2.10905664093,-0.821732974347,-0.587353492385,0.0408632897591,0.0271241738722,0.0270771521575,0.01468548041,0.0101003179618,-0.554925882073,0.573985216191,0.818831642601,0.00603817605691,0.0,0.818828733097,-0.573894148047,-0.0120730937272,0.0,-0.00642068088202,0.0118742379799,-0.999908884514,0.0,0.280417097954,-0.239611672237,0.304882893567,1.0,-0.121662285714,-0.159899004082,2.757
-0.579324678762,-0.527421733625,-0.133148386457,-2.64651306166,-0.0720371114031,2.1091903778,-0.831037878474,-0.545146076711,0.0476544583222,0.0264577544882,0.0322291273274,0.0122507204131,0.00989092692668,-0.530714938589,0.573795543946,0.818964399654,0.00606075476191,0.0,0.818961386277,-0.573703681766,-0.0121276632679,0.0,-0.00645517142823,0.0119225528094,-0.999908087524,0.0,0.278428080166,-0.242205209861,0.304859303609,1.0,-0.115095428572,-0.151268277551,2.774
-0.588406863539,-0.526638737396,-0.132735138966,-2.64594086188,-0.0718061298392,2.1093180067,-0.839819056098,-0.520430483857,0.0513192584379,0.0249583508723,0.0349730287373,0.0110913786931,0.0124429996226,-0.510333262027,0.573881063519,0.818904344564,0.0060783459096,0.0,0.818901432304,-0.573788868473,-0.0121460070744,0.0,-0.00645885509369,0.0119481596679,-0.999907758081,0.0,0.276461447307,-0.244749985667,0.304854501532,1.0,-0.108528571429,-0.142637551021,2.791
-0.59696501097,-0.52576079191,-0.132313461822,-2.64528702301,-0.0715348051609,2.10947330893,-0.848126482746,-0.478947251736,0.0522216230029,0.0271123330843,0.0374946831846,0.0178610499419,0.0115352199148,-0.481681749425,0.573940881994,0.818862183475,0.00611026611982,0.0,0.818859620875,-0.573848408539,-0.0121520458913,0.0,-0.00644460842233,0.0119782367534,-0.999907490154,0.0,0.274628332746,-0.24715104815,0.304854415638,1.0,-0.101961714286,-0.13400682449,2.808
-0.604327768467,-0.524888201985,-0.131830070302,-2.64466447471,-0.0712442790031,2.10961767029,-0.855480711836,-0.459450118339,0.0497513049973,0.0269970221397,0.0373299344274,0.0199841248951,0.0120783636961,-0.44913903117,0.573765055963,0.818985310275,0.00612119365354,0.0,0.818982551864,-0.573671942627,-0.0121995444972,0.0,-0.00647981543733,0.0120130544185,-0.999906844919,0.0,0.273077992055,-0.249187133377,0.304842415368,1.0,-0.0957811428572,-0.125883787755,2.824
-0.61192763305,-0.524027669097,-0.131385468641,-2.64400933671,-0.070993736665,2.10977785639,-0.862775158267,-0.433914286981,0.0501956374787,0.0311665478162,0.0391442323295,0.0143225491901,0.00579659329876,-0.419734377915,0.573843994133,0.818930059318,0.00611352959198,0.0,0.818927277749,-0.573751041224,-0.0121902975744,0.0,-0.00647548181985,0.0120020962735,-0.999907004586,0.0,0.271452187382,-0.251301196163,0.304849709143,1.0,-0.0892142857144,-0.117253061225,2.841
-0.619016396813,-0.523112831244,-0.130977346257,-2.64330654678,-0.0706818219867,2.10995101327,-0.869601642799,-0.409180338503,0.055846158183,0.019111746392,0.0420407402476,0.0199182608788,0.00482330053062,-0.391792380374,0.573941838493,0.818861104234,0.00616481153825,0.0,0.818859052272,-0.573848744495,-0.012174475528,0.0,-0.00643165894238,0.012035784327,-0.999906882494,0.0,0.269949386818,-0.253281332368,0.304858701022,1.0,-0.0826474285715,-0.108622334694,2.858
-0.625060760287,-0.522256548767,-0.130521427568,-2.64266290413,-0.0703853740414,2.11012309306,-0.875566885862,-0.361883368103,0.0511907174366,0.0258214675929,0.0401958844615,0.0127877417033,0.0136433714194,-0.369864655156,0.573845804598,0.818928321715,0.00617602944747,0.0,0.818926445726,-0.573752735864,-0.012166407858,0.0,-0.00642002578156,0.0120395877498,-0.999906911465,0.0,0.268694968765,-0.254948938231,0.304863092598,1.0,-0.0764668571429,-0.100499297959,2.874
-0.631426267731,-0.521405415367,-0.130001534008,-2.64200337876,-0.0700802777496,2.1102958155,-0.881761719943,-0.346916109959,0.0479209632998,0.02375337529,0.0382427569923,0.024656514539,0.008121830021,-0.336869406116,0.573783556364,0.818972028387,0.00616393276459,0.0,0.818970196851,-0.573690934812,-0.0121356864425,0.0,-0.00640271866403,0.0120115658153,-0.999907359449,0.0,0.267366426214,-0.256685449581,0.304877947678,1.0,-0.0695137142858,-0.0913608816328,2.892
-0.637004700654,-0.52060898968,-0.129550438955,-2.64137604213,-0.0697721831747,2.11047071297,-0.887041993857,-0.313392183018,0.0469666232689,0.0246297687714,0.0393760871061,0.01949583338,0.0058884833931,-0.296772337846,0.573873573073,0.818908826661,0.00618082890285,0.0,0.81890753109,-0.573781451639,-0.0120850395461,0.0,-0.00635022283608,0.0119970431422,-0.999907868569,0.0,0.266209781117,-0.258213410382,0.304896502613,1.0,-0.0629468571429,-0.0827301551021,2.909
-0.64143345944,-0.519895200414,-0.129192381281,-2.6408426881,-0.0694996697039,2.11061434653,-0.891379179492,-0.290091402652,0.0460247479709,0.0223634951631,0.036425024177,0.0150601267489,0.01315708149,-0.275018961417,0.573850567063,0.818924683073,0.00621586967963,0.0,0.81892380223,-0.573758216668,-0.0120856049636,0.0,-0.00633091580186,0.0120258864294,-0.999907644516,0.0,0.265236506751,-0.259504703875,0.304895351025,1.0,-0.0567662857144,-0.0746071183675,2.925
-0.64632266418,-0.519139347235,-0.128780427512,-2.64030146138,-0.069189758077,2.11078293476,-0.895959733443,-0.259951555317,0.040793459946,0.0235226441524,0.0260306880647,0.0218985299429,0.0104893745618,-0.238668144296,0.573962340573,0.818846022905,0.00625853634783,0.0,0.818845658606,-0.573869701444,-0.0120871852445,0.0,-0.00630608059176,0.0120625966939,-0.999907359263,0.0,0.26427461837,-0.260750921277,0.304889964086,1.0,-0.0501994285715,-0.0659763918368,2.942
-0.650354547476,-0.518503028408,-0.12825903076,-2.63984994353,-0.068888882498,2.11091356357,-0.899830526764,-0.223565614283,0.0351279719537,0.029692769206,0.0248040425141,0.020422389015,0.00808590327433,-0.228618381195,0.573877295664,0.818905741525,0.00624363037282,0.0,0.81890507502,-0.573784535474,-0.0121050344376,0.0,-0.00633050553105,0.0120599772178,-0.999907236522,0.0,0.263471766402,-0.261794430725,0.304884830703,1.0,-0.0436325714287,-0.0573456653062,2.959
-0.653685744466,-0.517964188718,-0.12774876361,-2.63944908654,-0.0686445484327,2.11103841484,-0.903059208737,-0.197734421692,0.0328299417598,0.0225486054845,0.020434606288,0.0107261354781,0.0138173020314,-0.183046422456,0.573724951525,0.819012936055,0.00618364569414,0.0,0.819011621031,-0.573632743438,-0.0120907888019,0.0,-0.00635549315479,0.0120014959691,-0.999907781649,0.0,0.262831226602,-0.262647231504,0.30489160849,1.0,-0.0374520000001,-0.0492226285715,2.975
-0.656793036517,-0.517419746551,-0.127286580835,-2.63905984039,-0.0683580554002,2.11115159659,-0.905855516132,-0.176732568499,0.0306485980324,0.0297686625321,0.0215580079215,0.0152477365182,0.00591860583168,-0.16118601486,0.573794748867,0.818964052824,0.00618168719392,0.0,0.818962644098,-0.573702405808,-0.0121030592723,0.0,-0.00636564421645,0.012007473926,-0.999907645307,0.0,0.262235649827,-0.263441173745,0.304888776076,1.0,-0.0308851428572,-0.0405919020409,2.992
-0.659278617538,-0.516979603239,-0.126906318001,-2.63876331706,-0.0681053713726,2.11125808683,-0.908166519586,-0.146974638038,0.0246585878431,0.0247638331762,0.0194618147378,0.0182958110839,0.00704925096492,-0.132648263283,0.573791558989,0.818966174794,0.00619663433356,0.0,0.818964877061,-0.573698991907,-0.0121137824885,0.0,-0.0063658977998,0.0120258435493,-0.999907422931,0.0,0.261761081573,-0.264068978785,0.304879586925,1.0,-0.0247045714287,-0.0324688653062,3.008
-0.661367603457,-0.516659981579,-0.126508548641,-2.63855538126,-0.0678416670817,2.11128906042,-0.910025025835,-0.118437792526,0.0164857984843,0.0259242099088,0.0128014143755,0.0126663712729,0.000281009685776,-0.106877172195,0.57382165804,0.818944874014,0.0062245474197,0.0,0.818943567303,-0.573728253776,-0.012168454814,0.0,-0.00639421808143,0.0120803085693,-0.999906585697,0.0,0.261365708101,-0.264555721162,0.304868494563,1.0,-0.0199046153846,-0.0261603516484,3.024
-0.663462895989,-0.516321723441,-0.126149188329,-2.63830763831,-0.0676021596683,2.11135609613,-0.911882380598,-0.100899991125,0.0178106489545,0.0135737512684,0.0179415327597,0.0119614996516,0.00176417146807,-0.0921132330685,0.573876652689,0.818906209257,0.00624138126441,0.0,0.818905113446,-0.573783142943,-0.0121682762712,0.0,-0.00638360054036,0.012094421543,-0.999906482933,0.0,0.260971294682,-0.26506939537,0.304870690725,1.0,-0.0195046153846,-0.0256346373626,3.044
-0.664869858534,-0.516080979195,-0.125952308989,-2.63811760448,-0.0674706873505,2.11143127634,-0.913275242613,-0.0924519514061,0.0149836945968,0.0102135179412,0.0118094173112,0.00748532402465,0.00151001422918,-0.086736845247,0.573814408329,0.81894980009,0.00624472801877,0.0,0.818948984344,-0.573721345577,-0.0121295330808,0.0,-0.00635086720389,0.0120744469871,-0.999906932777,0.0,0.26070311671,-0.265436744421,0.30487936427,1.0,-0.0192046153846,-0.0252403516484,3.059
-0.666414903945,-0.515804417289,-0.125791092372,-2.63789339497,-0.0674138268337,2.1114723944,-0.914749399977,-0.0892430554126,0.0114042764585,0.00870696238111,0.0121332616184,0.00282033706281,0.00190385625135,-0.0882012923208,0.573793900254,0.818964475556,0.006204410547,0.0,0.818963147779,-0.573701049605,-0.0121332255438,0.0,-0.00637732663456,0.0120433862716,-0.999907138964,0.0,0.260384602595,-0.265858329084,0.304886520313,1.0,-0.0188646153846,-0.0247934945055,3.076
-0.667955161857,-0.515523459275,-0.125716468933,-2.63767391196,-0.0673563435489,2.11152151552,-0.916302003406,-0.0879363935004,0.0166354378359,0.00226092490438,0.00588723961852,0.00126972237475,0.000995099451019,-0.0865691509451,0.573766785954,0.818983442817,0.00620827107285,0.0,0.818982145947,-0.573673887077,-0.0121351887689,0.0,-0.00637711845808,0.0120474633737,-0.999907091177,0.0,0.260047534485,-0.266296711188,0.304888511826,1.0,-0.0185046153846,-0.0243203516484,3.094
-0.669208034676,-0.51531065418,-0.125690220197,-2.63748901662,-0.0673202141203,2.1115903583,-0.917476819602,-0.0835862934021,0.0143235528664,0.00233459048045,0.00896873242311,0.00129129505795,0.00523748527516,-0.0830011486038,0.57383700585,0.818934210659,0.00621258637881,0.0,0.818933280439,-0.573744660378,-0.0120869259081,0.0,-0.00633408081658,0.0120238506126,-0.999907648954,0.0,0.259770427952,-0.266667539788,0.30490045317,1.0,-0.0182046153846,-0.0239260659341,3.109
-0.670601037162,-0.515058994694,-0.125640230481,-2.63725527152,-0.0672774307968,2.11163377265,-0.91891876778,-0.0796801000492,0.0131746194142,0.00214972533792,0.0146756902086,0.0015107414977,0.000950401300249,-0.0848150024119,0.573791640079,0.818966005731,0.00621145185676,0.0,0.818965271937,-0.573699710764,-0.0120528889353,0.0,-0.00630751961452,0.0120030413646,-0.999908066871,0.0,0.259467467285,-0.267077132846,0.304918618053,1.0,-0.0178646153846,-0.0234792087912,3.126
-0.672018446349,-0.514768821243,-0.12558957141,-2.6370280005,-0.0672385814352,2.11171162913,-0.920334859479,-0.0760701375534,0.0155950323303,0.00180132302872,0.0140528004078,0.00229188519486,0.00360253995125,-0.0731179148333,0.573785125754,0.818970617986,0.00620509784678,0.0,0.818969950326,-0.573693508862,-0.0120301809536,0.0,-0.00629266152675,0.0119847583104,-0.999908379792,0.0,0.25916018778,-0.267495549702,0.304922548876,1.0,-0.0175046153846,-0.0230060659341,3.144
-0.673242907996,-0.514515246643,-0.125561217049,-2.63684663498,-0.0672087232598,2.11174428718,-0.921580465604,-0.0811596108978,0.0123967213546,0.00164645667088,0.00777705495105,0.00294294481417,-0.000390758753506,-0.0801684383566,0.573769965026,0.818981189424,0.00621172313705,0.0,0.818980397073,-0.573677921066,-0.0120622963051,0.0,-0.00631538695042,0.0120084940111,-0.999907951743,0.0,0.258881640674,-0.267851448813,0.304914735248,1.0,-0.0171846153846,-0.0225854945055,3.16
-0.674627389735,-0.514248577452,-0.12553633866,-2.63662217176,-0.0671721009959,2.11179725774,-0.922957582358,-0.0812247447504,0.0139067426469,0.00256549747132,0.0193710168917,-0.000326852681509,0.00218717847255,-0.0730968960788,0.573785536624,0.81897023161,0.00621808641777,0.0,0.818969637259,-0.573693680717,-0.0120432908448,0.0,-0.00629594102489,0.0120029211716,-0.999908141286,0.0,0.258572021706,-0.268262530188,0.304923293081,1.0,-0.0168246153846,-0.0221123516484,3.178
-0.676015988134,-0.513947294806,-0.125521551254,-2.63638247188,-0.0671337464152,2.11188499219,-0.924321846428,-0.0681832195541,0.01522549563,0.00366797257048,0.0132820456015,0.00291995689061,0.00349872571713,-0.0796248743102,0.573823751175,0.818943400429,0.00622546244627,0.0,0.818943114295,-0.573732260521,-0.0120089836239,0.0,-0.00626304982571,0.0119895704709,-0.999908508018,0.0,0.258266561515,-0.26868473664,0.304928685464,1.0,-0.0164446153846,-0.0216129230769,3.197
-0.677038942243,-0.513735708403,-0.125512916129,-2.63621764779,-0.067102157371,2.11192878277,-0.925397896104,-0.075776414776,0.0187344090855,0.000555094416945,0.0141821003002,0.00320206140911,0.00206293018849,-0.0779768313984,0.573796191243,0.818962600896,0.00623988381601,0.0,0.818962511727,-0.57370466223,-0.0120046584132,0.0,-0.00625163620326,0.0119986892094,-0.999908470062,0.0,0.258035295961,-0.268989786622,0.304929301042,1.0,-0.0161646153846,-0.0212449230769,3.211
-0.678261698745,-0.513497225533,-0.125492789424,-2.63603822218,-0.067084825461,2.11194157949,-0.926603112707,-0.0664213804658,0.0119929665591,0.00102007974767,0.0150721234799,0.000237039111156,-9.59296084284e-05,-0.0637502606318,0.573813038615,0.818950782007,0.00624181595575,0.0,0.818950466767,-0.573721016141,-0.0120447300391,0.0,-0.00628310106103,0.012023392721,-0.9999079761,0.0,0.257749034918,-0.269343980197,0.304924209526,1.0,-0.0158246153846,-0.0207980659341,3.228
-0.679429335823,-0.51324879742,-0.12547359716,-2.63583724902,-0.0670565727888,2.11198491472,-0.927783630035,-0.0708241978661,0.0154404372965,0.00244804712006,0.0100730981597,-6.09212306344e-05,0.00266353412577,-0.0702520147439,0.573811307898,0.818951964615,0.0062457571427,0.0,0.81895171264,-0.573719291429,-0.0120421720096,0.0,-0.00627876994891,0.0120251395007,-0.9999079823,0.0,0.257487237421,-0.26969273865,0.304927798986,1.0,-0.0154846153846,-0.0203512087912,3.245
-0.680569027107,-0.5129966984,-0.125457942659,-2.63564229216,-0.0670181472063,2.11206446156,-0.928997476621,-0.0685263432781,0.0135298625428,0.000313521450118,0.0128907648648,0.00347938765115,0.00636604439336,-0.0763812265201,0.573765960607,0.818983653684,0.0062565443723,0.0,0.818983716479,-0.573674241557,-0.0120118115823,0.0,-0.0062483792902,0.0120162079228,-0.999908280045,0.0,0.257236823419,-0.270037423477,0.304930290958,1.0,-0.0151446153846,-0.0199043516484,3.262
-0.681709954138,-0.5127603953,-0.125429145104,-2.63545052185,-0.0669998773716,2.11208813397,-0.930101282258,-0.0654126050288,0.012623150779,0.00255350196136,0.0128079512791,0.00414267081874,0.000622366482062,-0.0661896586536,0.573793600555,0.818964338404,0.00625006293907,0.0,0.818964227168,-0.573701731445,-0.0120276705061,0.0,-0.0062646819033,0.0120202097569,-0.999908129939,0.0,0.256977798907,-0.270372698912,0.304932690753,1.0,-0.0148246153846,-0.0194837802198,3.279
-0.682713717558,-0.512551597006,-0.125403570537,-2.63529178868,-0.0669688311864,2.11211299193,-0.931082186536,-0.0678853012937,0.0164006075541,0.000202215931483,0.0138204177163,-0.000110079909452,-0.000138683230538,-0.0683370289346,0.573815655111,0.818948823071,0.0062582778926,0.0,0.818948695118,-0.573723508069,-0.0120464913793,0.0,-0.00627505960452,0.0120379056234,-0.999907851982,0.0,0.256749395336,-0.270663879462,0.304930278382,1.0,-0.0145046153846,-0.0190632087912,3.294
-0.684050360769,-0.512253315782,-0.125398173192,-2.63505724474,-0.0669424203266,2.11219408205,-0.932466496772,-0.0581439259021,0.0159569740695,-0.00119117550289,0.0118530028725,0.00186491982538,0.00423867371496,-0.0643265706831,0.573796185436,0.818962436697,0.00626192938511,0.0,0.818962504958,-0.57370431222,-0.0120218348874,0.0,-0.00625305569261,0.0120265999247,-0.999908125874,0.0,0.256448883451,-0.271071659912,0.30493348769,1.0,-0.0140846153846,-0.0185112087912,3.315
-0.684976508294,-0.512062281013,-0.125378242887,-2.6348888232,-0.066913075506,2.11223083832,-0.933363340832,-0.0651069312092,0.0130381017143,0.00131152102682,0.00998160141872,0.00421546314742,0.00292823978842,-0.0639614976437,0.573827142995,0.818940716989,0.00626569394395,0.0,0.81894095662,-0.573735482426,-0.0120021946472,0.0,-0.00623435498282,0.0120186498527,-0.999908338236,0.0,0.25624367897,-0.271348503412,0.304942898087,1.0,-0.0137846153846,-0.0181169230769,3.33
-0.68594935134,-0.511852190434,-0.125336895549,-2.6347204741,-0.0668874680988,2.11226822718,-0.934342016356,-0.0570952797225,0.013370096206,0.00292482628131,0.00975299683197,0.00370905117885,0.000165099376805,-0.0614335408521,0.573812561749,0.818950991469,0.00625815083091,0.0,0.818951141685,-0.573720953721,-0.0120017371969,0.0,-0.00623852242437,0.0120120986043,-0.999908390966,0.0,0.256029708171,-0.271632700906,0.304945765752,1.0,-0.0134646153846,-0.0176963516484,3.346
-0.687002573906,-0.511630794251,-0.125290795957,-2.63453820438,-0.0668608661899,2.1123069601,-0.935434369015,-0.0533056172383,0.0153498884583,0.00283098365098,0.00783619840853,0.000946054472852,0.000191865327017,-0.0583785686984,0.573768432091,0.818981982839,0.00624860155975,0.0,0.818982043436,-0.573676941321,-0.011996934047,0.0,-0.00624071435659,0.0120011855721,-0.999908508329,0.0,0.255797785285,-0.271939876448,0.304950982365,1.0,-0.0131046153846,-0.0172232087912,3.364
-0.688013193251,-0.511403595324,-0.125265849893,-2.63435372282,-0.0668308642673,2.11236535079,-0.936438634583,-0.0572201318092,0.00811503618342,-0.00107183403567,0.0103805001056,-0.000494324692082,0.00255825331738,-0.0567905414753,0.573778171748,0.818975161827,0.00624826670399,0.0,0.818975351998,-0.5736869381,-0.0119756742814,0.0,-0.0062233506075,0.0119887877392,-0.999908765276,0.0,0.255575950404,-0.27224348981,0.304956220665,1.0,-0.0127446153846,-0.0167500659341,3.382
-0.688791295884,-0.511226060794,-0.125242356995,-2.63422663005,-0.0668109605306,2.11240648697,-0.937220404439,-0.0564866155757,0.0141823140058,0.00307261871767,0.00565248186119,-1.52303746511e-05,0.00223803572642,-0.0546599679885,0.573773569724,0.818978396692,0.00624686634033,0.0,0.818978537284,-0.57368228264,-0.0119808578331,0.0,-0.00622846711498,0.0119905798811,-0.999908711929,0.0,0.25540167347,-0.272471959713,0.304952263094,1.0,-0.0124646153846,-0.0163820659341,3.396
-0.689834943019,-0.511004531188,-0.12522140645,-2.63402803721,-0.0667819924958,2.11244083066,-0.938300251295,-0.0539960332382,0.0161206915523,-0.00019091531625,0.0120659659863,0.000401010804103,-0.000379790794699,-0.0549651374799,0.573751489856,0.818993848565,0.00624906411159,0.0,0.818994121637,-0.573660398334,-0.0119634028815,0.0,-0.00621323238434,0.0119821976946,-0.999908907192,0.0,0.255168768561,-0.272784966643,0.304963835442,1.0,-0.0120846153846,-0.0158826373626,3.415
-0.690642815032,-0.510834927962,-0.125211720825,-2.63387682767,-0.0667651951936,2.11248475067,-0.939102150065,-0.0535233835821,0.0120202017788,0.00176520947836,0.0107580579989,0.0013811665746,0.00566695891572,-0.0492025441566,0.57376434268,0.818984864117,0.00624646439591,0.0,0.818985289601,-0.573673618859,-0.0119340413461,0.0,-0.00619048658115,0.0119633201717,-0.999909274308,0.0,0.254988331625,-0.273030968441,0.304973657787,1.0,-0.0117846153846,-0.0154883516484,3.43
-0.691494084229,-0.510649608938,-0.125202529729,-2.63372481755,-0.0667439788241,2.1125291276,-0.939923658809,-0.0561174760976,0.00999136383325,0.000576009203055,0.00617106353124,0.00394759429164,0.00194966191251,-0.0501526592941,0.573799025996,0.818960544858,0.00624905060482,0.0,0.818961101781,-0.57370847319,-0.011918408474,0.0,-0.00617569191752,0.0119567307463,-0.999909444609,0.0,0.254796012769,-0.273287588696,0.304978041552,1.0,-0.0114646153846,-0.0150677802198,3.446
-0.692368743121,-0.510457586722,-0.125203155586,-2.63356183152,-0.0667192707922,2.11256005592,-0.940794427342,-0.0469746933949,0.00830811240593,-0.00179228482526,0.00941756125287,0.00251915404241,9.25412526176e-05,-0.0547722985104,0.573821552659,0.81894467406,0.00626046592162,0.0,0.818945416696,-0.573731019969,-0.0119108395784,0.0,-0.00616261378703,0.011961906637,-0.999909463392,0.0,0.254595331838,-0.273552599652,0.304983539375,1.0,-0.0111246153846,-0.0146209230769,3.463
-0.693198485682,-0.51026820026,-0.125185278166,-2.63341663516,-0.0667016035211,2.11259255463,-0.941661989684,-0.0501403591465,0.0113131380784,-0.00012029113606,0.00396592729686,-0.000876140996012,-0.000422788274473,-0.0481697240639,0.573792895946,0.818964757496,0.00625982761666,0.0,0.818965444,-0.573702279223,-0.0119181898314,0.0,-0.00616941885431,0.011965385532,-0.999909379804,0.0,0.254406683223,-0.273798350373,0.304982488173,1.0,-0.0107846153846,-0.0141740659341,3.48
-0.693998667383,-0.510080365388,-0.125157592349,-2.63326948761,-0.0666754101753,2.11264555162,-0.942441825136,-0.0462832611881,0.00684610384993,0.000239758905434,0.00568512700722,0.00241130233355,0.00242950920144,-0.0417107270603,0.573808586292,0.818953786892,0.00625684700845,0.0,0.818954541257,-0.57371818544,-0.0119016784888,0.0,-0.00615737630508,0.0119535887233,-0.99990959513,0.0,0.254232538944,-0.274037126532,0.304984870941,1.0,-0.0104446153846,-0.0137272087912,3.497
-0.694782875656,-0.509891883084,-0.125137171451,-2.6331236459,-0.0666545082982,2.11267728654,-0.943194364995,-0.0459485951821,0.0117009325785,0.000620778920251,0.010451690876,0.000606489659427,0.00368747745899,-0.0462139246577,0.573836422913,0.818934286651,0.00625625990605,0.0,0.818934994012,-0.573745942136,-0.0119086677161,0.0,-0.00616303122442,0.0119573276681,-0.999909515587,0.0,0.254056864468,-0.27427029348,0.304984422265,1.0,-0.0101046153846,-0.0132803516484,3.514
-0.69555306264,-0.509707250528,-0.125112421784,-2.63298265219,-0.0666319591617,2.11271313371,-0.943970949425,-0.0476358821685,0.0169292706325,-0.00104968643142,0.0104846345773,0.00143963267008,0.00688635805407,-0.0585826881553,0.573830456126,0.818938475605,0.00625521356864,0.0,0.81893914724,-0.573739938046,-0.0119123259728,0.0,-0.0061667149561,0.0119585249509,-0.999909478557,0.0,0.253885635291,-0.274498099892,0.304983641843,1.0,-0.00976461538462,-0.0128334945055,3.531
-0.696253046227,-0.509530627182,-0.125086898768,-2.63285482121,-0.0666128624845,2.11273786238,-0.944692130387,-0.0385449670526,0.0100579186589,2.23358023226e-06,0.00361434580951,0.00397691420068,0.00235079652401,-0.0443453330001,0.573809709389,0.818953022737,0.00625386779503,0.0,0.818953550047,-0.57371895565,-0.0119327153318,0.0,-0.00618448986091,0.0119689655887,-0.999909243856,0.0,0.253728965832,-0.274703148188,0.304978911523,1.0,-0.00944461538462,-0.0124129230769,3.547
-0.696978848446,-0.509354910633,-0.125070457641,-2.63272370169,-0.0665889159811,2.11276850792,-0.945403236061,-0.0379699514044,0.0110794606156,0.000515178271999,0.00552843306501,1.5915210116e-05,0.00148339615654,-0.0421707743972,0.573827042322,0.818940836684,0.00625926610553,0.0,0.818941371966,-0.573736141794,-0.0119421850107,0.0,-0.00618889495408,0.0119789513075,-0.999909097021,0.0,0.253565028203,-0.27491787242,0.304976296037,1.0,-0.00910461538462,-0.0119660659341,3.564
