nelsonifechukwu/NELSON_IML_WORK/CNN-GradCAM/train2dof/data_sample_2022-02-22-07-32-50/robot_state.csv
position_joint1,position_joint2,position_joint3,position_joint4,position_joint5,position_joint6,position_joint7,velocity_joint1,velocity_joint2,velocity_joint3,velocity_joint4,velocity_joint5,velocity_joint6,velocity_joint7,ee_T_00,ee_T_10,ee_T_20,ee_T_30,ee_T_01,ee_T_11,ee_T_21,ee_T_31,ee_T_02,ee_T_12,ee_T_22,ee_T_32,ee_T_03,ee_T_13,ee_T_23,ee_T_33,v_x,v_y,time
0.465084353378,0.547653883466,-0.124043075647,-1.35584799742,0.0795193727905,1.89415017856,0.159130958905,0.00150407679109,0.00178414161309,-0.000390340008662,-0.000747305895295,-0.000360023903376,-0.000423904594985,0.000438639030298,0.5738180796,0.818968390794,0.00208165926869,0.0,0.818927109434,-0.573759122774,-0.0118154715807,0.0,-0.00848229006134,0.00848482177883,-0.999928026687,0.0,0.661695585716,0.260872396811,0.303303578007,1.0,0.0,0.0,0.0
0.46507905492,0.547655608145,-0.124043189705,-1.35584512586,0.0795239025874,1.89415171661,0.159133400311,-0.000582538457906,0.00225019727494,-0.000108772843586,0.000635282268281,4.6512914382e-05,-0.000165839404546,0.00165123005555,0.573825554626,0.818963141754,0.00208619457616,0.0,0.818921884723,-0.573766544244,-0.0118172048285,0.0,-0.00848102982659,0.00848960796029,-0.999927996753,0.0,0.661697659663,0.260869982232,0.303303868841,1.0,-0.00012,-0.000157714285714,0.007
0.465081759503,0.547652528436,-0.124043189757,-1.35584795936,0.0795240312994,1.89415400938,0.159127093345,0.00132033333893,0.000528226165947,-0.000301495454755,-0.000359188302081,1.41188078229e-05,1.46730635174e-06,-0.00111717623799,0.573818373899,0.818968166982,0.00208857556759,0.0,0.818926939161,-0.573759353212,-0.0118160830809,0.0,-0.00847881937841,0.00849083985107,-0.999928005039,0.0,0.661696836308,0.260871652954,0.303304901321,1.0,-0.00038,-0.000499428571429,0.02
0.465077918315,0.547632676381,-0.124043268678,-1.35585473452,0.0795200677946,1.89414981655,0.159127907147,-0.00217919496837,-0.00289676101243,-0.000695632179833,0.000528240383931,-0.000421030907511,-0.000160518020116,-0.000370392362119,0.573821496052,0.81896596336,0.00209485738324,0.0,0.81892484187,-0.573762474843,-0.0118098573402,0.0,-0.00847008371243,0.00849244426428,-0.999928065449,0.0,0.661696215104,0.260867596415,0.303315370849,1.0,-0.00074,-0.000972571428571,0.038
0.46508003586,0.547590691639,-0.124037929275,-1.35590377758,0.0795200207108,1.89416066273,0.159132531438,-0.000613217872025,-0.00493180384312,0.00110361307258,-0.00510375680904,7.0210344812e-05,0.0020250240403,0.00200057029424,0.573822484671,0.818965253749,0.00210146117256,0.0,0.818924156302,-0.573763375242,-0.0118136512758,0.0,-0.00846939152153,0.00850003969798,-0.999928006775,0.0,0.661686469198,0.26086754681,0.303322534917,1.0,-0.00106,-0.00139314285714,0.054
0.465071913787,0.54745617073,-0.124040030913,-1.35604842565,0.0795169118908,1.89418969448,0.159125473439,6.36704487854e-05,-0.00906866268884,0.000306639104389,-0.0103448158011,3.04465323605e-05,-0.000182063209489,-0.000848731935212,0.573831861449,0.818958630324,0.00212214621977,0.0,0.818917732016,-0.573772599101,-0.0118109954009,0.0,-0.00845525005389,0.00851555259656,-0.999927994463,0.0,0.66166542878,0.260847022334,0.303351563909,1.0,-0.0014,-0.00184,0.071
0.465062333986,0.54733444911,-0.124043529594,-1.35622035737,0.0795170916737,1.89423596683,0.159119838685,-0.00189970926995,-0.0119028958751,-0.000908741602037,-0.0101858886817,8.50367898312e-05,0.00737861339501,-0.00162677285968,0.573847079117,0.818947961158,0.00212452502463,0.0,0.818906994604,-0.573787705627,-0.011821588812,0.0,-0.00846240264331,0.00852373672153,-0.999927864225,0.0,0.661641743538,0.260823017846,0.303360086206,1.0,-0.0017,-0.00223428571429,0.086
0.465041794685,0.547154578595,-0.124043880386,-1.35642753458,0.0795124591011,1.89434727704,0.159110246171,-0.000136717929708,-0.00426778155301,0.000103836871727,-0.0121937596597,0.000468153477858,0.0120736529584,-0.00608316038053,0.573866815487,0.818933932197,0.00219992755758,0.0,0.818893927378,-0.573807126232,-0.0117840778051,0.0,-0.0083882085635,0.0085641634077,-0.999928143949,0.0,0.661626891373,0.260793815137,0.303398555335,1.0,-0.00204,-0.00268114285714,0.103
0.465016839654,0.546936849211,-0.124041105091,-1.35666680132,0.0795085230523,1.89447170271,0.159095490283,-0.00233890112925,-0.0112363399159,-0.00063648327403,-0.0128474941259,-0.000701927950088,0.0016783215858,-0.00417656373554,0.573885702041,0.818920438813,0.00229407677145,0.0,0.8188816039,-0.57382559672,-0.0117409643775,0.0,-0.00829867550301,0.00861671474893,-0.999928439545,0.0,0.661608680356,0.260761192838,0.30344959624,1.0,-0.0024,-0.00315428571429,0.121
0.464990376601,0.546718683926,-0.124046753816,-1.35697047717,0.0795032038294,1.89460666817,0.15907275303,0.000219132858959,-0.0133954537604,-0.00107235813548,-0.0214313618086,-0.00524129862667,0.0113789271249,-0.00297339704515,0.573908402025,0.818904396712,0.00234137375696,0.0,0.818866121608,-0.573848060443,-0.01172285418,0.0,-0.00825646300335,0.00864528260572,-0.999928542401,0.0,0.661580198621,0.260715539697,0.303471468336,1.0,-0.00274,-0.00360114285714,0.138
0.464964047826,0.546478777217,-0.12404144089,-1.35731619827,0.079493782481,1.894736359,0.158978221688,-0.000838407227737,-0.0148900672639,0.000396849103133,-0.0196161798207,-0.000314976249216,0.013780638722,-0.0117314681636,0.573865670859,0.818934259174,0.00237020287645,0.0,0.818896229919,-0.573805092871,-0.0117229228774,0.0,-0.00824042733408,0.00866850009662,-0.999928473674,0.0,0.661539251038,0.260670588225,0.303487883305,1.0,-0.00306,-0.00402171428571,0.154
0.464924104729,0.546180548517,-0.124044285189,-1.35777981021,0.0794774084692,1.89489508492,0.158923910713,-0.00511298071455,-0.0208727681639,-0.000360572332674,-0.0296873724014,0.00023546016197,0.00741995085886,-0.00112649912464,0.573877412094,0.818926030508,0.00237051600222,0.0,0.818887898605,-0.573816719247,-0.0117358055174,0.0,-0.0082506737629,0.00867626761187,-0.999928321813,0.0,0.661484363957,0.260599521031,0.303492246513,1.0,-0.00342,-0.00449485714286,0.172
0.464885589007,0.545893255164,-0.124039272898,-1.35828255226,0.0794559876754,1.89506405409,0.158888198193,-0.00430842203865,-0.0199995444113,0.00123928357034,-0.031842482372,0.000487286856971,0.0133987383567,-0.00311948881206,0.573898604017,0.81891127801,0.0023362270314,0.0,0.818872569771,-0.573837899861,-0.0117697094641,0.0,-0.00829789196586,0.00866785894703,-0.999928004013,0.0,0.661420316305,0.260529033289,0.303470842493,1.0,-0.00376,-0.00494171428571,0.189
0.464840175444,0.545586169816,-0.124039352804,-1.35881546263,0.0794038034433,1.89523893237,0.158796272493,-0.00326013368384,-0.021209665209,0.000973847264937,-0.0338234258511,-0.0050944385323,0.0124576833573,-0.0052100220717,0.573876433414,0.818926968498,0.00228174080122,0.0,0.818887687763,-0.573816080003,-0.0117816833438,0.0,-0.00833919921785,0.0086298860178,-0.999927988819,0.0,0.661355683623,0.260443133943,0.303449697789,1.0,-0.00408,-0.00536228571429,0.205
0.46476915616,0.545188379127,-0.124044015667,-1.35951515614,0.0793604143692,1.8954525515,0.158721151547,-0.00770389367359,-0.0210819653791,0.000969858659486,-0.0392270209739,-0.0014970747671,0.015122345933,-0.00112161484141,0.573903701998,0.818908069906,0.00220471703994,0.0,0.818867750631,-0.573843605005,-0.0118267017059,0.0,-0.00841998080386,0.00859292501516,-0.999927630163,0.0,0.661270015632,0.26032309309,0.303416889922,1.0,-0.00444,-0.00583542857143,0.223
0.464710282147,0.54480387034,-0.124049519205,-1.36016994806,0.0793309961587,1.89566397891,0.158649790183,-0.00762916103936,-0.0236080038505,-0.00170881179569,-0.0410838162631,-0.00464887956515,0.017918510138,-0.0035058347409,0.573925931335,0.818892613494,0.00215865853771,0.0,0.818851582285,-0.57386589908,-0.0118643568356,0.0,-0.00847701686281,0.00857704814052,-0.999927284571,0.0,0.661190046605,0.26021787508,0.303395883905,1.0,-0.00476,-0.006256,0.239
0.464648063778,0.544400936221,-0.124047480479,-1.36086036037,0.0792999488515,1.89589209689,0.158549863162,-0.00173209441844,-0.025307348227,0.000491931765545,-0.0460277306334,-0.00538684046301,0.0150741440328,-0.00581061299283,0.573923787139,0.818894231939,0.00211432118577,0.0,0.818852468679,-0.573863777625,-0.0119057200198,0.0,-0.00853635745985,0.00856445793728,-0.999926887658,0.0,0.661104853446,0.260111701128,0.303372130353,1.0,-0.00508,-0.00667657142857,0.255
0.464573483143,0.543889533884,-0.124045247795,-1.36168585881,0.0792623169297,1.8961913406,0.158443359328,-0.00507924290229,-0.0304500781686,0.000422324300646,-0.0482169406541,-9.00039323649e-05,0.00960978646371,-0.0102450225588,0.573932095153,0.818888424551,0.00210836200897,0.0,0.818846444974,-0.573871969852,-0.0119251278155,0.0,-0.00855558399166,0.0085708033424,-0.999926668968,0.0,0.661009078139,0.259986627548,0.303366953197,1.0,-0.00544,-0.00714971428571,0.273
0.464483614198,0.543347631326,-0.124046041269,-1.36256718356,0.079209660209,1.89648072963,0.158365991101,-0.00365386367255,-0.0292946759898,0.000569331126653,-0.051950974858,-0.0028288843797,0.0101290520225,-0.00805281154555,0.573977754164,0.818856529859,0.00206594599522,0.0,0.818813938357,-0.573917738832,-0.0119545099321,0.0,-0.00860351110927,0.00855341281942,-0.999926406655,0.0,0.660904665423,0.259840374366,0.30335594089,1.0,-0.0058,-0.00762285714286,0.291
0.464410936961,0.542799914169,-0.124056654738,-1.36344291884,0.0791594398574,1.89679793237,0.158229354118,-0.0063887352344,-0.0309307758495,-0.00217075845648,-0.0517091833885,0.000226298767445,0.0215783165043,-0.00505071797187,0.573968159323,0.818863281764,0.00205542276064,0.0,0.818820561202,-0.57390819696,-0.0119589680206,0.0,-0.00861330166204,0.00854725384168,-0.999926375033,0.0,0.660804757456,0.259702826063,0.303354380096,1.0,-0.00614,-0.00806971428571,0.308
0.464343134956,0.542355795972,-0.124054564715,-1.36412942983,0.0791098274648,1.89704844626,0.15813481273,-0.004981803153,-0.0300422844368,0.0017168881739,-0.0477721496735,-0.00834697429134,0.0186096843674,-0.00120258626079,0.573969716885,0.818862182521,0.0020584064825,0.0,0.818819553734,-0.573909794429,-0.0119512836872,0.0,-0.00860528028108,0.00854530291529,-0.999926460771,0.0,0.660728099507,0.259592545524,0.303363336659,1.0,-0.0064,-0.00841142857143,0.321
0.464260008969,0.541741937954,-0.12406026128,-1.36508083347,0.0790562076902,1.89739388473,0.15801941031,-0.00409745788368,-0.0369842118253,0.000519569915124,-0.0599441179637,-0.00671183419633,0.0206349588002,-0.00422742890339,0.573987193441,0.818849911633,0.00206661235781,0.0,0.818807405874,-0.573927250794,-0.0119452828836,0.0,-0.0085954741742,0.008548761491,-0.99992651555,0.0,0.660615332188,0.259431648782,0.303375126962,1.0,-0.00676,-0.00888457142857,0.339
0.46416703266,0.541061827941,-0.124068647278,-1.36614385795,0.0790013202645,1.89777905592,0.157877927348,-0.00629139425179,-0.0367196038866,-0.00268178402421,-0.0626542672629,-0.0009583500124,0.0242665198225,-0.00480035410525,0.57399625804,0.818843547144,0.00207073863415,0.0,0.818800992615,-0.573936195159,-0.0119551361613,0.0,-0.00860107984546,0.00855789103592,-0.999926389254,0.0,0.660498175278,0.259277926175,0.303383202333,1.0,-0.0071,-0.00933142857143,0.356
0.464082914045,0.540393565415,-0.124061194094,-1.36713456882,0.0789376676535,1.89814124465,0.157766388025,-0.00228075829191,-0.0378308578447,0.00147674645697,-0.0643277668001,-0.000747169816976,0.0215056850783,-0.00848949900768,0.57400640661,0.818836346078,0.00210485475782,0.0,0.818794224042,-0.573946189509,-0.0119388913161,0.0,-0.00856808973607,0.00857660814771,-0.999926512115,0.0,0.660382884952,0.259132143158,0.303415116,1.0,-0.00742,-0.009752,0.372
0.463988783639,0.539664058038,-0.124071948525,-1.36824908063,0.0788692891845,1.89856285859,0.157621097286,-0.00747545890152,-0.0395811685902,-0.00112784929261,-0.0601240054356,-0.000504600116592,0.0245899179848,-0.0104890019186,0.574015539524,0.818829872374,0.00213246203294,0.0,0.818788177844,-0.573955276479,-0.0119166826339,0.0,-0.00853396218977,0.00858656103162,-0.999926718544,0.0,0.660259294307,0.258958571563,0.303437037818,1.0,-0.00776,-0.0101988571429,0.389
0.463875242662,0.53886051238,-0.124069717553,-1.36949193408,0.0787976689769,1.8990222963,0.157461027637,-0.00631990473522,-0.0429838100171,0.00154420575669,-0.0670293289233,-0.00385795638723,0.0272197348987,-0.00927930308041,0.57402544127,0.818822880319,0.00215182272243,0.0,0.818781384446,-0.573965044431,-0.0119129826935,0.0,-0.00851971580871,0.00860039311944,-0.999926721155,0.0,0.660117512276,0.258767506231,0.303452913662,1.0,-0.00812,-0.010672,0.407
0.463781394205,0.538133084335,-0.124075833007,-1.37060968953,0.0787454668781,1.8994577601,0.157327040579,-0.00668428273182,-0.0471569521899,-0.000432980632485,-0.0669513693196,-0.00318291561407,0.0244053751081,-0.0116490567068,0.574044783202,0.818809203005,0.00219609954913,0.0,0.818768199914,-0.573984120331,-0.0119000554145,0.0,-0.00848351195573,0.00862942734843,-0.999926778824,0.0,0.659993384332,0.258599970023,0.303472654301,1.0,-0.00844,-0.0110925714286,0.423
0.463672468532,0.537284204323,-0.124079436543,-1.37195047152,0.0786574852857,1.89996137957,0.157173667992,-0.00965445868069,-0.0472484308153,0.000892742782461,-0.0732535111439,-0.0010591003664,0.0304303178047,-0.00744138782593,0.574061373844,0.818797560915,0.00220004573359,0.0,0.818756685778,-0.574000771007,-0.0118891243704,0.0,-0.00847212120317,0.0086265553112,-0.999926900181,0.0,0.659839445681,0.258397915366,0.303477659167,1.0,-0.0088,-0.0115657142857,0.441
0.463571563362,0.536445273078,-0.124082563189,-1.3732450363,0.0785910721213,1.90044526752,0.157011090577,-0.0017059076423,-0.0554914631075,-0.000939818078228,-0.0775983416631,-0.00114891439108,0.0253743870038,-0.0135283522605,0.574066606141,0.818793813005,0.002229439281,0.0,0.818753225713,-0.574005788576,-0.0118851574512,0.0,-0.00845194506122,0.00864839911281,-0.999926882236,0.0,0.659688342263,0.258208944054,0.303495781326,1.0,-0.00914,-0.0120125714286,0.458
0.463460888286,0.53564454915,-0.124091355303,-1.37453382996,0.0785054281429,1.90090958019,0.156844113426,-0.00981719627777,-0.0485750656584,-0.00248736791172,-0.0804894605886,-0.00488666838686,0.0250255003269,-0.0181463068523,0.574074548708,0.818788317995,0.00220221279337,0.0,0.818747451953,-0.574013916083,-0.0118903727773,0.0,-0.00847176064473,0.00862918263784,-0.999926880566,0.0,0.659538253046,0.258006007922,0.303487991175,1.0,-0.00946,-0.0124331428571,0.474
0.463351074522,0.534784665892,-0.124086858973,-1.37587796057,0.0784419474607,1.90139262746,0.156694102802,-0.00609619440387,-0.0474538709994,0.000297898811891,-0.0883804816495,-0.00212366525037,0.0279844586446,-0.00279509527746,0.574095181833,0.818773824873,0.00221196745698,0.0,0.818732871776,-0.574034289322,-0.0119107622259,0.0,-0.00848263849479,0.00864908819595,-0.999926616366,0.0,0.659375821143,0.257810425669,0.303496683235,1.0,-0.00978,-0.0128537142857,0.49
0.463235665577,0.533949141866,-0.124088667358,-1.37726686525,0.0783618010447,1.90188673214,0.156523467411,-0.00885523450499,-0.0534470654554,0.00117491912472,-0.0845155556268,-0.00612092838806,0.0219887424436,-0.00934415323462,0.57410584044,0.81876648488,0.00216196943473,0.0,0.81872480073,-0.574045068539,-0.0119459974962,0.0,-0.00854007890899,0.00862849105227,-0.999926305382,0.0,0.659208023506,0.257599936535,0.303467878893,1.0,-0.0101,-0.0132742857143,0.506
0.463101084362,0.533032751971,-0.124089059793,-1.37874538787,0.0782808180229,1.90245081731,0.156331792635,-0.00851154294907,-0.0463910884583,-0.000760904224409,-0.0872730148217,-0.000370464922323,0.0359951691956,-0.00843969274552,0.574118733516,0.818757433203,0.00216617212219,0.0,0.818715732321,-0.574057870521,-0.0119523154363,0.0,-0.00854270342534,0.0086356936601,-0.999926220785,0.0,0.659039780409,0.257372674697,0.303459308979,1.0,-0.01044,-0.0137211428571,0.523
0.462960909625,0.532074427955,-0.124089457002,-1.38029646585,0.0781868019225,1.90303452718,0.156141706625,-0.0101658625697,-0.05739522179,0.000805292946374,-0.091973928166,-0.00328859156906,0.0403301334148,-0.0123304984215,0.574137749515,0.818744124796,0.00215629191021,0.0,0.818702288936,-0.574076918404,-0.0119582920258,0.0,-0.00855306859679,0.00863123417224,-0.999926170682,0.0,0.658861413945,0.257132918533,0.303447263101,1.0,-0.01078,-0.014168,0.54
0.462814970016,0.531013623141,-0.124086499312,-1.38199365787,0.0780920525483,1.90364066478,0.155921025263,-0.00702376664628,-0.0586289639387,0.00194305821591,-0.0931290668362,-0.00447323297569,0.0346311284877,-0.0118628898476,0.574141447262,0.81874158656,0.00213538612361,0.0,0.818699333405,-0.574080556328,-0.0119859596928,0.0,-0.00858768534108,0.00863004159586,-0.999925884275,0.0,0.658656443656,0.256876756148,0.30343951905,1.0,-0.01114,-0.0146411428571,0.558
0.462678443866,0.529981691947,-0.124100593517,-1.38363740697,0.0779745817313,1.90422091844,0.155712647001,-0.00760949445994,-0.0601517264664,-0.00073175775943,-0.0947042860633,-0.0112341218205,0.0311667067276,-0.0116910399175,0.574150178258,0.818735567422,0.00209531509557,0.0,0.818692956434,-0.574089618156,-0.0119875064845,0.0,-0.00861186508551,0.00859821423746,-0.999925950504,0.0,0.658460255545,0.256617470492,0.303434881531,1.0,-0.01148,-0.015088,0.575
0.462550738521,0.528998886395,-0.124098584133,-1.38520335799,0.0778834801197,1.90480274546,0.155499297692,-0.00699406854839,-0.0602637019556,0.00138381891618,-0.0961189374348,-0.00900057047184,0.0300465127407,-0.0121018825616,0.574139217776,0.818743252308,0.00209578453352,0.0,0.81870058135,-0.57407859111,-0.0119948417579,0.0,-0.00861771663724,0.00860269470873,-0.999925861554,0.0,0.658273437934,0.256386311751,0.303432101608,1.0,-0.0118,-0.0155085714286,0.591
0.462397686786,0.527849295297,-0.124099304445,-1.38700973907,0.0777666379956,1.90550578172,0.155235591487,-0.00501468371541,-0.059460390394,0.000766034850347,-0.0984987041321,-0.00512687320384,0.0422790091804,-0.0111061765199,0.574115767603,0.81875961024,0.0021290678908,0.0,0.818717466269,-0.574055098553,-0.0119666684193,0.0,-0.00857578760345,0.00861352393129,-0.999926128808,0.0,0.658067008775,0.25611461365,0.303442646788,1.0,-0.01216,-0.0159817142857,0.609
0.462266007575,0.526748378253,-0.12410946944,-1.38867248368,0.0776671701806,1.90613488418,0.155015655875,-0.0156017930753,-0.0674185319356,-0.00130553411534,-0.104154065894,-0.00682296824469,0.0394136763021,-0.00919255575363,0.57411382883,0.818760823299,0.00218464580317,0.0,0.818719445706,-0.574052974672,-0.0119330798281,0.0,-0.00851639980974,0.00863972449237,-0.99992641034,0.0,0.657873384061,0.255865723992,0.303480889088,1.0,-0.01248,-0.0164022857143,0.625
0.462110529477,0.525586176126,-0.124107481254,-1.39050341561,0.0775450015472,1.90679277923,0.154772157211,-0.0132049422927,-0.0673562385238,0.000995519459782,-0.108570919984,-0.00331552893835,0.0376376848916,-0.0132735383707,0.574111510018,0.81876252201,0.00215720136327,0.0,0.818720822503,-0.574050804153,-0.0119430294707,0.0,-0.00854032618035,0.00862294237644,-0.999926351135,0.0,0.657639229142,0.255567933775,0.303474848041,1.0,-0.01284,-0.0168754285714,0.643
0.461962886615,0.524491283866,-0.124108860233,-1.39224337524,0.077442723187,1.90740835359,0.154533849759,-0.00919866872949,-0.0673912086346,0.00104527003466,-0.112290866715,-0.00208986953444,0.0371567248077,-0.0143535922763,0.574098708374,0.818771525871,0.00214671093443,0.0,0.818729592364,-0.574037949053,-0.0119597046697,0.0,-0.00856013690852,0.0086237928064,-0.999926174402,0.0,0.657438273451,0.255322635827,0.303479293523,1.0,-0.01314,-0.0172697142857,0.658
0.46181797334,0.52336278489,-0.124119750931,-1.39403553419,0.0773352071501,1.90807101736,0.15429183352,-0.00522597004944,-0.0689686047397,-0.00132915713068,-0.113498214541,-0.00599638661414,0.042823944931,-0.0184849999661,0.574094205743,0.818774692338,0.00214313327835,0.0,0.818732721906,-0.574033471502,-0.0119603752597,0.0,-0.00856278719806,0.00862120146237,-0.999926174055,0.0,0.657224079744,0.255050698093,0.303477464818,1.0,-0.01346,-0.0176902857143,0.674
0.461634380349,0.521982159128,-0.124120978832,-1.39620551736,0.0772019732341,1.90891779766,0.153989859197,-0.010120335255,-0.0769780039269,0.000366379194101,-0.117845690797,-0.00597985985278,0.0482380786687,-0.0146898274422,0.574078846552,0.818785347822,0.0021861003923,0.0,0.818743971217,-0.574017972662,-0.0119341341576,0.0,-0.00851679724667,0.00864115685749,-0.999926394578,0.0,0.656958286227,0.254708344464,0.303484467739,1.0,-0.01386,-0.018216,0.694
0.461473817187,0.520735626286,-0.124121068164,-1.39823447079,0.0770669581936,1.9096843883,0.153710279514,-0.00998164261658,-0.0751304944748,0.000174556759284,-0.129725148998,-0.00102956719224,0.046000555873,-0.0123103590216,0.574053440504,0.818803213556,0.00216606037318,0.0,0.818761674869,-0.573992751651,-0.0119326324912,0.0,-0.00852733905381,0.00862362198629,-0.999926456112,0.0,0.656728332178,0.254425979963,0.30346470952,1.0,-0.01418,-0.0186365714286,0.71
0.461307678507,0.519488752746,-0.124126152968,-1.40015091609,0.07695337129,1.91038934189,0.153465414556,-0.0147233956346,-0.0820734606864,0.00349478717211,-0.122518882299,-0.00397392617215,0.0392839332901,-0.0117055981983,0.574063985115,0.818795738792,0.00219682301869,0.0,0.8187545683,-0.574003137094,-0.0119206709017,0.0,-0.00849977488045,0.00864205311165,-0.999926531674,0.0,0.656498877449,0.254132296115,0.303489318247,1.0,-0.0145,-0.0190571428571,0.726
0.461160329565,0.518314701702,-0.124133116187,-1.40199635129,0.0768219293446,1.91104087649,0.153218882173,-0.0119497124757,-0.0779199272407,-0.000222730742077,-0.123471327464,-0.00527685704173,0.0440743594407,-0.0125910695294,0.574049956605,0.818805649562,0.00216851739635,0.0,0.8187642362,-0.573989352608,-0.0119203822617,0.0,-0.00851593440249,0.00861856534384,-0.999926596902,0.0,0.656269616423,0.253850918019,0.303491681148,1.0,-0.0148,-0.0194514285714,0.741
0.460976131362,0.516945013504,-0.124139654839,-1.40412836445,0.0766850649158,1.91180713892,0.152912753814,-0.00979717807109,-0.082793823574,0.000655890838422,-0.11928323873,-0.00989472623498,0.0465412254541,-0.0201081862542,0.574030583582,0.818819234238,0.00216740758429,0.0,0.818777831467,-0.573970011862,-0.0119178472191,0.0,-0.00851469951122,0.00861599996071,-0.999926629527,0.0,0.6560094667,0.253521090833,0.303504506931,1.0,-0.01514,-0.0198982857143,0.758
0.460765490534,0.515425313539,-0.124146145718,-1.4065527053,0.0765352656759,1.91273504409,0.152585842668,-0.0143533087051,-0.0851052111168,0.000127387840754,-0.12943110138,-0.00476312906369,0.0493163806375,-0.0235462689983,0.574027891454,0.818821083192,0.00218184636626,0.0,0.818779916926,-0.573967310823,-0.0119046480492,0.0,-0.00849563188647,0.00862021797063,-0.999926755358,0.0,0.65572277152,0.253150100149,0.30349702028,1.0,-0.01552,-0.0203977142857,0.777
0.460582401826,0.514038225346,-0.124145075102,-1.40879558721,0.076406275114,1.91353586754,0.152281975585,-0.00880170146925,-0.0816853007099,0.00133563849171,-0.131425354348,-0.00706929293679,0.0489253932852,-0.0176068577673,0.574011492654,0.818832691633,0.0021392323237,0.0,0.818790804067,-0.573950919445,-0.0119460514093,0.0,-0.008554167765,0.00860892030357,-0.999926353641,0.0,0.655439495526,0.252816240877,0.303471220863,1.0,-0.01586,-0.0208445714286,0.794
0.460400816196,0.512708659065,-0.124157195046,-1.41092729475,0.0762753346072,1.91427565031,0.151982204562,-0.00763487200016,-0.0807717506614,-0.00117462331593,-0.139244052326,-0.00604644005311,0.0506717332267,-0.0209964985963,0.574004928703,0.818837407254,0.00209504376541,0.0,0.818794875957,-0.573944471094,-0.0119767319928,0.0,-0.0086047230541,0.00859027968315,-0.999926080186,0.0,0.65518892966,0.252505870636,0.303456402747,1.0,-0.01616,-0.0212388571429,0.809
0.460190328249,0.51118692883,-0.124158202349,-1.41336553117,0.0761224689814,1.91519350306,0.151630942653,-0.0143486856091,-0.0885652042217,-0.00117763289454,-0.132457861392,-0.00632725871601,0.0544377087415,-0.025133250931,0.573971586878,0.818860815374,0.00208072186732,0.0,0.818818122096,-0.573911217875,-0.0119809776885,0.0,-0.00861676943754,0.00858063875209,-0.999926059228,0.0,0.654874874767,0.252113502786,0.303437534652,1.0,-0.01654,-0.0217382857143,0.828
0.460001149578,0.509807600021,-0.124159162554,-1.41557716014,0.0759832668346,1.91603177033,0.151326182056,-0.011614087346,-0.0875749204999,-0.00118250190233,-0.139752726761,-0.0116376437916,0.061299256031,-0.0211408460845,0.573955586517,0.818872029251,0.00208118177346,0.0,0.818829364628,-0.573895240168,-0.0119779729661,0.0,-0.00861421256567,0.008579122423,-0.999926094269,0.0,0.654606259679,0.251779132827,0.303423141866,1.0,-0.01686,-0.0221588571429,0.844
0.459809484496,0.508403839341,-0.124159336946,-1.41780171646,0.0758423126419,1.91681843641,0.151022190115,-0.016847969629,-0.0857458557763,0.000986250935384,-0.135828336101,-0.0046012383315,0.0544802010854,-0.0180048220971,0.573941092982,0.818882265881,0.00205019861955,0.0,0.818839141277,-0.573880822887,-0.0120003640264,0.0,-0.00865048216306,0.00856644985328,-0.999925889801,0.0,0.654324565494,0.251438746208,0.303414724484,1.0,-0.01718,-0.0225794285714,0.86
0.459579982807,0.506785271979,-0.124162605008,-1.42033037939,0.0756786254357,1.91774405224,0.150657849178,-0.0119447761942,-0.0856560628572,0.00140451245706,-0.134984156827,-0.00785282782867,0.0527733978621,-0.0229570784156,0.573919703552,0.818897237257,0.00205805464928,0.0,0.818854246908,-0.573859434571,-0.0119924383282,0.0,-0.00863970687872,0.00856810840276,-0.999925968751,0.0,0.654014013894,0.251044350736,0.303423411145,1.0,-0.01754,-0.0230525714286,0.878
0.45935808314,0.505196268577,-0.124166755627,-1.42278714805,0.0755273437678,1.91867561837,0.15033272189,-0.016806257995,-0.095356817529,0.000491975654295,-0.143951052175,-0.00238542791695,0.0552402579027,-0.0214770084261,0.573924304845,0.81889388052,0.0021098946477,0.0,0.818851585405,-0.57386383825,-0.0119634079601,0.0,-0.00858613463756,0.0085939466345,-0.999926208464,0.0,0.653717652109,0.250664989362,0.303445596872,1.0,-0.01788,-0.0234994285714,0.895
0.459146572658,0.503727562872,-0.1241724203,-1.42498032774,0.0753838179012,1.91951519163,0.150026172046,-0.0188439733765,-0.102840128894,9.60085185232e-05,-0.146269675083,-0.0149672569687,0.0523496080488,-0.0225177336832,0.57392462637,0.818893413465,0.00220171072334,0.0,0.818852437273,-0.573863909064,-0.011901543868,0.0,-0.00848277688103,0.00863363153383,-0.999926748769,0.0,0.653459373188,0.250316328939,0.303500618344,1.0,-0.01818,-0.0238937142857,0.91
0.458901902442,0.50194296191,-0.124179779914,-1.42763173618,0.0752129098948,1.92049470977,0.149656002268,-0.00730710853292,-0.0990353346088,-7.86714740168e-06,-0.143992111759,-0.0119756212869,0.0446697687229,-0.0153317552147,0.573916695774,0.818898719766,0.00229346444253,0.0,0.818859010801,-0.573855691163,-0.0118453809911,0.0,-0.00838421112797,0.00867645299192,-0.999927209434,0.0,0.653136351432,0.249900017059,0.303569698153,1.0,-0.01854,-0.0243668571429,0.928
0.458668060785,0.500232403107,-0.124183454822,-1.43021447546,0.0750488423022,1.92140730601,0.149298623909,-0.0145347846075,-0.0937267521064,-0.00198320791246,-0.151107740854,-0.0036006198514,0.0595833453548,-0.0209344641418,0.573905372252,0.818906560497,0.00232718191954,0.0,0.818867253999,-0.573844200605,-0.0118321874915,0.0,-0.0083541769573,0.00869637646705,-0.999927287738,0.0,0.652809419509,0.24949684893,0.303613202247,1.0,-0.01888,-0.0248137142857,0.945
0.458429959,0.498649654384,-0.124181536991,-1.43268132974,0.074896067299,1.92231827169,0.148942043768,-0.0152292765519,-0.0903549145671,-0.000353664325287,-0.156414530839,-0.0141951117933,0.0575848771544,-0.0197965410298,0.57389129682,0.818916359758,0.00234990539123,0.0,0.818877300477,-0.573829988865,-0.0118261381358,0.0,-0.00833633230788,0.00871136965511,-0.999927306159,0.0,0.652504842837,0.249107987508,0.303621871324,1.0,-0.0192,-0.0252342857143,0.961
0.458157529911,0.496884018872,-0.124180718488,-1.43548257335,0.07472811659,1.92334391865,0.148523819558,-0.0170471676856,-0.100716755525,-6.29789714291e-05,-0.156107730869,-0.0100605272509,0.0565017248833,-0.0208291544969,0.573868125207,0.818932615101,0.00234386348152,0.0,0.818893356626,-0.573806717579,-0.0118434891885,0.0,-0.00835425580755,0.00871614298311,-0.999927114975,0.0,0.652155612126,0.248664302289,0.303608307909,1.0,-0.01956,-0.0257074285714,0.979
0.457892150559,0.495216657844,-0.124179569898,-1.43821970006,0.0745570283317,1.92427276222,0.148127129089,-0.0159115166719,-0.0986337158322,-0.000914732617963,-0.165876345324,-0.00883275332254,0.0483953465723,-0.0295172567221,0.57385141939,0.818944654482,0.00222446867151,0.0,0.818903653525,-0.573790292277,-0.011927012747,0.0,-0.00849134828867,0.00866612556598,-0.999926394927,0.0,0.651796919328,0.248224962139,0.30354779626,1.0,-0.0199,-0.0261542857143,0.996
0.457622194472,0.49354907426,-0.124199893729,-1.44088418103,0.0743845824828,1.92522757383,0.147756202271,-0.0244010384092,-0.115522844491,0.000385157438291,-0.175041793451,-0.0108897960276,0.0626128264326,-0.0212941393545,0.573870613688,0.818931324674,0.00217970486942,0.0,0.818889795367,-0.573809721772,-0.0119437491926,0.0,-0.00853053874255,0.00863927108615,-0.999926293736,0.0,0.651465796439,0.247780269722,0.303524210149,1.0,-0.024908,-0.0327362285714,1.012
0.457316530988,0.49116914191,-0.124269944154,-1.44453525847,0.074168054454,1.92661436813,0.147218511821,-0.0206120375993,-0.156013516945,-0.0012712939516,-0.237891650246,-0.009892843773,0.0935800543091,-0.0376202554293,0.573855917456,0.818941387448,0.00226645699918,0.0,0.818901214869,-0.573794910695,-0.0118721374064,0.0,-0.00842226534283,0.0086690676,-0.999926953689,0.0,0.651020772577,0.24719774212,0.303564794017,1.0,-0.032524,-0.0427458285714,1.029
0.456909598986,0.488426192021,-0.124279852989,-1.44897869518,0.0739345589447,1.92822298708,0.146572386001,-0.0282774986288,-0.180792963739,0.000505987943158,-0.298041491756,-0.015621332756,0.109752775893,-0.0441591045224,0.573826328437,0.81896228044,0.00220791999676,0.0,0.818920849671,-0.573765053625,-0.0119604395822,0.0,-0.00852848573977,0.00867149380485,-0.999926032327,0.0,0.650446316007,0.246508068865,0.303496974076,1.0,-0.039692,-0.0521666285714,1.045
0.45636505937,0.484791670427,-0.124349340297,-1.45462189677,0.0735987333147,1.93036688254,0.14571698436,-0.0284150262662,-0.224703750336,-0.00155170982522,-0.347751004971,-0.0191649238209,0.132578802739,-0.0543501891709,0.573811114977,0.81897264958,0.00231310834058,0.0,0.818932749168,-0.573749583536,-0.0118875831567,0.0,-0.00840862241994,0.00871567532179,-0.999926663347,0.0,0.649757638223,0.245583637493,0.303523209372,1.0,-0.047308,-0.0621762285714,1.062
0.455656561493,0.480270958666,-0.124457368198,-1.46175570446,0.0731680236185,1.93285884249,0.144627334637,-0.0398734364437,-0.262041901065,-0.00330329410479,-0.416510241201,-0.0200730929135,0.145807983139,-0.0612389193866,0.573810033623,0.818973720568,0.00219937127324,0.0,0.818932300454,-0.573748919871,-0.0119503607469,0.0,-0.00852530864922,0.00865853978206,-0.999926171675,0.0,0.648843068825,0.244374771712,0.303482653844,1.0,-0.055372,-0.0727746285714,1.08
0.455014211449,0.476207897479,-0.124540831887,-1.46801630591,0.0727867119346,1.93510506949,0.143721423249,-0.0466561703082,-0.296405275607,-0.00224347636273,-0.463242637306,-0.0272440572909,0.165197364764,-0.0618449328838,0.573855397434,0.818941846818,0.00223187513436,0.0,0.818900903164,-0.573794199885,-0.0119278613747,0.0,-0.0084877512313,0.00867271916968,-0.9999263683,0.0,0.648050100074,0.243312671855,0.303513897249,1.0,-0.061644,-0.0810178285714,1.094
0.454106530488,0.470774227515,-0.124609194076,-1.47644848327,0.0722906463209,1.93814262791,0.142490044022,-0.0586840444193,-0.332100425238,-0.00135122186892,-0.514603862304,-0.0311818982109,0.180354448311,-0.0763873636318,0.573911221815,0.818902615172,0.00227227642565,0.0,0.81886190648,-0.573849555334,-0.0119420625997,0.0,-0.00847560465865,0.0087145321253,-0.999926107798,0.0,0.646972137921,0.241885004606,0.303522989587,1.0,-0.06926,-0.0910274285714,1.111
0.453040674731,0.464267785172,-0.124653240392,-1.48624736835,0.0716725272023,1.94178611943,0.140883818551,-0.0678414389198,-0.37005242614,-0.00108606166308,-0.57170745245,-0.0383254875758,0.20090313054,-0.091588301844,0.573797381118,0.818981518113,0.00256618638802,0.0,0.818944711455,-0.573734673979,-0.0117826293675,0.0,-0.00817760302023,0.00886257727688,-0.999927288123,0.0,0.645728447723,0.240245176709,0.303665311247,1.0,-0.077324,-0.101625828571,1.129
0.451880505879,0.457562078291,-0.124719849394,-1.49665571449,0.0709960498243,1.94534572023,0.13932813971,-0.0724033617934,-0.411579031611,-0.00629619128987,-0.636743164195,-0.0394539026877,0.212570445394,-0.0957848989238,0.573821847715,0.818964776052,0.00243507135642,0.0,0.81892600311,-0.573759355334,-0.0118806775238,0.0,-0.00833287186962,0.00881170523467,-0.999926455844,0.0,0.644333052141,0.238450727973,0.303638573706,1.0,-0.08494,-0.111635428571,1.146
0.450535051886,0.449720367025,-0.1248347587,-1.50846272314,0.0701786100118,1.94960453589,0.137443588084,-0.0739417128097,-0.453512068627,-0.00157994048463,-0.658747446811,-0.0477243977689,0.259982331032,-0.0948444632249,0.573780495632,0.818993128359,0.00263541923851,0.0,0.818957630448,-0.573717986792,-0.0116969254279,0.0,-0.00806786945998,0.00886993513794,-0.999928114283,0.0,0.642795416657,0.236386287274,0.303775762494,1.0,-0.093004,-0.122233828571,1.164
0.449212805213,0.442318070229,-0.124878391255,-1.51969495436,0.0694542060288,1.95363878245,0.135728699917,-0.0831270877744,-0.46696344836,-0.000985871653009,-0.719630142034,-0.0483038112209,0.256144560976,-0.118771033849,0.573797977093,0.818980312292,0.00280650361147,0.0,0.818946880977,-0.573734702092,-0.0116294735061,0.0,-0.00791427370469,0.00897151848106,-0.999928435503,0.0,0.641297505893,0.234444407696,0.303850077844,1.0,-0.100172,-0.131654628571,1.18
0.44774671747,0.4344113821,-0.124919169986,-1.53175180014,0.0686455348903,1.95776510631,0.133750395434,-0.100173291347,-0.518304335674,-0.00260208422957,-0.770909086228,-0.0501151023193,0.272122737199,-0.126319137544,0.573716556748,0.819037436948,0.00278141905777,0.0,0.819003349418,-0.573653004429,-0.0116829385288,0.0,-0.00797334814125,0.00898085969927,-0.999927882339,0.0,0.639633658381,0.232320155636,0.30387080163,1.0,-0.10734,-0.141075428571,1.196
0.445960420924,0.424973324748,-0.124966052338,-1.54604468225,0.0676347902244,1.96283670738,0.131416479229,-0.110381575976,-0.526033891243,-0.00347242374756,-0.799002237305,-0.0618247807556,0.278155988593,-0.138126832341,0.573637880133,0.819092039886,0.00292567477444,0.0,0.819060108615,-0.57357417859,-0.0115735488078,0.0,-0.00780186040612,0.00903550346369,-0.999928742787,0.0,0.637678856286,0.229783063339,0.303935270933,1.0,-0.115404,-0.151673828571,1.214
0.444205483981,0.41609373949,-0.125077171641,-1.55951768161,0.0666622156771,1.96743147325,0.129227253333,-0.110558578978,-0.562881723757,-0.010057006699,-0.85926803137,-0.0649929834938,0.310200031695,-0.133158971856,0.573658847478,0.819077524995,0.00287778713676,0.0,0.819045269429,-0.573595641039,-0.0115600219965,0.0,-0.00781801856938,0.00898871989683,-0.999929038232,0.0,0.635796201116,0.227299156046,0.303950443726,1.0,-0.122572,-0.161094628571,1.23
0.442311658406,0.406786032754,-0.12515355838,-1.57364110552,0.0657081794527,1.97232247987,0.126848487374,-0.124758687304,-0.580569756604,-0.00325314636199,-0.913998648461,-0.0609318002045,0.299295773738,-0.157484264325,0.573633120593,0.819095338381,0.00293538798504,0.0,0.819063524264,-0.573569377958,-0.0115697359204,0.0,-0.00779321814165,0.00904122702021,-0.999928758445,0.0,0.633802940636,0.224707636941,0.303950829488,1.0,-0.12974,-0.170515428571,1.246
0.439938251702,0.395673482002,-0.125295269702,-1.59022152451,0.0645735737727,1.97797082765,0.124040909448,-0.135843995822,-0.63160249823,-0.00746492236478,-0.918730389636,-0.0630269597939,0.320570831679,-0.162058203461,0.573727729022,0.819028553305,0.00307712906076,0.0,0.818998365896,-0.573663275648,-0.0115269134567,0.0,-0.00767578309854,0.00913364940362,-0.999928826868,0.0,0.63144787194,0.221545453102,0.30404099041,1.0,-0.137804,-0.181113828571,1.264
0.437538701844,0.384879130667,-0.125414186641,-1.60668991999,0.0633026968292,1.98343951891,0.121169504857,-0.142002017222,-0.641416780915,-0.00884464761077,-0.977629340007,-0.0700388031384,0.314844036379,-0.176012620073,0.573703290702,0.819046577564,0.00282575988544,0.0,0.819013500947,-0.573640082362,-0.0116055191727,0.0,-0.00788464342963,0.00897263278725,-0.999928659585,0.0,0.629035163988,0.218371350648,0.303926015495,1.0,-0.14542,-0.191123428571,1.281
0.435103348657,0.374103531311,-0.125528530468,-1.62259478285,0.0621318570923,1.98876621517,0.118294968111,-0.157595525907,-0.681746785855,-0.00521755550541,-1.00964985948,-0.0727121621861,0.333932594681,-0.182891682939,0.573690559729,0.819055017475,0.00296089986411,0.0,0.819023749521,-0.573626978627,-0.0115297013677,0.0,-0.00774515683043,0.0090397021821,-0.999929145655,0.0,0.626698856906,0.215261637296,0.304022739189,1.0,-0.152588,-0.200544228571,1.297
0.432284533792,0.362303723598,-0.12568399611,-1.64004729166,0.0607955701977,1.99457816778,0.11522214564,-0.173694172954,-0.708514272173,-0.0084153317982,-1.02246427331,-0.0776759754061,0.351431137851,-0.190441985848,0.573845556342,0.81894616787,0.00303290267693,0.0,0.81891622395,-0.573782193175,-0.0114437689736,0.0,-0.00763175213214,0.00905082343751,-0.999929917021,0.0,0.624113579965,0.211746938804,0.304076990903,1.0,-0.160204,-0.210553828571,1.314
0.429271508256,0.350136036452,-0.125814446424,-1.65825874625,0.0594201453975,2.00043333272,0.111812831437,-0.181911000935,-0.725769259293,-0.00475489432811,-1.08941179576,-0.0840499085692,0.343299760989,-0.20571376222,0.573855162069,0.818940112725,0.00284458056589,0.0,0.818907313822,-0.573791910067,-0.0115931967644,0.0,-0.00786208791843,0.00898243657806,-0.999928749165,0.0,0.621316658128,0.208062889484,0.303982327017,1.0,-0.16782,-0.220563428571,1.331
0.42625617929,0.33815310331,-0.125954251318,-1.67563419735,0.0580808580161,2.00615079421,0.108517028227,-0.191176647366,-0.742418118413,-0.00630207442525,-1.10460806559,-0.0890192671234,0.350784409386,-0.216996719575,0.573921689067,0.818892641324,0.00307956264264,0.0,0.818863057007,-0.573857884579,-0.0114529069444,0.0,-0.00761161646223,0.00909498688475,-0.999929669781,0.0,0.618659861678,0.204480693226,0.304110894754,1.0,-0.174988,-0.229984228571,1.347
0.422704930395,0.324344430655,-0.126006813063,-1.69584593798,0.0563919881064,2.0126136783,0.10456478634,-0.197085167447,-0.771996084064,0.000617377612726,-1.1312626299,-0.0960405107419,0.369468708003,-0.222936194187,0.573774583751,0.818995837549,0.00304828151807,0.0,0.818966168792,-0.573711273994,-0.0114252075648,0.0,-0.00760851045289,0.00905210743214,-0.999930082516,0.0,0.615449357295,0.200347640405,0.304110814552,1.0,-0.183052,-0.240582628571,1.365
0.419541482975,0.312472448379,-0.126047892958,-1.71317296507,0.0550029383849,2.01796738826,0.101138546442,-0.212107157495,-0.815329945789,-0.00221098371454,-1.15039543134,-0.0912993036306,0.360449186518,-0.237829721421,0.573703570991,0.819045953509,0.00294712971097,0.0,0.819014363245,-0.573639864576,-0.0115553221195,0.0,-0.0077738984068,0.00904324523801,-0.999928890581,0.0,0.612619817251,0.196756898395,0.304077131756,1.0,-0.189772,-0.249414628571,1.38
0.415940678813,0.299438097837,-0.126168776491,-1.73198705095,0.0533915066638,2.02385792045,0.0972464069004,-0.235770199713,-0.838650029584,-0.00912382246406,-1.1918558029,-0.105021659746,0.363274141061,-0.238160905057,0.573615080348,0.819107883825,0.00295992468768,0.0,0.819076880077,-0.573551835308,-0.0114936346922,0.0,-0.00771700512943,0.00901750168073,-0.999929563767,0.0,0.609554037547,0.192730317428,0.304098339007,1.0,-0.19694,-0.258835428571,1.396
0.411355019186,0.283454421144,-0.126330620647,-1.75475699437,0.0515557683408,2.03081444889,0.0925171103499,-0.246321219591,-0.838507036062,-0.00160730914495,-1.20814371789,-0.100002335081,0.365766030861,-0.256709693007,0.573691208509,0.819054067715,0.0030948893122,0.0,0.819024141681,-0.573626741879,-0.0115136113725,0.0,-0.00765510634065,0.00914022266276,-0.999928925312,0.0,0.605765426232,0.187760510832,0.304181102177,1.0,-0.205452,-0.270022628571,1.415
0.407228031888,0.269675290406,-0.126486837549,-1.77437255633,0.0498651054448,2.03669912861,0.0882440363211,-0.256720055422,-0.885660037783,-0.0135020655698,-1.22597895663,-0.10521523029,0.375527618227,-0.27202363584,0.573675614618,0.819065027618,0.00308490302834,0.0,0.819034881404,-0.573611072854,-0.0115302664363,0.0,-0.00767465122213,0.00914145187177,-0.999928764256,0.0,0.602440019174,0.183380269188,0.304194495254,1.0,-0.21262,-0.279443428571,1.431
0.402488897236,0.254682434409,-0.126678539774,-1.79552326476,0.0479728732529,2.04293075574,0.0835883111686,-0.286379978176,-0.905474832261,-0.0097842546434,-1.24723841969,-0.113392384627,0.370940036212,-0.279176022101,0.57382764223,0.818958504608,0.00309057348489,0.0,0.818928628059,-0.573763297001,-0.0115033934291,0.0,-0.0076476914901,0.00913210005421,-0.999929056265,0.0,0.598592983017,0.178203389467,0.304238793253,1.0,-0.220684,-0.290041828571,1.449
0.397550080591,0.239396830025,-0.126810317434,-1.81712860401,0.0460543487029,2.04910498929,0.0786405112698,-0.29102696805,-0.918151539816,-0.00665162522236,-1.2825907665,-0.105547758636,0.358396537838,-0.294882330244,0.573783796673,0.818989850988,0.00291985550847,0.0,0.818957048912,-0.573719176754,-0.0116792620963,0.0,-0.00789017193563,0.00909278266268,-0.999927530619,0.0,0.594975942815,0.173534890033,0.304159562491,1.0,-0.227852,-0.299462628571,1.465
0.392698107462,0.224568648366,-0.126922220404,-1.83764608737,0.0441887276189,2.05510578345,0.0738005951101,-0.309023324149,-0.92085200152,-0.00505721032292,-1.31315050494,-0.12446265357,0.365011910842,-0.311841440244,0.573709906232,0.819040822262,0.00313398487785,0.0,0.819010839677,-0.573644640749,-0.0115679528452,0.0,-0.00767697978653,0.00920359392618,-0.999928176341,0.0,0.59131389258,0.168786034651,0.304239735628,1.0,-0.23502,-0.308883428571,1.481
0.386836204662,0.207540099186,-0.127099716354,-1.86100037817,0.041945270032,2.06161950113,0.0680882272933,-0.339136355948,-0.954296235751,-0.0130391420892,-1.30365915618,-0.127630191922,0.360299418113,-0.331359335327,0.573682214983,0.819059942151,0.00320535129448,0.0,0.819031177193,-0.573617085529,-0.0114942105131,0.0,-0.00757594899081,0.00921948429434,-0.999928800518,0.0,0.587052293751,0.163182805303,0.304320873766,1.0,-0.243084,-0.319481828571,1.499
0.38091355134,0.191173873578,-0.127289735285,-1.88340554999,0.0398093228637,2.06769310214,0.0624048353587,-0.355449652987,-0.973463405287,-0.0125868132763,-1.32422081941,-0.123555530449,0.355563761709,-0.343708409391,0.573708569426,0.81904153833,0.00319104344311,0.0,0.819012228803,-0.573643044452,-0.0115487455714,0.0,-0.00762852933576,0.00923929578809,-0.9999282179,0.0,0.582875949859,0.157682562879,0.304325352931,1.0,-0.2507,-0.329491428571,1.516
0.374911256618,0.175409382082,-0.127570425312,-1.90465938446,0.0377422261727,2.07342936331,0.056774963249,-0.378022449351,-1.00463219953,-0.0198539416121,-1.33729585772,-0.136727492496,0.368844145388,-0.358840928346,0.573874269611,0.818924843921,0.003342093467,0.0,0.818897614044,-0.57380841614,-0.0114606361314,0.0,-0.00746782207493,0.0093139758781,-0.999928738204,0.0,0.578896412223,0.152245605799,0.304401081941,1.0,-0.257868,-0.338912228571,1.532
0.367921844076,0.15737499643,-0.127759978672,-1.9288633484,0.0352555254733,2.07965452372,0.0501930847998,-0.394467403292,-1.03170566894,-0.0196210522192,-1.33675586057,-0.136494719456,0.374074405807,-0.374159588941,0.5738386013,0.818949976486,0.00330795610052,0.0,0.818922338164,-0.573772895072,-0.011472394598,0.0,-0.00749744608674,0.00929244092232,-0.999928716881,0.0,0.574195688294,0.146092093518,0.304420539478,1.0,-0.265932,-0.349510628571,1.55
0.361399860556,0.141216785624,-0.127919241689,-1.95058173193,0.0330015715685,2.08502200144,0.0441251222443,-0.415113575768,-1.0263922407,-0.0138514397814,-1.33824640104,-0.135065395473,0.334568025966,-0.382427834387,0.573812695436,0.818968936509,0.00310136938443,0.0,0.818938039681,-0.573746935473,-0.0116485235102,0.0,-0.00776052714513,0.00922407762931,-0.999927342666,0.0,0.569863328576,0.140500106651,0.304325390286,1.0,-0.2731,-0.358931428571,1.566
0.354048727168,0.123596849674,-0.128155357846,-1.97384296089,0.0305570183205,2.09072238721,0.0372323457091,-0.439914387577,-1.01849237599,-0.0134253241686,-1.35723622837,-0.148533639046,0.318012243688,-0.402078224473,0.573751836663,0.819011566111,0.00310345029005,0.0,0.818980399565,-0.57368572546,-0.0116850517138,0.0,-0.00778993735352,0.00924616285813,-0.999926910003,0.0,0.565171921044,0.134352210853,0.304317409619,1.0,-0.280716,-0.368941028571,1.583
0.347138116019,0.107649695372,-0.128455204447,-1.99445965339,0.0282637844725,2.09569316667,0.0309735692349,-0.465522270417,-1.06195083825,-0.0245432018308,-1.39417692755,-0.159832897539,0.330116265425,-0.425611934705,0.57387565027,0.818924232909,0.00325356466391,0.0,0.818895798315,-0.573809989354,-0.0115114951978,0.0,-0.00756026002773,0.00927067571425,-0.99992844596,0.0,0.560976096338,0.128694882557,0.304416752666,1.0,-0.287436,-0.377773028571,1.598
0.339075405331,0.0894863014515,-0.128629265947,-2.01785476349,0.0257044855235,2.10103864126,0.0235159463723,-0.489398151056,-1.07589621617,-0.0131137823376,-1.37755223887,-0.140778934043,0.298357986208,-0.443707955124,0.573736497521,0.819021463333,0.00331977613233,0.0,0.818993447512,-0.57367011212,-0.0115361299121,0.0,-0.00754402690169,0.00933775345101,-0.999927944413,0.0,0.556047841704,0.122339322631,0.304449575769,1.0,-0.295052,-0.387782628571,1.615
0.331038452749,0.072026062661,-0.128872133943,-2.04002988464,0.0232211578167,2.10589339555,0.0161214998001,-0.507491991269,-1.07980126081,-0.00846166761387,-1.38129158606,-0.157030566816,0.295649000109,-0.470602167768,0.573635463596,0.819091875699,0.00340601970001,0.0,0.819064557723,-0.573568304741,-0.0115497609919,0.0,-0.00750687498007,0.00941528379359,-0.999927497001,0.0,0.550984877524,0.115756162861,0.304502609443,1.0,-0.29998,-0.394259428571,1.632
0.321463920012,0.0524384466838,-0.129224010794,-2.06473273216,0.0203359372429,2.11108666673,0.00757737739183,-0.538710622742,-1.09322566256,-0.018071131927,-1.36203979102,-0.158996846096,0.270239756498,-0.482837514196,0.57376680062,0.81899983144,0.00341782236533,0.0,0.81897265331,-0.573699571314,-0.0115473765667,0.0,-0.00749664056941,0.00942478581561,-0.999927484267,0.0,0.545894241109,0.10895864223,0.30452412333,1.0,-0.29998,-0.394259428571,1.649
0.311615352134,0.0330276621219,-0.129430775454,-2.08891004455,0.0175123780412,2.11588936553,-0.00112140023891,-0.555116268871,-1.08197514399,-0.0114881015953,-1.33125040445,-0.160791005445,0.266446215204,-0.484937987228,0.573823768542,0.818959790699,0.00344830039064,0.0,0.818932242593,-0.573755474009,-0.0116355054548,0.0,-0.00755067526071,0.00950083688157,-0.999926357989,0.0,0.540463256719,0.101874824027,0.304533171237,1.0,-0.29998,-0.394259428571,1.667
0.302044170741,0.0148485411771,-0.129658108895,-2.11108154654,0.0147167245873,2.12012438142,-0.00961960131488,-0.571970376915,-1.09238737367,-0.0161468329238,-1.28490544024,-0.168326757415,0.264135150328,-0.503857414851,0.573779049168,0.818990659303,0.00355662917605,0.0,0.81896519709,-0.573711297918,-0.0114934545463,0.0,-0.007372695523,0.00950764198695,-0.999927621433,0.0,0.535399065787,0.0951672569579,0.30463027518,1.0,-0.29998,-0.394259428571,1.684
0.292693161845,-0.00200896300796,-0.129893685207,-2.1316207324,0.0121959173841,2.12368795655,-0.017782683117,-0.586901756073,-1.06225506125,-0.0126489260194,-1.25670679878,-0.152902678236,0.21294047426,-0.515326760485,0.573899636038,0.818906500258,0.00347828853787,0.0,0.818879052162,-0.573830870613,-0.0116609075161,0.0,-0.0075533890501,0.00954067188792,-0.999925958206,0.0,0.530572354158,0.0887975734511,0.304607638227,1.0,-0.29998,-0.394259428571,1.7
0.282656856325,-0.0197820635496,-0.130055172336,-2.15299267282,0.0094565543619,2.12743372893,-0.026726663113,-0.600910978129,-1.03421250435,-0.0131311386915,-1.26853332514,-0.15998432917,0.205600721214,-0.530424627304,0.57374139311,0.819017045508,0.00355526366499,0.0,0.818990738228,-0.573672587432,-0.0116051724613,0.0,-0.00746542048864,0.00957028008636,-0.999926335905,0.0,0.525474832124,0.0821681653216,0.30461686002,1.0,-0.29998,-0.394259428571,1.717
0.272206127664,-0.0374643556782,-0.130325643588,-2.17375203665,0.00666506934097,2.13076614184,-0.0357602186069,-0.628285644176,-1.03098305985,-0.0195208012733,-1.22933596527,-0.163864114194,0.195003583077,-0.540661417921,0.573866309311,0.818928956594,0.00368374690985,0.0,0.818905079598,-0.573798101159,-0.0114436277445,0.0,-0.00725793088409,0.00958393599577,-0.999927732694,0.0,0.520428495411,0.0754107125369,0.304723652199,1.0,-0.29998,-0.394259428571,1.734
0.262155109868,-0.0539604162515,-0.130512693273,-2.19295446037,0.00421607253046,2.13362765985,-0.0445994924035,-0.624578028826,-1.02461154323,-0.00556825699315,-1.17618369185,-0.156951718396,0.182814859863,-0.547302172871,0.57386548003,0.818928739978,0.003857015722,0.0,0.818906512578,-0.573795991311,-0.0114468736023,0.0,-0.00716117149084,0.00972768819661,-0.999927042191,0.0,0.515638556018,0.0691301675123,0.304788922516,1.0,-0.29998,-0.394259428571,1.75
0.250585923545,-0.0721443104633,-0.130756019004,-2.21416864625,0.00127713243113,2.13650849868,-0.054749789364,-0.651049347546,-1.02703538661,-0.0168048359507,-1.15501082809,-0.172492975476,0.158674239548,-0.568431173374,0.573810584746,0.818967911034,0.0037041100772,0.0,0.818943388128,-0.573741125636,-0.0115583172406,0.0,-0.00734083197418,0.00966592733017,-0.999926338304,0.0,0.510210453515,0.0620424436862,0.304716559704,1.0,-0.29998,-0.394259428571,1.768
0.239271207715,-0.0891935394236,-0.131045056023,-2.23378780533,-0.0013984520549,2.1389158423,-0.0646407998335,-0.664533519752,-0.991321341076,-0.0114035110682,-1.15947889465,-0.157502059357,0.138098406764,-0.581743383867,0.573873920166,0.818923903991,0.00362079083905,0.0,0.81889738434,-0.573803520659,-0.0117192363614,0.0,-0.00751968503911,0.00969060683364,-0.999924770408,0.0,0.505382197164,0.0556715581784,0.304649998506,1.0,-0.29998,-0.394259428571,1.784
0.228525321461,-0.105212967694,-0.1312140888,-2.25169233014,-0.00394773649603,2.14095402525,-0.0741246534102,-0.685323395679,-1.00065370716,-0.0201954350661,-1.12367459124,-0.162042525967,0.120096849604,-0.600004668595,0.573761880102,0.819001991702,0.00371341236782,0.0,0.818976632825,-0.573691142682,-0.0116830901541,0.0,-0.00743826553058,0.00974469734515,-0.999924853716,0.0,0.499984145359,0.0486784229139,0.304719085595,1.0,-0.29998,-0.394259428571,1.802
0.218007467361,-0.119945513618,-0.13151843881,-2.26820014815,-0.00636038942042,2.14262899616,-0.0832358415699,-0.710706629724,-0.989620258808,-0.0249857565029,-1.07584300274,-0.152028882849,0.121661495142,-0.619050763967,0.573881014319,0.818918812546,0.00364784373555,0.0,0.818892408842,-0.573810221019,-0.0117388200825,0.0,-0.00752011536802,0.00972406473791,-0.99992444236,0.0,0.495787337819,0.0430744013924,0.304690525586,1.0,-0.29998,-0.394259428571,1.816
0.205960523101,-0.13654261431,-0.131720247603,-2.28663805021,-0.00897784693723,2.14423261267,-0.0938332907641,-0.708199618825,-0.975747544741,-0.017637207155,-1.078037935,-0.153704600281,0.0827717726718,-0.638635358475,0.573820112151,0.818961923339,0.00354879049429,0.0,0.818932736348,-0.573747767291,-0.0119757992431,0.0,-0.00777176258952,0.00977836343881,-0.999921988614,0.0,0.490615603772,0.036435868896,0.304613524767,1.0,-0.29998,-0.394259428571,1.833
0.193496500477,-0.153033659508,-0.132066419269,-2.30443307018,-0.0116311187638,2.14573963152,-0.104780916217,-0.74966412131,-0.955636001766,-0.0266205642863,-1.0332248161,-0.152957261402,0.0672185316695,-0.652288513681,0.573885992034,0.818914982486,0.00372377602497,0.0,0.818888407212,-0.573813438122,-0.0118600871339,0.0,-0.00757579618138,0.00985588464465,-0.99992273144,0.0,0.485564551696,0.0296789763501,0.304678923661,1.0,-0.29998,-0.394259428571,1.85
0.180813662118,-0.169370837772,-0.132295202693,-2.3218321339,-0.0142213176656,2.14684268123,-0.115917773351,-0.74251306888,-0.970797873938,-0.0132333333369,-1.01146891121,-0.143450379313,0.0625351504182,-0.66306215963,0.573878800192,0.818919584108,0.00381894699969,0.0,0.818893828623,-0.573805367961,-0.0118761964929,0.0,-0.00753446266609,0.00994300095763,-0.999922181274,0.0,0.480464441085,0.023030312933,0.304729369815,1.0,-0.29998,-0.394259428571,1.867
0.166999015922,-0.186398495826,-0.132637138601,-2.33991311918,-0.0170493623628,2.14771963547,-0.12811830963,-0.786071323116,-0.949567889052,-0.0282786168734,-0.98741851768,-0.162976729424,0.0382466728122,-0.685554590406,0.573862943209,0.818931116951,0.00372759996441,0.0,0.818903427791,-0.573788870319,-0.0120106266306,0.0,-0.00769716870364,0.00994518941201,-0.999920920274,0.0,0.475018109178,0.0159135029146,0.304690232093,1.0,-0.29998,-0.394259428571,1.885
0.154456849679,-0.201358166174,-0.132861724111,-2.35542174759,-0.0194949011003,2.14842828725,-0.139265234263,-0.785071237372,-0.915945285002,-0.0154179048745,-0.970260114821,-0.146668483523,0.0330672457679,-0.713875168222,0.573763162491,0.819000396329,0.00386407592985,0.0,0.818974994681,-0.573689281069,-0.011887547019,0.0,-0.00751927154703,0.00998541038608,-0.999921873015,0.0,0.470265189563,0.00965380278958,0.304744879438,1.0,-0.29998,-0.394259428571,1.901
0.141604146527,-0.216180619626,-0.133187745116,-2.37057177937,-0.0218684491155,2.14880147304,-0.150641901262,-0.809887288829,-0.911193409163,-0.0238468746012,-0.918378765684,-0.155419222617,0.0350639429771,-0.714560026308,0.573822369086,0.818958334344,0.00398525356901,0.0,0.818934131634,-0.57374754845,-0.0118905674723,0.0,-0.00745149333071,0.0100869279722,-0.999921361474,0.0,0.465480624265,0.00334489835128,0.304796200113,1.0,-0.29998,-0.394259428571,1.917
0.126033174799,-0.23352620875,-0.133473318393,-2.38823891967,-0.0248224811874,2.14905010734,-0.164517798682,-0.825355894401,-0.904724246004,-0.0142188059585,-0.927351792401,-0.159734572556,0.00544639017822,-0.740223181676,0.573676087834,0.819061069461,0.0039316207689,0.0,0.819036309573,-0.573601666651,-0.0118911109001,0.0,-0.0074845058852,0.0100419794856,-0.999921567334,0.0,0.459753343535,-0.00408527200631,0.304779278858,1.0,-0.29998,-0.394259428571,1.936
0.111596284378,-0.248859219489,-0.133859195391,-2.40337135828,-0.0272800151597,2.14911262297,-0.177308536583,-0.86097851709,-0.905149810691,-0.0213583019423,-0.888961878888,-0.138854995379,0.000365995189384,-0.761455193188,0.5738244103,0.818955805659,0.00420492837799,0.0,0.818935125591,-0.57374977903,-0.011713156609,0.0,-0.00718011911938,0.0101650544421,-0.99992255578,0.0,0.454721899474,-0.0108419531971,0.304887457045,1.0,-0.29998,-0.394259428571,1.953
0.0987063149421,-0.262078089877,-0.134105253194,-2.41661018557,-0.029487659979,2.14900608497,-0.188879973447,-0.870258050572,-0.881709406684,-0.0255521773758,-0.863008956485,-0.148871774924,-0.0164231884475,-0.778279508642,0.573734236405,0.8190191408,0.00417371313578,0.0,0.818997581341,-0.573659052956,-0.0117898099959,0.0,-0.00726193154293,0.0101826746468,-0.999921785685,0.0,0.450197321295,-0.0167065456512,0.304820197302,1.0,-0.29998,-0.394259428571,1.968
0.0845338306596,-0.276054573027,-0.134520194226,-2.43008852109,-0.0318389812796,2.14875108361,-0.201490113779,-0.889352240341,-0.8676450077,-0.0302044083897,-0.860782240225,-0.160211568355,-0.0270802213077,-0.803656326908,0.573881900408,0.818914654527,0.00437034173213,0.0,0.818896682424,-0.573807562815,-0.0115694110519,0.0,-0.00696675924836,0.0102185306849,-0.999923520024,0.0,0.445470862806,-0.0230956340535,0.304907713024,1.0,-0.29998,-0.394259428571,1.984
0.0693601079475,-0.290605226001,-0.134775119691,-2.44422926325,-0.0341655582211,2.14816978962,-0.215249280244,-0.900689738563,-0.864313283577,-0.0109765160807,-0.821027886787,-0.141303542117,-0.0461824135277,-0.825659405025,0.573750623437,0.819006480357,0.00439933395964,0.0,0.818987775243,-0.573674594387,-0.0117145490051,0.0,-0.00707064155656,0.0103244293044,-0.999921703029,0.0,0.440345916488,-0.0296826668917,0.304858802645,1.0,-0.29998,-0.394259428571,2.001
0.0536727485021,-0.304922245169,-0.135172806539,-2.45771420498,-0.0366124211492,2.14753466909,-0.22938838097,-0.913870945229,-0.803585094915,-0.013060818929,-0.814870322641,-0.138204185791,-0.0495519737286,-0.847637501658,0.573782843431,0.818983090574,0.0045489382823,0.0,0.818967460129,-0.573708048475,-0.0114944015143,0.0,-0.00680408897168,0.0103209215255,-0.999923588557,0.0,0.43531681966,-0.0364335451246,0.3049298519,1.0,-0.29998,-0.394259428571,2.018
0.0367777206488,-0.319745675128,-0.135548523484,-2.47174031725,-0.0391107949191,2.14649725387,-0.244692766843,-0.956330830411,-0.785488449142,-0.0291293037358,-0.764753284115,-0.135840130863,-0.0552992389064,-0.863934707789,0.573767642721,0.818994029035,0.00449660683537,0.0,0.818976795653,-0.573691614791,-0.0116484420748,0.0,-0.00696047288103,0.0103663153917,-0.999922042623,0.0,0.429878096096,-0.0435037877226,0.304873011282,1.0,-0.29998,-0.394259428571,2.036
0.0205122728169,-0.333496543432,-0.135880690023,-2.4843544418,-0.0413372173633,2.14552786089,-0.259568171758,-0.958087030876,-0.77735359962,-0.0215175772317,-0.746460972713,-0.126075452174,-0.0656452974754,-0.881601625466,0.573703655333,0.819037645867,0.00471141298507,0.0,0.819023772567,-0.57362788333,-0.0114829585617,0.0,-0.00670250653384,0.0104467756708,-0.999922967675,0.0,0.424846520382,-0.05015269581,0.304936656438,1.0,-0.29998,-0.394259428571,2.053
0.00474729468945,-0.34614193682,-0.136277780102,-2.49597522175,-0.0435264544844,2.14431063894,-0.273841646383,-0.990949938139,-0.78992910896,-0.0183085940133,-0.712190398802,-0.126167170947,-0.0810535115197,-0.895951951785,0.57380784123,0.818964923137,0.00466507408055,0.0,0.818949901093,-0.573731337475,-0.0115826939799,0.0,-0.00680945199633,0.0104669041054,-0.999922034602,0.0,0.42000743788,-0.0565081299406,0.304902405344,1.0,-0.29998,-0.394259428571,2.069
-0.0132002173142,-0.360103247315,-0.136671169349,-2.50832706118,-0.045869821949,2.1429484319,-0.290377507251,-1.01370297448,-0.77484546662,-0.0349258133162,-0.695713981886,-0.125734264274,-0.0774017457452,-0.913137882855,0.573726236613,0.81902085746,0.00487722959681,0.0,0.819009915077,-0.573651271315,-0.0113015408503,0.0,-0.00645849306516,0.0104786916452,-0.999924239575,0.0,0.4146941602,-0.0635832823024,0.305020927686,1.0,-0.29998,-0.394259428571,2.087
-0.0305232928827,-0.37283081626,-0.137038492823,-2.5198064432,-0.048047340088,2.14138202928,-0.306379901481,-1.01687024513,-0.728689643387,-0.0147722852888,-0.663750821599,-0.117467645627,-0.104387289665,-0.942641353513,0.573642752055,0.819079789793,0.00479977804593,0.0,0.81906669745,-0.573566170211,-0.0115039306214,0.0,-0.00666977517732,0.010530687522,-0.999922306342,0.0,0.409542960196,-0.0702507280467,0.304947689627,1.0,-0.29998,-0.394259428571,2.104
-0.0472006682187,-0.384568344115,-0.137460345194,-2.52993646929,-0.0500625263277,2.13991093675,-0.321674477264,-1.04996309977,-0.725172724577,-0.0281932441682,-0.62834150595,-0.127423016901,-0.0832877032945,-0.967017236651,0.573763549681,0.818994324945,0.00494283992478,0.0,0.818983993087,-0.573688026602,-0.0113143316955,0.0,-0.00643084918067,0.0105400608235,-0.999923772743,0.0,0.404796778254,-0.076604027776,0.305036933052,1.0,-0.29998,-0.394259428571,2.12
-0.0651627693318,-0.396595870421,-0.137795806177,-2.54044587247,-0.0521044567241,2.13822215106,-0.338402983757,-1.06998417383,-0.686614036742,-0.0271704540345,-0.616589254029,-0.111913393757,-0.110319351376,-0.988474685092,0.573655332911,0.819070079428,0.00495084944185,0.0,0.819059393768,-0.573579058737,-0.0113806748598,0.0,-0.00648199149699,0.0105838283394,-0.999922980216,0.0,0.399693306533,-0.0832563676395,0.305011246743,1.0,-0.29998,-0.394259428571,2.137
-0.0845183816387,-0.408887887553,-0.138184164251,-2.55107871829,-0.054126180733,2.13624473431,-0.356475950439,-1.07412636668,-0.662059495186,-0.0195875669438,-0.567208843294,-0.108091762986,-0.107314612414,-1.00738039993,0.573615696999,0.819097695449,0.00497437096608,0.0,0.819085786559,-0.573536883047,-0.0116045225201,0.0,-0.00665238051295,0.0107311794376,-0.999920290634,0.0,0.394266811152,-0.0902870559408,0.304963961712,1.0,-0.29998,-0.394259428571,2.155
-0.102170257094,-0.419534983018,-0.138568373346,-2.55991301008,-0.0560046460881,2.13467301599,-0.372867377477,-1.11588980176,-0.65069505144,-0.0144711915006,-0.550572894636,-0.12362497008,-0.103469592842,-1.03932276332,0.573687622697,0.819046387828,0.00512572447073,0.0,0.819038188842,-0.573611269794,-0.0112828757336,0.0,-0.00630114660828,0.0106712156978,-0.999923207405,0.0,0.389537605453,-0.0966505612482,0.305065575534,1.0,-0.29998,-0.394259428571,2.171
-0.118863869138,-0.429094994615,-0.13888883463,-2.56808645289,-0.0576989418158,2.13285198573,-0.388591838265,-1.12677234868,-0.633971652441,-0.0316036046011,-0.532677953321,-0.103721604019,-0.126998158961,-1.04869780589,0.573577861714,0.819124007869,0.00500431660205,0.0,0.819112576746,-0.573499108385,-0.0115804230849,0.0,-0.00661595883847,0.0107415797862,-0.99992042061,0.0,0.384961704123,-0.102514706739,0.304982575677,1.0,-0.29998,-0.394259428571,2.186
-0.138040055931,-0.439517257984,-0.139253211591,-2.57677115785,-0.0594575840242,2.13093064621,-0.406666972904,-1.12965930932,-0.604830405398,-0.0218307314912,-0.485489876363,-0.0935519372726,-0.117803177943,-1.06917881631,0.573545388918,0.819146349171,0.00506876632957,0.0,0.819135053195,-0.573465301791,-0.0116644403832,0.0,-0.00664825014155,0.010842298921,-0.999919119391,0.0,0.379863785835,-0.109154944121,0.304967120322,1.0,-0.29998,-0.394259428571,2.203
-0.158857229634,-0.450087466299,-0.139697984618,-2.58519824279,-0.061351383024,2.12901522234,-0.426237382223,-1.15233891289,-0.567382640292,-0.0243681805317,-0.471586266844,-0.109451050112,-0.11390524765,-1.09064647731,0.573633432293,0.819083696826,0.00522779585872,0.0,0.819076279122,-0.57355591158,-0.0113319094262,0.0,-0.00628347002191,0.0107825332758,-0.999922124458,0.0,0.374547398314,-0.116324763218,0.305090394347,1.0,-0.29998,-0.394259428571,2.221
-0.176410850099,-0.458420734677,-0.140072415587,-2.59208122196,-0.0628425055152,2.1272064909,-0.442878425679,-1.16770262905,-0.541222519713,-0.0234051050895,-0.450076368154,-0.0940291674559,-0.120051534782,-1.11593972089,0.573645478639,0.819075463463,0.0051958532528,0.0,0.819066152406,-0.573565536457,-0.0115741208255,0.0,-0.00650004116697,0.0108953993832,-0.99991951663,0.0,0.369987459958,-0.122233984234,0.305028352135,1.0,-0.29998,-0.394259428571,2.236
-0.196443987012,-0.46737167652,-0.140398971904,-2.59938137985,-0.0644645357444,2.12533322351,-0.462073428393,-1.19829490963,-0.518471176526,-0.024634511495,-0.420986783595,-0.0972992826158,-0.11039150408,-1.12563286205,0.573475337126,0.819194644326,0.0051883828784,0.0,0.819184697662,-0.573394548498,-0.0116563188751,0.0,-0.00657393010556,0.0109350657901,-0.999918600577,0.0,0.36489358561,-0.128865944779,0.304987705945,1.0,-0.299084,-0.393081828572,2.253
-0.219166015041,-0.476656220715,-0.140687698587,-2.60662725526,-0.0660302667675,2.12336065885,-0.483585090332,-1.19332332429,-0.47340363612,-0.00457994118115,-0.365551942431,-0.0733088029511,-0.103558131944,-1.13370290583,0.5736012461,0.819105429735,0.00535278919251,0.0,0.819098491729,-0.573521426164,-0.0114708970218,0.0,-0.00632605653905,0.0109643934783,-0.999919878332,0.0,0.359337217587,-0.136292364293,0.305066303566,1.0,-0.290572,-0.381894628572,2.272
-0.239368794471,-0.484207325258,-0.140868622077,-2.61264548708,-0.06730888149,2.12160973667,-0.50281082773,-1.17354904603,-0.426609358354,-0.0112184602588,-0.344787517354,-0.0665993979488,-0.10405609787,-1.12214201625,0.573645328122,0.819074244796,0.00540054977553,0.0,0.819067277076,-0.573564233631,-0.0115590840701,0.0,-0.00637030851023,0.0110544410058,-0.999918605939,0.0,0.354405848124,-0.14276076494,0.305042689605,1.0,-0.282956,-0.371885028572,2.289
-0.257068879893,-0.490263910461,-0.140946061787,-2.61753212969,-0.0682801406924,2.12003352953,-0.519602782928,-1.17329174398,-0.393966371529,-0.00205960129794,-0.317888100162,-0.0673811009709,-0.0975045251066,-1.10170000075,0.573751149867,0.819000042705,0.00541248346217,0.0,0.818991347605,-0.573666761827,-0.0118476083749,0.0,-0.00659835694261,0.0112305722762,-0.999915164367,0.0,0.350107980964,-0.148320374238,0.304971149977,1.0,-0.276236,-0.363053028572,2.304
-0.276857602459,-0.496571688555,-0.140914915238,-2.62242452663,-0.069217542249,2.11860103015,-0.538437829772,-1.16908151813,-0.353719956044,-0.00444771503345,-0.274934711425,-0.0507376766959,-0.0833485507951,-1.09731211224,0.573826992609,0.818945962734,0.00555333919465,0.0,0.818939525966,-0.5737428344,-0.0117456241421,0.0,-0.0064329667556,0.0112880224748,-0.999915595182,0.0,0.345454827621,-0.154470691314,0.304995081674,1.0,-0.26862,-0.353043428572,2.321
-0.297322783127,-0.50249233402,-0.140762083034,-2.62697953843,-0.070139188555,2.11707820397,-0.558015500413,-1.12862124953,-0.322152173436,0.0189924897247,-0.238860370383,-0.0464917771901,-0.0794706067807,-1.07618174921,0.573785120458,0.818975133001,0.00557798969145,0.0,0.818968959845,-0.5737007855,-0.0117472732188,0.0,-0.00642075119862,0.0113088287245,-0.999915438598,0.0,0.340681003254,-0.160736181536,0.305011312796,1.0,-0.260556,-0.342445028572,2.339
-0.315341786835,-0.507163440205,-0.140667053281,-2.63049696561,-0.0708168149237,2.11594367158,-0.575189707588,-1.11944676163,-0.280938425898,0.0106707717813,-0.212897649699,-0.0368979833967,-0.0667629786908,-1.07241714818,0.573913322454,0.818884486492,0.00569587512094,0.0,0.818880515009,-0.5738297675,-0.0116123627896,0.0,-0.00624084119913,0.01132894898,-0.999916349909,0.0,0.336561387023,-0.166238880964,0.305056457985,1.0,-0.253388,-0.333024228572,2.355
-0.334055891205,-0.511618384605,-0.140506247573,-2.63384041331,-0.071391695056,2.11478356395,-0.593116332417,-1.09612405789,-0.252134485981,0.0170582922,-0.191353498304,-0.0440967813975,-0.0673208155237,-1.06148853343,0.574001039192,0.818822031522,0.00583391815141,0.0,0.818820076366,-0.57391743929,-0.0115413308906,0.0,-0.0061022261266,0.0114018847527,-0.999916376434,0.0,0.332292013017,-0.171873424183,0.30509372368,1.0,-0.245772,-0.323014628572,2.372
-0.353263498787,-0.515598629742,-0.140185921198,-2.63702201387,-0.0718901960421,2.1135955348,-0.611699991615,-1.0719217696,-0.212298608137,0.0131043370249,-0.168550821114,-0.0239845313582,-0.0595819456683,-1.02310967455,0.573884477632,0.818903547205,0.0058594888358,0.0,0.818900381498,-0.573797954245,-0.0117821809838,0.0,-0.00628642812778,0.0115601709914,-0.999913417886,0.0,0.327900835432,-0.177539442295,0.305025297812,1.0,-0.237708,-0.312416228572,2.39
-0.370035509106,-0.518577945833,-0.139938927495,-2.63944195385,-0.0722924220175,2.11275316046,-0.627842123592,-1.0307756359,-0.176753685778,0.0118031202449,-0.137411406592,-0.0206778534228,-0.0415358855361,-0.99075694115,0.573911145241,0.818884674659,0.00588505538094,0.0,0.818880823234,-0.573822654711,-0.0119375533982,0.0,-0.00639862462223,0.0116704786301,-0.999911424843,0.0,0.324113298704,-0.182488202119,0.304957708797,1.0,-0.23054,-0.302995428572,2.406
-0.3874364101,-0.521360939917,-0.139658569339,-2.64158464934,-0.0726501280572,2.11195301328,-0.64456804895,-1.01334667505,-0.156388740261,0.0179381196714,-0.115858836788,-0.0208406717577,-0.0480610312274,-0.98121992691,0.573985631758,0.81883211171,0.00593416124048,0.0,0.818828651335,-0.573896476395,-0.0119674991152,0.0,-0.00639390144857,0.0117284595948,-0.999910776649,0.0,0.32022416109,-0.187603953904,0.304945894675,1.0,-0.222924,-0.292985828572,2.423
-0.404250814713,-0.523683981637,-0.139262858356,-2.64335767645,-0.0728860481806,2.11124585896,-0.660904351053,-0.991723440166,-0.128846285172,0.0208286393865,-0.0981979411324,-0.0172569302085,-0.0404098616533,-0.935077865139,0.573891178555,0.818898021295,0.00597434484262,0.0,0.818894859835,-0.573801466998,-0.0119929940794,0.0,-0.00639307437245,0.0117752604994,-0.999910231891,0.0,0.316503880165,-0.192488188097,0.304942284215,1.0,-0.215308,-0.282976228572,2.44
-0.420726985803,-0.525649742258,-0.138941617182,-2.64480951379,-0.0731002808804,2.11066253454,-0.676816332235,-0.956608402161,-0.10642190829,0.0236864322766,-0.0825202051785,-0.00875312268605,-0.0282608598821,-0.92767813862,0.573948230977,0.818857604672,0.00603310284171,0.0,0.818855479512,-0.573858771998,-0.0119398649954,0.0,-0.00631502184588,0.0117933307708,-0.99991051492,0.0,0.312868547412,-0.197286127597,0.304960946603,1.0,-0.207692,-0.272966628572,2.457
-0.437601876871,-0.527299958773,-0.138637788176,-2.64600423129,-0.0732723721344,2.11017669114,-0.693105569391,-0.928230503649,-0.0837982953478,0.00910419336336,-0.0632555326721,-0.0147077889677,-0.0207384559779,-0.89890650275,0.574068521912,0.818772727623,0.00610733591074,0.0,0.818772066064,-0.573979682247,-0.0118479999239,0.0,-0.00619545177076,0.0118023070767,-0.999911157016,0.0,0.309160591596,-0.202199945588,0.304987909805,1.0,-0.199628,-0.262368228572,2.475
-0.451979486511,-0.52840824082,-0.138215246842,-2.6468323688,-0.073327683677,2.10980977672,-0.707106433503,-0.887470774243,-0.057391546349,0.0299540713383,-0.0497515098419,-0.00288067311019,-0.022366894915,-0.862568788931,0.574005965739,0.818816414279,0.00613008184302,0.0,0.818816183201,-0.573917308004,-0.0118206853325,0.0,-0.0061609297261,0.011804781396,-0.99991134111,0.0,0.306027610095,-0.206322437406,0.304996159301,1.0,-0.19246,-0.252947428572,2.491
-0.46522038465,-0.529203259402,-0.1379108657,-2.64743227482,-0.0733454227743,2.10951759372,-0.719825662415,-0.866835886871,-0.0436427955449,0.0281252123289,-0.0361848931599,-0.000323372294362,-0.020301412327,-0.835945299015,0.574175246032,0.818697241108,0.00619363770291,0.0,0.81869777496,-0.574086187466,-0.0118215708586,0.0,-0.00612272347348,0.0118585990773,-0.999910938977,0.0,0.30312753768,-0.210131156171,0.304996760983,1.0,-0.18574,-0.244115428572,2.506
-0.480296671187,-0.529821668083,-0.137386864874,-2.64788821182,-0.0733514123975,2.1092667883,-0.73461312994,-0.816662049942,-0.025990715854,0.0277425206547,-0.0236551808178,-0.00146496042803,-0.0144378925915,-0.804976221266,0.574012603317,0.818811514682,0.00616291810489,0.0,0.81881188524,-0.57392415418,-0.0117859551935,0.0,-0.00611354596801,0.0118117848287,-0.999911549236,0.0,0.299868238665,-0.214428566673,0.305007454433,1.0,-0.177676,-0.233517028572,2.524
-0.4941500841,-0.530113403634,-0.136973339353,-2.6481387665,-0.0733565932306,2.10907109169,-0.748047308798,-0.789655770911,-0.013004060702,0.0290368520742,-0.011572217576,-0.000738885227849,-0.00878874913823,-0.790100789019,0.574047566738,0.818787206465,0.00613584162856,0.0,0.818786970765,-0.573958725636,-0.0118332021546,0.0,-0.00616727343296,0.0118169955975,-0.99991115773,0.0,0.296850722069,-0.218387434998,0.304994031767,1.0,-0.17006,-0.223507428572,2.541
-0.507247954084,-0.530229304957,-0.13644355407,-2.64825417829,-0.0733247712154,2.10895535205,-0.760887787585,-0.762249555309,-0.000597359588203,0.02994827119,-0.00723244785671,-0.000379673280436,-0.0070970589891,-0.730908080882,0.573910475206,0.818883910486,0.00605429583598,0.0,0.818882593906,-0.573821940554,-0.0118500986431,0.0,-0.00622988727582,0.0117588796168,-0.999911454707,0.0,0.293847718715,-0.222307132835,0.304982921114,1.0,-0.161996,-0.212909028572,2.559
-0.519314343277,-0.53020352941,-0.136030362302,-2.64826772765,-0.0732876150476,2.10888119765,-0.772512106085,-0.732834349011,0.00434345334904,0.033140218238,-0.000156218326112,0.00155820162624,-0.0050276305346,-0.716046482689,0.573977774133,0.818837017796,0.00601664270471,0.0,0.818835171216,-0.573889296069,-0.011865291373,0.0,-0.00626297353832,0.01173727817,-0.999911501816,0.0,0.291380010325,-0.225503445042,0.304976572956,1.0,-0.155276,-0.204077028572,2.574
-0.531991584378,-0.529983299378,-0.135457518618,-2.64817118196,-0.0731606403915,2.10888249683,-0.784962361013,-0.696050908449,0.0198600974347,0.0312825551512,0.00835730231571,0.0104599952354,0.000795477633702,-0.682366993216,0.573819894183,0.818948061069,0.00596231601631,0.0,0.818945411927,-0.573731481106,-0.0118889349325,0.0,-0.00631577341048,0.0117051440912,-0.999911546392,0.0,0.288636294161,-0.229048795714,0.304955111823,1.0,-0.147212,-0.193478628572,2.592
-0.542969361212,-0.529723175014,-0.135071779612,-2.647994212,-0.0729925969441,2.10888569986,-0.795538107009,-0.671928060624,0.0222535788082,0.0263652187426,0.0134663042387,0.0106474758932,0.00235573355469,-0.645341131856,0.573958981239,0.818850238733,0.00601009845931,0.0,0.818848152555,-0.573870243573,-0.0118908998863,0.0,-0.00628797060681,0.0117464729608,-0.99991123696,0.0,0.286230997516,-0.232132514248,0.304950965101,1.0,-0.140044,-0.184057828572,2.608
-0.554403662993,-0.529201878098,-0.134458931447,-2.64765317094,-0.0727212329628,2.10892943174,-0.806824079123,-0.626740037163,0.0273631090308,0.0280552130338,0.0187035649027,0.0116537655126,0.000342486574718,-0.632243535961,0.573783667919,0.818973055202,0.00601532912181,0.0,0.818970716566,-0.573694347753,-0.0119376573795,0.0,-0.00632578120991,0.0117762379679,-0.999910648364,0.0,0.283779597827,-0.235296394869,0.304935354121,1.0,-0.13198,-0.173459428572,2.626
-0.563037121281,-0.528731676836,-0.134071484188,-2.64733839849,-0.0725272566703,2.10898543588,-0.815153440013,-0.611147789517,0.0338284726501,0.0255535134265,0.0280682859861,0.0142511923926,0.00961332009572,-0.586220390454,0.573860225268,0.818919239231,0.0060389050106,0.0,0.818916958796,-0.573770330323,-0.0119737020141,0.0,-0.00634067249903,0.0118168205712,-0.999910075269,0.0,0.281905994807,-0.237702161783,0.304921550636,1.0,-0.125708,-0.165216228572,2.64
-0.572380205036,-0.528077644853,-0.133612031834,-2.64687778482,-0.0722832926711,2.10911144315,-0.824232673899,-0.560091378091,0.0450534035403,0.0313687179629,0.0296711301376,0.0217426873719,0.00586706256213,-0.566729183177,0.573868156111,0.81891353578,0.00605864833572,0.0,0.818911420772,-0.573778007275,-0.0119845817215,0.0,-0.00633813905236,0.0118392940739,-0.999909825489,0.0,0.279784522565,-0.24046326413,0.304909018301,1.0,-0.118092,-0.155206628572,2.657
-0.582664792919,-0.527181733769,-0.1330098729,-2.64629087369,-0.0719522056927,2.10924224049,-0.834316959998,-0.538972001283,0.0468237845069,0.0292007962049,0.0328655894334,0.00949378312567,0.0126840807805,-0.517142025483,0.573796182173,0.818963850457,0.00607452638329,0.0,0.818961373853,-0.573704922081,-0.0120696900617,0.0,-0.00639977737687,0.0119005736727,-0.999908705431,0.0,0.277709589189,-0.243150252776,0.304880523412,1.0,-0.110028,-0.144608228572,2.675
-0.591930729396,-0.52633239257,-0.132498635706,-2.64568139026,-0.0716475573809,2.10937013941,-0.843176859361,-0.501698860856,0.0542197479106,0.0295180302537,0.0362681871128,0.0196597094257,0.00713827960707,-0.48717531848,0.573931942718,0.818868513884,0.00610155703323,0.0,0.818866101147,-0.573839999785,-0.0121123878857,0.0,-0.00641725913301,0.0119482745702,-0.99990802453,0.0,0.275722943411,-0.245717972338,0.304870858538,1.0,-0.101964,-0.134009828572,2.693
-0.599434284791,-0.525499905765,-0.131984953414,-2.64508304468,-0.0713475580517,2.10952483449,-0.850558039765,-0.449779134895,0.0526014006772,0.0330500547017,0.041578278108,0.0259539956808,0.00863847330979,-0.44696959714,0.573830737055,0.818939398256,0.00610688929637,0.0,0.818936909769,-0.573738521737,-0.0121323284962,0.0,-0.00643200799688,0.0119632903822,-0.999907750223,0.0,0.274152113247,-0.24778769584,0.304864365557,1.0,-0.0947960000001,-0.124589028572,2.709
-0.606014472425,-0.524746227887,-0.131485882045,-2.6445346502,-0.0710578806332,2.10966361954,-0.857005205815,-0.434090473749,0.0473693299599,0.0279261303075,0.0387974253269,0.0131260942847,0.00163547207816,-0.417901836165,0.573741016565,0.81900225257,0.00610762615085,0.0,0.818999675854,-0.57364863518,-0.0121458308733,0.0,-0.00644395550503,0.0119709356676,-0.999907581798,0.0,0.272779936781,-0.249586687869,0.304862043278,1.0,-0.0880760000001,-0.115757028572,2.724
-0.61306220172,-0.523938594926,-0.130950147299,-2.6439111634,-0.0707527367407,2.10981034617,-0.863749893718,-0.408164898827,0.0484591261221,0.0314462755719,0.0380114619608,0.020709786189,0.0105616564498,-0.399164274065,0.573774858469,0.818978611245,0.0060986074579,0.0,0.818976040828,-0.573682740106,-0.0121286914137,0.0,-0.00643459689889,0.0119539817409,-0.999907844895,0.0,0.271305392604,-0.251514106647,0.304875426389,1.0,-0.0804600000001,-0.105747428572,2.741
-0.619524090119,-0.52308779906,-0.1304624258,-2.64326203841,-0.0704128429417,2.10996821848,-0.869899575271,-0.368964926046,0.0495792386104,0.030459485744,0.0410155706352,0.0253777745523,0.0080660956555,-0.35249820304,0.573866102502,0.818914422317,0.00613288039162,0.0,0.818912328581,-0.573773868723,-0.0121199245333,0.0,-0.0064064178324,0.0119777358255,-0.999907741572,0.0,0.269965587975,-0.253289027156,0.304884142711,1.0,-0.0728440000001,-0.0957378285715,2.758
-0.624934334312,-0.522348918064,-0.129942811235,-2.6427185901,-0.0700842530888,2.11011709374,-0.875144443836,-0.323476154122,0.0426127650845,0.0374944710362,0.0324204314174,0.0197471840759,0.00940446374648,-0.318236305201,0.573803721661,0.818958049707,0.00614399937661,0.0,0.818956084894,-0.57371142192,-0.012119499792,0.0,-0.00640060252588,0.0119861105301,-0.999907678459,0.0,0.268864642763,-0.254742252518,0.30488565499,1.0,-0.0656760000001,-0.0863170285715,2.774
-0.630510734649,-0.521637518303,-0.12936127845,-2.64216270304,-0.069722871499,2.11027454135,-0.880506101295,-0.297166220441,0.0395232483068,0.0291481740673,0.0307882534794,0.0311270061673,0.00440191079537,-0.291421310104,0.573752069843,0.818994182793,0.00615124396995,0.0,0.818992625399,-0.573660336933,-0.0120683169516,0.0,-0.00635527904993,0.0119622755898,-0.999908252987,0.0,0.26773450127,-0.256222927281,0.304904949264,1.0,-0.0576120000001,-0.0757186285715,2.792
-0.635530682358,-0.520940423177,-0.128820914895,-2.64163623426,-0.0693795810002,2.11041648361,-0.885180812398,-0.267576671792,0.035015320808,0.0260360194181,0.0292119727183,0.0199155490145,0.00554579850003,-0.248409638232,0.573826966499,0.818941636273,0.00616082780773,0.0,0.818940299972,-0.573735357493,-0.0120528646403,0.0,-0.00633602993383,0.0119618392296,-0.999908380366,0.0,0.266720327848,-0.257551727111,0.304913560866,1.0,-0.0495480000001,-0.0651202285715,2.81
-0.639355882685,-0.520333686058,-0.128367196139,-2.64119568115,-0.0690475052396,2.11054073478,-0.888794803888,-0.225826668042,0.0346485585334,0.030924371203,0.0271158469698,0.018312860515,0.00200023906242,-0.215107479585,0.573843928319,0.818929432857,0.0062029696813,0.0,0.818928583068,-0.573752014325,-0.0120560687481,0.0,-0.00631422476134,0.0119983220273,-0.999908081193,0.0,0.265968490359,-0.258556189361,0.304912527346,1.0,-0.0423800000001,-0.0556994285715,2.826
-0.64315318271,-0.519801474322,-0.127857081974,-2.64081605722,-0.0687245891291,2.11063153973,-0.892220984546,-0.200714943871,0.027874984261,0.0299619959733,0.0213155196135,0.0155233029985,0.000962415803471,-0.170992316172,0.573944537074,0.818858814728,0.00621745989945,0.0,0.81885799296,-0.573852232308,-0.0120809661026,0.0,-0.00632482411346,0.0120252527551,-0.999907690688,0.0,0.265213976638,-0.259520643665,0.304909568259,1.0,-0.0343160000001,-0.0451010285715,2.844
-0.645636668883,-0.519435884934,-0.127418940758,-2.6405553559,-0.0684584925126,2.11071342749,-0.89446837355,-0.166722082266,0.0205669488582,0.0303716306781,0.0220417651023,0.0151795465994,0.00532739802788,-0.142704499816,0.573954777658,0.818851630203,0.00621834539734,0.0,0.81885084562,-0.573862515554,-0.0120769520153,0.0,-0.00632087820984,0.0120237531902,-0.999907733672,0.0,0.264752336467,-0.260127813058,0.304911223124,1.0,-0.0280440000001,-0.0368578285715,2.858
-0.648047382586,-0.519061535511,-0.126834195317,-2.64032062105,-0.0681554605607,2.11079484625,-0.896672829014,-0.127607804932,0.0180548903881,0.029480676427,0.00934982642446,0.0232584344328,0.00169600178602,-0.108898786267,0.573849472241,0.818925698894,0.00618302514127,0.0,0.818924273745,-0.573757047636,-0.0121091313246,0.0,-0.00636904720638,0.0120124792707,-0.999907563517,0.0,0.264314918349,-0.260699852845,0.3049004734,1.0,-0.0199800000001,-0.0262594285715,2.876
-0.649965678571,-0.518760305049,-0.126363999877,-2.64013600811,-0.0678876070301,2.11083926612,-0.89837045317,-0.103235018245,0.01581405381,0.0274471843471,0.00891491770201,0.0105584336186,0.00118813019366,-0.100913135614,0.573822638143,0.818944561092,0.00617516920773,0.0,0.818942741837,-0.57372970577,-0.0121555424167,0.0,-0.00641196078672,0.0120324670821,-0.999907048927,0.0,0.264006066399,-0.261097783657,0.304889439986,1.0,-0.01966,-0.0258388571429,2.892
-0.651532346279,-0.51852435664,-0.126037785922,-2.63995600768,-0.0677164379022,2.11088129865,-0.899952628759,-0.0936206561065,0.0141141678434,0.020550735048,0.00862030505716,0.00199107284008,0.0047893432434,-0.0909314452781,0.573662155794,0.819057131295,0.00615577662666,0.0,0.819055058669,-0.573569344565,-0.0121558523183,0.0,-0.00642569647782,0.0120155037682,-0.999907164738,0.0,0.26370628711,-0.261494621676,0.304893888221,1.0,-0.01932,-0.025392,2.909
-0.653401936933,-0.518208283248,-0.125822350424,-2.63970177257,-0.0675820971733,2.11099490387,-0.901710158666,-0.0882832797033,0.0147298961532,0.00826709355669,0.0143421375545,0.00824370186239,0.00914174429433,-0.0889318335631,0.573670570736,0.819051314262,0.00614554950504,0.0,0.819049571311,-0.573578670668,-0.0120853295719,0.0,-0.00637367166648,0.0119667379974,-0.999908082521,0.0,0.263364874932,-0.261979149119,0.304909773361,1.0,-0.01894,-0.0248925714286,2.928
-0.654823150979,-0.517950989787,-0.125742773525,-2.63951091105,-0.0675329531128,2.11104188162,-0.903093463088,-0.0872606973231,0.0112898001088,0.00219624310213,0.0131310238184,0.00277269442815,0.000595699471294,-0.0721305454704,0.573676201117,0.819047403927,0.00614111496987,0.0,0.819045541191,-0.573584202986,-0.0120958853215,0.0,-0.00638477986213,0.0119692048187,-0.999907982127,0.0,0.263059395999,-0.262382379768,0.304907619232,1.0,-0.01862,-0.024472,2.944
-0.656305350106,-0.517717453117,-0.125722816551,-2.63932938168,-0.067491093805,2.111047677,-0.904446109556,-0.0872584464177,0.013324473367,0.00167971189404,0.0114902187508,0.000500416491358,-0.000507597098558,-0.0817584603684,0.57379556349,0.818963608256,0.00616494719755,0.0,0.818961811265,-0.573702974827,-0.0121324055662,0.0,-0.0063992732983,0.012010608053,-0.99990739301,0.0,0.262715447742,-0.262807146451,0.304905027519,1.0,-0.01828,-0.0240251428571,2.961
-0.657703564865,-0.517494035621,-0.125710641477,-2.6391252957,-0.0674557185416,2.11110309194,-0.905881442038,-0.0769488548653,0.00928856250782,-0.000768665962277,0.0135555969359,0.00127820398105,0.00905340493826,-0.0848618852599,0.573782132952,0.818972917137,0.00617833329862,0.0,0.818971567368,-0.573690001134,-0.0120872388486,0.0,-0.00635479557236,0.0119955519449,-0.999907857408,0.0,0.262403785011,-0.26322480656,0.304920440001,1.0,-0.01794,-0.0235782857143,2.978
-0.658971793482,-0.517248672988,-0.125702948413,-2.63893088916,-0.0674190358878,2.11117635313,-0.907167159888,-0.0758962332375,0.0169615954553,0.00104398114332,0.0103096699099,0.00343032543806,0.0101696672063,-0.07452752169,0.573788156097,0.818968582551,0.0061935142265,0.0,0.818967610411,-0.573696296821,-0.0120564925496,0.0,-0.00632081413307,0.0119903910273,-0.999908134696,0.0,0.262124984363,-0.263608526767,0.304924767208,1.0,-0.01762,-0.0231577142857,2.994
-0.660392721989,-0.517016155447,-0.125702148786,-2.63874652023,-0.0673902087896,2.11119474661,-0.908584853513,-0.0805320537793,0.00631386550722,-0.000677211080878,0.00953867463518,0.00106079652821,-0.00470507784365,-0.0776802103224,0.573812203885,0.818951573323,0.00621467023441,0.0,0.818950727868,-0.573719963969,-0.0120770513701,0.0,-0.00632516161665,0.0120196995915,-0.999907755322,0.0,0.261792495822,-0.264024053162,0.30492440324,1.0,-0.01726,-0.0226845714286,3.012
-0.661620221454,-0.516802092349,-0.125684044317,-2.63856872114,-0.0673633627816,2.11121610639,-0.909826547703,-0.0794703476675,0.0131761685103,0.00146075053888,0.0127252879723,0.000574149187218,0.0067528522759,-0.0792071894744,0.573808443641,0.818954142484,0.00622329623839,0.0,0.818953353797,-0.573716060682,-0.0120844081592,0.0,-0.00632629291986,0.0120309563975,-0.999907612785,0.0,0.261513539472,-0.264384078523,0.304928505659,1.0,-0.01694,-0.022264,3.028
-0.662870368311,-0.516547808318,-0.125656775825,-2.63837366069,-0.0673339048604,2.11129622529,-0.911044297609,-0.0680045395224,0.0128086856839,0.00460747599799,0.00894494132007,0.000970790374207,0.00607592616307,-0.0649508895889,0.573838389152,0.818933175209,0.00622130041639,0.0,0.818932540633,-0.57374635141,-0.0120567423885,0.0,-0.00630433929005,0.0120136782872,-0.999907959184,0.0,0.261242576706,-0.264759646706,0.304930831183,1.0,-0.0166,-0.0218171428571,3.045
-0.664092484743,-0.51630994412,-0.125594990097,-2.63819000996,-0.0673006327519,2.11134487766,-0.912339006729,-0.0719946569617,0.0114371654005,0.00478752546259,0.0106172537419,-0.000189156746991,0.00181091770319,-0.0738420241502,0.573758870934,0.818988964646,0.00621133754239,0.0,0.818988211391,-0.573666914951,-0.0120551729332,0.0,-0.00630993623937,0.0120040057496,-0.999908040047,0.0,0.260979402609,-0.265112624284,0.304932145969,1.0,-0.01626,-0.0213702857143,3.062
-0.665240797076,-0.516088973567,-0.125535705888,-2.63802851264,-0.0672759533669,2.11136305045,-0.913482609273,-0.0722962316948,0.020204593544,0.00527710258881,0.00751417566291,0.00264565020552,3.35089741801e-06,-0.0601650728727,0.573739673826,0.819002498096,0.00620013646401,0.0,0.819001383929,-0.573647363189,-0.0120906050064,0.0,-0.00634566594347,0.0120150114435,-0.999907681751,0.0,0.260724636554,-0.265437676381,0.304926948042,1.0,-0.01594,-0.0209497142857,3.078
-0.666488705137,-0.515851810106,-0.125499120394,-2.63784632482,-0.0672458578662,2.11142187926,-0.91476515019,-0.0699887909036,0.00991697238882,-0.000173217645078,0.00899027982396,0.000248924616351,0.0021868316921,-0.0743957278402,0.573707683383,0.819024918119,0.00619874407236,0.0,0.819023854063,-0.573615515028,-0.0120794989931,0.0,-0.00633783692316,0.0120072518211,-0.999907824615,0.0,0.260449092492,-0.265803704078,0.304928092169,1.0,-0.01558,-0.0204765714286,3.096
-0.667511863082,-0.515642674254,-0.125488797069,-2.63768370292,-0.0672228760179,2.11147694813,-0.915823806449,-0.0693954021563,0.0146911623643,0.000588830800091,0.00688148587611,0.00467346035169,0.00646566173969,-0.066864477808,0.573689563652,0.819037572769,0.00620369657326,0.0,0.819036658898,-0.573597539881,-0.0120648466837,0.0,-0.00632325939336,0.012002762634,-0.999907970805,0.0,0.260221985768,-0.266112188268,0.304929730827,1.0,-0.01528,-0.0200822857143,3.111
-0.668603841649,-0.515426362677,-0.125489741752,-2.63751197874,-0.0671996170258,2.11152128619,-0.916859836133,-0.0714884553963,0.0114518997622,-0.0010512928427,0.0114254396358,-0.00024313261707,0.00830632343674,-0.0712139491043,0.57375492679,0.818991704235,0.00621444127047,0.0,0.818990964723,-0.573662907312,-0.012058829908,0.0,-0.00631120872125,0.0120086155254,-0.999907976665,0.0,0.259973918532,-0.266441490849,0.304931660308,1.0,-0.01496,-0.0196617142857,3.127
-0.669768251058,-0.515222521958,-0.125483387721,-2.63733223912,-0.0671753938181,2.11154560035,-0.917982179639,-0.0678277955457,0.0134578172582,-0.0013516807222,0.00987305697654,0.00173064690062,0.00339537663473,-0.0688079188491,0.573804463562,0.818956925661,0.00622401879877,0.0,0.818956350563,-0.573712467108,-0.0120518819045,0.0,-0.0062992962535,0.0120128546371,-0.999908000863,0.0,0.259706805592,-0.266787154581,0.304940285762,1.0,-0.01462,-0.0192148571429,3.144
-0.67082002201,-0.515019021277,-0.12546077823,-2.63716389624,-0.067147559666,2.11158878257,-0.919080236968,-0.0627468682265,0.0157261254958,0.000475403471823,0.0139635054003,0.00577431819485,0.00321689699382,-0.0724023109947,0.573770377124,0.818980758356,0.00623046372334,0.0,0.818980341399,-0.573678501539,-0.0120384456997,0.0,-0.00628509330339,0.0120101620692,-0.999908122584,0.0,0.259456867445,-0.267119561818,0.30494438891,1.0,-0.01428,-0.018768,3.161
-0.671955006373,-0.514801380103,-0.125431975287,-2.63698444237,-0.0671211046944,2.11164364775,-0.920204642527,-0.0666843601188,0.0116380225162,0.00393627323651,0.00649071627349,0.000313670154895,0.00265358458952,-0.0663730845437,0.57377984519,0.818974167063,0.00622493686662,0.0,0.818973834722,-0.573688290871,-0.0120145686184,0.0,-0.00626856862443,0.0119920086218,-0.999908444197,0.0,0.25922319248,-0.267435800297,0.304952353067,1.0,-0.01394,-0.0183211428571,3.178
-0.673001506493,-0.51459296701,-0.125390752757,-2.63680854689,-0.0670925071599,2.11167483408,-0.921264858721,-0.060286891329,0.00875430541888,0.000828886709257,0.00787887252412,-0.000477449720342,0.0013264394696,-0.0627087095111,0.573760598595,0.818987686369,0.00622028755243,0.0,0.818987324079,-0.573669126875,-0.012010111153,0.0,-0.00626786689295,0.0119854959798,-0.999908526682,0.0,0.258994696019,-0.267742182785,0.304958915376,1.0,-0.0136,-0.0178742857143,3.195
-0.674020921431,-0.514381235487,-0.125350416154,-2.63663845211,-0.0670679405498,2.11172522753,-0.922332615084,-0.0583740343248,0.0154432070342,0.00303308914829,0.0089312531466,0.00511624631335,0.00284995522492,-0.0545098831859,0.573711625221,0.819022061404,0.00621135416527,0.0,0.819021674751,-0.573620377935,-0.0119960496789,0.0,-0.00626219057951,0.0119697373029,-0.999908751016,0.0,0.258774144217,-0.268043145161,0.304963218122,1.0,-0.01326,-0.0174274285714,3.212
-0.675063106883,-0.514168265172,-0.125319498715,-2.63645187531,-0.0670458490786,2.11177396855,-0.923330105006,-0.0526582075627,0.0132928989684,0.000994353190605,0.0136532487436,0.000248526622821,0.00122690009995,-0.052585595824,0.573745247112,0.818998582898,0.00620157470773,0.0,0.818998251508,-0.573654383124,-0.0119691123405,0.0,-0.00624524577241,0.0119465301675,-0.999909134533,0.0,0.25854819807,-0.268356148477,0.304974170906,1.0,-0.0129,-0.0169542857143,3.23
-0.67596076077,-0.513976871469,-0.125315850602,-2.63629601462,-0.067024026348,2.11179700616,-0.924226599894,-0.0575150200254,0.0132100721864,0.00128198668507,0.0091106041482,0.000355070533042,-4.12213900436e-05,-0.0561805239213,0.573760991214,0.818987480508,0.00621117004075,0.0,0.818987221869,-0.573669983673,-0.0119761074323,0.0,-0.00624524047663,0.0119585224061,-0.999908991215,0.0,0.258344193033,-0.268626097277,0.304976296786,1.0,-0.01258,-0.0165337142857,3.246
-0.676925601071,-0.513778773887,-0.125314636703,-2.63614795773,-0.0670038995298,2.11184405466,-0.925216394251,-0.0529236490743,0.0120665425115,-0.00100207521581,0.00694651452437,0.000270415491334,0.00365112515341,-0.0569861197136,0.573756006767,0.818990904565,0.00622011573844,0.0,0.818990770424,-0.573664977971,-0.0119732164012,0.0,-0.00623781287012,0.0119641525583,-0.999908970229,0.0,0.258122962514,-0.26891523094,0.304974378892,1.0,-0.01224,-0.0160868571429,3.263
-0.677762834752,-0.513614213792,-0.125300195377,-2.63600556289,-0.0669876073291,2.11188062868,-0.926021857685,-0.0521873717647,0.00916365936576,0.000197402704916,0.008256545018,0.00267715626345,0.00512388019425,-0.0622733599271,0.573786015014,0.818969901941,0.00621736208397,0.0,0.818969852824,-0.57369522335,-0.0119548221178,0.0,-0.00622388839725,0.0119515719588,-0.999909207449,0.0,0.257936255481,-0.269166409209,0.304981692088,1.0,-0.01194,-0.0156925714286,3.278
-0.678674578189,-0.51342609925,-0.125286729602,-2.63584307835,-0.0669683067851,2.11191248416,-0.926909353236,-0.0546369068879,0.00299491298109,0.00295301018394,0.00574263217738,0.0035010224219,0.00471258806739,-0.053818828689,0.573812877064,0.818951081656,0.00621730423437,0.0,0.818951102288,-0.573722215372,-0.0119439754748,0.0,-0.00621464572656,0.0119455050748,-0.999909337434,0.0,0.257732524039,-0.269440769883,0.30498898864,1.0,-0.0116,-0.0152457142857,3.295
-0.679633075497,-0.513216528182,-0.125269883733,-2.63567170716,-0.0669424049198,2.11196132044,-0.927893328527,-0.0487665564667,0.00846976449201,0.00101695784458,0.00943427472209,-1.4743551412e-06,0.000155858102629,-0.0542873699599,0.573799922148,0.818960139819,0.00621977748946,0.0,0.818960289361,-0.573709439034,-0.011927737189,0.0,-0.00620011563309,0.0119381152887,-0.999909515891,0.0,0.257521397747,-0.269730076541,0.304993907863,1.0,-0.01122,-0.0147462857143,3.314
-0.680475040565,-0.513024316504,-0.125245992808,-2.63553744232,-0.0669179040242,2.11198420452,-0.928769036003,-0.0507049678583,0.0112090190941,0.000504089945042,0.00480096307218,0.00518843237304,-0.000382251333432,-0.0442263057799,0.573772819472,0.818979085823,0.00622539313532,0.0,0.818979115242,-0.57368194705,-0.0119573963289,0.0,-0.00622158164401,0.0119595262251,-0.999909126698,0.0,0.257331034087,-0.269974628116,0.304986331304,1.0,-0.01088,-0.0142994285714,3.331
-0.681210883569,-0.512855231829,-0.125222904796,-2.63541641961,-0.0669013137025,2.11202066817,-0.929493771594,-0.0507369393716,0.00964796427678,0.00287743867253,0.00988016819823,-6.02456385051e-05,-0.000338995146925,-0.0515814937416,0.573778904282,0.81897485025,0.00622178118518,0.0,0.818974787225,-0.573687958453,-0.0119654133753,0.0,-0.00623013163048,0.0119612139885,-0.999909053274,0.0,0.257167858307,-0.270191594701,0.304982419225,1.0,-0.01058,-0.0139051428571,3.346
-0.682020875414,-0.51267362124,-0.125197636452,-2.63528570374,-0.0668821357681,2.1120579093,-0.930237543129,-0.0459750297063,0.0101200027345,0.00235774695333,0.00230652438231,-0.000150376344802,0.00385975991893,-0.0457571303289,0.573830177033,0.818938950241,0.00621856942088,0.0,0.818938792884,-0.573739133019,-0.0119752934362,0.0,-0.0062393177335,0.011964642844,-0.999908954973,0.0,0.256987185835,-0.270429253261,0.304978385796,1.0,-0.01024,-0.0134582857143,3.363
-0.68282418357,-0.512497030786,-0.125185526104,-2.63513686257,-0.0668620846408,2.11208905943,-0.931036463712,-0.0479379269561,0.00709398565563,0.00239204917351,0.00648879646304,0.000434296103368,1.91438365667e-05,-0.0504577715635,0.573841356319,0.818931102275,0.00622048273591,0.0,0.818931017665,-0.57375039364,-0.0119674978782,0.0,-0.00623167178947,0.0119618217736,-0.999909036406,0.0,0.256808391187,-0.270671788035,0.304983603447,1.0,-0.00990000000001,-0.0130114285714,3.38
-0.683652261967,-0.512295758742,-0.125179764879,-2.63497787169,-0.0668398650515,2.11213508651,-0.931897727652,-0.0405588026458,0.0078301007898,0.00527917939507,0.00724000511687,0.000225348429211,0.00220901769719,-0.041168117079,0.573827778169,0.818940575815,0.00622584816782,0.0,0.818940608265,-0.573736886557,-0.0119587641732,0.0,-0.00622163825989,0.011961101249,-0.999909107506,0.0,0.256625414852,-0.270926119425,0.304985408392,1.0,-0.00952000000001,-0.012512,3.399
-0.6841485704,-0.512185650014,-0.125167366395,-2.6348849274,-0.0668207333496,2.11214992445,-0.93239807608,-0.0375699585894,0.0101212579874,-6.3954878394e-05,0.00735427686037,0.000161034154099,0.00044727674368,-0.0419475209039,0.573828587775,0.818939970001,0.00623091400493,0.0,0.818940070042,-0.57373767792,-0.0119576550859,0.0,-0.00621781127692,0.0119646198387,-0.999909089215,0.0,0.256515962623,-0.271073730237,0.304988439403,1.0,-0.00928000000001,-0.0121965714286,3.411
-0.685008940033,-0.511989303306,-0.125115192419,-2.63473576335,-0.0667967020437,2.11219095774,-0.933232439451,-0.040182294911,0.00620937688681,0.00319976580103,0.0104889709444,-0.000105529396081,0.00116786929048,-0.0388558145976,0.573830738219,0.818938569309,0.00621695058243,0.0,0.818938486672,-0.573739884679,-0.0119602122205,0.0,-0.00622788648035,0.0119546676738,-0.999909145548,0.0,0.256331755755,-0.271322854469,0.304988250581,1.0,-0.00886000000001,-0.0116445714286,3.432
-0.68567978535,-0.51183054511,-0.12507806026,-2.63464374176,-0.0667732446552,2.11222272265,-0.933894350343,-0.0401053596088,0.00915890179416,0.00180373120986,0.00491184914315,0.00498810525234,0.000336136458582,-0.0390796515005,0.573821046141,0.818945355435,0.00621761353519,0.0,0.818945032122,-0.573729714084,-0.0119998516977,0.0,-0.00626011370453,0.0119778817824,-0.999908666491,0.0,0.256172611767,-0.271520025873,0.304970528376,1.0,-0.00850000000001,-0.0111714285714,3.45
-0.68623254383,-0.511696704615,-0.125060595465,-2.634571959,-0.0667542715405,2.11224730769,-0.934475256749,-0.0372028206741,0.01173511724,0.000455780466093,0.00618116339547,-6.4910412009e-05,0.00310606636033,-0.037940881623,0.573803101312,0.818957876791,0.00622445726267,0.0,0.818957478781,-0.573711430444,-0.0120245343853,0.0,-0.00627666571494,0.011997511938,-0.999908327385,0.0,0.256054409719,-0.271666971659,0.304960437392,1.0,-0.00822000000001,-0.0108034285714,3.464
-0.686889832254,-0.511534426038,-0.12504885131,-2.63449254025,-0.0667293441896,2.11226925733,-0.935147147426,-0.0363243731855,0.00550990584566,-0.000633307057178,0.00291748045776,0.000332448564177,0.00270266214015,-0.0338543961382,0.573797821382,0.818961441127,0.00624219715105,0.0,0.818960907483,-0.573705373686,-0.0120798642298,0.0,-0.0063118824924,0.0120437471006,-0.999907549874,0.0,0.255898149537,-0.271851656302,0.304938583609,1.0,-0.00786000000001,-0.0103302857143,3.482
-0.687414231762,-0.511415353337,-0.125039150152,-2.63444094144,-0.0667106593402,2.11228458279,-0.935649147567,-0.0312100093071,0.00840249154186,-0.0002174941524,0.00153061103519,0.00183535553546,0.00514057478071,-0.0361911147757,0.573820158668,0.818945680964,0.00625651962272,0.0,0.818945019908,-0.57372704315,-0.0121277049444,0.0,-0.00634251919382,0.0120830997996,-0.999906881239,0.0,0.255770648262,-0.271995730661,0.304919472007,1.0,-0.00756000000001,-0.00993600000001,3.497
-0.687987372266,-0.511283445274,-0.125023646938,-2.63437188003,-0.0666814516389,2.11229346036,-0.936199552186,-0.0358031965421,0.0099894885356,0.0026131375112,0.00416122332917,0.00116443101276,0.00160959447184,-0.0296908417387,0.573844001761,0.818928823213,0.0062762293657,0.0,0.818928095374,-0.573750174185,-0.0121761706233,0.0,-0.00637055204081,0.012127236524,-0.999906168698,0.0,0.255634693139,-0.272153407625,0.304903126109,1.0,-0.00722000000001,-0.00948914285715,3.514
-0.688483941104,-0.511172820243,-0.125007234529,-2.63430642061,-0.0666625860398,2.11231400064,-0.93671414573,-0.0321474265586,0.0074078170845,0.00028899799678,0.00335122614174,0.0005972553307,0.00358444839566,-0.0342384211522,0.573829667994,0.818938821914,0.00628211693119,0.0,0.818938034965,-0.573735557566,-0.0121963836249,0.0,-0.00638394108786,0.0121435450621,-0.999905885376,0.0,0.255513714082,-0.272302567659,0.304894344813,1.0,-0.00688000000001,-0.00904228571429,3.531
-0.68900635865,-0.511067333477,-0.124972934563,-2.6342216144,-0.0666377014938,2.11233595325,-0.937231417295,-0.0354748653142,0.0031413008921,-0.0005959426974,0.00717098390639,0.00673773361472,0.00152842822032,-0.0294197538835,0.573823891628,0.818942860057,0.00628333188272,0.0,0.818942114082,-0.573729824605,-0.0121921713404,0.0,-0.00637987960125,0.0121420780741,-0.999905929113,0.0,0.255407803755,-0.27244100087,0.304896163569,1.0,-0.00656000000001,-0.00862171428572,3.547
-0.689557632042,-0.510942561942,-0.124925679413,-2.63412048212,-0.0666166877597,2.11236352162,-0.937800082534,-0.0286314640761,0.00576189459209,-0.000776873969227,0.00775243837972,0.000315438483042,0.00277487749231,-0.0312370891031,0.573790153012,0.81896658876,0.0062716586526,0.0,0.818965738491,-0.573696238948,-0.0121857087059,0.0,-0.00638178417862,0.012128546735,-0.999906081182,0.0,0.255294111016,-0.272598369206,0.304899342387,1.0,-0.00618000000001,-0.00812228571429,3.566
-0.689992365847,-0.510858872548,-0.124894661672,-2.63403985536,-0.0665978719159,2.11238901792,-0.938267087193,-0.0271368865977,0.00655296368767,0.000648082258189,0.00797520893466,-1.31204832489e-05,0.00312566488419,-0.0230288269067,0.573753721426,0.818992157967,0.00626571937578,0.0,0.818991390611,-0.573660147701,-0.0121607543593,0.0,-0.00636529150427,0.0121090814311,-0.999906422227,0.0,0.255204249927,-0.272724589007,0.304907864686,1.0,-0.00586000000001,-0.00770171428572,3.582
