nelsonifechukwu/NELSON_IML_WORK/CNN-GradCAM/train2dof/data_sample_2022-02-21-14-05-54/robot_state.csv
position_joint1,position_joint2,position_joint3,position_joint4,position_joint5,position_joint6,position_joint7,velocity_joint1,velocity_joint2,velocity_joint3,velocity_joint4,velocity_joint5,velocity_joint6,velocity_joint7,ee_T_00,ee_T_10,ee_T_20,ee_T_30,ee_T_01,ee_T_11,ee_T_21,ee_T_31,ee_T_02,ee_T_12,ee_T_22,ee_T_32,ee_T_03,ee_T_13,ee_T_23,ee_T_33,v_x,v_y,time
0.465093911175,0.547774828285,-0.123978971449,-1.35575719433,0.0795154256643,1.89409161867,0.159170154439,0.00092679162472,0.000142015237564,0.00105394283595,-0.000476616912383,-0.000148750961245,-0.000180976641397,0.000398436296478,0.573791368459,0.818987270503,0.0020157223182,0.0,0.818944857306,-0.573732407868,-0.0118824136866,0.0,-0.0085752254326,0.00846895488968,-0.999927368518,0.0,0.661684518632,0.260920376221,0.303253900487,1.0,0.0,0.0,0.0
0.465093911175,0.547768572573,-0.123978974268,-1.35575397092,0.0795157692547,1.89409160112,0.159166992177,0.000309733004467,-0.00203358946803,0.000980228090047,-0.00127017322393,0.00013817597741,-0.000446074147425,-0.000773249434484,0.573788684222,0.818989130454,0.00202409449136,0.0,0.818946826729,-0.573729690304,-0.0118778935924,0.0,-0.00856674757561,0.00847318983157,-0.99992740531,0.0,0.661685402143,0.260920895837,0.303259865626,1.0,-0.00026,-0.000341714285714,0.014
0.465088295847,0.54777152901,-0.123982711655,-1.35575794456,0.0795163795882,1.89409317144,0.159170749987,0.000315917610618,-0.000989781750578,-2.63488061578e-05,0.00102316604144,0.000265681868677,-0.000643834673494,0.000382383393004,0.57379936682,0.818981658975,0.00201886144863,0.0,0.81893929894,-0.573740404588,-0.0118793811394,0.0,-0.00857085790435,0.00846986942661,-0.999927398218,0.0,0.66168701481,0.260914711318,0.303256141174,1.0,-0.00056,-0.000736,0.029
0.46508503953,0.547748816533,-0.123981375471,-1.35578827542,0.0795157692386,1.89409394653,0.159169163532,-0.000655511986091,-0.00421818873166,0.000680135646215,-0.00515958320241,-0.000124747318825,-0.000320660373632,-0.00136220819248,0.573801260549,0.818980342865,0.00201452100163,0.0,0.818937894673,-0.573742284537,-0.0118853903953,0.0,-0.00857825037719,0.00846978264834,-0.999927335561,0.0,0.66168139316,0.260909980158,0.303257816795,1.0,-0.00092,-0.00120914285714,0.047
0.465089634356,0.547626545445,-0.123979661878,-1.35592096384,0.0795124177011,1.89412275458,0.159159746449,-0.00125982868497,-0.00759852852912,0.000766152110817,-0.0109075174498,5.84965135785e-05,0.00170544856454,-0.00106749847348,0.573794927517,0.818984729495,0.00203492276832,0.0,0.818942470122,-0.573735793091,-0.0118834867541,0.0,-0.00856505106017,0.00848533246806,-0.999927316875,0.0,0.66165855101,0.260901284088,0.303283719178,1.0,-0.00128,-0.00168228571429,0.065
0.465088922804,0.547520275321,-0.123979580143,-1.3560793106,0.0795136278256,1.89414932083,0.159159661568,0.000623360525765,-0.00972022594389,0.00292858438335,-0.0152379205914,0.000374802569061,0.00686125086938,-0.00100740471415,0.573804345411,0.818978167267,0.00202030396066,0.0,0.818935576434,-0.573745130086,-0.0119077392525,0.0,-0.00859320435644,0.00848737472398,-0.999927057994,0.0,0.661630450435,0.260885454589,0.303285938956,1.0,-0.00156,-0.00205028571429,0.079
0.465068359973,0.547352847795,-0.123984980918,-1.3562950449,0.0795077589925,1.89426108708,0.159156442158,-0.000436128459803,-0.0145777638273,-0.00158483800525,-0.00802032464391,-0.00046453180892,0.00430083654364,0.000342866497641,0.573833022372,0.818957934982,0.00207606998203,0.0,0.818916079891,-0.573773585594,-0.0118774354119,0.0,-0.0085360902065,0.00851595571027,-0.999927304189,0.0,0.661614640998,0.26085196494,0.303311731731,1.0,-0.00192,-0.00252342857143,0.097
0.465050964639,0.547176198153,-0.123979692665,-1.35651516249,0.0795079943178,1.89437133527,0.159137271397,-0.00144826277516,-0.00179291549088,-0.00064235121245,-0.0165689045809,-7.31846067362e-05,0.00585747224914,-0.00248302301294,0.573840396615,0.818952599906,0.00214131307599,0.0,0.818911487481,-0.57378059013,-0.0118556721622,0.0,-0.00848075294127,0.00855697424019,-0.999927424877,0.0,0.661594134815,0.260827244139,0.303341490377,1.0,-0.00226,-0.00297028571429,0.114
0.465028703845,0.546979039598,-0.123980648013,-1.35676456025,0.0795033667106,1.89449657424,0.15912203202,-0.00278352075595,-0.00783361091068,-0.000101878354746,-0.0190927057708,0.000422740621114,0.00647352651483,-0.00117069291279,0.573859707738,0.818938890164,0.00220837365219,0.0,0.81889861079,-0.573799594076,-0.0118253111923,0.0,-0.00841720537578,0.00859466921464,-0.999927638539,0.0,0.661573411074,0.260792714412,0.303373331845,1.0,-0.00258,-0.00339085714286,0.13
0.464999573409,0.546739956598,-0.123984544147,-1.35711977447,0.0794969796406,1.89462722777,0.159099390838,-0.00331345334898,-0.0147584121117,-0.001071040346,-0.0189629818158,-0.000106533472675,0.0110854872011,-0.00528716405594,0.573885911668,0.818920474359,0.00222799586227,0.0,0.818880336057,-0.573825601281,-0.011828839097,0.0,-0.00840855934994,0.00861303193714,-0.999927553281,0.0,0.661533145836,0.260739999122,0.303385053294,1.0,-0.00292,-0.00383771428571,0.147
0.464964031427,0.546473780107,-0.123978211587,-1.35753060753,0.0794875534441,1.89477800838,0.158966032331,-0.00177010355382,-0.0148166392249,0.000940483410313,-0.0235603271772,6.01001754429e-05,0.0135447318838,-0.0117399950174,0.573821863307,0.818965310577,0.00224413974324,0.0,0.818925203008,-0.573761313914,-0.0118411754229,0.0,-0.0084100732601,0.00863267414546,-0.999927371165,0.0,0.661484316888,0.260683590422,0.303390879795,1.0,-0.00326,-0.00428457142857,0.164
0.464925653486,0.54619493937,-0.123982857307,-1.35797022878,0.0794757696754,1.89492814671,0.1589328363,-0.000506582354847,-0.0191604164493,-0.000101578759238,-0.0261601054149,-0.00011984458267,0.005800382877,-0.000335559779827,0.573850747096,0.818945077715,0.00224201811942,0.0,0.818904816474,-0.573790073074,-0.0118575080768,0.0,-0.00842436232794,0.0086406056636,-0.999927182375,0.0,0.661432446597,0.260615272406,0.303392257756,1.0,-0.00358,-0.00470514285714,0.18
0.464868972859,0.545889813761,-0.123985135923,-1.35850199908,0.0794558543585,1.89511267429,0.158893982156,-0.00619505714505,-0.0228064174948,-0.00196211325376,-0.0310697896039,-0.00246496890867,0.00842695709485,-5.44445437659e-05,0.573891380684,0.818916687269,0.00221119663211,0.0,0.818875905225,-0.573830701511,-0.0118880085317,0.0,-0.0084665990587,0.00863328749115,-0.999926888851,0.0,0.661371612273,0.260526640149,0.303371263378,1.0,-0.00392,-0.005152,0.197
0.464794398096,0.545512475243,-0.123985062923,-1.35914283794,0.0793740265228,1.89532852369,0.158787210483,-0.00499164879308,-0.0251015883907,-0.000237982095239,-0.0368779667134,-0.0046764820517,0.0134891587056,-0.00247388120167,0.573878959447,0.818925563352,0.00214674022294,0.0,0.818884287297,-0.573818890065,-0.0118807543555,0.0,-0.00849777697015,0.00857621190309,-0.999927115532,0.0,0.661301407866,0.260407639878,0.30335198591,1.0,-0.00428,-0.00562514285714,0.215
0.464738584282,0.545169184619,-0.12398579921,-1.3597691661,0.079328353788,1.89551402529,0.158722770383,-0.00209688694771,-0.0232555352607,-2.16177040854e-05,-0.0389864174701,-2.26312822963e-05,0.0111546084899,-0.00238332527792,0.573895038305,0.818914520971,0.00205894465979,0.0,0.818872101779,-0.573835324152,-0.0119268011508,0.0,-0.00858570077618,0.00853090859071,-0.999926751988,0.0,0.661220779225,0.260305647605,0.303312944228,1.0,-0.00458,-0.00601942857143,0.23
0.464663492837,0.544712631142,-0.123991025681,-1.36051918221,0.0793084896093,1.89577272079,0.15861859183,-0.00304649215393,-0.0251362004132,-0.00082509985026,-0.0416474172799,-0.000404583552631,0.0191481778924,-0.00956950497375,0.573911371651,0.818903116937,0.00204192583214,0.0,0.818860236548,-0.573851488582,-0.0119636513844,0.0,-0.00862547529745,0.0085382918345,-0.999926346662,0.0,0.661133834789,0.260184274964,0.303301722281,1.0,-0.00494,-0.00649257142857,0.248
0.464599461685,0.544254419028,-0.123992400272,-1.36127579141,0.0792758349759,1.89604550655,0.158540203801,-0.00436114218046,-0.0305867327939,0.000706631420202,-0.0504013376593,-0.00116233985466,0.0150600870212,-0.00660806326288,0.573934087113,0.818887236507,0.00202594086552,0.0,0.818844018062,-0.573874140103,-0.0119871725497,0.0,-0.0086536741407,0.00853894089414,-0.999926097475,0.0,0.661045083277,0.260070576195,0.303289564006,1.0,-0.00528,-0.00693942857143,0.265
0.464528149952,0.543739336354,-0.123990750682,-1.36209314996,0.0792359945029,1.89633498163,0.158413068231,-0.0022136387282,-0.0305613472706,0.000491131824671,-0.0510033676526,-0.00524127429509,0.0189312225632,-0.00605795114597,0.573922090319,0.818895657055,0.00202089125405,0.0,0.818852249188,-0.573862044295,-0.012003958503,0.0,-0.00867044363212,0.00854431280938,-0.999925906318,0.0,0.660948678291,0.259947329844,0.303290017559,1.0,-0.00562,-0.00738628571429,0.282
0.464461092214,0.543247818322,-0.123998853304,-1.36289468762,0.0791912798089,1.89661555348,0.158322318138,-0.00909389798323,-0.0317696326672,-0.00104833211818,-0.0546146330706,-0.00152184135434,0.025841841906,-0.00880993701504,0.573945783104,0.818879131102,0.00198836726455,0.0,0.818835274671,-0.573885848736,-0.0120238295474,0.0,-0.00870513485787,0.00852933573682,-0.999925732772,0.0,0.660847704082,0.259808694452,0.303280472862,1.0,-0.00596,-0.00783314285714,0.299
0.464390239622,0.542675567848,-0.12400175305,-1.36379908123,0.0791379518152,1.89693996874,0.158213498682,-0.00508654587464,-0.0279076740081,-6.71103380856e-05,-0.0519225356737,-0.000401744646315,0.0226775682409,-0.00606683194171,0.573947993327,0.818877581486,0.00198856661847,0.0,0.818833707441,-0.573888038023,-0.0120260664306,0.0,-0.00870682923174,0.00853080631659,-0.999925705474,0.0,0.660748259735,0.259686465058,0.303283321916,1.0,-0.00628,-0.00825371428571,0.315
0.464317183096,0.542121159396,-0.123998813318,-1.36466679345,0.0790828809068,1.89725454955,0.158098715392,-0.00231451601826,-0.0323623047495,0.00112139533341,-0.053706083222,-0.00489761651077,0.0154914898866,-0.00287503765837,0.573945256924,0.818879498837,0.00198880345001,0.0,0.81883561977,-0.573885293001,-0.0120268521894,0.0,-0.00870736528655,0.00853142213172,-0.999925695553,0.0,0.660646934557,0.259556613342,0.303289547738,1.0,-0.0066,-0.00867428571429,0.331
0.464230459124,0.541445709433,-0.124004534271,-1.3656907153,0.0790278645916,1.89762768376,0.157945218568,-0.00204299393594,-0.040247683489,-0.000551985204944,-0.0527237588207,-0.000916518943506,0.020120513167,-0.00683751738089,0.573936686108,0.818885447347,0.00201280022938,0.0,0.818841831893,-0.573876572167,-0.0120200316911,0.0,-0.00868809740519,0.00854706674028,-0.999925729549,0.0,0.660529829901,0.25939975123,0.303312301764,1.0,-0.00696,-0.00914742857143,0.349
0.464150001593,0.540807970357,-0.124001985823,-1.3666683413,0.0789692596606,1.89799436556,0.157833708241,-0.00398651870481,-0.041181366432,0.00173666899009,-0.0651525686624,9.43505002868e-05,0.0190092072481,-0.0119977089936,0.573948053052,0.818877422983,0.00203603239284,0.0,0.818834095208,-0.57388782378,-0.0120098768938,0.0,-0.00866632969581,0.00856038301672,-0.999925804534,0.0,0.660417633041,0.259255811787,0.303329494428,1.0,-0.00728,-0.009568,0.365
0.464060338518,0.540077634931,-0.124010514642,-1.36776748692,0.0789039213969,1.89840291554,0.157687537288,-0.00328198203589,-0.0426937099665,-0.00131293989108,-0.0652118785605,-0.00171554426522,0.0294051964006,-0.00718761454689,0.573951160018,0.818875163565,0.0020686498629,0.0,0.818832291245,-0.573890822602,-0.0119895558292,0.0,-0.00863093649146,0.00857546188748,-0.999925981455,0.0,0.660293276062,0.259087922278,0.303358181352,1.0,-0.00762,-0.0100148571429,0.382
0.463964645064,0.539340246382,-0.124008422148,-1.36891928632,0.0788373970985,1.89884045094,0.157553866023,-0.00743811794084,-0.0429689686564,0.000319643361911,-0.067771904242,-0.00711900271355,0.0263841676072,-0.0105892706238,0.573964612233,0.818865681975,0.00208942312124,0.0,0.81882304919,-0.573904154989,-0.0119825666218,0.0,-0.00861314980759,0.00858860237303,-0.999926022043,0.0,0.660161689524,0.258917832563,0.303368845445,1.0,-0.00796,-0.0104617142857,0.399
0.463859156422,0.538585637453,-0.12401161738,-1.37009326995,0.0787655150003,1.89930174966,0.157401660299,-0.00555642685141,-0.0450271596309,-0.000388741026695,-0.0675837820966,-0.00801216286933,0.0263138402486,-0.0057697329582,0.573974415979,0.8188587256,0.00212231249782,0.0,0.818816574779,-0.573913874133,-0.0119594668189,0.0,-0.00857525427064,0.00860237825531,-0.99992622933,0.0,0.660033976953,0.258736559281,0.303383220399,1.0,-0.0083,-0.0109085714286,0.416
0.463756628324,0.537854339838,-0.124014812378,-1.37125882779,0.0786910409273,1.89974299522,0.157255448846,-0.00507827656918,-0.0420737972886,0.000375923982319,-0.068354008435,-0.000528421173855,0.022778367175,-0.0161745823774,0.573985357964,0.818851051629,0.00212390945401,0.0,0.818808974781,-0.573924861498,-0.0119525341843,0.0,-0.00856854571824,0.0085998213081,-0.999926308834,0.0,0.659902730426,0.258556168382,0.303383275077,1.0,-0.00862,-0.0113291428571,0.432
0.463640242414,0.536981601342,-0.124020823866,-1.37262839389,0.0786231608335,1.90024670985,0.157087387299,-0.00579919845275,-0.0485801358893,-0.00104367867368,-0.0748449802025,-0.0100387750798,0.029726894498,-0.0131304582085,0.574004557626,0.81883756174,0.00213593288783,0.0,0.818795519354,-0.573943886384,-0.0119607553711,0.0,-0.00856817510588,0.00861458623135,-0.999926184915,0.0,0.659743984781,0.258347953786,0.303391500174,1.0,-0.00898,-0.0118022857143,0.45
0.463524402837,0.536183066199,-0.124024371959,-1.37387308973,0.0785628919701,1.9007188557,0.156939823199,-0.00920559142704,-0.049175938988,0.000789098804679,-0.0773674891557,-0.00051533823113,0.0239909668006,-0.0128098459463,0.574033507107,0.818817192641,0.00216440649893,0.0,0.818775410981,-0.57397260373,-0.0119592408405,0.0,-0.00855028659694,0.00863733407815,-0.999926141802,0.0,0.65960451982,0.258154480637,0.303403802186,1.0,-0.0093,-0.0122228571429,0.466
0.463406103533,0.535296307969,-0.124032235168,-1.37528007532,0.0784739497044,1.90122566708,0.15676579049,-0.00922644688232,-0.0525136918149,0.000435094388437,-0.0875436205123,-0.00467044539802,0.0311611959227,-0.0082324201944,0.57404676712,0.818807938315,0.00214853738057,0.0,0.818765986189,-0.573985964079,-0.0119632688031,0.0,-0.00856255402013,0.00862679120033,-0.999926127843,0.0,0.659439519507,0.257936517179,0.303404078187,1.0,-0.00964,-0.0126697142857,0.483
0.463280381565,0.534394358448,-0.124035819001,-1.37672626939,0.0783887710571,1.90175422287,0.156591349366,-0.00452023479358,-0.0536746569516,-0.00163470637466,-0.0890712371208,-0.00456624597643,0.0414207059657,-0.00995877166861,0.574065859016,0.818794589737,0.00213453283263,0.0,0.818752423383,-0.574005079573,-0.011974336307,0.0,-0.00857945427652,0.0086218775856,-0.999926025359,0.0,0.659270519158,0.257713787285,0.303397994919,1.0,-0.00998,-0.0131165714286,0.5
0.463148274131,0.533469543456,-0.12403949864,-1.37820720947,0.0783045022885,1.90229856453,0.156402827466,-0.0089399015158,-0.0496499005256,0.00195917614637,-0.0859042188522,-0.00495752264483,0.0239210898351,-0.0106570837967,0.574080743398,0.818784177385,0.00212551770167,0.0,0.818741837762,-0.574019943557,-0.011985591261,0.0,-0.00859368838513,0.00862111339361,-0.999925909717,0.0,0.659098431242,0.257484205851,0.303392694756,1.0,-0.01032,-0.0135634285714,0.517
0.46302226546,0.532518496314,-0.124034556435,-1.37972274356,0.0782281517681,1.90288096165,0.156210364298,-0.0104894264268,-0.0591807398841,0.0017902324288,-0.0895415412173,-0.0122351649714,0.0269172545869,-0.013893751699,0.574085392483,0.818780857889,0.00214843959155,0.0,0.818738665587,-0.574024344364,-0.0119915158372,0.0,-0.00858533229091,0.00864333105108,-0.999925789695,0.0,0.658922212099,0.257263760893,0.303392271033,1.0,-0.01066,-0.0140102857143,0.534
0.462895934394,0.531544357314,-0.124037180128,-1.3812898633,0.0781243830698,1.90345685235,0.156017386835,-0.0096191365264,-0.0574353863435,-0.000806674458258,-0.0894643465636,-0.000287460785789,0.0336885649456,-0.0125078654463,0.574090265507,0.818777496959,0.00212706952881,0.0,0.818735088877,-0.574029369017,-0.011995192756,0.0,-0.00860055910828,0.0086279959695,-0.999925791281,0.0,0.658736184491,0.257028059884,0.303383004783,1.0,-0.011,-0.0144571428571,0.551
0.462753431085,0.53052639323,-0.124037148682,-1.38292952965,0.0780248781617,1.90403062649,0.155801652788,-0.0050946845531,-0.0613747961748,0.00101665232493,-0.0943845789916,-0.00315224385275,0.0358184364637,-0.00306861858432,0.574092617148,0.818775953204,0.00208621478332,0.0,0.818732937656,-0.574031817544,-0.0120248137425,0.0,-0.00864824117567,0.00861157534976,-0.999925521574,0.0,0.658536822054,0.256775793176,0.303369616819,1.0,-0.01134,-0.014904,0.568
0.462616389215,0.52955524135,-0.124042879386,-1.38448415922,0.0779169624743,1.90460499685,0.155586122788,-0.00578561792916,-0.0562956915186,-0.000305218811942,-0.0987337171802,-0.0147410997083,0.0377788097742,-0.0139081047105,0.574087815378,0.818779364805,0.00206855137712,0.0,0.818736244602,-0.574027216227,-0.0120193055753,0.0,-0.00865392121051,0.00859390032556,-0.999925624497,0.0,0.658356142327,0.256531960835,0.303363718354,1.0,-0.01166,-0.0153245714286,0.584
0.462481427952,0.52844907371,-0.124049064425,-1.38617321518,0.0778176108943,1.90524273292,0.155365549048,-0.00732483187495,-0.0655705912351,0.000249752415283,-0.100300992133,-0.00897628492893,0.0435059397789,-0.017020684666,0.574091564666,0.818776615463,0.00211571539974,0.0,0.818734099318,-0.574030755536,-0.0119963833463,0.0,-0.00860803817609,0.00861939677793,-0.999925801086,0.0,0.658147072047,0.256266279216,0.303394065761,1.0,-0.01202,-0.0157977142857,0.602
0.462334882878,0.527273118529,-0.124046760591,-1.38800565483,0.0777073459907,1.90594878482,0.15509721539,-0.0106464046977,-0.0689447201721,0.00129724342288,-0.103823111298,-0.00939552115418,0.0437345064241,-0.0091999463126,0.574055272149,0.818801953407,0.00215696916801,0.0,0.818759988445,-0.573994309503,-0.0119733404036,0.0,-0.00856587140265,0.00863956557342,-0.999925989138,0.0,0.657944632782,0.256013624805,0.303410925281,1.0,-0.01236,-0.0162445714286,0.619
0.462187159612,0.526180293952,-0.124053213643,-1.38971799237,0.0776002838807,1.90658272161,0.154872712677,-0.0119663509441,-0.0664671660398,-0.000791496432695,-0.110888344058,-0.00141680925952,0.0385998177208,-0.0109251957935,0.574060553091,0.818798228828,0.00216535293098,0.0,0.818756410506,-0.57399959291,-0.0119647187746,0.0,-0.00855394353007,0.0086415360469,-0.99992607422,0.0,0.657743513608,0.255749479617,0.303420048779,1.0,-0.01268,-0.0166651428571,0.635
0.4620440945,0.524993170879,-0.124055667726,-1.39155776051,0.077486867115,1.9072401714,0.154621894814,-0.00775859025652,-0.0709893133439,2.99822053079e-05,-0.108890182029,-0.00860129036049,0.0418164455417,-0.00957663271162,0.574042871236,0.818810629557,0.00216374885587,0.0,0.818768751985,-0.573981881173,-0.0119698688325,0.0,-0.00855926798824,0.00864299422769,-0.999926016054,0.0,0.657504436743,0.255461262498,0.303432123344,1.0,-0.01304,-0.0171382857143,0.653
0.461861922401,0.523607869648,-0.124061980916,-1.39377843835,0.0773383415724,1.90804304473,0.154318286529,-0.00798544126223,-0.068283469425,0.00054725848881,-0.116532957901,-0.0104430176388,0.037520147925,-0.0152153572736,0.574026538981,0.818822164161,0.00213141396221,0.0,0.818779956331,-0.573965776605,-0.0119756961215,0.0,-0.00858277199041,0.00861969238319,-0.999926015727,0.0,0.657248027015,0.255139100661,0.303423329186,1.0,-0.01342,-0.0176377142857,0.672
0.461708310663,0.522465446685,-0.124060165836,-1.39560228931,0.077235562903,1.90874734605,0.154076108058,-0.00765219008198,-0.0719471632319,0.00126257131711,-0.113185308657,-0.00529806262126,0.0463655749076,-0.0123359353963,0.574023029973,0.818824566761,0.00215333016942,0.0,0.818782576257,-0.573962108514,-0.0119723727766,0.0,-0.00856750797859,0.00863569318468,-0.999926008568,0.0,0.657033657589,0.254868857642,0.30341920699,1.0,-0.01374,-0.0180582857143,0.688
0.4615460029,0.521227865624,-0.124067990776,-1.39759365936,0.0771049536852,1.90952031644,0.153802939302,-0.00960022880204,-0.0761966306022,0.000293124507992,-0.119375590874,-0.00822303663823,0.0496021545035,-0.0145413017427,0.574009251282,0.818834209589,0.00215952567351,0.0,0.818792438816,-0.573948446238,-0.0119528281424,0.0,-0.00854809275665,0.00862940336834,-0.999926229033,0.0,0.656801331539,0.254568866479,0.303408145149,1.0,-0.01408,-0.0185051428571,0.705
0.461367125283,0.519859786462,-0.12407165043,-1.39976235379,0.0769679047564,1.91030650299,0.153504795805,-0.0125787054286,-0.0735817930347,0.000447590847708,-0.123777160667,-0.00332468238734,0.0389019868214,-0.0179827224979,0.573992679815,0.818845868666,0.00214331275805,0.0,0.818803887677,-0.573931944637,-0.011960909327,0.0,-0.00856419041594,0.00862059318958,-0.999926167282,0.0,0.65653610436,0.254241029294,0.303404959911,1.0,-0.01444,-0.0189782857143,0.723
0.461198330664,0.51858498784,-0.124078032835,-1.40171896822,0.0768422287991,1.91099362705,0.153250956849,-0.0114150769998,-0.0765545625137,0.000115347813727,-0.121177462801,-0.0133453311289,0.0438367731766,-0.0164937992546,0.573997299256,0.818842627684,0.00214439635854,0.0,0.818800670787,-0.573936569067,-0.0119592269223,0.0,-0.00856214215716,0.00862056310396,-0.999926185082,0.0,0.656295443253,0.253937366849,0.303428277368,1.0,-0.01476,-0.0193988571429,0.739
0.461013686578,0.517145718646,-0.124086556907,-1.4039818487,0.0766959519539,1.91181403699,0.152926714505,-0.0139183528011,-0.0787079002915,0.000643225684582,-0.130272481937,-0.00993084618796,0.047397150808,-0.0214083496529,0.57396932317,0.818862261722,0.00213524896087,0.0,0.818820236768,-0.573908685667,-0.0119577286988,0.0,-0.00856645977352,0.00861192031373,-0.999926222576,0.0,0.656018122708,0.25359361577,0.30343249067,1.0,-0.01512,-0.019872,0.757
0.46083899548,0.515875232316,-0.124093599136,-1.4059991247,0.0765649599955,1.91258265581,0.152655644712,-0.0122915621355,-0.0776522524039,-0.00114172575275,-0.130303195562,-0.00228116644293,0.0461683318496,-0.0136062638205,0.573966771522,0.818864022823,0.00214574360268,0.0,0.818822236733,-0.573906193988,-0.0119403532083,0.0,-0.0085462346593,0.0086105143371,-0.99992640775,0.0,0.65577973271,0.253283163849,0.303430269947,1.0,-0.01544,-0.0202925714286,0.773
0.460706816297,0.514904800216,-0.124099304008,-1.40755270528,0.0764719157399,1.91316406468,0.152446130447,-0.00949914582884,-0.0806442742756,-0.00174952630727,-0.131497747864,-0.00979930233093,0.0493843756743,-0.0167994460066,0.573964391302,0.81886569941,0.00214260298362,0.0,0.818823863844,-0.573903818316,-0.0119429570805,0.0,-0.00855019448706,0.00860941230265,-0.999926383387,0.0,0.655592379925,0.25304593281,0.30342180982,1.0,-0.01568,-0.020608,0.785
0.460517257542,0.513499479099,-0.12409712976,-1.40982267315,0.0763419329905,1.91394338303,0.152127288798,-0.00845237059809,-0.0814939308903,-0.000464346901634,-0.131250053586,-0.00637839221711,0.0466384443696,-0.0246987381203,0.573940990283,0.818882271945,0.00207635936553,0.0,0.818839344648,-0.573880467161,-0.012003498197,0.0,-0.0086380361011,0.00858966976192,-0.9999257982,0.0,0.655299900075,0.252703946091,0.303393837801,1.0,-0.01602,-0.0210548571429,0.802
0.460310324817,0.511980154231,-0.124104904506,-1.41224070365,0.0761895645735,1.9148120661,0.151793861425,-0.00752869736966,-0.086232377064,-0.000809071399616,-0.136775576049,-0.00918428516194,0.0512586666469,-0.018695195627,0.573928362004,0.818891198116,0.00204642055338,0.0,0.818847871976,-0.573867958812,-0.0120197882949,0.0,-0.00866869055127,0.00857436960624,-0.999925664232,0.0,0.654999963616,0.252331201078,0.303382811944,1.0,-0.01638,-0.021528,0.82
0.460139399286,0.510702690137,-0.124103592829,-1.4142815091,0.0760611365395,1.91559606947,0.151499681558,-0.00930952123518,-0.091922229902,0.000353551753676,-0.144461822227,-0.00608607572246,0.0557857914436,-0.0237255480164,0.573898658439,0.818911981255,0.00206002439292,0.0,0.818868859704,-0.573838228224,-0.0120093853787,0.0,-0.00865267541723,0.00857922515979,-0.999925761296,0.0,0.654753342371,0.252027055527,0.303373886386,1.0,-0.01668,-0.0219222857143,0.835
0.4599264617,0.509214858743,-0.12410457576,-1.41664044572,0.0759167940202,1.91647076742,0.151172370146,-0.0136990904522,-0.085974626249,-8.39294905325e-05,-0.140562045044,-0.00864083404925,0.0421774921654,-0.0181946216605,0.573889648608,0.818918290849,0.00206180381296,0.0,0.818875153817,-0.573829173636,-0.012012861723,0.0,-0.00865459563996,0.00858258214874,-0.99992571587,0.0,0.654465584668,0.251662754194,0.303368301421,1.0,-0.01702,-0.0223691428571,0.852
0.459718811011,0.507697956639,-0.124115273812,-1.41901869553,0.0757649761409,1.9173095248,0.150833724297,-0.0169624919517,-0.0859076728114,0.000341685133127,-0.145586606588,-0.0135800381627,0.0525651540826,-0.0168792712824,0.573878126018,0.818926436815,0.0020333381769,0.0,0.818882917609,-0.573817762706,-0.0120286886929,0.0,-0.00868401280152,0.00856823218936,-0.999925583891,0.0,0.654149613125,0.251266333165,0.303365751585,1.0,-0.01738,-0.0228422857143,0.87
0.459503989118,0.506133556297,-0.124118948154,-1.42145691989,0.0756136092891,1.91821652056,0.150514355579,-0.00678999460682,-0.0920279446804,0.00105860414538,-0.141264706566,-0.00160051312592,0.0575032788993,-0.0191403582556,0.573874434188,0.818928947911,0.0020637249587,0.0,0.818885835367,-0.57381395244,-0.0120118075797,0.0,-0.00865278936147,0.008583389672,-0.999925724571,0.0,0.653868293904,0.250916558633,0.303382525804,1.0,-0.0177,-0.0232628571429,0.886
0.459272086528,0.5044969962,-0.124128770934,-1.423930348,0.0754535118963,1.91917792549,0.150172178866,-0.00767172174973,-0.0948333699344,-0.00380939558292,-0.150693244741,-0.015788228238,0.0580535618191,-0.0161604789371,0.573875562221,0.818927904717,0.00216168052784,0.0,0.818886229386,-0.573814833191,-0.011942672761,0.0,-0.00853994804987,0.00862394449938,-0.999926345722,0.0,0.653578956267,0.250526613754,0.303432469422,1.0,-0.01804,-0.0237097142857,0.903
0.45903916914,0.502836506625,-0.124128742648,-1.42639883352,0.0752968285795,1.92011885434,0.149819900256,-0.0128545417701,-0.102104207327,0.000123024922203,-0.143915441425,-0.00554969930986,0.0571478866826,-0.0221062781283,0.573862260672,0.818936925689,0.00227253644018,0.0,0.818896754747,-0.573801149294,-0.0118782589156,0.0,-0.00842372300043,0.0086776243012,-0.999926867189,0.0,0.653284116516,0.250141946216,0.303498727283,1.0,-0.01838,-0.0241565714286,0.92
0.458827127951,0.501234607297,-0.124134691215,-1.42880957827,0.0751404910344,1.92097550913,0.149479623789,-0.0131127782382,-0.099043429108,-0.00145533365076,-0.1587473607,-0.00827195134639,0.0504922372397,-0.0152646104467,0.573842230804,0.818950855793,0.00231016092022,0.0,0.818911189704,-0.573780989736,-0.011856900772,0.0,-0.00838485404946,0.00869597444148,-0.999927034464,0.0,0.652979822061,0.249768044255,0.303543843092,1.0,-0.0187,-0.0245771428571,0.936
0.458592748985,0.499522819847,-0.124135152039,-1.43141082557,0.0749682831344,1.92190940198,0.149125060643,-0.0100322926668,-0.098185689991,-0.000912645920759,-0.156900176306,-0.0134320746344,0.067417770762,-0.0194989365719,0.573824227578,0.818963386272,0.00233980602813,0.0,0.818924076139,-0.573762842397,-0.0118450456239,0.0,-0.00835832584101,0.00871326540305,-0.999927106041,0.0,0.652631197695,0.249342204023,0.303576648988,1.0,-0.01906,-0.0250502857143,0.954
0.458317165638,0.497754878787,-0.124132371341,-1.43422005235,0.0748001876196,1.92294022728,0.148708951493,-0.0183123318739,-0.098201251666,-0.000231750878532,-0.158565233863,-0.00644558642829,0.0505864838682,-0.0233151205648,0.573810185653,0.818973232812,0.00233702350472,0.0,0.818933817839,-0.573748741535,-0.0118545555584,0.0,-0.00836786050172,0.0087163001227,-0.999926999847,0.0,0.652302992523,0.248919141938,0.30356587716,1.0,-0.0194,-0.0254971428571,0.971
0.45808872419,0.496280761272,-0.124129865691,-1.4365894295,0.0746549483663,1.92377397159,0.14836007605,-0.0159437271324,-0.102714455825,0.000247900896825,-0.163937367801,-0.0115231977126,0.0555332114263,-0.0265190644016,0.573790279457,0.818987322435,0.00228643674017,0.0,0.818947108887,-0.573728891582,-0.0118970042986,0.0,-0.00843186321843,0.00869902366239,-0.999926612642,0.0,0.651999066447,0.248543288252,0.303537743024,1.0,-0.0197,-0.0258914285714,0.986
0.457797896424,0.494508893467,-0.124132372656,-1.4394841801,0.074476632675,1.9247787852,0.147952693157,-0.015475890686,-0.0968219835131,-0.000644120391123,-0.158613869137,-0.00918065069741,0.05406226276,-0.0119795614734,0.573794162341,0.818984875839,0.00218616373965,0.0,0.818943186178,-0.573733005941,-0.0119684003491,0.0,-0.00854782915225,0.00865790884289,-0.999925984877,0.0,0.651627084413,0.248071910302,0.303481467998,1.0,-0.0204754285714,-0.0269105632653,1.004
0.457511032784,0.492667065433,-0.124152840285,-1.44240174233,0.074289431261,1.92585418498,0.147535489763,-0.0196454431707,-0.120188953309,0.00104942669339,-0.173273846956,-0.0120799444406,0.0620168194183,-0.0268210165832,0.573798007398,0.818982207568,0.00217653262852,0.0,0.818940478303,-0.573736977106,-0.0119633188884,0.0,-0.0085491526599,0.00864714569623,-0.999926066697,0.0,0.651267577558,0.247594222526,0.303468866119,1.0,-0.0232828571429,-0.0306003265306,1.021
0.457223589108,0.490726275981,-0.12417311497,-1.44549639968,0.0741085951776,1.92697465565,0.14709795794,-0.0247090033611,-0.124531915341,-0.00239594906767,-0.207185628431,-0.0109225259139,0.0649826829508,-0.022524602097,0.573795723771,0.818983880026,0.00214907878933,0.0,0.818941680835,-0.573734694328,-0.0119904468994,0.0,-0.0085871469918,0.00864020370364,-0.999925801141,0.0,0.650874802857,0.247100820546,0.303443985119,1.0,-0.0259251428571,-0.034073044898,1.037
0.45685080612,0.488451850489,-0.124188109443,-1.44916219933,0.073883437506,1.92828828193,0.146560278096,-0.0273221987534,-0.141827566185,-0.00125751934955,-0.222569659474,-0.0193458501699,0.0841537967786,-0.0395271492708,0.573792967878,0.818985987882,0.0020805212292,0.0,0.818942783287,-0.5737321162,-0.0120384153705,0.0,-0.00866579850055,0.00861155172914,-0.999925369772,0.0,0.650410507035,0.246497930597,0.303394915391,1.0,-0.0287325714286,-0.0377628081633,1.054
0.456445034274,0.485843155419,-0.124210738701,-1.45313685423,0.0736370855016,1.92982341728,0.145976954418,-0.0253281165926,-0.15685271616,0.000284334365915,-0.234209993207,-0.00513253718413,0.0827223895495,-0.0332142746186,0.573794361774,0.818984651383,0.00221767810312,0.0,0.81894337661,-0.573733080473,-0.0119517856048,0.0,-0.00851613763941,0.00867418699216,-0.99992611421,0.0,0.649932339467,0.245848569624,0.303448871301,1.0,-0.03154,-0.0414525714286,1.071
0.456017632361,0.483225865689,-0.124244474038,-1.45720414156,0.0733852628514,1.93125141193,0.145361174055,-0.0289232545448,-0.161055290797,-0.00728484283254,-0.260226144181,-0.0236195965924,0.0939652138248,-0.0440467426816,0.57379601276,0.818983553475,0.00219585490346,0.0,0.818941934668,-0.573734760033,-0.0119699487768,0.0,-0.0085435173872,0.00866675340581,-0.999925945106,0.0,0.649415432177,0.245160303838,0.303454278035,1.0,-0.0341822857143,-0.0449252897959,1.087
0.455531530328,0.480181835297,-0.124292925369,-1.46195393691,0.0730949123691,1.93292370344,0.144652943146,-0.0327017101946,-0.178964859869,-0.00337335192918,-0.287789646339,-0.0172054012931,0.106669790712,-0.0415414426571,0.573808900979,0.818974591447,0.00217039695822,0.0,0.81893260271,-0.573747713257,-0.0119875206957,0.0,-0.00857237961747,0.00865612156294,-0.99992579018,0.0,0.648776356886,0.244305929437,0.303452913761,1.0,-0.0371548571429,-0.0488320979592,1.105
0.454950288277,0.47669226288,-0.124328254103,-1.46726142481,0.0727788903751,1.93487145794,0.143885861473,-0.0261864275096,-0.196637129091,-0.0022632860867,-0.305981791467,-0.0120977957527,0.114834744626,-0.0383908040698,0.573848087739,0.818946844648,0.00227700259158,0.0,0.81890613331,-0.573786344134,-0.0119466737481,0.0,-0.00847734099254,0.00872039516763,-0.999926041964,0.0,0.648145885716,0.243462193134,0.303511145151,1.0,-0.0399622857143,-0.0525218612245,1.122
0.454425299229,0.473604248485,-0.124354527092,-1.47200982126,0.0724774949786,1.93660554694,0.143194884949,-0.0337854727944,-0.210976995252,-0.00108967496171,-0.319164899687,-0.0259483186695,0.109074799248,-0.0501862062492,0.573878044914,0.818925694159,0.00233321952014,0.0,0.81888574878,-0.573816106838,-0.0119143980246,0.0,-0.00841832981028,0.00874822008886,-0.999926297468,0.0,0.647548264639,0.242654748382,0.303538510985,1.0,-0.0424394285714,-0.0557775346939,1.137
0.453765280817,0.469666422372,-0.124368114723,-1.47802640321,0.0721138775962,1.93875772922,0.142285193839,-0.0367402292157,-0.230618205087,-0.000564983039332,-0.335229015584,-0.0214817429077,0.130412533589,-0.0508342706277,0.573872168449,0.818929602501,0.0024056866254,0.0,0.818890323228,-0.573809654107,-0.0119107631144,0.0,-0.0083738315146,0.00880541848621,-0.99992616905,0.0,0.646770322019,0.241647701567,0.303582735534,1.0,-0.045412,-0.0596843428571,1.155
0.453115136657,0.465707382378,-0.124372043591,-1.48400244781,0.0717167298368,1.94098411629,0.141312895878,-0.0352561070871,-0.238872509359,-0.00122005793844,-0.36524268948,-0.0288214646947,0.126943237631,-0.0566550107527,0.573785663025,0.818989704179,0.00257376303607,0.0,0.8189527524,-0.573722665196,-0.0118084578984,0.0,-0.00819453702261,0.00888348520156,-0.99992696396,0.0,0.646008748348,0.240658247335,0.30366317407,1.0,-0.0482194285714,-0.0633741061224,1.172
0.452437050481,0.461823477284,-0.124383809227,-1.49008089743,0.0713137501457,1.94306326127,0.140400347878,-0.0460428214867,-0.245909052393,-0.00430968731354,-0.394481267818,-0.0192683069498,0.141299072511,-0.0572606156593,0.573776297007,0.818996585739,0.0024699074224,0.0,0.818958088904,-0.573713487195,-0.011884028425,0.0,-0.00831611961564,0.00884169471567,-0.999926330581,0.0,0.645192345152,0.23962378217,0.30362736167,1.0,-0.0508617142857,-0.0668468244898,1.188
0.451686215043,0.457475779195,-0.124395343944,-1.49677120185,0.0708466072971,1.94541695607,0.139399859648,-0.0485588962213,-0.262971413124,-8.6460794889e-05,-0.403672421287,-0.0298917137676,0.141573763712,-0.0616275435455,0.573761689242,0.819006851531,0.00245926901597,0.0,0.818968317735,-0.573699030372,-0.0118770365452,0.0,-0.00831665417791,0.00882882194244,-0.999926439878,0.0,0.644303151193,0.238485849678,0.303639265815,1.0,-0.0536691428571,-0.0705365877551,1.205
0.450871476735,0.452966026955,-0.124420983184,-1.50376133189,0.0703753325591,1.9479099079,0.138279013958,-0.0503696601394,-0.270434214675,-0.00499152447734,-0.407614302183,-0.0297918040768,0.158105102592,-0.0732136694168,0.573721082459,0.819035311632,0.00245453524907,0.0,0.818996758134,-0.573658491595,-0.0118740089554,0.0,-0.00831732777088,0.00882279554889,-0.999926487467,0.0,0.643380844633,0.237275241292,0.30362792328,1.0,-0.0564765714286,-0.0742263510204,1.222
0.450004429208,0.448146181152,-0.124482653574,-1.51098797382,0.0698788978947,1.95059075083,0.13717549393,-0.0533090974442,-0.285360163253,-0.00190704395592,-0.436823840386,-0.0280608717603,0.155359029077,-0.0625788415414,0.573764145288,0.819004512465,0.00265726269518,0.0,0.818969075622,-0.573701315874,-0.0117132506543,0.0,-0.00806888538771,0.00889703051878,-0.999927865367,0.0,0.642457092804,0.235995816965,0.303728434454,1.0,-0.059284,-0.0779161142857,1.239
0.449084893038,0.443176600124,-0.124503404688,-1.51869436519,0.0693709239361,1.9531231382,0.136014299547,-0.0553175498285,-0.294712483339,-0.00218969133714,-0.462540084157,-0.0315576546977,0.148652413387,-0.0678326153724,0.573786036584,0.818989710823,0.00248690360629,0.0,0.818951590112,-0.573723325027,-0.0118569082606,0.0,-0.0082840507552,0.00884015226012,-0.999926610413,0.0,0.641379481953,0.234643567502,0.303684119805,1.0,-0.0620914285714,-0.081605877551,1.256
0.448127001988,0.438048198759,-0.124522261982,-1.5266676893,0.0688224970742,1.95588300036,0.134715814128,-0.0568236371754,-0.298746573753,0.000405917405195,-0.47034055318,-0.0233732083405,0.170517357671,-0.0778901541064,0.573721658904,0.819035067922,0.00240052497805,0.0,0.818995707236,-0.573659169299,-0.0119136857772,0.0,-0.00838080463143,0.00880132867277,-0.999926146637,0.0,0.640283197009,0.233249226553,0.303635111777,1.0,-0.0648988571429,-0.0852956408163,1.273
0.447210390052,0.433257881939,-0.124542815463,-1.53376477396,0.0683434478746,1.95850731948,0.13355098124,-0.0597627241578,-0.319747308715,-0.0029157493221,-0.473994322763,-0.0362628484396,0.178917512533,-0.0788154181333,0.573711484673,0.819041396728,0.00265889110074,0.0,0.819005599622,-0.573648235928,-0.0117590861032,0.0,-0.00810606618363,0.00892414126432,-0.999927323056,0.0,0.639352777436,0.231981728977,0.303753557026,1.0,-0.067376,-0.0885513142857,1.288
0.445978929531,0.427139296159,-0.124589555968,-1.54325767587,0.0676506749786,1.9617326466,0.132036152042,-0.0616740191245,-0.330593608363,-0.00380992674994,-0.512178644906,-0.0417541686628,0.166401977922,-0.0885183297265,0.573728378676,0.819030081199,0.00249409170368,0.0,0.81899229088,-0.573665900178,-0.0118241004959,0.0,-0.00825367753578,0.00882663382491,-0.999926981005,0.0,0.638036976716,0.230244955625,0.303684000188,1.0,-0.0705137142857,-0.0926751673469,1.307
0.444814952657,0.421369809735,-0.124693079644,-1.55211782067,0.0670145757882,1.96462498786,0.130569330559,-0.0693777451071,-0.344622010513,-0.00793354725862,-0.52522337697,-0.0365786487779,0.166381767631,-0.0867302874446,0.573753517006,0.81901305645,0.00229390275526,0.0,0.818972733985,-0.573691891304,-0.0119172875471,0.0,-0.00844458327281,0.00871639727195,-0.999926354004,0.0,0.636787533017,0.2285775108,0.303641968622,1.0,-0.0733211428571,-0.0963649306122,1.324
0.443662083254,0.415718292963,-0.124729446488,-1.56049587371,0.0664325272286,1.96767589813,0.129235328931,-0.0754322530589,-0.355322319199,0.000876172149298,-0.524404298228,-0.0330696313334,0.200638986401,-0.0896593026633,0.573819901496,0.818965790781,0.00254972139202,0.0,0.818929061534,-0.57375756761,-0.011755538554,0.0,-0.00816461917817,0.00883377299933,-0.999927649107,0.0,0.635659529057,0.2270321827,0.303752193477,1.0,-0.0759634285714,-0.0998376489796,1.34
0.442373751669,0.409632752394,-0.124745487972,-1.56970613231,0.0658091522007,1.97085991453,0.127651707512,-0.0755231810381,-0.359539141065,-0.000517707544685,-0.548745092681,-0.0381424298141,0.180934636948,-0.0874749527934,0.573794409389,0.818983486972,0.00260206119964,0.0,0.818947128803,-0.573731551395,-0.0117666503611,0.0,-0.00814396453036,0.00888275976349,-0.999927383574,0.0,0.634365963231,0.225328152361,0.303763635758,1.0,-0.0787708571429,-0.103527412245,1.357
0.441112205456,0.403764473552,-0.124817244639,-1.57876641145,0.0651554783442,1.97382472823,0.126191662311,-0.0822721435834,-0.371659581977,-0.00576423070073,-0.576440421184,-0.0447336572063,0.181283403533,-0.0941240600206,0.573869454254,0.818931584077,0.00237843976775,0.0,0.818892179719,-0.57380728857,-0.0118970786852,0.0,-0.00837828872746,0.00877522472833,-0.999926397146,0.0,0.632973010463,0.223496652097,0.303668671109,1.0,-0.0815782857143,-0.10721717551,1.374
0.43969247495,0.397220696989,-0.124874698465,-1.58836408554,0.0644705973186,1.97727011556,0.124523233331,-0.0858403671669,-0.385841550621,0.000412020402876,-0.568883618309,-0.0425026399914,0.203227361501,-0.0956788768477,0.573893999169,0.818913412708,0.00269204501796,0.0,0.81887846431,-0.573831070835,-0.0116922938258,0.0,-0.00803035177305,0.0089147665902,-0.999928017603,0.0,0.631732053295,0.221772946411,0.303814051893,1.0,-0.0842205714286,-0.110689893878,1.39
0.438211199321,0.390607268594,-0.124892571059,-1.5983997736,0.0637032269367,1.98058615991,0.122836596161,-0.0908465480764,-0.380268249788,-0.000892906923103,-0.59278066063,-0.0374909825011,0.191315413803,-0.0982281113042,0.573909797348,0.818902738966,0.00256817510036,0.0,0.818866204071,-0.573847335292,-0.0117525532941,0.0,-0.00815061456907,0.00884806762788,-0.999927636972,0.0,0.630260650738,0.219857820045,0.303770893778,1.0,-0.087028,-0.114379657143,1.407
0.436692879437,0.383796898913,-0.124931113953,-1.60869724545,0.0629227151248,1.98389632703,0.120978929885,-0.0888426550771,-0.408771959037,-0.00356117570462,-0.607546702202,-0.0380822672571,0.201410589694,-0.10903167359,0.573823012263,0.81896401413,0.00241682839135,0.0,0.818925329285,-0.573760934207,-0.0118508368856,0.0,-0.00831888739531,0.00877965394126,-0.999926854219,0.0,0.628631159583,0.217772830152,0.303735991425,1.0,-0.0900005714286,-0.118286465306,1.425
0.435196926069,0.377185700619,-0.124936609435,-1.61839915777,0.0622479009105,1.98728900347,0.119273879379,-0.0990845433023,-0.407369923668,0.00038748716273,-0.620002898055,-0.0404207585965,0.207800870719,-0.118700036352,0.57383393546,0.81895562758,0.00265357699072,0.0,0.81891983275,-0.573770768721,-0.0117541223611,0.0,-0.00810371576672,0.00891815281986,-0.999927395535,0.0,0.627310774548,0.21603315459,0.303821124807,1.0,-0.0924777142857,-0.121542138775,1.44
0.433507553727,0.370062051734,-0.124982585281,-1.62914503557,0.0614077001329,1.99074888829,0.117380881828,-0.101121326483,-0.42406943537,-0.00272223421487,-0.642825858473,-0.0450237427565,0.200838561768,-0.101300392109,0.573851125261,0.81894413168,0.00247833105897,0.0,0.818906053373,-0.573788602363,-0.0118432448206,0.0,-0.00827707709077,0.0088259496004,-0.999926793625,0.0,0.625686713726,0.213912185942,0.303759882623,1.0,-0.0952851428571,-0.125231902041,1.457
0.431781767417,0.362661038858,-0.125068871284,-1.63992502686,0.0605710432649,1.99433260658,0.115460485098,-0.102695950347,-0.438433639236,-0.000341259607957,-0.632587643128,-0.0506115396007,0.215828064772,-0.12139339215,0.573894111316,0.818913548042,0.00262616295513,0.0,0.818877834312,-0.573831515918,-0.0117145512869,0.0,-0.00808638537647,0.00887358947761,-0.999927932294,0.0,0.623986837757,0.211635891762,0.30387007638,1.0,-0.0982577142857,-0.129138710204,1.475
0.429952044642,0.355216610588,-0.125072332746,-1.65098062463,0.0597569975943,1.99794972796,0.113358966766,-0.112457481127,-0.439520255287,-0.000448021991158,-0.652959579487,-0.0544508032332,0.216057926511,-0.128011900907,0.573830636645,0.818958053813,0.00261790803254,0.0,0.818921673804,-0.573767467141,-0.0117869726967,0.0,-0.00815112269337,0.00890775917651,-0.999927102856,0.0,0.622387659222,0.209572940686,0.303852969766,1.0,-0.1009,-0.132611428571,1.491
0.428031781473,0.347612718067,-0.125130743541,-1.66226019391,0.0588965230027,2.00157640938,0.111258833297,-0.116219889468,-0.461167388167,-0.00391584527892,-0.643727952169,-0.0511481345672,0.224637797072,-0.130568109115,0.573861066098,0.818936917943,0.00255893495516,0.0,0.818899533473,-0.573797854743,-0.0118457955032,0.0,-0.00823280637929,0.00889352270507,-0.99992656038,0.0,0.620648377814,0.207276946354,0.303829147726,1.0,-0.103707428571,-0.136301191837,1.508
0.426180761816,0.340251236835,-0.125151808994,-1.67290455269,0.0580623282318,2.00516313544,0.109279211507,-0.118203021037,-0.458643075356,0.0011760986888,-0.679417459234,-0.0604966583751,0.220266621527,-0.127937605131,0.573874282509,0.818926947769,0.00277650730689,0.0,0.818892614792,-0.573810522448,-0.0117096827043,0.0,-0.00799633956238,0.00899372024587,-0.999927583153,0.0,0.618912031153,0.204985000183,0.303925638385,1.0,-0.106514857143,-0.139990955102,1.525
0.42414969675,0.332362361949,-0.125167087875,-1.68468662248,0.0570976379524,2.00876901483,0.10700887371,-0.118569946832,-0.467385288284,-0.00153782424172,-0.703458203141,-0.0575239355971,0.212838441685,-0.126865371799,0.573789358396,0.818987299076,0.00251456636687,0.0,0.818949223909,-0.573726203906,-0.0118810147359,0.0,-0.00828788712024,0.0088766729005,-0.999926255083,0.0,0.617120625386,0.202733383181,0.30381977907,1.0,-0.109157142857,-0.143463673469,1.541
0.421909624298,0.323731665038,-0.125165269207,-1.69706767407,0.0560853452456,2.01284471773,0.104559469222,-0.128206866693,-0.476961114028,0.000160162855569,-0.709488470827,-0.0531616946272,0.226836280162,-0.135294527127,0.573702843171,0.819047143909,0.00275148932621,0.0,0.819012445239,-0.573639147711,-0.011725598403,0.0,-0.00802561040846,0.00898068604883,-0.999927465797,0.0,0.615175903417,0.200199634861,0.30393360009,1.0,-0.112129714286,-0.147370481633,1.559
0.419799182912,0.315999377946,-0.125196522594,-1.70839382365,0.0551851249152,2.01634240678,0.102372440678,-0.133594240039,-0.482476969352,-0.00706557276677,-0.723989159962,-0.0544831630763,0.219495705672,-0.150615827058,0.573740067189,0.819021371165,0.00266003345571,0.0,0.818985046443,-0.573676213988,-0.0118254855572,0.0,-0.00815948456919,0.0089634550757,-0.999926536944,0.0,0.613337997995,0.197823700424,0.303896984353,1.0,-0.114772,-0.1508432,1.575
0.41763566509,0.308043627695,-0.125282219419,-1.71971017421,0.0542120132181,2.01995297442,0.100015297776,-0.139303263816,-0.505647916181,0.00149310502542,-0.713877462278,-0.0679615088789,0.229391111944,-0.139635051524,0.57368672419,0.819058233715,0.00281054661482,0.0,0.819024494702,-0.573623041722,-0.0116717601169,0.0,-0.00794780994754,0.00899801358766,-0.999927931437,0.0,0.61153127585,0.19539293957,0.304002901257,1.0,-0.117414285714,-0.154315918367,1.591
0.415064683424,0.299054809124,-0.125314391684,-1.73282077761,0.0531415454352,2.02391793205,0.0973584231873,-0.142952794916,-0.507848889747,-0.00211869635247,-0.742295451363,-0.0598418553429,0.212904337003,-0.146567417013,0.573692032733,0.819054998729,0.00266599624844,0.0,0.819018827938,-0.573628247625,-0.0118127013019,0.0,-0.00814611813166,0.00896052626254,-0.999926672176,0.0,0.609354585684,0.192584022535,0.303939383358,1.0,-0.120386857143,-0.158222726531,1.609
0.412664289092,0.290826758225,-0.125419023307,-1.74447080216,0.0522137808468,2.02754056728,0.0949638667734,-0.156777564147,-0.524280177475,-0.00582170013625,-0.730918315915,-0.0626936776057,0.237067264027,-0.152513603511,0.573824238119,0.81896174375,0.00285533219218,0.0,0.818927938695,-0.573759647053,-0.0117322435829,0.0,-0.00797013772176,0.00907073168149,-0.999927096708,0.0,0.607340360552,0.189836279649,0.304040049929,1.0,-0.123194285714,-0.161912489796,1.626
0.410070566345,0.282073596255,-0.125464636901,-1.75705501332,0.051143767304,2.031383849,0.0922810660426,-0.15544187214,-0.524513275094,0.000297758051364,-0.7371875522,-0.0659867658141,0.226935775118,-0.152971673929,0.573789469866,0.818986275005,0.00280580213875,0.0,0.818951666046,-0.573724877682,-0.0117762604387,0.0,-0.00803499187982,0.0090550849087,-0.999926719486,0.0,0.605345610758,0.187241148011,0.304010316285,1.0,-0.125836571429,-0.165385208163,1.642
0.407339364301,0.273104919972,-0.125512745155,-1.76979798053,0.0500125000699,2.03520474695,0.0895338624519,-0.165488226948,-0.540902309741,-0.00441934177584,-0.745421043186,-0.069569145165,0.236371787787,-0.158089735066,0.573793517878,0.818983547592,0.00277389891003,0.0,0.818948639444,-0.573729169789,-0.011777630803,0.0,-0.00805437421023,0.00902978280036,-0.99992679236,0.0,0.60331233315,0.184559882772,0.304021412945,1.0,-0.128478857143,-0.168857926531,1.658
0.404513623278,0.264072968697,-0.125649874773,-1.78260908291,0.0488795704146,2.03910326865,0.0867166686097,-0.17011890302,-0.540353959262,-0.00747637902056,-0.749470976787,-0.0531384116359,0.220701744315,-0.165377176302,0.573865264542,0.818933046519,0.00284084031715,0.0,0.818899420134,-0.573801135994,-0.0116937135767,0.0,-0.007946444077,0.00903715251677,-0.999927589329,0.0,0.601030796209,0.18144738894,0.304047687415,1.0,-0.131451428571,-0.172764734694,1.676
0.401733810764,0.255404153017,-0.125760676491,-1.79486170655,0.0477861368806,2.04262622701,0.0840015007092,-0.17216929331,-0.544379693021,-0.0058044712246,-0.750759421774,-0.0632975606764,0.224152717857,-0.171404407413,0.57395059217,0.818873548126,0.00275260409571,0.0,0.818838700708,-0.57388667798,-0.0117477641031,0.0,-0.00804040525612,0.00899674814025,-0.999927202553,0.0,0.598905974422,0.178601116373,0.304043073883,1.0,-0.134093714286,-0.176237453061,1.692
0.398718085418,0.246103782005,-0.125778535566,-1.80795476974,0.0465835248341,2.04649414801,0.0810179376553,-0.181720486564,-0.54418191392,0.000683752838024,-0.757871847546,-0.065461316928,0.225040973478,-0.179337332244,0.57390309037,0.818906789914,0.0027675255496,0.0,0.818872160474,-0.573839156271,-0.0117368834198,0.0,-0.00802345347491,0.00900225661325,-0.999927289142,0.0,0.596474356958,0.175437944456,0.304041086431,1.0,-0.137066285714,-0.180144261224,1.71
0.395422422093,0.236011989737,-0.125797195521,-1.82193066528,0.0453840154157,2.05053658781,0.0777558356036,-0.186646661979,-0.57532346578,0.000382752324815,-0.775930526351,-0.0625551928735,0.225219099847,-0.180396601288,0.573869227834,0.81893002389,0.00291070750688,0.0,0.818896756042,-0.573804229007,-0.0117284534033,0.0,-0.00793475911762,0.00911434291278,-0.99992698151,0.0,0.594132178231,0.172403823361,0.304116076995,1.0,-0.139873714286,-0.18383402449,1.727
0.392435042649,0.227014045437,-0.125796616708,-1.83449595253,0.044204992744,2.0541685616,0.0748221377388,-0.192948985712,-0.576705633051,0.000546388357522,-0.818641103707,-0.0765113179091,0.216349232437,-0.188348594607,0.573789384877,0.81898592785,0.00292210317396,0.0,0.818952866344,-0.573724424076,-0.0117147269245,0.0,-0.00791786698271,0.00911502621861,-0.999927109183,0.0,0.59186849349,0.169520425469,0.304108870066,1.0,-0.142516,-0.187306742857,1.743
0.389070845531,0.217231470923,-0.12585104838,-1.84798042994,0.0429504629893,2.05788451922,0.0715227295973,-0.200783415087,-0.597851770757,-0.00933913835753,-0.761773399375,-0.066401506619,0.227089436088,-0.195035129388,0.573740233604,0.81902040887,0.00290879707031,0.0,0.818986922275,-0.573675035913,-0.011752498235,0.0,-0.00795698484248,0.00912532353365,-0.999926704745,0.0,0.589406293672,0.166315360971,0.304138414543,1.0,-0.145323428571,-0.190996506122,1.76
0.385611075588,0.207405510655,-0.125946942578,-1.86149791247,0.0417095701389,2.06168421797,0.0682249972107,-0.203514146547,-0.589810326936,-0.0053076701196,-0.828402678033,-0.0711568442595,0.222364235024,-0.201815632761,0.573794030692,0.818982472185,0.00297783451584,0.0,0.818949713454,-0.573728389134,-0.0117409214178,0.0,-0.0079072928885,0.00917574400933,-0.999926637529,0.0,0.586937833911,0.163056630455,0.304160247876,1.0,-0.148130857143,-0.194686269388,1.777
0.382222828802,0.19804107693,-0.126006559894,-1.87436678094,0.0404667849602,2.06510569795,0.0649593122706,-0.216539487361,-0.58567782121,-0.00611240309626,-0.820585543986,-0.0752705738415,0.226800338298,-0.199865308362,0.573753363042,0.819011316855,0.00287891702286,0.0,0.818976990548,-0.573687754945,-0.011823522363,0.0,-0.00803215382071,0.00914172852478,-0.999925953911,0.0,0.584525888647,0.159921582784,0.30414443706,1.0,-0.150773142857,-0.198158987755,1.793
0.378460762327,0.187977935857,-0.12614807856,-1.88812597277,0.0391524264235,2.06887352519,0.0614149436069,-0.228321204068,-0.595669941009,-0.00546840326187,-0.785675938511,-0.0786229392291,0.216137391563,-0.216322345287,0.573832830656,0.81895555105,0.0029042671044,0.0,0.818921528174,-0.573767090164,-0.0118154068904,0.0,-0.00801007439398,0.00915861156825,-0.999925976531,0.0,0.581967351168,0.156476701187,0.304141370228,1.0,-0.153580571429,-0.20184875102,1.81
0.374527762591,0.177728281002,-0.126303156508,-1.90189066354,0.0378363670125,2.07254859037,0.0577982364617,-0.232080550827,-0.618857300765,-0.00868614102725,-0.77820549446,-0.0744850401243,0.225949492135,-0.2070589407,0.573985256883,0.818848322276,0.00301610495301,0.0,0.818815672733,-0.573919004401,-0.0117735880225,0.0,-0.00790993513834,0.00922767761305,-0.999926138718,0.0,0.579382129806,0.152949084394,0.304210278347,1.0,-0.156388,-0.205538514286,1.827
0.370796707103,0.168076584548,-0.126318980129,-1.915046978,0.036453924132,2.07595891596,0.0542918223517,-0.236495625659,-0.614452047166,0.000288655645603,-0.814200421597,-0.0875361049154,0.207945148641,-0.223097966597,0.573894348875,0.818912554481,0.00287251511769,0.0,0.818878163565,-0.573828766519,-0.0118256861361,0.0,-0.00803602575384,0.00913911030568,-0.999925946735,0.0,0.576828867646,0.149672928129,0.304151706632,1.0,-0.159030285714,-0.209011232653,1.843
0.366455597745,0.156957329629,-0.126357009821,-1.92976356488,0.035011569896,2.07983493101,0.0502199199163,-0.246286115504,-0.619987056438,-0.000595893534416,-0.776181234789,-0.0773343645797,0.221419647661,-0.229836688773,0.57384556815,0.818945941755,0.00309116456242,0.0,0.818914285825,-0.573779095319,-0.0117341018935,0.0,-0.00783610038896,0.00926513957048,-0.999926373649,0.0,0.573976487326,0.145952156683,0.304250578964,1.0,-0.162002857143,-0.212918040816,1.861
0.362203164092,0.146491795047,-0.12643628377,-1.94392482358,0.0334952104476,2.08330762787,0.0462860247925,-0.24940646945,-0.611169978879,-0.00369523763643,-0.824065144027,-0.0878958323892,0.190884423197,-0.227307962004,0.57380983772,0.818971871153,0.00284452039556,0.0,0.818936885898,-0.573744108564,-0.0118668321348,0.0,-0.00808673059406,0.00913896364949,-0.999925539294,0.0,0.571151028797,0.142305376931,0.304153242202,1.0,-0.164810285714,-0.216607804082,1.878
0.358046819853,0.136367662662,-0.126536099589,-1.9570798973,0.0322048202588,2.08664670997,0.042448581365,-0.263736521786,-0.64188218676,-0.00726066228886,-0.846350440988,-0.0840472892816,0.212254693312,-0.250781941913,0.573847349556,0.818944638649,0.00310566203778,0.0,0.818912864904,-0.573780464223,-0.0117662853786,0.0,-0.00785411933799,0.00929549724254,-0.999925950529,0.0,0.568551691247,0.138840880872,0.304278691831,1.0,-0.167452571429,-0.220080522449,1.894
0.353470727478,0.125665771638,-0.126668469243,-1.97133949781,0.030667365332,2.09005915864,0.0382501045277,-0.277187183268,-0.628563500585,-0.012160273328,-0.859658842723,-0.091482624609,0.192174718806,-0.238429938737,0.573858253418,0.818937625084,0.00293566133753,0.0,0.81890348669,-0.573791795133,-0.0118660113879,0.0,-0.00803321946081,0.00921360926566,-0.999925285604,0.0,0.565659215124,0.135035240306,0.304205687843,1.0,-0.17026,-0.223770285714,1.911
0.348704161851,0.114670747044,-0.126824446441,-1.9854361331,0.0291672673143,2.09353532414,0.0339823062185,-0.279925476228,-0.6435850983,-0.00927650933496,-0.811021587431,-0.0870916446551,0.19863230388,-0.261770972339,0.573980667087,0.818850834704,0.00320175219981,0.0,0.818820678603,-0.573913879617,-0.0116748437649,0.0,-0.00772257421886,0.00932297501745,-0.999926719307,0.0,0.562823833511,0.131169825679,0.304348306936,1.0,-0.173067428571,-0.22746004898,1.928
0.344131523248,0.104409966498,-0.126876677511,-1.99897024125,0.0276891946325,2.09658502085,0.0297915203366,-0.287400066786,-0.639756336565,0.000307855985196,-0.863783533535,-0.0941660311417,0.194040401176,-0.264690057053,0.573905025966,0.818904629578,0.00299595182355,0.0,0.8188711961,-0.573838249431,-0.0118479783021,0.0,-0.00798332623673,0.00925309109902,-0.999925320615,0.0,0.559980856503,0.127530988527,0.304257399006,1.0,-0.175709714286,-0.230932767347,1.944
0.339149001283,0.0932617888915,-0.126885124446,-2.01318667773,0.0261344112358,2.0999340349,0.0252246400903,-0.297779564442,-0.637152082792,-0.00178441011229,-0.827419242881,-0.0883451236773,0.194941696259,-0.276513811991,0.573779298967,0.818991968053,0.0031967549706,0.0,0.818961371702,-0.573712103171,-0.01172353347,0.0,-0.0077676122822,0.00934491957018,-0.999926165613,0.0,0.557008814735,0.123682091811,0.304350717245,1.0,-0.178517142857,-0.234622530612,1.961
0.333965816048,0.0820914003379,-0.126963166966,-2.02764658915,0.0245906348692,2.10302256291,0.0205203569902,-0.316375976114,-0.662801037816,-0.00397569610254,-0.849590070121,-0.0952653335669,0.182476966346,-0.277497769811,0.573748327396,0.819014193848,0.00305842882239,0.0,0.818980614624,-0.573680227101,-0.0119372025216,0.0,-0.00802233261341,0.00935392398933,-0.99992407026,0.0,0.553891929287,0.119696865857,0.304285852861,1.0,-0.181324571429,-0.238312293878,1.978
0.3285899543,0.0707574835698,-0.127117060764,-2.04189423312,0.0229472599908,2.106291984,0.0157186254864,-0.322933330187,-0.652476551929,-0.00926246976183,-0.829312864691,-0.101194023807,0.182461045817,-0.281395714298,0.573793404121,0.818981743734,0.00328324833006,0.0,0.818951960735,-0.573725539114,-0.0117234243607,0.0,-0.0077177356976,0.00941582751323,-0.999925886628,0.0,0.5508749873,0.115618028356,0.304388577459,1.0,-0.184132,-0.242002057143,1.995
0.322949118345,0.0593376423854,-0.127315387246,-2.05638033173,0.0212445731915,2.10922071338,0.0107349354678,-0.336337599885,-0.674876250409,-0.0139345733249,-0.849616116064,-0.10974633644,0.188864394751,-0.298879788512,0.573897619045,0.818909312872,0.00313162056747,0.0,0.818877305716,-0.573829959346,-0.0118272076765,0.0,-0.0078885446876,0.00935219939716,-0.999925150813,0.0,0.547700091543,0.111377911627,0.304361669171,1.0,-0.186939428571,-0.245691820408,2.012
0.317223466091,0.0478277576804,-0.127405440395,-2.07075830624,0.0196042320625,2.11227621851,0.00561658678169,-0.335939890556,-0.66675905212,-0.00792337911695,-0.846056806433,-0.100355581202,0.17515820965,-0.311327390979,0.573877797598,0.818922659876,0.00327069821162,0.0,0.818892452727,-0.573809645555,-0.0117638614861,0.0,-0.00775708390496,0.0094295505496,-0.999925452834,0.0,0.544536963098,0.107220847043,0.304405271012,1.0,-0.189746857143,-0.249381583673,2.029
0.311687320237,0.0369453604816,-0.127457763464,-2.08434343406,0.0180489174119,2.11496459598,0.000698394280611,-0.347320646535,-0.697687238489,0.00555954007005,-0.817482245811,-0.100767900814,0.185048393552,-0.313644669669,0.573846165631,0.818944825662,0.00327072060531,0.0,0.818914015377,-0.573777285658,-0.0118409790195,0.0,-0.00782059387841,0.00947352174639,-0.999924542502,0.0,0.54147341601,0.103279523224,0.304396317553,1.0,-0.18998,-0.249688,2.045
0.305301460865,0.0247344810491,-0.127556501259,-2.09944736328,0.0161699296805,2.11790524944,-0.00496600008016,-0.358502071236,-0.682746063266,-0.00936094558421,-0.845955426072,-0.107117129388,0.156277038854,-0.324240290966,0.573785766136,0.818987251384,0.00324400240927,0.0,0.818956457061,-0.573717428141,-0.0118059725239,0.0,-0.00780795059539,0.00943097728495,-0.999925043478,0.0,0.538041042642,0.0987840126131,0.304400689351,1.0,-0.18998,-0.249688,2.063
0.299456926696,0.013897607061,-0.127726952712,-2.11257378545,0.0145797811967,2.12034450322,-0.0100488003028,-0.3634533355,-0.685873149017,-0.00961999945884,-0.837772733064,-0.104966636402,0.150930938942,-0.31755675911,0.573911226775,0.818898915593,0.00334913770102,0.0,0.818869560464,-0.573842598631,-0.0117499720592,0.0,-0.00770030975085,0.00948613043367,-0.999925356494,0.0,0.535031396392,0.0947251969308,0.304478836484,1.0,-0.18998,-0.249688,2.079
0.293499412533,0.00322289481613,-0.127848460155,-2.12567097014,0.0130220859252,2.12265224016,-0.015245853669,-0.372853519404,-0.673644031311,-0.00618769349275,-0.846505053904,-0.0926903597973,0.146895683697,-0.317132364794,0.573991938383,0.818842615066,0.00328227422762,0.0,0.818811535035,-0.573922487815,-0.0118909618972,0.0,-0.0078532065437,0.00951306342328,-0.999923911491,0.0,0.531962333605,0.0906798201168,0.304435980967,1.0,-0.18998,-0.249688,2.095
0.286820631609,-0.0088181789094,-0.12784563522,-2.13998517569,0.0112413345373,2.12524960532,-0.021181611783,-0.371529369117,-0.673232582525,-0.000565240858599,-0.780437095374,-0.11211490173,0.141619315698,-0.330862848018,0.573842270209,0.818946535548,0.00351677937606,0.0,0.81891903918,-0.573772694405,-0.0117153457025,0.0,-0.00757655566972,0.00960290304748,-0.99992518723,0.0,0.528590179243,0.086291860444,0.304554622129,1.0,-0.18998,-0.249688,2.113
0.280330773524,-0.0199908502769,-0.127905676823,-2.15359514246,0.00949774405236,2.12741982611,-0.0268712778472,-0.382959924983,-0.655488694481,-0.00276560551657,-0.825567388263,-0.0957417901058,0.120197462993,-0.339385655571,0.573785923736,0.81898695083,0.00329165517029,0.0,0.81895579465,-0.57371622801,-0.0119097870948,0.0,-0.00786563566748,0.0095295717392,-0.999923656605,0.0,0.525285550545,0.0820496304839,0.304454290077,1.0,-0.18998,-0.249688,2.13
0.274102634272,-0.0306100412075,-0.128046467368,-2.1659345548,0.00791762329851,2.1294838476,-0.0322629321088,-0.387629807944,-0.66518281479,-0.0101725224796,-0.770491453269,-0.0963981795365,0.130354833742,-0.332154884654,0.573879168747,0.818920563469,0.0035436292228,0.0,0.818893348224,-0.573809413749,-0.0117127208021,0.0,-0.00755856563793,0.00962372616334,-0.999925123187,0.0,0.522317180079,0.0780331299143,0.304594799446,1.0,-0.18998,-0.249688,2.146
0.267307358058,-0.041634690561,-0.128193556094,-2.17917207341,0.00623292588215,2.13147028388,-0.0381402247367,-0.401009361891,-0.64993410974,-0.00879904198844,-0.771347356779,-0.0939405997668,0.111391674273,-0.350445401049,0.573979974824,0.818850576434,0.00338657286198,0.0,0.818820349145,-0.573909532796,-0.0119092776475,0.0,-0.00780848275504,0.00960886665798,-0.999923345701,0.0,0.519038619986,0.0737131386379,0.304495536518,1.0,-0.18998,-0.249688,2.163
0.26054132477,-0.0527168910691,-0.128228383504,-2.19192591671,0.00459020752888,2.13344886931,-0.0440786145445,-0.398759826726,-0.650267528843,-0.00135678820452,-0.754395531301,-0.106410275314,0.113786519359,-0.360230630502,0.573916217512,0.81889423571,0.00362669251529,0.0,0.81886759039,-0.573845531801,-0.0117440173017,0.0,-0.00753609187046,0.00971004989783,-0.999924458272,0.0,0.515870886205,0.0695497849389,0.304607837861,1.0,-0.18998,-0.249688,2.18
0.254006034852,-0.0629578298911,-0.128312179889,-2.20405248178,0.00299434069194,2.13508932553,-0.0498006084865,-0.399215379291,-0.64330115492,-0.00924295935457,-0.760773205636,-0.0983113805616,0.0968722945743,-0.356132980085,0.573887789718,0.81891491715,0.0034511133258,0.0,0.818885072401,-0.573816560883,-0.011938993147,0.0,-0.00779686371775,0.00967789390367,-0.999922770661,0.0,0.512771589324,0.0655506020751,0.304505979519,1.0,-0.18998,-0.249688,2.196
0.246925451864,-0.0739111505677,-0.128483451669,-2.21657244849,0.00127365654736,2.1367650237,-0.0559632434579,-0.420336797709,-0.652588472812,-0.00973087999896,-0.726426893728,-0.10597234237,0.108084352619,-0.369763222875,0.573941904734,0.818876724649,0.00351379003605,0.0,0.818848007671,-0.573870832898,-0.0118724211088,0.0,-0.00770573605588,0.00969152654728,-0.999923345035,0.0,0.509564549529,0.0612552729983,0.304557957402,1.0,-0.18998,-0.249688,2.213
0.239710761997,-0.0846916536493,-0.128605484293,-2.22900650103,-0.000336443607884,2.13832916106,-0.0622361627408,-0.41711860859,-0.641958192145,-0.00530266792539,-0.730060971961,-0.0965715346145,0.0905081060556,-0.365670090602,0.574008452091,0.818830130562,0.00350158722746,0.0,0.818800311007,-0.573936232584,-0.0119999384908,0.0,-0.00781637390915,0.00975535464993,-0.999921865625,0.0,0.506318751969,0.0569879651545,0.304514493965,1.0,-0.18998,-0.249688,2.23
0.232485342675,-0.0954932689972,-0.128642487657,-2.24119670421,-0.00198205577166,2.13975629508,-0.0686185672855,-0.437055776232,-0.633960353632,-0.00622280369971,-0.696394681943,-0.100987079283,0.0930200049769,-0.377714836516,0.573918957936,0.818892713344,0.00353562645564,0.0,0.818862887245,-0.573846060876,-0.0120423092439,0.0,-0.00783260477928,0.00980669166929,-0.999921236449,0.0,0.503267557878,0.0530638152465,0.304532518468,1.0,-0.18998,-0.249688,2.246
0.225087111355,-0.106186569307,-0.128750220175,-2.25322219105,-0.00372029294774,2.14108936328,-0.0750084929865,-0.435585037834,-0.629520228211,-0.00608239792778,-0.713158716751,-0.0958050756476,0.0767535931713,-0.38493831284,0.573916125079,0.818894754901,0.0035225943411,0.0,0.818865197878,-0.573843826948,-0.0119915336174,0.0,-0.00779853511096,0.00976685246177,-0.999921892671,0.0,0.499855311095,0.0485705167948,0.304549164938,1.0,-0.18998,-0.249688,2.264
0.217467897112,-0.11685658761,-0.128943179552,-2.26512039408,-0.00539799223854,2.14227044484,-0.0815829061089,-0.452944676813,-0.632175040679,-0.0110782720426,-0.674805057552,-0.103719894642,0.0771411454902,-0.385070866221,0.574049892616,0.818801051879,0.003507867106,0.0,0.818770904345,-0.573977132172,-0.0120500971843,0.0,-0.00785334794952,0.00978968499916,-0.999921240395,0.0,0.49661007335,0.0442398918855,0.304550338677,1.0,-0.18998,-0.249688,2.281
0.210313946072,-0.126797339884,-0.129007733446,-2.27608808626,-0.00687159203827,2.14338752115,-0.0879122149277,-0.44477338344,-0.613079616144,-0.00501056621597,-0.688590086591,-0.0942156604661,0.0656430608544,-0.399798417619,0.573986801336,0.818844729292,0.00363429544022,0.0,0.818815888836,-0.573913141897,-0.0120412893174,0.0,-0.00777432605661,0.00988755035641,-0.999920894972,0.0,0.493589401879,0.0403029745801,0.304574455975,1.0,-0.18998,-0.249688,2.297
0.202547096428,-0.13730285723,-0.12907413257,-2.28767056588,-0.00858640684023,2.14435932637,-0.0947006881715,-0.461652472655,-0.618406624591,-0.00776124269496,-0.685180577941,-0.107324555535,0.0596987088903,-0.399140841825,0.573920736363,0.818891437201,0.00354250660902,0.0,0.81886122619,-0.573847218875,-0.0120999394093,0.0,-0.00787583084163,0.00984541699616,-0.999920516368,0.0,0.490326466361,0.0360750257569,0.304551347326,1.0,-0.18998,-0.249688,2.314
0.194661763313,-0.14779666977,-0.129223832898,-2.29885855442,-0.0101876101775,2.14542968529,-0.10160316691,-0.46314042933,-0.607293320461,-0.0107115184245,-0.662922653435,-0.0982745447323,0.0574808481507,-0.402000386812,0.573967882978,0.818857059575,0.00383825404038,0.0,0.818831673233,-0.573894526505,-0.0118537023357,0.0,-0.00750387932751,0.00994671991844,-0.999922374266,0.0,0.487187792837,0.0318317252637,0.304673962419,1.0,-0.18998,-0.249688,2.331
0.186632375906,-0.158144714468,-0.129355730336,-2.31015381323,-0.0118650481993,2.14612646554,-0.108674558224,-0.47473185598,-0.604639720079,-0.00606617169864,-0.656962088873,-0.0934762724356,0.0413398997488,-0.413142801178,0.573949860067,0.818870319372,0.00370203753784,0.0,0.818842275233,-0.573875841091,-0.0120247330534,0.0,-0.00772233576887,0.00993316993811,-0.9999208457,0.0,0.484088051933,0.0278169882188,0.304617389058,1.0,-0.18998,-0.249688,2.347
0.178545461167,-0.168509692147,-0.129378027544,-2.32101012586,-0.0134289737262,2.14688570307,-0.115773301475,-0.476583481189,-0.60936717162,-0.00338568503003,-0.63122593454,-0.0897547573017,0.0453393515576,-0.427168703508,0.573871746621,0.818924108274,0.00390771286594,0.0,0.818899316797,-0.573797753537,-0.0118656599995,0.0,-0.00747498208676,0.0100095831403,-0.999921963399,0.0,0.480722670752,0.0234129614258,0.304726168125,1.0,-0.18998,-0.249688,2.365
0.170280923599,-0.178659022599,-0.129497373881,-2.3319240077,-0.0150243247493,2.14746338102,-0.123040679628,-0.493694862174,-0.592692792953,-0.0129451174167,-0.64142190139,-0.0978327843357,0.0225555523628,-0.424984827496,0.573871810809,0.818924433274,0.00382939234051,0.0,0.81889764849,-0.573796808713,-0.0120254109463,0.0,-0.00765075704057,0.0100371179839,-0.999920357918,0.0,0.477455413848,0.0191780975305,0.304662511699,1.0,-0.18998,-0.249688,2.382
0.16278150713,-0.187639553217,-0.129666860545,-2.34135572762,-0.0164542767066,2.14788582952,-0.129596501936,-0.498381590642,-0.59606047362,-0.00974044666605,-0.612990832496,-0.0896097685188,0.031579857998,-0.439760314742,0.573956817916,0.818864726147,0.00385724530037,0.0,0.818838047541,-0.573881361105,-0.0120491566987,0.0,-0.00765317556463,0.0100743488104,-0.999919964997,0.0,0.474409851627,0.0151099204642,0.304678095649,1.0,-0.18998,-0.249688,2.398
0.1538188532,-0.198325746413,-0.12973637947,-2.35237316392,-0.018161307546,2.14845789621,-0.137573657736,-0.504332683628,-0.580742591001,-0.00330906106537,-0.619682304326,-0.0922963883641,0.0279585881748,-0.445269017347,0.573829822587,0.818953000646,0.00400803505957,0.0,0.818929304587,-0.573755207406,-0.0118533946132,0.0,-0.00740788472417,0.0100843228465,-0.999921711774,0.0,0.471238932539,0.0109276672494,0.304750416388,1.0,-0.18998,-0.249688,2.415
0.145162584723,-0.2082680834,-0.129867006519,-2.36285584974,-0.0197099351407,2.14867466386,-0.1452093217,-0.513668007077,-0.586006554359,-0.00380990625748,-0.613935035967,-0.0832606848223,0.0110790976712,-0.452724741254,0.573849321025,0.818939990014,0.00387252058015,0.0,0.818912837817,-0.573772937713,-0.0121295881249,0.0,-0.0077116057406,0.0101320078002,-0.999918933492,0.0,0.467930094024,0.00668912983678,0.30465739843,1.0,-0.18998,-0.249688,2.432
0.136829894667,-0.217673318704,-0.130047139535,-2.37227140748,-0.0211530691026,2.14896695767,-0.152481498312,-0.524831164756,-0.58924875421,-0.00064291779167,-0.576833163679,-0.0917206812752,0.0171413892854,-0.447553845312,0.573999648954,0.818833438188,0.00411708710501,0.0,0.818810265158,-0.573923398923,-0.011934351303,0.0,-0.00740949594079,0.0102216234405,-0.999920305716,0.0,0.46496027033,0.00264516296577,0.304773365976,1.0,-0.18998,-0.249688,2.448
0.128031508828,-0.227444511329,-0.13009866414,-2.38233069318,-0.0227570810145,2.14912010104,-0.16034620564,-0.526389481171,-0.57531394032,-0.00237696795492,-0.586544100474,-0.0929979950983,0.00366642179297,-0.462349250254,0.573845926142,0.818941593785,0.00403310322609,0.0,0.818917034222,-0.573769603005,-0.0120033591157,0.0,-0.00751612271673,0.0101910518705,-0.999919821966,0.0,0.461707329284,-0.00151251786025,0.304727057863,1.0,-0.18998,-0.249688,2.465
0.118958877897,-0.237176131124,-0.130232072224,-2.39219969986,-0.024341631755,2.14914181677,-0.168379538183,-0.541824108427,-0.579220287972,-0.0123123458997,-0.573491631629,-0.0960406496206,0.00272960211133,-0.469477946834,0.573845520944,0.81894211078,0.00398549679346,0.0,0.818916530922,-0.573768836243,-0.0120741393634,0.0,-0.00760141366983,0.0101926762416,-0.999919160663,0.0,0.458453362853,-0.00577003219658,0.304705661712,1.0,-0.18998,-0.249688,2.482
0.110253851502,-0.246315995464,-0.130410979096,-2.40112230447,-0.0257638103366,2.14922857788,-0.176086314203,-0.544604361799,-0.572776592284,-0.00890411258364,-0.560359702351,-0.0859175534202,0.00280334580144,-0.482503176091,0.573933932176,0.818878918284,0.00423149962111,0.0,0.818857605924,-0.573857814305,-0.0118396403407,0.0,-0.00726709266528,0.0102603645293,-0.999920954018,0.0,0.455495913281,-0.0098155562123,0.304819329568,1.0,-0.18998,-0.249688,2.498
0.0999468556452,-0.256958941468,-0.130543505783,-2.4118668095,-0.0274177951584,2.14913940503,-0.185378932944,-0.551185271643,-0.559925937246,-0.00769957961498,-0.559830492221,-0.092591200705,-0.0128852747115,-0.492127134473,0.573836376137,0.818947434622,0.00420233847367,0.0,0.818924627892,-0.573758813518,-0.0120010267729,0.0,-0.00741722415642,0.0103282230344,-0.999919153029,0.0,0.451840456809,-0.0144904747573,0.304742369263,1.0,-0.18998,-0.249688,2.517
0.0904063670803,-0.266429680862,-0.130722716251,-2.42110467246,-0.0289410113415,2.14901156959,-0.193776859825,-0.567708476088,-0.556087569768,-0.0130020284066,-0.531042101166,-0.0859262154444,-0.00564663536285,-0.509358033938,0.573968136086,0.818854551157,0.00430693717476,0.0,0.818833585813,-0.573890853691,-0.0118993149487,0.0,-0.00727223636245,0.0103566918309,-0.99991992355,0.0,0.448643984562,-0.0187894361027,0.304784110184,1.0,-0.18998,-0.249688,2.534
0.081957929856,-0.274722605452,-0.130857700683,-2.4290622567,-0.0302704415253,2.14885529931,-0.201346861439,-0.553300921815,-0.546897300671,-0.000605357707759,-0.538183764184,-0.0894238113374,-0.0144174227828,-0.50378065536,0.573963463384,0.818857088289,0.0044450602432,0.0,0.81883875291,-0.573886925833,-0.0117320071767,0.0,-0.00705601112843,0.0103737307842,-0.999921296111,0.0,0.445847729592,-0.0225365475823,0.30485287107,1.0,-0.18998,-0.249688,2.549
0.0717459720223,-0.284493093322,-0.130987510522,-2.43869350614,-0.0318809064647,2.14848339802,-0.210625226649,-0.577801493053,-0.538148255348,-0.0127056570234,-0.522795446363,-0.0940361892187,-0.0173700589963,-0.51349607641,0.573815724286,0.818961215574,0.00433461045151,0.0,0.818940670172,-0.57373845564,-0.0118789796816,0.0,-0.00724163035742,0.0103663337019,-0.999920045761,0.0,0.442378043147,-0.0269845297255,0.304774185791,1.0,-0.18998,-0.249688,2.567
0.0617475251776,-0.293678351748,-0.131179197197,-2.4474295646,-0.0332590747971,2.14811033087,-0.219481087009,-0.593893150941,-0.536673538693,-0.0155590357994,-0.49766347297,-0.086758350071,-0.0162038398083,-0.52438207671,0.574008941813,0.818824914277,0.00449904194256,0.0,0.818806383314,-0.573930898155,-0.0118396659014,0.0,-0.00711261117363,0.0104801201316,-0.999919785705,0.0,0.439170902234,-0.0312974751161,0.304813052584,1.0,-0.18998,-0.249688,2.584
0.0530376240805,-0.301722531292,-0.13126640316,-2.45492412194,-0.0345302987243,2.14777891427,-0.227416594029,-0.569120417948,-0.525928198926,-0.00483560531686,-0.497810458648,-0.0816961116267,-0.033601801465,-0.532860925096,0.573897874408,0.81890187063,0.00465864039165,0.0,0.81888647861,-0.573820935782,-0.0116282289288,0.0,-0.00684928490289,0.0104885154272,-0.999921536092,0.0,0.436387023173,-0.0349819714502,0.30489632625,1.0,-0.18998,-0.249688,2.599
0.0429287741335,-0.310631531188,-0.131414372393,-2.46350819768,-0.0359925140072,2.14713083676,-0.236496318326,-0.601219016391,-0.519699010634,-0.00559464270722,-0.493105452189,-0.0760584742581,-0.0433186027951,-0.530484380643,0.57391474273,0.81889083596,0.0045181587306,0.0,0.818872362478,-0.573836367388,-0.0118585131486,0.0,-0.00711828100119,0.0105057731053,-0.999919476161,0.0,0.433090190803,-0.0392161508167,0.304810950175,1.0,-0.18998,-0.249688,2.616
0.0313495662978,-0.320523793404,-0.131607740643,-2.47272713124,-0.0375958256628,2.14649220761,-0.246869240099,-0.604195018183,-0.516031205096,-0.00655934410068,-0.477709660536,-0.0900620814265,-0.0205552896747,-0.54895957209,0.574017203527,0.818818625335,0.00458865577871,0.0,0.818801398295,-0.573939064475,-0.0117884401649,0.0,-0.00701912070565,0.0105241678481,-0.999919983717,0.0,0.42949418284,-0.0440177142438,0.304834080985,1.0,-0.18998,-0.249688,2.635
0.0223538907056,-0.328231220898,-0.131667523544,-2.47970093506,-0.0387538319047,2.14603011789,-0.255238322652,-0.61346755302,-0.511163119585,-0.00735483466943,-0.465778534158,-0.0847620053425,-0.0351258337983,-0.558576255316,0.573810907537,0.818961951374,0.00480744159989,0.0,0.818948717841,-0.573733896516,-0.0115395162828,0.0,-0.00669236142018,0.0105587517338,-0.999921859477,0.0,0.426744543828,-0.0476547662526,0.304929708301,1.0,-0.18998,-0.249688,2.65
0.00855104356528,-0.339304481968,-0.131920622044,-2.49005912038,-0.0405267307397,2.14495877126,-0.267629493995,-0.633804901929,-0.507328963456,-0.0143796974547,-0.458235374674,-0.0873732926067,-0.049613338235,-0.564482509088,0.57399239588,0.81883526969,0.004719903121,0.0,0.818819279602,-0.573913112996,-0.0118098680934,0.0,-0.0069616562655,0.01064372708,-0.999919119937,0.0,0.422483727839,-0.0532174739594,0.304842356089,1.0,-0.18998,-0.249688,2.672
0.000450765767575,-0.345779405634,-0.131985327068,-2.49596910998,-0.041575319163,2.14435115799,-0.275096251819,-0.616215418522,-0.491623443498,0.0015609556154,-0.451095932457,-0.0897373471284,-0.0522091920158,-0.579214052901,0.57387087894,0.818920432381,0.00472087221432,0.0,0.818904506155,-0.573791691549,-0.0118004834439,0.0,-0.00695499365589,0.0106381021516,-0.999919226161,0.0,0.420018586281,-0.0564085219008,0.304842688454,1.0,-0.18998,-0.249688,2.685
-0.0090121807247,-0.353225575438,-0.132136381731,-2.50250302712,-0.0427419115362,2.14367111037,-0.28379366372,-0.633793245734,-0.485675849235,-0.00892574680242,-0.431418452191,-0.0787615881416,-0.0488110019858,-0.58004648335,0.573841997374,0.818939604901,0.00490229299018,0.0,0.818927177686,-0.573764030533,-0.0115698666365,0.0,-0.00666239089885,0.0106541014672,-0.999921048218,0.0,0.417238461188,-0.0601351755019,0.304945457454,1.0,-0.18998,-0.249688,2.7
-0.0207615878091,-0.361873835517,-0.132337910212,-2.51038677092,-0.0441928767801,2.14267074837,-0.294415136185,-0.654352762096,-0.474852835237,-0.00439997797585,-0.444154377958,-0.0818589404749,-0.066109850952,-0.592329063135,0.573964361714,0.818854347202,0.00481834537288,0.0,0.818840089975,-0.573885462175,-0.0117102627995,0.0,-0.00682395262121,0.0106669332434,-0.999919821889,0.0,0.413772766568,-0.0647103613268,0.304890526929,1.0,-0.18998,-0.249688,2.718
-0.0309966251439,-0.36953224096,-0.132421715037,-2.51723092073,-0.0453763016731,2.14177611234,-0.303997377544,-0.642994223866,-0.475170979252,-0.00686269360429,-0.423194648719,-0.0743361714909,-0.0510606442601,-0.599840891051,0.573760295715,0.818997146964,0.00485213630232,0.0,0.818982914054,-0.573680672364,-0.0117566808783,0.0,-0.00684524307294,0.01071953981,-0.999919113785,0.0,0.410538948603,-0.0688345939736,0.304881530058,1.0,-0.18998,-0.249688,2.735
-0.0422920815836,-0.377467829712,-0.13262724655,-2.52426724715,-0.0466057760882,2.14075626278,-0.31424307841,-0.663962727145,-0.472543810582,-0.018106639596,-0.418194080348,-0.0735799958891,-0.0634679117787,-0.6005759783,0.57394193188,0.818869556337,0.00490463402522,0.0,0.818855445603,-0.573861222598,-0.0118238447632,0.0,-0.00686773946264,0.0108025945693,-0.999918065696,0.0,0.407483037389,-0.0728767940718,0.304875096748,1.0,-0.18998,-0.249688,2.751
-0.0535944710428,-0.385267339783,-0.132730850631,-2.53090766767,-0.0478904810803,2.13984147824,-0.324711335044,-0.655449261685,-0.45284621068,-0.00689889703556,-0.39063709923,-0.0643779615974,-0.0629238126254,-0.620551603332,0.573853379821,0.818930857296,0.0050295465538,0.0,0.818920080479,-0.573775038715,-0.0115262152045,0.0,-0.0065534712048,0.0107333608707,-0.999920920363,0.0,0.404354250186,-0.0771053174615,0.304979557751,1.0,-0.18998,-0.249688,2.768
-0.0650402396172,-0.392909638412,-0.132931580921,-2.53770695512,-0.0491260805871,2.13871837024,-0.335353512213,-0.675921141305,-0.445629982353,-0.0185613284343,-0.403056989501,-0.0702723331588,-0.0706266173944,-0.619077906328,0.573824916816,0.818951105868,0.0049797530019,0.0,0.818938446821,-0.573744732052,-0.0117281568313,0.0,-0.00674780987124,0.0108082278989,-0.999918821341,0.0,0.401065059341,-0.0813353283479,0.304909285916,1.0,-0.18998,-0.249688,2.785
-0.0753752444657,-0.399548424524,-0.133071069826,-2.54344061665,-0.0502483393524,2.13771120842,-0.34481701472,-0.680423941972,-0.441760217992,0.000499314653268,-0.381607717959,-0.08284286874,-0.0677988567891,-0.629105525756,0.57386496153,0.818923181066,0.00495745309602,0.0,0.818910193416,-0.573784780473,-0.0117417084539,0.0,-0.00677117646791,0.0107980718402,-0.999918773108,0.0,0.398007066958,-0.0853603454388,0.304914453588,1.0,-0.18998,-0.249688,2.801
-0.0876370232783,-0.407318799352,-0.133190156219,-2.55009944653,-0.0514857718387,2.13654348012,-0.356384166884,-0.686078899782,-0.422561627485,-0.00900825070603,-0.354951583518,-0.0676010553184,-0.0620628103582,-0.64837001695,0.573711097227,0.819030797146,0.00498769943226,0.0,0.819018189028,-0.573630822396,-0.0117316895143,0.0,-0.00674764680071,0.0108158252582,-0.999918740292,0.0,0.394805089347,-0.0895285867915,0.304917540726,1.0,-0.18998,-0.249688,2.818
-0.0996796255641,-0.414497997049,-0.133399918021,-2.55605391581,-0.0525700471712,2.13549628559,-0.367425594732,-0.706813006018,-0.42668416921,-0.00734401028161,-0.350851624691,-0.0627527493533,-0.0591793835833,-0.663395907555,0.573938928479,0.818869881757,0.00519326767341,0.0,0.818860786105,-0.573859360622,-0.0115409751084,0.0,-0.0064704762325,0.0108765875448,-0.999919913183,0.0,0.391632269552,-0.0938658338449,0.304998352024,1.0,-0.18998,-0.249688,2.835
-0.110836764376,-0.421143894016,-0.133484408212,-2.56171741177,-0.0536057275666,2.13431507036,-0.377996145305,-0.699946448586,-0.414668903372,-0.00720284238418,-0.348394478066,-0.0701159819089,-0.0775323563605,-0.67124427002,0.573764743092,0.818992024312,0.00517982611863,0.0,0.818981980267,-0.573683953401,-0.0116612396129,0.0,-0.0065790057771,0.0109332029007,-0.999918587565,0.0,0.388569238702,-0.0977676132999,0.304974359642,1.0,-0.18998,-0.249688,2.851
-0.123015376819,-0.427969168808,-0.133713738599,-2.56754687657,-0.0547710766927,2.13305617762,-0.389284738291,-0.720086567839,-0.403029448885,-0.0158512690481,-0.336610888029,-0.0727090558051,-0.0698169311937,-0.668077718727,0.573878502546,0.818912669651,0.005123543819,0.0,0.818900887765,-0.573796224226,-0.011831144651,0.0,-0.00674893409111,0.010985525663,-0.999916881603,0.0,0.385283401393,-0.102050222918,0.304922161484,1.0,-0.18998,-0.249688,2.868
-0.135880201161,-0.43498252434,-0.133813171897,-2.57342730125,-0.0558622180213,2.13184170179,-0.401438492709,-0.714976465262,-0.390090561113,-0.00395996342686,-0.321349062577,-0.0664897197866,-0.0715873998807,-0.682486248135,0.573775015892,0.818984852779,0.00517580497388,0.0,0.818973600549,-0.573692329373,-0.0118363729128,0.0,-0.00672461998537,0.0110304750622,-0.999916550571,0.0,0.381893112269,-0.106471807052,0.304913018825,1.0,-0.18998,-0.249688,2.886
-0.147628101102,-0.441048488855,-0.134006108637,-2.57834738397,-0.0568864670537,2.13070879166,-0.412412831963,-0.739106216295,-0.381739817145,-0.0139943667372,-0.29986142703,-0.0602975780436,-0.0703362356785,-0.69674129599,0.573862862666,0.818922964331,0.00522879002107,0.0,0.818912858839,-0.57378073589,-0.0117534527247,0.0,-0.00662512091448,0.0110270057153,-0.999917253035,0.0,0.37887927445,-0.110534970562,0.304958319393,1.0,-0.18998,-0.249688,2.902
-0.160065436424,-0.447420423437,-0.134098666615,-2.58345758563,-0.0578928824355,2.12953160389,-0.424176629574,-0.728924116419,-0.363978463968,-0.00914438636858,-0.306533221241,-0.046372751649,-0.0764436499057,-0.690401671336,0.573789984958,0.818973440569,0.00532012273414,0.0,0.818965351879,-0.573708977759,-0.0115977653717,0.0,-0.00644618374305,0.0110118898182,-0.999918589185,0.0,0.375694024762,-0.114740798369,0.305023622867,1.0,-0.18998,-0.249688,2.919
-0.17269523968,-0.453522700906,-0.134318456982,-2.5886048849,-0.0589033440609,2.12821811052,-0.436082674206,-0.754167303403,-0.357295314743,-0.0160119101066,-0.299286574099,-0.0558505257324,-0.072370005862,-0.703681692058,0.573846924669,0.818933787477,0.00528258238357,0.0,0.818923506267,-0.573763157724,-0.0118691458602,0.0,-0.00668922221233,0.0111373181659,-0.999915603664,0.0,0.37238171827,-0.118983710534,0.304940415369,1.0,-0.18998,-0.249688,2.936
-0.184657578197,-0.459094624405,-0.134404261396,-2.59310282083,-0.0597981452701,2.1270768357,-0.447425619123,-0.740531066963,-0.341395718351,-0.00455023712842,-0.275639369031,-0.0551034329421,-0.0604297593657,-0.704152992614,0.573798953993,0.818967185584,0.00531565946201,0.0,0.818957357728,-0.573715116399,-0.0118557302203,0.0,-0.00665990804845,0.0111563188205,-0.999915587525,0.0,0.369356233611,-0.122948164203,0.304953625203,1.0,-0.18998,-0.249688,2.952
-0.19747911326,-0.464721162557,-0.134588079502,-2.59767336717,-0.0607385344905,2.12595561308,-0.459628710632,-0.763568511226,-0.328085207675,-0.0175316015951,-0.264117488351,-0.0554740236244,-0.071367810754,-0.720946568654,0.573822899421,0.818950047353,0.00537093499601,0.0,0.818940877889,-0.573738758503,-0.0118499964563,0.0,-0.00662316909895,0.0111984931511,-0.999915360109,0.0,0.3659551867,-0.127461548674,0.304941155431,1.0,-0.18998,-0.249688,2.97
-0.211214362266,-0.470535770964,-0.134712357964,-2.60231121561,-0.0617270225666,2.12470093813,-0.472618459356,-0.755514952598,-0.31959837105,-0.00631793902902,-0.244195657343,-0.0413784494274,-0.0669119987156,-0.728204378626,0.573826967149,0.818947129849,0.00538118807586,0.0,0.818938270722,-0.573743089,-0.0118204683479,0.0,-0.00659304609446,0.0111899798014,-0.999915654491,0.0,0.362743114372,-0.13169174136,0.304957154073,1.0,-0.18998,-0.249688,2.987
-0.223505730424,-0.47560260584,-0.134892984824,-2.60618192867,-0.06254755829,2.12360700583,-0.484353678399,-0.775982510805,-0.308647143251,-0.0183302220598,-0.237749586352,-0.0467278442128,-0.0664700599455,-0.728840043712,0.573853287509,0.81892786915,0.00550422077612,0.0,0.818921442082,-0.573770424792,-0.011658397571,0.0,-0.00638935060243,0.0111979497839,-0.999916887606,0.0,0.359733863147,-0.135706224209,0.30503526622,1.0,-0.18998,-0.249688,3.003
-0.236650371111,-0.480675391945,-0.134994181475,-2.61023628332,-0.0634570200169,2.1224495292,-0.49693714782,-0.765283198043,-0.289747365617,-0.00140029864564,-0.236308704978,-0.0531666655329,-0.0652230169721,-0.741693522945,0.573777067774,0.818981537354,0.00546487619437,0.0,0.818974477712,-0.573694135933,-0.0116871790311,0.0,-0.00643654034729,0.0111816447234,-0.999916767421,0.0,0.356498883863,-0.139926209877,0.305020784719,1.0,-0.18998,-0.249688,3.02
-0.249896894906,-0.485514312838,-0.135166900713,-2.61410674781,-0.0642573594523,2.12130136047,-0.509652106469,-0.787577249237,-0.278173831235,-0.0205609634691,-0.22317740327,-0.0474618885445,-0.0665900072556,-0.764166085158,0.57378390657,0.818976436371,0.00551109173288,0.0,0.818969255825,-0.57369956311,-0.0117862717493,0.0,-0.00649109288961,0.0112764048492,-0.999915350621,0.0,0.353251250788,-0.144155111197,0.304992677918,1.0,-0.18998,-0.249688,3.037
-0.262497782182,-0.489783350796,-0.13525822163,-2.61753624993,-0.0649855347972,2.12024412407,-0.521730007133,-0.776192418497,-0.266827526295,-0.00592574007228,-0.210463057353,-0.0396562592512,-0.0699233541782,-0.757454680402,0.573778262788,0.818980435167,0.00550444070433,0.0,0.818972359645,-0.573692547259,-0.0119114339368,0.0,-0.00659750176243,0.0113427250463,-0.999913904073,0.0,0.350204685734,-0.1481340784,0.304952833173,1.0,-0.18998,-0.249688,3.053
-0.275938548513,-0.494126116279,-0.135430429071,-2.62094662,-0.0656784622783,2.11923372795,-0.534686826628,-0.799874121814,-0.251107389181,-0.0152220454255,-0.196786264619,-0.0440242725776,-0.0613304790884,-0.757913026053,0.573813562257,0.818954943328,0.00561635726834,0.0,0.81894809285,-0.573727018366,-0.0119195853999,0.0,-0.00653947338118,0.0114393450755,-0.999913184568,0.0,0.346995830349,-0.15237703173,0.304945841262,1.0,-0.188299428571,-0.24747924898,3.07
-0.289369910621,-0.498282948974,-0.135469004175,-2.62414757499,-0.0663694620381,2.11817277443,-0.54756690173,-0.780540963124,-0.241410594637,0.000598996950636,-0.184036073137,-0.0352596362273,-0.0598562379268,-0.754887870292,0.573833472054,0.818940708151,0.00565771902157,0.0,0.818934281634,-0.573746566429,-0.0119275637418,0.0,-0.00652199620339,0.0114779563639,-0.999912856245,0.0,0.343618031531,-0.15678936825,0.304960401545,1.0,-0.185326857143,-0.243572440816,3.088
-0.301947240885,-0.501922414276,-0.135514966533,-2.62692046098,-0.0669392172908,2.11726094932,-0.559674354312,-0.794769748691,-0.213193795031,-0.00496804875997,-0.167911110789,-0.0370885762193,-0.0550313788745,-0.756023358545,0.57383653787,0.818938159989,0.00571531459118,0.0,0.818932614162,-0.573749645036,-0.0118939137555,0.0,-0.00646134452895,0.0115058413332,-0.99991292953,0.0,0.34085534845,-0.160434614906,0.304978232039,1.0,-0.182849714286,-0.240316767347,3.103
-0.315277755027,-0.505444706804,-0.135489515222,-2.6295932491,-0.0675206626661,2.11639629013,-0.572462511686,-0.776079280294,-0.20538699173,0.00797458424419,-0.151468024372,-0.0235291407083,-0.052583161016,-0.745197630461,0.573862895273,0.818919461898,0.00574797835666,0.0,0.818914826839,-0.573776746412,-0.0118109509272,0.0,-0.00637428398258,0.0114851923212,-0.999913725709,0.0,0.33778373385,-0.164528675754,0.305002564143,1.0,-0.180042285714,-0.236627004082,3.12
-0.32922256413,-0.508934506226,-0.135501963883,-2.63220452074,-0.0680347798892,2.11555094839,-0.585873813448,-0.780444656815,-0.189548879627,-0.00378909868141,-0.144036502748,-0.0240097309736,-0.0516447659885,-0.748201320962,0.573940772331,0.81886406126,0.00586395212554,0.0,0.818861507259,-0.573855244285,-0.0116934784114,0.0,-0.00621042911278,0.0115133503744,-0.999914433006,0.0,0.334580149323,-0.168789754881,0.305039828779,1.0,-0.177069714286,-0.232720195918,3.138
-0.341454039426,-0.511788851312,-0.135431440557,-2.6344137053,-0.0685099416903,2.11476512779,-0.597724719011,-0.756867707828,-0.171392492352,0.00777924352936,-0.137405842126,-0.0234933905919,-0.0389959729931,-0.743495476983,0.573873658563,0.81891116636,0.00585427363529,0.0,0.81890822378,-0.573787691775,-0.0117368093907,0.0,-0.00625241448962,0.0115297805531,-0.999913982037,0.0,0.331747631259,-0.172469555632,0.305028100898,1.0,-0.174427428571,-0.229247477551,3.154
-0.354354282597,-0.514475604157,-0.135403147037,-2.63654962714,-0.0689022701609,2.11397778658,-0.610223231527,-0.769774030488,-0.155851499261,-0.00376467256266,-0.120735646585,-0.0202881959473,-0.0384717689022,-0.735931585295,0.573893799655,0.818896653912,0.00590963871483,0.0,0.818893409872,-0.573805743024,-0.0118869442395,0.0,-0.00634331635772,0.0116614323129,-0.999911882785,0.0,0.328772981374,-0.176338725058,0.304984183585,1.0,-0.17162,-0.225557714286,3.171
-0.367158032134,-0.51691200234,-0.135314675401,-2.63846087677,-0.0693014437222,2.11330100371,-0.622571268424,-0.738885139668,-0.135859836735,0.00849722251795,-0.108170621507,-0.0186496594569,-0.0415530371334,-0.72286112693,0.573924736104,0.818874911068,0.00591812570351,0.0,0.818871422768,-0.573835988828,-0.0119414320669,0.0,-0.00638262849213,0.0116998925219,-0.99991118334,0.0,0.325859909411,-0.180162953878,0.304958867554,1.0,-0.168812571429,-0.22186795102,3.188
-0.378984205192,-0.518980710914,-0.135225682133,-2.64005116042,-0.0696236159017,2.11272626747,-0.634043893607,-0.740989891568,-0.127401727454,-0.000128416481948,-0.0935886739708,-0.0234396807501,-0.0287785471722,-0.716041815246,0.573922539227,0.818876224862,0.005949304448,0.0,0.818873038226,-0.573833476662,-0.011951369378,0.0,-0.00637290488121,0.0117311111296,-0.999910879586,0.0,0.323189435938,-0.183683572958,0.304951121787,1.0,-0.166170285714,-0.218395232653,3.204
-0.391449889792,-0.520978231728,-0.135139678866,-2.64155831316,-0.0699562782599,2.1121150096,-0.64613253903,-0.715996744816,-0.104673215972,0.0128398344258,-0.0821792469079,-0.0118031159608,-0.0340185776942,-0.712037661042,0.573911592514,0.818883777795,0.00596568047014,0.0,0.818880584783,-0.573822061816,-0.0119823261259,0.0,-0.00638901642564,0.0117622022398,-0.999910411521,0.0,0.32021796727,-0.187589104581,0.304951085988,1.0,-0.163197714286,-0.21448842449,3.222
-0.404386404927,-0.522913734416,-0.135006846846,-2.64296446928,-0.0702307292544,2.11154311173,-0.658792152677,-0.728879611428,-0.107916265971,0.00104132664291,-0.0741101757627,-0.0166327898702,-0.0376877345117,-0.693170665241,0.573875934414,0.818908346229,0.00602322820946,0.0,0.818906157617,-0.573786651522,-0.011930232713,0.0,-0.00631384075645,0.0117791589007,-0.999910689427,0.0,0.317475339216,-0.191199127651,0.304976452128,1.0,-0.160390285714,-0.210798661225,3.239
-0.415911006685,-0.52441772261,-0.134934232484,-2.64405550498,-0.0704848894687,2.11107482177,-0.669911590364,-0.705979923777,-0.0882971824154,0.0112195421543,-0.0658200121019,-0.0154669711144,-0.0282187471758,-0.700012254276,0.57398474855,0.818831824471,0.00605793409176,0.0,0.8188302181,-0.573895549141,-0.0119046001192,0.0,-0.00627136476615,0.011793705465,-0.999910785268,0.0,0.314892905563,-0.194607320714,0.3049937275,1.0,-0.157748,-0.207325942857,3.255
-0.427736501869,-0.52574018677,-0.134794257806,-2.64505532799,-0.0706898320507,2.1106860115,-0.681563432752,-0.699293723276,-0.0762782170083,0.00169815647366,-0.0560053707237,-0.0163947444667,-0.0221769849742,-0.685315907663,0.573882995229,0.81890291661,0.0060883377081,0.0,0.81890179098,-0.573793856826,-0.0118833286803,0.0,-0.00623796184021,0.0118056182043,-0.999910853632,0.0,0.312264299779,-0.198077054464,0.30499388745,1.0,-0.154940571429,-0.203636179592,3.272
-0.43963792641,-0.526895744525,-0.134730457357,-2.64593771521,-0.0708799031699,2.11030053371,-0.6930355531,-0.692080209253,-0.0617663363787,0.00405225338222,-0.0530327713456,-0.0126517075376,-0.0238390619976,-0.661705309905,0.574057631695,0.818780080829,0.00614504926572,0.0,0.818779442648,-0.573967753901,-0.011915900333,0.0,-0.00622956165153,0.0118720821119,-0.999910119075,0.0,0.309599223671,-0.201575895724,0.304984208647,1.0,-0.152133142857,-0.199946416327,3.289
-0.45034724592,-0.527796951167,-0.134546457538,-2.64664445202,-0.0709969637586,2.11003873407,-0.703686433101,-0.676166218274,-0.0523333765078,0.00511487033704,-0.0406588407165,-0.0106420165769,-0.0121962419823,-0.668418212241,0.57388511661,0.818900799198,0.00617259321775,0.0,0.818900554779,-0.573795231002,-0.0119021495588,0.0,-0.00620499470003,0.0118854353294,-0.999910113194,0.0,0.307228823568,-0.204681616679,0.304974714195,1.0,-0.149490857143,-0.196473697959,3.305
-0.461878653377,-0.528587363224,-0.134456029716,-2.64725243266,-0.071139791747,2.10975428677,-0.714829488043,-0.676431804244,-0.046020011617,0.00523827778203,-0.0360443507263,-0.00958396445328,-0.0179625140644,-0.652854969792,0.574047192109,0.818786858506,0.00621678945283,0.0,0.818787012924,-0.573956753042,-0.0119256029824,0.0,-0.00619647801449,0.0119363151834,-0.99990955993,0.0,0.30450963337,-0.208250401465,0.304966076345,1.0,-0.146518285714,-0.192566889796,3.323
-0.473608403834,-0.529178341267,-0.134250818845,-2.64769407621,-0.0712310709533,2.10951622005,-0.726453358448,-0.628905343904,-0.0324159974337,0.0168033763373,-0.0244493772436,-0.00185221755959,-0.0130833327532,-0.643502819877,0.573921014402,0.818875193938,0.00623160347673,0.0,0.818875510461,-0.573830481875,-0.011925742695,0.0,-0.00618993001164,0.0119475718508,-0.999909466048,0.0,0.302080519469,-0.211458361356,0.304964926449,1.0,-0.143710857143,-0.188877126531,3.34
-0.483347789286,-0.52954349393,-0.134142216902,-2.64798739299,-0.0713109710182,2.10934100355,-0.735977594041,-0.648447287851,-0.018646029524,0.00555567601319,-0.0187699808086,-0.00283923026007,-0.0148480404612,-0.626682838094,0.573969805422,0.818840802516,0.00625695609005,0.0,0.818841211524,-0.573878697921,-0.0119606556807,0.0,-0.00620325851422,0.0119887395394,-0.999908890704,0.0,0.299920352249,-0.2142936193,0.304952618237,1.0,-0.141233714286,-0.185621453061,3.355
-0.494214451377,-0.529842605932,-0.13398776395,-2.64818830449,-0.0713604358657,2.1091644945,-0.746634055474,-0.623653918121,-0.0138074652281,0.0101664696758,-0.00862152954757,-0.00286529069002,-0.0123835015553,-0.630675584267,0.574007638523,0.818814033994,0.00628932063382,0.0,0.818814861918,-0.57391638158,-0.0119564107146,0.0,-0.00618065174524,0.0120130915751,-0.999908738423,0.0,0.297388395842,-0.217624848978,0.304961424239,1.0,-0.138261142857,-0.181714644898,3.373
-0.505296855663,-0.530005853766,-0.133797797185,-2.64834646728,-0.0713849088512,2.109040606,-0.757657828666,-0.627238242579,-0.00554832953358,0.00851787280689,-0.00923077064384,-0.000864310915684,-0.00805989868577,-0.621909948083,0.573895004526,0.818892723501,0.00632282199462,0.0,0.818893669167,-0.573803009114,-0.0120005095951,0.0,-0.00619919505285,0.0120649836994,-0.999907998842,0.0,0.29506761655,-0.220640021564,0.304941150621,1.0,-0.135453714286,-0.178024881633,3.39
-0.515234344145,-0.530075654073,-0.133685918353,-2.64841901237,-0.0713988416586,2.10892359385,-0.767287436007,-0.620695333805,0.00114361417968,0.0089612342307,-0.00182993779132,-0.000522438654129,-0.00804927109125,-0.593973837993,0.57405827548,0.818777864345,0.00637590089097,0.0,0.818779143659,-0.573965312691,-0.0120532418098,0.0,-0.00620950119105,0.0121399516105,-0.999907027513,0.0,0.292842714604,-0.223506624637,0.304926467743,1.0,-0.132811428571,-0.174552163265,3.406
-0.525269755796,-0.530000392473,-0.133476298274,-2.64837253121,-0.0714039119819,2.10890553764,-0.777330083374,-0.58145539755,0.00824568867845,0.010361114278,0.00596779436198,-0.000214792070953,0.00060728675127,-0.589299701701,0.573905165776,0.818885168525,0.00637874331359,0.0,0.818886633072,-0.573812514127,-0.0120261260847,0.0,-0.00618793268473,0.0121255569741,-0.999907335885,0.0,0.290631023976,-0.226392116034,0.304923900338,1.0,-0.130004,-0.1708624,3.423
-0.535290077446,-0.529855832063,-0.133338859815,-2.64826890179,-0.0714105075604,2.10890126752,-0.787147033588,-0.591266349798,0.00496214060454,0.0120913587766,0.00946444129557,-5.31833909529e-05,-0.000497059568862,-0.57797489376,0.573977970991,0.818833921862,0.00640656902719,0.0,0.818835876554,-0.573885431628,-0.0120027302916,0.0,-0.00615172452602,0.0121354649895,-0.999907439104,0.0,0.288395697495,-0.229282540731,0.304921360715,1.0,-0.127196571429,-0.167172636735,3.44
-0.544590376073,-0.529620914342,-0.133193834933,-2.64804869477,-0.0714097068272,2.10891526673,-0.796229854734,-0.568323100753,0.0204618503338,0.00907786323639,0.0168391583457,9.6988448781e-05,0.00146881576738,-0.557802101942,0.574066412911,0.818771842388,0.0064164306188,0.0,0.818774310166,-0.573974572842,-0.0119400856236,0.0,-0.00609345519857,0.0121082437986,-0.999908125898,0.0,0.286331058727,-0.231970420655,0.304940583429,1.0,-0.124554285714,-0.163699918367,3.456
-0.554483769336,-0.529171791659,-0.132978061917,-2.6477274642,-0.0714108977597,2.10893874915,-0.806243831583,-0.547235417807,0.0260642221631,0.00907065748762,0.0133960190187,-0.000425599235253,-0.000231074926352,-0.550350492049,0.573833469902,0.818935391605,0.00638123012238,0.0,0.818937199488,-0.573741433836,-0.0119740258675,0.0,-0.00614489575114,0.0120971564457,-0.999907945294,0.0,0.284137527712,-0.234813856047,0.304930085039,1.0,-0.121581714286,-0.159793110204,3.474
-0.563925168731,-0.528698323404,-0.132812357465,-2.6473822527,-0.0714041688924,2.10898910674,-0.81548250806,-0.553917404104,0.0297222271095,0.0073813543865,0.0230210554832,0.0037387185571,0.00216121163651,-0.539709787533,0.573905192818,0.818885244001,0.00636660944432,0.0,0.818886788474,-0.573813060946,-0.0119893975198,0.0,-0.00616481575214,0.0120945427141,-0.999907854296,0.0,0.28202383572,-0.237528582733,0.304922565722,1.0,-0.118774285714,-0.156103346939,3.491
-0.572510051149,-0.528093872978,-0.132634455173,-2.64691020605,-0.0713871304219,2.10911986899,-0.82399795094,-0.523320684339,0.0427899324193,0.0177161203928,0.0298186414411,-0.000522804076393,0.0101699147412,-0.536509720277,0.573870455118,0.818909878986,0.00632911863714,0.0,0.818911305299,-0.573779216545,-0.0119344717044,0.0,-0.00614185829599,0.0120320591676,-0.999908749401,0.0,0.280134728144,-0.240019395871,0.304931942032,1.0,-0.116132,-0.152630628571,3.507
-0.581835493557,-0.527305011412,-0.132445721428,-2.64635369982,-0.0713633377631,2.10922293721,-0.833327967967,-0.52229830373,0.0471047856725,0.00591122748188,0.0315036738799,-0.00104666114365,0.00513343891249,-0.509684315739,0.573775380144,0.818976797829,0.00629004444712,0.0,0.818977316221,-0.573683551735,-0.0120035363582,0.0,-0.0062222425277,0.0120389691447,-0.999908169243,0.0,0.27805839993,-0.242712053094,0.304910066687,1.0,-0.113159428571,-0.148723820408,3.525
-0.59010412445,-0.526569700209,-0.132278877017,-2.64578799323,-0.0713333880272,2.10934320495,-0.841421725582,-0.52021215563,0.052522126378,0.00708724247336,0.0349784036954,0.00222835939984,0.0113852185614,-0.499530178565,0.57384536225,0.818928042612,0.0062536509092,0.0,0.818928139586,-0.573753776799,-0.0120021957944,0.0,-0.00624099903961,0.0120089263072,-0.999908413616,0.0,0.276217852589,-0.245104660785,0.304912698139,1.0,-0.110517142857,-0.145251102041,3.541
-0.598049506678,-0.525696161993,-0.132099698753,-2.6451405762,-0.071292431874,2.10948865991,-0.849358229514,-0.479740558819,0.058471526429,0.0118007014164,0.042046925477,0.00572368957142,0.00489633829908,-0.483848260201,0.573779975577,0.818974208481,0.00620744476098,0.0,0.818973541057,-0.573688291882,-0.0120345214802,0.0,-0.00629494551901,0.0119891312857,-0.999908312993,0.0,0.274460814631,-0.247412014164,0.304904155155,1.0,-0.107874857143,-0.141778383674,3.557
-0.606155817682,-0.52472997745,-0.131886283274,-2.64443515211,-0.0712281032858,2.10963519251,-0.857558896679,-0.484338684565,0.0577426511499,0.00889449843476,0.0451272479633,0.00129126274091,0.00789138433635,-0.479951469991,0.573616529632,0.819089060171,0.00615916733702,0.0,0.819087358964,-0.573524326297,-0.0121034058268,0.0,-0.00638145786886,0.0119878405577,-0.999907780085,0.0,0.272557767032,-0.249894540557,0.304888745046,1.0,-0.104902285714,-0.13787157551,3.575
-0.614770320389,-0.523707707998,-0.131698648666,-2.64361824338,-0.0711383231296,2.10981402201,-0.86598335497,-0.470832808172,0.0585088476564,0.00488250357708,0.046519833185,0.0107796522494,0.00615287059138,-0.466618588433,0.573725437148,0.819012932435,0.0061389065679,0.0,0.819011176099,-0.573633691798,-0.0120759248256,0.0,-0.00636897758771,0.0119563285341,-0.999908236956,0.0,0.270749141312,-0.252254429618,0.304905289456,1.0,-0.102094857143,-0.134181812245,3.592
