nelsonifechukwu/NELSON_IML_WORK/CNN-GradCAM/train2dof/data_sample_2022-02-22-07-47-19/robot_state.csv
position_joint1,position_joint2,position_joint3,position_joint4,position_joint5,position_joint6,position_joint7,velocity_joint1,velocity_joint2,velocity_joint3,velocity_joint4,velocity_joint5,velocity_joint6,velocity_joint7,ee_T_00,ee_T_10,ee_T_20,ee_T_30,ee_T_01,ee_T_11,ee_T_21,ee_T_31,ee_T_02,ee_T_12,ee_T_22,ee_T_32,ee_T_03,ee_T_13,ee_T_23,ee_T_33,v_x,v_y,time
0.465066949026,0.547692300877,-0.124025114847,-1.35582411048,0.0795259684854,1.89414010595,0.159137725202,3.91148327475e-05,-0.00014907299987,0.00104356504902,0.00196319031971,-2.33749427713e-06,-0.000228039933213,0.00106438778739,0.57382576786,0.818963040134,0.00206734980268,0.0,0.818921434127,-0.573766728698,-0.0118394538312,0.0,-0.00851006241483,0.00848694415095,-0.9999277727,0.0,0.661698079756,0.260873986392,0.303286274432,1.0,0.0,0.0,0.0
0.465066243849,0.547692303497,-0.124027898907,-1.35582597152,0.0795253581338,1.89414549366,0.159141421858,-0.000261021611513,-6.62546666088e-05,0.00449681033001,0.000315717079227,-0.000136672566901,0.000622028548201,0.00118513806175,0.573831295041,0.818959162908,0.00206911152326,0.0,0.81891760496,-0.573772273237,-0.0118356094834,0.0,-0.00850584577661,0.00848623835685,-0.999927814568,0.0,0.661699585588,0.26087195523,0.303285945944,1.0,-2e-05,-2.62857142857e-05,0.002
0.465069301783,0.547693781118,-0.124027898911,-1.35582669561,0.079522402355,1.8941442338,0.159139754764,0.00195850061343,0.000605384814742,-0.000492218715676,0.000508088197733,0.000313974387466,2.85052765347e-05,-0.000194822372599,0.57382667606,0.818962410763,0.00206458247504,0.0,0.818920817698,-0.573767696651,-0.0118351815322,0.0,-0.00850814187623,0.00848223575715,-0.999927828995,0.0,0.661698497004,0.260873307987,0.303284439583,1.0,-0.00038,-0.000499428571429,0.02
0.465065561092,0.547677140585,-0.124022962057,-1.35583273328,0.0795253581335,1.89414776647,0.159140523265,-0.000131599631596,-0.000491837554338,0.00135529301918,0.000747353303744,-0.000169943603523,0.000356439841841,0.00148709776479,0.573828026356,0.818961425725,0.00207996274517,0.0,0.81891998054,-0.573768933305,-0.0118331545767,0.0,-0.00849764274331,0.00849368231681,-0.999927821109,0.0,0.661697935241,0.260873913483,0.30329350317,1.0,-0.0007,-0.00092,0.036
0.465068231403,0.547633575314,-0.124025441932,-1.35586916197,0.0795265620888,1.89415141428,0.159139709409,0.000391060990871,-0.00204244793964,-0.000596002859253,-0.000421709335184,0.000289739208562,0.000147025654884,0.000508871275705,0.573829161175,0.818960601624,0.00209133312822,0.0,0.818919274243,-0.573769992604,-0.0118306703649,0.0,-0.00848907216705,0.00850158034094,-0.999927826788,0.0,0.661691269666,0.260870937887,0.303307427341,1.0,-0.00104,-0.00136685714286,0.053
0.465071125483,0.547510369227,-0.124025535581,-1.3559932578,0.0795224988101,1.89418246829,0.159133446187,0.00117684029467,-0.0100826629898,0.000593302852202,-0.0125706352835,-1.9698622669e-05,0.000221801408987,7.94822178183e-05,0.573827421807,0.818961745161,0.0021205768551,0.0,0.818920750249,-0.573768089474,-0.011820795834,0.0,-0.00846422321724,0.00851984521971,-0.999927881981,0.0,0.661671766773,0.260861141137,0.303338332529,1.0,-0.00136,-0.00178742857143,0.069
0.465056308117,0.547382332616,-0.124028303695,-1.35618287481,0.0795231653869,1.89423248334,0.159123821555,-0.00115040533351,-0.00414419981545,-0.000779593964055,-0.00771706406862,-0.00024380976424,0.00703223756463,-0.00140663967138,0.573844261184,0.818949953953,0.00211748141,0.0,0.818908797691,-0.573784817212,-0.0118368704771,0.0,-0.00847898909523,0.00852670851485,-0.999927698379,0.0,0.661646111887,0.260832409642,0.303343213714,1.0,-0.00168,-0.002208,0.085
0.465041756129,0.547203460685,-0.124028312464,-1.35640737895,0.0795212540599,1.89434543859,0.159126029972,-0.000263237309401,-0.00662425054045,-0.000246777484126,-0.00984880578144,0.00028991445082,0.00831754351071,0.00135026264813,0.573870202936,0.818931610344,0.00218051870116,0.0,0.818891213998,-0.573810446816,-0.0118109129086,0.0,-0.00842128765359,0.00856370347191,-0.999927869847,0.0,0.661625796087,0.260805847136,0.303372866531,1.0,-0.00204,-0.00268114285714,0.103
0.465022878462,0.547014246965,-0.12402329287,-1.35660636639,0.0795174721837,1.8944567777,0.159107499548,-0.00048169878087,-0.0144147715506,0.000476448871586,-0.0119903040186,-0.000991188575819,0.0115579436904,-0.000767126344478,0.573880123628,0.818924385331,0.00228072705656,0.0,0.818885270457,-0.57381995894,-0.011760758987,0.0,-0.00832260585444,0.00861708551955,-0.99992823746,0.0,0.661612020693,0.260778518739,0.303425900543,1.0,-0.00236,-0.00310171428571,0.119
0.464997155319,0.546787137931,-0.124028315388,-1.35690514887,0.0795108747222,1.89458830302,0.159087819535,0.00122166644167,-0.0153988237731,-0.000937909811451,-0.019004792622,-0.000182556725311,0.00258956188971,0.000106643914248,0.573900770235,0.818909781535,0.00232863275511,0.0,0.818871223883,-0.573840354697,-0.011743633059,0.0,-0.00828087196911,0.00864669688781,-0.999928328328,0.0,0.661583284303,0.26073754769,0.303451891536,1.0,-0.0027,-0.00354857142857,0.136
0.464959396573,0.546526821274,-0.124023374272,-1.35727457219,0.0795043342701,1.89472525773,0.158997813807,-0.00454827857308,-0.0185284542373,0.000297952737029,-0.0227260220716,-9.34842883205e-05,0.00580261778097,-0.00381697975267,0.57387343577,0.818928837997,0.00236324265873,0.0,0.818890565313,-0.573812721848,-0.0117451772373,0.0,-0.00826256472458,0.0086756493648,-0.999928228991,0.0,0.661541793748,0.2606832347,0.30347213113,1.0,-0.00304,-0.00399542857143,0.153
0.464918559169,0.546211643474,-0.124024330383,-1.35775803688,0.0794919915705,1.89490065109,0.158926167679,-0.00271507032555,-0.0202134307854,0.00130811199833,-0.0219885552632,-0.00354099579587,0.00741949786024,-0.00177990168445,0.573872627759,0.818929359977,0.00237852422807,0.0,0.818891135833,-0.573811699192,-0.01175535733,0.0,-0.00826214129752,0.00869399759435,-0.999928073127,0.0,0.661485699773,0.260612322357,0.30348044396,1.0,-0.00342,-0.00449485714286,0.172
0.464873341105,0.545934207484,-0.124028990948,-1.35822650664,0.0794786986837,1.89505833793,0.158892198047,-0.00865613868819,-0.0193345284582,-0.000963281354588,-0.0283015726797,0.000294987746335,0.00697990895717,-0.0083391448212,0.573907725328,0.818904826961,0.00235671160129,0.0,0.818866186533,-0.573846734989,-0.0117830469841,0.0,-0.00829696253611,0.00869238048905,-0.999927798861,0.0,0.661430524066,0.260536292848,0.303467730801,1.0,-0.00374,-0.00491542857143,0.188
0.464819623005,0.545638066232,-0.124021198973,-1.35872618396,0.0794408763586,1.89521410936,0.158822240543,-0.00993959834468,-0.0241436545326,0.00244212254209,-0.0386661834214,-0.000309102562753,0.0131896810253,-0.000159042127365,0.573906733021,0.818905643974,0.00231407925446,0.0,0.81886643118,-0.573845886424,-0.0118073460877,0.0,-0.00834133808714,0.00867140419079,-0.999927611794,0.0,0.661368980735,0.260454290578,0.30345276539,1.0,-0.00404,-0.00530971428571,0.203
0.464766788507,0.545293457782,-0.12402900313,-1.35932681993,0.0793372494615,1.89541073435,0.158741866456,-0.00134702513976,-0.0195616683254,-0.00110319387562,-0.0393759045108,-0.00436335282618,0.0158735840111,-0.00595805426336,0.573895579465,0.818913709958,0.00222405352671,0.0,0.818873915196,-0.573835687726,-0.0117839469253,0.0,-0.0083739556341,0.0085841397394,-0.999928092121,0.0,0.661300653677,0.260344614083,0.303427979595,1.0,-0.00436,-0.00573028571429,0.219
0.464688560192,0.544845845739,-0.124032185883,-1.36011081859,0.0793275610199,1.89565449679,0.158666229573,-0.00697437839908,-0.0293027404901,-0.000299125821403,-0.0402601586784,0.000275971592332,0.0162313975376,-0.00130690516928,0.573940928014,0.818882086352,0.00216487956009,0.0,0.818841131413,-0.57388086436,-0.0118617843781,0.0,-0.00847118288274,0.00858082116962,-0.999927301642,0.0,0.661202511686,0.260218820656,0.303392916945,1.0,-0.00474,-0.00622971428571,0.238
0.464616109717,0.544430704195,-0.124032198089,-1.36083600446,0.0793019867239,1.89590008295,0.158562062392,-0.00335084211686,-0.025570880312,6.34124614481e-05,-0.0381008222583,-0.00152147212842,0.0260143245744,-0.00233623809223,0.573948573332,0.818876846858,0.00211937530614,0.0,0.818835092329,-0.573888482886,-0.011909982502,0.0,-0.00853668819592,0.00857130136401,-0.999926826197,0.0,0.661115956477,0.260102799977,0.30336285175,1.0,-0.00508,-0.00667657142857,0.255
0.464553264415,0.5439715441,-0.124033259572,-1.36157330818,0.0792727156304,1.89616357232,0.158461005082,-0.00131050282984,-0.0289805631579,4.90693801874e-05,-0.0423693001032,-0.00161662929782,0.0165811009954,-0.00245261127221,0.573951317339,0.818874935391,0.00211480840345,0.0,0.818832968073,-0.573891091366,-0.0119303205397,0.0,-0.00855593548674,0.00857926320935,-0.999926593411,0.0,0.661029206288,0.259992289481,0.303359708487,1.0,-0.0054,-0.00709714285714,0.271
0.464475906376,0.543498090034,-0.124037899067,-1.36236045269,0.0792349720737,1.8964302843,0.15837927359,-0.0105166710136,-0.0336138578308,-0.000197880042584,-0.0467968588879,-0.00198975479652,0.0173260921709,-0.00174394437433,0.57398468786,0.818851637525,0.00207863571257,0.0,0.818809090419,-0.573924498567,-0.0119620354964,0.0,-0.00860231801658,0.00856819599201,-0.999926290355,0.0,0.660936964985,0.259863233604,0.303343293648,1.0,-0.00572,-0.00751771428571,0.287
0.464406266575,0.542949334185,-0.124042044749,-1.36322522355,0.0791784007938,1.89673382708,0.158257428579,-0.00440080369818,-0.0364108526081,0.00620471476015,-0.0526108217937,-0.00684148116119,0.0178621863012,-0.00750425158556,0.573977812051,0.818856491951,0.0020648884937,0.0,0.818813793283,-0.573917708293,-0.0119659073594,0.0,-0.0086134506868,0.0085590892946,-0.999926272511,0.0,0.660834997758,0.259730803172,0.303346292093,1.0,-0.00606,-0.00796457142857,0.304
0.464326085747,0.542331534849,-0.12404473906,-1.36417272936,0.0791260043465,1.89707215631,0.158125806027,-0.00554822322197,-0.035582128963,-0.000288936127086,-0.0549922105972,-0.000201515407877,0.0241391167643,-0.00398695933921,0.57397620758,0.818857591624,0.00207477063059,0.0,0.818814966739,-0.573916008143,-0.0119671526537,0.0,-0.00860881546886,0.00856787909882,-0.999926237152,0.0,0.660724758396,0.259586378769,0.303361652551,1.0,-0.00642,-0.00843771428571,0.322
0.464249357043,0.541718847062,-0.124042482163,-1.3651207757,0.0790664519353,1.89742103992,0.158013817036,-0.00896905098553,-0.0436055141768,0.000474359306727,-0.0521913893923,-0.00477334663243,0.0250125124853,-0.00960393178079,0.57398251839,0.818853141312,0.00208529327648,0.0,0.818810653487,-0.573922274322,-0.0119617588102,0.0,-0.00859829306123,0.00857346586244,-0.999926279802,0.0,0.660614577052,0.259446539674,0.303373797666,1.0,-0.00676,-0.00888457142857,0.339
0.464180788963,0.541114280178,-0.124047434188,-1.36606969502,0.0790098903696,1.89776457497,0.157886583069,-0.00376864802547,-0.0392478725252,-0.000116508201043,-0.0661660970375,-0.00427006632048,0.0245191645931,-0.00783819052175,0.573975479128,0.818858079555,0.00208370065238,0.0,0.81881556795,-0.573915239541,-0.0119628762095,0.0,-0.00860019586025,0.00857272918882,-0.999926269755,0.0,0.660502123073,0.25930782861,0.303379482501,1.0,-0.00708,-0.00930514285714,0.355
0.464079811046,0.54036423266,-0.124043619017,-1.36718370075,0.0789505951833,1.89817686472,0.157745380239,-0.00421614464349,-0.0460599955229,0.000914141066069,-0.0635852633644,-0.0028724623429,0.0317331699073,-0.00597891415627,0.573985728983,0.818850773756,0.00213076115249,0.0,0.818808780848,-0.57392519889,-0.0119496186625,0.0,-0.00856222181893,0.00860376216968,-0.999926329103,0.0,0.660375475298,0.259139342453,0.303415004436,1.0,-0.00744,-0.00977828571429,0.373
0.463986313036,0.539684496312,-0.124043912762,-1.36823968128,0.0788840714009,1.89856571363,0.157632500219,-0.00431216001234,-0.0405576283072,0.00192072379154,-0.0696725777444,-0.00142928076589,0.0202178616608,-0.00572420483915,0.574010736367,0.818833221366,0.00213939798638,0.0,0.818791357475,-0.573950184229,-0.0119434437336,0.0,-0.00855194528964,0.00860755123579,-0.999926384437,0.0,0.660254896764,0.258976628498,0.303426428712,1.0,-0.00776,-0.0101988571429,0.389
0.463885187389,0.538963862004,-0.124051368435,-1.36933879796,0.0788322537421,1.89897796706,0.157484598365,-0.00786210708722,-0.0417293625699,-0.000634699084802,-0.0654426436768,0.000182629075347,0.0254981886975,-0.00983455486413,0.574024624829,0.818823393357,0.00217427718385,0.0,0.818781890834,-0.573963834392,-0.0119364548144,0.0,-0.00852605611934,0.00863224397789,-0.999926392656,0.0,0.660132686011,0.258804115415,0.303448403187,1.0,-0.00808,-0.0106194285714,0.405
0.463770169373,0.53814758957,-0.124062781311,-1.3706054637,0.07875583093,1.89947379471,0.157333007579,-0.00673635858337,-0.0422157507948,-0.000532730522051,-0.0734703343275,-0.00277540171368,0.0324529043509,-0.00614673273676,0.574049584729,0.818805789562,0.00221362923834,0.0,0.818764920719,-0.573988755133,-0.011902120935,0.0,-0.00847509041057,0.00864501599131,-0.999926715585,0.0,0.659988177645,0.258595324302,0.303470980933,1.0,-0.00846,-0.0111188571429,0.424
0.463678404827,0.537445009993,-0.12406345033,-1.37170926552,0.0786924414323,1.8998946654,0.157194466475,-0.00911894626762,-0.044549188274,0.000156503123755,-0.0714677814783,-0.00675891166641,0.0267106351902,-0.00561801945142,0.574058572194,0.818799455223,0.00222591956547,0.0,0.818758690587,-0.573997635194,-0.0119024485181,0.0,-0.00846820883495,0.00865536023317,-0.999926684402,0.0,0.659870679093,0.258438748082,0.303472668124,1.0,-0.00874,-0.0114868571429,0.438
0.463562117857,0.536599391126,-0.124068899262,-1.3730170122,0.0786129084203,1.90037386125,0.157032489906,-0.00866496211131,-0.0559535724116,-0.00110593366336,-0.0734654226191,-0.000753028145105,0.0273880733292,-0.014783251969,0.574075673959,0.818787430009,0.00223873389181,0.0,0.818746845753,-0.574014697428,-0.0118943939451,0.0,-0.0084540768595,0.00866140529169,-0.999926751639,0.0,0.659721040369,0.258234370505,0.303488912411,1.0,-0.00908,-0.0119337142857,0.455
0.463440181896,0.535694287028,-0.124072305056,-1.37446217147,0.0785300933028,1.9009018827,0.156867331797,-0.00452007516539,-0.0524293455872,0.000273981861974,-0.0778151369214,-0.00389065647077,0.0283647289887,-0.011963811703,0.574096118048,0.818773122888,0.00222876191585,0.0,0.818732339986,-0.574035108415,-0.0119078406475,0.0,-0.00847059537106,0.00866117130311,-0.99992661387,0.0,0.659542257482,0.258003484114,0.303486838812,1.0,-0.00946,-0.0124331428571,0.474
0.463308884,0.534797444864,-0.124075982136,-1.37588685771,0.0784486658922,1.90140943292,0.156699595536,-0.0085462151707,-0.0486424705455,-0.000609755556005,-0.0852459717616,-0.00755821459369,0.0333424841328,-0.00609891911699,0.574129002041,0.818750106731,0.0022132882704,0.0,0.81870907198,-0.574067999153,-0.0119220261534,0.0,-0.00849074568977,0.00865698683746,-0.999926479206,0.0,0.659384791125,0.257789916694,0.303484558429,1.0,-0.00978,-0.0128537142857,0.49
0.463210825646,0.534012661904,-0.12407837408,-1.37717932797,0.0783891846358,1.90187723688,0.156544065393,-0.000544036909147,-0.0514803535508,-8.20520595916e-05,-0.0826607462843,-0.00304486073818,0.0268471767683,-0.0123033533738,0.574138575862,0.818743461857,0.00218775574574,0.0,0.818701901527,-0.574077479415,-0.0119578829986,0.0,-0.00853466153736,0.00865676837388,-0.999926107227,0.0,0.659227359349,0.257602861892,0.30346363412,1.0,-0.01008,-0.013248,0.505
0.463069315867,0.533086361572,-0.124079755637,-1.37866438495,0.0782985579602,1.90243601939,0.156343274887,-0.00871138427813,-0.0564703187807,0.000418062620582,-0.089869286465,-0.00180787093926,0.0317411783453,-0.0152039810307,0.574148067558,0.818736811668,0.00218555238806,0.0,0.818695228204,-0.574086984599,-0.0119584418501,0.0,-0.00853628372264,0.0086553842333,-0.999926105362,0.0,0.659059355449,0.257367906489,0.303458506466,1.0,-0.01042,-0.0136948571429,0.522
0.462926438969,0.532091007414,-0.124080136408,-1.38030015174,0.0782081040505,1.90305522788,0.156135961073,-0.0141612699599,-0.0582621781656,-0.00123923305589,-0.093342311949,-0.0109174677086,0.0416520838413,-0.0119345630755,0.574160858487,0.81872788442,0.00216950584475,0.0,0.818686008407,-0.574099755499,-0.0119765302092,0.0,-0.00856017127566,0.00865276553941,-0.999925923814,0.0,0.658869812581,0.257119793217,0.303435367174,1.0,-0.01078,-0.014168,0.54
0.462790131205,0.531020420968,-0.124075103991,-1.38199155611,0.0781008123644,1.90366514524,0.155925529477,-0.0112622778029,-0.0577153553796,0.000839708642532,-0.0948634744847,-0.00342415026785,0.026663376943,-0.0110605589265,0.574164266976,0.818725559634,0.00214462839502,0.0,0.81868332668,-0.574103233834,-0.0119930987984,0.0,-0.0085879837738,0.00864194667352,-0.999925778892,0.0,0.65867435983,0.256880940065,0.30342775999,1.0,-0.01112,-0.0146148571429,0.557
0.462662751015,0.530053480958,-0.124083074058,-1.38354478577,0.0780097345797,1.9042115445,0.155721279021,-0.00983427052722,-0.0600176858497,0.000224714461585,-0.0933642760607,-0.011842125848,0.0352401454237,-0.00832287394921,0.574162455635,0.818726883022,0.00212425461781,0.0,0.818684333565,-0.574101456827,-0.0120094190116,0.0,-0.00861306235167,0.00863461772972,-0.999925626501,0.0,0.65847623934,0.256632386858,0.303427083534,1.0,-0.01146,-0.0150617142857,0.574
0.46252627014,0.529000081544,-0.124088712563,-1.38520783172,0.0779020650055,1.90483092304,0.155489610619,-0.0110829355679,-0.065781672115,-0.000304202828697,-0.103010170426,-0.00356269424909,0.0290299009861,-0.0114578578247,0.574149860717,0.818735709477,0.00212658556809,0.0,0.818693261083,-0.574088924604,-0.0119999085822,0.0,-0.00860407009984,0.008630933287,-0.999925735727,0.0,0.658280991525,0.256380284519,0.30343129545,1.0,-0.0118,-0.0155085714286,0.591
0.462391717838,0.527914261035,-0.124086527724,-1.38691685273,0.0777883143569,1.90548902386,0.155250854109,-0.00845920360788,-0.0668162510885,9.7278362358e-06,-0.102200692087,-0.00527133230799,0.0407031812221,-0.0148720388406,0.574125133433,0.81875298924,0.00214957495674,0.0,0.818710933482,-0.574064198183,-0.0119770890436,0.0,-0.00857244847906,0.00863639464208,-0.999925960166,0.0,0.65808113983,0.256130633665,0.303439297185,1.0,-0.01214,-0.0159554285714,0.608
0.462247937269,0.526817407087,-0.124092527726,-1.38857166243,0.0776940268608,1.90611684497,0.155024018515,-0.0115514837178,-0.0698852398807,-0.0021310206116,-0.102582356849,-0.00361452406655,0.0348598040049,-0.0193893864576,0.574125518637,0.81875255556,0.00221099878101,0.0,0.81871128454,-0.574064315109,-0.0119474510273,0.0,-0.0085129144601,0.00866967308764,-0.999926180803,0.0,0.657890903176,0.255877840943,0.303478236656,1.0,-0.01246,-0.016376,0.624
0.462113950555,0.525782160117,-0.124091991825,-1.39018294812,0.0775913280685,1.9067070317,0.154812780314,-0.007663626338,-0.0713391810926,-0.000932191538612,-0.112353319122,-0.010033383878,0.0364591417693,-0.0183211299711,0.574121089691,0.818755635837,0.0022203732127,0.0,0.818714498517,-0.574059860384,-0.01194125267,0.0,-0.0085025044856,0.00867374373299,-0.999926234073,0.0,0.657697728805,0.255635792557,0.30349080877,1.0,-0.01276,-0.0167702857143,0.639
0.461945781182,0.524555141383,-0.124095744288,-1.39212288492,0.0774661956203,1.90740143713,0.154546670681,-0.0113176175638,-0.0730463647546,-0.00136518282612,-0.113558310726,-0.00248928784993,0.0402341182752,-0.0117260232285,0.57411409639,0.818760594898,0.00219987945961,0.0,0.818719208617,-0.574052969777,-0.0119495703815,0.0,-0.00852115407605,0.00866166713601,-0.999926180003,0.0,0.657463643675,0.255335769569,0.303490744091,1.0,-0.01312,-0.0172434285714,0.657
0.461793492713,0.523349591855,-0.124103941502,-1.3940273361,0.0773539381247,1.90809791138,0.154283637733,-0.00721444416578,-0.0750494756992,-0.00137043000588,-0.107670931742,-0.00573190951059,0.0444176437771,-0.0175509315869,0.574105010984,0.818767012175,0.00218243841624,0.0,0.818725358665,-0.574043916384,-0.0119631117129,0.0,-0.0085423502045,0.00865506669331,-0.999926056303,0.0,0.657217115944,0.255031252647,0.303482533492,1.0,-0.01348,-0.0177165714286,0.675
0.461620748136,0.522048810947,-0.124105696606,-1.39608640064,0.0772211962577,1.90890508619,0.15401030492,-0.0129568169868,-0.0751522241223,0.000365472632703,-0.115982448775,-0.00407339778968,0.0483036707157,-0.0162430108528,0.574094902785,0.818773967739,0.0022314235243,0.0,0.818733068412,-0.574033728118,-0.0119242849867,0.0,-0.00848254508163,0.00867277843707,-0.999926411964,0.0,0.65699549947,0.254741188129,0.303496602017,1.0,-0.01382,-0.0181634285714,0.692
0.461470633147,0.520883061695,-0.124111353201,-1.39798444163,0.0771047234109,1.90962236507,0.153750203021,-0.00929920093086,-0.0724008435126,-0.000594976729031,-0.117647257881,-0.00803543584382,0.0355086081051,-0.0218012131246,0.574079036597,0.818785138665,0.00221434910576,0.0,0.818744035711,-0.574017952106,-0.0119306977518,0.0,-0.00849776548248,0.00866231537104,-0.999926373427,0.0,0.656767631201,0.254459128801,0.303474513754,1.0,-0.01414,-0.018584,0.708
0.461302634562,0.519576540715,-0.124119876117,-1.40002939674,0.0769799410117,1.91036876673,0.153478164103,-0.00682726295152,-0.0790189690786,-0.00268040262034,-0.124054366429,-0.0011386016722,0.0433442931747,-0.0192857756111,0.574075132853,0.818787863587,0.00221882492964,0.0,0.818746816229,-0.574014027981,-0.0119286837956,0.0,-0.00849358841305,0.00866478340556,-0.999926387533,0.0,0.656519593419,0.254148760681,0.303483592519,1.0,-0.01448,-0.0190308571429,0.725
0.461126294587,0.518234788059,-0.124120984544,-1.40211041222,0.0768391565482,1.9111100403,0.153203327257,-0.00906706019471,-0.0802368197824,0.00055921349608,-0.123476715327,-0.00930598002949,0.0423436658363,-0.0130709025407,0.574067534618,0.818793205202,0.00221352984088,0.0,0.818752146568,-0.574006510949,-0.0119245452491,0.0,-0.00849331960697,0.00865799329451,-0.999926448632,0.0,0.656263499233,0.253830579338,0.303499120701,1.0,-0.01482,-0.0194777142857,0.742
0.460957672991,0.5169533864,-0.12412417641,-1.40411595769,0.0767132323438,1.9118295974,0.152919965649,-0.0120132733705,-0.07970278859,-9.14026967337e-05,-0.122303314758,-0.0126426317377,0.0419086794282,-0.0137750706167,0.574047962273,0.818806943606,0.0022074905161,0.0,0.818765787593,-0.573986946448,-0.0119296804343,0.0,-0.00850119810833,0.00865579310572,-0.99992640073,0.0,0.656016320315,0.253525374618,0.303506046792,1.0,-0.01514,-0.0198982857143,0.758
0.460766308911,0.515528760127,-0.124137635679,-1.4064201528,0.0765685133006,1.9126987521,0.15260313552,-0.0115755618954,-0.0781833544353,-0.00442025308776,-0.128407638508,-0.00855369486307,0.0522895375744,-0.024437045559,0.574037664165,0.818814208623,0.00219061161704,0.0,0.818772910452,-0.573976797097,-0.0119291410165,0.0,-0.0085105537759,0.0086415560707,-0.999926444286,0.0,0.655740327315,0.253172826647,0.30348423577,1.0,-0.0155,-0.0203714285714,0.776
0.460581208115,0.514138783525,-0.124131231762,-1.408655109,0.076437338263,1.91350412527,0.152292490092,-0.0159796415817,-0.0838665661635,0.000755249686055,-0.137250832947,-0.00399169369418,0.0478645786988,-0.0240217051525,0.574012599014,0.818831859379,0.00216081939466,0.0,0.818790016801,-0.573951698725,-0.0119625590562,0.0,-0.00855528322845,0.00863608323454,-0.999926109868,0.0,0.655459392531,0.252841689533,0.303464477611,1.0,-0.01584,-0.0208182857143,0.793
0.460394970307,0.51281701867,-0.124133409426,-1.41079201828,0.0763049907963,1.91424527539,0.152001633814,-0.0127627168414,-0.0858566487283,-0.000103248955305,-0.134247972014,-0.00331867320893,0.0526153971764,-0.0170040173481,0.574003073217,0.818838682818,0.00210484198868,0.0,0.818796020868,-0.573942316791,-0.0120016710672,0.0,-0.0086195405937,0.00861259814041,-0.999925760581,0.0,0.655205545568,0.252533161792,0.303439095657,1.0,-0.01614,-0.0212125714286,0.808
0.4601930992,0.511307886741,-0.124134455973,-1.41322857592,0.0761626741876,1.91515598456,0.151659209283,-0.0130146424211,-0.0894075417113,0.000937332210561,-0.135190181602,-0.00718686809461,0.0500732665812,-0.0160600179701,0.57397972609,0.818855101889,0.00208399863686,0.0,0.818812067348,-0.573918960016,-0.0120238347081,0.0,-0.00864989860199,0.00860800631529,-0.999925537968,0.0,0.654888611914,0.252147717649,0.303414131774,1.0,-0.01652,-0.021712,0.827
0.460014633766,0.510015348225,-0.12413691025,-1.41528879365,0.0760372155071,1.91593395907,0.151362585644,-0.00790472344299,-0.0855783406765,0.000810486200509,-0.138488145913,-0.00904398145633,0.0588683258806,-0.0111881628387,0.573958670188,0.818869848159,0.00208892152569,0.0,0.818826837207,-0.57389784548,-0.0120258274015,0.0,-0.00864892641388,0.00861295873544,-0.999925503732,0.0,0.654619045423,0.251814896855,0.303403773296,1.0,-0.01684,-0.0221325714286,0.843
0.459810763608,0.508506713585,-0.124146137166,-1.41765783952,0.0758853169815,1.91678431041,0.15103934612,-0.0133432810249,-0.0878902240837,-0.000983512719371,-0.1350208249,-0.001365522213,0.0494426610271,-0.0192658314183,0.573949378959,0.818876390906,0.00207694742887,0.0,0.818833273814,-0.573888655985,-0.0120261019495,0.0,-0.00865612104976,0.00860321304647,-0.999925525374,0.0,0.654343838107,0.251467544939,0.303407947643,1.0,-0.01716,-0.0225531428571,0.859
0.459583550814,0.506904686839,-0.124147261051,-1.42019370394,0.0757162176806,1.91770876676,0.150689712011,-0.0125939097915,-0.084248325808,0.00010211116248,-0.136836540017,-0.00412322025785,0.0491923365795,-0.0205014317188,0.573935524528,0.818886142153,0.00206077051606,0.0,0.818842871142,-0.573874928687,-0.0120276974357,0.0,-0.00866685708303,0.00859073548105,-0.999925539654,0.0,0.654030184858,0.251073888556,0.303401537987,1.0,-0.01752,-0.0230262857143,0.877
0.459358520316,0.505296561376,-0.124152194671,-1.42265988645,0.0755635212571,1.9186349542,0.150355062046,-0.0138890982314,-0.0901411698676,0.000969111332973,-0.146026272851,-0.0119612650577,0.0483256767609,-0.0158114217209,0.573935494115,0.818886021347,0.00211649198053,0.0,0.818843498436,-0.573874684532,-0.0119966005117,0.0,-0.00860941305296,0.00861851647327,-0.999925796837,0.0,0.653732090805,0.250690575285,0.303432185245,1.0,-0.01786,-0.0234731428571,0.894
0.459163747295,0.503815176293,-0.124156140383,-1.42485019043,0.0754236778357,1.9194804067,0.150049715246,-0.00973348622884,-0.100532894342,-0.000201447795966,-0.145846410754,-0.0142350709498,0.0580994603158,-0.016304623267,0.573922808787,0.818894613676,0.00222893407954,0.0,0.818853656786,-0.573861640218,-0.0119270094697,0.0,-0.00848802746599,0.00867052053142,-0.999926385022,0.0,0.653471292113,0.250355336441,0.303497905355,1.0,-0.01816,-0.0238674285714,0.909
0.458912542227,0.502039860786,-0.124166017425,-1.4274958405,0.0752529430049,1.92046086156,0.149677909464,-0.011407461539,-0.103889248788,0.000548412902058,-0.153410087882,-0.00660680493628,0.0550195404969,-0.0219901660718,0.573920513091,0.818895976675,0.00231752887076,0.0,0.818856266735,-0.573859088304,-0.0118704718412,0.0,-0.00839090817808,0.00871059803489,-0.999926856396,0.0,0.653151860711,0.249933922619,0.303563452379,1.0,-0.01852,-0.0243405714286,0.927
0.458693314132,0.500425407178,-0.124167129127,-1.42992565074,0.0751014942642,1.92130923036,0.149334825537,-0.017159821832,-0.104356189396,-0.00268194110714,-0.15218975957,-0.00622031712946,0.0538037880976,-0.0221514372222,0.573908371801,0.818904390303,0.00235100392758,0.0,0.818865077227,-0.573846777406,-0.0118578353785,0.0,-0.00836147840784,0.00873063409967,-0.999926928184,0.0,0.652824092943,0.24952871767,0.303613151069,1.0,-0.01886,-0.0247874285714,0.944
0.458444782663,0.498746648243,-0.124171083131,-1.43253375296,0.0749356674989,1.92227476672,0.148969820801,-0.0130954525775,-0.0978087967939,-0.00034419559282,-0.154683821508,-0.00960657102012,0.0580560438062,-0.0252360230313,0.573898167357,0.818911473701,0.0023745832844,0.0,0.818872443494,-0.573836457738,-0.0118485424238,0.0,-0.00834044545638,0.00874450595809,-0.999926982627,0.0,0.652521094465,0.24914334138,0.303620444662,1.0,-0.01918,-0.025208,0.96
0.458186304527,0.497076208442,-0.124167222322,-1.43518952068,0.0747726915639,1.92325335092,0.14856898426,-0.0167807764794,-0.0956159937061,0.000102823532072,-0.153949166566,-0.00985463668515,0.0528693624294,-0.0250995923093,0.57386962563,0.818931490075,0.00236943945806,0.0,0.818892305489,-0.573807847952,-0.0118613886837,0.0,-0.00835422259746,0.00874737483794,-0.999926842523,0.0,0.652190812284,0.248724132719,0.303605643555,1.0,-0.01952,-0.0256548571429,0.977
0.457915873643,0.495406871795,-0.124172121278,-1.43789325487,0.0746070833493,1.92417822611,0.148175925396,-0.0196668031611,-0.0988376969795,-0.00012332936471,-0.166545142041,-0.0112389881768,0.0523500138014,-0.0206328320512,0.573864324,0.818935466099,0.0022774780055,0.0,0.81889491186,-0.573802731698,-0.0119287605234,0.0,-0.00846222488229,0.00871067295192,-0.999926254744,0.0,0.651841946746,0.248282507696,0.303562278371,1.0,-0.01986,-0.0261017142857,0.994
0.457651613237,0.493803720781,-0.124187967786,-1.44052153004,0.0744364943094,1.92511114448,0.147817964182,-0.0186894727121,-0.10586640654,-0.00431640963983,-0.169348727812,-0.00975402399294,0.0608933317278,-0.0303328556635,0.57388502509,0.818921197868,0.00219010516431,0.0,0.818879518335,-0.573823799167,-0.01197200329,0.0,-0.00854755737614,0.0086641524823,-0.999925933119,0.0,0.651511174806,0.247846414287,0.303509191407,1.0,-0.0243051428571,-0.0319439020408,1.01
0.457331048692,0.491297977641,-0.124260890932,-1.44434560682,0.0742168629781,1.92656273197,0.147252237726,-0.0212872503321,-0.146515137114,-0.00475811777808,-0.235116212567,-0.00794727992061,0.096893176607,-0.0336888819011,0.573869693158,0.818931652682,0.00229573767536,0.0,0.818891528087,-0.573808225108,-0.0118967611533,0.0,-0.00842548332864,0.00870731844852,-0.999926594224,0.0,0.651045041594,0.247237495967,0.303560777662,1.0,-0.0329554285714,-0.0433128489796,1.028
0.456929535214,0.48851087122,-0.124265909275,-1.44885657281,0.0739811367826,1.92821078763,0.146577792251,-0.0291162334068,-0.184594003685,-0.00146534616546,-0.299595998649,-0.0120360267422,0.102591201194,-0.0470908283249,0.57380983449,0.818973682642,0.00226448331136,0.0,0.818932624792,-0.573747958333,-0.0119742749433,0.0,-0.00850753716715,0.00872558397985,-0.999925740241,0.0,0.65042353417,0.246500841967,0.303496806162,1.0,-0.0411251428571,-0.0540501877551,1.045
0.456394819345,0.485017987902,-0.12433232315,-1.45429488065,0.0736542742248,1.93026756618,0.145765643534,-0.0379889247263,-0.227497847292,-0.00681341456171,-0.359326796323,-0.0180912601613,0.129472667384,-0.0544434852419,0.573814138466,0.818970465698,0.00233617482863,0.0,0.818930520266,-0.573752156721,-0.0119169013059,0.0,-0.00841936696467,0.00875141981582,-0.999926260737,0.0,0.649797934143,0.245650764065,0.303512746214,1.0,-0.0483337142857,-0.0635243102041,1.06
0.455684272814,0.480392691185,-0.124462337714,-1.46160941125,0.073216413284,1.93281015295,0.144656346686,-0.0372643257182,-0.273488636693,-0.0022808409761,-0.443005158748,-0.0240186277697,0.156648811906,-0.0601646720909,0.57382170356,0.818965546377,0.00219847042721,0.0,0.818923794285,-0.573760266994,-0.0119884141197,0.0,-0.00855686788668,0.00867975906929,-0.999925718138,0.0,0.64885795419,0.244409882469,0.303463999502,1.0,-0.056984,-0.0748932571429,1.078
0.454867748735,0.47526383071,-0.124560733582,-1.46953642973,0.0727412139505,1.93565245828,0.143502881322,-0.0506310955232,-0.319341819397,-0.00296519626371,-0.483627081302,-0.0281089804802,0.178537082917,-0.0702212749476,0.573873211495,0.818929367492,0.00223049077861,0.0,0.818887991583,-0.573811594439,-0.0119774049814,0.0,-0.00852893142389,0.00870020148182,-0.999925779157,0.0,0.647850963654,0.243068254147,0.303491888355,1.0,-0.0651537142857,-0.0856305959184,1.095
0.453982436986,0.469867015139,-0.124624463317,-1.47785922971,0.0722574944426,1.93867102063,0.142255293527,-0.0578381048332,-0.357225458843,-0.000503920499127,-0.533413502345,-0.030245806304,0.191686432073,-0.0759475117703,0.57389166916,0.818916181662,0.0023208580883,0.0,0.818875666695,-0.57382935522,-0.0119691471344,0.0,-0.00847011484468,0.00876965688485,-0.999925672374,0.0,0.646786143075,0.241671105477,0.303524511114,1.0,-0.0728428571429,-0.0957363265306,1.111
0.452849420455,0.463052653185,-0.124683036348,-1.48820418705,0.0715809123763,1.94247952917,0.140564095015,-0.0675480730613,-0.381123268342,-0.00501017448771,-0.598222775996,-0.0369641956674,0.210783107855,-0.0946028636142,0.573781922769,0.818992438691,0.00253719756516,0.0,0.818955001454,-0.573719051815,-0.0118280209428,0.0,-0.00823157961891,0.00886472590823,-0.999926826189,0.0,0.645466792033,0.239921250049,0.303632537942,1.0,-0.0814931428571,-0.107105273469,1.129
0.451630640895,0.456021224465,-0.124759098177,-1.49921937384,0.0708591117915,1.94619026959,0.138935012708,-0.0716263411196,-0.4204259103,-0.00658413949083,-0.673790716044,-0.0434126885451,0.230048234642,-0.104845718379,0.573814969313,0.818970007509,0.00229231200113,0.0,0.818929042167,-0.573752700816,-0.0119920433606,0.0,-0.00850606740745,0.00875862349502,-0.999925463888,0.0,0.643971958714,0.238020007422,0.303552571384,1.0,-0.0896628571428,-0.117842612245,1.146
0.450370803021,0.448669047172,-0.124875279277,-1.51012395407,0.0700980089582,1.95022903076,0.137180147768,-0.0768940323905,-0.466413819693,-0.00499956771352,-0.686831175688,-0.0460061559627,0.269472767784,-0.109847596097,0.573783569686,0.818990919484,0.00265251978492,0.0,0.818955566113,-0.573720914563,-0.0116978556713,0.0,-0.00805878665196,0.00888450428109,-0.999928058183,0.0,0.642578465191,0.236104167046,0.303761424449,1.0,-0.097352,-0.127948342857,1.162
0.448879784341,0.440435131136,-0.124923963266,-1.52269924258,0.0692856015869,1.954655607,0.135235235206,-0.087713259313,-0.496967926537,-0.00493364303203,-0.781237834058,-0.0545165481331,0.261774021859,-0.116679276737,0.573788447333,0.8189872615,0.00272582247427,0.0,0.818952520768,-0.573725156835,-0.0117029929165,0.0,-0.00802088362032,0.0089475335889,-0.999927800928,0.0,0.640879278897,0.233917629041,0.303797513269,1.0,-0.105521714286,-0.138685681633,1.179
0.447439489722,0.432594553291,-0.124974257804,-1.53447460359,0.0684903853694,1.95878187729,0.133291103875,-0.0913541917944,-0.540413559286,-0.00347363953618,-0.78341638944,-0.0522369675031,0.293459870379,-0.128242067932,0.573710018156,0.819041687299,0.00287687929125,0.0,0.819008860373,-0.5736461657,-0.0116322873829,0.0,-0.00787716917057,0.00902992328941,-0.999928202768,0.0,0.639275241988,0.231839257874,0.303903289026,1.0,-0.112730285714,-0.148159804082,1.194
0.445663029865,0.423287959264,-0.125022553247,-1.54863413191,0.067493019628,1.96372461973,0.130958270769,-0.103866214364,-0.564188393662,-0.00642275627815,-0.832942182266,-0.0584965634822,0.295161328188,-0.146163698126,0.573620308176,0.819104365996,0.00292002664103,0.0,0.819072188393,-0.573556427117,-0.0115983625951,0.0,-0.00782562006015,0.00904494308034,-0.99992847178,0.0,0.637316191531,0.229316661418,0.303926832538,1.0,-0.1209,-0.158897142857,1.211
0.443577919814,0.41275994475,-0.125155309973,-1.56449228608,0.0663405184347,1.96923471517,0.128376204772,-0.109483136785,-0.603054622917,-0.00785467727082,-0.895974109463,-0.0591765774393,0.318340427885,-0.154891249681,0.573651739342,0.819082036948,0.00300759054423,0.0,0.819051581393,-0.573588260747,-0.0114787217232,0.0,-0.00767704394819,0.00904833468186,-0.999929592839,0.0,0.635117179679,0.226387960407,0.303998584126,1.0,-0.129550285714,-0.170266089796,1.229
0.441538346658,0.403029468771,-0.125202654497,-1.57947336828,0.0653534850483,1.97421826612,0.125873538696,-0.130353486632,-0.617188172411,-0.00113132293135,-0.960128389175,-0.070074946742,0.301741200333,-0.164212411318,0.573642432547,0.819089273279,0.00280515272726,0.0,0.819055118395,-0.573578383568,-0.0117174158808,0.0,-0.00798878850047,0.0090193552987,-0.99992741261,0.0,0.632941924335,0.223632456317,0.303876432813,1.0,-0.137239428571,-0.180371820408,1.245
0.439002488715,0.391319225825,-0.125352071304,-1.59681727502,0.0640877568745,1.98022049365,0.12288923447,-0.146508226852,-0.658014418038,-0.00978652663785,-0.981515781975,-0.0773677068833,0.329629797956,-0.173733507395,0.573713380244,0.819038666011,0.00306068759294,0.0,0.819008390115,-0.573649128103,-0.0115187520537,0.0,-0.00767869038567,0.00911536649411,-0.999928971381,0.0,0.630495634197,0.220290469396,0.304024439156,1.0,-0.145889714286,-0.191740767347,1.263
0.43677721914,0.381233721273,-0.125475417564,-1.61201148505,0.0629334555281,1.98521652542,0.120184046035,-0.155511169819,-0.699378763056,-0.00412978152313,-1.01298458225,-0.0747622132044,0.345892797603,-0.181702268843,0.573662995329,0.819074507596,0.00290958732445,0.0,0.81904245177,-0.573599440051,-0.0115711482859,0.0,-0.00780884526899,0.00902118880679,-0.999928817511,0.0,0.628250794582,0.217352752457,0.303988268684,1.0,-0.153098285714,-0.201214889796,1.278
0.434192506187,0.370003176627,-0.125580869029,-1.62876553336,0.0617169415758,1.99079605832,0.117207029118,-0.166271172671,-0.71082180691,-0.00427161752066,-1.06422314566,-0.0815775467898,0.352681615427,-0.188851661823,0.573694155942,0.819052585998,0.00293661545766,0.0,0.819020616812,-0.573630203103,-0.0115916446821,0.0,-0.00780978559402,0.00905538175952,-0.999928501099,0.0,0.625762855753,0.214078294173,0.303996602067,1.0,-0.160306857143,-0.210689012245,1.294
0.430842999294,0.356150411896,-0.125779105663,-1.64925630678,0.0600671314462,1.99758307144,0.113494019125,-0.183198223973,-0.734639706445,-0.00799224124605,-1.09218044039,-0.0921957609583,0.350184621944,-0.214582020816,0.573794459536,0.818982279778,0.00294796805001,0.0,0.818951459647,-0.573731624068,-0.0114576257591,0.0,-0.00769239807052,0.00898873797864,-0.999930012352,0.0,0.622706043357,0.209912823002,0.304038584954,1.0,-0.169918285714,-0.22332117551,1.313
0.427788311641,0.343954729811,-0.125929984238,-1.6671185255,0.0587805575405,2.00336384557,0.110112528691,-0.194237396013,-0.775332793619,-0.00924765428673,-1.10777695124,-0.0881155224129,0.374417117085,-0.215256301397,0.5738805129,0.818921594443,0.00305384513508,0.0,0.818891469819,-0.573816545132,-0.0114926103472,0.0,-0.00765934739127,0.0090963279844,-0.999929293108,0.0,0.619969723753,0.20624928104,0.304101189326,1.0,-0.177607428571,-0.233426906122,1.329
0.424189982047,0.329915917463,-0.126035503105,-1.68781926052,0.0571575673564,2.00997914895,0.106147374306,-0.202120818594,-0.798734224208,-0.00677746534501,-1.15032597472,-0.0905414591458,0.365291006836,-0.225314785474,0.573858343506,0.818937414205,0.00297659293222,0.0,0.818905949662,-0.573794223343,-0.011575049355,0.0,-0.00777143878263,0.00908016313208,-0.999928575138,0.0,0.61670793898,0.202011117177,0.304055542819,1.0,-0.186257714286,-0.244795853061,1.347
0.420573101381,0.316067694655,-0.12610306197,-1.70792588425,0.055425189988,2.01639299003,0.102210107617,-0.217889220434,-0.793384083788,-0.00558302716081,-1.21058668914,-0.106094064955,0.372896117644,-0.233951808475,0.573748752986,0.819014100879,0.00300298336463,0.0,0.818983689784,-0.573685398796,-0.0114684775483,0.0,-0.00767022479413,0.00903959312847,-0.999929724234,0.0,0.613490451297,0.197849835584,0.304096675056,1.0,-0.194427428571,-0.255533191837,1.364
0.416929979414,0.302647333504,-0.126177405688,-1.72724687535,0.053837253773,2.0224527151,0.0981864742682,-0.23882288542,-0.856906912613,-0.00379694335447,-1.21439626088,-0.100217658719,0.379355983708,-0.252430057967,0.573584979331,0.819128452567,0.00309783517093,0.0,0.819099130428,-0.573521194263,-0.0114368337054,0.0,-0.00759170793241,0.00909760527633,-0.99992979731,0.0,0.610340673558,0.193780037266,0.304152526352,1.0,-0.202116571429,-0.265638922449,1.38
0.412756751812,0.287951062697,-0.126341613999,-1.7482521662,0.0521206962715,2.02887778796,0.0938829284986,-0.243798173907,-0.86815458073,-0.00971105835806,-1.24478251514,-0.0997578767445,0.394679003632,-0.259707224639,0.573670724916,0.819068136258,0.0031677186828,0.0,0.819039345695,-0.573606270801,-0.0114517772835,0.0,-0.00756290818527,0.00916421205258,-0.999929407327,0.0,0.60686166869,0.189206776171,0.304213931013,1.0,-0.210286285714,-0.276376261224,1.397
0.408294014378,0.272956767922,-0.126487409155,-1.76973223747,0.0502959345767,2.03528881341,0.0892644606855,-0.267859288465,-0.917442348604,-0.0077816005526,-1.25830596292,-0.116642741885,0.38667512946,-0.280551041135,0.573657678513,0.819077661252,0.00306588020835,0.0,0.819047105433,-0.57359300533,-0.0115607187778,0.0,-0.00771070751127,0.00914317144067,-0.999928471145,0.0,0.603218195967,0.184448265918,0.304181411629,1.0,-0.218456,-0.2871136,1.414
0.403781706045,0.258492934921,-0.126670374906,-1.79032793621,0.0484763271318,2.04138622322,0.0847513584008,-0.28924027232,-0.906649515748,-0.00573606671321,-1.29595909647,-0.112892277929,0.364306361169,-0.281391434895,0.573736931884,0.819022496816,0.00297146471745,0.0,0.81899069558,-0.573672528978,-0.0116110701382,0.0,-0.00780523025097,0.00909547682896,-0.999928172761,0.0,0.599685787599,0.17975149836,0.304144123253,1.0,-0.226145142857,-0.297219330612,1.43
0.398383424161,0.241719284342,-0.12686709225,-1.81389042841,0.0463505885781,2.04823251911,0.0794075880649,-0.306337223779,-0.921109670889,-0.00928164135833,-1.33214941867,-0.115519297392,0.373141183895,-0.313802145558,0.573799556251,0.818978700459,0.00295031228089,0.0,0.818946592932,-0.573735177969,-0.0116262800251,0.0,-0.00782912849955,0.00908747747185,-0.999928058662,0.0,0.595562975576,0.174289950277,0.30416009139,1.0,-0.234795428571,-0.308588277551,1.448
0.393416201754,0.226391226891,-0.126981247834,-1.83504443033,0.0444840721818,2.05440729905,0.0744121305574,-0.318255514118,-0.962542639306,-0.00384171322264,-1.35378866402,-0.120077269667,0.386091397375,-0.319307632196,0.573716592795,0.819035776977,0.00322708596803,0.0,0.819006903705,-0.573650917342,-0.0115353203756,0.0,-0.00759676552192,0.00926118869596,-0.999928257195,0.0,0.591789871311,0.169415752328,0.304274866466,1.0,-0.242484571429,-0.318694008163,1.464
0.387767082544,0.209795181255,-0.127136717705,-1.8578750726,0.0422855925206,2.06076365815,0.0688432206849,-0.346672622852,-0.982450824661,-0.0108401754459,-1.35583738443,-0.117778698208,0.368851693142,-0.330788106321,0.573629466064,0.819096765101,0.00323604156251,0.0,0.819068281788,-0.573564109276,-0.0114938775238,0.0,-0.00755866612955,0.00924394380392,-0.999928705493,0.0,0.587367531347,0.163657454355,0.30432881028,1.0,-0.251134857143,-0.330062955102,1.482
0.382437362953,0.194873218532,-0.127321268304,-1.87832757014,0.0402899015926,2.06634683924,0.0636764554938,-0.362664534735,-1.01398679398,-0.0151016905186,-1.36898191395,-0.137260491693,0.387505215253,-0.342754039585,0.573603132796,0.819115291916,0.00321426472574,0.0,0.819086598589,-0.573537933383,-0.0114947763581,0.0,-0.00757219013202,0.00922637852732,-0.999928765401,0.0,0.583821017923,0.158986995334,0.304340556394,1.0,-0.257862857143,-0.338905469388,1.496
0.375928165553,0.17763596683,-0.127591463697,-1.9016729659,0.0380605565301,2.07259666698,0.0575438210042,-0.388877916813,-1.04016058167,-0.019851456897,-1.36553081285,-0.135273587942,0.386993642116,-0.368519076999,0.573752906589,0.819010044305,0.00330097110905,0.0,0.818982086717,-0.573686949537,-0.0115053235076,0.0,-0.00752939643388,0.00930482815761,-0.999928361615,0.0,0.579437327575,0.153073690427,0.304386360996,1.0,-0.266032571429,-0.349642808163,1.513
0.36870331799,0.15901260894,-0.127815127973,-1.92672475718,0.0355054917708,2.07904833321,0.0507576677111,-0.406334031485,-1.07207396421,-0.0166566520916,-1.38185530251,-0.138300639646,0.369283686683,-0.385257215221,0.573765978439,0.819001117103,0.00324331173343,0.0,0.818972340939,-0.573700108101,-0.0115428611571,0.0,-0.00759307408034,0.00927926228306,-0.999928117675,0.0,0.574588753308,0.146686282528,0.304392541286,1.0,-0.274682857143,-0.361011755102,1.531
0.361539986038,0.141219094306,-0.128010653411,-1.95057948821,0.0330212920005,2.08503778617,0.0440989492111,-0.430996748735,-1.06223737791,-0.0152058675072,-1.38566032763,-0.133043655783,0.349396636494,-0.398483476068,0.573758696286,0.819006707934,0.00311732196836,0.0,0.818976022697,-0.573692896471,-0.0116396601006,0.0,-0.0077447233411,0.00923154588749,-0.999927396275,0.0,0.569859795208,0.140531607262,0.304327381179,1.0,-0.282852571429,-0.371749093878,1.548
0.354380981936,0.124033830339,-0.128242431767,-1.97325929242,0.0306325908165,2.0905994157,0.0373907626205,-0.460705715912,-1.05599730169,-0.0103035358884,-1.43193719257,-0.151508011791,0.339125123781,-0.420060964566,0.573702562258,0.819046004392,0.00312404369136,0.0,0.81901516557,-0.573636460727,-0.011666893001,0.0,-0.00776380620721,0.00925214370184,-0.999927057915,0.0,0.565287562636,0.134539219342,0.30432424742,1.0,-0.290541714286,-0.38185482449,1.564
0.34576587369,0.104293381817,-0.12862899197,-1.99888255535,0.0278117822795,2.09667635119,0.0295731829874,-0.485302950246,-1.08987069481,-0.0209268369242,-1.42133077448,-0.157306846935,0.320808133967,-0.447571994882,0.573864756503,0.818932110599,0.00319160994925,0.0,0.818902530556,-0.573798872637,-0.0115864624003,0.0,-0.00765733134442,0.00926285822678,-0.999927779759,0.0,0.560043575461,0.127493689346,0.30438493435,1.0,-0.299192,-0.393223771429,1.582
0.337323871856,0.0854049333376,-0.128848909303,-2.02326812029,0.0251740318155,2.10220570319,0.021758378455,-0.514321917163,-1.10933603678,-0.0242582426301,-1.46694370397,-0.149908895223,0.31749589072,-0.472805849198,0.573749317471,0.819012895187,0.0032163829993,0.0,0.818982745575,-0.573682291227,-0.0116892294391,0.0,-0.00772859647634,0.00934102943578,-0.999926504282,0.0,0.554879172301,0.120852393347,0.304369899096,1.0,-0.307361714286,-0.403961110204,1.599
0.328919810801,0.067302712285,-0.129117691937,-2.04615043755,0.0225364169216,2.1072218407,0.0140449337645,-0.527536061659,-1.13599967161,-0.0239090966893,-1.45545032982,-0.165666945017,0.317145136938,-0.481340234978,0.573652107416,0.819080466402,0.00334605996968,0.0,0.819052245151,-0.573584975372,-0.011594940333,0.0,-0.00757808531221,0.00939224071772,-0.999927176567,0.0,0.549957672339,0.114406237887,0.304455342957,1.0,-0.30998,-0.407402285714,1.615
0.318887089018,0.0471665573291,-0.129481303154,-2.07151137656,0.0195276312331,2.11240537559,0.0051958491277,-0.563715084195,-1.10970598903,-0.0167744986037,-1.40487892036,-0.164684613864,0.28118080926,-0.504579363069,0.573840965987,0.81894854449,0.00325178940241,0.0,0.818918848112,-0.573773802323,-0.0116743682946,0.0,-0.00769506350674,0.00936236266569,-0.999926563385,0.0,0.544377061396,0.106945088527,0.304442609042,1.0,-0.30998,-0.407402285714,1.633
0.309814492985,0.0293179773374,-0.129661197067,-2.09356225828,0.0169409005325,2.11673390904,-0.0028600466471,-0.571535703205,-1.11385790691,-0.00984391784869,-1.37047007816,-0.162738612104,0.253565125526,-0.505620188666,0.573841341568,0.818947841804,0.00336065670138,0.0,0.818918940212,-0.573773059697,-0.0117043679193,0.0,-0.00765715999312,0.00946873791589,-0.999925852703,0.0,0.539395768115,0.100469440186,0.304501438661,1.0,-0.30998,-0.407402285714,1.649
0.300424007308,0.0116282467528,-0.129894457386,-2.11509580047,0.0142096548112,2.12084639701,-0.0111367914805,-0.597067471679,-1.10233146583,-0.0159973950852,-1.34313519485,-0.167035919256,0.249391943162,-0.519830859471,0.573850207248,0.818941096697,0.00348807736507,0.0,0.818914627041,-0.57378249755,-0.0115423578472,0.0,-0.00745125691146,0.00948020454056,-0.999927299603,0.0,0.534466046579,0.0939204114145,0.304595013419,1.0,-0.30998,-0.407402285714,1.665
0.289555841161,-0.00800871559033,-0.130134936739,-2.13872231691,0.0112843497527,2.12505012623,-0.0207529523935,-0.600264720009,-1.09366413078,-0.0051025610415,-1.30133072753,-0.176996485626,0.259363811521,-0.547526386293,0.573845227842,0.818943846357,0.00365758102956,0.0,0.818919315765,-0.573776683516,-0.0114986356311,0.0,-0.00731824307763,0.00959388564972,-0.999927197688,0.0,0.528917318284,0.086589536038,0.304681586352,1.0,-0.30998,-0.407402285714,1.683
0.27969868413,-0.0251720303292,-0.130310700174,-2.15930055363,0.00860451526936,2.12840597096,-0.0294550073736,-0.622621964263,-1.0786485721,-0.012584046497,-1.25091174527,-0.163805955448,0.195110867724,-0.542291905141,0.573759724413,0.819004100948,0.00357885080088,0.0,0.818978246121,-0.573691031921,-0.0115749373322,0.0,-0.00742690952529,0.00957241810458,-0.99992660222,0.0,0.523942100539,0.080122001969,0.304664801735,1.0,-0.30998,-0.407402285714,1.699
0.268770256635,-0.0433131407102,-0.130629789969,-2.18078787009,0.00579244840752,2.13179632062,-0.0389355609007,-0.652530874243,-1.04378867728,-0.0151436038414,-1.26008934998,-0.158196164706,0.17512721286,-0.562542928859,0.573924494305,0.818888535448,0.00360392144364,0.0,0.818862714107,-0.573855325219,-0.0116046569939,0.0,-0.00743493420352,0.0096114988427,-0.999926167696,0.0,0.518674291194,0.073102704998,0.304653684692,1.0,-0.30998,-0.407402285714,1.716
0.257055342446,-0.0623943332946,-0.130817054103,-2.20286694392,0.00287098265179,2.13504023944,-0.0492710948598,-0.660895170909,-1.05018425734,-0.016282831558,-1.23141379144,-0.159596699883,0.173866553898,-0.575357304034,0.573822387573,0.818959180422,0.0038046319021,0.0,0.81893595665,-0.573752625041,-0.0115139509254,0.0,-0.00724667779317,0.00972289987283,-0.999926472736,0.0,0.513121507962,0.065863157495,0.304740890318,1.0,-0.30998,-0.407402285714,1.734
0.247626001526,-0.0770310426526,-0.131058814307,-2.2196676508,0.000544071516203,2.13727176853,-0.0574937330554,-0.680766759924,-1.04137925243,-0.0256047190482,-1.19926689004,-0.16004649298,0.151078163966,-0.591131329341,0.573872123153,0.818924161817,0.00384061994335,0.0,0.818901440695,-0.573802298619,-0.0114934515449,0.0,-0.00720864740997,0.00974104819056,-0.999926570995,0.0,0.508803362048,0.0601353307371,0.304769123019,1.0,-0.30998,-0.407402285714,1.748
0.235922461052,-0.0945832452863,-0.13128538792,-2.23977061882,-0.0022269815424,2.13962973558,-0.0677790735734,-0.687279300603,-1.03374267662,-0.00831318857398,-1.14869897213,-0.16327580052,0.134963308869,-0.597934446577,0.573823745013,0.81895857685,0.00372906999579,0.0,0.818933346676,-0.573752850764,-0.0116870373587,0.0,-0.00743177802689,0.00976034723388,-0.999924749317,0.0,0.50348912392,0.0532330044236,0.304706818578,1.0,-0.30998,-0.407402285714,1.765
0.223239149229,-0.112973590844,-0.131534540926,-2.26061626836,-0.00525839430464,2.14183951484,-0.0789046618853,-0.719913352425,-1.00245044692,-0.0186768903001,-1.15348931968,-0.169938449275,0.11074963438,-0.621252902115,0.573738049433,0.819019520304,0.00352461278308,0.0,0.818990974997,-0.573667007717,-0.0118614514715,0.0,-0.00769295433887,0.00969217869487,-0.999923437132,0.0,0.497844650474,0.0459371338126,0.30461288661,1.0,-0.30998,-0.407402285714,1.783
0.211533290978,-0.129276994649,-0.131842561038,-2.27856396962,-0.00785163152611,2.14359114159,-0.0891018105393,-0.735657933878,-1.006928907,-0.0111091797966,-1.12170450757,-0.156980770115,0.105894329162,-0.635191689399,0.573844612335,0.818944374523,0.0036358261504,0.0,0.818917141768,-0.573772997678,-0.0118325379846,0.0,-0.00760419795384,0.00976766658961,-0.999923381496,0.0,0.492902332115,0.0393672777124,0.304662641718,1.0,-0.30998,-0.407402285714,1.799
0.198165369767,-0.147378351011,-0.132119523656,-2.29827901658,-0.0107577613966,2.14530209342,-0.100942545597,-0.753784184092,-0.978695085477,-0.0203868268963,-1.08898332496,-0.164533756065,0.0859312396879,-0.661546181972,0.573736879998,0.819019392329,0.00373823771753,0.0,0.818993421275,-0.573664841302,-0.0117971464125,0.0,-0.00751774087879,0.00983023933596,-0.999923422051,0.0,0.487336301308,0.032086423556,0.30469483755,1.0,-0.30998,-0.407402285714,1.817
0.184285952343,-0.165212183386,-0.132495876144,-2.31749347173,-0.0136767096604,2.14657135753,-0.113025058532,-0.762286246393,-0.99284136644,-0.00919026024347,-1.03096686011,-0.145346994298,0.0684154425514,-0.678785598541,0.573887661672,0.818913925524,0.00369881938551,0.0,0.818886753491,-0.573814842398,-0.0119062379462,0.0,-0.00762789345254,0.00986194712563,-0.9999222756,0.0,0.481743181333,0.0246885251583,0.304681722629,1.0,-0.30998,-0.407402285714,1.835
0.171766356733,-0.180896819203,-0.132741644891,-2.33414849455,-0.0162136943901,2.14750495902,-0.124152460407,-0.793515911344,-0.978092131261,-0.0201490322587,-1.03392572237,-0.155228709824,0.0554415042011,-0.703070160797,0.573788457278,0.818983263722,0.00373723676277,0.0,0.818956228715,-0.573715045071,-0.0119368927854,0.0,-0.0076321533969,0.00991007542075,-0.99992176726,0.0,0.477089102325,0.0186344172111,0.304691853899,1.0,-0.30998,-0.407402285714,1.85
0.157210296838,-0.19842335355,-0.133111234618,-2.35234271267,-0.0190863503875,2.14836421332,-0.136962983377,-0.800735023729,-0.949428509095,-0.00919383299506,-1.01239235475,-0.152902372889,0.0411910009405,-0.713271287383,0.57384403246,0.818943578214,0.00389730858708,0.0,0.818918966504,-0.573770501218,-0.011827304609,0.0,-0.00744987788893,0.00997880021306,-0.999922458427,0.0,0.471233256339,0.0108664277082,0.304759076763,1.0,-0.30998,-0.407402285714,1.869
0.144017563429,-0.213718354192,-0.133394073629,-2.36817314562,-0.0215226126872,2.14873947528,-0.148701879427,-0.834489982181,-0.945132390707,-0.0259885077088,-0.956532488952,-0.149801862216,0.0164348370917,-0.736126639348,0.57381178552,0.818966145976,0.00390300448732,0.0,0.818940292323,-0.573736483373,-0.0119996732509,0.0,-0.007588176182,0.0100820756807,-0.999920382497,0.0,0.466239466802,0.00439061423107,0.304735708796,1.0,-0.30998,-0.407402285714,1.885
0.130482059139,-0.22882584032,-0.133697799221,-2.38353277561,-0.024107608789,2.14903212777,-0.160642263782,-0.856589117306,-0.941053559815,-0.00823459739853,-0.964526427881,-0.153079009273,0.0113623469555,-0.754840380122,0.573826414377,0.818955817886,0.00391936410741,0.0,0.818930717258,-0.573751770721,-0.0119219473192,0.0,-0.00751495070694,0.0100510094553,-0.999921248261,0.0,0.461298642842,-0.00212901007391,0.30475656028,1.0,-0.30998,-0.407402285714,1.901
0.115784746912,-0.24474349986,-0.134050599861,-2.3993590612,-0.0267088198101,2.14914790399,-0.173784311371,-0.876722339606,-0.940153951701,-0.0289222763234,-0.906502344215,-0.155087134388,0.00810523546028,-0.775785440494,0.573798596939,0.818974294532,0.00412576627301,0.0,0.818952434342,-0.573724012257,-0.0117649881195,0.0,-0.00726831160309,0.0101297350376,-0.999922277037,0.0,0.456075691045,-0.00904005617717,0.304843439138,1.0,-0.30998,-0.407402285714,1.918
0.102513497911,-0.258527819751,-0.13432357123,-2.4131192102,-0.028982739281,2.14905943985,-0.185686181006,-0.87994926966,-0.930563846263,-0.0134275496552,-0.923187228613,-0.154317794098,-0.00444335894961,-0.805776235777,0.573732024497,0.819020791953,0.00415371130384,0.0,0.818998890236,-0.573656792936,-0.011808836188,0.0,-0.00728901799755,0.0101771883837,-0.999921644457,0.0,0.451402942726,-0.0151197442925,0.304812146404,1.0,-0.30998,-0.407402285714,1.933
0.0870786113601,-0.273956518881,-0.134765753351,-2.42803837777,-0.0315624380414,2.14884266384,-0.199442893541,-0.914619671207,-0.894376734067,-0.0323721579073,-0.853936136658,-0.152581654288,-0.0243286261676,-0.818935108819,0.573854776019,0.818933535773,0.00439396485424,0.0,0.818915907623,-0.573780428949,-0.011554328121,0.0,-0.00694118938217,0.0102289910324,-0.999923590897,0.0,0.446209006126,-0.0221003823613,0.304910177305,1.0,-0.30998,-0.407402285714,1.95
0.0695392373188,-0.290790322756,-0.135130495892,-2.44438390616,-0.0343109809714,2.14817172366,-0.215312778461,-0.9253733475,-0.877487600603,-0.0257600742171,-0.826182861865,-0.144523635681,-0.0416395724651,-0.849438279837,0.573760043612,0.818999801108,0.00441418620738,0.0,0.818981364304,-0.573684076337,-0.0116983922337,0.0,-0.00704876828617,0.0103274051152,-0.999921826729,0.0,0.440291214768,-0.0297631675956,0.304863722829,1.0,-0.30998,-0.407402285714,1.969
0.0542546470205,-0.304703115593,-0.135530606603,-2.45746833661,-0.0367177624982,2.14754810901,-0.229044060675,-0.951350283394,-0.845896691343,-0.0212693397549,-0.788975506839,-0.146031505641,-0.0460595324098,-0.853192004827,0.573828346286,0.818951189656,0.00455245657645,0.0,0.818935798355,-0.573753828379,-0.0114651425805,0.0,-0.00677753325512,0.010307391917,-0.999923908462,0.0,0.435407845251,-0.0363508254273,0.304940702354,1.0,-0.30998,-0.407402285714,1.985
0.0398036440588,-0.317517555757,-0.135823121867,-2.46964795948,-0.0388542373124,2.14666501435,-0.242168574804,-0.979743982462,-0.854348526445,-0.030346364851,-0.782107716939,-0.139997179246,-0.0706550719969,-0.891405722163,0.573759830255,0.818999499118,0.00449716931681,0.0,0.818982325113,-0.573683879425,-0.0116406417946,0.0,-0.00695386014248,0.0103622343488,-0.999922130932,0.0,0.430705615156,-0.0423905952499,0.30487358676,1.0,-0.30998,-0.407402285714,2.0
0.0229990207108,-0.331735383361,-0.136219857359,-2.48270813236,-0.0411985243608,2.14567902631,-0.257473609836,-0.989713822322,-0.816201326133,-0.0157015977,-0.763373763186,-0.139812449212,-0.0651305823423,-0.917075336825,0.573768231629,0.818992443928,0.00470532284929,0.0,0.818978622531,-0.573692670045,-0.0114666069744,0.0,-0.00669178407828,0.0104329344985,-0.999923184001,0.0,0.425513249524,-0.0493095761736,0.304940581003,1.0,-0.30998,-0.407402285714,2.017
0.00474973429797,-0.346416569314,-0.136677553426,-2.49626466281,-0.0437545109483,2.14427068945,-0.274049961823,-1.02374504739,-0.788677304444,-0.0246829298828,-0.750887804705,-0.143347582883,-0.0888002535956,-0.93465078302,0.573829712754,0.818949874696,0.00461631860131,0.0,0.818934007931,-0.57375302754,-0.0116318933581,0.0,-0.00687744324657,0.0104553876171,-0.999921689756,0.0,0.419881975238,-0.056670952556,0.304875173323,1.0,-0.30998,-0.407402285714,2.035
-0.0127350928595,-0.360042235739,-0.137071538093,-2.50831241125,-0.0460201452548,2.14292952245,-0.290176950394,-1.04238058842,-0.80623648331,-0.040745800416,-0.709665783896,-0.124892035923,-0.0913310162359,-0.952782472704,0.57374978325,0.819004556459,0.0048445455359,0.0,0.818992792832,-0.57367425433,-0.0113755047671,0.0,-0.00653752505605,0.0104945433254,-0.999923559742,0.0,0.414697112088,-0.063561672535,0.304992171999,1.0,-0.30998,-0.407402285714,2.052
-0.0306541234424,-0.373187083266,-0.137488989663,-2.52017898104,-0.0482907966296,2.14133044922,-0.30670651398,-1.05941021283,-0.773196446927,-0.0219454704471,-0.690234818778,-0.123303565064,-0.0964028637158,-0.98603034057,0.573701747588,0.819038646273,0.00476944725662,0.0,0.819024730522,-0.573624568242,-0.0115798275047,0.0,-0.00674858405133,0.0105498656479,-0.999921575399,0.0,0.409371176548,-0.0704725372878,0.304911574321,1.0,-0.30998,-0.407402285714,2.069
-0.0489929124261,-0.386056250564,-0.137949214493,-2.53126794301,-0.0505198586982,2.1396978726,-0.323514038409,-1.094961888,-0.744682291202,-0.0212826319392,-0.653449797482,-0.131765643759,-0.0874053766384,-0.989024063928,0.573834017379,0.818945117447,0.0049154867321,0.0,0.818934155614,-0.573758102001,-0.0113682038092,0.0,-0.00648975961386,0.010549125142,-0.999923296548,0.0,0.404156869279,-0.0774484229055,0.305011749403,1.0,-0.30998,-0.407402285714,2.086
-0.0653738595754,-0.397002847608,-0.138261639718,-2.54081756642,-0.0523671854445,2.13814742539,-0.338788901025,-1.11115209507,-0.721084163776,-0.0281955729818,-0.625457647253,-0.122308812379,-0.108626903517,-1.02606252416,0.573730430166,0.819017548939,0.00493912261386,0.0,0.819006396048,-0.573653661416,-0.0114344601305,0.0,-0.00653180349533,0.0106056749331,-0.999922424592,0.0,0.399504044175,-0.0835054205425,0.304990507261,1.0,-0.30998,-0.407402285714,2.101
-0.0842619504877,-0.408996062551,-0.138644233819,-2.55117412948,-0.0543606136266,2.13621117834,-0.356436648006,-1.10447519556,-0.6946901114,-0.0250997308629,-0.592006026217,-0.112583072378,-0.111137541344,-1.05082600791,0.573675001949,0.819056266838,0.00495689348101,0.0,0.819043949649,-0.573595939411,-0.0116384593202,0.0,-0.00668942786193,0.0107368135048,-0.999919982994,0.0,0.394210588426,-0.0903669613835,0.30495053563,1.0,-0.30998,-0.407402285714,2.118
-0.105873930655,-0.421973839914,-0.139070700202,-2.56199723991,-0.0566526291968,2.13423359283,-0.376630005656,-1.14385516268,-0.664937025362,-0.0168892836899,-0.571129664039,-0.119594058364,-0.112953829001,-1.08021813544,0.573628428132,0.819088093791,0.00508605441082,0.0,0.819079065971,-0.573551653996,-0.0113459591076,0.0,-0.00637634786252,0.0106744509011,-0.999922696155,0.0,0.388395240502,-0.0981162807933,0.305039714619,1.0,-0.30998,-0.407402285714,2.137
-0.12437362271,-0.432394350036,-0.139488977796,-2.57086797083,-0.0584909714023,2.13224131804,-0.393951926847,-1.16443381416,-0.64981207734,-0.0218627117267,-0.547575325774,-0.120768629126,-0.123425339994,-1.09420661895,0.573660893976,0.819065856249,0.00500487274114,0.0,0.819053912362,-0.573581282735,-0.0116596587291,0.0,-0.00667945563396,0.010788158555,-0.999919497013,0.0,0.383354910947,-0.104608678765,0.304954864109,1.0,-0.30998,-0.407402285714,2.153
-0.145485220849,-0.443650462869,-0.139909839773,-2.58002962919,-0.060354308317,2.13018794393,-0.41391243329,-1.18992555859,-0.620990339722,-0.0267879595354,-0.483312935983,-0.0937395277652,-0.108601026557,-1.12135909581,0.573635055176,0.819082705582,0.00520497750542,0.0,0.819073707223,-0.573555413944,-0.0115410646404,0.0,-0.0064678679498,0.0108838290206,-0.999919851263,0.0,0.37783851059,-0.111900714523,0.30502487579,1.0,-0.30998,-0.407402285714,2.171
-0.164650784148,-0.4531451743,-0.140286329278,-2.5877681424,-0.0621289338923,2.12835539934,-0.432010444723,-1.19935973549,-0.576649450376,-0.0181723847576,-0.48065677436,-0.106219850182,-0.126210948651,-1.1341703505,0.573609996256,0.819100320047,0.00519468920204,0.0,0.819091617496,-0.573531112521,-0.0114774570465,0.0,-0.00642199650623,0.0108387191533,-0.999920636915,0.0,0.372892621207,-0.118436021082,0.305039116674,1.0,-0.30998,-0.407402285714,2.187
-0.185279768849,-0.46274482473,-0.140681902098,-2.59558296764,-0.0639019922888,2.12628476603,-0.451617051198,-1.22028519082,-0.547383902725,-0.0217133784396,-0.452518045185,-0.104668400397,-0.112810656461,-1.15934366153,0.573550567395,0.819142207991,0.00515137166431,0.0,0.819132142318,-0.573470481592,-0.0116140890363,0.0,-0.00655955723957,0.0108811309593,-0.999919283341,0.0,0.367587119326,-0.12534047934,0.305010158066,1.0,-0.30998,-0.407402285714,2.204
-0.204960294101,-0.471177465771,-0.141079577652,-2.60236870593,-0.0653362985439,2.12452906893,-0.470328234761,-1.23670439996,-0.510092114321,-0.0163201153274,-0.40579596526,-0.0886289054146,-0.103900768208,-1.16991596597,0.573644550784,0.819075466234,0.00529687372008,0.0,0.819066862427,-0.573563278985,-0.0116355822831,0.0,-0.00649245272397,0.0110133941524,-0.999918273264,0.0,0.362660614398,-0.131845049594,0.305001358197,1.0,-0.304163428571,-0.39975764898,2.22
-0.227111611512,-0.479885841473,-0.141344667693,-2.60914590375,-0.0667846083961,2.1226178765,-0.491290695459,-1.24018905456,-0.460007462584,-0.0260766613946,-0.365148985623,-0.0744824467586,-0.104326815495,-1.15642309636,0.573808169168,0.818959758682,0.00546310871634,0.0,0.818953870053,-0.573727325978,-0.0115004805667,0.0,-0.0062842170249,0.0110733169199,-0.999918941849,0.0,0.357278637017,-0.139039230976,0.305069055541,1.0,-0.295513142857,-0.388388702041,2.238
-0.246482705532,-0.486961343767,-0.141342864857,-2.61481352218,-0.067964933556,2.12091599575,-0.509833056629,-1.20371262096,-0.42912108044,0.00249230587935,-0.343348328985,-0.0640399318364,-0.10717970181,-1.15107217852,0.573657874642,0.819065235436,0.00543413860396,0.0,0.819058112484,-0.573575647531,-0.0116418140111,0.0,-0.00641863914406,0.011129507868,-0.999917464157,0.0,0.352554691828,-0.145140658952,0.305026558205,1.0,-0.287824,-0.378282971429,2.254
-0.265817200649,-0.493303403243,-0.141388399053,-2.61986692308,-0.0689969846083,2.11935486467,-0.528151050097,-1.20343572087,-0.392677662774,-0.000540086842858,-0.300968835569,-0.0511387649277,-0.0864144911929,-1.12697653604,0.573791499998,0.818971395727,0.00546940697781,0.0,0.818963765472,-0.573707460123,-0.011783375775,0.0,-0.00651253350566,0.011240663412,-0.999915613636,0.0,0.347935593499,-0.151197649702,0.304983402024,1.0,-0.280134857143,-0.368177240816,2.27
-0.284796426461,-0.499078249113,-0.141300891732,-2.62433675817,-0.0699047991533,2.11796204545,-0.54626365371,-1.16468594857,-0.348344183547,0.0248418777256,-0.264872304253,-0.0617827985719,-0.0845580637807,-1.1225632194,0.573790603794,0.818971664362,0.00552294043898,0.0,0.818964946418,-0.57370675582,-0.0117354916835,0.0,-0.00644261095452,0.0112570262122,-0.999915882525,0.0,0.343492390491,-0.157060044881,0.304999073676,1.0,-0.272445714286,-0.358071510204,2.286
-0.305737835396,-0.504810290475,-0.141194284699,-2.62874689268,-0.0707210711996,2.11649760032,-0.566234170524,-1.16517959486,-0.304186919786,-0.00492547823915,-0.225126381465,-0.0447056052992,-0.0698875045489,-1.09936663714,0.573902713805,0.818892283517,0.0056435790656,0.0,0.818886885412,-0.573817992614,-0.0117442391577,0.0,-0.00637900242703,0.0113617223562,-0.999915106193,0.0,0.338644463174,-0.163461481102,0.30501032618,1.0,-0.263795428571,-0.346702563265,2.304
-0.326217202236,-0.509927530088,-0.140939260227,-2.63256672845,-0.0713786973201,2.11524605956,-0.585861930719,-1.13543419977,-0.271086954969,0.00863113551271,-0.207792504762,-0.0343810544249,-0.0713246053234,-1.08223538876,0.573911792249,0.818884931699,0.00578534833655,0.0,0.818882297428,-0.573828272708,-0.0115604195737,0.0,-0.00614697529839,0.0113723994079,-0.999916438122,0.0,0.333989392175,-0.169632481581,0.30507436601,1.0,-0.255145142857,-0.335333616327,2.322
-0.344032042096,-0.513833771955,-0.140721854037,-2.63559440267,-0.0719207372545,2.11409357795,-0.603007967523,-1.09938275252,-0.226776391079,0.0146100165142,-0.182385308738,-0.0187936635251,-0.0618543357421,-1.07198608316,0.573894504081,0.818896832964,0.00581567264162,0.0,0.818893674534,-0.57380919457,-0.0117006382675,0.0,-0.00624464941541,0.0114775705142,-0.99991463122,0.0,0.329911871661,-0.17494342381,0.305050830279,1.0,-0.247456,-0.325227885714,2.338
-0.360369378788,-0.517005545297,-0.140512085047,-2.63814768524,-0.072305760675,2.11318478992,-0.618709967835,-1.08826355979,-0.204228253179,0.0195402068358,-0.163235691859,-0.0298146659646,-0.0572233023303,-1.04307737526,0.573951061417,0.818856686862,0.00588662735197,0.0,0.818853248088,-0.573863273932,-0.0118763559039,0.0,-0.00634703640295,0.0116369550517,-0.999912144344,0.0,0.326190254737,-0.179769478638,0.304988504392,1.0,-0.240247428571,-0.315753763265,2.353
-0.378373740375,-0.520084413511,-0.140136430023,-2.64057110624,-0.0726785602193,2.11233557838,-0.63606337787,-1.06183769396,-0.174586708434,0.0176231495931,-0.135291099351,-0.0181142984732,-0.0506731662627,-1.01003694436,0.573915140928,0.818881663783,0.00591427386552,0.0,0.818878217581,-0.573826579946,-0.0119276074647,0.0,-0.00637365421311,0.0116887296046,-0.999911371139,0.0,0.322164013334,-0.185042690008,0.304957513725,1.0,-0.232077714286,-0.30501642449,2.37
-0.394913785112,-0.522499146228,-0.139838566334,-2.64244556009,-0.0729832817045,2.11161104263,-0.652009721894,-1.0214301696,-0.141540777064,0.0194436660078,-0.117086517261,-0.0164327516032,-0.0400849966992,-0.984968120508,0.573922054677,0.81887651436,0.00595619729274,0.0,0.818873251098,-0.57383265832,-0.0119760503529,0.0,-0.00638916885415,0.0117509163083,-0.999910543242,0.0,0.318265386239,-0.190179810515,0.304941615443,1.0,-0.223908,-0.294279085714,2.387
-0.412997542051,-0.524866166321,-0.139474739811,-2.64417094052,-0.0732395603965,2.11090213627,-0.669481986198,-0.993492414329,-0.123586828495,0.0179131644442,-0.0882614574351,-0.0231300270543,-0.0367655559082,-0.962601994435,0.573979922646,0.818835542539,0.00601245178051,0.0,0.818833319957,-0.573890859626,-0.0119173095563,0.0,-0.00630794696286,0.0117637187578,-0.999910908394,0.0,0.314490603949,-0.195160781823,0.304970587349,1.0,-0.215738285714,-0.283541746939,2.404
-0.430416141763,-0.526686101461,-0.139038632129,-2.64553551103,-0.0733842404712,2.11033812733,-0.686348042721,-0.959664061201,-0.0967389202994,0.0219211810685,-0.0677595532505,-0.0104262138744,-0.0333507191797,-0.935763979285,0.573981194155,0.818834267225,0.0060645260247,0.0,0.818832817846,-0.573892103381,-0.0118918878322,0.0,-0.00625722213359,0.0117917799407,-0.999910896579,0.0,0.310674218565,-0.200195151905,0.30497963791,1.0,-0.207088,-0.2721728,2.422
-0.447263443624,-0.52811406729,-0.138620914544,-2.6466188792,-0.0734925621977,2.10989394515,-0.702658057456,-0.90984259644,-0.0690246918689,0.0253499147844,-0.0517364077842,-0.00165567669392,-0.0229525499566,-0.891368640012,0.574015686198,0.818809768634,0.00610751093585,0.0,0.81880901295,-0.573926673296,-0.0118625836783,0.0,-0.00620805548779,0.0118104214983,-0.999910983034,0.0,0.306982545065,-0.205048986677,0.304982128082,1.0,-0.198437714286,-0.260803853061,2.44
-0.46083823169,-0.528980366133,-0.138271684788,-2.64727901967,-0.0735144722525,2.10959405804,-0.715761992733,-0.908491281857,-0.0497611981282,0.0143039395341,-0.0424531139352,-0.00133198518412,-0.0209523121772,-0.860116328069,0.574106304546,0.818745852075,0.0061585461291,0.0,0.818745759385,-0.574017070093,-0.0118546038646,0.0,-0.00617091594633,0.0118483144605,-0.999910764639,0.0,0.304020283185,-0.208948946998,0.304981974538,1.0,-0.191229142857,-0.251329730612,2.455
-0.476435807961,-0.529689476699,-0.137736328256,-2.64779990536,-0.0735043824318,2.10930443369,-0.73094789926,-0.853458869871,-0.0326464562196,0.0318104647264,-0.0243755031586,0.00893799216358,-0.0134890514272,-0.829904210478,0.574039096908,0.818793037181,0.00615015337681,0.0,0.818792990158,-0.573950206751,-0.0118298917593,0.0,-0.00615646973208,0.011826750557,-0.999911108975,0.0,0.300647765381,-0.213394871111,0.304993306688,1.0,-0.182578857143,-0.239960783674,2.473
-0.490673901561,-0.530059936617,-0.137334421374,-2.64810255294,-0.0735124604437,2.10910263533,-0.74468910432,-0.835979995326,-0.0134081676071,0.0256926703681,-0.0146041229859,-0.001199031377,-0.00525838642277,-0.795693666764,0.574141420076,0.81872137115,0.00613946871262,0.0,0.818721052554,-0.574052296108,-0.0118552241464,0.0,-0.00618186827718,0.0118333153412,-0.999910874605,0.0,0.297545136353,-0.217471116009,0.304984136104,1.0,-0.174409142857,-0.229223444898,2.49
-0.502551976476,-0.530201106004,-0.136824124664,-2.64823057591,-0.0734658711193,2.10898556211,-0.756410365484,-0.783768422971,-0.00809991284022,0.0226663475541,-0.00727985955838,0.0104155675846,-0.00711728698419,-0.77619914781,0.573922513223,0.818875324837,0.00607437973536,0.0,0.818874183618,-0.573833735649,-0.0118601069603,0.0,-0.00622638480166,0.0117811619644,-0.999911214236,0.0,0.294987875297,-0.220820630727,0.304980761325,1.0,-0.167200571429,-0.219749322449,2.505
-0.516467869217,-0.530214481193,-0.136331650219,-2.6482680411,-0.0734296988403,2.10890256049,-0.769806583087,-0.766797189771,0.0045314686793,0.0265967569688,-0.000838997873679,0.00221667540232,-0.0017712703343,-0.737333265694,0.574014270808,0.81881143497,0.0060164584532,0.0,0.818809612913,-0.573925836444,-0.0118616594046,0.0,-0.00625958192439,0.0117353217322,-0.999911546017,0.0,0.291957528606,-0.224763875479,0.304974329919,1.0,-0.158550285714,-0.20838037551,2.523
-0.528732279734,-0.530053069076,-0.135733389055,-2.64819171497,-0.0732746129902,2.1088985456,-0.781828878406,-0.71199767548,0.00815166963236,0.0330491950667,0.00265116394328,0.00436448703169,-0.000536392534229,-0.695141135535,0.57386148691,0.818918835767,0.00597337170961,0.0,0.818916545343,-0.573773421863,-0.0118532285828,0.0,-0.00627959112678,0.01169402945,-0.999911904325,0.0,0.289319394018,-0.228183199007,0.304965399863,1.0,-0.150380571429,-0.197643036735,2.54
-0.539209496321,-0.529803806298,-0.135325488924,-2.64805022272,-0.0731112779935,2.10889429184,-0.791964381663,-0.689684757275,0.0189164795201,0.0264164553686,0.0119273559764,0.00999189584851,-0.00141861637724,-0.665185538327,0.57393170877,0.818869409868,0.00600251214612,0.0,0.818867245881,-0.573843045462,-0.0118886374011,0.0,-0.00629086276104,0.0117387525754,-0.999911309434,0.0,0.28703298716,-0.23111671263,0.304949044926,1.0,-0.143172,-0.188168914286,2.555
-0.551026731786,-0.529366845662,-0.134702380386,-2.64776126916,-0.0728615713541,2.10892586054,-0.803466658378,-0.634644634599,0.0295623835808,0.0437891875868,0.0206861691765,0.0196690584969,0.00890533446113,-0.622354645435,0.573846887225,0.818928885965,0.00599805436482,0.0,0.818926467535,-0.573757892966,-0.0119192252678,0.0,-0.00631968850942,0.0117520020536,-0.999910972029,0.0,0.284356880503,-0.234556202301,0.304936774114,1.0,-0.134041142857,-0.176168359184,2.574
-0.561596130431,-0.528788438612,-0.13416777839,-2.64739170732,-0.0726050065841,2.1089878971,-0.813772947349,-0.619613746592,0.0373931098878,0.025482069192,0.0273144096526,0.0194902342831,0.007211129088,-0.592064116237,0.57384256503,0.818931820377,0.0060109096397,0.0,0.81892916742,-0.57375277355,-0.0119800038702,0.0,-0.00636215279135,0.0117973725126,-0.999910168472,0.0,0.282211511575,-0.237314902991,0.304915745721,1.0,-0.126352,-0.166062628572,2.59
-0.571079377659,-0.528187495155,-0.133701970985,-2.64694798186,-0.0723509888368,2.10909282633,-0.822868663197,-0.571342472746,0.0426309729852,0.0344163826098,0.0264007477487,0.0149682099815,0.00959003130754,-0.558196574297,0.573964732348,0.818845989338,0.00603975721168,0.0,0.818843803754,-0.573874968453,-0.011962129295,0.0,-0.00632919797447,0.0118116855196,-0.999910208638,0.0,0.280174372084,-0.239957111021,0.304918917088,1.0,-0.118662857143,-0.155956897959,2.606
-0.580811319022,-0.527354902122,-0.13306906587,-2.64639968041,-0.0719880948723,2.10922585303,-0.832490311502,-0.538239852865,0.042485037019,0.0352758299284,0.0315132590301,0.0174584740827,0.00632999273036,-0.520636734084,0.573794418345,0.818965142746,0.00606690566234,0.0,0.818962800391,-0.573703625739,-0.012034462646,0.0,-0.00637532238793,0.0118741061583,-0.999909176309,0.0,0.278119715978,-0.24262660059,0.304891470654,1.0,-0.110012571429,-0.144587951021,2.624
-0.58860793993,-0.526679657518,-0.132615077241,-2.64592711089,-0.0717410343366,2.10933287081,-0.839901166121,-0.513141468154,0.0424133859758,0.0295684325862,0.0315932040602,0.0246428846351,0.0134062692348,-0.480817231605,0.573921864316,0.818875787946,0.00607325913652,0.0,0.818873296176,-0.57383058575,-0.0120718917304,0.0,-0.00640048123409,0.0119017814815,-0.99990868655,0.0,0.276448888857,-0.244777306347,0.304880061712,1.0,-0.102804,-0.135113828572,2.639
-0.596808141221,-0.525834479153,-0.132086373821,-2.64530640671,-0.071408252604,2.10947656829,-0.847816766815,-0.466418904357,0.047533737711,0.0422608766368,0.0346102718102,0.0158130475382,0.0085905216208,-0.450612064152,0.573958120194,0.81885015539,0.00610296505196,0.0,0.81884791726,-0.573866456815,-0.0120882191735,0.0,-0.00639627636629,0.0119357615756,-0.999908308418,0.0,0.274722126458,-0.247040085273,0.304878648118,1.0,-0.0946342857144,-0.124376489796,2.656
-0.604565734979,-0.524918038728,-0.131432629516,-2.64467779533,-0.0710223948732,2.109638485,-0.855471738697,-0.424597534858,0.0502428421921,0.0291496809407,0.0314616655594,0.0172171674172,0.00167801631128,-0.412501274602,0.573779968807,0.818974941059,0.00611066408153,0.0,0.81897238942,-0.573687538566,-0.0121482658145,0.0,-0.00644363750349,0.0119751273022,-0.999907533656,0.0,0.273121063333,-0.249139414696,0.30485914718,1.0,-0.0859840000001,-0.113007542857,2.674
-0.611109435274,-0.524194275741,-0.130895008173,-2.64412927596,-0.0707197018527,2.10977342508,-0.861675166318,-0.39860208605,0.0424054266494,0.0344641417841,0.0339302635577,0.019757353404,0.0109832201463,-0.377449779845,0.573837868482,0.818934442361,0.00610136971269,0.0,0.818931860903,-0.573745637091,-0.0121366394889,0.0,-0.00643860180206,0.0119612996798,-0.999907731602,0.0,0.27175858733,-0.250912781923,0.304868284716,1.0,-0.0782948571429,-0.102901812245,2.69
-0.617772764849,-0.523349851087,-0.130312733361,-2.64349000022,-0.0703411425253,2.10994365408,-0.868020433052,-0.35729440092,0.0412879121838,0.0284984753023,0.0330386856925,0.0141778162942,0.0141109057742,-0.340043933485,0.573883002804,0.818902648115,0.00612363488653,0.0,0.818900474877,-0.57379088296,-0.0121153530574,0.0,-0.00640773220181,0.011967673124,-0.999907853639,0.0,0.270394861326,-0.252718781545,0.304878340969,1.0,-0.0696445714287,-0.0915328653062,2.708
-0.622740653889,-0.522667704357,-0.129820034047,-2.64299001245,-0.070014403434,2.11008744323,-0.872778241483,-0.317125778412,0.044070509522,0.035272205074,0.0290416574162,0.0216218145381,0.010496040669,-0.305928883963,0.57387314073,0.818909393399,0.00614578331408,0.0,0.818907523403,-0.573780952377,-0.0121092404666,0.0,-0.00639016039235,0.0119822267465,-0.999907791795,0.0,0.269393764636,-0.254050155494,0.304879875338,1.0,-0.0624360000001,-0.0820587428573,2.723
-0.627436534964,-0.522069313309,-0.129237811799,-2.64253912161,-0.069659273135,2.11021785634,-0.877315820533,-0.281883433717,0.0331006155563,0.032974576448,0.0270602369227,0.0190046584167,0.00743222490775,-0.267286218698,0.573766573795,0.818984020363,0.00615142964562,0.0,0.818982384077,-0.573674684015,-0.0120813241648,0.0,-0.00636561453543,0.0119700029493,-0.999908094767,0.0,0.26846555968,-0.255268953417,0.304890723257,1.0,-0.0547468571429,-0.071953012245,2.739
-0.632746959461,-0.521403896069,-0.128561180036,-2.64200519343,-0.0692690942327,2.11036775239,-0.882232014631,-0.2532564405,0.0369134584061,0.0310624693768,0.0303758220571,0.0194470050107,0.00915707567442,-0.22519073741,0.573805328139,0.818957004387,0.00613329165733,0.0,0.818955576352,-0.57371434522,-0.0120150302531,0.0,-0.00632115747835,0.0119174112282,-0.999909004999,0.0,0.267418541121,-0.25664692962,0.304918469796,1.0,-0.0451354285715,-0.0593208489797,2.759
-0.636119905683,-0.520906222014,-0.12808777146,-2.641651144,-0.0689402302488,2.11046710997,-0.885324738637,-0.209600638942,0.0287709568489,0.0305577439061,0.020792499927,0.0150452994497,0.0113949547061,-0.193497778915,0.573858885043,0.818919216945,0.00616790697832,0.0,0.818918155361,-0.573767583982,-0.0120233644124,0.0,-0.00630734052032,0.0119509555942,-0.999908691889,0.0,0.266768921977,-0.257505128524,0.304916634964,1.0,-0.037926857143,-0.0498467265307,2.774
-0.639523011227,-0.520411470964,-0.127545035352,-2.64129872001,-0.0685903610362,2.11054606378,-0.888449800454,-0.174725508955,0.023849255398,0.0284223924967,0.0204652262955,0.0139938623118,0.00283855583763,-0.157010166558,0.573870248859,0.818911094892,0.00618894481081,0.0,0.818910120765,-0.573778501044,-0.012049595422,0.0,-0.00631658551729,0.011983324582,-0.99990824613,0.0,0.266122106297,-0.258349131162,0.304914952498,1.0,-0.0292765714287,-0.038477779592,2.792
-0.642167321993,-0.520060677924,-0.127012807326,-2.64106495081,-0.0682692661392,2.11061028416,-0.8907722585,-0.137215143529,0.023202513033,0.0341811416326,0.0115919509707,0.0157748883272,0.00122912923124,-0.121485650345,0.573906209776,0.818885843383,0.00619554590661,0.0,0.818884815956,-0.573814161293,-0.0120711804081,0.0,-0.00632994864212,0.0120013949291,-0.999907944898,0.0,0.265637986688,-0.258965284718,0.304910644493,1.0,-0.021106857143,-0.0277404408165,2.809
-0.644088787796,-0.51978042872,-0.126543433648,-2.64088096974,-0.0679883260935,2.11066034895,-0.892386827815,-0.111104433923,0.0208909056353,0.0280533237222,0.00638949641797,0.0129970111451,0.00401326715792,-0.111391338057,0.573954574879,0.81885193056,0.00619747480907,0.0,0.818850796491,-0.57386225784,-0.0120925189199,0.0,-0.0063456077487,0.012015595077,-0.999907675107,0.0,0.265310722556,-0.259393130342,0.304906835431,1.0,-0.0197068965517,-0.0259004926108,2.825
-0.645693728029,-0.519523984514,-0.126185091726,-2.64071793296,-0.0677906192821,2.11071157734,-0.893948318849,-0.0954821081931,0.0129575649634,0.0204736742709,0.0123128839623,0.00466949102408,0.00240905392669,-0.0966945059271,0.573829263305,0.818939839115,0.00618574047015,0.0,0.818938403375,-0.573736744233,-0.0121155559558,0.0,-0.00637304754812,0.0120182323612,-0.999907468897,0.0,0.265029407832,-0.259764641302,0.304899600092,1.0,-0.0193868965517,-0.0254799211823,2.841
-0.647194583074,-0.519295086074,-0.125929112228,-2.64053198599,-0.0676560268893,2.11074737021,-0.895386368191,-0.0898642142242,0.0153159099242,0.0191944491112,0.0142219774225,0.00082913112138,0.00705323616538,-0.0965220610461,0.573766354164,0.818984053584,0.00616747149649,0.0,0.81898243608,-0.573674035936,-0.0121085418758,0.0,-0.00637870725342,0.0119987557702,-0.999907666714,0.0,0.264750225296,-0.260141257869,0.304909073638,1.0,-0.0190668965517,-0.0250593497537,2.857
-0.648761729432,-0.519023201933,-0.125748869563,-2.6403301829,-0.067579620771,2.11081280579,-0.896946114851,-0.082031531698,0.0148710377156,0.00957390443717,0.0130048791044,0.00233596876824,0.00149409759229,-0.0810280393179,0.573687846928,0.819039292105,0.00613507755824,0.0,0.819037315134,-0.573595806272,-0.0121026586951,0.0,-0.00639362134871,0.011968236086,-0.999907937228,0.0,0.264438939179,-0.260565045167,0.304910589786,1.0,-0.0187068965517,-0.0245862068966,2.875
-0.650122255745,-0.518788415032,-0.125656424258,-2.64015471148,-0.067550313974,2.11087589698,-0.898262657759,-0.0885499741348,0.0146428681661,0.00491960129328,0.00974330766756,0.000698628200811,0.000802212162224,-0.0797027279174,0.57368005325,0.819044967107,0.00610616573339,0.0,0.819042709677,-0.573588320953,-0.0120923402805,0.0,-0.00640186835262,0.0119385747986,-0.999908239047,0.0,0.264151965183,-0.260951360919,0.304911461185,1.0,-0.0183868965517,-0.024165635468,2.891
-0.651536349037,-0.518581628993,-0.125623452954,-2.63996629042,-0.067506341041,2.11091442298,-0.899741840812,-0.0801840199146,0.0124630079002,0.00317940077145,0.00961990913086,0.00894901734438,0.000783038443815,-0.085641195559,0.573631842083,0.819078623894,0.00612082752836,0.0,0.819076728622,-0.57354037617,-0.0120621902738,0.0,-0.00636946311941,0.0119329135603,-0.999908513572,0.0,0.263838472309,-0.261363337755,0.304925012988,1.0,-0.0180468965517,-0.0237187783251,2.908
-0.653095478315,-0.518327860639,-0.125616906078,-2.63974756496,-0.067474292142,2.11096932448,-0.901254661397,-0.0808291813949,0.0158174544844,-0.000935175138356,0.0099522429851,0.00209898340286,0.00244451920803,-0.0776672573395,0.573690151571,0.819037683303,0.00613434774889,0.0,0.819036140144,-0.573598945722,-0.0120331834917,0.0,-0.00633709733712,0.0119278010109,-0.99990878022,0.0,0.263487990166,-0.261829431996,0.304935776559,1.0,-0.0176668965517,-0.0232193497537,2.927
-0.654365506083,-0.518100003888,-0.125632284673,-2.63956549123,-0.0674457591703,2.11102435191,-0.902533430562,-0.0818684573771,0.0133618043205,-0.00200617057189,0.0051295201486,0.000184479610397,0.00522872653444,-0.0839254440517,0.573715598742,0.819019686307,0.00615728053734,0.0,0.819018530734,-0.573624457493,-0.0120156140591,0.0,-0.00630917922081,0.0119367018916,-0.999908850549,0.0,0.26319962086,-0.262215125505,0.304938904392,1.0,-0.0173468965517,-0.0227987783251,2.943
-0.655569926298,-0.517898163695,-0.125633237977,-2.63940989213,-0.0674225021103,2.11104602066,-0.903648531805,-0.0775051922901,0.0126793475044,0.00097517217408,0.00580090258656,0.000102207177013,-0.000229118295368,-0.075609345482,0.573807535377,0.818955156241,0.00617343607468,0.0,0.818954093625,-0.57371608314,-0.0120330952922,0.0,-0.00631288741348,0.0119606717777,-0.999908540709,0.0,0.262919908335,-0.262569560236,0.304937067598,1.0,-0.0170468965517,-0.0224044926108,2.958
-0.656883952805,-0.517692489596,-0.12562938626,-2.63922879823,-0.0673960772743,2.11108185669,-0.90491038351,-0.0797159536266,0.0105414725871,0.000743634104077,0.0112171331542,-0.000297887338996,0.00326502059126,-0.0796556253785,0.573868176037,0.818912567723,0.00618626363786,0.0,0.818911785208,-0.5737768705,-0.012014067941,0.0,-0.00628905731998,0.0119607257366,-0.99990869023,0.0,0.262620198487,-0.262959650722,0.304946712774,1.0,-0.0167068965517,-0.021957635468,2.975
-0.65803051898,-0.517483013795,-0.125621767088,-2.6390451077,-0.0673684822124,2.11114078174,-0.906160007526,-0.0717862204594,0.0145727524362,0.000557459094731,0.0120669568769,0.00289906937371,0.00605543620794,-0.0800467907735,0.573799633758,0.818960529489,0.00619502541371,0.0,0.818960099155,-0.573708759546,-0.0119733918432,0.0,-0.00625171534312,0.0119440364413,-0.999909123895,0.0,0.262369086474,-0.26330841741,0.304958183507,1.0,-0.0163868965517,-0.0215370640394,2.991
-0.659233631094,-0.517250931889,-0.125576630465,-2.63886717634,-0.0673430522382,2.11119119257,-0.907374967454,-0.06953104239,0.0164207780657,0.00415921637033,0.0132165696913,0.00391269613814,0.000891058317835,-0.0671350710584,0.573778073508,0.818975703763,0.00618594443576,0.0,0.818975179173,-0.57368728772,-0.0119707438299,0.0,-0.00625507109685,0.0119349150699,-0.999909211823,0.0,0.262107553221,-0.263660770748,0.304958850247,1.0,-0.0160468965517,-0.0210902068966,3.008
-0.660440555461,-0.51703243222,-0.125517991196,-2.63870592183,-0.0673181225764,2.11120117737,-0.908593190732,-0.0674264714765,0.0124642544407,0.00248583842906,0.00952488325654,0.000552757089052,-0.000363588102471,-0.0697900989741,0.573746343391,0.818998002457,0.00617675619291,0.0,0.818997108976,-0.57365512874,-0.0120114803244,0.0,-0.00629417170548,0.0119505184642,-0.999908780095,0.0,0.261837673922,-0.264001164732,0.304953801596,1.0,-0.0157068965517,-0.0206433497537,3.025
-0.661597661927,-0.516807107174,-0.125479284928,-2.63853953467,-0.0672938542099,2.11123581763,-0.909804338105,-0.0697683284514,0.0146988308694,-8.2508961206e-05,0.0105543572545,0.00238076098684,0.00725588096634,-0.0664712312671,0.573693719064,0.819034891359,0.00617335762827,0.0,0.819033839907,-0.573602314469,-0.0120291655613,0.0,-0.00631137559857,0.01195747575,-0.999908588478,0.0,0.261580934246,-0.264337354477,0.304950184259,1.0,-0.0153668965517,-0.0201964926108,3.042
-0.662654991524,-0.516580122931,-0.125469164493,-2.63836317911,-0.0672605326312,2.11129789374,-0.910837500939,-0.0703006361581,0.0123797749983,0.00138283531556,0.00572396330292,0.000138222197467,0.000947887104513,-0.0572818601635,0.573729753546,0.819009564354,0.00618468221472,0.0,0.81900876729,-0.573638495723,-0.0120109211711,0.0,-0.00628940860424,0.011956562001,-0.999908737818,0.0,0.261351180814,-0.264658966876,0.304952138335,1.0,-0.0150468965517,-0.0197759211823,3.058
-0.663843573727,-0.516347876173,-0.125451772097,-2.63818863979,-0.0672372630075,2.11134763286,-0.912065627897,-0.0668761674983,0.00789221900594,0.00319221902993,0.00529411044598,0.00436165038039,0.000869864066388,-0.0722434144324,0.573704098279,0.819027507843,0.00618836944619,0.0,0.819026745327,-0.573612804575,-0.0120119843196,0.0,-0.00628853870162,0.011959994986,-0.999908702233,0.0,0.261084508177,-0.265011771729,0.3049504231,1.0,-0.0146868965517,-0.0193027783251,3.076
-0.664900645794,-0.516134463995,-0.12544859057,-2.63803770659,-0.0672168607199,2.1113586954,-0.91312101203,-0.0702670694582,0.0158828230291,-0.00100746510365,0.0092504628868,6.49121095044e-05,3.75433697412e-06,-0.0577949955145,0.573719929207,0.81901631303,0.00620231589768,0.0,0.819015436549,-0.573628010106,-0.0120568494198,0.0,-0.00631705585503,0.0119972782429,-0.999908075835,0.0,0.260837894807,-0.265322034034,0.304941280466,1.0,-0.0143668965517,-0.0188822068966,3.092
-0.665999685782,-0.515943556318,-0.125436553801,-2.63787408271,-0.0671918047857,2.11141616304,-0.914181153355,-0.0657250756361,0.00829611833767,0.0004385199561,0.00735939604107,0.000696396208123,0.0112542818008,-0.0605284893208,0.573762366001,0.818986551095,0.00620672121128,0.0,0.818985961659,-0.573670855754,-0.0120204311736,0.0,-0.00628407738882,0.0119803192288,-0.999908486974,0.0,0.260592761907,-0.265650958431,0.304950365023,1.0,-0.0140268965517,-0.0184353497537,3.109
-0.667179230855,-0.515720160195,-0.125415527161,-2.63768790385,-0.0671684313773,2.11147878638,-0.91538922751,-0.0618572054549,0.0172741269692,0.00257596099051,0.0121969944109,0.000113762495707,0.00145442276963,-0.0625893682093,0.573743663065,0.818999670953,0.00620443172599,0.0,0.818999251383,-0.573652547676,-0.0119886479276,0.0,-0.00625963115869,0.0119600659844,-0.999908882769,0.0,0.260332830751,-0.266004905357,0.30495834398,1.0,-0.0136468965517,-0.0179359211823,3.128
-0.668206890978,-0.515525301435,-0.125381237668,-2.63752369986,-0.0671407616753,2.11151476861,-0.916403358564,-0.0596521158263,0.00929548647659,0.00400246499739,0.00862946377962,0.000112390731325,-0.000330064467128,-0.0619196816884,0.57375067702,0.818994773185,0.00620233959243,0.0,0.818994398838,-0.573659707468,-0.011977545677,0.0,-0.00625163535221,0.0119520364409,-0.999909028802,0.0,0.260107774215,-0.26630676473,0.304964902948,1.0,-0.0133068965517,-0.0174890640394,3.145
-0.669158856982,-0.515337118793,-0.125349334945,-2.63736701479,-0.0671219410082,2.1115545746,-0.917307700418,-0.0623621485001,0.0092368882228,0.00131751250462,0.00744530369516,0.000128089105094,0.00403302891693,-0.0574562638459,0.573783143231,0.818972098592,0.00619299394965,0.0,0.818971694707,-0.573692382111,-0.0119649854493,0.0,-0.00624623605103,0.0119374235424,-0.999909237108,0.0,0.259900267839,-0.266588862193,0.304970763768,1.0,-0.0129868965517,-0.0170684926108,3.161
-0.670138035661,-0.515142613602,-0.125306950675,-2.63720218554,-0.0671039037233,2.11158601626,-0.918341676111,-0.0555265684698,0.0161616146806,-0.000781167374791,0.00895448879308,0.000316645385949,-0.000137039095582,-0.0583944699658,0.573724348098,0.819013390103,0.00617949282694,0.0,0.819012858359,-0.573633747219,-0.0119586284509,0.0,-0.0062496315271,0.0119222699362,-0.999909396688,0.0,0.259687867797,-0.26687650999,0.304977511191,1.0,-0.0126468965517,-0.016621635468,3.178
-0.67115614717,-0.514943876843,-0.125287375881,-2.63704440779,-0.0670820274303,2.11162891673,-0.919370934423,-0.0586515331949,0.0172190771465,8.95647233713e-05,0.00597558483264,0.000366788222092,0.00376009701065,-0.0530243794552,0.573718833377,0.819017247083,0.00618030014227,0.0,0.819016771741,-0.573628317892,-0.0119510426387,0.0,-0.00624303506484,0.01191853718,-0.999909482396,0.0,0.259460106787,-0.267178346455,0.304979922731,1.0,-0.0122868965517,-0.0161484926108,3.196
-0.672051065798,-0.514777086638,-0.125277872996,-2.63690359226,-0.0670628496149,2.11165210986,-0.920227108421,-0.0597951397618,0.00948401148363,-0.000736057969162,0.00447292301597,0.000396127013068,0.000329288478086,-0.0584957822159,0.573759264895,0.818988885876,0.0061852776527,0.0,0.818988487941,-0.57366874431,-0.0119488628148,0.0,-0.00623780547702,0.0119216714664,-0.999909477669,0.0,0.259256291465,-0.26744377242,0.304984497159,1.0,-0.0119668965517,-0.0157279211823,3.212
-0.672863802705,-0.514619850485,-0.125267226157,-2.63677492779,-0.0670451218684,2.11169151475,-0.921032705262,-0.053102712734,0.0041217260648,0.000724219971652,0.00860165804078,0.00233219349552,0.000297674774965,-0.0527459238292,0.573771757635,0.818980119556,0.00618714906795,0.0,0.818979840739,-0.573681407923,-0.0119335479983,0.0,-0.00622400600948,0.0119145125594,-0.999909648988,0.0,0.259074335551,-0.26768697327,0.30498848236,1.0,-0.0116668965517,-0.015333635468,3.227
-0.673760262033,-0.514433387321,-0.125256846478,-2.63662502325,-0.0670245643506,2.11172122475,-0.92195848002,-0.0528343875969,0.0154345867326,-0.00228288975811,0.0136056564506,-0.000172913235259,0.000411491000839,-0.06617085653,0.573756915155,0.818990477645,0.0061924744659,0.0,0.818990251311,-0.57366651441,-0.0119350493436,0.0,-0.00622239632058,0.0119196228023,-0.999909598102,0.0,0.258872536814,-0.267955165649,0.304990477436,1.0,-0.0113268965517,-0.0148867783251,3.244
-0.674662969689,-0.514258766319,-0.125229503057,-2.63646687923,-0.0670047740716,2.11176811045,-0.92281939581,-0.0501510567753,0.00565657150549,0.001147320663,0.00855972429278,0.000623970808145,0.00526270618656,-0.0394292518157,0.573788219932,0.818968613174,0.00618354303311,0.0,0.818968497666,-0.573698284376,-0.0119006401363,0.0,-0.0061988820665,0.0118928030412,-0.999910063504,0.0,0.258677295668,-0.268226110984,0.30500244551,1.0,-0.0109668965517,-0.014413635468,3.262
-0.675528674304,-0.514061970197,-0.125222060405,-2.63631358993,-0.0669850931715,2.11181960094,-0.923655093053,-0.0459551585631,0.0138104032263,0.00227758821221,0.011724357483,0.000315215648907,0.00152959714529,-0.0464427439387,0.573823853403,0.818943631122,0.00618556471006,0.0,0.818943621034,-0.573734054063,-0.0118881318155,0.0,-0.00618695983661,0.0118875512421,-0.999910199795,0.0,0.258486368902,-0.268490633488,0.305003927042,1.0,-0.0106068965517,-0.0139404926108,3.28
-0.676292935688,-0.513895860908,-0.125197991385,-2.63619323452,-0.0669662721124,2.11183141325,-0.924428555172,-0.0506559164658,0.010905517441,0.00144429313314,0.00391987930639,0.00266623438554,-0.000259167645127,-0.0504966797219,0.573813554749,0.81895083518,0.00618715163588,0.0,0.818950659615,-0.573723393924,-0.011917687793,0.0,-0.00621040630581,0.0119057319325,-0.999909838136,0.0,0.258313304514,-0.268711500922,0.304998785407,1.0,-0.0102868965517,-0.0135199211823,3.296
-0.676983620049,-0.513739227542,-0.125191968113,-2.63608881121,-0.0669482616376,2.11186550695,-0.925136617143,-0.0419605910256,0.00880940939842,-0.00042867469927,0.00749107833254,0.00143445128646,0.00610434565712,-0.0396531138513,0.573808249821,0.818954491167,0.00619521884693,0.0,0.81895432651,-0.573717876642,-0.0119313039137,0.0,-0.00621700682004,0.0119201113942,-0.999909625802,0.0,0.258155791986,-0.268916409192,0.304991377705,1.0,-0.00998689655173,-0.013125635468,3.311
-0.677754340222,-0.513568767406,-0.12517602274,-2.63596734107,-0.0669258799191,2.11190755598,-0.925877685162,-0.0422958020476,0.00913973222918,-3.55443460939e-05,0.00648320379992,0.0046270013016,0.000248074128931,-0.0389374433242,0.573837108516,0.818934239011,0.00619935215425,0.0,0.818934111979,-0.57374668117,-0.0119336911817,0.0,-0.00621617026308,0.0119250853877,-0.999909571694,0.0,0.257983947463,-0.269144713884,0.3049875085,1.0,-0.00964689655173,-0.0126787783251,3.328
-0.678480583046,-0.513400048198,-0.12515461466,-2.63585200706,-0.0669020883487,2.11195216307,-0.926599661633,-0.0420987509129,0.0114906615391,0.000643688657171,0.00982670320076,0.00582394420173,0.00150417069433,-0.0401460774494,0.573841598232,0.818931070105,0.00620237513255,0.0,0.818930953013,-0.573751101031,-0.0119379715583,0.0,-0.00621787597522,0.0119300513474,-0.999909501852,0.0,0.257824318856,-0.269358924579,0.304981834665,1.0,-0.00930689655173,-0.0122319211823,3.345
-0.679250885493,-0.513226067777,-0.125130182321,-2.63574460099,-0.06688263145,2.11196727471,-0.927378599523,-0.0394309198619,0.0100422194802,0.00273410845425,0.00453235035143,-0.000190918296531,-0.000316675760634,-0.0388527331262,0.57383120348,0.818938319653,0.00620688477468,0.0,0.818937963581,-0.573740119382,-0.0119847452741,0.0,-0.00625374874868,0.0119605046584,-0.999908914329,0.0,0.257646502926,-0.269577721506,0.304968157656,1.0,-0.00892689655173,-0.0117324926108,3.364
-0.679835454658,-0.513080446094,-0.125089022676,-2.63565932343,-0.0668590763094,2.11198410041,-0.927992371801,-0.0421988832312,0.00684188975368,0.00288863165197,0.00227660915954,-2.28577858072e-05,0.00111096329355,-0.0433090006038,0.573792657194,0.818965330916,0.00620646514279,0.0,0.818964717018,-0.573701101301,-0.0120243730734,0.0,-0.00628700982993,0.0119826036485,-0.999908441167,0.0,0.257518738704,-0.26973951817,0.30495545187,1.0,-0.00862689655173,-0.0113382068966,3.379
-0.680584464536,-0.512902529426,-0.125039281288,-2.63556305236,-0.0668306290134,2.11200500379,-0.928762767366,-0.0345014388431,0.00901412424334,0.00396529788461,0.000633703304227,7.17753215535e-05,0.000396365729348,-0.0394343366167,0.573757146142,0.818990201148,0.00620762232931,0.0,0.818989245345,-0.573664913969,-0.0120801238219,0.0,-0.00633252983016,0.0120152646271,-0.999907761987,0.0,0.257351252088,-0.269944182838,0.304936339753,1.0,-0.00822689655173,-0.0108124926108,3.399
-0.681065001292,-0.512798997083,-0.125015848444,-2.63549924918,-0.0668135841123,2.11202506004,-0.92924101546,-0.0334392366541,0.00780282048111,0.0022665358486,0.00823058140957,0.000266933944128,0.000898414552322,-0.0400451959314,0.573753027227,0.818993073976,0.0062093016976,0.0,0.818992032926,-0.573660585354,-0.0120966820648,0.0,-0.00634518934728,0.0120261081143,-0.999907551375,0.0,0.257243388232,-0.270079052278,0.304929291864,1.0,-0.00796689655173,-0.0104707783251,3.412
-0.681643304514,-0.512680888112,-0.125002910874,-2.63542518103,-0.0667902261869,2.11204495241,-0.92979497754,-0.0371340637104,0.00631908922355,0.00109021214211,0.00724364751977,0.00337707331107,0.00369862686575,-0.040621249142,0.573777675089,0.818975712892,0.00622158861165,0.0,0.818974698139,-0.573684919353,-0.0121162707422,0.0,-0.00635382223855,0.0120476012661,-0.999907237821,0.0,0.257109175646,-0.270243063187,0.304921253591,1.0,-0.00764689655173,-0.0100502068966,3.428
-0.682313453436,-0.512529462361,-0.124995499255,-2.63532529488,-0.0667642347225,2.11206442977,-0.930420846249,-0.0368523294122,0.00184207517986,0.000277244644276,0.00446665941814,0.000302161793277,0.00255305571381,-0.0421966541233,0.573825050727,0.818942398239,0.0062375015737,0.0,0.818941409651,-0.5737318691,-0.0121431807743,0.0,-0.00636603471502,0.0120764421642,-0.999906812231,0.0,0.256953949612,-0.270437695987,0.30491244664,1.0,-0.00726689655173,-0.00955077832513,3.447
-0.682877873585,-0.51241380743,-0.124994396692,-2.63522947604,-0.066745764381,2.11208623257,-0.930984562256,-0.0293616441462,0.00567338001497,-0.000316239759824,0.00634280787442,0.0033133421124,0.00314782050531,-0.0265871737207,0.573841096964,0.81893107922,0.0062473853401,0.0,0.818930278235,-0.573747978583,-0.012132739349,0.0,-0.0063515749062,0.0120786700239,-0.999906877277,0.0,0.256831042204,-0.270600048247,0.304917710913,1.0,-0.00694689655173,-0.00913020689656,3.463
-0.683348622118,-0.512321465026,-0.124986057963,-2.63514737634,-0.0667264727882,2.11211418815,-0.931466839685,-0.0275963917429,0.00728700009437,0.000868312373233,0.00795154883245,-6.24981050174e-05,-0.000319606220527,-0.0349837545766,0.573834692023,0.818935523565,0.00625310920369,0.0,0.818934897489,-0.573741740118,-0.012115949133,0.0,-0.00633463335236,0.0120736737396,-0.999907045091,0.0,0.256722031221,-0.270748400677,0.304920773955,1.0,-0.00662689655173,-0.00870963546799,3.479
-0.683841455574,-0.512221614103,-0.124964310037,-2.63505330314,-0.0667040627537,2.11213546598,-0.931966596643,-0.0283603146943,0.0079375060559,0.00202493755774,0.00716668903064,-6.52570764815e-05,-0.000114349021484,-0.0200788893352,0.573827876608,0.818940288045,0.00625456196376,0.0,0.818939798285,-0.573735143585,-0.0120970534205,0.0,-0.00631842405562,0.0120639684593,-0.999907264791,0.0,0.256617510788,-0.270894258561,0.304928884352,1.0,-0.00628689655173,-0.00826277832513,3.496
-0.684326904311,-0.512127891823,-0.124925989301,-2.63496560716,-0.0666824933253,2.11216089186,-0.932460331134,-0.0234119610026,0.0071604310493,0.000638279484779,0.00487326962189,0.00126878684721,0.00126304866251,-0.02689590101,0.573807460299,0.818954649334,0.00624721872695,0.0,0.818954208339,-0.573715040253,-0.0120749382343,0.0,-0.00630482485138,0.012045107614,-0.999907578012,0.0,0.256517964121,-0.271033763394,0.304937105511,1.0,-0.00592689655173,-0.00778963546799,3.514
-0.684811304259,-0.512036242772,-0.124869627274,-2.63489527604,-0.0666584306679,2.11220244969,-0.93292941017,-0.0307300161189,0.00255590916976,0.00515892478841,0.00587557618814,0.00163431852125,0.00214085063972,-0.0220703679683,0.573794121871,0.81896415083,0.00622673768705,0.0,0.81896368718,-0.573702260891,-0.0120391789589,0.0,-0.00628748353725,0.0120077133597,-0.999908136966,0.0,0.256421071889,-0.271174521322,0.304945916592,1.0,-0.00554689655173,-0.00729020689656,3.533
-0.685208840484,-0.511968347297,-0.124831479738,-2.63483136879,-0.0666447409087,2.11222666995,-0.933319938359,-0.0225115790077,0.00373891475802,0.00455321094758,0.00247606888063,-2.98319636852e-05,0.000719917860056,-0.0340664298192,0.573781424486,0.818973091258,0.00622090114583,0.0,0.818972609749,-0.573689702596,-0.0120306491058,0.0,-0.00628403194687,0.0119979416253,-0.999908275963,0.0,0.256340153599,-0.271278369235,0.304946865123,1.0,-0.00524689655173,-0.00689592118227,3.548
-0.685558499184,-0.511902322287,-0.124814071595,-2.63478397497,-0.0666256684143,2.11223359288,-0.933671299541,-0.0220831301098,0.00775798095296,0.00058690308507,0.00752455770996,0.000142090867804,0.00320252318394,-0.0182086050263,0.573778259036,0.818975255578,0.00622792985029,0.0,0.818974804166,-0.57368639,-0.0120392263577,0.0,-0.00628707093588,0.0120085951718,-0.99990812897,0.0,0.256261124063,-0.27137479632,0.304944958279,1.0,-0.00494689655173,-0.00650163546799,3.563
