nelsonifechukwu/NELSON_IML_WORK/CNN-GradCAM/train2dof/data_sample_2022-02-21-14-17-54/robot_state.csv
position_joint1,position_joint2,position_joint3,position_joint4,position_joint5,position_joint6,position_joint7,velocity_joint1,velocity_joint2,velocity_joint3,velocity_joint4,velocity_joint5,velocity_joint6,velocity_joint7,ee_T_00,ee_T_10,ee_T_20,ee_T_30,ee_T_01,ee_T_11,ee_T_21,ee_T_31,ee_T_02,ee_T_12,ee_T_22,ee_T_32,ee_T_03,ee_T_13,ee_T_23,ee_T_33,v_x,v_y,time
0.465093907451,0.547810959779,-0.123982243639,-1.35578270512,0.0794905917792,1.89409197829,0.159156583104,-0.000166446362529,-0.000560928621998,0.000837316406379,6.67528191543e-05,0.000100236616448,-0.000161564344005,-0.00160854173185,0.573777423079,0.818997202455,0.00194885555382,0.0,0.818954131542,-0.573718947803,-0.0118931183196,0.0,-0.00862250128429,0.00842018820406,-0.999927373814,0.0,0.66167992408,0.26091096331,0.303216255816,1.0,0.0,0.0,0.0
0.465093900068,0.547813899841,-0.123984952638,-1.35578270512,0.0794930714168,1.89408737721,0.159159775795,0.000276699027999,0.000507879262457,-0.000108594628372,-0.000264906105597,-0.000280352486129,-0.000399883096372,-0.000317771854015,0.573782566528,0.818993612441,0.00194320104417,0.0,0.818950453201,-0.573724099657,-0.0118978811747,0.0,-0.00862959356057,0.00841834425167,-0.999927328157,0.0,0.661679412541,0.260909439855,0.303213867665,1.0,-6e-05,-7.88571428571e-05,0.004
0.465091405535,0.547815181521,-0.123989591143,-1.35578091767,0.0794907143256,1.89408996709,0.159162041282,-0.000293274255345,-0.00156554910855,-0.00110562313297,0.000275111598276,0.000125200151013,0.00015431627374,0.00136607903147,0.573789003968,0.818989102445,0.00194316827267,0.0,0.818945993873,-0.573730586293,-0.0118920298171,0.0,-0.00862475380703,0.00841502783159,-0.999927397829,0.0,0.661682153874,0.260905094717,0.303214184612,1.0,-0.00032,-0.000420571428571,0.017
0.465086151452,0.547808078905,-0.12399064487,-1.35579219924,0.0794905896518,1.89409080632,0.159159823701,-0.00163218797638,-0.000663105183903,-0.00138011536622,-0.00105352831847,0.000114404390022,-7.13580367436e-05,0.00120515514279,0.573792803246,0.818986446939,0.00194050867625,0.0,0.818943299733,-0.573734392193,-0.0118939454472,0.0,-0.00862780966807,0.00841398887366,-0.999927380209,0.0,0.661681542257,0.260899798578,0.303213954356,1.0,-0.00066,-0.000867428571429,0.034
0.465087534936,0.54777025417,-0.123988147674,-1.35581936596,0.0794905896518,1.89409557451,0.159164025001,-0.000377889522151,-0.00392518978109,-0.000265638558483,-0.000853457887878,0.000123366444864,0.000200806173009,-0.00346896989479,0.573794815965,0.818985000269,0.00195586478327,0.0,0.818942019351,-0.573736308403,-0.0118896703939,0.0,-0.00861547694485,0.00842413328138,-0.999927401132,0.0,0.661676333998,0.260899758504,0.303228151387,1.0,-0.001,-0.00131428571429,0.051
0.465092823208,0.547663507613,-0.123985363939,-1.35595157097,0.0794904925886,1.89412138595,0.159161682168,-0.00905201147201,-0.000915173189876,-0.000499869108138,-0.0135849488185,0.000389988136208,-0.000591883771103,0.000895005495589,0.573793803605,0.818985693553,0.00196254959287,0.0,0.818942683112,-0.573735154557,-0.0118996262107,0.0,-0.00861980588914,0.00843530982006,-0.999927269602,0.0,0.661651982845,0.260892314666,0.303242997171,1.0,-0.00132,-0.00173485714286,0.067
0.465086455429,0.547515065648,-0.123982858286,-1.35616548658,0.0794844984631,1.89416921721,0.159157982095,0.000463263570868,-0.00681605283671,-5.47983104392e-05,-0.014335368636,-0.00142070606213,0.00883390468527,0.00207279216693,0.573804394913,0.818978295385,0.00195319405085,0.0,0.818935045592,-0.573745668477,-0.0119183013253,0.0,-0.0086403598306,0.00843847520623,-0.999927065499,0.0,0.661617820476,0.260868381258,0.303250396536,1.0,-0.0017,-0.00223428571429,0.086
0.465065260714,0.547345938287,-0.123983120744,-1.35636821293,0.0794808959751,1.89428009614,0.159141373568,-0.000276422519745,-0.0120151931418,0.000107573876017,-0.0162377878999,0.000469706468914,0.00444112074319,-0.00101816916708,0.573818916082,0.818967951392,0.00202312628526,0.0,0.818925585494,-0.573759873372,-0.0118844449782,0.0,-0.00857235592044,0.0084764724117,-0.999927329424,0.0,0.661603719111,0.26083932459,0.303283340696,1.0,-0.00202,-0.00265485714286,0.102
0.465042116504,0.547164296784,-0.123982867035,-1.35658058294,0.0794777956816,1.89440132161,0.159131000736,-0.00178250615891,-0.0109334566407,-0.000834496234553,-0.0124385100283,-0.000172633163223,0.00592801710024,-0.0018336607905,0.573840480775,0.818952635472,0.00210484618134,0.0,0.818911305143,-0.573781077828,-0.0118446585419,0.0,-0.00849265692852,0.00852079093741,-0.999927632832,0.0,0.661590154763,0.260809081985,0.303321435893,1.0,-0.00234,-0.00307542857143,0.118
0.465013812681,0.546960137258,-0.123982796396,-1.35685872762,0.0794713669538,1.89453244673,0.159119469775,-0.000901877525966,-0.00757346910927,0.000972410833014,-0.0183010184443,-0.000251081599408,0.00992056632068,0.000745640405475,0.573868180909,0.818933085917,0.00215838637966,0.0,0.81889239951,-0.573808509525,-0.0118228305564,0.0,-0.00844376920905,0.00855239712624,-0.999927777024,0.0,0.661565632815,0.260767933674,0.30334502609,1.0,-0.00268,-0.00352228571429,0.135
0.464980422352,0.54671155373,-0.123985364083,-1.35723484188,0.0794656810781,1.8946706805,0.15908925162,-0.00258844245314,-0.0144355365738,-0.00109241746629,-0.0229127414501,-0.00410771271794,0.00935921038066,-0.00172861733242,0.57389209865,0.818916278109,0.002176110434,0.0,0.818875681923,-0.573832212277,-0.0118303258127,0.0,-0.00843948660512,0.00857145945111,-0.999927649957,0.0,0.661523094479,0.260711441817,0.303354142985,1.0,-0.00302,-0.00396914285714,0.152
0.464943066254,0.546426220036,-0.123981090751,-1.35765850091,0.0794526357427,1.89482280402,0.158950796528,-0.00122015423785,-0.0183674365343,0.00134403206175,-0.0260906353462,-0.000379707913087,0.0128800049066,-0.0123190233869,0.573826509471,0.818962182424,0.00219720014125,0.0,0.818921712108,-0.573766397251,-0.0118362884398,0.0,-0.00843295536388,0.00859147639456,-0.999927533273,0.0,0.661473235578,0.26065087752,0.303367606949,1.0,-0.00336,-0.004416,0.169
0.464895061508,0.546135552804,-0.123982806441,-1.35815091187,0.0794336299528,1.89498968634,0.158920207642,-0.00323090589741,-0.0187950728693,0.000725360669772,-0.0300454149737,6.27258365112e-05,0.0186596330929,0.000377601083314,0.573864414833,0.818935688192,0.00217230159407,0.0,0.818894783021,-0.573804283701,-0.011862767291,0.0,-0.00846853058059,0.00858667177231,-0.999927273884,0.0,0.661415124179,0.260571741822,0.30335357478,1.0,-0.0037,-0.00486285714286,0.186
0.464841281942,0.545812281363,-0.123985810924,-1.35870653615,0.0793703831817,1.8951752161,0.158868457993,-0.00752982413724,-0.0222058134495,-0.000312981238488,-0.0327676209044,-0.00397174029649,0.00990266701154,-0.00394060950282,0.573882366989,0.818923258834,0.00211468704977,0.0,0.818881852226,-0.573822714395,-0.0118638711945,0.0,-0.00850230829375,0.00854030975836,-0.999927384295,0.0,0.661351307118,0.260475066456,0.303334101297,1.0,-0.00404,-0.00530971428571,0.203
0.464783366947,0.545476957351,-0.123986047134,-1.35929949197,0.0793004548208,1.8953739973,0.158771039068,-0.00834798855822,-0.0223121176161,-0.000318115441288,-0.0427699770059,-0.00386314886318,0.00906731300698,-0.00300098756934,0.57386466438,0.818935840543,0.00204522659758,0.0,0.818893801012,-0.573805564539,-0.011868600116,0.0,-0.00854622415092,0.00848595698562,-0.999927472663,0.0,0.66128262945,0.260372806794,0.303306418096,1.0,-0.00436,-0.00573028571429,0.219
0.464723072872,0.545061900084,-0.123986737635,-1.36000109183,0.079285737253,1.89559826257,0.158690133388,-0.000359962877554,-0.0294716640232,0.00392497585989,-0.0453944385453,0.000617191554483,0.0126832648107,-0.00630079464298,0.573883344447,0.81892284405,0.00200732679241,0.0,0.818880008103,-0.573824097859,-0.0119240910297,0.0,-0.00861322388423,0.00848696041993,-0.999926889266,0.0,0.661193730433,0.26026753673,0.30328576951,1.0,-0.0047,-0.00617714285714,0.236
0.464649355054,0.54461673531,-0.123994536071,-1.36076398744,0.079257625574,1.89587174332,0.158608890709,-0.00300339465773,-0.0210607405859,-0.00197615044923,-0.0398661558315,-0.00239967597563,0.017687400578,-0.00213679421922,0.573917744296,0.818898812005,0.00197620340545,0.0,0.818855426,-0.573858481244,-0.0119574962393,0.0,-0.00865808507497,0.00848100743617,-0.999926552341,0.0,0.661107132193,0.260143571732,0.303261703953,1.0,-0.00506,-0.00665028571429,0.254
0.464585709169,0.544202362772,-0.12399560529,-1.36145034043,0.079225572831,1.89611065188,0.158511878391,-0.00226911368118,-0.0266420019074,0.000791868492523,-0.0472862324854,-0.00475344401547,0.00858666693825,-0.00676432965022,0.5739208459,0.818896694744,0.0019526598869,0.0,0.818852891256,-0.573861573778,-0.0119826342609,0.0,-0.00869215046564,0.00847618797802,-0.999926297663,0.0,0.661026396089,0.260035867731,0.303249002629,1.0,-0.00536,-0.00704457142857,0.269
0.464515456845,0.543684601522,-0.123995888021,-1.36228130872,0.0791866942895,1.89640379744,0.158408209967,-0.0075855069753,-0.0307599456626,2.47905502286e-05,-0.0497991499412,-0.00594031076013,0.01109140044,-0.00825180347599,0.573929547831,0.818890622451,0.00194151742171,0.0,0.818846542659,-0.573870194497,-0.0120035971369,0.0,-0.00871562195337,0.00847918715601,-0.999926067927,0.0,0.660927746353,0.259911027569,0.303245254383,1.0,-0.0057,-0.00749142857143,0.286
0.464438567376,0.543148789739,-0.124001753,-1.36314043827,0.0791262479537,1.89670996337,0.1583045956,-0.00453171028572,-0.0289634322002,-0.000409109477518,-0.0495026124622,-0.000301488253022,0.0185756603915,-0.00933469148081,0.573943422115,0.818880948202,0.00192036040307,0.0,0.818836676481,-0.573884239259,-0.0120051689344,0.0,-0.00872890760981,0.00846291220865,-0.999926089913,0.0,0.660829770093,0.259772861328,0.303242087254,1.0,-0.00604,-0.00793828571429,0.303
0.46437459475,0.54259966168,-0.124002028624,-1.36400140466,0.0790764604387,1.89700962252,0.158182691486,-0.00525371872082,-0.0385049582563,0.000603041667878,-0.0554239794592,-0.000696375304081,0.0141891949654,-0.00850601484166,0.573930649895,0.818889920374,0.00191162818553,0.0,0.81884547933,-0.573871452471,-0.0120159860339,0.0,-0.0087429093312,0.00846183368797,-0.999925976714,0.0,0.66072506334,0.259647717999,0.303246668636,1.0,-0.00636,-0.00835885714286,0.319
0.464287700484,0.541975137777,-0.124002481483,-1.36498306267,0.0790231365736,1.89738457968,0.158058885891,-0.00683175600173,-0.0317044726738,0.000673037968602,-0.0576652824289,-0.00572575606376,0.0254709576999,-0.00743851925944,0.573941142649,0.818882525711,0.00192892751239,0.0,0.818838265276,-0.573881825856,-0.012012167726,0.0,-0.00872974587863,0.00847392007767,-0.999925989369,0.0,0.660615588307,0.259498535284,0.303253594146,1.0,-0.00672,-0.008832,0.337
0.464210909076,0.54131376507,-0.124007730462,-1.36597344243,0.0789652346085,1.89775836489,0.157941756271,-0.00342142279026,-0.0448306176398,-0.00116595005105,-0.0561955045989,-0.00113554098141,0.0249018264988,-0.00340911578284,0.573951298868,0.818875317323,0.00196675072026,0.0,0.818831564608,-0.573891833351,-0.0119908012924,0.0,-0.00869043635451,0.00849273705721,-0.999926172141,0.0,0.660503407994,0.259351887957,0.303282372675,1.0,-0.00706,-0.00927885714286,0.354
0.464133149497,0.540658341662,-0.124007385025,-1.3669852536,0.0789058811382,1.8981229904,0.157800127381,-0.0024075800076,-0.0467347482257,0.00014621205975,-0.0651479469372,-0.00803857217716,0.028681901391,-0.0121070814475,0.573938907928,0.818883981761,0.00197516670945,0.0,0.818840296652,-0.573879367019,-0.0119911462778,0.0,-0.00868601742159,0.00849969513925,-0.999926151415,0.0,0.660383165069,0.259204369539,0.303295670551,1.0,-0.00738,-0.00969942857143,0.37
0.46403492459,0.539923239593,-0.124006280582,-1.36809419726,0.0788337574672,1.8985362062,0.157665290924,-0.00682818595602,-0.0430294598815,-0.00055619973357,-0.0672628242948,-0.00529994017062,0.0203486365719,-0.00806934417057,0.573950242084,0.818875962396,0.00200617124842,0.0,0.818832720363,-0.573890606973,-0.0119705552642,0.0,-0.00865124369021,0.00851338566169,-0.99992633641,0.0,0.660257928267,0.259034537145,0.303323115672,1.0,-0.00772,-0.0101462857143,0.387
0.463924536638,0.539176148192,-0.124003157822,-1.3692539507,0.0787670826116,1.89897919925,0.157525102935,-0.00771120884847,-0.0414233849685,0.00215320901155,-0.0672660271348,-0.00583298086058,0.0257614324194,-0.0134249004703,0.573970032222,0.818862023462,0.00203360366571,0.0,0.818819102676,-0.573910243931,-0.0119605980377,0.0,-0.00862713963433,0.0085303426054,-0.99992640015,0.0,0.660129356695,0.258854880674,0.303337263672,1.0,-0.00806,-0.0105931428571,0.404
0.463822026724,0.53845414701,-0.124011617489,-1.37038608478,0.0787156091253,1.8994140726,0.157376928687,-0.00351572373546,-0.0500310068842,0.00121085229571,-0.0714394205158,-0.00201950500688,0.0318011254678,-0.0157402829847,0.573987463372,0.818849737106,0.0020607849096,0.0,0.818807070687,-0.573927460663,-0.0119581683662,0.0,-0.00860936772978,0.00855138862295,-0.99992637356,0.0,0.660004428086,0.258678570443,0.303346415609,1.0,-0.00838,-0.0110137142857,0.42
0.463706066731,0.537618898046,-0.124017319477,-1.37169115717,0.0786333968111,1.8999175089,0.157227534547,-0.00249279169672,-0.0493619335489,0.00247016450811,-0.0814724315348,-0.00288166144579,0.0293943911054,-0.00701713758829,0.574014186684,0.818830944073,0.00208456575631,0.0,0.818788664233,-0.573954158575,-0.011937088361,0.0,-0.00857817730399,0.00855904166613,-0.999926576144,0.0,0.6598604123,0.258475639459,0.303358919597,1.0,-0.00874,-0.0114868571429,0.438
0.463587014365,0.536789937664,-0.124026827475,-1.37299493247,0.0785474006697,1.90039730557,0.157068123561,-0.00856078452652,-0.0493255344963,0.00015566886395,-0.0763658954004,-0.000647275515876,0.0288765758343,-0.00861175786696,0.574036551678,0.818815272215,0.00208188046393,0.0,0.818773052587,-0.573976626801,-0.0119275791555,0.0,-0.00857169827873,0.00855161867602,-0.999926695217,0.0,0.659713387333,0.258266336111,0.303365511397,1.0,-0.00908,-0.0119337142857,0.455
0.463476914516,0.535982875295,-0.124035019152,-1.37425759967,0.0784858486966,1.90087434943,0.156913965218,-0.00969085903408,-0.0504584507583,-0.000557266000127,-0.0785661923375,-0.000628236318189,0.0289601707191,-0.00962389274383,0.57405925736,0.818799293907,0.00210528798188,0.0,0.818757287806,-0.573999142311,-0.0119262396609,0.0,-0.00855692786477,0.00857025316486,-0.999926662184,0.0,0.659570515375,0.258072065952,0.303375821083,1.0,-0.0094,-0.0123542857143,0.471
0.463356141124,0.535027560025,-0.12403672657,-1.37575249028,0.0783953827065,1.90141074179,0.156723972792,-0.00813008072541,-0.050521179987,7.05810469452e-05,-0.0843675890207,-0.000642643216887,0.035699797441,-0.00860906182102,0.574061463334,0.818797755169,0.00210222413322,0.0,0.8187556772,-0.57400132857,-0.0119315863476,0.0,-0.00856304153669,0.00857083687759,-0.999926604844,0.0,0.659392008695,0.25784828131,0.303384952804,1.0,-0.00976,-0.0128274285714,0.489
0.46323370919,0.534190928304,-0.124044966738,-1.37714283735,0.0783142505663,1.90191648465,0.156555987759,-0.00831833751511,-0.0505813945793,-0.00158449797393,-0.0864532818574,-0.00680158408845,0.0338787282563,-0.0103050493752,0.574084428675,0.818781762771,0.00205927360827,0.0,0.818739103895,-0.574024447196,-0.0119566164045,0.0,-0.00860795179162,0.00855027974557,-0.999926395232,0.0,0.659229589753,0.257629901951,0.303357516258,1.0,-0.01008,-0.013248,0.505
0.463116354514,0.533323720282,-0.124048168885,-1.37855125524,0.0782236609464,1.90244424079,0.156381051676,-0.00861787108211,-0.0536982879309,-0.00107701066329,-0.091625753176,-0.00154257445929,0.0321875315253,-0.0121658824536,0.57409235944,0.818776244691,0.00204226922752,0.0,0.818733416733,-0.574032499849,-0.0119594457148,0.0,-0.00861994710156,0.00853806485473,-0.999926396271,0.0,0.659065890745,0.257416038132,0.303344608033,1.0,-0.0104,-0.0136685714286,0.521
0.462996795922,0.53237640928,-0.124046043591,-1.38009060968,0.0781682067113,1.90302213587,0.156198209172,-0.00472422668869,-0.0602924213624,4.73184290139e-05,-0.0921777043658,-0.00588694381686,0.0335965800672,-0.00835894576638,0.57410845762,0.818764939141,0.00204944461256,0.0,0.818721840227,-0.574048204876,-0.0119980713348,0.0,-0.00864728663246,0.00856628422058,-0.99992591886,0.0,0.658880851407,0.257198398241,0.303329935141,1.0,-0.01074,-0.0141154285714,0.538
0.462854244766,0.531334022498,-0.124041068386,-1.38177360224,0.0780441439445,1.90363502443,0.155973459435,-0.00913522076115,-0.061097180774,0.000413871961353,-0.102393022347,-0.00510107800756,0.0383760036156,-0.012216630293,0.574095958145,0.818773791948,0.00201379289231,0.0,0.81873036233,-0.574035990196,-0.012000944139,0.0,-0.0086702358716,0.00853861130325,-0.999925956822,0.0,0.658680409314,0.25694281812,0.303316523179,1.0,-0.0111,-0.0145885714286,0.556
0.462720919352,0.530364373634,-0.124043573063,-1.38332350433,0.0779492230127,1.90417616917,0.155768672091,-0.00635712784269,-0.0639009468811,-0.000123062224301,-0.0987851625838,-0.00798963505025,0.0388031535556,-0.0189120482539,0.574097804969,0.818772580291,0.00197964530571,0.0,0.818728655748,-0.574037933634,-0.0120243880585,0.0,-0.00870901541195,0.00852413124639,-0.999925743362,0.0,0.658492063225,0.256703682612,0.303309026944,1.0,-0.01142,-0.0150091428571,0.572
0.462583751594,0.529306226394,-0.124046424328,-1.3849692637,0.077853154122,1.90478309059,0.155552444656,-0.00531897812203,-0.0651097459815,0.000197878461869,-0.100480715092,-0.00191611386191,0.0385999985163,-0.0107912589077,0.574098576847,0.818771996531,0.00199716305497,0.0,0.818728257242,-0.574038588084,-0.0120202781045,0.0,-0.00869558585922,0.00853612272734,-0.999925757942,0.0,0.658297476339,0.256455888789,0.303323729958,1.0,-0.01176,-0.015456,0.589
0.462432878833,0.528155658385,-0.124046769245,-1.38677848335,0.0777425637046,1.90548774212,0.155296327168,-0.00993052104296,-0.0644524458583,-2.2596158283e-05,-0.105001084108,-0.00407222793259,0.0378639423048,-0.0146083282095,0.574081146751,0.818784127762,0.00203370863579,0.0,0.818740899512,-0.574021038876,-0.01199722027,0.0,-0.00865590864353,0.00855262307274,-0.999925961201,0.0,0.658089825042,0.256186636405,0.303333840381,1.0,-0.01212,-0.0159291428571,0.607
0.462296125581,0.527082034598,-0.124047006681,-1.38843583568,0.0776328254151,1.90611142509,0.155080510352,-0.00952695596736,-0.065505584732,0.000444258505578,-0.106232644357,-0.0121115821434,0.0335391185186,-0.0185937538721,0.574076616703,0.81878723323,0.00206197841629,0.0,0.818744453203,-0.574016469578,-0.0119732995891,0.0,-0.00862014123676,0.00856198955467,-0.999926190026,0.0,0.657895337375,0.255938455346,0.303354732004,1.0,-0.01244,-0.0163497142857,0.623
0.462138812598,0.525898627306,-0.124058474169,-1.39024710431,0.0775187006157,1.90677774833,0.154825021321,-0.0149910173253,-0.0715563325569,-0.001870172162,-0.104251721336,-0.00470657508685,0.0420175114543,-0.00861654647786,0.574071192978,0.818790964442,0.00209017736838,0.0,0.818748618425,-0.57401099556,-0.0119508871948,0.0,-0.00858565896058,0.00857215494223,-0.999926399601,0.0,0.657683698259,0.25565560502,0.30338339329,1.0,-0.01278,-0.0167965714286,0.64
0.461982811039,0.524738610843,-0.124053173656,-1.39209024366,0.0773980165819,1.90743739232,0.154573034322,-0.0134734088913,-0.0673607952319,0.00124224652903,-0.107499483753,-0.00935679269554,0.0408340530404,-0.0179623530922,0.574055328611,0.818802146786,0.00206664282187,0.0,0.818759483937,-0.573995220725,-0.0119641527172,0.0,-0.00861019659958,0.00856033384289,-0.999926289883,0.0,0.65745823626,0.255377829017,0.303379023017,1.0,-0.01312,-0.0172434285714,0.657
0.461837786077,0.523605709628,-0.124071976218,-1.39389166859,0.0772804997681,1.90809421949,0.15432942393,-0.0104443897275,-0.0696538294989,-0.00130465958454,-0.111019547427,-0.0141413369595,0.0346159710078,-0.0149640382655,0.574052864911,0.818803922931,0.00204718879198,0.0,0.818761126885,-0.573992957834,-0.0119602826654,0.0,-0.00861822034331,0.0085421575945,-0.999926376201,0.0,0.657243237184,0.255098179451,0.303375682611,1.0,-0.01344,-0.017664,0.673
0.461669904697,0.522311446352,-0.124068069143,-1.39595139678,0.077169864228,1.9088947145,0.154056179504,-0.0146273395436,-0.0698363506377,0.000443650900623,-0.110999604636,-0.00517396172407,0.0511964875288,-0.0129674637572,0.574046606684,0.818808225156,0.00208102675773,0.0,0.818765781001,-0.573986471258,-0.0119529735193,0.0,-0.00859287726691,0.00856560230149,-0.99992639375,0.0,0.656986988554,0.25477990976,0.303373690524,1.0,-0.01382,-0.0181634285714,0.692
0.461505415975,0.521055704368,-0.12407306388,-1.39796025956,0.0770402787523,1.90965293701,0.153784170491,-0.00592714307043,-0.0713354444484,0.00052189206205,-0.114736374952,-0.00616327666883,0.0413364617218,-0.0234933236107,0.574032622592,0.818818030872,0.00208024510724,0.0,0.818775612548,-0.573972528051,-0.0119490685914,0.0,-0.00859027466099,0.00856257399905,-0.999926442048,0.0,0.656760838497,0.254496605026,0.30336622618,1.0,-0.01414,-0.018584,0.708
0.461372505416,0.5199861805,-0.124077595589,-1.39964159558,0.0769346484348,1.91026309501,0.153544266887,-0.0137454078158,-0.0788475438367,0.000990123439375,-0.119777726187,-0.0131458948709,0.0386472976209,-0.0233037849635,0.574011047211,0.818833164801,0.00207672874014,0.0,0.818790704813,-0.573950974061,-0.0119502295851,0.0,-0.0085934692789,0.00856013479652,-0.999926435483,0.0,0.656540295571,0.254223768237,0.303370229643,1.0,-0.01444,-0.0189782857143,0.723
0.46118821954,0.518555076679,-0.124083903413,-1.40183556773,0.0767893961237,1.91104813699,0.153263351902,-0.00718774301527,-0.0743767687889,-0.000611797581853,-0.11677973507,-0.00588133860211,0.0434444040998,-0.0104605034652,0.574011620151,0.818832733881,0.00208824279605,0.0,0.818790492258,-0.573951567552,-0.0119362805369,0.0,-0.00857543210179,0.00856156191308,-0.999926578116,0.0,0.656286294891,0.253909082588,0.303398652977,1.0,-0.01478,-0.0194251428571,0.74
0.461009131382,0.517206062109,-0.124084235279,-1.4039846831,0.0766496990153,1.91181326955,0.152964887855,-0.0130535007421,-0.0822922734055,0.000567812012861,-0.124794633417,-0.01314426116,0.0459295505413,-0.0178998682712,0.573990026529,0.818847957916,0.00205381658121,0.0,0.818805263363,-0.573930114698,-0.0119545402418,0.0,-0.0086103694551,0.00854362718852,-0.99992643128,0.0,0.656018834305,0.25358340472,0.303388656845,1.0,-0.01512,-0.019872,0.757
0.460836182313,0.515927680159,-0.124087592538,-1.40600449467,0.0765299239209,1.91258292054,0.152690357726,-0.00625222971311,-0.0796160114805,0.000547072361178,-0.132528342346,-0.00628236671169,0.0421934278647,-0.0160151642455,0.573983820549,0.818852249334,0.00207711596758,0.0,0.818809841047,-0.573923795676,-0.0119443652607,0.0,-0.00858872944004,0.00855680014652,-0.999926504748,0.0,0.655778367562,0.253277916798,0.303390771643,1.0,-0.01544,-0.0202925714286,0.773
0.460645501971,0.514535405409,-0.124089754011,-1.40822206147,0.0763938388981,1.91340111168,0.152376559609,-0.0112516906651,-0.0879982859,0.000915225291536,-0.130334098364,-0.0080837147538,0.0459791430996,-0.0163770503596,0.57396464888,0.818865707629,0.0020692041397,0.0,0.818823167021,-0.573904630055,-0.0119517217687,0.0,-0.00859949483412,0.00855434277295,-0.999926433248,0.0,0.655507983821,0.252940273893,0.303382397431,1.0,-0.01578,-0.0207394285714,0.79
0.460439651916,0.513046893988,-0.124090790106,-1.4106332076,0.0762460693576,1.91424481815,0.152050569733,-0.0152437602867,-0.0879405715305,-0.00260660213331,-0.140366187524,-0.0145461382762,0.0479154448328,-0.0183451558307,0.573953481228,0.818873703029,0.00200169277365,0.0,0.818830168719,-0.573893634636,-0.0119999092001,0.0,-0.00867781841629,0.00852660025486,-0.999925993539,0.0,0.655202491049,0.252571603816,0.303351079108,1.0,-0.01614,-0.0212125714286,0.808
0.46025644482,0.511701453738,-0.124097588915,-1.41278419805,0.0761233741743,1.91502278435,0.151747011157,-0.00816948010933,-0.0854480036459,-0.00329245299159,-0.139028783854,-0.0110294934084,0.0485493402338,-0.0163099887998,0.573939275848,0.818883709438,0.00198115064737,0.0,0.81883978879,-0.573879402505,-0.0120240831724,0.0,-0.00870955196691,0.00852350267021,-0.999925744046,0.0,0.654935362866,0.252243007659,0.303337376563,1.0,-0.01646,-0.0216331428571,0.824
0.460049713382,0.510243849677,-0.124100326133,-1.41511119966,0.0759817647207,1.91591013714,0.151419804892,-0.0142308369841,-0.0883566184432,0.000354218716057,-0.137682550345,-0.00726710193799,0.0469177835924,-0.0188632988627,0.573926029662,0.81889296252,0.00199381872182,0.0,0.818849205535,-0.573866102238,-0.0120175786854,0.0,-0.0086970930795,0.00853000232637,-0.999925797063,0.0,0.654656260815,0.25188636011,0.303327346578,1.0,-0.0168,-0.02208,0.841
0.459847329757,0.508724376989,-0.124103594125,-1.4174838533,0.0758220152607,1.91676676028,0.151085493845,-0.0123914866917,-0.0926859538817,0.00139150055878,-0.137980694197,-0.0126931195338,0.0490810310068,-0.0197530296531,0.573900281826,0.818911020066,0.00198862673224,0.0,0.818867266942,-0.573840449962,-0.012011828302,0.0,-0.00869563152668,0.00852217706329,-0.999925876498,0.0,0.654360783308,0.251522805484,0.303335658882,1.0,-0.01714,-0.0225268571429,0.858
0.459643858204,0.507293262275,-0.124114517173,-1.41973651813,0.0756822155508,1.91758137688,0.150776423305,-0.0153443859422,-0.0890161163595,0.0031959363739,-0.139641427186,-0.00615811224085,0.0487108771779,-0.0146165986436,0.573900523386,0.818910873216,0.00197936545121,0.0,0.818866996578,-0.573840728386,-0.0120169572717,0.0,-0.00870514406151,0.00851753909893,-0.999925833247,0.0,0.654083275644,0.251167561671,0.303335413785,1.0,-0.01746,-0.0229474285714,0.874
0.459429063576,0.505738943752,-0.124118817628,-1.42218781981,0.0755310347822,1.91850667799,0.150443182625,-0.0134949891525,-0.0945313293127,-0.000277709908779,-0.140803438192,-0.0145712242933,0.0562011952146,-0.0206361396985,0.57389259597,0.818916377952,0.00200027835582,0.0,0.81887278228,-0.573832720838,-0.0120050755248,0.0,-0.00868349497864,0.00852776164615,-0.999925934355,0.0,0.653784563215,0.250792534623,0.303335669077,1.0,-0.0178,-0.0233942857143,0.891
0.459192875216,0.503980147674,-0.124120534478,-1.42481436203,0.0753640534452,1.9195181228,0.150079656503,-0.0137663552405,-0.101701447784,0.00058574219625,-0.142674558527,-0.00964078328319,0.059379360107,-0.0250052212958,0.573879743581,0.81892508674,0.00211875367299,0.0,0.818883122427,-0.57381946186,-0.0119333103689,0.0,-0.00855686988277,0.00858346197622,-0.999926549382,0.0,0.653470949291,0.250390298158,0.303402019883,1.0,-0.01816,-0.0238674285714,0.909
0.458974319873,0.502412187209,-0.124133390739,-1.42715148793,0.0752150573719,1.92039231515,0.149751781986,-0.0171397951966,-0.0987505993322,-0.00739863382463,-0.149578385904,-0.00743922059701,0.0573542580578,-0.0189371017581,0.573878956608,0.818925415241,0.00220325569811,0.0,0.818884645507,-0.573818428579,-0.0118783533225,0.0,-0.00846337965084,0.00862111525543,-0.999927021125,0.0,0.653190467129,0.250018622329,0.303460637508,1.0,-0.01848,-0.024288,0.925
0.45875399737,0.500803033905,-0.124132370893,-1.4295723536,0.0750603753887,1.92124155203,0.149410124736,-0.0114400206824,-0.0990589695356,0.000798882858418,-0.153672441113,-0.00331107523662,0.048788163373,-0.0206476677534,0.573860346523,0.81893836877,0.00223556375455,0.0,0.818897964231,-0.573799636002,-0.0118679738072,0.0,-0.00843653587109,0.00864142454322,-0.999927072663,0.0,0.652882531083,0.249642098245,0.303504983246,1.0,-0.0188,-0.0247085714286,0.941
0.458494506789,0.498995646932,-0.12413474808,-1.43234690861,0.0748865199903,1.92225792229,0.149021514899,-0.0152121459069,-0.0979998487609,0.000367048956205,-0.15649000533,-0.0111480605235,0.0586718837712,-0.0253525260904,0.573850514627,0.818945146814,0.00227602154196,0.0,0.818905247115,-0.57378962388,-0.0118495010892,0.0,-0.00839829555785,0.00866385508741,-0.999927200473,0.0,0.652538350518,0.249206968673,0.303533292512,1.0,-0.01916,-0.0251817142857,0.959
0.458267297303,0.497519395208,-0.124134831036,-1.43466879848,0.0747440544208,1.92311840962,0.148666299195,-0.0110800972024,-0.101216589363,8.73377594942e-05,-0.160855532783,-0.0141147967173,0.0473690387211,-0.0239467572069,0.573825150922,0.818962883996,0.00228860365257,0.0,0.81892309792,-0.573764162435,-0.0118487340737,0.0,-0.0083907162181,0.00867345900209,-0.999927180844,0.0,0.652252233075,0.248838155967,0.30353201074,1.0,-0.01946,-0.025576,0.974
0.457987186719,0.495741252162,-0.1241355413,-1.43752268883,0.0745664920563,1.92410294712,0.148252351355,-0.0176740031011,-0.099325200709,-0.000373638574502,-0.15758791126,-0.0117662555074,0.0499063283569,-0.0196757311371,0.57381198656,0.818972318896,0.00221175577363,0.0,0.818931375637,-0.573751143357,-0.0119069053257,0.0,-0.00848259177773,0.00864376761633,-0.99992666277,0.0,0.651884133585,0.24837839134,0.303498167273,1.0,-0.01982,-0.0260491428571,0.992
0.457711376205,0.494036351457,-0.124139010038,-1.44027671076,0.0743909986933,1.92508658478,0.147865989712,-0.0150438863824,-0.10555323123,0.00175882218065,-0.163252346453,-0.00624467161569,0.0552237988427,-0.0195299771229,0.573815002663,0.818970365001,0.00215194579982,0.0,0.818928586564,-0.573754345058,-0.0119443935543,0.0,-0.00854758066329,0.00861632804237,-0.999926346165,0.0,0.651536190578,0.247931068939,0.303460177118,1.0,-0.0214611428571,-0.0282060734694,1.009
0.457444058411,0.492224095701,-0.124173493537,-1.44315141979,0.0742143287919,1.92615654842,0.147461685461,-0.0144318207999,-0.125578766631,-0.00268162124079,-0.186475896155,-0.00815784306902,0.0699923555434,-0.023270000953,0.57382425012,0.818963891876,0.00214957662804,0.0,0.8189221784,-0.573763697646,-0.0119344831849,0.0,-0.00854072619761,0.00860879758505,-0.999926469597,0.0,0.651182579115,0.24746391333,0.303447182341,1.0,-0.0244234285714,-0.0320993632653,1.025
0.457090381857,0.489946198993,-0.124180669882,-1.44685267131,0.0739995949689,1.92746788559,0.146927447652,-0.0236913444779,-0.130128554209,-0.00136955981508,-0.219867973883,-0.0147480789683,0.0803187108586,-0.0266047640074,0.573808373188,0.818975244803,0.00206062128118,0.0,0.818932087856,-0.573747909,-0.01201329674,0.0,-0.00865648215132,0.008581004358,-0.999925713081,0.0,0.650703750765,0.246875234558,0.303384057661,1.0,-0.027756,-0.0364793142857,1.043
0.456715517197,0.487607275355,-0.124198031889,-1.45052749538,0.0737760746702,1.92882434804,0.14639297511,-0.0256337712354,-0.154552381087,-6.95077127691e-05,-0.235277913267,-0.0133800264658,0.0910198834621,-0.041496288856,0.573812380256,0.818972398393,0.00207601455622,0.0,0.818929399836,-0.573751808417,-0.0120103007406,0.0,-0.00864515414303,0.00859193403148,-0.999925717231,0.0,0.650247619374,0.24627255413,0.303378754583,1.0,-0.0307182857143,-0.0403726040816,1.059
0.456307162062,0.485016576863,-0.124235885672,-1.4544907113,0.0735338082284,1.93033668383,0.145800529984,-0.0219903827802,-0.16342879394,-0.00507656732213,-0.251367494014,-0.0125851572738,0.0961131325387,-0.0375806029494,0.573819545547,0.818967087884,0.00218746724341,0.0,0.818925684531,-0.573758653563,-0.0119363971948,0.0,-0.00852060223816,0.00864087748716,-0.999926364576,0.0,0.649770072813,0.245612947645,0.30342367601,1.0,-0.0336805714286,-0.0442658938775,1.075
0.45578586597,0.481838283168,-0.124285255856,-1.45944814348,0.0732292596314,1.93203319445,0.145051432209,-0.0294236619987,-0.1786417278,-0.00205879990192,-0.288689176673,-0.0209587434194,0.0923557617366,-0.0417395244761,0.573828810655,0.818960786757,0.00211488001212,0.0,0.818918304308,-0.573768082807,-0.0119893670319,0.0,-0.00860553649052,0.008611923984,-0.999925887007,0.0,0.649131107178,0.244766517299,0.303417729971,1.0,-0.0370131428571,-0.048645844898,1.093
0.45524803696,0.478543721843,-0.124330377457,-1.46453824537,0.0729154566076,1.9338728098,0.144297443998,-0.0359870528377,-0.197766369012,-0.000243471127188,-0.301714979933,-0.0202450149484,0.117788241986,-0.044623064161,0.5738473315,0.81894772579,0.00214696407975,0.0,0.818905663709,-0.573786470034,-0.0119727879615,0.0,-0.00857335359544,0.00862887959967,-0.999926017286,0.0,0.648490344781,0.243906232213,0.303439020948,1.0,-0.0401605714286,-0.0527824653061,1.11
0.45468618678,0.475201865575,-0.124360521098,-1.4696359874,0.0726076560525,1.93576828742,0.143569186326,-0.0382722938107,-0.209227135218,-0.000944340607927,-0.329499481242,-0.0204852936359,0.118340921003,-0.0481741546733,0.573896332973,0.818913067638,0.00226573462487,0.0,0.818872523423,-0.573834951398,-0.0119157810325,0.0,-0.0084579939229,0.008693938254,-0.999926436182,0.0,0.647857741498,0.243044082412,0.303491139132,1.0,-0.0431228571429,-0.056675755102,1.126
0.454051803346,0.471433399169,-0.124387247318,-1.475476869,0.0722456561264,1.93781441408,0.142711679483,-0.0414520835279,-0.224819641243,-0.00113162567354,-0.349171662404,-0.0218527685586,0.124388927414,-0.0526705113663,0.573914435009,0.818900437183,0.00224547815298,0.0,0.818859410345,-0.573852908555,-0.0119520848681,0.0,-0.00849915698966,0.00869837242117,-0.999926048589,0.0,0.647096874865,0.242057306131,0.303494813631,1.0,-0.0462702857143,-0.0608123755102,1.143
0.453388207553,0.46734230799,-0.124398207822,-1.4815804186,0.0718632152865,1.94012620942,0.141719852151,-0.0388598609792,-0.243331741778,0.000257183917162,-0.372853480321,-0.0197979714721,0.138194972722,-0.0663178716276,0.573840070068,0.818951811321,0.00250032401073,0.0,0.81891414989,-0.573777604963,-0.0118161776091,0.0,-0.0082424088253,0.00882831687132,-0.999927059099,0.0,0.646330848083,0.24104920812,0.303614833593,1.0,-0.0494177142857,-0.0649489959184,1.16
0.45269467933,0.463320582552,-0.12441494379,-1.48777753267,0.0714497411603,1.94226689742,0.140770660531,-0.0447412271034,-0.253888836641,-0.00155728883331,-0.398884029738,-0.0254091229847,0.141014563337,-0.0521168202112,0.573820711386,0.818965488894,0.0024629424927,0.0,0.818927246947,-0.573758290123,-0.0118463337495,0.0,-0.00828876442189,0.00881481208684,-0.999926795057,0.0,0.645508646354,0.239991635616,0.303624266416,1.0,-0.05238,-0.0688422857143,1.176
0.451925864109,0.458816993403,-0.124426243204,-1.494711646,0.0709803404778,1.94467683994,0.139741615092,-0.0469109321324,-0.26903392644,-0.000235930813003,-0.408791256273,-0.0260198169499,0.147572645681,-0.0667325433966,0.573809359883,0.818973528376,0.00243417952616,0.0,0.818934843814,-0.573746978303,-0.0118690090793,0.0,-0.00832396135824,0.00880415243951,-0.99992659659,0.0,0.644580582236,0.23881857981,0.30363380026,1.0,-0.0555274285714,-0.0729789061224,1.193
0.451083871225,0.45416130136,-0.124442636142,-1.5020166533,0.0704847217373,1.94726971167,0.138599297573,-0.056072929215,-0.285703956158,-0.00478342869362,-0.437650860421,-0.0329463952358,0.159371349,-0.0725773659764,0.573775496561,0.818997443491,0.00236938878249,0.0,0.81895790627,-0.573713362806,-0.0119026046251,0.0,-0.0083890142672,0.00877002140569,-0.99992635287,0.0,0.643610821119,0.237563202474,0.303582872572,1.0,-0.0586748571429,-0.0771155265306,1.21
0.450248279317,0.449426437848,-0.124483732699,-1.50904404074,0.0699992542262,1.94993582387,0.137475276926,-0.0564090691008,-0.295214226651,0.00140593729737,-0.448446018641,-0.0347914872498,0.171129124891,-0.0738269679127,0.573756017122,0.819010202584,0.00265852986118,0.0,0.818974947846,-0.573693366995,-0.0116919787905,0.0,-0.00805082397383,0.00888578361639,-0.999928110957,0.0,0.642722247303,0.236338594408,0.303719273146,1.0,-0.0616371428571,-0.0810088163265,1.226
0.449248029989,0.443934924399,-0.12451763002,-1.51751189675,0.0694432453547,1.95277348821,0.1362267175,-0.0568836988911,-0.307172877431,0.000650404741407,-0.472489233094,-0.0378571043546,0.155646666124,-0.0693834895407,0.573804332782,0.818976727819,0.00254044727981,0.0,0.818939563416,-0.57374169528,-0.011798536801,0.0,-0.00820532451115,0.00885069472639,-0.999927166274,0.0,0.641552347403,0.234856434329,0.303698033887,1.0,-0.0649697142857,-0.0853887673469,1.244
0.448245070393,0.438543430084,-0.124545577608,-1.52589655412,0.0688616643256,1.95559597161,0.134864112506,-0.0553792102379,-0.318933108044,-0.000917097827084,-0.491321487094,-0.0269243668396,0.163962019836,-0.0772677234841,0.573740043196,0.819022248816,0.0023802685724,0.0,0.818982822804,-0.573677839218,-0.0119004052184,0.0,-0.00838135067939,0.00877730706887,-0.999926353209,0.0,0.640385891853,0.233382002464,0.303639584377,1.0,-0.0681171428571,-0.0895253877551,1.261
0.447231534606,0.433175962923,-0.124564186323,-1.53388521221,0.0683337937384,1.95855468917,0.133566601963,-0.0640697010673,-0.336341469302,-0.000743371388869,-0.502134265009,-0.030835610617,0.193186262246,-0.0779182364612,0.573725357905,0.819031673628,0.00266048702042,0.0,0.818996000053,-0.573662214819,-0.011745726359,0.0,-0.00809405687684,0.00891792098471,-0.999927475834,0.0,0.639333595508,0.23197121912,0.303756781206,1.0,-0.0710794285714,-0.093418677551,1.277
0.446063883879,0.427412887061,-0.124606161768,-1.54279750878,0.0676899322224,1.96162398166,0.132131342138,-0.0735210119338,-0.340821517252,-0.00355483378538,-0.531973464164,-0.0397841995219,0.166820425502,-0.0908580604521,0.57374096761,0.819021062312,0.00255899915722,0.0,0.818984225577,-0.573678362842,-0.0117779949577,0.0,-0.00817854095737,0.00885346862325,-0.999927361142,0.0,0.638109306293,0.230338165606,0.303707790559,1.0,-0.0742268571429,-0.0975552979592,1.294
0.444847624991,0.421340592899,-0.124725018995,-1.55214393954,0.0670146147146,1.96467671354,0.130589362817,-0.0758840684431,-0.36013293452,-0.0066700387616,-0.55730675872,-0.0410467967802,0.173504000954,-0.0900014101607,0.573768463541,0.819002476235,0.00233260965137,0.0,0.818962844577,-0.573706876201,-0.0118754495502,0.0,-0.00838794988557,0.00872424704645,-0.999926762223,0.0,0.636791270854,0.228580008174,0.303654682635,1.0,-0.0773742857143,-0.101691918367,1.311
0.443634803897,0.415365128623,-0.124768563988,-1.56098064911,0.0663917696503,1.9678779065,0.129176882074,-0.0775343714945,-0.372061270343,-0.00408045046967,-0.549408666492,-0.0427569076125,0.212909423623,-0.0875165823663,0.573832179802,0.818957042475,0.00259594024254,0.0,0.818921176756,-0.573769963421,-0.0116996682779,0.0,-0.00809220899293,0.00883968678045,-0.999928185467,0.0,0.635598954627,0.22694682812,0.303779108274,1.0,-0.0803365714286,-0.105585208163,1.327
0.442196037237,0.408524402842,-0.124781628856,-1.57133562593,0.0656913979206,1.9714374768,0.127402540018,-0.0772962467431,-0.380305307048,-0.00371141278378,-0.584283827276,-0.0379047617175,0.188251412571,-0.102720733738,0.573796095967,0.818982186506,0.00263919289569,0.0,0.81894647519,-0.573733283246,-0.0117276328009,0.0,-0.00809068531939,0.00889079881077,-0.999927744643,0.0,0.634135298841,0.225039332125,0.303788055998,1.0,-0.0836691428571,-0.109965159184,1.345
0.440755416251,0.401933584238,-0.124866271987,-1.58153212833,0.0649601451509,1.97479779363,0.12572914428,-0.0865354874506,-0.393720757881,-0.00717547874423,-0.603832123202,-0.0448434784544,0.207076433466,-0.094889758429,0.573872308282,0.818929506462,0.00240502279673,0.0,0.818890607566,-0.573810205874,-0.0118645428026,0.0,-0.00833635805636,0.00877835215456,-0.999926720149,0.0,0.632664363925,0.223091211279,0.30367805118,1.0,-0.0868165714286,-0.114101779592,1.362
0.439426724102,0.395778481338,-0.124916389551,-1.59050852581,0.064296452592,1.97802431698,0.124163411206,-0.0942222756814,-0.40784394419,-0.00139977461166,-0.609105619313,-0.0497234322817,0.204423002584,-0.102709638753,0.573882441162,0.818921441064,0.00271366771483,0.0,0.818887084152,-0.5738197852,-0.0116423546958,0.0,-0.0079771712449,0.00890370179991,-0.999928541863,0.0,0.631426324117,0.221374486837,0.303830012384,1.0,-0.0895937142857,-0.117751738776,1.377
0.437750333203,0.388320367573,-0.124949595311,-1.60185471364,0.0634406582059,1.98173023611,0.122244768429,-0.0897662120618,-0.419728083746,-0.0016325790059,-0.638401848288,-0.0498429173458,0.208159005421,-0.113221597117,0.573903037483,0.818907600935,0.00252816118787,0.0,0.818870716419,-0.573840906956,-0.0117520294607,0.0,-0.00817322130267,0.008814932282,-0.999927745101,0.0,0.629750312398,0.219201019021,0.303761801132,1.0,-0.0929262857143,-0.122131689796,1.395
0.436119916314,0.380973660775,-0.124995744036,-1.61271721315,0.0626331339354,1.98532647342,0.120297611408,-0.0954494486161,-0.446820034486,-0.00415345630836,-0.636334823821,-0.0423637335358,0.224760925554,-0.0983495618621,0.573858205034,0.818938871419,0.00257532417495,0.0,0.818902560454,-0.573795865946,-0.0117323316645,0.0,-0.00813050862489,0.00884180458287,-0.999927856058,0.0,0.628146801505,0.21710944485,0.303824788441,1.0,-0.0960737142857,-0.126268310204,1.412
0.434396289841,0.3735852833,-0.125017938826,-1.6238174102,0.0618269069625,1.98909774171,0.11831407586,-0.103591850743,-0.438654208678,-0.00295786398279,-0.657356921182,-0.0519948698512,0.223290884051,-0.120094348582,0.573843119173,0.818949321045,0.00261362571264,0.0,0.818913302332,-0.573780419582,-0.0117379840265,0.0,-0.00811332299751,0.00887626512558,-0.999927690339,0.0,0.626508563679,0.214964788316,0.303804500471,1.0,-0.0992211428571,-0.130404930612,1.429
0.43267416077,0.366389865621,-0.125095644852,-1.63456330547,0.0609896416445,1.99249913149,0.116485519449,-0.105014599611,-0.464203736073,-0.00407902576001,-0.665566774456,-0.0516917360846,0.222209893885,-0.113102829807,0.57395996118,0.818867939196,0.00245112637765,0.0,0.818829802143,-0.573897842121,-0.0118223869414,0.0,-0.0082744368007,0.00879280136543,-0.999927107513,0.0,0.624877078741,0.212805786805,0.303779651114,1.0,-0.102183428571,-0.134298220408,1.445
0.430697939066,0.358077676943,-0.125153703003,-1.6467630166,0.0600437642219,1.9965965772,0.114197529721,-0.112902356552,-0.458137100758,-0.00151114377481,-0.684135012221,-0.0519997254467,0.222961181687,-0.127383521027,0.573904612373,0.818906306921,0.0025890699998,0.0,0.818870242757,-0.573842292161,-0.0117173442329,0.0,-0.00810984536908,0.0088449205714,-0.999927996302,0.0,0.623048429898,0.210384593252,0.303849121551,1.0,-0.105516,-0.138678171429,1.463
0.428937061791,0.351069714059,-0.125178047784,-1.65731439344,0.0592682058044,1.9998959969,0.112262484737,-0.119287421767,-0.466701858084,-0.00458578201718,-0.703900931539,-0.0520480095414,0.219839570353,-0.126493476648,0.573918760691,0.818896993322,0.0023910995289,0.0,0.818857575337,-0.573856351734,-0.0119124216627,0.0,-0.00838306003039,0.00879490156922,-0.999926184281,0.0,0.621394042619,0.208271115339,0.303755199814,1.0,-0.108293142857,-0.142328130612,1.478
0.426758597604,0.342344737796,-0.125251866319,-1.66984110641,0.0583046715626,2.00412528636,0.109893691347,-0.123460592286,-0.480018859998,0.000104845449873,-0.700975423301,-0.0468695872556,0.230859743761,-0.123619248653,0.573958147413,0.818868356834,0.00272141418055,0.0,0.818833571697,-0.573894864915,-0.0117052461351,0.0,-0.00802340452083,0.00894687893536,-0.999927786561,0.0,0.61950597697,0.205707398237,0.303918634045,1.0,-0.111625714286,-0.146708081633,1.496
0.424638032877,0.334062524798,-0.12524518862,-1.6821709363,0.0573156344365,2.00800495597,0.107509971711,-0.12788290651,-0.485642396085,-0.000736650422499,-0.746579975275,-0.0608728572467,0.221312897281,-0.141748657587,0.573845668232,0.818947715172,0.00255651453146,0.0,0.818910418536,-0.573782596904,-0.0118323626138,0.0,-0.00822336110595,0.00888367745415,-0.999926725619,0.0,0.617534637656,0.203230232092,0.303836219458,1.0,-0.114773142857,-0.150844702041,1.513
0.422557266403,0.325951606084,-0.125253237015,-1.69381031208,0.0563198459762,2.01173240223,0.105227711427,-0.131890270138,-0.505754607856,0.00176542613686,-0.734702653244,-0.0576436978469,0.236542112855,-0.143605135138,0.573754856589,0.819010982018,0.00266885293587,0.0,0.818975601774,-0.573691883434,-0.0117189368951,0.0,-0.0080669940619,0.00890969393604,-0.999927767872,0.0,0.615690161152,0.200842886971,0.303936606396,1.0,-0.117735428571,-0.154737991837,1.529
0.420084482884,0.316784195782,-0.12527037807,-1.70721752033,0.0552700246173,2.01598720958,0.102644712566,-0.140047899197,-0.510464877671,-0.000559239329369,-0.744701012642,-0.0630955122614,0.230909203629,-0.140533535797,0.573776429491,0.818995853422,0.00267356297238,0.0,0.8189600721,-0.573712926344,-0.0117739268453,0.0,-0.00810909575335,0.00894531525603,-0.999927109294,0.0,0.613534187054,0.198064371603,0.303915548669,1.0,-0.121068,-0.159117942857,1.547
0.417501008094,0.307364049537,-0.125365112323,-1.72068481997,0.0541150982581,2.0202584413,0.0998380492477,-0.145148438482,-0.533130960826,-0.00677706721934,-0.760732477654,-0.0668167602217,0.241522821249,-0.152008855985,0.573714573378,0.819038779828,0.00279505501644,0.0,0.81900518397,-0.573651329719,-0.0116364703981,0.0,-0.00792748611825,0.0089653498088,-0.999928386169,0.0,0.611378018075,0.195168789866,0.304008738475,1.0,-0.124400571429,-0.163497893878,1.565
0.415381298666,0.29998839758,-0.125399558793,-1.73146929302,0.0532367936051,2.02355226056,0.0976384876136,-0.154601223927,-0.538332755864,-0.0032188014226,-0.796702318234,-0.0763994822739,0.229305920574,-0.153912994279,0.573718988374,0.819036052727,0.00268581701181,0.0,0.819000640457,-0.573655680156,-0.0117413140955,0.0,-0.00807598085354,0.00893607274494,-0.999927459938,0.0,0.60959632153,0.192852230216,0.3039479954,1.0,-0.126992571429,-0.166904522449,1.579
0.412541681479,0.290225668306,-0.125504278837,-1.7453587502,0.0521356840856,2.02781063555,0.0947863794921,-0.154925263828,-0.558640109996,-0.00838116992065,-0.76761282219,-0.0637578863517,0.249182070839,-0.165259792548,0.573841931118,0.818949553207,0.00279540575848,0.0,0.818915134164,-0.573777735412,-0.0117413918926,0.0,-0.00801182031121,0.00902707687864,-0.999927158656,0.0,0.607310116432,0.189789956112,0.304018147361,1.0,-0.130325142857,-0.171284473469,1.597
0.409962716504,0.281526596515,-0.1255774358,-1.75789611157,0.0510659685828,2.03163855923,0.0921136381303,-0.165212526162,-0.553705038004,-0.000496744760097,-0.786971410108,-0.0607281496331,0.240484339406,-0.16983872744,0.573827101842,0.81896009475,0.00275087247828,0.0,0.818925051013,-0.573763015565,-0.0117690141717,0.0,-0.00806015925564,0.00900631107768,-0.999926957429,0.0,0.605210166775,0.187031037035,0.303986409318,1.0,-0.133287428571,-0.175177763265,1.613
0.407066262109,0.272023952406,-0.125624951979,-1.77137942794,0.0498830243425,2.03568804001,0.089186960175,-0.174011247149,-0.568795948829,-0.00693425587298,-0.813937327663,-0.0681868950085,0.250329182169,-0.168142155233,0.573814049686,0.818969245915,0.00274909621212,0.0,0.818934182474,-0.573749975285,-0.0117693473248,0.0,-0.00806159483039,0.00900491908218,-0.999926958393,0.0,0.603057717134,0.184197731558,0.30400810828,1.0,-0.136249714286,-0.179071053061,1.629
0.404052967391,0.262424138051,-0.125771199299,-1.78501170299,0.0486787821021,2.03978684631,0.0861998723681,-0.180442195757,-0.574837264,-0.00492676909971,-0.788215335628,-0.0671890287114,0.24649076182,-0.172307458574,0.57391060318,0.818901522423,0.00276821842185,0.0,0.81886701286,-0.5738467901,-0.0117227830836,0.0,-0.00801142590331,0.00899480543839,-0.999927452634,0.0,0.600615568722,0.180881205497,0.304017766614,1.0,-0.139582285714,-0.183451004082,1.647
0.400923053785,0.252606152963,-0.125901268229,-1.7987292974,0.0474465503035,2.04380001125,0.0831708709242,-0.188668428061,-0.592074101781,-0.00615425081289,-0.798208323232,-0.0803176071605,0.243573376363,-0.178135788202,0.574027860696,0.818819176358,0.00281397853468,0.0,0.8187854682,-0.573964106795,-0.0116751049993,0.0,-0.00794483014585,0.00900605367262,-0.999927882735,0.0,0.598249716041,0.177688868467,0.304082834199,1.0,-0.142729714286,-0.18758762449,1.664
0.397898591562,0.243329252278,-0.125905231353,-1.81188660622,0.0462687621276,2.04763391141,0.0801348155431,-0.192223367679,-0.587804206712,-0.00195682154134,-0.834016025304,-0.0736319979722,0.239790919456,-0.197238277506,0.57394203392,0.818879549267,0.00275179801549,0.0,0.818844692777,-0.573878125287,-0.0117479074171,0.0,-0.00804107925995,0.0089960862804,-0.999927203088,0.0,0.595921407161,0.174702036968,0.304030704608,1.0,-0.145692,-0.191480914286,1.68
0.394593871575,0.233199941322,-0.12592012511,-1.82576792692,0.0450586253297,2.05171630304,0.0768900298903,-0.198448158915,-0.599780468353,-0.00159706717433,-0.803683344904,-0.0748835480685,0.247156604669,-0.189987792375,0.573914031691,0.818898208211,0.00302584184245,0.0,0.818866668728,-0.573848906842,-0.011642931923,0.0,-0.00779815019508,0.00915997938827,-0.999927639198,0.0,0.593465531798,0.171508412572,0.304163802941,1.0,-0.148839428571,-0.195617534694,1.697
0.391188946098,0.223080452194,-0.125915495539,-1.84002219759,0.0436772479726,2.05567448186,0.0734837368737,-0.205896862861,-0.59510072399,-0.00210197238171,-0.822669499831,-0.0823850853052,0.227290972458,-0.200784361971,0.573745832298,0.819016796995,0.00282011735173,0.0,0.818982491923,-0.573681327687,-0.0117541093727,0.0,-0.00800911854371,0.00905367231243,-0.99992693985,0.0,0.590852603521,0.168222691293,0.304078078688,1.0,-0.151986857143,-0.199754155102,1.714
0.387794682097,0.213258025984,-0.126000995607,-1.85336647643,0.0424776776915,2.05948512845,0.0702361586388,-0.213458494954,-0.612319350646,-0.00716624067731,-0.856345575624,-0.0726347194074,0.242274568384,-0.201372973564,0.573800405474,0.818977742522,0.0030493987974,0.0,0.818946328007,-0.573735004806,-0.0116534546376,0.0,-0.00779452320669,0.0091842277688,-0.999927445052,0.0,0.58844709474,0.165017433792,0.304194933979,1.0,-0.154949142857,-0.203647444898,1.73
0.383855247026,0.202264227075,-0.126103399971,-1.86868806284,0.041014330491,2.0635489688,0.0664315417108,-0.220652708944,-0.608426300418,-0.00411046375542,-0.845951613521,-0.0732270463255,0.219094215771,-0.21353490502,0.573784675344,0.818989667181,0.00279612088436,0.0,0.818954411959,-0.573719533871,-0.0118454416982,0.0,-0.00809726108096,0.00908680340284,-0.99992592944,0.0,0.585579937488,0.161307872808,0.304097263736,1.0,-0.158281714286,-0.208027395918,1.748
0.379952274529,0.191596566765,-0.126203181546,-1.8831067417,0.0396379750982,2.06758054342,0.0627473390096,-0.228919788214,-0.615919232038,-0.00971689995617,-0.851404214438,-0.0802152242376,0.232180519926,-0.221969833159,0.573829072835,0.818957871464,0.00299112660014,0.0,0.818925386174,-0.573763497702,-0.0117220939187,0.0,-0.00788385361317,0.00917616446074,-0.999926818751,0.0,0.582921118923,0.157743424127,0.304185678125,1.0,-0.161429142857,-0.212164016327,1.765
0.376078062364,0.181508440208,-0.126382224237,-1.89689896646,0.0383347454639,2.07118551884,0.0591124124059,-0.242464032635,-0.641131704088,-0.0109361256491,-0.856222154647,-0.0946001488335,0.227986017607,-0.229529011507,0.57394986595,0.818873554813,0.00289818985146,0.0,0.8188393172,-0.573883976853,-0.0118364108069,0.0,-0.00802945366791,0.009166834685,-0.999925745751,0.0,0.580317336437,0.154219943792,0.304150174557,1.0,-0.164391428571,-0.216057306122,1.781
0.371904998403,0.170645458385,-0.126456753808,-1.91155268505,0.0368381149621,2.07507591574,0.0552613508522,-0.246254280882,-0.636576715385,-0.00341597394541,-0.880938599863,-0.0927790548381,0.217761582818,-0.232284691271,0.573976851959,0.818854566848,0.00291867564407,0.0,0.818820888832,-0.573911220965,-0.0117902232295,0.0,-0.00797957106463,0.0091573641059,-0.999926231843,0.0,0.577518110402,0.150530184294,0.304170308559,1.0,-0.167538857143,-0.220193926531,1.798
0.367620379441,0.159606715014,-0.12647861963,-1.92631410294,0.0353640795216,2.07887225497,0.0511545992854,-0.254525662388,-0.659055521772,-0.00355904962067,-0.850532121464,-0.0860935397744,0.23573284936,-0.232538874318,0.573827133294,0.818959226654,0.00299216894347,0.0,0.818926226147,-0.573760940133,-0.0117884098773,0.0,-0.00793759019377,0.00921505248518,-0.999926035999,0.0,0.574466364988,0.146618303178,0.304215470095,1.0,-0.170871428571,-0.224573877551,1.816
0.363435481954,0.149169627925,-0.126536897495,-1.94027408394,0.0338818186945,2.08247141572,0.0472835182061,-0.26343133551,-0.650669954302,-0.00694908703511,-0.899315312183,-0.0943518563263,0.210582508288,-0.256728018776,0.573792395961,0.818983698856,0.00295537591627,0.0,0.81895055894,-0.573726729747,-0.011763013523,0.0,-0.00793829100185,0.00917001102271,-0.999926444512,0.0,0.57189413418,0.143253491537,0.304199498264,1.0,-0.173648571429,-0.228223836735,1.831
0.358802072284,0.137861999589,-0.126647276233,-1.95516657815,0.0323895513843,2.08617635746,0.0430334692602,-0.276686867687,-0.679084404531,-0.00715497889305,-0.857553429648,-0.0904176208635,0.226845290648,-0.256825079629,0.57384224576,0.818948428349,0.00304886648636,0.0,0.818916124831,-0.573775804441,-0.0117666320915,0.0,-0.00788705088763,0.00924913458705,-0.99992612124,0.0,0.568931230024,0.139357430965,0.304252114242,1.0,-0.176796,-0.232360457143,1.848
0.353990483909,0.126516123335,-0.126806436356,-1.97021792061,0.0307614213858,2.08984043287,0.0385740853045,-0.28732299256,-0.664694468451,-0.0111651894226,-0.897824341868,-0.0935413072699,0.209723234281,-0.25852072909,0.57383189279,0.818956038023,0.00295186468919,0.0,0.818922603288,-0.573765946174,-0.011796428906,0.0,-0.00796723063716,0.0091866927154,-0.999926061223,0.0,0.565897599339,0.135338311597,0.304213229177,1.0,-0.179943428571,-0.236497077551,1.865
0.348932122048,0.114929249048,-0.126987642758,-1.98516398518,0.0291689748852,2.09349567761,0.0340724904808,-0.299966048104,-0.679987827248,-0.0112762265049,-0.898326866349,-0.0962307815022,0.213998839353,-0.27340535211,0.573997759579,0.818839047174,0.00315178084509,0.0,0.818808593936,-0.573931557399,-0.0116533608648,0.0,-0.00773346931115,0.00926988674418,-0.999927128671,0.0,0.562888213068,0.131224187984,0.304323021136,1.0,-0.183090857143,-0.240633697959,1.882
0.343782064238,0.103343175272,-0.127070713155,-2.00033203333,0.027518883241,2.09691498466,0.0293640439284,-0.305369856374,-0.689217263813,-0.00298595475312,-0.875485782455,-0.0955299736979,0.191852217503,-0.277464856024,0.573945879752,0.818875994486,0.00299660994929,0.0,0.818842948039,-0.573879534477,-0.0118005616978,0.0,-0.00794365651309,0.00922681433498,-0.999925879362,0.0,0.559708911942,0.12712149315,0.304269442288,1.0,-0.186238285714,-0.244770318367,1.899
0.338818772842,0.0922683982661,-0.127100238472,-2.01453265948,0.0259743841639,2.10022513358,0.0248004597688,-0.316841690745,-0.682247488921,-0.00404731835638,-0.909583728459,-0.0944465566322,0.196849128234,-0.280938609394,0.573829800641,0.818956910631,0.00311212570699,0.0,0.818925184797,-0.57376285249,-0.011767655193,0.0,-0.00785173158943,0.00930140843405,-0.999925914312,0.0,0.556534650194,0.123034615306,0.304308552524,1.0,-0.189385714286,-0.248906938775,1.916
0.333315012499,0.080364309777,-0.127202956472,-2.02974985741,0.0243256468288,2.10350835248,0.0197704808163,-0.333641826375,-0.714627918913,-0.00745776369403,-0.870276635525,-0.100421770309,0.206034853808,-0.303213726205,0.573773322831,0.818996472436,0.00311432922049,0.0,0.818964165889,-0.573705653808,-0.0118433389972,0.0,-0.00791309693063,0.00934609594354,-0.999925013882,0.0,0.55346114536,0.11904838084,0.304335197103,1.0,-0.192348,-0.252800228571,1.932
0.327596978956,0.0683767362854,-0.127368977813,-2.0449649976,0.0225914957335,2.10691732465,0.0146873432646,-0.340210868554,-0.702499582429,-0.0123683265025,-0.913830774717,-0.10061911867,0.185668967848,-0.309746531369,0.573845577862,0.818945455791,0.00321560382154,0.0,0.818914782245,-0.573777921008,-0.0117568569808,0.0,-0.00778333197655,0.0093801064874,-0.999925713914,0.0,0.550206725853,0.114711598013,0.30436519585,1.0,-0.195495428571,-0.25693684898,1.949
0.32158057106,0.0561835139642,-0.127550604253,-2.06017653685,0.0207625660974,2.11006867482,0.00935723324477,-0.352227048162,-0.725922811958,-0.00449519628745,-0.902904233999,-0.112259369014,0.197699206131,-0.31196320366,0.57390751615,0.818901900131,0.0032538852589,0.0,0.818872239689,-0.573840347158,-0.0116729577533,0.0,-0.0076919447315,0.00936389478395,-0.999926573035,0.0,0.546890070962,0.110234232706,0.304445156367,1.0,-0.198642857143,-0.261073469388,1.966
0.315876285357,0.0447806007379,-0.127639080831,-2.07464891913,0.0191475119271,2.11304299192,0.00428157487522,-0.354594777255,-0.707914080095,-0.00822060828676,-0.914118345742,-0.0999857829313,0.184238294583,-0.315195194781,0.573909885409,0.818900456418,0.00319887620779,0.0,0.818869177419,-0.573841811398,-0.0118149340288,0.0,-0.00783975689082,0.00940034954937,-0.999925083014,0.0,0.543659674599,0.106095828091,0.304368572035,1.0,-0.19998,-0.262830857143,1.982
0.309623195399,0.0326029952911,-0.127702340518,-2.08968675031,0.0173443544349,2.11608082775,-0.00127318157983,-0.371125366633,-0.724902542542,-0.0038151152715,-0.893658835111,-0.113720780804,0.178141813277,-0.324882848332,0.573849056838,0.818942667484,0.0033036708961,0.0,0.818913022757,-0.573780960324,-0.0117310540599,0.0,-0.00771162571756,0.00943745512797,-0.999925729877,0.0,0.540284211873,0.101672079006,0.304422324156,1.0,-0.19998,-0.262830857143,1.999
0.302830826793,0.0198502727094,-0.127818592293,-2.10554071928,0.0154464480757,2.11899196194,-0.00729198316726,-0.386112503754,-0.708619892463,-0.00685461511816,-0.877042469841,-0.0979677787576,0.158032146532,-0.338933024477,0.573831389296,0.818955650893,0.00315046501324,0.0,0.818923180778,-0.573762831282,-0.0119073222868,0.0,-0.00794410209655,0.00941296534898,-0.999924140785,0.0,0.536629758398,0.0969250171047,0.304358584893,1.0,-0.19998,-0.262830857143,2.017
0.296594145922,0.00851048430416,-0.128016826114,-2.11923827668,0.0137084048963,2.12156492742,-0.01268017716,-0.386471543553,-0.682526967942,-0.00836460431064,-0.878537824183,-0.102538753433,0.148737387311,-0.343666889461,0.573980077288,0.818851009046,0.00326232451573,0.0,0.818820706454,-0.573911956066,-0.0117670840798,0.0,-0.00776335109666,0.00942551216452,-0.999925442271,0.0,0.533490622741,0.0926197979132,0.304441398729,1.0,-0.19998,-0.262830857143,2.033
0.289951626707,-0.00343353483079,-0.128081589109,-2.13370356359,0.01202836538,2.12408965914,-0.0185341618604,-0.38456334038,-0.705206580312,-0.00138160562167,-0.831444391583,-0.0949894991493,0.148600689924,-0.339445331773,0.57397642014,0.818853323802,0.00332417243419,0.0,0.818822778671,-0.573906808638,-0.0118734590738,0.0,-0.00781500669761,0.0095371772634,-0.999923981071,0.0,0.530072161257,0.0881912865534,0.304452641226,1.0,-0.19998,-0.262830857143,2.05
0.282824980431,-0.0159977793557,-0.12811530549,-2.14875742967,0.0100861667012,2.1267340749,-0.0248142219508,-0.401036501959,-0.681016704394,-0.00118010005582,-0.858723230498,-0.113346132465,0.137851841886,-0.347683894229,0.573859037896,0.818935296695,0.00339578471323,0.0,0.818906179671,-0.573789803847,-0.0117761113789,0.0,-0.00769555478479,0.00953884068481,-0.999924891657,0.0,0.526486986191,0.0835267386222,0.304490005138,1.0,-0.19998,-0.262830857143,2.068
0.276737910596,-0.0264496680002,-0.128214952482,-2.16112819217,0.00849081109483,2.12864598105,-0.0301592402851,-0.410130736839,-0.706148479858,-0.00728479137168,-0.790056137962,-0.100358561013,0.142276980173,-0.352754870009,0.573840416622,0.818948405793,0.00338109456981,0.0,0.818918891976,-0.573770981048,-0.0118091732314,0.0,-0.00773127849429,0.00954560688834,-0.999924551515,0.0,0.523472316465,0.0795780820429,0.304528225158,1.0,-0.19998,-0.262830857143,2.083
0.269213007793,-0.0388525724168,-0.128411040738,-2.17580301239,0.00660011959245,2.1310081368,-0.0366396218217,-0.426345073114,-0.684596713386,-0.00834297954953,-0.822711077382,-0.104378038588,0.128505575708,-0.367822468019,0.573997333117,0.818838177329,0.00344206688253,0.0,0.818809455628,-0.573927665235,-0.0117837750378,0.0,-0.00767365520616,0.00958243684765,-0.999924643121,0.0,0.51989407266,0.0747600045421,0.304539778025,1.0,-0.19998,-0.262830857143,2.101
0.262109596026,-0.050533748577,-0.128454202716,-2.18939636613,0.00489707985664,2.13305490399,-0.042868222549,-0.423808098588,-0.694658125116,-0.000659585653993,-0.80161589164,-0.109008784309,0.134756067271,-0.368331819319,0.573953488332,0.818868297985,0.00358478560634,0.0,0.818841077606,-0.573882897617,-0.0117667475753,0.0,-0.0075783153148,0.0096891220717,-0.999924342163,0.0,0.516503319914,0.0703660177637,0.304595366111,1.0,-0.19998,-0.262830857143,2.118
0.255281168999,-0.0613355802389,-0.128511776214,-2.20209732939,0.00317674431141,2.13487560967,-0.0488845668175,-0.426808026589,-0.67897067078,-0.00179677581222,-0.793629434192,-0.106986908819,0.108384253317,-0.379017723506,0.573847939038,0.81894264703,0.00349723306321,0.0,0.818914178642,-0.573777521912,-0.0118182177047,0.0,-0.00767195647868,0.00964597932944,-0.999924045199,0.0,0.513285910535,0.0661885810493,0.304542881702,1.0,-0.19998,-0.262830857143,2.134
0.247879595212,-0.0728610236336,-0.12866926124,-2.2153458998,0.00137074724834,2.13662104472,-0.0553319323646,-0.438795341499,-0.687847792544,-0.0159915341972,-0.764909073947,-0.113516621724,0.111437155666,-0.380600030961,0.573880383498,0.818919886614,0.00350309069125,0.0,0.818891466244,-0.573809906106,-0.0118196898538,0.0,-0.00766941859431,0.00965192504812,-0.999924007293,0.0,0.509882949549,0.0616951218929,0.304566912999,1.0,-0.19998,-0.262830857143,2.151
0.240261413483,-0.084228759671,-0.128820540515,-2.22842914509,-0.000337652802034,2.13829211985,-0.0619414996005,-0.450939240872,-0.664662301179,-0.00799465316091,-0.757409457156,-0.0999554055911,0.0923395327632,-0.385891620392,0.573978268745,0.818851215681,0.00351859170999,0.0,0.81882222825,-0.573906756029,-0.0119138914302,0.0,-0.00773650987881,0.00971960301386,-0.999922834889,0.0,0.50648016,0.0571744000995,0.304538143734,1.0,-0.19998,-0.262830857143,2.168
0.233127511554,-0.0948951256414,-0.128862574649,-2.24053773384,-0.00194727021848,2.13967373758,-0.0682451891052,-0.444475372058,-0.666147954089,-0.00192744359658,-0.730450546498,-0.105457887019,0.0942780319875,-0.398438896069,0.573874416902,0.818924007694,0.00351712233424,0.0,0.818894266053,-0.573802003489,-0.0120078607391,0.0,-0.00781554407183,0.00977134352104,-0.999921715994,0.0,0.503256972874,0.0530490453286,0.304534525274,1.0,-0.19998,-0.262830857143,2.184
0.224882328929,-0.106837097678,-0.128999968255,-2.25394280189,-0.00389189909446,2.14118948927,-0.0753968223157,-0.45960730899,-0.656245761635,-0.0107528911089,-0.758881353077,-0.106775420289,0.0795252227914,-0.399639854317,0.573885224113,0.818916438843,0.00351605441735,0.0,0.818887132698,-0.573813375638,-0.0119507631753,0.0,-0.00776926694927,0.00973780560633,-0.999922403806,0.0,0.499665903877,0.0483087633783,0.304553156979,1.0,-0.19998,-0.262830857143,2.202
0.216851355173,-0.118057878353,-0.129212329771,-2.26644015702,-0.00568152053952,2.14243412984,-0.0823205158272,-0.475358155949,-0.668244344328,-0.0106866984888,-0.712549685205,-0.110358460088,0.0844185296249,-0.408547408048,0.574027692814,0.818816654475,0.00349873374967,0.0,0.818786900993,-0.573955609983,-0.0119881371174,0.0,-0.00780811879491,0.00974642770389,-0.999922017173,0.0,0.496256534901,0.0437435964219,0.30455784046,1.0,-0.19998,-0.262830857143,2.219
0.209311484548,-0.128507408416,-0.129268122746,-2.27797896454,-0.0072525887775,2.14356871627,-0.0889761629831,-0.474798780698,-0.649456224343,-0.00235684896645,-0.722451753651,-0.0980395959624,0.0612097765577,-0.413696871008,0.573953317379,0.818868409489,0.00358668536268,0.0,0.818839373063,-0.573880379687,-0.0120057416899,0.0,-0.00777294389786,0.00982784368072,-0.999921494334,0.0,0.493064349067,0.039605773049,0.304570407383,1.0,-0.19998,-0.262830857143,2.235
0.201116976121,-0.139542189343,-0.129378289773,-2.29008841162,-0.00902862176637,2.1445960945,-0.0961770802417,-0.484510055268,-0.651388165111,-0.0085299547094,-0.704676599532,-0.0999409050494,0.0683514612854,-0.428445203924,0.573897577757,0.818907620413,0.00355336130027,0.0,0.818877997676,-0.573824581843,-0.012038317842,0.0,-0.00781941470348,0.00981871987717,-0.999921221644,0.0,0.489652591305,0.0351439809137,0.304564904821,1.0,-0.19998,-0.262830857143,2.252
0.192761230137,-0.150563149748,-0.129567126858,-2.30190655048,-0.0107609267147,2.14565362935,-0.103455909386,-0.49997619644,-0.638421996568,-0.0112062647811,-0.695120699314,-0.106769389532,0.0526801267208,-0.426505718144,0.573981509727,0.818847906328,0.00375229182693,0.0,0.818821601112,-0.573908711042,-0.0118627081083,0.0,-0.00756042629369,0.0098816229629,-0.999922593745,0.0,0.48631139576,0.0306431805506,0.304647716662,1.0,-0.19998,-0.262830857143,2.269
0.184808006603,-0.160797732403,-0.129661514442,-2.31304523831,-0.0124151264126,2.14630123605,-0.110462425725,-0.494874654255,-0.634716858717,-0.00494285393766,-0.700287255484,-0.103755697331,0.0418210458194,-0.437236482483,0.573912382782,0.818897075967,0.00359204168813,0.0,0.818867712718,-0.573838929914,-0.0120539821197,0.0,-0.00780986771721,0.00985952638791,-0.999920894724,0.0,0.483042983739,0.0264564011015,0.304587494974,1.0,-0.19998,-0.262830857143,2.285
0.17622586429,-0.171654721314,-0.12974695229,-2.32441662059,-0.0140102692208,2.14710264431,-0.118032086136,-0.505557931755,-0.624280843353,-0.00960002936362,-0.679285604542,-0.0949250129134,0.0389956067371,-0.453635414976,0.573898375462,0.818905603586,0.00387478500863,0.0,0.818880231744,-0.573824290457,-0.0118994387351,0.0,-0.0075212161082,0.0100022459791,-0.999921690126,0.0,0.479716098998,0.0220435920309,0.304698491182,1.0,-0.19998,-0.262830857143,2.302
0.166922153968,-0.182989443101,-0.129932138466,-2.33655829109,-0.0158890913648,2.14766364795,-0.126145581011,-0.525998087387,-0.639033491148,-0.0112464956901,-0.671851084333,-0.10321371017,0.0225328603733,-0.45463336986,0.573953519312,0.818867710904,0.0037116856236,0.0,0.818839436711,-0.573879005852,-0.0120669146699,0.0,-0.00775129757419,0.00996531457048,-0.99992030177,0.0,0.476051808407,0.0172682396498,0.304626863917,1.0,-0.19998,-0.262830857143,2.32
0.159058929464,-0.192450337576,-0.130036737798,-2.34627958917,-0.0173581549546,2.14817892107,-0.133081011042,-0.524878638117,-0.624491666557,-0.00516576635081,-0.638969589435,-0.0998926435839,0.0428909389857,-0.462110694971,0.573945105524,0.818872651607,0.0039170392514,0.0,0.818847815123,-0.573870846102,-0.0118850563371,0.0,-0.00748461706991,0.0100290220361,-0.999921696546,0.0,0.473111199992,0.0133327231691,0.304727108588,1.0,-0.19998,-0.262830857143,2.335
0.149547529401,-0.203591953749,-0.130144593233,-2.35794597602,-0.0191118023329,2.14858258465,-0.141548017947,-0.530761567249,-0.618089410021,-0.0118414852177,-0.650067900765,-0.0970671400769,0.0192551957143,-0.470825494299,0.573854846007,0.818936027223,0.00389177736044,0.0,0.818910139908,-0.573779727936,-0.0119897233632,0.0,-0.00758593951637,0.0100675706289,-0.999920545615,0.0,0.46948656471,0.00865137804983,0.304692351368,1.0,-0.19998,-0.262830857143,2.353
0.140334842534,-0.214075389029,-0.130339111143,-2.36872812139,-0.0207479514356,2.14881840312,-0.149646828972,-0.547763747745,-0.622632603519,-0.0160356738993,-0.615435282228,-0.0957952520979,0.0196479679792,-0.481538271721,0.573947715202,0.818870784657,0.0039249395422,0.0,0.818844663236,-0.57387157457,-0.0120656657993,0.0,-0.00762795684711,0.010139172326,-0.99991950249,0.0,0.466072399741,0.00415277036549,0.30469784228,1.0,-0.19998,-0.262830857143,2.37
0.131639126565,-0.223852309123,-0.130417510149,-2.3786046262,-0.0223203419435,2.14909849856,-0.157377400254,-0.540890759152,-0.598290815746,-0.00172965212379,-0.624966128025,-0.0965714566804,0.0112756967554,-0.493729803655,0.573862875796,0.818929623274,0.0040520127652,0.0,0.818906010768,-0.573787436409,-0.0119025311946,0.0,-0.00742248427621,0.0101488337862,-0.999920950826,0.0,0.462924928429,1.12216492115e-05,0.304758513839,1.0,-0.19998,-0.262830857143,2.386
0.122173442392,-0.23407592482,-0.130524605196,-2.38912470905,-0.0239725655847,2.14914761133,-0.165783337284,-0.560124777176,-0.602780174476,-0.00397751329903,-0.611963580805,-0.0991738154076,-0.00160872353845,-0.498779998078,0.573815635324,0.818963299447,0.00393417321322,0.0,0.818937121606,-0.573739245213,-0.0120837188001,0.0,-0.00763907972415,0.0101558627993,-0.999919248195,0.0,0.459472390338,-0.00443557517207,0.304680851667,1.0,-0.19998,-0.262830857143,2.403
0.111902669043,-0.244929303079,-0.13074487835,-2.39977515335,-0.0257263473989,2.14923187654,-0.174855825542,-0.573723291515,-0.60165799435,-0.00890563949792,-0.5929793796,-0.0883328371274,0.00515521176939,-0.511357008973,0.573908631807,0.818897098498,0.00414382801179,0.0,0.818874887659,-0.573833154341,-0.0118396047891,0.0,-0.00731769299837,0.0101883242401,-0.999921321614,0.0,0.455947566573,-0.00923575715663,0.304796778198,1.0,-0.19998,-0.262830857143,2.421
0.103403619319,-0.253806444916,-0.130839307272,-2.40869217907,-0.0270706209994,2.14920221121,-0.182516282784,-0.569650472144,-0.588329417322,-0.00876133015233,-0.601571874292,-0.0894878794221,-0.0067851375743,-0.507800746011,0.573827078298,0.818954004981,0.00419151988817,0.0,0.818931703857,-0.573750457506,-0.0119173751757,0.0,-0.00735503728282,0.0102712788558,-0.999920198945,0.0,0.452933716343,-0.0130939866485,0.304763298834,1.0,-0.19998,-0.262830857143,2.436
0.0934549062492,-0.263778620114,-0.131019176791,-2.41862031226,-0.0287041332439,2.1490428042,-0.191329174114,-0.595627810881,-0.580914040285,-0.0129099975491,-0.579931662444,-0.0882571868567,-0.0120385663683,-0.51643869247,0.573887949761,0.818911525087,0.00415717438052,0.0,0.818888366281,-0.573810871639,-0.0119864114731,0.0,-0.00743052170545,0.0102833168278,-0.999919517132,0.0,0.449506026412,-0.0175920848225,0.304723478036,1.0,-0.19998,-0.262830857143,2.453
0.08274728595,-0.274284092066,-0.13120844656,-2.42863062502,-0.0303784227052,2.14889313564,-0.200863743296,-0.582932893231,-0.576715735751,-0.00298935031934,-0.560222715677,-0.0891253885347,-0.0175676107687,-0.52893023865,0.573953028463,0.818864591206,0.00441013475719,0.0,0.8188462131,-0.5738772065,-0.0116866612843,0.0,-0.00703905282393,0.0103190154549,-0.999921981784,0.0,0.446005551198,-0.0223611395053,0.304851288776,1.0,-0.19998,-0.262830857143,2.471
0.0738869771298,-0.282866056712,-0.131300701746,-2.43709373801,-0.0317892125052,2.14856840022,-0.208970506324,-0.601284884633,-0.569386163047,-0.00738955747404,-0.548318186367,-0.0967313266749,-0.0262103231693,-0.550322379261,0.573753583133,0.819004874169,0.00431147653088,0.0,0.818984530496,-0.573677122579,-0.0118171375186,0.0,-0.00720503649547,0.0103113561016,-0.999920878562,0.0,0.442964393004,-0.0262162612954,0.304783842185,1.0,-0.19998,-0.262830857143,2.486
0.0627773316908,-0.293105247249,-0.131514406505,-2.44689371782,-0.0333341932854,2.14814815211,-0.218840306196,-0.624819972276,-0.57107036948,-0.0123738993355,-0.524178714392,-0.0832821771331,-0.0146000553743,-0.553122514973,0.573936142756,0.818876176668,0.00445625681525,0.0,0.818857274641,-0.573858527858,-0.0118279615175,0.0,-0.00712851217539,0.0104377338796,-0.999920115822,0.0,0.439373189529,-0.0310155750522,0.304802436293,1.0,-0.19998,-0.262830857143,2.504
0.0523460545586,-0.302693914798,-0.131614774392,-2.45583412435,-0.0349051409735,2.14773467319,-0.228296620782,-0.611014795713,-0.557671380362,-0.00287370946427,-0.529561363854,-0.0954220672905,-0.0314711566505,-0.562048331522,0.573817153223,0.8189587934,0.00459524554185,0.0,0.8189431025,-0.573741216182,-0.0115740495681,0.0,-0.00684231963908,0.0104048331405,-0.999922458048,0.0,0.4360458517,-0.0354324019541,0.304896225354,1.0,-0.19998,-0.262830857143,2.521
0.0423435025197,-0.311519516303,-0.131780993782,-2.46434624428,-0.0363120183593,2.14709090129,-0.237303121459,-0.634491655607,-0.546805371994,-0.00916429430949,-0.529531825014,-0.0877160463696,-0.0338904685161,-0.567331696366,0.573847031535,0.81893845631,0.00448732389311,0.0,0.818919820178,-0.573769123472,-0.0118350315102,0.0,-0.00711761157457,0.0104664576876,-0.999919893226,0.0,0.432772726121,-0.0396171218829,0.304804647835,1.0,-0.19998,-0.262830857143,2.537
0.0333095758127,-0.319199815047,-0.131976528293,-2.47150105591,-0.0375973534417,2.14656302176,-0.245357176551,-0.649983818363,-0.550596036293,-0.0113948070916,-0.502949562713,-0.10010883803,-0.0444961472623,-0.580978325026,0.573978581826,0.818846128426,0.00451137102687,0.0,0.818828015588,-0.573900882421,-0.0117985145288,0.0,-0.00707222429205,0.0104663331317,-0.999920216574,0.0,0.42997203803,-0.0433881940493,0.304820607596,1.0,-0.19998,-0.262830857143,2.551
0.0206265230156,-0.330033993866,-0.132103426322,-2.48135600901,-0.0392550484553,2.14588989356,-0.257063161569,-0.638081273096,-0.531449703021,-0.0139959543245,-0.494878688607,-0.0785353069378,-0.0383790440456,-0.603119536009,0.573784391226,0.818980728804,0.00477337776733,0.0,0.818967314418,-0.573707892926,-0.0115125327939,0.0,-0.00669014680296,0.0105151544407,-0.999922333715,0.0,0.426078469168,-0.0485318677924,0.30492765564,1.0,-0.19998,-0.262830857143,2.571
0.0100654296229,-0.338473337683,-0.132307965083,-2.48927483402,-0.0405914666577,2.14503871672,-0.266550346715,-0.668999357227,-0.522402033027,-0.0094971859847,-0.486231875424,-0.0793353943019,-0.0499164482221,-0.593139086696,0.573934652319,0.818875891614,0.00469424144625,0.0,0.818859828949,-0.573855863149,-0.011780312585,0.0,-0.00695292986001,0.0106052595395,-0.999919589385,0.0,0.422810816355,-0.0527856999541,0.304845373902,1.0,-0.19998,-0.262830857143,2.587
-0.00180347760987,-0.347914572726,-0.132437120343,-2.49786055428,-0.0421647970686,2.14412438002,-0.277427519007,-0.656280601165,-0.522620830387,-0.0065654260561,-0.466390762949,-0.0849090623635,-0.0495880334516,-0.617204456406,0.573819488826,0.818956697673,0.00467637477939,0.0,0.81894061813,-0.573741105568,-0.0117539210082,0.0,-0.00694305757297,0.0105745057891,-0.999919983688,0.0,0.419212646377,-0.0574776109549,0.304854932172,1.0,-0.19998,-0.262830857143,2.605
-0.0125249041423,-0.356191584403,-0.132636411511,-2.50513234258,-0.0434475013432,2.14337251086,-0.287248618109,-0.681695129603,-0.510214602608,-0.018388327002,-0.456131222338,-0.0774472108655,-0.0501245634993,-0.624534233462,0.573855299436,0.818930308735,0.00489812671784,0.0,0.81891820888,-0.573777953361,-0.0115140914947,0.0,-0.00661892881401,0.0106187920257,-0.999921712454,0.0,0.416094335532,-0.0616945680702,0.304958081378,1.0,-0.19998,-0.262830857143,2.621
-0.0241799400994,-0.364742911399,-0.132804176051,-2.51295669,-0.0449342426058,2.14231373683,-0.297839608267,-0.672310576662,-0.499989317913,-0.0028156647482,-0.457616650117,-0.0822228939186,-0.0651198254891,-0.623224881547,0.573882466302,0.818912284953,0.00472560321684,0.0,0.818897002056,-0.57380415429,-0.0117149239638,0.0,-0.0068820568948,0.0105929757117,-0.999920209896,0.0,0.412626148355,-0.0661994225804,0.304877140954,1.0,-0.19998,-0.262830857143,2.638
-0.0357233804355,-0.373181592137,-0.132958948373,-2.52054053367,-0.0462070717943,2.14129069316,-0.308603452661,-0.689740130034,-0.487818686,-0.0134983821913,-0.439175588352,-0.0809248778212,-0.0656883418621,-0.634449297101,0.57376479199,0.818994459781,0.00477338679504,0.0,0.818978773048,-0.573684764796,-0.011845118823,0.0,-0.00696280146622,0.0107058207185,-0.999918449074,0.0,0.409212548852,-0.0705704426005,0.304838991571,1.0,-0.19998,-0.262830857143,2.655
-0.0484385272908,-0.381998507403,-0.133173377363,-2.52810610915,-0.0476824469902,2.14022124645,-0.320121321035,-0.706773933937,-0.480049678593,-0.00560292601639,-0.416618803194,-0.0881169355,-0.0533387939121,-0.645277068295,0.573936224463,0.818873652149,0.00488865694926,0.0,0.818860821539,-0.573857921299,-0.0116098239349,0.0,-0.00670171344024,0.0106666335273,-0.999920651835,0.0,0.405667751123,-0.0753924623043,0.304935690637,1.0,-0.19998,-0.262830857143,2.673
-0.0589067514997,-0.389136841236,-0.133290988363,-2.53437730823,-0.0488154770104,2.13928879382,-0.329921059773,-0.698142654144,-0.47274122931,-0.00938921472007,-0.425575294278,-0.0777586258853,-0.0672978742262,-0.660582517535,0.573781479723,0.818981955862,0.00491084519885,0.0,0.818969201944,-0.573702798441,-0.0116315187634,0.0,-0.00670876751777,0.0106959869517,-0.999920290974,0.0,0.402482019543,-0.079527299023,0.304922372228,1.0,-0.19998,-0.262830857143,2.689
-0.0711676045503,-0.397144537664,-0.133525709868,-2.54137439991,-0.0501478380099,2.13804847488,-0.341185177993,-0.730990700757,-0.465494492748,-0.0126554074093,-0.407584277384,-0.08231130854,-0.0737829247464,-0.668879330789,0.573902450156,0.818897380423,0.00487903080564,0.0,0.818883392457,-0.573822550029,-0.0117650983067,0.0,-0.00683484187709,0.0107475829668,-0.999918883909,0.0,0.399222906403,-0.0837875387953,0.304892974831,1.0,-0.19998,-0.262830857143,2.705
-0.0840455594238,-0.405415198133,-0.133630921602,-2.54849510325,-0.0514769893271,2.13678779305,-0.353284243481,-0.715498399156,-0.459034992617,-0.00847264485651,-0.37791067059,-0.0731487703982,-0.0696706780623,-0.68306756022,0.573715304558,0.819028475912,0.00488383683878,0.0,0.819014361638,-0.573635123769,-0.0117884312439,0.0,-0.00685365247965,0.0107633431599,-0.999918585632,0.0,0.395629395727,-0.0884219538957,0.30489099131,1.0,-0.19998,-0.262830857143,2.723
-0.0958528205358,-0.412561066163,-0.133858124653,-2.55443860408,-0.0525545504166,2.13576382803,-0.364173127423,-0.741349365187,-0.447544028005,-0.0161927955673,-0.36169688939,-0.0709965438831,-0.0597701478529,-0.677224513427,0.573892297871,0.818903148139,0.00510012884715,0.0,0.818892618472,-0.573812642135,-0.0116050867562,0.0,-0.00657705029864,0.0108367364124,-0.999919650549,0.0,0.392496107121,-0.0926904472208,0.304969228129,1.0,-0.19998,-0.262830857143,2.739
-0.108398563987,-0.420002166813,-0.133969054621,-2.56072123806,-0.0537498981491,2.13453830171,-0.375952079541,-0.740526424517,-0.429275696104,-0.0110020366642,-0.36915609298,-0.0727616990273,-0.06812273695,-0.695085111553,0.573786187049,0.818977334996,0.00512671582304,0.0,0.818967179829,-0.573706517583,-0.0115903816427,0.0,-0.00655115571792,0.0108492217697,-0.999919685148,0.0,0.389108541647,-0.0971147381808,0.304980271709,1.0,-0.19998,-0.262830857143,2.756
-0.121139774834,-0.427210476306,-0.134189204001,-2.56690588339,-0.0549929955565,2.13315794274,-0.387850477842,-0.765219795008,-0.421841121259,-0.0139431876819,-0.353489587351,-0.0716061812765,-0.0748494488731,-0.70409936259,0.573803194539,0.818966071334,0.00502143817174,0.0,0.81895312869,-0.573721552211,-0.0118364031069,0.0,-0.00681283641719,0.0109042983574,-0.999917337352,0.0,0.385638245198,-0.101588800601,0.304910563396,1.0,-0.19998,-0.262830857143,2.773
-0.133175836836,-0.433829282224,-0.134286685962,-2.57245571349,-0.0560479003394,2.13204149485,-0.39915774611,-0.746779062305,-0.412843461192,-0.0116283070291,-0.347429460394,-0.0638478415916,-0.0644591252519,-0.709113985425,0.57374410131,0.81900720654,0.00506445935278,0.0,0.818994907657,-0.573662457254,-0.0118098801881,0.0,-0.00676721707531,0.0109238258325,-0.999917433993,0.0,0.382460751912,-0.105735894708,0.304906143028,1.0,-0.19998,-0.262830857143,2.789
-0.146221584199,-0.440626794291,-0.134512734067,-2.57798254551,-0.0571803723932,2.13077937953,-0.411383063757,-0.781902039852,-0.404941647247,-0.0145765308221,-0.313450685663,-0.0676121672134,-0.0761695246556,-0.730935417669,0.573817581579,0.818955259672,0.00513932177119,0.0,0.81894430816,-0.573736283279,-0.0117321900506,0.0,-0.00665965159676,0.0109411658851,-0.9999179666,0.0,0.379098734175,-0.110251848767,0.304952814299,1.0,-0.19998,-0.262830857143,2.806
-0.16012403902,-0.44774650398,-0.13463114189,-2.5836717871,-0.058298539311,2.1294711197,-0.424500824216,-0.768335178336,-0.387442754842,-0.00714568818988,-0.320554422031,-0.0560750565928,-0.0752482995002,-0.731828049502,0.573776305465,0.818983390295,0.00526351686218,0.0,0.818975055823,-0.573696304734,-0.0115392710288,0.0,-0.00643093495037,0.0109318597869,-0.999919565524,0.0,0.375546481845,-0.114960649652,0.30503540442,1.0,-0.19998,-0.262830857143,2.824
-0.173390821238,-0.454136868942,-0.134878290448,-2.58905897959,-0.0593494159869,2.12809225553,-0.437044979256,-0.788678873546,-0.36855458804,-0.0208274161699,-0.311605832341,-0.0589112550729,-0.0804133293921,-0.740221324101,0.573821673343,0.818951757661,0.00523953503678,0.0,0.818941254743,-0.573738624981,-0.0118304008864,0.0,-0.0066825326317,0.0110796251474,-0.999916289328,0.0,0.372068321612,-0.119418544473,0.304947947854,1.0,-0.19998,-0.262830857143,2.841
-0.185970844432,-0.459979136427,-0.134967177542,-2.59376808349,-0.0603062712647,2.12688446699,-0.448993404792,-0.790985904769,-0.355300052435,-0.00990796481424,-0.288826954361,-0.0540163254793,-0.0695118765243,-0.744113424972,0.573746935411,0.819003989364,0.00525988715026,0.0,0.818993801811,-0.573663913971,-0.0118158073382,0.0,-0.00665991412185,0.0110873116891,-0.999916355033,0.0,0.368885470596,-0.123583511489,0.304962598172,1.0,-0.19998,-0.262830857143,2.857
-0.199549044101,-0.465869214279,-0.135189116216,-2.59858114783,-0.0613504164981,2.12569518751,-0.46186375283,-0.807216110935,-0.33831863727,-0.017283734101,-0.28338781832,-0.0616393912897,-0.0718253465942,-0.760608500628,0.573786765544,0.81897602088,0.00526989680162,0.0,0.818965824444,-0.573703470413,-0.011834412916,0.0,-0.00666887071198,0.0111065087227,-0.999916082293,0.0,0.365484980861,-0.128092138074,0.304936243449,1.0,-0.19998,-0.262830857143,2.874
-0.212357072598,-0.471284580827,-0.135288718547,-2.60285452116,-0.0622487911224,2.12452405486,-0.474035186608,-0.796895878097,-0.340659149143,-0.0119388429755,-0.26415737734,-0.0515468871702,-0.0729498436662,-0.766274474319,0.573766695567,0.818989840255,0.00530730797541,0.0,0.818980440689,-0.57368379426,-0.0117766239788,0.0,-0.00660034589165,0.011103829833,-0.999916566718,0.0,0.362317278846,-0.132268748993,0.30496727515,1.0,-0.19998,-0.262830857143,2.89
-0.226149334573,-0.476888308231,-0.135527121337,-2.60715420198,-0.0631573323627,2.12332223149,-0.487177635668,-0.817961277196,-0.329526531032,-0.015705266588,-0.253484772341,-0.0577124953673,-0.0711201040967,-0.77918468569,0.573849864332,0.818930566888,0.00545955332806,0.0,0.818923918163,-0.57376777224,-0.0116149344108,0.0,-0.00637943189478,0.0111364017489,-0.999917638311,0.0,0.358944026737,-0.136777598016,0.305043025308,1.0,-0.19998,-0.262830857143,2.907
-0.239958874087,-0.482169106205,-0.135618869146,-2.61138556463,-0.0640885961122,2.12209140421,-0.500467858526,-0.806915858214,-0.300867138073,-0.00972850755373,-0.248543893389,-0.0385028053159,-0.0722927578106,-0.780900455605,0.573712361541,0.819027168707,0.00541941281639,0.0,0.819019626242,-0.573629777389,-0.0116823466809,0.0,-0.00645954712477,0.0111411266632,-0.999917071335,0.0,0.355539131149,-0.141188465083,0.305018847193,1.0,-0.19998,-0.262830857143,2.924
-0.253177903184,-0.486889265668,-0.135811829866,-2.61517188692,-0.0648917450054,2.12095003454,-0.513084151006,-0.828972955428,-0.290086780773,-0.0138298144516,-0.236668500273,-0.0509232288998,-0.069015932726,-0.793500801872,0.573794154635,0.818969641706,0.00545352845358,0.0,0.818961664853,-0.57370992844,-0.0118091664562,0.0,-0.00654273137046,0.0112424778779,-0.9999153961,0.0,0.352303101464,-0.145407989901,0.30498187476,1.0,-0.19998,-0.262830857143,2.94
-0.268033286846,-0.491835182309,-0.135904090477,-2.61910632716,-0.0656925439265,2.11977275862,-0.527409780961,-0.831637607496,-0.264584852341,-0.0089852653431,-0.209611579372,-0.0452180385909,-0.0526670672352,-0.797348069648,0.573734505175,0.81901110022,0.0055029255833,0.0,0.819003224015,-0.573649180502,-0.0118778644489,0.0,-0.00657148060069,0.0113218724575,-0.999914311752,0.0,0.348740762928,-0.150082830351,0.30495512713,1.0,-0.197655428571,-0.259775706123,2.958
-0.282214499666,-0.496235178928,-0.13601788793,-2.62255783608,-0.0664361329145,2.11870155864,-0.540893730743,-0.830549450297,-0.256094205379,-0.0071912135693,-0.202577644143,-0.0408438273446,-0.0624501831969,-0.784537325402,0.573876829153,0.818911062431,0.00555010724894,0.0,0.818903531756,-0.573790839107,-0.0119090527186,0.0,-0.00656798077284,0.0113795509318,-0.999913679999,0.0,0.345377371565,-0.154532468925,0.304944272464,1.0,-0.194508,-0.255639085714,2.975
-0.295229497802,-0.500218470297,-0.136002758536,-2.62557946582,-0.0670545417648,2.11767656658,-0.553501079846,-0.80859751111,-0.248172338824,-0.00037919203812,-0.181237188867,-0.0413130119926,-0.0610423498552,-0.789974776696,0.573765169577,0.818988980422,0.005597055369,0.0,0.818982152576,-0.573679186177,-0.0118815828602,0.0,-0.00652009679544,0.01140134637,-0.999913745099,0.0,0.342296640713,-0.158536945052,0.304974399911,1.0,-0.191545714286,-0.251745795918,2.991
-0.309263663183,-0.504046851955,-0.136051022058,-2.62850008167,-0.0676829207493,2.116725505,-0.566853595079,-0.816462868409,-0.221363749274,0.00149517770763,-0.166508653323,-0.0347674898918,-0.0534361813781,-0.782994401334,0.573924213205,0.818877097675,0.0056606802406,0.0,0.818871322388,-0.57383836147,-0.0118338149555,0.0,-0.00644224860437,0.0114273016628,-0.999913953403,0.0,0.339036865712,-0.162874519108,0.304992661772,1.0,-0.188398285714,-0.24760917551,3.008
-0.322900156997,-0.507557833953,-0.135970516605,-2.63112229215,-0.0681776291005,2.11589714331,-0.580103107672,-0.796045284972,-0.199162017487,0.00181377892723,-0.147276567465,-0.0242466990012,-0.051583494451,-0.769456985852,0.573823064804,0.818947303599,0.00575770154025,0.0,0.818943583348,-0.573738318277,-0.0116831645794,0.0,-0.00626460274395,0.011419521898,-0.999915171038,0.0,0.335920018782,-0.167025381901,0.305038067754,1.0,-0.185250857143,-0.243472555102,3.025
-0.335826134201,-0.510619865206,-0.135979110638,-2.63346900825,-0.0686950135249,2.11507110264,-0.592440504923,-0.801682980093,-0.190694727411,0.00243063906309,-0.147212637079,-0.0322492241619,-0.0553953833298,-0.76577594531,0.573956455368,0.818853638751,0.00578381770935,0.0,0.818850106098,-0.573871316571,-0.0117031047414,0.0,-0.00626408342157,0.0114533727721,-0.999914787125,0.0,0.332931191849,-0.170958189595,0.305036500526,1.0,-0.182288571429,-0.239579265306,3.041
-0.349138801341,-0.513562542965,-0.135844292207,-2.63577061076,-0.0690860464896,2.11421466418,-0.605446159921,-0.794483868217,-0.162938466388,0.00841638818243,-0.130455378112,-0.0204705098904,-0.0508994916122,-0.759116409705,0.573809126506,0.818956624838,0.00582064202767,0.0,0.818952619642,-0.573722149926,-0.0118426503378,0.0,-0.00635930812808,0.0115624734958,-0.999912930413,0.0,0.329678307489,-0.175155801565,0.305001659113,1.0,-0.178956,-0.235199314286,3.059
-0.363363611661,-0.516330845015,-0.135796212224,-2.63797236422,-0.0695698239736,2.11342291172,-0.619092018917,-0.778688798297,-0.151389919662,0.00650449475658,-0.117150082055,-0.0221248174111,-0.0350101773167,-0.754781144246,0.573936374189,0.818867457467,0.00581999877257,0.0,0.818862768392,-0.573848151587,-0.0119504126977,0.0,-0.00644613263156,0.0116247806537,-0.999911652022,0.0,0.326776934844,-0.178954505506,0.304961457369,1.0,-0.175993714286,-0.23130602449,3.075
-0.374817261361,-0.518382210606,-0.13565421321,-2.63959992544,-0.0698453590795,2.11286750559,-0.630269989491,-0.777456789485,-0.133792316577,0.0120043380642,-0.105191408583,-0.0206783156557,-0.0329954665807,-0.751844924347,0.573835914479,0.818937578986,0.00585934124599,0.0,0.818933090479,-0.57374699255,-0.0119886929781,0.0,-0.00645633608898,0.0116781758743,-0.999910964003,0.0,0.32401420177,-0.182569579712,0.304936783579,1.0,-0.173031428571,-0.227412734694,3.091
-0.389362290933,-0.520734415188,-0.135556611134,-2.64138188268,-0.0702637584671,2.11216727074,-0.64430616251,-0.740297978105,-0.119692210767,0.015168317007,-0.0844303080851,-0.0210887941313,-0.0397877163903,-0.739811377305,0.573902194049,0.818891111978,0.00586219163646,0.0,0.818886526164,-0.573813004156,-0.0120100137307,0.0,-0.00647121629592,0.0116932681072,-0.999910691432,0.0,0.320735726157,-0.186900229659,0.304934617212,1.0,-0.169513714286,-0.222789453061,3.11
-0.398992515191,-0.522182224232,-0.135433099915,-2.64247794208,-0.0704401938471,2.11176557753,-0.653816330445,-0.73957177594,-0.109285748331,0.00774183811111,-0.0794612892845,-0.0149663582054,-0.0315720377649,-0.722263933045,0.573774580095,0.818980144261,0.00591620188646,0.0,0.818976293507,-0.573685254043,-0.0119919501501,0.0,-0.00642725502628,0.0117261310189,-0.999910590125,0.0,0.318581688718,-0.189730348431,0.304937016572,1.0,-0.167106857143,-0.219626155102,3.123
-0.413252908438,-0.524129695864,-0.135358567085,-2.6438556513,-0.0707729275161,2.11117775548,-0.667509095654,-0.747168497786,-0.0983842495747,0.00135920388756,-0.0729144460354,-0.0211239511002,-0.0328530555765,-0.72444843957,0.573964514063,0.81884668578,0.00596562529578,0.0,0.818843942745,-0.573875804867,-0.0119123851203,0.0,-0.00633101094893,0.0117224281681,-0.999911247551,0.0,0.315389517698,-0.19396137468,0.304976685474,1.0,-0.163589142857,-0.215002873469,3.142
-0.425509546427,-0.525564234194,-0.135193404668,-2.6448836094,-0.0709478121691,2.11077734062,-0.679606302716,-0.730438114714,-0.0772097600113,0.00751747880119,-0.064431011455,-0.00732185622609,-0.0200652667008,-0.702798443052,0.573843926643,0.818930708361,0.0060323843162,0.0,0.818929319696,-0.573755891345,-0.0118191958442,0.0,-0.00621810610248,0.0117226958354,-0.999911952903,0.0,0.312681901282,-0.19755679199,0.305004902428,1.0,-0.160441714286,-0.210866253061,3.159
-0.438546356501,-0.526865000756,-0.135111874289,-2.64582126392,-0.0711693127918,2.11036315385,-0.692189501362,-0.718204602757,-0.0714304528295,0.0124889066062,-0.0483606334943,-0.0129059680938,-0.0244072918975,-0.693226792234,0.57400883337,0.818814736526,0.00608550426083,0.0,0.818814219168,-0.573920905944,-0.0117819824012,0.0,-0.00615478119572,0.011746085541,-0.999912070206,0.0,0.309778275827,-0.201399414922,0.305021258567,1.0,-0.157109142857,-0.206486302041,3.177
-0.44894945708,-0.527756194493,-0.134940652472,-2.64651401414,-0.0712683385597,2.11006725845,-0.702491535634,-0.69039139432,-0.0593673190526,0.00712246328656,-0.0477761850155,-0.00243037231043,-0.0169259558333,-0.683341904274,0.573888563139,0.818898736709,0.00612560325956,0.0,0.81889854759,-0.573800139007,-0.0118032255118,0.0,-0.0061508928826,0.0117902107398,-0.999911574814,0.0,0.307468651908,-0.204413290005,0.305011248833,1.0,-0.154332,-0.202836342857,3.192
-0.460807483986,-0.528557990143,-0.134810574381,-2.64717170072,-0.071423629027,2.10976687736,-0.713984221281,-0.701395634604,-0.0442821118283,0.00251808044221,-0.0387568901377,-0.0096689064092,-0.0174455744441,-0.672165655454,0.573992132837,0.818826031759,0.00614068855152,0.0,0.818825589599,-0.573902768585,-0.0118748864741,0.0,-0.00619942736666,0.011844472381,-0.999910633794,0.0,0.30482312078,-0.207867489423,0.304982788516,1.0,-0.151184571429,-0.198699722449,3.209
-0.472974777525,-0.529169547117,-0.134581776814,-2.64766880028,-0.071534431495,2.1095224286,-0.725956708501,-0.666970260583,-0.0294046817017,0.013877042737,-0.0260529301002,-0.00282892027147,-0.016798794114,-0.67046019105,0.573914581964,0.818880447983,0.00613281507771,0.0,0.818879668753,-0.573824818275,-0.0119127215935,0.0,-0.00623605336104,0.0118591505381,-0.999910232064,0.0,0.302142318127,-0.211390097529,0.304965022371,1.0,-0.147852,-0.194319771429,3.227
-0.483626673592,-0.529568096056,-0.134443812371,-2.64799134416,-0.0715908240909,2.10932060458,-0.736426604203,-0.66656396267,-0.0213647600616,0.00818374718603,-0.0166593715628,0.000301317809067,-0.0106603717409,-0.659912060162,0.573923828018,0.818873633363,0.00617730658561,0.0,0.818873061011,-0.573833170831,-0.0119644852301,0.0,-0.00625277845184,0.0119253627163,-0.999909340133,0.0,0.299782459247,-0.214480736522,0.304950120476,1.0,-0.144889714286,-0.190426481633,3.243
-0.494773136367,-0.529848721214,-0.134262389157,-2.64821089799,-0.071636231537,2.10913419204,-0.7473151606,-0.639221639023,-0.0113322578364,0.0130559020124,-0.0080951951029,-0.00168017280053,-0.00538944109472,-0.632202919872,0.573975141092,0.818837473347,0.006202947136,0.0,0.818836922859,-0.573883769583,-0.0120108148259,0.0,-0.00627525539803,0.0119733418037,-0.999908625953,0.0,0.297318940282,-0.217703365599,0.30494138952,1.0,-0.141742285714,-0.186289861225,3.26
-0.505531895902,-0.530007103624,-0.134079958741,-2.64835721338,-0.0716649159922,2.10901097176,-0.75802666994,-0.630618123808,-0.00774362159816,0.00582634663393,-0.00699034002083,-0.00258612443597,-0.00715328346181,-0.629201385921,0.573864768551,0.818914624453,0.00622994174838,0.0,0.818914171707,-0.573772819559,-0.0120448252028,0.0,-0.00628923335214,0.0120141197229,-0.999908049008,0.0,0.294935039643,-0.22080348352,0.304926762428,1.0,-0.138594857143,-0.182153240816,3.277
-0.515714160519,-0.53004574942,-0.133954419189,-2.64839091398,-0.071676691269,2.10892170751,-0.76788069498,-0.630531397589,0.00143389204872,0.00760304977766,0.00181689752393,-0.00220384519214,-0.00891717522592,-0.606251412229,0.574038127865,0.81879274688,0.00627792287769,0.0,0.818792789966,-0.573945683166,-0.0120609608403,0.0,-0.0062723612839,0.0120640016386,-0.999907554401,0.0,0.292670611594,-0.22374855003,0.304921098599,1.0,-0.135632571429,-0.17825995102,3.293
-0.525974653785,-0.529962173169,-0.133726791093,-2.6483275498,-0.0716743196557,2.10891767098,-0.778156244558,-0.59608394632,0.00668378731036,0.011486418779,0.00898133386835,9.0259734297e-06,-0.00897229460385,-0.607046380028,0.573869978932,0.818910592196,0.00627982253939,0.0,0.818910956945,-0.573778134582,-0.0120101528669,0.0,-0.00623213652236,0.0120351133711,-0.999908154042,0.0,0.290416037139,-0.22669803469,0.304924846852,1.0,-0.132485142857,-0.174123330612,3.31
-0.535608598886,-0.529818625952,-0.13357932788,-2.64822960779,-0.0716750769735,2.10890356209,-0.787565678094,-0.602413712605,0.0136446047897,0.0067977108527,0.0115756297352,0.0002851453336,-0.000136482848009,-0.585243436493,0.573955232562,0.8188506651,0.00630287078836,0.0,0.818851352238,-0.573863313034,-0.0120044905582,0.0,-0.00621301838543,0.0120513864647,-0.999908077018,0.0,0.288265604906,-0.22946945322,0.304919517162,1.0,-0.129522857143,-0.170230040816,3.326
-0.545646949153,-0.529566807646,-0.133392889814,-2.64800814074,-0.0716773346922,2.10892323245,-0.79740081578,-0.568238548458,0.0175829189439,0.0102279232282,0.0126961592745,0.00205415371678,0.00187349547087,-0.569564469876,0.574001677212,0.818818154198,0.00629696875635,0.0,0.81881913356,-0.573910490199,-0.0119466587693,0.0,-0.00616836341671,0.012013711973,-0.999908806851,0.0,0.286036442962,-0.23235870191,0.304934681151,1.0,-0.126375428571,-0.166093420408,3.343
-0.55574028895,-0.529105717016,-0.133157312099,-2.64767318134,-0.0716751222782,2.10893564337,-0.807549883477,-0.567693573609,0.0250610172108,0.0153120303898,0.0193977680854,-0.00107276961735,0.00119247714834,-0.550266707094,0.573810077997,0.81895275423,0.006255208128,0.0,0.818952942844,-0.573718630859,-0.011989867129,0.0,-0.00623052522217,0.0120028587892,-0.999908551787,0.0,0.283797421639,-0.235252803134,0.30492561745,1.0,-0.123042857143,-0.161713469388,3.361
-0.565900191164,-0.528592151807,-0.13298368393,-2.64726915343,-0.0716557464062,2.10899727004,-0.817442158744,-0.561040200607,0.0296839662201,0.0100495722264,0.0251916475236,-1.26796107858e-05,0.00191721887785,-0.54685849629,0.573937894854,0.818863228995,0.00624915610185,0.0,0.818863468916,-0.573846696762,-0.0119722508504,0.0,-0.00621769811302,0.011988764914,-0.999908800714,0.0,0.281526554649,-0.238178493268,0.304931359649,1.0,-0.119710285714,-0.157333518367,3.379
-0.574474922096,-0.527940944253,-0.132763666306,-2.64678409975,-0.0716094049356,2.10913592497,-0.826033266789,-0.519659771733,0.0416554952174,0.0117496118157,0.0305492092811,0.000877076924786,-3.94602971177e-05,-0.529274899442,0.573816518497,0.818948562348,0.00621306920907,0.0,0.818948543055,-0.573725902833,-0.011942325887,0.0,-0.00621567154582,0.0119411177434,-0.999909383461,0.0,0.279648416174,-0.240653132919,0.304931308187,1.0,-0.116748,-0.153440228571,3.395
-0.583933390258,-0.527152483157,-0.132569477039,-2.64619369484,-0.0715710580537,2.1092425713,-0.835400199657,-0.526122424771,0.0429637579145,0.0186006212395,0.0378426290665,0.00492413586534,0.00658915613599,-0.518434333585,0.573781296506,0.818973470833,0.00618261701834,0.0,0.818972834518,-0.573690393581,-0.0119823009717,0.0,-0.00626639927232,0.0119388454307,-0.999909093973,0.0,0.27766291493,-0.243228308131,0.304921748898,1.0,-0.113600571429,-0.149303608163,3.412
-0.592232487087,-0.526371485362,-0.132402404234,-2.64560474589,-0.0715005562324,2.10936924256,-0.843520451967,-0.514855594257,0.0548541381417,0.00917493560714,0.0411887386325,0.000948337709697,0.00694817592479,-0.503736898982,0.573895865198,0.8188932413,0.00617593422394,0.0,0.818892500926,-0.573804933643,-0.0119882006241,0.0,-0.00627339572117,0.011937634828,-0.999909064556,0.0,0.275700054668,-0.245783042016,0.304922447458,1.0,-0.110453142857,-0.145166987755,3.429
-0.599621697464,-0.525518667835,-0.132177097735,-2.64499311044,-0.0714040480223,2.10950967287,-0.850960672237,-0.480151516113,0.0611949905734,0.0173162052002,0.0414139366328,0.0124530650076,0.00400142041753,-0.488518473688,0.5737705921,0.818981200107,0.0061521063912,0.0,0.81897982792,-0.573679179378,-0.0120410759489,0.0,-0.00633220139975,0.0119474963366,-0.999908576099,0.0,0.274080660243,-0.247908867742,0.304905954714,1.0,-0.107676,-0.141517028571,3.444
-0.608266094612,-0.524479461275,-0.131934883663,-2.64424885263,-0.0712513145469,2.10967644328,-0.859618729564,-0.485160564311,0.05964374749,0.0104643430388,0.0372912578945,0.0109096000486,0.00675564937995,-0.467424346931,0.573695177273,0.81903392162,0.00616649911452,0.0,0.819032258061,-0.573602815822,-0.0121126726202,0.0,-0.00638369140742,0.011999774593,-0.99990762268,0.0,0.27217079723,-0.250389742144,0.304883909579,1.0,-0.104343428571,-0.137137077551,3.462
-0.616354021479,-0.523505001895,-0.13173394347,-2.64346198731,-0.0710935804727,2.10985518846,-0.867525982103,-0.468504691763,0.0610936953503,0.00994270715991,0.0446364594409,0.0148403939452,0.0105982677628,-0.456581157507,0.573811787278,0.818952034956,0.00619226327585,0.0,0.81895096368,-0.573719771364,-0.0120702085806,0.0,-0.0063324199273,0.0119974189231,-0.999907976964,0.0,0.270384548901,-0.252727604209,0.304904622251,1.0,-0.101196,-0.133000457143,3.479
-0.62320895796,-0.522527819076,-0.131554633977,-2.6426958678,-0.0709471735469,2.11003134244,-0.874346552828,-0.452508102656,0.0609904483625,0.0139094591803,0.0498239421754,0.00902831597886,0.0120703147656,-0.442455784389,0.573817848484,0.818947661544,0.00620897049865,0.0,0.81894684745,-0.573725833133,-0.0120613576749,0.0,-0.00631549548349,0.0120060702806,-0.999907980163,0.0,0.268881809503,-0.254721817435,0.304913838212,1.0,-0.0984188571429,-0.129350497959,3.494
-0.631034014278,-0.521367000816,-0.131285843557,-2.64181346723,-0.0707565005463,2.11025513547,-0.882262025809,-0.44101869703,0.0638795927227,0.013251125924,0.0487336527713,0.0116446710134,0.0104845885819,-0.43374784897,0.57368358329,0.8190416701,0.00621577060613,0.0,0.819040902435,-0.57359148681,-0.0120645471503,0.0,-0.00631617534929,0.0120124342831,-0.999907899435,0.0,0.267168965528,-0.256975298784,0.304914450994,1.0,-0.0950862857143,-0.124970546939,3.512
-0.638389064029,-0.520261676518,-0.131072033334,-2.64094424026,-0.0705780265001,2.11045092117,-0.889457101224,-0.426180882299,0.0674902561592,0.0141251783851,0.0460741084322,0.0132471692024,0.0158921128234,-0.416578812541,0.573786958997,0.818969106835,0.00623495277851,0.0,0.818968619321,-0.573694813782,-0.0120585284713,0.0,-0.00629872348862,0.012025488578,-0.999907852608,0.0,0.26554012832,-0.25909957268,0.304925289303,1.0,-0.0919388571429,-0.120833926531,3.529
-0.645031893304,-0.519167729126,-0.13091633026,-2.64008361954,-0.0704057147276,2.11066581185,-0.896037681376,-0.413851046046,0.0650214911675,0.0145253859127,0.0508524323293,0.0120208671859,0.00650446771696,-0.399981047423,0.573848145087,0.818925970483,0.00626962116422,0.0,0.818926058596,-0.573756072659,-0.012034389917,0.0,-0.0062581617147,0.012040500297,-0.999907926644,0.0,0.264068753312,-0.261039599082,0.304936206065,1.0,-0.0889765714286,-0.116940636735,3.545
-0.651731797907,-0.517949409074,-0.130660611664,-2.63918986828,-0.0702061887656,2.11090838426,-0.902854876812,-0.386557218402,0.0740041119304,0.0193678110018,0.0509687080057,0.00838688515156,0.0186552080931,-0.400802525789,0.57370493438,0.819026243736,0.00627751872874,0.0,0.819026173278,-0.573612355752,-0.012072270537,0.0,-0.00628676512473,0.0120676056571,-0.999907420453,0.0,0.262602046193,-0.262972332018,0.304920839955,1.0,-0.0858291428572,-0.112804016327,3.562
-0.658237599807,-0.516814432997,-0.130417958464,-2.6383185937,-0.0700092805335,2.11113398101,-0.909303313519,-0.374652517861,0.0665916462042,0.0170054532609,0.0536462588383,0.0133673282908,0.010816631419,-0.389137385783,0.573711150523,0.819021808023,0.00628813562502,0.0,0.819021889625,-0.573618549763,-0.0120685783959,0.0,-0.0062775585226,0.0120742311849,-0.999907398313,0.0,0.261163931503,-0.264842533567,0.304923745778,1.0,-0.0826817142858,-0.108667395918,3.579
