nelsonifechukwu/NELSON_IML_WORK/CNN-GradCAM/train2dof/data_sample_2022-02-21-16-39-32/robot_state.csv
position_joint1,position_joint2,position_joint3,position_joint4,position_joint5,position_joint6,position_joint7,velocity_joint1,velocity_joint2,velocity_joint3,velocity_joint4,velocity_joint5,velocity_joint6,velocity_joint7,ee_T_00,ee_T_10,ee_T_20,ee_T_30,ee_T_01,ee_T_11,ee_T_21,ee_T_31,ee_T_02,ee_T_12,ee_T_22,ee_T_32,ee_T_03,ee_T_13,ee_T_23,ee_T_33,v_x,v_y,time
0.465084081683,0.547835948011,-0.123896828882,-1.35586290503,0.0795255992244,1.89409791432,0.159162752817,0.00102180381452,-0.000685362432357,-0.000988823779257,-0.000868379648278,-0.000186099659323,-0.000223640871231,0.00131545959159,0.573744579198,0.819020312252,0.00190600658778,0.0,0.818975838058,-0.573685467954,-0.0120128030433,0.0,-0.00874544979528,0.00845341672407,-0.999926025691,0.0,0.66164302103,0.260950098831,0.303158137816,1.0,0.0,0.0,0.0
0.465079162975,0.547838462642,-0.123898597292,-1.35586541069,0.0795252188834,1.89409791438,0.159161226938,-0.000238729348594,0.000207925650755,-0.000194414510411,-0.00111920896533,8.85967320119e-05,-8.47942090747e-05,0.000401265775988,0.573748633685,0.819017483366,0.00190110170594,0.0,0.818972954881,-0.573689552442,-0.0120143037012,0.0,-0.00874945104897,0.00845030390942,-0.999926016998,0.0,0.661644090188,0.260945427695,0.303155221755,1.0,-0.0001,-0.000131428571429,0.006
0.465079133653,0.547837810702,-0.123903350525,-1.35586079423,0.0795224097131,1.89409710058,0.159163566625,-0.000793212503719,0.000340328652185,-0.00153531634297,0.000966698735264,-0.000273416956474,-0.000266214317221,0.00142571380994,0.573752891963,0.819014498053,0.00190206332043,0.0,0.818970037215,-0.573693859278,-0.0120075339675,0.0,-0.00874331069415,0.00844725284329,-0.999926096488,0.0,0.661646261717,0.260942704583,0.303157962002,1.0,-0.00036,-0.000473142857143,0.019
0.465078623396,0.547826866673,-0.123901555386,-1.35586703712,0.0795219014817,1.89409699592,0.159157361378,0.000932204016607,-0.000566466510697,-0.000613492467839,3.36280224789e-05,0.000119610657099,-5.38306265921e-05,0.00609009854428,0.573747159811,0.819018502826,0.00190670879888,0.0,0.818974091253,-0.573688096909,-0.0120063409157,0.0,-0.00873972748584,0.00845031180064,-0.999926101967,0.0,0.661644849598,0.260942720295,0.303162674219,1.0,-0.00068,-0.000893714285714,0.035
0.465069816198,0.547804957644,-0.123897605391,-1.35590533097,0.0795235590016,1.89410487933,0.159165194169,-0.00143243824222,0.00139332902528,0.000946527891766,-0.00262924399483,7.26648342621e-05,0.000306044635488,0.00210773942794,0.573760572624,0.819009116026,0.00190264825298,0.0,0.818964586505,-0.573701462742,-0.0120160143062,0.0,-0.0087498416308,0.00845267952901,-0.999925993502,0.0,0.661639518379,0.260935723519,0.303160526648,1.0,-0.001,-0.00131428571429,0.051
0.465074697814,0.547675515691,-0.123899739506,-1.35604453438,0.0795235620268,1.89412718289,0.159151749428,0.000495317809103,-0.0119293423361,0.000264103942373,-0.00885835445001,-0.000663868468814,0.00393176304353,-0.00199850999806,0.573754578453,0.81901327551,0.0019196729569,0.0,0.818968863532,-0.573695294783,-0.0120189937414,0.0,-0.00874257641128,0.00846826810779,-0.999925925153,0.0,0.661614695442,0.260924414305,0.303187978195,1.0,-0.00134,-0.00176114285714,0.068
0.465071158707,0.547528506278,-0.1239001065,-1.35624682144,0.0795141556737,1.89417184009,0.159150803747,0.000669205862485,-0.00629459990653,-0.00199123371725,-0.0130327712814,-0.000696540318848,0.00109546511104,-0.00198263702677,0.573767578893,0.819004175777,0.00191634341125,0.0,0.818959592178,-0.57370818389,-0.0120354899799,0.0,-0.00875786326892,0.00847514493793,-0.999925733117,0.0,0.661582287356,0.260903809291,0.303201522886,1.0,-0.00168,-0.002208,0.085
0.465048632269,0.547372467322,-0.12390223733,-1.35643030981,0.079517592124,1.89427156382,0.159143277786,-0.000274382314176,-0.00896475274674,0.000238503568007,-0.00863111656228,-0.00343038273403,0.0111617987594,-0.000653498610414,0.573790672235,0.818987840711,0.00198194960354,0.0,0.81894410543,-0.573730985289,-0.0120023164943,0.0,-0.00869281273396,0.00851008704027,-0.999926003975,0.0,0.661570761721,0.260872764192,0.303231647201,1.0,-0.002,-0.00262857142857,0.101
0.465029328144,0.547164212314,-0.123899741576,-1.35667459128,0.0795119848631,1.8944121294,0.159126830133,-0.00319116656536,-0.0161369294739,-0.00109912416277,-0.0171356552295,-0.00151209864109,0.00746065173741,-0.00130826957479,0.57381010926,0.818973984881,0.00207785938052,0.0,0.818931437271,-0.573749954609,-0.0119598301099,0.0,-0.00860278362855,0.00856446068342,-0.999926318349,0.0,0.661554655076,0.260847938845,0.303275937632,1.0,-0.00234,-0.00307542857143,0.118
0.464999813506,0.546936453282,-0.123897194305,-1.35698763577,0.0795078875743,1.89454519509,0.15911445872,0.000100776856938,-0.0109151966697,0.000503870702852,-0.0152287814551,-2.09550778485e-05,0.00688348902961,0.00149334954867,0.573832482526,0.818958188323,0.00212477729841,0.0,0.818916180252,-0.573772059344,-0.0119440587063,0.0,-0.00856271169193,0.00859406883045,-0.999926408267,0.0,0.661521160793,0.260799997257,0.303298789645,1.0,-0.00272,-0.00357485714286,0.137
0.464974838662,0.546739989973,-0.123896956422,-1.35730160692,0.0795005135216,1.89466212123,0.159069253214,-0.000465698740754,-0.0147269455356,-0.00654294249886,-0.0178268419909,8.07869990024e-05,0.00957282568922,-0.00912702547606,0.573831378712,0.818958946985,0.00213046008115,0.0,0.818916905323,-0.573770824207,-0.0119536758247,0.0,-0.00856733887708,0.0086042297138,-0.999926281251,0.0,0.661484504675,0.260755669681,0.303298626423,1.0,-0.003,-0.00394285714286,0.151
0.464929983591,0.546443612713,-0.123902982731,-1.35774322561,0.0794888904908,1.8948273047,0.158948381127,-0.00511001025461,-0.0175434318404,-0.000243451887729,-0.0259562385694,-0.00386914425611,0.0102995298225,-0.000599148469334,0.573792789105,0.818985916688,0.00215646456777,0.0,0.818944088609,-0.573732006327,-0.0119545618752,0.0,-0.00855354975529,0.00862563138113,-0.999926214913,0.0,0.661440291398,0.260685910718,0.303312700966,1.0,-0.00334,-0.00438971428571,0.168
0.464884539444,0.546155715376,-0.123900775331,-1.35823215449,0.0794763100426,1.89499445343,0.158928694935,6.17027683561e-05,-0.0155312936308,-0.000621322505107,-0.0319686113851,0.000515398239802,0.00687108489128,-0.00210137305296,0.573838459781,0.818953972947,0.00213522145439,0.0,0.818911698197,-0.573777588264,-0.0119856857832,0.0,-0.0085907481727,0.00862657138475,-0.99992588791,0.0,0.661378393375,0.260609587389,0.303298416612,1.0,-0.0037,-0.00486285714286,0.186
0.464825401611,0.545849277907,-0.123897620603,-1.3587610441,0.0794474929926,1.89517623047,0.15886132337,-0.00327555190753,-0.0234131756265,0.000954640396373,-0.0299732218037,-0.00288827641613,0.0109902299026,-0.00304880776172,0.57385138631,0.818944999982,0.00210245944171,0.0,0.818902224766,-0.57379057697,-0.0120111179906,0.0,-0.00863023976534,0.0086144712796,-0.999925652159,0.0,0.661317572375,0.260521213613,0.303279288537,1.0,-0.00402,-0.00528342857143,0.202
0.464752817311,0.545492920968,-0.123900143843,-1.35939307908,0.0793559365723,1.89538284975,0.158753457508,-0.00483198349215,-0.0212234140764,-4.53401551124e-05,-0.0364479018966,-0.00433509519567,0.0168194565113,-0.00266041424883,0.573835124396,0.818956618802,0.00201331335826,0.0,0.81891312557,-0.573775134666,-0.0120056032391,0.0,-0.00867704615211,0.00853812994856,-0.999925901858,0.0,0.661247583897,0.260400599542,0.303248616601,1.0,-0.00436,-0.00573028571429,0.219
0.464695773929,0.545093277649,-0.123905311959,-1.36008671219,0.0793336964344,1.89560149452,0.158710604363,-0.00203414206126,-0.028300614947,0.00503433346951,-0.0397575353737,-0.00290840484474,0.0130284990755,-0.00120402149267,0.573886155243,0.818920988035,0.0019603770081,0.0,0.818876569125,-0.57382615633,-0.0120604208246,0.0,-0.00875178463329,0.00852677950318,-0.999925347362,0.0,0.661155461669,0.260286764924,0.303223577633,1.0,-0.00472,-0.00620342857143,0.237
0.464619322413,0.544682095043,-0.123905486517,-1.36076187977,0.079312378335,1.89583657461,0.158598562976,-0.00569579106528,-0.0260510882665,-0.00249182822711,-0.0418894970605,-0.000337411401224,0.0159950852037,-0.0051852573531,0.573882955056,0.818923272132,0.00194297641421,0.0,0.818878428106,-0.57382284004,-0.0120919449611,0.0,-0.00878762007875,0.00853058681879,-0.999925000598,0.0,0.66107976832,0.260172689688,0.303207846686,1.0,-0.00504,-0.006624,0.253
0.464555061517,0.544190337243,-0.123903960554,-1.36158640696,0.079274209113,1.89613373185,0.158511364828,-0.00185574510885,-0.0263881008814,0.0045492256632,-0.045288280049,-0.00381970572934,0.0176400497137,-0.0112331044236,0.573901844142,0.818910090507,0.00191933780935,0.0,0.818864805568,-0.573841703112,-0.0121192769045,0.0,-0.00882337194659,0.00852711772065,-0.999924715352,0.0,0.660984209492,0.260062125904,0.303191838755,1.0,-0.00538,-0.00707085714286,0.27
0.464473152775,0.543673119385,-0.123908781451,-1.36241056665,0.0792377516495,1.89641989808,0.158402798272,-0.0056484793295,-0.0281201393383,6.79543718253e-05,-0.0482819354719,-0.00336241604561,0.0183620154062,-0.00728127513578,0.573919472091,0.818897762988,0.00190793847181,0.0,0.81885219462,-0.573859249804,-0.0121404976098,0.0,-0.00884710852837,0.00853015181583,-0.999924479739,0.0,0.66088963989,0.259927681591,0.303190496197,1.0,-0.00572,-0.00751771428571,0.287
0.46440310627,0.543162318343,-0.12391005827,-1.36321868658,0.0791876212184,1.8967047238,0.158291141268,-0.00918726721389,-0.0307759182947,0.00107962245179,-0.0494135680474,-0.00272134354755,0.020601271847,-0.0165215137143,0.573917813237,0.818898952432,0.00189637972785,0.0,0.818853222214,-0.573857632542,-0.0121476312212,0.0,-0.00885960107532,0.00852476272526,-0.999924415088,0.0,0.66079507796,0.259802654799,0.303191929584,1.0,-0.00604,-0.00793828571429,0.303
0.464336867139,0.542573805205,-0.123912674474,-1.36412196092,0.0791352218982,1.89703502035,0.158179630323,-0.00265760963971,-0.0393358824789,0.000423800397975,-0.0533888121481,-0.00140479492005,0.0175972549655,-0.0036119881377,0.573918777262,0.81889824482,0.00191014104527,0.0,0.818852676984,-0.573858517968,-0.012142555434,0.0,-0.00884753696565,0.008533128965,-0.999924450546,0.0,0.660689035123,0.259671822204,0.303206965034,1.0,-0.00638,-0.00838514285714,0.32
0.46425474624,0.541976263618,-0.123917940906,-1.36505173774,0.0790846606749,1.89739059969,0.158057432808,-0.00362629866115,-0.0340263386721,-0.000892401476253,-0.0556974601669,-0.00808892267195,0.0235201956196,-0.00516319995978,0.573927886144,0.818891811903,0.00193101166312,0.0,0.818846502751,-0.57386751899,-0.0121335271584,0.0,-0.008828071135,0.00854513626097,-0.999924520055,0.0,0.6605866468,0.259527950687,0.303217981434,1.0,-0.00672,-0.008832,0.337
0.464189324628,0.541363176431,-0.12391820441,-1.36598099978,0.079028657805,1.89772800401,0.157922726952,-0.0037189718194,-0.0403691557561,-0.000775872721502,-0.0559530594511,-0.00494658592966,0.0249563904215,-0.00513005389916,0.573907869527,0.818905796198,0.0019496538512,0.0,0.818860715047,-0.573847406999,-0.0121255818425,0.0,-0.00881107508653,0.00855562651101,-0.999924580261,0.0,0.660475834592,0.259396171404,0.303238396742,1.0,-0.00704,-0.00925257142857,0.353
0.464097027905,0.540671232909,-0.123913628566,-1.36704756399,0.0789662580586,1.89812327473,0.157797036553,-0.00446264786082,-0.0382244136323,0.000700543562451,-0.0630054200587,-0.00142342949809,0.0217376053501,-0.0164817475034,0.573919749547,0.818897423733,0.00196910744529,0.0,0.818852549783,-0.573859153766,-0.0121210664878,0.0,-0.00879608913951,0.00856909307689,-0.999924596887,0.0,0.660352993726,0.259237082928,0.303253976031,1.0,-0.00738,-0.00969942857143,0.37
0.464004321218,0.53989259465,-0.123919662029,-1.36821742748,0.0788915447477,1.89856721985,0.157649256759,-0.00703207470164,-0.043762375143,-0.0014790842381,-0.0648616901356,-0.00246489026838,0.0223347267648,-0.00903907577048,0.573923693107,0.818894560217,0.00201013378666,0.0,0.818850303466,-0.573862996357,-0.0120908571446,0.0,-0.00874776416779,0.00858539334193,-0.999924881,0.0,0.660221294977,0.259061773996,0.303286094231,1.0,-0.00774,-0.0101725714286,0.388
0.46390934843,0.539171936758,-0.123919082929,-1.36932457453,0.07883588509,1.8989856057,0.157514163482,-0.00724431938675,-0.0493285041175,-5.16480442406e-05,-0.0754236373565,-0.00723147987574,0.0239394419069,-0.0114065129931,0.573936805816,0.818885288529,0.00204305181955,0.0,0.818841363049,-0.573875867318,-0.0120854445786,0.0,-0.0087243026057,0.00860938255231,-0.999924879717,0.0,0.660095249982,0.25889683845,0.303304567507,1.0,-0.00806,-0.0105931428571,0.404
0.463797429929,0.538418069256,-0.123923140894,-1.37051635498,0.0787679735101,1.89944328789,0.157359306264,-0.00513644122777,-0.045746968622,-0.000772589929213,-0.0706730388048,-0.0110190169548,0.0241785113345,-0.0190926481836,0.573952261342,0.818874414137,0.00205972644195,0.0,0.81883070274,-0.573891245159,-0.0120774948106,0.0,-0.00870806017199,0.00861863864333,-0.999924941561,0.0,0.659964231893,0.258709111518,0.303309649999,1.0,-0.0084,-0.01104,0.421
0.463685681846,0.537623447609,-0.123928144578,-1.37175871464,0.0786948347669,1.89992182543,0.157216075566,-0.0128672359558,-0.0512330302441,-0.000853368866086,-0.0756064942008,-0.000173135995218,0.0242921561414,-0.0112374936873,0.573979046932,0.818855577217,0.00208428522497,0.0,0.81881221319,-0.573917948282,-0.0120621337491,0.0,-0.0086811039318,0.00863021638967,-0.999925076093,0.0,0.659826938181,0.258516064915,0.303321141313,1.0,-0.00874,-0.0114868571429,0.438
0.463585336004,0.536852491613,-0.123926662709,-1.3729854124,0.078625748756,1.90037911605,0.157059589735,-0.00446172065805,-0.0489820925122,-0.000223295820546,-0.0752173479453,-0.00285854718322,0.0366663843349,-0.00856749753021,0.573981121664,0.818854114196,0.00208771163607,0.0,0.818810731576,-0.573919945099,-0.0120676995931,0.0,-0.00868367330078,0.00863623871478,-0.999925001787,0.0,0.659683482074,0.258335081244,0.303321193894,1.0,-0.00906,-0.0119074285714,0.454
0.463458634357,0.535998969297,-0.123936100745,-1.37432294152,0.0785533565697,1.90088037134,0.156898889644,-0.00271639594537,-0.0505316981545,-0.0013579992216,-0.0846342386297,-0.00784793085123,0.0352592919286,-0.00512865256387,0.574014110815,0.818830948121,0.00210377885293,0.0,0.81878774399,-0.573952830107,-0.0120634159883,0.0,-0.00867059546052,0.00864728582978,-0.9999250198,0.0,0.659534467263,0.258120764244,0.30333080424,1.0,-0.0094,-0.0123542857143,0.471
0.463342618192,0.535097726443,-0.123937970498,-1.37573735992,0.0784587328672,1.90138438825,0.156718507705,-0.0090914691849,-0.0540290790926,-0.00110106283766,-0.0825913401662,-0.00908960390322,0.0275727369232,-0.013948000373,0.574014825526,0.818830480703,0.00209065764852,0.0,0.818787152192,-0.573953647613,-0.0120646880493,0.0,-0.00867916083237,0.00863727972226,-0.999925031973,0.0,0.659365810607,0.257906014187,0.303337279499,1.0,-0.00974,-0.0128011428571,0.488
0.463221579299,0.534255518711,-0.123935330867,-1.37712511832,0.078397514235,1.90188696582,0.156556457562,-0.00741796803285,-0.0591996317452,-0.000501215986893,-0.0855470982475,-0.00302011127258,0.0224733493772,-0.00878250664743,0.57403906325,0.818813552386,0.00206571855938,0.0,0.818769637458,-0.573977731094,-0.0121075136106,0.0,-0.00872828782482,0.00864169978674,-0.999924566163,0.0,0.659199574156,0.25769826105,0.303314431153,1.0,-0.01006,-0.0132217142857,0.504
0.463089792495,0.533342586002,-0.123935994069,-1.37860473694,0.0783144236171,1.90244829404,0.156377658834,-0.00668216524259,-0.0599076350185,0.000689377132707,-0.0865730515283,-0.00709672500466,0.0386482574029,-0.0151714946984,0.574059844541,0.818798991584,0.00206232091699,0.0,0.818754975572,-0.573998468418,-0.012115904075,0.0,-0.00873688920322,0.00864395594473,-0.999924471544,0.0,0.659029936053,0.257472002476,0.303302745524,1.0,-0.0104,-0.0136685714286,0.521
0.462954207998,0.532338866244,-0.123935995205,-1.38024559271,0.078216243599,1.90305998175,0.156167993057,-0.00650518873053,-0.057930852181,0.0016419205461,-0.0918824505383,-0.0125996798781,0.0293250972925,-0.010899258964,0.57406522878,0.818795261472,0.00204445551445,0.0,0.818751007428,-0.574003925555,-0.0121255178544,0.0,-0.00875495963128,0.00863490444194,-0.999924391695,0.0,0.658848804862,0.257236447552,0.303287488024,1.0,-0.01074,-0.0141154285714,0.538
0.462826233346,0.531406721645,-0.123938512876,-1.38175161586,0.0781249539769,1.90360006624,0.155975092412,-0.00804017317253,-0.0594262720899,0.000329714935944,-0.101064528298,-0.0129558253247,0.0344472268521,-0.0128679166367,0.574068607916,0.81879297995,0.00200905219912,0.0,0.818748195538,-0.574007393824,-0.0121511744491,0.0,-0.00879625487538,0.00862068163816,-0.999924151998,0.0,0.658655964859,0.256996277731,0.303269571198,1.0,-0.01108,-0.0145622857143,0.555
0.462691439309,0.530374637002,-0.123939102366,-1.38339479031,0.0780274181695,1.90417938621,0.15576497921,-0.0103958740587,-0.0619571614237,0.000676737685485,-0.100603998938,-0.00219442914136,0.0331513677901,-0.0187753431328,0.574070335057,0.81879183236,0.00198307056612,0.0,0.818746623125,-0.574009153255,-0.0121739887417,0.0,-0.00882983189411,0.00861252394316,-0.999923926356,0.0,0.658455188258,0.256749216344,0.303264940311,1.0,-0.01142,-0.0150091428571,0.572
0.462553522633,0.529315704123,-0.123936685801,-1.38504547575,0.0779245638566,1.90479477199,0.155542747422,-0.00694822874608,-0.0629638652685,0.00118942966621,-0.0982511126928,-0.00731008708719,0.0390538014946,-0.0141134995243,0.574061534377,0.818797957436,0.00200163621356,0.0,0.818752992496,-0.574000272305,-0.0121643567059,0.0,-0.00881138033907,0.00862210091721,-0.999924006589,0.0,0.6582605131,0.25650291551,0.303278414031,1.0,-0.01176,-0.015456,0.589
0.462418632036,0.528281637656,-0.123944865702,-1.38663444558,0.0778277583624,1.90541069202,0.155326048339,-0.00812740044547,-0.0656203440066,-0.000746752127197,-0.0984678005793,-0.00714572729938,0.045186315825,-0.0183580649804,0.57406051127,0.818798554523,0.00205022245146,0.0,0.818754299467,-0.573999108,-0.0121312827578,0.0,-0.0087564195165,0.00864288523164,-0.999924309962,0.0,0.658080585724,0.256260470739,0.303303890509,1.0,-0.01208,-0.0158765714286,0.605
0.462274551702,0.527140677322,-0.12394768625,-1.38839631287,0.0777153957985,1.90608157265,0.155077139573,-0.00876952785148,-0.0712697952204,-0.00196426646626,-0.108238794008,-0.00840882324973,0.0474387778804,-0.00942496829536,0.574041736477,0.818811621085,0.0020882671139,0.0,0.818767937387,-0.573980243249,-0.0121033866724,0.0,-0.00871193732759,0.00865782195012,-0.999924569289,0.0,0.657875450852,0.25599722733,0.303326644324,1.0,-0.01242,-0.0163234285714,0.622
0.462116209006,0.525893929323,-0.123950215607,-1.39030352211,0.0775933959963,1.90679127352,0.154821271115,-0.0110602964732,-0.0723447137686,-0.0034606162674,-0.103756482134,-0.00926384996486,0.0424478118069,-0.0126246678964,0.574033604236,0.818817224784,0.00212614831684,0.0,0.818774094296,-0.573972007134,-0.0120774350795,0.0,-0.0086690291631,0.00867385574968,-0.999924803253,0.0,0.657650301515,0.255710029916,0.303357689035,1.0,-0.01278,-0.0167965714286,0.64
0.461977678548,0.524800968365,-0.123956643985,-1.39204974552,0.0774834025706,1.90740870044,0.15458027039,-0.00770274351593,-0.0712961991034,-0.000655256140717,-0.112992753497,-0.00585650561829,0.0288943119034,-0.0230349488698,0.574018381823,0.818827983975,0.0020921018726,0.0,0.81878440047,-0.573956924795,-0.0120954920473,0.0,-0.00870351858079,0.00865618180812,-0.999924656802,0.0,0.657435038873,0.255446412589,0.303349028227,1.0,-0.0131,-0.0172171428571,0.656
0.461817554846,0.523597818055,-0.123960222301,-1.39396041628,0.0773671322219,1.9081011698,0.154325735201,-0.00847535330303,-0.0714200474559,-0.000353391024684,-0.108651696579,-0.00659042314262,0.0377799458119,-0.0192137287881,0.574014756378,0.818830561655,0.002077898315,0.0,0.818786758237,-0.573953327211,-0.0121065940334,0.0,-0.00872080044301,0.00865088580628,-0.999924552061,0.0,0.657203641474,0.255156286627,0.303345707861,1.0,-0.01344,-0.017664,0.673
0.461664315255,0.522384120378,-0.123958480535,-1.39589800318,0.0772486667431,1.908850786,0.154048783211,-0.00898528276525,-0.0712730469619,0.000232131169923,-0.109368122327,-0.00254652672326,0.0421960694654,-0.0207095567404,0.573984292741,0.818851866708,0.00209737369059,0.0,0.818808331014,-0.573922796353,-0.0120949489154,0.0,-0.00870040843345,0.00865982447852,-0.999924652328,0.0,0.65697412063,0.25487425407,0.303341459064,1.0,-0.01378,-0.0181108571429,0.69
0.461507233139,0.521204753653,-0.123958635774,-1.39777779318,0.0771341969604,1.90957602599,0.153805748947,-0.00680604301753,-0.0779856460742,-0.00037909693568,-0.117662186385,-0.00264748223976,0.0445758688889,-0.0212246749675,0.573983791238,0.818852170773,0.00211582530356,0.0,0.818808893254,-0.573922232567,-0.0120836333645,0.0,-0.00868055735704,0.00866843315981,-0.999924750264,0.0,0.656753013074,0.254594033266,0.303338221038,1.0,-0.0141,-0.0185314285714,0.706
0.461329819473,0.519907428292,-0.123966269894,-1.39982483328,0.0770088447239,1.91031928033,0.153527824567,-0.01046254942,-0.0756243656919,-0.00185502070088,-0.124901604047,-0.0039755363741,0.0420579836819,-0.0155480478342,0.573982052003,0.818853410411,0.00210787519369,0.0,0.818810018609,-0.573920517316,-0.0120888432667,0.0,-0.00868940501323,0.00866489521722,-0.999924704081,0.0,0.656505932724,0.25427734784,0.30333967195,1.0,-0.01444,-0.0189782857143,0.723
0.461141901144,0.518478321412,-0.123964097554,-1.40202845438,0.0768662844477,1.91109571932,0.1532251898,-0.0066966409022,-0.0842339599415,0.00148108177613,-0.123516636373,-0.00799809648206,0.0411480916511,-0.0187831333313,0.573964778954,0.81886551964,0.00210717007163,0.0,0.818822095144,-0.5739032261,-0.0120917524053,0.0,-0.00869237476983,0.00866580425295,-0.999924670391,0.0,0.656232540784,0.253942196373,0.303361212884,1.0,-0.0148,-0.0194514285714,0.741
0.460979420811,0.517291222877,-0.123969972649,-1.40392435946,0.0767429108557,1.91177594985,0.152964668604,-0.00951494087448,-0.0774106749041,-0.00137297959659,-0.12520529288,-0.00309738871411,0.0541915471606,-0.018024321196,0.573955635413,0.818872005711,0.00207695477743,0.0,0.818828216405,-0.573894244125,-0.0121035316966,0.0,-0.00871945876112,0.00864772589714,-0.999924591095,0.0,0.655999965666,0.253648997869,0.303350954277,1.0,-0.0151,-0.0198457142857,0.756
0.460788957506,0.515851716622,-0.123970421115,-1.40620024278,0.0765987885201,1.91263686544,0.152656964136,-0.0119389835298,-0.0778911292714,0.000549937836193,-0.126175163147,-0.00817614434334,0.0488989662829,-0.0147093195511,0.573941372314,0.818881961974,0.00209294071697,0.0,0.818838422671,-0.573879954572,-0.0120905830739,0.0,-0.00869983116406,0.00865323271846,-0.999924714417,0.0,0.655726331795,0.253307746317,0.303352011692,1.0,-0.01546,-0.0203188571429,0.774
0.460596190606,0.514457200813,-0.123979651241,-1.40842545278,0.0764716245068,1.91345151647,0.152353879437,-0.019488315791,-0.087178504402,-0.000734879432554,-0.138065320862,-0.00558741557014,0.0456011689533,-0.0194324928568,0.573940534977,0.818882579335,0.00208097880335,0.0,0.818838794118,-0.573879080056,-0.0121069245849,0.0,-0.00872008731929,0.00865280754044,-0.999924541652,0.0,0.655455065487,0.252964951689,0.303341494201,1.0,-0.0158,-0.0207657142857,0.791
0.460416472034,0.513147904712,-0.123979549764,-1.41056789291,0.0763332223542,1.91419589923,0.152050587077,-0.00815822716337,-0.0805757766628,-0.000415544788625,-0.137132429136,-0.0151621884577,0.0456827974952,-0.0193727261701,0.573914082394,0.81890131707,0.00200145747156,0.0,0.818856429529,-0.573852918012,-0.0121541437069,0.0,-0.0088046715963,0.00861450640778,-0.999924131141,0.0,0.655181532658,0.252638414562,0.303303850738,1.0,-0.01612,-0.0211862857143,0.807
0.4602182882,0.511728947763,-0.12398497987,-1.41285301672,0.0761964093957,1.915027474,0.151732586315,-0.0100579213351,-0.080355917924,-0.00106527200957,-0.136454031183,-0.00987302737331,0.0504442064862,-0.0207725188352,0.573902519007,0.818909493941,0.00197137318356,0.0,0.818864140399,-0.573841419553,-0.0121775069117,0.0,-0.00884119065669,0.00860315433657,-0.999923906647,0.0,0.654899339641,0.252287240851,0.303282440992,1.0,-0.01646,-0.0216331428571,0.824
0.460008828554,0.510164337426,-0.123988748562,-1.41530702093,0.0760474815985,1.91596679424,0.151385011178,-0.0158068716624,-0.0876029439916,-0.000621305898743,-0.135089247639,-0.00834296829966,0.0532680332107,-0.0158852154169,0.573880173173,0.818925055688,0.00201169231404,0.0,0.818880244646,-0.573818911568,-0.0121551864284,0.0,-0.0088000090562,0.00862312160859,-0.999924097927,0.0,0.654604421691,0.251916905363,0.303291380215,1.0,-0.01682,-0.0221062857143,0.842
0.459827033153,0.5088341061,-0.123992066128,-1.4174059357,0.0759092017492,1.9167253879,0.151084087636,-0.0118912466298,-0.0923220223385,-0.000129078966814,-0.140557271446,-0.00958483840921,0.0500237835164,-0.0247754800489,0.573856582791,0.818941622342,0.00199711883183,0.0,0.818896656698,-0.573795424144,-0.0121582803589,0.0,-0.00881115383683,0.00861270897511,-0.999924089525,0.0,0.654343443592,0.251593612774,0.303289105328,1.0,-0.01712,-0.0225005714286,0.857
0.459624663154,0.507311854795,-0.123995578448,-1.41980453305,0.0757538343221,1.91758412616,0.15075169808,-0.0162263459027,-0.0938409459197,-0.000322323321347,-0.140317987086,-0.0124566684652,0.0485124827367,-0.0193729246777,0.573834720541,0.818956989786,0.00197719104754,0.0,0.818911765345,-0.573773655316,-0.0121679885554,0.0,-0.00883076916412,0.00860172493324,-0.999924011035,0.0,0.654041128577,0.251227833011,0.303286759619,1.0,-0.01746,-0.0229474285714,0.874
0.459413078748,0.505747911522,-0.12400344737,-1.42224738958,0.0756050717461,1.91850901783,0.150430307029,-0.00819061839275,-0.0935598351657,-0.000199486821224,-0.14399004955,-0.00685916239506,0.0545547063949,-0.0177970395492,0.573836628157,0.81895556479,0.00201345158998,0.0,0.818910836852,-0.573775423232,-0.0121470935725,0.0,-0.00879283012827,0.00861945049521,-0.999924192732,0.0,0.653744481964,0.250854323346,0.303297834159,1.0,-0.0178,-0.0233942857143,0.891
0.45920677455,0.504191383531,-0.124002381643,-1.42458307615,0.0754589157549,1.91939712559,0.150106522215,-0.0142703135324,-0.0957076662981,0.000643513854423,-0.145220902671,-0.0113099828168,0.0559161438303,-0.0132737494999,0.573820466202,0.81896665906,0.00210495042578,0.0,0.818923164928,-0.573758900891,-0.0120963008544,0.0,-0.0086989005358,0.00866506448965,-0.999924620052,0.0,0.653461543451,0.250500119913,0.30335059422,1.0,-0.01812,-0.0238148571429,0.907
0.458953262445,0.50241222048,-0.124011363926,-1.42721578548,0.0752869226578,1.92039076493,0.149738977816,-0.0149914602302,-0.0976661401999,-0.000838622851951,-0.149880187071,-0.00565546151148,0.0538396152542,-0.0193746160913,0.573821949272,0.818965322915,0.00221749812282,0.0,0.818923449262,-0.573760058224,-0.0120219273569,0.0,-0.00857339483226,0.00871457478399,-0.999925273752,0.0,0.653148588533,0.250079993931,0.303426253991,1.0,-0.01848,-0.024288,0.925
0.458724598483,0.50068590366,-0.124016969259,-1.42980495136,0.0751253898959,1.92129225362,0.149373491765,-0.0156994243612,-0.103397056892,-0.00222532087678,-0.157097085595,-0.00657948979029,0.0531913189873,-0.0197752574176,0.573802078277,0.818979151907,0.0022518007595,0.0,0.818937658715,-0.573739978865,-0.0120122725494,0.0,-0.00854601720214,0.00873691960833,-0.999925313124,0.0,0.652817542251,0.249678196491,0.303476983027,1.0,-0.01882,-0.0247348571429,0.942
0.458491327467,0.499083310678,-0.124015174977,-1.43225737884,0.0749715998923,1.92219375918,0.149030569747,-0.0202964873118,-0.104069520066,0.00013209226478,-0.155080733661,-0.00832354068055,0.0535856626803,-0.0188432704524,0.573794202885,0.818984548884,0.00229528330776,0.0,0.818943599495,-0.573731901403,-0.0119930421237,0.0,-0.00850540269239,0.00876141430385,-0.999925445093,0.0,0.652514180292,0.249293592142,0.303505669677,1.0,-0.01914,-0.0251554285714,0.958
0.458232902874,0.497402876086,-0.124013040126,-1.43490949689,0.0748100985746,1.92317665176,0.148634925099,-0.0148099837853,-0.100434759091,0.00115563945463,-0.15488573572,-0.0169552930612,0.0621529064977,-0.0175384068884,0.573771322128,0.819000549984,0.00230563035424,0.0,0.818959659035,-0.573708902327,-0.011996631423,0.0,-0.00850265077608,0.00877171020404,-0.999925378231,0.0,0.652186372143,0.248874493459,0.303500130723,1.0,-0.01948,-0.0256022857143,0.975
0.457949820584,0.495634975918,-0.124016123572,-1.43776049576,0.0746362025943,1.92416130591,0.148209271627,-0.0183423642917,-0.100074483846,0.000679618189644,-0.154934731647,-0.00464347112228,0.0566011152447,-0.0242812341858,0.573753569253,0.819013213078,0.00222384218579,0.0,0.81897106626,-0.5736912986,-0.0120595787586,0.0,-0.00860132103805,0.00874065704724,-0.999924806268,0.0,0.651819710218,0.24841223118,0.303460603237,1.0,-0.01984,-0.0260754285714,0.993
0.457707969671,0.494142250753,-0.124024014805,-1.44019181832,0.074482742927,1.925023323,0.147875273606,-0.0173959621333,-0.105854072563,0.00531638711654,-0.160373105505,-0.0120371260349,0.0551551948468,-0.0196164594303,0.573764550693,0.819005705003,0.00215463269839,0.0,0.818962594029,-0.57370251255,-0.0121013873599,0.0,-0.00867515411713,0.00870807832268,-0.999924452683,0.0,0.651511522286,0.248015234966,0.303418063603,1.0,-0.02248,-0.0295451428571,1.008
0.457402800856,0.491886909022,-0.124096077444,-1.44371451808,0.0742795606246,1.92634210264,0.14736954654,-0.0212073797639,-0.132802171725,-0.00707411021267,-0.213876062149,-0.0123731932963,0.0873476071545,-0.029764670202,0.573774387254,0.818998723074,0.00218884350931,0.0,0.81895622117,-0.573712365128,-0.0120655214519,0.0,-0.00862604615382,0.00871562198982,-0.999924811804,0.0,0.65108097746,0.247442981127,0.303427695399,1.0,-0.0289085714286,-0.037994122449,1.026
0.457016090354,0.489271701607,-0.124107954317,-1.44791275074,0.0740375710372,1.92786178592,0.14674258102,-0.0199400561436,-0.166100985398,-0.00233749076275,-0.271489730694,-0.0173850315756,0.0938473658244,-0.0354520528429,0.573730464573,0.819029617327,0.00214169616387,0.0,0.818986229199,-0.573668378291,-0.0121200260822,0.0,-0.00869820442636,0.00870781551254,-0.999924254726,0.0,0.65054179597,0.246785313164,0.303380523574,1.0,-0.03498,-0.0459737142857,1.043
0.456540010879,0.486284441288,-0.124139540625,-1.45259440751,0.0737591892754,1.92962804316,0.146073397804,-0.0306532826602,-0.198635894503,-0.00544044258746,-0.308282010435,-0.0247048406136,0.117726797491,-0.0503391219855,0.573752445679,0.819014065119,0.0021997989075,0.0,0.818971439535,-0.573690110117,-0.0120907271074,0.0,-0.00864063904006,0.00873882497531,-0.999924483296,0.0,0.649968737301,0.246016658295,0.303381909561,1.0,-0.0406942857143,-0.0534839183673,1.059
0.455967084626,0.482609219483,-0.124208541712,-1.45829212275,0.0734068727828,1.93165903843,0.145186398783,-0.0374799886941,-0.225400112012,-0.00292594568599,-0.360457635155,-0.0237155547962,0.12131243636,-0.0546359091575,0.573729685846,0.819030016152,0.00219707125982,0.0,0.818987414871,-0.573667425456,-0.0120849556994,0.0,-0.0086377195514,0.00873303968634,-0.999924559064,0.0,0.649249298662,0.245058670275,0.303398807976,1.0,-0.0467657142857,-0.0614635102041,1.076
0.455292511588,0.478428552927,-0.124303273047,-1.46486237344,0.0730251572877,1.93396725173,0.144211010049,-0.0405136627258,-0.25514641962,-0.00754071598014,-0.40610606265,-0.0208491180849,0.142558715695,-0.0533889819998,0.573769111232,0.819002582088,0.00212707105782,0.0,0.818958892887,-0.573706973693,-0.0121403047526,0.0,-0.00872279338112,0.00870788328034,-0.999924039937,0.0,0.648409731429,0.243937802105,0.303372388656,1.0,-0.0528371428571,-0.0694431020408,1.093
0.454570541787,0.473993656512,-0.124376670446,-1.47164711358,0.0726079961012,1.93645625204,0.143254804272,-0.0517101801861,-0.288866003212,-0.00475232906736,-0.430843224338,-0.0237855460141,0.160093855331,-0.0540576653463,0.573845326207,0.818948894563,0.00223530424895,0.0,0.818906747837,-0.573782843214,-0.012072037172,0.0,-0.00860396792279,0.00875815646355,-0.999924630375,0.0,0.647560907657,0.242784051485,0.303430270942,1.0,-0.0585514285714,-0.0769533061224,1.109
0.453705895987,0.468829787088,-0.12440838288,-1.4795177897,0.0721431555222,1.93933971448,0.142035726695,-0.051968969981,-0.312957391852,-0.000855155848315,-0.475874381271,-0.0271296891324,0.180670575531,-0.0728936453766,0.573828683678,0.818960092596,0.00239904658098,0.0,0.818919805181,-0.573765234871,-0.0120230959826,0.0,-0.00847010935008,0.00886399475954,-0.999924840598,0.0,0.64655942526,0.241463894592,0.303502858476,1.0,-0.0646228571429,-0.0849328979592,1.126
0.452758935576,0.463157295405,-0.124453697018,-1.48815044305,0.0715772962912,1.94244761089,0.140643081974,-0.0616205867955,-0.34320452466,-0.000241377208527,-0.526084215076,-0.0384415095302,0.180507286011,-0.0807731774814,0.573749148301,0.819015480949,0.00251071515191,0.0,0.818976761556,-0.573685378814,-0.0119539561502,0.0,-0.00835027534127,0.00891496116494,-0.999925395402,0.0,0.645442430486,0.240000310651,0.303576666362,1.0,-0.0706942857143,-0.0929124897959,1.143
0.451694241539,0.457052226314,-0.12451226783,-1.49767676163,0.0709558473998,1.94563898791,0.139248823628,-0.0611577872936,-0.373213007043,-0.00224231202539,-0.569702732092,-0.0393726180984,0.19013517944,-0.0900910045357,0.573784803218,0.818991005959,0.00234065274379,0.0,0.818949718667,-0.573721354728,-0.0120794174446,0.0,-0.00855021639939,0.00884803341951,-0.999924300187,0.0,0.644229165915,0.238459061891,0.303539727926,1.0,-0.0764085714286,-0.100422693878,1.159
0.450543497737,0.450391209663,-0.124589981168,-1.50763256416,0.0702650171454,1.9493107076,0.137629302437,-0.0729853964725,-0.407622847579,-0.00361729321977,-0.583536693794,-0.0480187894871,0.228600757795,-0.098338911914,0.573732670989,0.819026785963,0.00258708628156,0.0,0.818989392908,-0.573668963575,-0.0118760867648,0.0,-0.00824286076755,0.0089326671851,-0.999926128623,0.0,0.642869531416,0.236618951478,0.303678774711,1.0,-0.0828371428571,-0.108871673469,1.177
0.449290198033,0.443364845854,-0.124619555484,-1.51826663302,0.0695801125117,1.95312078584,0.136030785177,-0.0740412174306,-0.418959964843,0.000164746144973,-0.637355543347,-0.0420082226521,0.216968109777,-0.10018969145,0.573762851205,0.819005080873,0.00275952565982,0.0,0.818969759658,-0.573698306237,-0.0118124124113,0.0,-0.00809144637056,0.00903766549416,-0.999926421842,0.0,0.64144999418,0.234786099032,0.303761981378,1.0,-0.0889085714286,-0.116851265306,1.194
0.448011706425,0.436428415774,-0.124659285269,-1.52907439666,0.0688228603054,1.95675070627,0.134278905957,-0.0840996345181,-0.439969457518,-0.00386828527296,-0.680323645408,-0.0465393740651,0.234661765405,-0.108837229904,0.573671473318,0.819069828379,0.0025305813246,0.0,0.819031321605,-0.573607586058,-0.0119489893865,0.0,-0.00833565652838,0.00892759159653,-0.999925404687,0.0,0.639938715962,0.232891084349,0.303674790478,1.0,-0.0946228571428,-0.124361469388,1.21
0.446535276785,0.42851747831,-0.12468543862,-1.54094665682,0.0680197595247,1.96103954589,0.132342470265,-0.0927479934395,-0.461042406362,0.000965592997077,-0.720537374425,-0.0479985897642,0.245742304244,-0.116260699115,0.573607168966,0.819114004248,0.00279475519925,0.0,0.819079043705,-0.573542406688,-0.0118057102377,0.0,-0.00806746728647,0.00906113989809,-0.999926403149,0.0,0.638334418117,0.23080571578,0.303788345422,1.0,-0.100694285714,-0.132341061224,1.227
0.444909087484,0.420300705489,-0.124753591405,-1.55359139126,0.0671019777107,1.96524976837,0.13026001133,-0.0955054117498,-0.482403024954,-0.00659834669161,-0.745031129614,-0.0562775102082,0.250350111111,-0.114320422364,0.573562705054,0.819145875602,0.00256997204673,0.0,0.819107972284,-0.573498774912,-0.0119177101768,0.0,-0.00828862689936,0.00894081081741,-0.999925677521,0.0,0.636544427203,0.22849794978,0.303721938194,1.0,-0.106765714286,-0.140320653061,1.244
0.443270009632,0.412080775241,-0.124859428316,-1.56586852749,0.0662249493939,1.9696590617,0.128239069476,-0.105532022977,-0.51454932238,7.74966584492e-06,-0.78009063676,-0.0484095003815,0.278209628291,-0.131758744893,0.573593453992,0.81912352191,0.00281998094805,0.0,0.819089529067,-0.573529324913,-0.0117133999529,0.0,-0.00797753324581,0.00902872023454,-0.999927417953,0.0,0.634871382725,0.226227141859,0.303833206221,1.0,-0.11248,-0.147830857143,1.26
0.441351408855,0.403108980235,-0.124928387662,-1.57968318162,0.0653020146484,1.97418640301,0.125946109296,-0.118082260876,-0.527870979792,-0.00865728520645,-0.804782571773,-0.0562299617904,0.260922853318,-0.143673185208,0.573640611892,0.81909133342,0.00256569800726,0.0,0.81905307529,-0.573576365908,-0.0119565559624,0.0,-0.00832204785252,0.0089603814366,-0.999925224746,0.0,0.6328642551,0.223641957039,0.303714208683,1.0,-0.118551428571,-0.15581044898,1.277
0.439160324808,0.392999403161,-0.125072641212,-1.59461387425,0.0642168995999,1.97941879687,0.123380338494,-0.122663143166,-0.564566051731,-0.00362650543343,-0.839512109301,-0.0697702425876,0.286172730202,-0.150665335565,0.573724847386,0.819031356697,0.00286061896785,0.0,0.818997632832,-0.573660265058,-0.0117270887077,0.0,-0.0079639832704,0.00907113698971,-0.999927142068,0.0,0.630779929084,0.220755387751,0.303869279914,1.0,-0.12498,-0.164259428571,1.295
0.437231208589,0.384400601403,-0.125135780576,-1.60771794696,0.063230002588,1.98368911728,0.121080103839,-0.132707173449,-0.578912858083,-0.00615108253293,-0.86799124484,-0.0633413670935,0.279233577296,-0.161312475027,0.573688993747,0.819057259998,0.00262491873785,0.0,0.819020311606,-0.573625096317,-0.0118627548597,0.0,-0.00821071430928,0.00895556608354,-0.999926188279,0.0,0.628834165121,0.218237020126,0.303773256296,1.0,-0.130337142857,-0.171300244898,1.31
0.434766945377,0.373574284112,-0.125236262429,-1.62371129853,0.0620564588384,1.9891079079,0.118202423462,-0.143761690731,-0.5992413625,-0.00412693955234,-0.901710844989,-0.0588669116035,0.296948688338,-0.161622364559,0.57368771494,0.819057555037,0.0028060941971,0.0,0.819023083121,-0.573623285235,-0.0117585225811,0.0,-0.00802142022126,0.00904414999935,-0.999926927414,0.0,0.626494388678,0.21511458895,0.303868413666,1.0,-0.136765714286,-0.17974922449,1.328
0.43208813671,0.362353114493,-0.125368114037,-1.640297394,0.0607561578469,1.99460395449,0.115278752294,-0.156248781996,-0.643537147673,-0.00609063146968,-0.920499900255,-0.0744965303438,0.311092910875,-0.172250201798,0.573807623876,0.818973422925,0.00284433215426,0.0,0.818939999863,-0.573743670593,-0.0116715028503,0.0,-0.00792688568651,0.0090267084837,-0.999927838905,0.0,0.624028306261,0.211778875018,0.303921498321,1.0,-0.143194285714,-0.188198204082,1.346
0.429731002739,0.352778713031,-0.12545378104,-1.65463175516,0.0596592181744,1.99921341109,0.112602093415,-0.161244672525,-0.650842714633,-0.00343616299077,-0.979142275917,-0.0696869587308,0.31237461584,-0.173687222954,0.573791909073,0.818984962482,0.00268760326181,0.0,0.818949243131,-0.573728219696,-0.0117819353335,0.0,-0.00810743012557,0.00896156236253,-0.999926977322,0.0,0.621825839146,0.208894812912,0.303848329938,1.0,-0.148551428571,-0.195239020408,1.361
0.426884878059,0.341459378824,-0.125579048847,-1.67111238727,0.0584320686157,2.0045961367,0.109506808307,-0.168853539074,-0.671356514894,-0.00580984534272,-0.972667511776,-0.077912487219,0.327796296249,-0.184242378775,0.573882355724,0.81892099769,0.00286150883605,0.0,0.818887306816,-0.573817774067,-0.0117255192535,0.0,-0.0079604425579,0.00907249654912,-0.999927157927,0.0,0.619303258169,0.205509251343,0.303945467543,1.0,-0.154622857143,-0.203218612245,1.378
0.423924081981,0.329996707165,-0.125625941345,-1.68808147025,0.0570644485449,2.00995398826,0.106228261732,-0.180225215822,-0.682440775652,-0.000613118932915,-1.00119582003,-0.0755196062642,0.319760431431,-0.199194195789,0.573779499811,0.818993465053,0.00274530462311,0.0,0.818958148417,-0.573715216081,-0.0117961383562,0.0,-0.00808609287391,0.00901684555894,-0.999926653109,0.0,0.616452099942,0.201842172431,0.30390204264,1.0,-0.161051428571,-0.211667591837,1.396
0.420975453987,0.318733390841,-0.125637920199,-1.70434098046,0.0556998167319,2.01515080256,0.103035880206,-0.186923833819,-0.691337259835,0.00173418106285,-1.01803770429,-0.0791998218211,0.318766210828,-0.190721071696,0.57370633198,0.819044520737,0.00280438911446,0.0,0.819010121982,-0.573642013392,-0.0117476577745,0.0,-0.00801329359451,0.00903670270644,-0.999927059905,0.0,0.614006883155,0.198695573586,0.303948310184,1.0,-0.166408571429,-0.218708408163,1.411
0.41749867635,0.305721803281,-0.125742192261,-1.72306239164,0.0541423281512,2.02105459778,0.0991999024333,-0.191278423582,-0.725953451904,-0.00397761813847,-1.04870234522,-0.0963746256941,0.329148554318,-0.211926178718,0.573578617067,0.819133603745,0.00290794765401,0.0,0.819100790218,-0.573514229256,-0.0116649563152,0.0,-0.00788756020648,0.00907284641315,-0.999927732315,0.0,0.610972143448,0.194759326892,0.304021072436,1.0,-0.172837142857,-0.227157387755,1.429
0.41393175821,0.293225210827,-0.125824182418,-1.74115094031,0.0526622743238,2.02650298431,0.0955266233616,-0.215557554483,-0.737404369601,-0.00438031266126,-1.04709318705,-0.0788921514771,0.309065039448,-0.209561401432,0.573617082752,0.819107144893,0.00277028190247,0.0,0.81907184525,-0.573552385273,-0.0118203455142,0.0,-0.00809338349545,0.00904958625327,-0.99992629835,0.0,0.607958585895,0.190857040984,0.303978888819,1.0,-0.178908571429,-0.235136979592,1.446
0.41063939863,0.281901456684,-0.125950002146,-1.7572995627,0.0513194874812,2.03149681838,0.092100193813,-0.219387461324,-0.749608602066,-0.0099360446922,-1.08301220401,-0.0867681445123,0.313340928315,-0.232603182988,0.573615060404,0.81910826087,0.00285768327866,0.0,0.819074004949,-0.573549941261,-0.0117892407725,0.0,-0.00801779479693,0.0091033154128,-0.999926419601,0.0,0.605086758697,0.187068234478,0.304014668638,1.0,-0.184622857143,-0.242647183673,1.462
0.406696451638,0.268738445148,-0.126090253138,-1.7759234869,0.049686373537,2.03710197122,0.0880230775532,-0.238454897207,-0.778302054201,-0.0108878395592,-1.11221218552,-0.0956896315682,0.330617759056,-0.240070443609,0.573603433935,0.819116126844,0.00293568117131,0.0,0.819083148205,-0.573538342941,-0.0117180375559,0.0,-0.00791486020821,0.00912624926556,-0.999927030619,0.0,0.601927524433,0.182889098312,0.304084730099,1.0,-0.190694285714,-0.25062677551,1.479
0.402175143198,0.254552661274,-0.12629358823,-1.79598143783,0.047910762828,2.04300444218,0.083610826338,-0.256268579759,-0.787268052628,-0.0158654202899,-1.10721952059,-0.0940538142347,0.331866284923,-0.242903539956,0.573770587751,0.818999182981,0.00289789750958,0.0,0.818965808101,-0.573705714663,-0.0117262536539,0.0,-0.00794140469688,0.0091016336615,-0.999927044517,0.0,0.598682619699,0.178487371387,0.304092885219,1.0,-0.196765714286,-0.258606367347,1.496
0.3980048508,0.241714061284,-0.126422361793,-1.81419442452,0.0462484788827,2.04824906898,0.0794755296656,-0.26394748556,-0.800148418036,-0.00673327556708,-1.15459921458,-0.100672871645,0.324640546938,-0.263427568126,0.573781271007,0.818992276942,0.0027295149626,0.0,0.818956575849,-0.573716845573,-0.0118260255525,0.0,-0.00811961120784,0.00902107988373,-0.999926343303,0.0,0.595468470907,0.174280707057,0.304015735367,1.0,-0.20248,-0.266116571429,1.512
0.39342192873,0.227684595995,-0.126514515675,-1.83351300278,0.0445348034485,2.05390234012,0.0749116318718,-0.264217491313,-0.80924629602,-0.00291410805813,-1.15994813305,-0.111975451937,0.327239776503,-0.278084950676,0.573716214582,0.819036941496,0.00299006541537,0.0,0.819004488624,-0.573650711857,-0.0117156007149,0.0,-0.00788040834558,0.0091704836504,-0.999926898025,0.0,0.591820674951,0.169534740184,0.304132596671,1.0,-0.208908571429,-0.27456555102,1.53
0.388223865812,0.212546794764,-0.126640322822,-1.85437693995,0.0425350141516,2.05976108356,0.0698464953428,-0.291637088861,-0.842744954086,-0.00758926308921,-1.15693684921,-0.109057724276,0.326121815223,-0.276689857097,0.573688339386,0.819056266275,0.00304447517485,0.0,0.819024760902,-0.57362293821,-0.0116581597983,0.0,-0.00780245826239,0.00918182766576,-0.999927405208,0.0,0.588245170399,0.164831628909,0.304191403276,1.0,-0.21498,-0.282545142857,1.547
0.383339570321,0.19893897736,-0.126795644328,-1.87315674031,0.0407474365169,2.06483262631,0.0651403558579,-0.312934874276,-0.864195430873,-0.00787137718492,-1.16385476977,-0.114569522337,0.320613098617,-0.305361464833,0.573703488048,0.819046108657,0.00292003375289,0.0,0.819012586348,-0.57363804701,-0.0117695083255,0.0,-0.0079648808842,0.00914392842405,-0.99992647192,0.0,0.584756675732,0.160247424037,0.304151951167,1.0,-0.220694285714,-0.290055346939,1.563
0.378171091833,0.185055840107,-0.127001504043,-1.89214255823,0.0389463376532,2.06998648787,0.060245925083,-0.331976040647,-0.859166158182,-0.0126026324426,-1.19716491833,-0.108694086695,0.300198090037,-0.310204454541,0.573822776899,0.818962587343,0.00290656938199,0.0,0.818928417369,-0.573756827018,-0.0118362822155,0.0,-0.00802596280627,0.0091723771897,-0.99992572295,0.0,0.580978979683,0.155198790928,0.304127974982,1.0,-0.226765714286,-0.298034938775,1.58
0.372040200499,0.169131959057,-0.127192301625,-1.91359349798,0.0368126812971,2.07563506532,0.0545464053466,-0.341649947331,-0.866861929117,-0.0116028313684,-1.21062264467,-0.12650657334,0.309695088993,-0.319725987729,0.573904771741,0.818904881666,0.00297567767346,0.0,0.818871723965,-0.573838692986,-0.0117898695228,0.0,-0.00794737573114,0.00920313787268,-0.999926068003,0.0,0.577123484007,0.150042575451,0.304181123372,1.0,-0.232837142857,-0.306014530612,1.597
0.366469521419,0.154687661409,-0.127308219628,-1.93282111646,0.0348647481778,2.08061733346,0.0492136998854,-0.347421888676,-0.901238522969,-0.00550120944438,-1.19771924321,-0.120171782988,0.317874639156,-0.32778454463,0.57377655944,0.818994274641,0.00309593999619,0.0,0.81896267547,-0.573710073283,-0.0117317902093,0.0,-0.00783224784561,0.00926706394441,-0.999926386,0.0,0.573371527543,0.145189716078,0.304251248374,1.0,-0.238551428571,-0.313524734694,1.613
0.360220941868,0.139206517388,-0.127468263954,-1.95345607076,0.0327186107437,2.08575691378,0.0433982448384,-0.374641616742,-0.941800453901,-0.0143036973842,-1.20057694896,-0.119778044568,0.313005351457,-0.34684923653,0.573750872032,0.819012507746,0.00303247414061,0.0,0.818979835697,-0.573684318713,-0.011793137214,0.0,-0.00791919649156,0.00925003602583,-0.999925858832,0.0,0.569261836935,0.139855972897,0.304230132216,1.0,-0.244622857143,-0.321504326531,1.63
0.353209187637,0.122514416306,-0.127674529119,-1.97546107088,0.0303760949338,2.09109127929,0.0368902355536,-0.40486727322,-0.927470835778,-0.0129472291029,-1.21567745273,-0.129348384912,0.290893178435,-0.363419490306,0.573718595407,0.819035263234,0.00299295261031,0.0,0.819001912911,-0.573651996502,-0.0118321789635,0.0,-0.00797421209996,0.00923975290251,-0.99992551668,0.0,0.56480926409,0.134019083425,0.30422427967,1.0,-0.251051428571,-0.329953306122,1.648
0.346976509929,0.108291165945,-0.127890943652,-1.99387649579,0.0283235005567,2.09551123839,0.031255065031,-0.420620502743,-0.958521861507,-0.0110345667241,-1.24045720142,-0.14042659802,0.288430530283,-0.381811735387,0.573796460767,0.818980340921,0.00309349287713,0.0,0.818948968497,-0.573730286311,-0.011700105525,0.0,-0.00780747617565,0.00924706997636,-0.999926764825,0.0,0.561056771022,0.128960766656,0.304298396319,1.0,-0.256408571429,-0.336994122449,1.663
0.339793747555,0.0920369285462,-0.128011934443,-2.01479241454,0.0260401992331,2.10034071297,0.0246011647876,-0.430950651006,-0.944861782853,-0.00662800318953,-1.23818467382,-0.134157854764,0.272437712334,-0.399235217896,0.573639103056,0.819090152247,0.00320138085237,0.0,0.819059951809,-0.573572315329,-0.0116765291145,0.0,-0.00772805537135,0.00932041598158,-0.999926700817,0.0,0.556663446496,0.123306965195,0.304349243551,1.0,-0.26248,-0.344973714286,1.68
0.332641188025,0.0764762472757,-0.12821661649,-2.0345335661,0.0238671546538,2.10471522761,0.0180621170724,-0.45270421041,-0.977877976933,-0.0121389501744,-1.22821171027,-0.152023976426,0.281283149922,-0.418442945328,0.573587430599,0.819125760523,0.00334586432378,0.0,0.819097207438,-0.573519900321,-0.0116376803208,0.0,-0.0076139505622,0.00941599656454,-0.999926680695,0.0,0.5521894864,0.117437275037,0.304433019559,1.0,-0.268551428571,-0.352953306122,1.697
0.324178652971,0.0589175598065,-0.128477609825,-2.05683700226,0.0212709635035,2.1094247813,0.0104519364371,-0.483966437933,-0.99899527207,-0.0144445806343,-1.21351764654,-0.150617371763,0.263224466033,-0.435408239239,0.573624312266,0.819100264417,0.00326375709996,0.0,0.819070381363,-0.573556722303,-0.0117108315814,0.0,-0.00772054406466,0.00939104529123,-0.999926098003,0.0,0.547594434977,0.111397389746,0.304407973076,1.0,-0.26998,-0.354830857143,1.714
0.315873979368,0.04245964909,-0.12867041641,-2.0776627577,0.0188613232032,2.11361894539,0.0031257627901,-0.485469065835,-0.968605317592,-0.0039877136739,-1.22684301224,-0.130063619428,0.22827025891,-0.433109893372,0.573706016975,0.819043600057,0.00311996700022,0.0,0.819010859321,-0.57363773781,-0.0119039899224,0.0,-0.00796030920965,0.009384858186,-0.99992427609,0.0,0.542951401726,0.105337902951,0.304317482581,1.0,-0.26998,-0.354830857143,1.731
0.307358265386,0.0259593011395,-0.128855028444,-2.0979031298,0.0163996092029,2.11761538695,-0.00440629488974,-0.50672073063,-0.967683612746,-0.0115624195336,-1.19275859136,-0.155501696805,0.234998720004,-0.447140587662,0.573714824606,0.819036825621,0.00327493598718,0.0,0.819006497396,-0.573646466452,-0.0117828541175,0.0,-0.00777208561301,0.0094423737304,-0.999925215335,0.0,0.53838728146,0.0992971160159,0.30441845495,1.0,-0.26998,-0.354830857143,1.748
0.299143820422,0.0105945633144,-0.129058686575,-2.11654987136,0.0141005853129,2.1211069535,-0.0116515451501,-0.520180297069,-0.958548875536,-0.0177241324577,-1.16585024632,-0.139625608934,0.205759248949,-0.465493615304,0.573750083107,0.819011581375,0.00340860812386,0.0,0.818983198839,-0.573681527257,-0.0116949648826,0.0,-0.00762300293474,0.00950176279657,-0.999925800412,0.0,0.53410025194,0.0936005994707,0.304509363603,1.0,-0.26998,-0.354830857143,1.764
0.290126301591,-0.00550923648007,-0.129246266689,-2.13601752665,0.0117299076532,2.12455548782,-0.0195683210204,-0.530362293151,-0.946379058529,-0.00638767520008,-1.12442376127,-0.133002692831,0.218586193822,-0.467664971397,0.573812804117,0.818967279337,0.0034940103123,0.0,0.818939446021,-0.573743255539,-0.0117306170438,0.0,-0.00760247304499,0.00959274581956,-0.99992508801,0.0,0.529531321592,0.0875318432834,0.30454317039,1.0,-0.26998,-0.354830857143,1.781
0.280487905993,-0.0223974023807,-0.129419944795,-2.15637461449,0.00907283008573,2.12791322629,-0.0280755235618,-0.537960051848,-0.950353104387,-0.00975750987304,-1.11831206801,-0.149660074108,0.169560201488,-0.477021289736,0.573722860834,0.819030861286,0.0033576954835,0.0,0.819001022969,-0.573653498204,-0.0118209676276,0.0,-0.00775573285913,0.00953209892337,-0.999924490998,0.0,0.524621544285,0.0811744282573,0.304496832979,1.0,-0.26998,-0.354830857143,1.799
0.272149526357,-0.036452795268,-0.129629860021,-2.17286210707,0.00686857405163,2.13064784116,-0.0352710313994,-0.566194380015,-0.936599122219,-0.013554579286,-1.10548058612,-0.153569544535,0.175077454649,-0.480840269348,0.573836498701,0.818950509218,0.00353314460026,0.0,0.818923866128,-0.573767686266,-0.011622847523,0.0,-0.0074914769291,0.0095631746839,-0.999926209009,0.0,0.520630458521,0.075799827685,0.304592697857,1.0,-0.26998,-0.354830857143,1.814
0.261948301935,-0.0531689056101,-0.129801997656,-2.19227493629,0.00440598325926,2.13355109498,-0.0442162214543,-0.556919947436,-0.928640932953,-0.00312125550678,-1.06830872359,-0.145567724418,0.171053109308,-0.493867036051,0.573855166181,0.818936478044,0.00374700910626,0.0,0.818912123171,-0.573785058562,-0.0115925836463,0.0,-0.0073437531733,0.00972112235931,-0.999925781781,0.0,0.51579798033,0.0694343513409,0.304685615387,1.0,-0.26998,-0.354830857143,1.832
0.252151086719,-0.0685821589389,-0.129961112566,-2.21039757851,0.00193941246617,2.13599840283,-0.052855626298,-0.574513766001,-0.899532400916,-0.00672273583707,-1.04140187513,-0.145856739727,0.147188623892,-0.510951593134,0.573748862998,0.819011908624,0.00353307827184,0.0,0.818983988454,-0.573678440893,-0.0117906747599,0.0,-0.00762999910561,0.00965860673014,-0.999924244345,0.0,0.511157402675,0.0634372624525,0.304572352262,1.0,-0.26998,-0.354830857143,1.849
0.242595531397,-0.0831176316659,-0.130223446976,-2.22697243235,-0.00034623780425,2.13817105997,-0.0611905379213,-0.602623593091,-0.89186961034,-0.017423488532,-1.03314550161,-0.142399439979,0.123916823627,-0.532299538626,0.573833849982,0.81895194593,0.00362901816006,0.0,0.8189254199,-0.573763283257,-0.0117302314323,0.0,-0.00752444335204,0.00970328590285,-0.999924611656,0.0,0.506877356094,0.05769062815,0.304619225023,1.0,-0.26998,-0.354830857143,1.865
0.232377039899,-0.0984699512907,-0.1303470468,-2.24433279095,-0.00272460487058,2.14021005873,-0.0701906673033,-0.600533335623,-0.904905013921,-0.0128744236688,-1.01457570808,-0.147323395053,0.123715966355,-0.533030482235,0.573724107493,0.819028593028,0.00368227984957,0.0,0.819002336891,-0.573652834316,-0.0117620044885,0.0,-0.00752121252158,0.00976412931911,-0.999924043686,0.0,0.502268179543,0.0517507753073,0.304641268927,1.0,-0.26998,-0.354830857143,1.882
0.221814359754,-0.11354709334,-0.130573881548,-2.26148340795,-0.00521319716676,2.14194272809,-0.0793551823165,-0.632018889146,-0.893186293738,-0.0176640568982,-1.008009838,-0.151796595694,0.0974624767959,-0.540020058806,0.57376548839,0.819000756626,0.00341641334715,0.0,0.818970075732,-0.573693930857,-0.0120014855071,0.0,-0.00786940161872,0.00968416494119,-0.999922141703,0.0,0.497599719959,0.0456891226053,0.304520166695,1.0,-0.26998,-0.354830857143,1.899
0.211594135227,-0.12777109895,-0.130788428367,-2.27709477259,-0.00741814543931,2.14349622673,-0.0882720007694,-0.641000080895,-0.869004510504,-0.0133295588663,-0.989685968416,-0.133885368289,0.0790526222929,-0.567802811447,0.573832351036,0.818953195308,0.00358381099188,0.0,0.818924647646,-0.573760107859,-0.0119376299184,0.0,-0.00772026102375,0.00978525779214,-0.999922320133,0.0,0.493309499153,0.0399851253715,0.304590692794,1.0,-0.26998,-0.354830857143,1.915
0.199307933483,-0.144498114988,-0.131008744833,-2.29526268652,-0.0100805531257,2.14506814548,-0.0991263529239,-0.654672357739,-0.891138209196,-0.0119081782028,-0.944689410514,-0.138010955823,0.0930557186845,-0.574638827077,0.573738339751,0.819018531003,0.00370273884039,0.0,0.818991660992,-0.573665853606,-0.0118699002643,0.0,-0.00759767971892,0.00984291861043,-0.99992269312,0.0,0.488191983114,0.0332896373868,0.304655556646,1.0,-0.26998,-0.354830857143,1.934
0.187916568931,-0.159199237813,-0.131295990061,-2.31124417286,-0.0125322331733,2.14620623378,-0.109039143703,-0.666546958741,-0.872496150988,-0.00988583948594,-0.931724346134,-0.146955808513,0.0552747663259,-0.585877284096,0.573830323792,0.818954571279,0.00359396427283,0.0,0.818925937957,-0.573757767756,-0.0119615626549,0.0,-0.00773406040192,0.00980728675508,-0.999921997676,0.0,0.483574351275,0.0271812863963,0.304610367032,1.0,-0.26998,-0.354830857143,1.951
0.177876446617,-0.172153794768,-0.131409932151,-2.32488882792,-0.0144458019431,2.14707971742,-0.118005049,-0.673889277396,-0.842278209594,-0.00890312611277,-0.907094406922,-0.126613146534,0.0471368582548,-0.607271146015,0.573705469805,0.819040917057,0.00384148448559,0.0,0.819015089145,-0.573631501475,-0.0119134868753,0.0,-0.00755418214373,0.00998125851337,-0.999921651336,0.0,0.479559583626,0.0220003806561,0.30470203423,1.0,-0.26998,-0.354830857143,1.966
0.165298206494,-0.187366116522,-0.13172182041,-2.34106668831,-0.0170087576804,2.14785937363,-0.128989396053,-0.705509321892,-0.830673304231,-0.0158129948132,-0.889682705292,-0.13977650657,0.0335843974882,-0.607524014424,0.573802425106,0.818973592435,0.00371197230887,0.0,0.818945604914,-0.573728297423,-0.0120284591261,0.0,-0.00772147549141,0.00994205384007,-0.999920764052,0.0,0.474679125466,0.0155371194319,0.304647220364,1.0,-0.26998,-0.354830857143,1.984
0.153312638264,-0.201667531341,-0.131896660424,-2.35586514733,-0.01929889377,2.14853202264,-0.139707780501,-0.703276957195,-0.815161326025,-0.0144796561666,-0.87907264379,-0.131773683622,0.0179974722554,-0.62895673467,0.573643377469,0.819084255959,0.00387350323725,0.0,0.819058828176,-0.573569283362,-0.0119021036762,0.0,-0.00752724818096,0.0100003825126,-0.999921663374,0.0,0.470140405109,0.00958361302009,0.304709979666,1.0,-0.26998,-0.354830857143,2.001
0.141665649311,-0.21497586003,-0.132185929916,-2.36957845621,-0.021390376273,2.14883997159,-0.149973741302,-0.736184169003,-0.857282657943,-0.0265680437878,-0.846081358561,-0.126558718365,0.0169572242237,-0.640031022957,0.573757923057,0.81900380739,0.00391868737969,0.0,0.818977898021,-0.573682225555,-0.0120271998704,0.0,-0.0076023875584,0.010110214224,-0.999919990435,0.0,0.46580294119,0.00387134066813,0.304706356106,1.0,-0.26998,-0.354830857143,2.017
0.128366150787,-0.229757591303,-0.132401697721,-2.38465376844,-0.0238697509137,2.14911719148,-0.161729054729,-0.734740769316,-0.851865670693,-0.0150004516512,-0.81146081368,-0.123405194338,0.00485436740437,-0.671437209793,0.573716573315,0.819032812349,0.00391058822898,0.0,0.819007047332,-0.573641244445,-0.0119969159846,0.0,-0.00758273913142,0.0100858230311,-0.999920385951,0.0,0.460943861632,-0.00248156939769,0.304701788163,1.0,-0.26998,-0.354830857143,2.035
0.116261338962,-0.242771226894,-0.132698512004,-2.39767218035,-0.0260194958383,2.14923372155,-0.172510836543,-0.771703342285,-0.81953001943,-0.0266144612403,-0.762314726361,-0.122449044264,0.0114231042812,-0.678854948488,0.57373434932,0.81901982181,0.00402178987729,0.0,0.81899593972,-0.573659204383,-0.011896001393,0.0,-0.00743606732731,0.010119169024,-0.999921150552,0.0,0.456652824443,-0.00818363045994,0.304741744695,1.0,-0.26998,-0.354830857143,2.051
0.104665774363,-0.254795926646,-0.132934420106,-2.40964551687,-0.0279587073456,2.14918583968,-0.182825092118,-0.7719760683,-0.783667842811,-0.00816415159346,-0.81691536397,-0.135339874914,-0.000411585232161,-0.685105477947,0.57377324496,0.81899219672,0.00409780205653,0.0,0.818969077604,-0.57369751855,-0.0118976484724,0.0,-0.00739332473129,0.0101827215908,-0.999920822331,0.0,0.452607617642,-0.0135143410535,0.304742596725,1.0,-0.26998,-0.354830857143,2.066
0.0905354944124,-0.269087894728,-0.13323735135,-2.42359478897,-0.0303125308043,2.14900196253,-0.195456119951,-0.806009533335,-0.816323873803,-0.029090539697,-0.756995521859,-0.133282238724,-0.00632493957239,-0.70730433473,0.573780966053,0.818986019854,0.00424843267535,0.0,0.818965545801,-0.573705692172,-0.0117456571413,0.0,-0.00718231726591,0.0102189512327,-0.999921990634,0.0,0.447785810512,-0.0198969295527,0.304798965998,1.0,-0.26998,-0.354830857143,2.084
0.0769344065904,-0.282332767145,-0.133476673755,-2.43643064573,-0.0325002142259,2.14860323446,-0.207698916107,-0.795921376056,-0.792841420941,-0.0109740561111,-0.761818272628,-0.128039783973,-0.0253283181779,-0.739853236308,0.573708729777,0.81903633423,0.00430389256482,0.0,0.819016731533,-0.573633505697,-0.0117022011582,0.0,-0.0071158079603,0.0102388121122,-0.99992226298,0.0,0.443211526925,-0.0258905023878,0.304814836547,1.0,-0.26998,-0.354830857143,2.101
0.0630147069787,-0.295362968992,-0.133790973457,-2.44886840613,-0.0345777513478,2.14804612278,-0.220266267464,-0.830895502458,-0.781048510893,-0.0264081694353,-0.713444065313,-0.12069239308,-0.0203646054727,-0.740540081931,0.573732732746,0.81901876489,0.00444533862705,0.0,0.819000780592,-0.57365674258,-0.0116794684457,0.0,-0.00701574041928,0.0103418282662,-0.999921909938,0.0,0.438649464953,-0.0319245595564,0.304845864906,1.0,-0.26998,-0.354830857143,2.118
0.0497005432766,-0.30743502073,-0.133999749537,-2.460276399,-0.0365890084854,2.14741338575,-0.232272700791,-0.826216660523,-0.750087219166,-0.00897773506531,-0.730383552942,-0.122311257545,-0.0491674072179,-0.75331065168,0.573683188662,0.819053178896,0.00449845394861,0.0,0.819036295291,-0.573607654542,-0.0115996787879,0.0,-0.00692053940872,0.0103391368315,-0.999922601197,0.0,0.434355758887,-0.0375599113984,0.304869295646,1.0,-0.26998,-0.354830857143,2.134
0.0352271834082,-0.320013130381,-0.134355476543,-2.47214326258,-0.0386743746598,2.14649967032,-0.245361808723,-0.865410195722,-0.737041485857,-0.0255370843,-0.674075519724,-0.120072640244,-0.0537716228747,-0.786943359766,0.573745431752,0.819009685202,0.00447906136983,0.0,0.818991606558,-0.573668547121,-0.0117427991841,0.0,-0.00704810533251,0.0104058914006,-0.999921017699,0.0,0.429730965904,-0.0436169973903,0.304828337486,1.0,-0.26998,-0.354830857143,2.151
0.0214419939823,-0.331679299737,-0.134568381883,-2.48281985718,-0.0405459680177,2.14570485448,-0.257960871573,-0.866576355884,-0.704825713366,-0.0181599328093,-0.665280997951,-0.11286033426,-0.0529126727405,-0.796168516032,0.573656120121,0.819071164725,0.00467224413708,0.0,0.819056465919,-0.5735799744,-0.0115440679833,0.0,-0.00677563798826,0.0104493582031,-0.999922447814,0.0,0.425485606142,-0.0492332125096,0.304900934708,1.0,-0.26998,-0.354830857143,2.167
0.0054953279773,-0.34449767183,-0.134927003887,-2.49465739839,-0.042760399312,2.14447023573,-0.272403390025,-0.90307125868,-0.704775790524,-0.021829973704,-0.656721007538,-0.12932569597,-0.0672201997067,-0.818840781095,0.573727921052,0.819021410601,0.00457695127921,0.0,0.819004771713,-0.573650978862,-0.0116826907483,0.0,-0.00694293494781,0.0104514320354,-0.999921278513,0.0,0.420576461514,-0.0556617623464,0.30484871495,1.0,-0.26998,-0.354830857143,2.185
-0.00967711294907,-0.356417600425,-0.135159830864,-2.50520715659,-0.044703784574,2.14329656332,-0.28641897215,-0.89946089814,-0.679128247813,-0.017323429018,-0.623201828612,-0.114385535192,-0.0717504701523,-0.827760059513,0.573571850859,0.819129715251,0.0047527250672,0.0,0.819116458732,-0.573496113519,-0.011453458623,0.0,-0.00665632710076,0.0104626182253,-0.999923110509,0.0,0.416070645846,-0.0616232691781,0.304960109733,1.0,-0.26998,-0.354830857143,2.202
-0.0234716044777,-0.366641506096,-0.135497426783,-2.5144455807,-0.0464000181965,2.14210845975,-0.299037199714,-0.912059159273,-0.671808293279,-0.00989646170502,-0.60942863185,-0.115596223353,-0.0862340933847,-0.84945351516,0.573651981076,0.819073608399,0.00475137179207,0.0,0.819059323135,-0.573574653314,-0.01160556604,0.0,-0.00678067697456,0.0105494144233,-0.999921363046,0.0,0.411710369544,-0.0673364457656,0.304912240217,1.0,-0.26998,-0.354830857143,2.218
-0.0401235676282,-0.378642321794,-0.13577650741,-2.52509580132,-0.0484098754575,2.14054643431,-0.314407125826,-0.942970520145,-0.656443729692,-0.0256750546134,-0.56449222077,-0.110898852,-0.0848310111384,-0.859194770336,0.573586116051,0.819119884049,0.00472545561537,0.0,0.81910466611,-0.57350795654,-0.0117011385691,0.0,-0.00687468123319,0.0105824571144,-0.999920372009,0.0,0.407100783665,-0.0733131775478,0.304896188001,1.0,-0.26998,-0.354830857143,2.235
-0.0562080090099,-0.389682878917,-0.136082508939,-2.53464004905,-0.0502770280407,2.13919419632,-0.329271402026,-0.94717411782,-0.651645897511,-0.0175245607588,-0.558609508732,-0.0939824783836,-0.087616206447,-0.882042700188,0.573575530691,0.81912654154,0.0048545275883,0.0,0.819114099339,-0.573498710897,-0.0114920739751,0.0,-0.00662952513531,0.0105681878926,-0.999922178372,0.0,0.402574416207,-0.0793497533884,0.30495926778,1.0,-0.26998,-0.354830857143,2.252
-0.0716362736465,-0.399766636373,-0.136434793528,-2.54341497088,-0.052036664261,2.13765030616,-0.343569760871,-0.974197355008,-0.62609156942,-0.0205509012397,-0.542259379237,-0.106151967368,-0.102505015887,-0.899580545824,0.57359673267,0.819112001139,0.0048025786717,0.0,0.819098150217,-0.573518899898,-0.0116206141374,0.0,-0.00676434509872,0.010599533681,-0.999920943636,0.0,0.398215230967,-0.0850582981859,0.304928806396,1.0,-0.26998,-0.354830857143,2.268
-0.0881122802201,-0.410162156068,-0.136665121747,-2.55231439423,-0.0536451059302,2.13603063155,-0.358984995938,-0.979955325809,-0.610957592598,-0.0102671400642,-0.509992367889,-0.103803165221,-0.083178111725,-0.916160802812,0.573511593302,0.819170853625,0.004930701728,0.0,0.819158168553,-0.573432594984,-0.0116490687858,0.0,-0.00671528182422,0.0107201069923,-0.999919988947,0.0,0.393390842533,-0.0913404500128,0.30494488321,1.0,-0.26998,-0.354830857143,2.286
-0.106083006588,-0.420852878844,-0.137050223639,-2.56122591583,-0.0555312556666,2.134370133,-0.375696522045,-0.998748247284,-0.583957640918,-0.0110367341686,-0.489219679952,-0.0962990866774,-0.110435064337,-0.93375369011,0.573588541621,0.819116483846,0.00501175756432,0.0,0.819105849415,-0.573510906894,-0.0114714440431,0.0,-0.00652227685743,0.01068525452,-0.99992163955,0.0,0.3888371819,-0.0974440686983,0.30500369864,1.0,-0.26998,-0.354830857143,2.303
-0.121184364477,-0.429430959787,-0.137373078084,-2.56854245362,-0.057000222647,2.13272998625,-0.389872265869,-1.01845242182,-0.568866215339,-0.0282827713712,-0.475844535595,-0.0949392788764,-0.103148643128,-0.946033582469,0.573588702576,0.819116730351,0.00495269998119,0.0,0.819103620426,-0.573508488187,-0.0117481863832,0.0,-0.00678285113004,0.0107956093196,-0.999918720572,0.0,0.384714896656,-0.102750631846,0.304934106782,1.0,-0.26998,-0.354830857143,2.318
-0.139473260782,-0.439323192889,-0.137669492277,-2.5767916865,-0.0586798477444,2.13095246549,-0.407135331115,-1.02027715946,-0.543151664154,-0.0185989541735,-0.439993797846,-0.0919806795509,-0.100612706382,-0.970926291883,0.5735048862,0.819175163304,0.00499441997889,0.0,0.819162327293,-0.57342412017,-0.0117731411368,0.0,-0.00678047447638,0.0108434034304,-0.99991821954,0.0,0.379877039381,-0.109072054207,0.304922089609,1.0,-0.26998,-0.354830857143,2.336
-0.157248310625,-0.448354098927,-0.138008581683,-2.58398182866,-0.0601881587094,2.12933136851,-0.423791998994,-1.03272446851,-0.523097764038,-0.00975843641552,-0.431030480658,-0.0897473672879,-0.101541509577,-0.988784712632,0.57364676991,0.819074532314,0.0052000756607,0.0,0.819065824343,-0.573567737448,-0.011487943854,0.0,-0.00642701034808,0.0108494350277,-0.999920488488,0.0,0.375358792393,-0.115182026119,0.305037480112,1.0,-0.26998,-0.354830857143,2.353
-0.174052506172,-0.456404822936,-0.138316287136,-2.59069451354,-0.0616406221009,2.12760030422,-0.439713936054,-1.06211009176,-0.498950897278,-0.0264550551741,-0.403710531047,-0.101575434345,-0.109664066269,-1.00494014422,0.573616208662,0.819096476278,0.00511415772323,0.0,0.819085112853,-0.573534889854,-0.0117496775722,0.0,-0.00669110043476,0.010928946374,-0.999917890282,0.0,0.370977466967,-0.120836591059,0.304956825671,1.0,-0.26998,-0.354830857143,2.369
-0.193105032207,-0.465031436719,-0.138572568654,-2.59772607302,-0.0631381545584,2.1258146824,-0.457950929802,-1.06351525539,-0.473691094823,-0.00730223466765,-0.390468501365,-0.0846190263503,-0.0927110443268,-1.0247086474,0.573450453162,0.819212421032,0.00513165636984,0.0,0.819200814952,-0.573368337485,-0.0118119114735,0.0,-0.00673426496935,0.0109776144205,-0.99991706739,0.0,0.366138799349,-0.127144552532,0.304929022644,1.0,-0.26998,-0.354830857143,2.387
-0.209375080269,-0.47193414061,-0.138863362781,-2.60317839473,-0.064410906699,2.12434937172,-0.473284613235,-1.08620311193,-0.459814587544,-0.0153833771043,-0.349196235913,-0.0810025608222,-0.09914300541,-1.01649911451,0.573584239211,0.819118525613,0.00516801961296,0.0,0.81910793344,-0.573502865623,-0.0117219196283,0.0,-0.00663789526568,0.0109568851712,-0.99991793914,0.0,0.362094844582,-0.132519146542,0.304963828248,1.0,-0.269622857143,-0.354361469388,2.402
-0.228895213849,-0.479629702639,-0.139120394551,-2.6091574339,-0.0656477380553,2.12264455179,-0.491916103424,-1.08748314599,-0.417177158849,-0.015648548214,-0.328428651584,-0.0683575652903,-0.0930087169927,-1.02618825852,0.573636831451,0.81908054785,0.00534683444336,0.0,0.819072594025,-0.573555406273,-0.0116201787176,0.0,-0.00645128075586,0.0110454207164,-0.999918186482,0.0,0.357340417215,-0.138854224692,0.305026251236,1.0,-0.263194285714,-0.345912489796,2.42
-0.247175999453,-0.486317748024,-0.139200202783,-2.61457124997,-0.066725047491,2.12100810931,-0.509418847438,-1.0841041084,-0.382618460228,-0.00529323199083,-0.304700815916,-0.0548335701228,-0.102482909934,-1.02341654661,0.573567944276,0.819128731055,0.00535557287561,0.0,0.819119320314,-0.573483835333,-0.0118565004143,0.0,-0.00664079352185,0.0111875771782,-0.999915365408,0.0,0.352852480051,-0.14462741787,0.304957334711,1.0,-0.257122857143,-0.337932897959,2.437
-0.266537750417,-0.492749798757,-0.139289873425,-2.61969378181,-0.0677932170541,2.11944220347,-0.527814046126,-1.06137438409,-0.343526687601,-0.0014926656028,-0.267196882494,-0.0507731843578,-0.0777737426432,-1.01661785162,0.573677315945,0.819051914587,0.00538936763945,0.0,0.819042054132,-0.573591565707,-0.0119823292335,0.0,-0.00672298331572,0.0112883265506,-0.999913683864,0.0,0.348209871913,-0.150710894438,0.304916644924,1.0,-0.250694285714,-0.329483918367,2.455
-0.282490332567,-0.497675163344,-0.139308497675,-2.62348224803,-0.0685696816723,2.11827948994,-0.543002968915,-1.05517945791,-0.31849654105,0.00507506461038,-0.243692299267,-0.0491783276022,-0.0810782731332,-0.996099078032,0.573767215736,0.818988347255,0.00547869583941,0.0,0.81898000059,-0.573681707644,-0.0119081421139,0.0,-0.0066097293017,0.0113196618056,-0.999914084677,0.0,0.34446881422,-0.155677828725,0.304942305652,1.0,-0.245337142857,-0.322443102041,2.47
-0.300156642067,-0.502711896772,-0.1392398408,-2.62732911062,-0.0692640320923,2.1169990025,-0.559953681456,-1.04589536116,-0.288428169287,0.00146597590984,-0.213443384468,-0.0367029797516,-0.0713937773756,-1.00063586975,0.573785660945,0.818974532912,0.00561040438403,0.0,0.81896778972,-0.573699468159,-0.0118922889154,0.0,-0.00652092129639,0.0114185851764,-0.999913543012,0.0,0.340362543664,-0.161094244538,0.304967844806,1.0,-0.239265714286,-0.314463510204,2.487
-0.317654916642,-0.507229254607,-0.139198595257,-2.6307517209,-0.0699807720649,2.11590454933,-0.576716926278,-1.01345151145,-0.25967497447,0.00645183578964,-0.188088999365,-0.0359782548158,-0.0668784029047,-0.996306914489,0.573853221152,0.818926626641,0.00569277203404,0.0,0.818921598466,-0.573767855667,-0.0117732863241,0.0,-0.00637525079443,0.011418292092,-0.999914485735,0.0,0.336345981815,-0.16645386943,0.305000786847,1.0,-0.233194285714,-0.306483918367,2.504
-0.334914354963,-0.511327906594,-0.139113112745,-2.63385021754,-0.0705881657935,2.11481786402,-0.593211044584,-1.01367295147,-0.235705845228,0.00467301670392,-0.1796855513,-0.0387391068581,-0.0597386947025,-0.969211894419,0.573978823693,0.818838023899,0.00577472689746,0.0,0.818834135059,-0.573893277994,-0.0117435785418,0.0,-0.00630213303353,0.0114693297218,-0.999914365131,0.0,0.332387007729,-0.171672826912,0.305021744985,1.0,-0.227122857143,-0.298504326531,2.521
-0.350643899542,-0.514663624681,-0.138915467073,-2.63651323325,-0.071002824122,2.11383179383,-0.608501016904,-0.983470490429,-0.201920379773,0.010992398396,-0.16138536291,-0.0203497645336,-0.0593645823952,-0.94960436282,0.573866296503,0.818916496268,0.00583033260647,0.0,0.818911961373,-0.573778082779,-0.0119439584337,0.0,-0.0064359114384,0.0116289881962,-0.999911668938,0.0,0.32877322771,-0.176330462562,0.304965577319,1.0,-0.221408571429,-0.290994122449,2.537
-0.368206540393,-0.517909869037,-0.138717690477,-2.63912871539,-0.0714824027622,2.11292021753,-0.625356798532,-0.964289563613,-0.170238143969,0.0195354848168,-0.132708129114,-0.0200886062649,-0.0501902774831,-0.920755273515,0.573947639455,0.818859334204,0.00585191011845,0.0,0.818854094892,-0.5738575478,-0.0120926842857,0.0,-0.00654417060798,0.0117326540538,-0.999909755258,0.0,0.324785343387,-0.181536257023,0.304901047603,1.0,-0.21498,-0.282545142857,2.555
-0.383427570455,-0.520409108063,-0.138592838461,-2.64107049746,-0.0717820998402,2.11221519823,-0.640000912861,-0.954221822025,-0.149864060833,0.00755772674336,-0.113580413769,-0.0175484921145,-0.0485102307455,-0.912008061139,0.574089869231,0.818758765191,0.00597104436898,0.0,0.818754620648,-0.573998409148,-0.0121426671173,0.0,-0.00651467059392,0.011860030687,-0.999908445178,0.0,0.321364084437,-0.186045424448,0.304880951758,1.0,-0.209265714286,-0.275034938776,2.571
-0.400049555767,-0.52286534557,-0.138284114435,-2.64291314606,-0.0720797373992,2.11149034803,-0.656189986059,-0.917705868984,-0.136153028227,0.0111232487018,-0.0967177628064,-0.0183506503746,-0.0373726180956,-0.893449269059,0.573990033925,0.818828398978,0.00602004016119,0.0,0.818824931824,-0.573898451177,-0.0121262385142,0.0,-0.00647454139867,0.0118899279487,-0.999908350764,0.0,0.317666687347,-0.190906835305,0.304891357846,1.0,-0.202837142857,-0.266585959184,2.589
-0.414662600822,-0.524738949166,-0.138107263075,-2.64425848932,-0.0723205009529,2.11092575115,-0.670254323727,-0.898096450435,-0.111999115187,0.0169973145017,-0.0799022658451,-0.0190908051571,-0.0412027993792,-0.87398899873,0.57413169324,0.8187285011,0.00609813124588,0.0,0.818726403508,-0.574040394242,-0.0120602188285,0.0,-0.00637359393129,0.0119170843607,-0.99990867603,0.0,0.31442470477,-0.195203850013,0.304922926276,1.0,-0.197122857143,-0.259075755102,2.605
-0.428738629404,-0.526258826958,-0.13782453542,-2.64537246699,-0.0724680259998,2.11047633504,-0.683982527644,-0.877420570486,-0.094632108763,0.0149126188344,-0.0665464849452,-0.0142437642758,-0.0302877385347,-0.850711583463,0.574087821922,0.818758806222,0.00615929029151,0.0,0.818757827264,-0.573996878306,-0.011997953559,0.0,-0.00628813779931,0.011931075873,-0.99990905024,0.0,0.31133195509,-0.199297360152,0.304941900831,1.0,-0.191408571429,-0.25156555102,2.621
-0.443441046596,-0.527563954572,-0.137580115875,-2.6463764283,-0.0726320235326,2.11004742326,-0.698209643731,-0.839522048958,-0.0706435262624,0.0258467582861,-0.0514207514196,-0.00251367926001,-0.034321546571,-0.835679867131,0.574175431042,0.818697054258,0.00620118044391,0.0,0.818696468139,-0.57408400021,-0.0120166825979,0.0,-0.00627814504333,0.0119767990285,-0.99990856641,0.0,0.308079497631,-0.203570161053,0.304932436169,1.0,-0.185337142857,-0.243585959184,2.638
-0.458424654373,-0.528617609684,-0.13723781067,-2.64719863141,-0.0726981029275,2.10969970192,-0.712810218816,-0.834631225098,-0.0484442426428,0.0142653390912,-0.0447990160389,-0.0026221891299,-0.0169281043389,-0.802379100894,0.574171059483,0.818699696746,0.00625682834902,0.0,0.818699760632,-0.57407924689,-0.0120194480808,0.0,-0.0062485234957,0.0120239146082,-0.999908186501,0.0,0.304791397989,-0.207885024808,0.304922826338,1.0,-0.178908571429,-0.235136979592,2.656
-0.471439055436,-0.529287716111,-0.136898629906,-2.64771236434,-0.0727352322531,2.10942010985,-0.725432796156,-0.795834098102,-0.0387133615978,0.0239877825425,-0.0252895531876,0.000147501371964,-0.0139939313733,-0.781682426427,0.574206602499,0.818674646354,0.00627279560839,0.0,0.818674768599,-0.574114424714,-0.0120414905919,0.0,-0.00625688107418,0.0120499148932,-0.999907821247,0.0,0.301946730572,-0.211620291805,0.304918869417,1.0,-0.173194285714,-0.22762677551,2.672
-0.483976153903,-0.529719541294,-0.136569553059,-2.6480643025,-0.072758823023,2.10922267516,-0.737722445773,-0.786366049051,-0.0209937789589,0.0141537932829,-0.0217464082402,0.000285638535104,-0.00616825723115,-0.76716469144,0.574168237071,0.818701468816,0.00628389998934,0.0,0.818701640372,-0.574075835143,-0.0120543128349,0.0,-0.00626156904377,0.0120660750881,-0.999907597023,0.0,0.299038289822,-0.215443704352,0.304910960367,1.0,-0.167122857143,-0.219647183674,2.689
-0.498389066659,-0.529990127048,-0.13613207408,-2.64828103904,-0.0727581815811,2.10903685336,-0.751798892635,-0.738209634079,-0.00787348626994,0.0309124368722,-0.0064726468389,8.42485606643e-05,-0.00225141391371,-0.725061418613,0.574101344313,0.818748614504,0.00625296783751,0.0,0.818748245278,-0.574008829195,-0.0120798080213,0.0,-0.00630118865095,0.0120548725625,-0.999907483255,0.0,0.296074018151,-0.219334119605,0.304903791967,1.0,-0.160694285714,-0.211198204082,2.707
-0.509349123611,-0.530081923032,-0.135806864798,-2.64836984774,-0.0727529758159,2.1089422362,-0.762540339124,-0.730378226304,0.00279609995401,0.0189343524694,-0.00261456104371,2.84074655928e-05,-0.00674645185833,-0.708555484293,0.574048262115,0.8187859942,0.00623180274033,0.0,0.818785317621,-0.573955792123,-0.0120871518065,0.0,-0.00632013301289,0.0120413489078,-0.999907526642,0.0,0.293675601433,-0.222456949551,0.304897228222,1.0,-0.155337142857,-0.204157387755,2.722
-0.521511082706,-0.530066046581,-0.135445943497,-2.64836862537,-0.0727441690572,2.10886543933,-0.774312576813,-0.70029592935,-0.00111356205797,0.0278668269857,0.00225393366523,0.00192150957803,-0.000155272446551,-0.689711141618,0.574116847957,0.818738167858,0.00619711916021,0.0,0.818737076332,-0.574024586989,-0.0120880218878,0.0,-0.00633974818679,0.0120139795535,-0.999907731687,0.0,0.29100347394,-0.225915780477,0.304894734828,1.0,-0.149265714286,-0.196177795918,2.739
-0.533661969651,-0.529859521745,-0.135031726113,-2.64823511082,-0.0727023634425,2.108863928,-0.786277912427,-0.678037322435,0.0167886258344,0.0227080847987,0.00854036525973,0.000692805521268,-0.000482764464566,-0.643765581662,0.574002475174,0.818818734841,0.00614693987521,0.0,0.818817136108,-0.573910735449,-0.0120711330338,0.0,-0.00635639747461,0.0119623102555,-0.999908245463,0.0,0.288347821109,-0.229360193186,0.304890620391,1.0,-0.142837142857,-0.187728816327,2.757
-0.543616295811,-0.5296102737,-0.134762224785,-2.64804128042,-0.0726677774393,2.10886634312,-0.795885958579,-0.653642744049,0.0222967869251,0.0138438052375,0.0186202142386,0.000168410274142,0.000160544885677,-0.630342639145,0.574121886302,0.818735140875,0.00612989940201,0.0,0.818733453291,-0.574030445444,-0.0120551676921,0.0,-0.00635136281778,0.0119401192051,-0.99990854269,0.0,0.286148335327,-0.232194116642,0.30489490999,1.0,-0.13748,-0.180688,2.772
-0.554115745578,-0.529141764403,-0.134265087501,-2.6477266223,-0.0725404934442,2.10890732811,-0.806351266876,-0.608422938723,0.0319224888936,0.0248571384757,0.0204598081098,0.00678612115465,0.00630630216227,-0.609108235467,0.573858363932,0.818920355741,0.00606432181501,0.0,0.818917664102,-0.573766982378,-0.012085373631,0.0,-0.00641757440338,0.0119017021391,-0.999908577933,0.0,0.283744164959,-0.235301393455,0.304883907129,1.0,-0.131051428571,-0.172239020408,2.79
-0.565027952745,-0.52853372579,-0.133876884856,-2.64729760435,-0.0723775144627,2.10899685806,-0.816939025186,-0.595815923024,0.0337783775476,0.0268259892882,0.0280949676761,0.0138091849668,0.00144907719428,-0.571849345932,0.573957762465,0.818850595906,0.00607744947443,0.0,0.818847974787,-0.573866116377,-0.012100477787,0.0,-0.00642096474273,0.0119218998829,-0.999908315554,0.0,0.281490230134,-0.238209944237,0.304873834118,1.0,-0.12498,-0.164259428572,2.807
-0.57417055922,-0.527869302491,-0.133475356717,-2.64681018842,-0.0721838701934,2.10912326019,-0.825952142009,-0.550854357543,0.0466587563316,0.0281589250533,0.0306568143026,0.0165618784126,0.00893720734451,-0.560570487912,0.573890742942,0.81889754136,0.00608102144664,0.0,0.818895058352,-0.573799265607,-0.0120844154453,0.0,-0.00640673580625,0.0119150819726,-0.999908488092,0.0,0.2795217299,-0.240784343895,0.304873743311,1.0,-0.119265714286,-0.15674922449,2.823
-0.583400242332,-0.527076962735,-0.133063076049,-2.64625934632,-0.0719699668092,2.10924308628,-0.835035078523,-0.534453691959,0.0430211721629,0.0190783258783,0.0369260833695,0.00886085148597,0.0106826749484,-0.52731729443,0.57384249483,0.818931291697,0.00608913022242,0.0,0.818928547196,-0.573750310352,-0.0121393105215,0.0,-0.00644774502986,0.0119528449312,-0.999907773788,0.0,0.277523770269,-0.24337462527,0.304855253266,1.0,-0.113194285714,-0.148769632653,2.84
-0.592359267817,-0.526247565007,-0.132706450317,-2.64563845823,-0.0717464779056,2.10937899317,-0.843663491356,-0.519392551546,0.0545065901573,0.0178696139441,0.0397860777684,0.0138913193677,0.00694214675114,-0.503956422539,0.573991630075,0.818826528267,0.00612144674094,0.0,0.818824122708,-0.573899116713,-0.0121493542328,0.0,-0.00643524456789,0.0119862466702,-0.999907454477,0.0,0.275576581522,-0.245904076344,0.304854781308,1.0,-0.107122857143,-0.140790040816,2.857
-0.600598855458,-0.525306523025,-0.132243224607,-2.64496659899,-0.0714667569302,2.10953890084,-0.851856996476,-0.464575293756,0.0648936560383,0.0322700960842,0.0427429492072,0.0200639767823,0.00927895963357,-0.464865270875,0.573859212503,0.818919228589,0.00613581075751,0.0,0.81891667997,-0.57376604768,-0.0121959295522,0.0,-0.00646708584461,0.0120236957964,-0.999906799427,0.0,0.273825505704,-0.248205155,0.30484111167,1.0,-0.101051428572,-0.13281044898,2.874
-0.608012259523,-0.524451340681,-0.131849864557,-2.64433670037,-0.0712205853361,2.10969211236,-0.859134064776,-0.458679705208,0.0540328713211,0.0226291556191,0.0379849201062,0.00875692106771,0.0114706559901,-0.439996907792,0.573843634358,0.818930051986,0.00614818372431,0.0,0.818927563664,-0.573750228066,-0.0122093475047,0.0,-0.00647120436342,0.0120414052979,-0.999906559671,0.0,0.272137294923,-0.250406238931,0.304838440217,1.0,-0.0949800000001,-0.124830857143,2.891
-0.615995112268,-0.523500380862,-0.131410241925,-2.64358468417,-0.0709363452277,2.10987236946,-0.866798903182,-0.434532330646,0.0559702682001,0.0208595271921,0.0378671428159,0.0136292201353,0.0112112869063,-0.41543761303,0.5739452245,0.818858704802,0.00616828538685,0.0,0.81885669782,-0.573852113354,-0.0121740434766,0.0,-0.00642926165167,0.012038407696,-0.99990686633,0.0,0.270530804085,-0.25251351319,0.304856823283,1.0,-0.0889085714286,-0.116851265306,2.908
-0.622172755326,-0.522645288124,-0.131069357846,-2.64292653858,-0.0706902985997,2.11003732625,-0.872819953353,-0.398619375289,0.0542072202466,0.0239964028919,0.045537707496,0.013455667542,0.0101019906495,-0.391818331114,0.57397348123,0.818838710985,0.0061931525392,0.0,0.818837097158,-0.57388038019,-0.0121599527666,0.0,-0.00640303459349,0.0120509054857,-0.999906884077,0.0,0.269220614423,-0.25425333951,0.304864894666,1.0,-0.0835514285715,-0.10981044898,2.923
-0.628944298461,-0.521699442251,-0.130562965179,-2.64221647008,-0.0703663019386,2.11023300194,-0.87954996046,-0.372528906827,0.0429729921562,0.0316300839359,0.0354501701051,0.017597749235,0.0139175668904,-0.357223750017,0.573826255602,0.818941818643,0.00620265756029,0.0,0.818940393174,-0.573733264639,-0.0121457966213,0.0,-0.00638815279416,0.0120494158063,-0.999906997217,0.0,0.267804541843,-0.256116800795,0.304869738595,1.0,-0.0771228571429,-0.101361469388,2.941
-0.635469870072,-0.52080221505,-0.130112393143,-2.64150971452,-0.0701015829499,2.11040236261,-0.885794223614,-0.351372277926,0.054049302472,0.0229681333395,0.0446060043306,0.0228992985517,0.0121791834284,-0.330324986015,0.573888911018,0.818898035031,0.00618651233733,0.0,0.818896585919,-0.573796331497,-0.0121201663467,0.0,-0.00637550506991,0.0120219743581,-0.999907408247,0.0,0.266418148014,-0.257921557447,0.30488694783,1.0,-0.0706942857144,-0.092912489796,2.959
-0.640402538828,-0.520031846253,-0.129749958137,-2.64091095972,-0.0698120317443,2.11057030197,-0.890601696106,-0.323590304684,0.0501282749691,0.0265948553828,0.0409550541204,0.0153730175163,0.0139346522079,-0.328849233703,0.573890623593,0.818896505188,0.00622999548672,0.0,0.818895822109,-0.573798228115,-0.0120819222228,0.0,-0.00631920517704,0.0120356508781,-0.999907601108,0.0,0.265394087483,-0.259287435618,0.304899181634,1.0,-0.0653371428572,-0.0858716734695,2.974
-0.645586298739,-0.519195446313,-0.129416196239,-2.64029888177,-0.0695393794095,2.11074263622,-0.895579585125,-0.295686738381,0.0472151434506,0.014757877937,0.0335991664456,0.0195280366768,0.00312616040125,-0.283018084485,0.573972272576,0.818838931589,0.00627545447626,0.0,0.818838742424,-0.573879468933,-0.0120919784777,0.0,-0.00630014955274,0.0120792781818,-0.999907195271,0.0,0.264292256769,-0.260726572573,0.30489261625,1.0,-0.0592657142858,-0.0778920816328,2.991
-0.650273871496,-0.518438945077,-0.128967425623,-2.63974993756,-0.0692396322104,2.11090730785,-0.90011859542,-0.265465620484,0.0433008819994,0.0271412903195,0.0302612988024,0.0150546286435,0.00374897548032,-0.265820909694,0.573933351527,0.818866104776,0.00628946384505,0.0,0.818866065594,-0.573840431027,-0.0120943473711,0.0,-0.00629462366884,0.0120918106396,-0.999907078597,0.0,0.263326662442,-0.261986684433,0.304888711033,1.0,-0.0531942857144,-0.069912489796,3.008
-0.654254257658,-0.517777840044,-0.128498306726,-2.63927126046,-0.0689870592736,2.11104629447,-0.903988921977,-0.241609210866,0.0411744690851,0.032547795925,0.029839529709,0.0163540701228,0.00741338462424,-0.226132061467,0.573824302363,0.818942782713,0.00625584213411,0.0,0.818942253973,-0.573731458127,-0.0121055984345,0.0,-0.00632474080977,0.012069892417,-0.999907153365,0.0,0.262523668785,-0.263037795338,0.304886078097,1.0,-0.0474800000001,-0.0624022857144,3.024
-0.658315939894,-0.517059717194,-0.128029620419,-2.63873335802,-0.068716289423,2.11121234123,-0.907796871872,-0.219955257246,0.0452964569096,0.0217867535848,0.0273113798401,0.0135174310249,0.0022957594428,-0.216364518689,0.573843810343,0.818929327459,0.00622774913923,0.0,0.818928576375,-0.573751361179,-0.0120875656392,0.0,-0.00632580424513,0.0120366882043,-0.999907546895,0.0,0.261713104467,-0.264124220885,0.30489145279,1.0,-0.0410514285715,-0.0539533061226,3.042
-0.662032842339,-0.516372426634,-0.127586500901,-2.6382648941,-0.068410585875,2.11136663351,-0.911279613615,-0.184898683823,0.0380853612579,0.0266444801083,0.0267827171408,0.0158523090649,0.0102628499596,-0.16924682184,0.573876701746,0.818906113946,0.00624937084693,0.0,0.818905441432,-0.573783761923,-0.0121169075419,0.0,-0.00633694415981,0.0120714871411,-0.999907056849,0.0,0.260970308463,-0.265101006633,0.304874852269,1.0,-0.0342657142858,-0.0450349387756,3.061
-0.664395469998,-0.515970229958,-0.127266021901,-2.63798389709,-0.0682064569303,2.11144325506,-0.913487711999,-0.161780439205,0.0258977600267,0.0240199113699,0.0185098712427,0.0133457726632,0.00343443160382,-0.15122299917,0.573877839236,0.818905264599,0.00625620874378,0.0,0.818904536304,-0.573784592254,-0.0121387401954,0.0,-0.00635088434267,0.0120896244774,-0.999906749276,0.0,0.260499501294,-0.265704629975,0.30486847852,1.0,-0.0292657142858,-0.0384635102042,3.075
-0.666900523291,-0.515565425066,-0.126855583165,-2.63770577072,-0.0679526610745,2.11153907604,-0.915770504518,-0.137293753097,0.0195016978091,0.0231271140093,0.0111292700057,0.0196904144023,0.00592016259929,-0.128528204407,0.573891505202,0.818895658398,0.0062600171154,0.0,0.818894946674,-0.573798174918,-0.0121436268859,0.0,-0.00635249924356,0.0120956535728,-0.999906666103,0.0,0.260016312198,-0.266322085789,0.30486358177,1.0,-0.0231942857144,-0.0304839183675,3.092
-0.668934612466,-0.515223642428,-0.126462469816,-2.63744507885,-0.0677076874827,2.11158739528,-0.917545047192,-0.115511048365,0.0183458312704,0.0187919138968,0.0153811477567,0.0103546001365,0.0115299493951,-0.092921787092,0.573943063329,0.818859488628,0.00626457041415,0.0,0.818858774756,-0.573849583858,-0.0121535596436,0.0,-0.00635725890652,0.012105482774,-0.999906516903,0.0,0.259642824235,-0.266810728074,0.304869474165,1.0,-0.01982,-0.0260491428571,3.109
-0.670574882056,-0.51495333124,-0.126202549906,-2.63723071374,-0.0675256528594,2.11166016088,-0.91909566811,-0.0994852494521,0.0172544462038,0.0192641577242,0.0150476619425,0.00466030596065,0.0018631122916,-0.0948292344662,0.573920682671,0.818875061644,0.0062793566961,0.0,0.818874749342,-0.573827539379,-0.0121180378673,0.0,-0.00632001288361,0.0120970321113,-0.999906855288,0.0,0.259333107546,-0.26722421558,0.304879531926,1.0,-0.0195,-0.0256285714286,3.125
-0.672182639227,-0.514685451615,-0.125994556343,-2.63701297755,-0.0673966487812,2.11169689195,-0.92062432164,-0.0958825574436,0.0169726839158,0.0144324759154,0.0136160115015,0.00360421946288,0.00550543603603,-0.0808249843723,0.573904057803,0.818886717198,0.00627883229686,0.0,0.818886403218,-0.573810930381,-0.0121170005309,0.0,-0.00631970985908,0.0120958790522,-0.999906871152,0.0,0.259010176956,-0.267641066652,0.304887644271,1.0,-0.01916,-0.0251817142857,3.142
-0.673681653944,-0.514395506315,-0.125834654618,-2.63676646861,-0.0673348200382,2.1117679785,-0.922127529826,-0.0918839004574,0.0256775619501,0.0102693490157,0.0106080171804,-4.6871479173e-05,0.00265778956378,-0.0874336759878,0.573815733676,0.818948953214,0.00623399689252,0.0,0.818948260335,-0.573723218656,-0.0120897547973,0.0,-0.00632442503838,0.0120428442911,-0.999907481495,0.0,0.258689236487,-0.268083527602,0.304899264798,1.0,-0.0188,-0.0247085714286,3.16
-0.675121360058,-0.514108496553,-0.125722600036,-2.6365493632,-0.0672788166128,2.11185623221,-0.923528415824,-0.0851489444591,0.0208149316645,0.00855706447121,0.0118365809945,0.00104549012159,0.00912056555356,-0.0817251981196,0.573813452128,0.818950698203,0.0062147382326,0.0,0.818949987135,-0.573721465559,-0.0120559292197,0.0,-0.00630780436991,0.0120076453442,-0.999908009798,0.0,0.258410043163,-0.26846585042,0.304905167641,1.0,-0.01848,-0.024288,3.176
-0.676498769181,-0.51383951949,-0.125663702805,-2.63631151028,-0.0672381754462,2.11189836803,-0.924920725439,-0.0789999430471,0.0171275092555,0.00387331588573,0.0144086499863,0.0088407181003,0.00199859086413,-0.0835250053424,0.573788950503,0.818967921962,0.00620725217335,0.0,0.818967235448,-0.573697234143,-0.0120373460887,0.0,-0.00629723815008,0.0119906631886,-0.999908280188,0.0,0.25811067568,-0.268868820624,0.304918804242,1.0,-0.01814,-0.0238411428571,3.193
-0.677851299133,-0.513546726492,-0.125611128517,-2.63609106974,-0.0671838505351,2.11197225738,-0.926305478268,-0.0810821754078,0.0199112442611,0.00189616590552,0.0117434418648,0.0010026783295,0.00517712085153,-0.0782831454847,0.57375987377,0.8189882384,0.00621446022936,0.0,0.818987703462,-0.573668242453,-0.0120264741277,0.0,-0.00628462338092,0.0119901056356,-0.99990836624,0.0,0.257817736049,-0.269264649209,0.304918272518,1.0,-0.0178,-0.0233942857143,3.21
-0.679101131003,-0.513277315557,-0.125603744186,-2.63589170576,-0.0671542302755,2.11202242848,-0.927549949872,-0.0771371153621,0.0145153410786,-0.0010186778809,0.0123459528644,0.000432156099114,0.000900744642391,-0.0787223832662,0.573782099317,0.818972573627,0.00622680100064,0.0,0.818972112139,-0.573690243198,-0.0120387415856,0.0,-0.00628726524856,0.0120074219676,-0.999908141838,0.0,0.257531570268,-0.269637228682,0.304913682901,1.0,-0.01748,-0.0229737142857,3.226
-0.680480814599,-0.512967574776,-0.125611185111,-2.63566682805,-0.0671194318805,2.1120573592,-0.928988742427,-0.0771280653209,0.0217062945133,0.00159112198358,0.00855667338922,0.00282323614478,-9.64662260267e-05,-0.082486723123,0.573765666093,0.818983882641,0.00625358203698,0.0,0.818983488522,-0.573673158019,-0.0120789154645,0.0,-0.00630504632077,0.0120522794533,-0.999907490196,0.0,0.257209376081,-0.27004937637,0.304904096797,1.0,-0.01712,-0.0225005714286,3.244
-0.68171350165,-0.512713325952,-0.125607600086,-2.63546937626,-0.0670917364729,2.11210413365,-0.930156750944,-0.0771814916238,0.0172614034948,0.000540417955787,0.0123343854156,0.000323194370298,0.00307671143187,-0.0712141182332,0.573838184649,0.818932984526,0.00626510939507,0.0,0.818932719203,-0.573745568681,-0.0120818350523,0.0,-0.00629975577506,0.0120639536352,-0.999907382761,0.0,0.256925086889,-0.270417195044,0.304903820045,1.0,-0.0168,-0.02208,3.26
-0.682926293639,-0.512460851613,-0.125602587854,-2.63528548225,-0.0670638627554,2.11216866625,-0.931367083511,-0.0765671983947,0.016212857857,0.000148254498903,0.0120756351401,0.00615738707189,0.00726512836809,-0.0732004759429,0.573858156326,0.818918903709,0.00627634186991,0.0,0.818918797331,-0.573765510149,-0.0120784785027,0.0,-0.00629026698616,0.012071380152,-0.999907352869,0.0,0.256645776137,-0.270778329084,0.304899571556,1.0,-0.01648,-0.0216594285714,3.276
-0.684222234018,-0.512187507674,-0.12559729644,-2.63505230723,-0.0670310345777,2.11221818573,-0.932701268051,-0.0646172758468,0.0128914408175,-0.000606472666174,0.0134535573578,-0.000103976496995,0.00551199685595,-0.0696313763787,0.573849085715,0.818925171268,0.00628789220431,0.0,0.818925312866,-0.573756577613,-0.0120610320434,0.0,-0.00626948392729,0.0120707587011,-0.999907490899,0.0,0.25635208908,-0.271170440967,0.304908689703,1.0,-0.01612,-0.0211862857143,3.294
-0.685206099144,-0.511976749392,-0.125570998704,-2.63487904819,-0.066999603325,2.11225783206,-0.933674871613,-0.068011296746,0.0154534222299,0.00187768291425,0.00829598411316,4.54748708579e-05,0.0022558561007,-0.0717746678475,0.573862431528,0.818915790049,0.00629169222904,0.0,0.818916006792,-0.573769953098,-0.0120566016224,0.0,-0.00626347807907,0.0120714306116,-0.999907520426,0.0,0.256119728315,-0.271479500675,0.304912458064,1.0,-0.01582,-0.020792,3.309
-0.686451555627,-0.511723527271,-0.125528614726,-2.63466378738,-0.0669659724396,2.11229594094,-0.934973548651,-0.0668424261536,0.010200914654,-0.000754530458648,0.0114124662469,-0.00219491726357,-0.00244285351606,-0.0746608983806,0.573812808916,0.81895058597,0.00628847870812,0.0,0.818950826257,-0.573720481512,-0.0120457531206,0.0,-0.00625716801402,0.0120621945022,-0.999907671394,0.0,0.25585614551,-0.27182644095,0.304921684624,1.0,-0.01548,-0.0203451428571,3.326
-0.687645898601,-0.511457298848,-0.125472856593,-2.63446483209,-0.066940397933,2.11235517534,-0.936175418932,-0.0689873134643,0.0164168400969,0.000227830699146,0.0114125103262,0.00147504530868,0.00255228338883,-0.0686930384085,0.573788217125,0.818967942834,0.00627195344826,0.0,0.818967962021,-0.573695956483,-0.0120488007527,0.0,-0.006269507941,0.0120502208399,-0.999907738468,0.0,0.255593530802,-0.272174225788,0.304919847987,1.0,-0.01512,-0.019872,3.344
-0.688672920383,-0.51121548057,-0.12545071994,-2.63428569493,-0.0668979207972,2.1124078108,-0.937227742131,-0.0613565605737,0.0188092806701,-0.00070639816783,0.0102230058373,0.00386158227332,0.00216368015598,-0.0664040705882,0.57377920946,0.818974137935,0.00628705702475,0.0,0.818974324128,-0.573686827057,-0.0120510489957,0.0,-0.006262816245,0.0120638119093,-0.99990761652,0.0,0.255365098801,-0.272478725712,0.304916685574,1.0,-0.0148,-0.0194514285714,3.36
-0.68984859298,-0.510959019697,-0.125424902779,-2.63409299117,-0.0668736934083,2.11245948659,-0.938447657385,-0.0676061884142,0.0142521474399,-0.000433850915657,0.0106055857934,0.00328297938431,0.000856698460647,-0.0582843166799,0.573743876968,0.818998899849,0.00628590397048,0.0,0.818999008164,-0.573651386318,-0.0120606178909,0.0,-0.00627183600947,0.0120680871327,-0.999907508396,0.0,0.255113735877,-0.27280513373,0.304912725379,1.0,-0.01446,-0.0190045714286,3.377
-0.690875469352,-0.510748540136,-0.125416928629,-2.6339114183,-0.0668515163858,2.11249074251,-0.939455476031,-0.0647997972931,0.00718260766005,0.000890516772205,0.00628618913814,0.00312496310463,0.00207391032899,-0.0573316660069,0.573773650606,0.818978005309,0.00629059539841,0.0,0.818978246466,-0.573681270905,-0.0120489886835,0.0,-0.00625918046375,0.0120654853097,-0.999907619095,0.0,0.254861091311,-0.273132276787,0.304921584214,1.0,-0.01412,-0.0185577142857,3.394
-0.69187977939,-0.510520517762,-0.125403908559,-2.63374244369,-0.0668142954642,2.11254060714,-0.940438443713,-0.0675656433318,0.0130942824893,0.000848224065561,0.0103564219075,0.00172674450396,0.00560939799954,-0.0596665632438,0.573796938362,0.818961584818,0.00630420646956,0.0,0.818961985679,-0.573704459554,-0.0120501452872,0.0,-0.00625197508608,0.0120774744499,-0.999907519433,0.0,0.2546196349,-0.273448428806,0.30491918124,1.0,-0.01378,-0.0181108571429,3.411
-0.692984148755,-0.510295728593,-0.125398136496,-2.63354008026,-0.0667939216478,2.11258540474,-0.941574261781,-0.0607413609096,0.0112796760952,0.000431076569524,0.0127492904982,0.000731462331368,0.00414067810912,-0.0611796952221,0.573795675503,0.818962447088,0.00630713361735,0.0,0.818963053713,-0.57370350839,-0.0120228122818,0.0,-0.00622792698991,0.012064179375,-0.999907830003,0.0,0.254380206628,-0.273764329699,0.304930971953,1.0,-0.01344,-0.017664,3.428
-0.693858456481,-0.510109971099,-0.125381794172,-2.63337887753,-0.0667620000879,2.11264872859,-0.942440139986,-0.0568579052194,0.0106337040218,0.00239834731249,0.00731280999072,0.00426634969837,0.00471595820068,-0.0510642821254,0.573812778346,0.818950433385,0.00631109864778,0.0,0.81895136499,-0.573721121032,-0.0119784792333,0.0,-0.00618908932738,0.0120421191495,-0.999908337069,0.0,0.254188381862,-0.274029080412,0.30494112831,1.0,-0.01314,-0.0172697142857,3.443
-0.694816351236,-0.509891340312,-0.125349277819,-2.63319742753,-0.0667427805618,2.11268848754,-0.943386424924,-0.0596257675518,0.0138283921593,0.00317604048609,0.0112815319274,0.0031888605286,-0.000475824680838,-0.0603627529073,0.573816626094,0.818947822885,0.00629999292191,0.0,0.818948660347,-0.573725113556,-0.0119721631845,0.0,-0.00619023200182,0.012029428653,-0.999908482749,0.0,0.253976044593,-0.274314092463,0.304946643671,1.0,-0.0128,-0.0168228571429,3.46
-0.695835814898,-0.509656606749,-0.1253134356,-2.63300852744,-0.0667160294998,2.11272936811,-0.944436095118,-0.0597444338127,0.0154063598645,0.00170926842809,0.00962602737838,0.00013911097026,0.00149500404749,-0.065283516645,0.573787485161,0.818968282046,0.00629458306834,0.0,0.818969052148,-0.573696007964,-0.0119720078725,0.0,-0.00619363678855,0.0120246885311,-0.99990851868,0.0,0.253749419946,-0.274615005392,0.304949734275,1.0,-0.01244,-0.0163497142857,3.478
-0.696893424551,-0.509403392059,-0.125275663027,-2.63281619892,-0.0666872907093,2.11278875287,-0.945491775385,-0.0571855105508,0.0185289553059,0.00476393084386,0.00693948318044,0.00413102387549,0.0012028072111,-0.0458727001053,0.573784353159,0.818970527251,0.00628796200461,0.0,0.818971239495,-0.573692959837,-0.0119684424527,0.0,-0.00619456135661,0.0120171964161,-0.999908603023,0.0,0.25351575228,-0.274928126342,0.304949135073,1.0,-0.01206,-0.0158502857143,3.497
-0.697707754407,-0.509210588316,-0.125264666744,-2.63265964048,-0.066669480161,2.11283028959,-0.946285365288,-0.0553468366759,0.0134571122131,0.00132330409101,0.0066204032894,0.00362868389167,0.00509424119773,-0.0547466524572,0.573809133741,0.81895317517,0.00628663783535,0.0,0.818953930652,-0.573717858057,-0.0119593359928,0.0,-0.00618749891948,0.0120110742424,-0.99990872031,0.0,0.253332248404,-0.275175005975,0.304952525329,1.0,-0.01176,-0.015456,3.512
-0.698610663239,-0.50899829797,-0.125248364308,-2.63249047772,-0.0666449862461,2.11286600617,-0.947166509339,-0.0557249064733,0.0122870052245,0.000788928903307,0.0113531684664,0.00336840766147,0.000276062765824,-0.0517339405534,0.573834496827,0.818935381203,0.00628956016985,0.0,0.818936159179,-0.573743173104,-0.0119618312779,0.0,-0.00618749377658,0.0120150910086,-0.999908672084,0.0,0.253127420161,-0.275444592233,0.304954030037,1.0,-0.01142,-0.0150091428572,3.529
-0.699420027027,-0.508802560806,-0.125235302538,-2.63233994738,-0.0666283156284,2.11289724118,-0.948004744697,-0.0522739818965,0.00936236460241,0.000985026421429,0.0122850663799,0.000273540978202,0.0017082213835,-0.0519672692022,0.573816428462,0.818948038871,0.00628990913879,0.0,0.818948757989,-0.573724984088,-0.0119716883997,0.0,-0.00619563200149,0.0120208961968,-0.999908551918,0.0,0.252942245608,-0.275686449936,0.304952739799,1.0,-0.0111,-0.0145885714286,3.545
-0.700311706704,-0.508594232614,-0.125205353437,-2.63217905477,-0.0666047215512,2.11293715301,-0.948868654525,-0.0483672545088,0.0119804630235,0.000580619715726,0.00352401251871,0.00438510597503,0.00125387603251,-0.0503533981404,0.573836180753,0.818934229565,0.00628587359182,0.0,0.818934881715,-0.573744721338,-0.0119750218469,0.0,-0.00620038787457,0.012019653363,-0.999908537379,0.0,0.25274199952,-0.275948611828,0.304952610182,1.0,-0.01074,-0.0141154285714,3.563
-0.701115018811,-0.508393830334,-0.125199942144,-2.63202058353,-0.0665840882178,2.11296337829,-0.949642962479,-0.047343391027,0.00692221459249,-8.85655985107e-05,0.0088877526558,-0.000493620743505,0.00105889049916,-0.0483792552308,0.573873040147,0.818908351966,0.00629219948171,0.0,0.818909014712,-0.573781406584,-0.0119862414193,0.0,-0.00620540561113,0.0120315513258,-0.999908363158,0.0,0.252557497743,-0.276191221877,0.304952565497,1.0,-0.0104,-0.0136685714286,3.58
