nelsonifechukwu/NELSON_IML_WORK/CNN-GradCAM/train2dof/data_sample_2022-02-21-09-51-37/robot_state.csv
position_joint1,position_joint2,position_joint3,position_joint4,position_joint5,position_joint6,position_joint7,velocity_joint1,velocity_joint2,velocity_joint3,velocity_joint4,velocity_joint5,velocity_joint6,velocity_joint7,ee_T_00,ee_T_10,ee_T_20,ee_T_30,ee_T_01,ee_T_11,ee_T_21,ee_T_31,ee_T_02,ee_T_12,ee_T_22,ee_T_32,ee_T_03,ee_T_13,ee_T_23,ee_T_33,v_x,v_y,time
0.465086115808,0.547629436023,-0.123968998617,-1.35575770277,0.0794482840269,1.89408913972,0.159166942844,-0.000793912349967,-0.00101984402115,-0.00705223010432,-0.00067793472547,4.17571181964e-06,0.000275852497735,-0.00135663235734,0.573770111596,0.819001933892,0.00210670877901,0.0,0.818961262269,-0.57371134728,-0.0117680841984,0.0,-0.00842960328075,0.00847765108574,-0.999928533057,0.0,0.661691278837,0.260911813909,0.303355988356,1.0,0.0,0.0,0.0
0.465086115808,0.547636997388,-0.123965800036,-1.35575778812,0.0794482882523,1.89408866326,0.159173503486,-0.00079443802574,0.001572898383,-0.0025769230927,-0.000919764251274,0.000115310954729,0.00015371750766,0.00126387081524,0.573773266276,0.818999740228,0.00210031299518,0.0,0.818958969079,-0.573714509975,-0.0117734833819,0.0,-0.00843766224169,0.00847554336125,-0.999928482953,0.0,0.661690228943,0.260913522533,0.303350443789,1.0,-0.0002,-0.000262857142857,0.011
0.46508473273,0.54762557382,-0.123968654503,-1.355761154,0.0794450900488,1.89409160705,0.159167696343,-7.80325068195e-05,-0.000691158853769,-0.000790202954271,-0.00296187408375,0.000138516247094,-0.000110306368055,-0.00164112623717,0.573770973364,0.819001327921,0.00210757899197,0.0,0.818960694328,-0.573712232441,-0.0117644547325,0.0,-0.0084261224286,0.00847629019242,-0.999928573932,0.0,0.661691543245,0.260910389348,0.303357278791,1.0,-0.00054,-0.000709714285714,0.028
0.465085027825,0.547611042894,-0.123960465521,-1.35577403622,0.0794482838642,1.89409234529,0.159169282506,7.14904707046e-05,-0.000483372692286,-0.00019186184778,-0.00269833656513,0.000104418175346,0.00024191104885,-0.00110847031766,0.573767836854,0.819003508389,0.00211412873031,0.0,0.818962878322,-0.573708988765,-0.0117706007393,0.0,-0.0084274308995,0.00848514844018,-0.999928487775,0.0,0.661686984327,0.260914553476,0.303361239968,1.0,-0.00084,-0.001104,0.043
0.465089914636,0.547508776696,-0.123966431032,-1.35586916478,0.0794449322675,1.89410986919,0.159167317652,0.00188640601055,-0.00877574180569,8.85506568553e-05,-0.0109853936782,0.000150108355795,9.23614731447e-06,-0.000422362646632,0.573770635485,0.81900148913,0.00213671686187,0.0,0.818961139286,-0.573711686138,-0.0117601203315,0.0,-0.00840585846907,0.00849766339788,-0.999928563078,0.0,0.661671658282,0.26090503563,0.303390119597,1.0,-0.00118,-0.00155085714286,0.06
0.465083208155,0.547378714136,-0.123960519919,-1.35604555656,0.0794438498627,1.89414710892,0.159170497384,-0.000173443045643,-0.00509783190067,0.000376942247383,-0.0138606353095,-6.13268956828e-05,0.00299491984059,0.00196944843924,0.573783969808,0.818992146643,0.0021369674251,0.0,0.818951650164,-0.573724866367,-0.0117779160567,0.0,-0.00842015151788,0.00850821623974,-0.999928353086,0.0,0.661642533389,0.260887140006,0.303401330167,1.0,-0.00152,-0.00199771428571,0.077
0.465063088641,0.54722091171,-0.123968971213,-1.35625812554,0.0794388263252,1.89423236793,0.159152416895,-0.00154731142081,-0.0107472543418,-0.00104106834773,-0.0134745640598,-0.000840704927872,0.00769494363112,-0.00210304067597,0.573802122144,0.818979354492,0.00216528079624,0.0,0.818939207761,-0.573742888494,-0.0117651517777,0.0,-0.00839326354631,0.00852426651579,-0.999928442443,0.0,0.661622440275,0.260850757802,0.303419606811,1.0,-0.00186,-0.00244457142857,0.094
0.46504211607,0.547008702435,-0.123956629736,-1.35649293434,0.0794358339696,1.8943607757,0.159138145311,-0.000300853930171,-0.0142819391044,0.00120752088175,-0.0117920556911,0.000522668156963,0.00918556586907,-0.00120533451594,0.573811496107,0.818972518832,0.00226433983425,0.0,0.818933556058,-0.573751779251,-0.0117249080629,0.0,-0.00830336834618,0.00858239614759,-0.999928695733,0.0,0.661602617799,0.260827190947,0.303468895043,1.0,-0.00224,-0.002944,0.113
0.465012759125,0.546823303557,-0.123964048735,-1.3567355091,0.0794311674328,1.89448844678,0.159126694049,-0.00145297123732,-0.0100070299996,-0.000557824070534,-0.0132336050373,-8.89714326998e-05,0.00600788717126,0.000289674508008,0.573843879056,0.81894965325,0.00232697498646,0.0,0.818911504688,-0.573783926631,-0.0116918745471,0.0,-0.00824003440752,0.00861506309777,-0.999928938736,0.0,0.661586966329,0.260785039099,0.303496075158,1.0,-0.00256,-0.00336457142857,0.129
0.464973558041,0.54656428582,-0.123960529475,-1.35710169436,0.0794224155298,1.89462616093,0.159082662994,-0.00109647388279,-0.0156073020524,0.000813660277086,-0.0240960864,0.000199214766098,0.00788434900494,-0.00425675255029,0.573855598865,0.818941341842,0.00236160437076,0.0,0.818903512377,-0.573795381298,-0.0116895131721,0.0,-0.00821810614621,0.00864218508469,-0.999928885156,0.0,0.661547172166,0.260729012968,0.303517047559,1.0,-0.00292,-0.00383771428571,0.147
0.464937382544,0.546334622996,-0.123959073956,-1.35744202945,0.0794102105196,1.894750753,0.158975814296,-0.00361734722469,-0.0149665589708,0.00630823885733,-0.0230104838288,-0.000146052167889,0.00928149738965,-0.0032262817495,0.573812474801,0.818971506997,0.00237936767846,0.0,0.818933820308,-0.573752105215,-0.0116904499068,0.0,-0.00820913621439,0.00865683732636,-0.999928832093,0.0,0.661509772895,0.260675025773,0.303528443252,1.0,-0.0032,-0.00420571428571,0.161
0.464898738902,0.546048452953,-0.12397150586,-1.3579059428,0.0793906143332,1.89491458175,0.158949660574,-0.00152081524707,-0.0190943972237,-0.000989669183432,-0.0278787263316,-0.00362184633236,0.0100004949064,-0.000571594838989,0.573852112329,0.81894376511,0.00236847294462,0.0,0.818905913241,-0.573791752672,-0.0116994327531,0.0,-0.00822232557165,0.00865346730417,-0.999928752895,0.0,0.661457549066,0.2605989044,0.303524869259,1.0,-0.00354,-0.00465257142857,0.178
0.464839083908,0.545699161983,-0.123967605935,-1.35848764097,0.0793367738859,1.89511820516,0.158884115301,-0.00745728879288,-0.0112646125032,-0.000960045231604,-0.0304633485297,-0.00485999684875,0.0165466344142,-0.0106757352783,0.573862754807,0.818936406565,0.0023339985167,0.0,0.818898231327,-0.573802650927,-0.0117026244708,0.0,-0.00824460942965,0.00862717367436,-0.99992879661,0.0,0.661391485705,0.260502344329,0.303512756269,1.0,-0.00392,-0.005152,0.197
0.464795540436,0.545435035918,-0.123964481921,-1.35894114611,0.0792539612541,1.89526593233,0.158809253144,-0.00694759310353,-0.0175450460679,-0.000166652495041,-0.0346547751297,-0.00415162812943,0.00750788217662,-0.00889229831528,0.573838177964,0.818953811399,0.00226874565638,0.0,0.818915226662,-0.573778773403,-0.011684076148,0.0,-0.00826711976185,0.00856284419267,-0.999929163706,0.0,0.661339018439,0.260421605849,0.303496460671,1.0,-0.00418,-0.00549371428571,0.21
0.464726333712,0.544965365093,-0.123968623508,-1.35974329112,0.0792426577776,1.89552128975,0.158708519066,-0.00702435797577,-0.0245895460963,0.000453270595906,-0.0397168659469,0.00011922274499,0.0100529108185,0.000816672169773,0.573856838575,0.818940862224,0.00222258917125,0.0,0.818901309846,-0.573797225275,-0.011753123012,0.0,-0.00834995795643,0.00856485609865,-0.999928458162,0.0,0.661237618691,0.260299892349,0.303469420286,1.0,-0.00458,-0.00601942857143,0.23
0.464665874657,0.544601585953,-0.123975715974,-1.36035913785,0.079220950008,1.89573516999,0.158658108253,-0.00277613323399,-0.0267142786277,-0.000560341664706,-0.0435110960907,-0.00170528152234,0.0118844818659,-0.00777027939987,0.573898580383,0.818911682781,0.00219593711803,0.0,0.818871659822,-0.573838937047,-0.0117824433251,0.0,-0.00838882777991,0.00856028298237,-0.999928171982,0.0,0.66116686803,0.260198485213,0.303452540307,1.0,-0.00488,-0.00641371428571,0.245
0.464599905476,0.544154928321,-0.123977155352,-1.36111096282,0.0791872504684,1.89600554737,0.158535094388,-0.00359522340338,-0.0348873524053,0.00567186867474,-0.0440108739745,-0.000587654101609,0.0175073146442,-0.00754756043172,0.573885839498,0.818920676171,0.00217169629182,0.0,0.818880219626,-0.573826171328,-0.0118092296962,0.0,-0.00842480840313,0.00855567355767,-0.999927908928,0.0,0.661079029112,0.260083554963,0.30343425805,1.0,-0.00522,-0.00686057142857,0.262
0.464540966605,0.543689965391,-0.123979560053,-1.36187403601,0.0791547622722,1.89627186391,0.158442330653,-0.00222081785618,-0.0352427211299,0.000168336800851,-0.0501855952693,2.34387374299e-05,0.0174253036653,-0.0028781367759,0.573893624578,0.818915274815,0.00215110298225,0.0,0.818874411351,-0.57383389546,-0.0118366277558,0.0,-0.00845898232927,0.00855461309669,-0.999927629488,0.0,0.660986499656,0.259971543382,0.303423210368,1.0,-0.00554,-0.00728114285714,0.278
0.464461381094,0.543166027504,-0.123981376213,-1.36271842473,0.07910316238,1.89656447929,0.158345848467,-0.00833521278271,-0.0319378230866,2.83781951722e-05,-0.0548894791746,-0.00323791164126,0.0195392897961,-0.0168700505144,0.57391421256,0.818900910861,0.00212643222411,0.0,0.818859706962,-0.573854559223,-0.0118520915447,0.0,-0.00848558910874,0.00854349794276,-0.999927499082,0.0,0.660888239926,0.259836046574,0.303417360258,1.0,-0.00588,-0.007728,0.295
0.46438683251,0.542541208068,-0.123986974488,-1.36372473824,0.0790377422019,1.89692004431,0.158198441513,-0.00293822616807,-0.0324132328764,-0.000428465730516,-0.0548841537893,-0.00631769264719,0.0165202854095,-0.0110166349474,0.573896913348,0.81891310188,0.00210031430176,0.0,0.818871592075,-0.573837400727,-0.0118617081701,0.0,-0.00850863314908,0.00852744960181,-0.99992744025,0.0,0.660768080918,0.25968583485,0.30341129789,1.0,-0.00626,-0.00822742857143,0.314
0.464316426488,0.541941166514,-0.12398993406,-1.36464938392,0.078983847842,1.89726806527,0.158102116149,-0.00241918051552,-0.0360840021703,0.00050455307775,-0.0557839060479,-0.000761679755467,0.0201459716268,-0.00721321368204,0.573914777304,0.818900531999,0.00211990219041,0.0,0.818859276584,-0.573855183601,-0.0118515951696,0.0,-0.00848892416684,0.00853787155701,-0.999927518831,0.0,0.660662106763,0.259550621009,0.3034257738,1.0,-0.0066,-0.00867428571429,0.331
0.464242278035,0.541382326075,-0.123990673922,-1.36549164225,0.0789324376855,1.89757858755,0.157977803165,-0.00422980426519,-0.0407829986191,0.000208684953537,-0.0553407793401,0.000524270395682,0.0160939740312,-0.00552287429473,0.573907193671,0.818905786913,0.00214292193682,0.0,0.818864830881,-0.573847509267,-0.0118394153389,0.0,-0.00846581831196,0.00854965364859,-0.999927614052,0.0,0.660566754084,0.259421324444,0.303446925161,1.0,-0.0069,-0.00906857142857,0.346
0.464158411019,0.540715881779,-0.123990109539,-1.36652494514,0.0788769715713,1.89796034213,0.157835994652,-0.0077636030627,-0.037674872861,0.00150226407581,-0.0593411472802,-0.00820505597707,0.0245429766097,-0.00426193026909,0.57390181509,0.818909513032,0.00215939883758,0.0,0.818868695549,-0.573841989472,-0.0118396566662,0.0,-0.00845661656606,0.00856322942879,-0.999927575746,0.0,0.660446653174,0.259269282289,0.303459277878,1.0,-0.00724,-0.00951542857143,0.363
0.464058800638,0.540041786689,-0.123992729232,-1.36754096853,0.0788111813231,1.89833550662,0.157713729845,-0.00641981609689,-0.0421547735648,0.000511553334222,-0.0666159455985,-0.00458518041589,0.0181608712939,-0.00615454825678,0.573923730637,0.81889408657,0.00218478685793,0.0,0.81885364509,-0.573863848832,-0.0118210755701,0.0,-0.00842660092425,0.00857358154169,-0.999927740437,0.0,0.660334630909,0.259105044383,0.303484671143,1.0,-0.00756,-0.009936,0.379
0.463966645887,0.539309344041,-0.123998127361,-1.36869505835,0.0787477577149,1.89877425909,0.157563750604,-0.00546320468117,-0.0498218653138,-4.78732283287e-06,-0.0644854153921,-0.00572657161454,0.024067574403,-0.0173993912345,0.57392714005,0.818891655344,0.00220036896041,0.0,0.818851390829,-0.573867170729,-0.011815963687,0.0,-0.00841343653802,0.00858344268729,-0.99992776669,0.0,0.660203290183,0.258933198406,0.303491099887,1.0,-0.0079,-0.0103828571429,0.396
0.463854130201,0.538564719453,-0.124002028593,-1.36985224452,0.0786814122157,1.89922822288,0.157430215822,-0.00761984394895,-0.04691748516,-0.000727170302593,-0.068523611173,-0.00583775607353,0.031268780781,-0.00905007181784,0.573959008753,0.818869225175,0.00223500197844,0.0,0.818829424968,-0.573898915365,-0.0117963829948,0.0,-0.00837719107846,0.00860089126921,-0.999927921072,0.0,0.660079448234,0.258749141368,0.303505804939,1.0,-0.00824,-0.0108297142857,0.413
0.463739930807,0.537776576994,-0.124008408074,-1.37107968169,0.078611738607,1.89970349293,0.157272392055,-0.0110267687342,-0.045996938932,0.00065693756318,-0.0726596444284,-0.00247850851229,0.0307532442725,-0.0148429397284,0.573976969435,0.818856552856,0.00226523834198,0.0,0.818817154461,-0.573916766691,-0.0117796167933,0.0,-0.0083459188211,0.00861621065023,-0.999928050688,0.0,0.659945676311,0.258555688736,0.303519607466,1.0,-0.00858,-0.0112765714286,0.43
0.463625211873,0.536967896166,-0.12401510953,-1.37235091225,0.0785354029167,1.90017339743,0.157115851232,-0.00829211235695,-0.044973497443,-0.00167976758496,-0.074212137836,-0.00296282654163,0.0304726494426,-0.0160386332547,0.573997019089,0.818842487085,0.00226943217776,0.0,0.818803158191,-0.573936813326,-0.0117757949906,0.0,-0.00834017115951,0.00861765537303,-0.999928086195,0.0,0.659801526472,0.258355355539,0.303526460564,1.0,-0.00892,-0.0117234285714,0.447
0.463515519619,0.536124859942,-0.124023349357,-1.37367760775,0.0784485031191,1.90067457006,0.156957197587,-0.00545856918255,-0.047812331504,0.000455118727852,-0.082130354642,-0.00657957463696,0.0318487246971,-0.0162057151795,0.574012470858,0.818831633356,0.0022773703236,0.0,0.818792506545,-0.573952335304,-0.0117598863033,0.0,-0.00832242512671,0.00861518101849,-0.999928255374,0.0,0.659651003271,0.258151742326,0.303533765146,1.0,-0.00926,-0.0121702857143,0.464
0.463406742354,0.535294471711,-0.124029394331,-1.37498828507,0.078376551467,1.90114815441,0.156789115615,-0.00181780957014,-0.0580762140931,0.000155404051785,-0.0863004090984,-0.000355261960506,0.0313407718642,-0.00936231366608,0.574025996946,0.818822143762,0.00228004744918,0.0,0.818782975564,-0.573965770694,-0.0117677482875,0.0,-0.00832718401275,0.00862202347809,-0.999928156778,0.0,0.659486021707,0.25793918819,0.303542723662,1.0,-0.0096,-0.0126171428571,0.481
0.463272619265,0.534344313802,-0.124039298347,-1.37651173767,0.0783083582462,1.90170463939,0.156597883103,-0.00324249866675,-0.0514646620585,-0.00463957389785,-0.082502454353,-0.00726877099137,0.0338967075411,-0.0120673443528,0.574046294602,0.818807943357,0.00226946043706,0.0,0.818768456577,-0.573985919134,-0.0117951707325,0.0,-0.00835550202346,0.00862930281335,-0.999927857757,0.0,0.659319096452,0.257716459925,0.303530977514,1.0,-0.00994,-0.013064,0.498
0.463155493625,0.533477926095,-0.124039368971,-1.37791389611,0.0782109424089,1.90221143595,0.156436715474,-0.00784499973337,-0.0539342123343,0.000475378597565,-0.0823016378596,-0.00505992938327,0.0234808293526,-0.00607785491602,0.574060826764,0.818797845088,0.002236728756,0.0,0.818758008935,-0.574000654109,-0.011803337981,0.0,-0.0083808252915,0.00860733926067,-0.999927835135,0.0,0.659152403182,0.257502780652,0.303518551636,1.0,-0.01026,-0.0134845714286,0.514
0.463032791658,0.532592083423,-0.124039686447,-1.37934649212,0.0781267268443,1.90275908944,0.15624464969,-0.0114092453384,-0.0556131745081,0.000528353442494,-0.0915088239935,-0.00211355593256,0.0366939732519,-0.00595704065674,0.574065339016,0.818794679411,0.00223750079448,0.0,0.818754811292,-0.574005119672,-0.0118079836059,0.0,-0.00838413866044,0.00861068443492,-0.999927778558,0.0,0.658977248972,0.257272707192,0.303509047786,1.0,-0.0106,-0.0139314285714,0.531
0.462904754211,0.53161850039,-0.124040372857,-1.38090507577,0.0780471341307,1.90332841507,0.156053417457,-0.0105272815981,-0.0578214250839,0.000156223387924,-0.0952951449958,-0.00696384748624,0.0342606318965,-0.00974392290484,0.574072499177,0.818789678739,0.00223037663009,0.0,0.818749583844,-0.574012169014,-0.0118277504065,0.0,-0.00840433843797,0.00861627206315,-0.999927560852,0.0,0.658801101578,0.257055593563,0.303502593819,1.0,-0.01092,-0.014352,0.547
0.462770568643,0.530609491475,-0.124034376766,-1.38253800029,0.0779302583929,1.90389730092,0.155841800437,-0.00874056057582,-0.0604134239593,0.000988133638832,-0.0979167604578,-0.0108856199401,0.030110192756,-0.013998441626,0.574062100765,0.818797118168,0.00217500483309,0.0,0.818756358181,-0.57400204594,-0.0118500673725,0.0,-0.00845450656601,0.00858363886786,-0.999927418597,0.0,0.658599660977,0.256809834072,0.303485464486,1.0,-0.01126,-0.0147988571429,0.564
0.462635685117,0.52958841065,-0.124037871114,-1.38417968977,0.0778398204059,1.90449712086,0.155616926587,-0.00887859734619,-0.0573506784592,0.000616897119544,-0.0972467017035,-0.00813657425723,0.0374310305082,-0.0188533669626,0.57405577401,0.818801592088,0.00216056043698,0.0,0.818760543656,-0.573995675539,-0.0118694361957,0.0,-0.00847872414836,0.00858286526712,-0.999927220182,0.0,0.658403093965,0.256563584931,0.303475482442,1.0,-0.0116,-0.0152457142857,0.581
0.462495089941,0.528493854251,-0.124037244231,-1.38585549493,0.077732852769,1.90512853076,0.15538837401,-0.00497315004481,-0.0672936167465,0.00118450324139,-0.104063615496,-0.00472758386901,0.0386578297168,-0.0180001893517,0.574045382978,0.818808771656,0.00220014601691,0.0,0.818768279485,-0.573985170619,-0.0118437882152,0.0,-0.00843510889536,0.00860044729607,-0.999927437989,0.0,0.658207756055,0.256312391318,0.303503310954,1.0,-0.01194,-0.0156925714286,0.598
0.462347984232,0.527399876983,-0.124046043283,-1.38758509954,0.0776273023129,1.9057994969,0.155149552085,-0.00373919160491,-0.0656795397984,-0.000933029915678,-0.105858077433,-0.0035320800279,0.0462306597944,-0.0165065533255,0.574041881589,0.818811157427,0.00222565833456,0.0,0.81877106316,-0.57398163718,-0.0118225721794,0.0,-0.0084031287816,0.00860912197221,-0.999927632604,0.0,0.658010942753,0.256047961316,0.303508625182,1.0,-0.01228,-0.0161394285714,0.615
0.46220216412,0.526299220508,-0.12404570392,-1.38926967836,0.0775163237588,1.9064373392,0.154922215675,-0.00768733629747,-0.071677973931,1.36054928408e-05,-0.103010719808,-0.00452343887736,0.0350629865236,-0.013701078932,0.574035942787,0.818815209289,0.0022663467523,0.0,0.818775720048,-0.573975619817,-0.0117921591665,0.0,-0.00835493235232,0.00862491895502,-0.99992790034,0.0,0.657815618625,0.255792051779,0.303536590044,1.0,-0.0126,-0.01656,0.631
0.46205499436,0.525117626545,-0.124055223277,-1.39110108738,0.0773909898506,1.90709147018,0.15467192528,-0.00878405608007,-0.0734160558319,-0.00114704033217,-0.110316462533,-0.00344670102234,0.0359312824369,-0.0181415815885,0.574022849251,0.818824403863,0.00226076924785,0.0,0.818784954027,-0.573962664771,-0.011781570744,0.0,-0.00834960125479,0.00861414050068,-0.999928037782,0.0,0.657594059237,0.255512000033,0.303553039403,1.0,-0.01294,-0.0170068571429,0.648
0.461900655741,0.523942536543,-0.124059090413,-1.39299039869,0.07727550483,1.90776762512,0.154414545466,-0.0041779680532,-0.0719189943146,-0.0011542912509,-0.114690048442,-0.0152634550321,0.0414577412627,-0.00856369812992,0.574011498739,0.818832454312,0.00222665246968,0.0,0.81879252172,-0.573951406682,-0.0118040689745,0.0,-0.00838772594182,0.00859900327138,-0.999927848995,0.0,0.6573625275,0.255226675644,0.303538827291,1.0,-0.01328,-0.0174537142857,0.665
0.461741260629,0.522739949529,-0.124066025839,-1.39492353891,0.0771542659419,1.90849674146,0.154152278196,-0.0109461738599,-0.0652213380428,-0.00179088238545,-0.121005579899,-0.00466127312373,0.0428879261427,-0.0147215228177,0.574003230413,0.818838269388,0.00221967609039,0.0,0.818798298122,-0.57394321972,-0.0118014588602,0.0,-0.00838967963462,0.00859170793154,-0.999927895316,0.0,0.657133662818,0.254934079233,0.303527462811,1.0,-0.01362,-0.0179005714286,0.682
0.46157484821,0.521508981427,-0.124071641553,-1.39686429101,0.0770375227175,1.90926957281,0.153883397799,-0.0111065925317,-0.0697471261006,-0.000510149936406,-0.11290333065,-0.00582753877345,0.0496074084723,-0.0197567964222,0.57399597002,0.818843222013,0.00226959563472,0.0,0.818803960068,-0.573935830756,-0.0117679247219,0.0,-0.00833364358809,0.00861326109132,-0.99992817848,0.0,0.656913083636,0.254640802499,0.303535833239,1.0,-0.01396,-0.0183474285714,0.699
0.46141614691,0.520311241622,-0.124082495178,-1.39876984006,0.0769253956637,1.90996647763,0.153632934555,-0.0114369442023,-0.0702236726186,-0.00200697192902,-0.120543122361,-0.00853629767406,0.0430895692297,-0.0129458200881,0.573999913982,0.81884048647,0.0022590633348,0.0,0.818801062974,-0.573939788914,-0.0117764543044,0.0,-0.00834663193654,0.00860957297857,-0.99992810191,0.0,0.65668308695,0.254348964217,0.303530871662,1.0,-0.01428,-0.018768,0.715
0.461250377284,0.51899141767,-0.124089474101,-1.40082491526,0.0767906048753,1.91070672538,0.153347631997,-0.00902555097276,-0.0801462364302,-0.00223339499442,-0.119549324486,-0.0090264429027,0.0505620813873,-0.0098983560701,0.573979703926,0.818854659048,0.00225693089556,0.0,0.818815265096,-0.573919648558,-0.0117705372111,0.0,-0.00834322288126,0.00860422459099,-0.999928176396,0.0,0.656431121187,0.254037952141,0.30354369072,1.0,-0.01462,-0.0192148571429,0.732
0.461084308595,0.517614253515,-0.124087386947,-1.4029402807,0.0766515075776,1.91146069349,0.153067684636,-0.00663364010586,-0.0840846150944,-0.000853330562007,-0.122204940028,-0.0073413716221,0.0437631247793,-0.018472330227,0.573959295515,0.818868937498,0.00226653786777,0.0,0.818829677465,-0.573899215456,-0.0117642128236,0.0,-0.00833274458237,0.00860825351129,-0.999928229094,0.0,0.656166648087,0.253725923196,0.30356852488,1.0,-0.01496,-0.0196617142857,0.749
0.460892273543,0.516275074379,-0.12409610917,-1.40507602193,0.0765093605718,1.91226137493,0.152761326802,-0.0108718110399,-0.0774990226711,-0.000241245056741,-0.130031240489,-0.00566295276205,0.0496027494054,-0.0152083736138,0.573946480051,0.818877938357,0.00225986949101,0.0,0.81883871268,-0.573886551841,-0.0117530903636,0.0,-0.00832759802857,0.0085962789738,-0.999928374984,0.0,0.655914108906,0.253390335542,0.303561048902,1.0,-0.0153,-0.0201085714286,0.766
0.460719356084,0.514985781847,-0.124096225526,-1.40714234619,0.0763876192683,1.91302829574,0.152480793257,-0.0101063317885,-0.0806413814212,0.00048793245296,-0.131475250553,-0.00945901678767,0.0391956088491,-0.0241147618134,0.573934653748,0.818886248457,0.00225215828514,0.0,0.818846850262,-0.573874681711,-0.0117657302592,0.0,-0.00834249871224,0.00859709856129,-0.999928243731,0.0,0.655661300487,0.253080936587,0.303548071646,1.0,-0.01562,-0.0205291428571,0.782
0.460492086435,0.513336132499,-0.124097212054,-1.40980674849,0.0762380238255,1.91396538915,0.152124229872,-0.0109806406755,-0.0780953511522,-0.00671728337057,-0.135380357341,-0.00383554376017,0.0559485965192,-0.01041048528,0.573929048654,0.818890337151,0.00219311042505,0.0,0.818849940657,-0.573869069169,-0.0118242563481,0.0,-0.00842437322454,0.00858227777377,-0.999927684607,0.0,0.655324407227,0.252676312936,0.30351736262,1.0,-0.01602,-0.0210548571429,0.802
0.460315045352,0.512072966261,-0.124105695091,-1.41181553293,0.076108556697,1.91467425013,0.151829609912,-0.0155059595227,-0.0878403935462,-0.000703124966864,-0.141636963037,-0.0104261767553,0.0493768576627,-0.0225552445925,0.573908848615,0.818904590413,0.00215689211918,0.0,0.818863733998,-0.573849025644,-0.0118417824531,0.0,-0.00845972244438,0.00856246932181,-0.999927555984,0.0,0.655074671588,0.252360818719,0.303507816289,1.0,-0.01632,-0.0214491428571,0.817
0.460111928007,0.510636556006,-0.124104264535,-1.41412196852,0.0759643721981,1.91555289395,0.151506757736,-0.0137829790622,-0.0853647243125,0.00109235233775,-0.139477030999,-0.00690952646691,0.0501275104714,-0.0175292095646,0.573891543755,0.818916709009,0.00216023457472,0.0,0.818875906591,-0.573831720348,-0.0118386328933,0.0,-0.00845540595856,0.00856322022144,-0.999927586063,0.0,0.654796839429,0.252010118431,0.30349196181,1.0,-0.01666,-0.021896,0.834
0.459927271793,0.509230167066,-0.124115526288,-1.41634248483,0.0758313070001,1.91637184492,0.151194705035,-0.00955658214221,-0.0914787399457,-0.00198713454146,-0.137563581093,-0.00424388617249,0.0465299951513,-0.017084994275,0.573875007849,0.818928290644,0.00216264905232,0.0,0.818887501143,-0.573815158215,-0.0118394077487,0.0,-0.00845482792336,0.00856547140486,-0.999927571669,0.0,0.654523517385,0.251671729459,0.303490728333,1.0,-0.01698,-0.0223165714286,0.85
0.459717716948,0.507734211582,-0.124113765813,-1.41871786512,0.0756750746915,1.91722313893,0.1508601499,-0.00928136472987,-0.0880205362547,0.000776479787435,-0.141271923319,-0.00956864308371,0.0508380292901,-0.0233477544592,0.573852222292,0.818944334107,0.00213342555208,0.0,0.818903164656,-0.573792491777,-0.0118545433275,0.0,-0.00848423087565,0.00854998958268,-0.999927455121,0.0,0.654225653236,0.25130604875,0.303480353183,1.0,-0.01732,-0.0227634285714,0.867
0.459490019029,0.506088744791,-0.12411662606,-1.42129630388,0.0755129744055,1.9181685532,0.150511329396,-0.017275848146,-0.0878672598729,-0.00306698539985,-0.144635781924,-0.0161468115251,0.052953124398,-0.0250061344071,0.573844571548,0.818949675792,0.00214082376524,0.0,0.818908592162,-0.573784801975,-0.0118518186834,0.0,-0.00847783415267,0.00855440548891,-0.999927471607,0.0,0.653906793569,0.250909163023,0.303485621594,1.0,-0.01768,-0.0232365714286,0.885
0.459282081083,0.504557234888,-0.124119578681,-1.42362144322,0.0753599896801,1.9190764504,0.150189204736,-0.0135904500372,-0.098843670311,0.00575964904755,-0.14720064264,-0.00947753228111,0.0562199535602,-0.0259480056735,0.573831804116,0.818958383371,0.00223020011578,0.0,0.818918598779,-0.573771825086,-0.0117884779574,0.0,-0.00837480810065,0.00859112133357,-0.999928025022,0.0,0.653631710258,0.250552643146,0.303527891154,1.0,-0.018,-0.0236571428571,0.901
0.459052430162,0.502900485413,-0.12412563796,-1.42609930475,0.075207562008,1.92001424707,0.149836464507,-0.01716860619,-0.0971105087973,-0.000758220387997,-0.147505423833,-0.0102163502786,0.0564738221645,-0.0236032628726,0.573821453407,0.818965362295,0.00232849131222,0.0,0.818926879781,-0.573761128616,-0.0117337019847,0.0,-0.00827365698722,0.00864008039994,-0.999928445245,0.0,0.653334326028,0.250165862408,0.303587037314,1.0,-0.01834,-0.024104,0.918
0.458837161043,0.501300561003,-0.124124183276,-1.42849023405,0.0750561425492,1.92087401625,0.149510020952,-0.0138372873823,-0.102093328536,0.000568422706955,-0.148452566561,-0.0130882917708,0.0456988602557,-0.0196944357282,0.573810478467,0.818972882529,0.0023873384639,0.0,0.818935128978,-0.573749900264,-0.0117069797123,0.0,-0.00821812193946,0.00867282994184,-0.999928619699,0.0,0.653034361119,0.24979748742,0.303640251233,1.0,-0.01866,-0.0245245714286,0.934
0.458594420787,0.499581282887,-0.124129193855,-1.43108986336,0.074888863131,1.92179377413,0.149141946368,-0.0139583302735,-0.0993216673732,-0.000114619891118,-0.151466880655,-0.00825000859121,0.0595747367084,-0.0195956446141,0.573798333438,0.818981299913,0.00241864373125,0.0,0.81894394029,-0.573737629216,-0.0116919795018,0.0,-0.00818800329507,0.00868973928454,-0.999928719976,0.0,0.652707322849,0.249385862436,0.303682206366,1.0,-0.019,-0.0249714285714,0.951
0.458357855347,0.498010027191,-0.124131303755,-1.43356552731,0.0747308767313,1.92272687017,0.148778281213,-0.0144842208497,-0.0988012994867,-0.000602625352034,-0.154190725315,-0.0156599495876,0.0579452249339,-0.0249220829258,0.573778945619,0.818994825434,0.0024381092964,0.0,0.818957750428,-0.573718207325,-0.0116776923786,0.0,-0.00816533914435,0.0086972899747,-0.99992883966,0.0,0.652405170662,0.248995144989,0.303680505239,1.0,-0.01932,-0.025392,0.967
0.458094348224,0.496328975133,-0.124131303429,-1.43624453856,0.0745732528211,1.92367147502,0.148382801123,-0.0145156930406,-0.0977337341231,-0.000615648260006,-0.161878192306,-0.0147237339617,0.0603661595338,-0.0192785276603,0.573763817865,0.819005542164,0.00239793979347,0.0,0.818967758266,-0.573703029082,-0.0117214438073,0.0,-0.0082243804621,0.00868934302367,-0.99992842488,0.0,0.652064087659,0.248566465895,0.303658935583,1.0,-0.01966,-0.0258388571429,0.984
0.457792698542,0.494468694096,-0.124131410208,-1.43929387515,0.0743774155317,1.92472565273,0.147948512206,-0.0168415860427,-0.0963902878988,-0.000830164083424,-0.15840937035,-0.00992594222876,0.0538486545848,-0.0154110468845,0.573755671854,0.819011586879,0.00227957791925,0.0,0.818972149152,-0.573695208453,-0.0117971866642,0.0,-0.00835441048928,0.00863577985371,-0.99992781096,0.0,0.651670029987,0.248072848812,0.303594857266,1.0,-0.020204,-0.0265538285714,1.003
0.45753306459,0.492796483643,-0.124135170075,-1.44197807194,0.0742092249024,1.92572567796,0.147576083151,-0.0147566550118,-0.106579816918,0.000437741076687,-0.171691176161,-0.0126331132551,0.0599590313118,-0.0264695610513,0.573755432737,0.819011794248,0.00226521276731,0.0,0.818972157043,-0.573695011583,-0.0118062091362,0.0,-0.0083700444124,0.00862918895674,-0.999927737116,0.0,0.651336293127,0.247646050167,0.303568260058,1.0,-0.021996,-0.0289090285714,1.019
0.457227252641,0.490844799771,-0.124139916761,-1.44508051925,0.0740235687023,1.92683908904,0.147115665333,-0.0208309447661,-0.11452528227,-0.00138954073334,-0.187309966072,-0.0143286652931,0.0637828490271,-0.032850219677,0.573737151499,0.819024680163,0.00223633072877,0.0,0.81898451354,-0.573676686909,-0.0118394416803,0.0,-0.00841402612831,0.00862441382572,-0.999927409191,0.0,0.650942021683,0.247147797727,0.303546176444,1.0,-0.0239,-0.0314114285714,1.036
0.456892885881,0.488774213874,-0.124162419334,-1.44843271516,0.0738112039983,1.92802017396,0.146646722081,-0.0173551066727,-0.127606041502,-0.0012339856097,-0.201192474903,-0.0164231760471,0.0768107367811,-0.0293040356152,0.573752273871,0.81901433503,0.00214339552876,0.0,0.818972931682,-0.573692149245,-0.0118912559254,0.0,-0.00850962371349,0.00857818320294,-0.999926997874,0.0,0.65051417682,0.246593105882,0.303493481881,1.0,-0.025804,-0.0339138285714,1.053
0.456542538602,0.486591432285,-0.12418346372,-1.45177162979,0.0736056727034,1.92931328785,0.146161468171,-0.0237578388556,-0.138366755255,-0.000348561943797,-0.212714186729,-0.0165970260518,0.0779394222456,-0.0388408036706,0.573767148755,0.819003617364,0.00225403114041,0.0,0.818963763219,-0.573706695791,-0.011820686963,0.0,-0.0083881941234,0.00862845780481,-0.999927591336,0.0,0.650116265711,0.246040557976,0.303533450791,1.0,-0.027596,-0.0362690285714,1.069
0.456144277157,0.484128486834,-0.124213622195,-1.45552810153,0.0733774186063,1.93068726696,0.145578012352,-0.0210765540981,-0.144240633064,-0.000410417255109,-0.231401286118,-0.0198741316054,0.0752945090983,-0.0366068068427,0.573760578672,0.819008033843,0.00232072481718,0.0,0.818969046082,-0.573699869152,-0.0117859491102,0.0,-0.00832154769935,0.00866308156258,-0.999927848828,0.0,0.649652505862,0.245407983238,0.303575241882,1.0,-0.0295,-0.0387714285714,1.086
0.455736068855,0.481692937932,-0.124251617131,-1.45934520094,0.0731319502285,1.93198988587,0.14500961615,-0.0262471907507,-0.154879307232,-0.00349777640684,-0.240821387944,-0.0126671857135,0.0845578651247,-0.0406938720626,0.573776691637,0.818996955354,0.00224547443812,0.0,0.818956980653,-0.57371626126,-0.0118263395193,0.0,-0.00839763254034,0.00862479098348,-0.999927543749,0.0,0.649161358534,0.244749808252,0.303561951411,1.0,-0.031292,-0.0411266285714,1.102
0.455276953989,0.478917277669,-0.124277618474,-1.46362507983,0.0728759747203,1.93355361656,0.144377944966,-0.0288927190401,-0.167829562292,-0.00203931289458,-0.253954887989,-0.0142042301714,0.0923813171775,-0.0443038216591,0.573793543101,0.81898500428,0.00229772952176,0.0,0.818945617706,-0.573732813815,-0.0118101859471,0.0,-0.00835424320958,0.00865849066456,-0.99992761596,0.0,0.648625085088,0.244031426947,0.30358483344,1.0,-0.033196,-0.0436290285714,1.119
0.454806713762,0.476170347331,-0.12429039371,-1.46780126426,0.0726181331263,1.93510180849,0.143780119471,-0.0318202518182,-0.180347326971,1.02146858958e-05,-0.268790835913,-0.0193905881066,0.0999317347519,-0.0396659404728,0.573829006662,0.818959797588,0.00242238505527,0.0,0.818922042196,-0.573767813559,-0.0117444383054,0.0,-0.0082284946646,0.00872321183187,-0.99992809614,0.0,0.648076003257,0.243283679207,0.303647257665,1.0,-0.0351,-0.0461314285714,1.136
0.454289371462,0.473118847628,-0.1243050449,-1.47251349428,0.0723301707497,1.93679164333,0.143100011701,-0.0361685280413,-0.18030505719,-0.000215862873656,-0.281217267355,-0.0232705956861,0.101045595667,-0.045528636727,0.57385642371,0.818940573219,0.00242680933121,0.0,0.818902666278,-0.573794989108,-0.011767775425,0.0,-0.00824477645581,0.00874050243406,-0.999927811034,0.0,0.647503047538,0.242532030852,0.303648325209,1.0,-0.036892,-0.0484866285714,1.152
0.453758546177,0.469919788605,-0.124308135226,-1.47743286404,0.0720134403519,1.93853532835,0.142349552518,-0.0306504434719,-0.196427991764,-0.000282515219783,-0.293521093704,-0.0199984449209,0.107566694158,-0.0465639817479,0.573827004083,0.818961130226,0.00244611234948,0.0,0.818923347447,-0.573765366603,-0.0117729348603,0.0,-0.008238240102,0.00875897509105,-0.999927703264,0.0,0.646860270174,0.241714804807,0.30366851547,1.0,-0.038796,-0.0509890285714,1.169
0.453201387806,0.466540901567,-0.124303509561,-1.48250763232,0.071688447695,1.94046979423,0.141519700325,-0.0364855274745,-0.197646810588,0.00101395972788,-0.304089188103,-0.0191978842643,0.10896024407,-0.0504992712344,0.573752492036,0.819012709046,0.002647112704,0.0,0.818977581263,-0.573690186012,-0.0116635655898,0.0,-0.00803414055337,0.00886009636713,-0.999928473081,0.0,0.646222501959,0.240880908545,0.303752471602,1.0,-0.0407,-0.0534914285714,1.186
0.452609254625,0.463046778691,-0.124311578441,-1.48794506327,0.071317963017,1.94232269029,0.14070993548,-0.0336116714991,-0.213262278184,0.000280505083059,-0.321825706575,-0.018981844001,0.11040988067,-0.0419057465281,0.573733222847,0.819026482873,0.0025605188281,0.0,0.818990141778,-0.573671129286,-0.0117187881328,0.0,-0.00812925861368,0.00882066758652,-0.999928052901,0.0,0.645489507663,0.239964366965,0.303734139562,1.0,-0.042604,-0.0559938285714,1.203
0.451971117962,0.459427419676,-0.124316258543,-1.49356399582,0.0709363834447,1.94428233808,0.13988604456,-0.0356285493578,-0.218403479599,0.000111540774732,-0.329825654481,-0.0199575162129,0.109719862959,-0.0500607637064,0.573740951955,0.819021205545,0.00251631040011,0.0,0.818984235868,-0.573678959573,-0.0117481761597,0.0,-0.00817860853255,0.00880139777804,-0.999927820275,0.0,0.644741188213,0.239006569731,0.303721879687,1.0,-0.044508,-0.0584962285714,1.22
0.451287941175,0.455741828216,-0.124319221913,-1.49942071305,0.0705492594864,1.94637712787,0.138970692602,-0.0415289226999,-0.219595041535,0.000277004715957,-0.350307698618,-0.0212063594469,0.122348431269,-0.0561876458327,0.573717200607,0.819038063852,0.00244347917709,0.0,0.819000032443,-0.57365535911,-0.011799267953,0.0,-0.00826249373286,0.00877082136998,-0.999927399309,0.0,0.643966749957,0.23800266473,0.303650928634,1.0,-0.046412,-0.0609986285714,1.237
0.450611518217,0.452056462373,-0.124374021838,-1.50506674099,0.0701530049393,1.94836551736,0.138062646134,-0.0458060951157,-0.241428452938,-0.00681127694945,-0.357583044496,-0.0278521412175,0.130352859932,-0.0521401597665,0.573716118196,0.819038829383,0.00244102164415,0.0,0.819001044207,-0.573654581446,-0.011766803895,0.0,-0.00823732463222,0.00875017279766,-0.999927787872,0.0,0.643228379617,0.236989901756,0.303668619288,1.0,-0.048204,-0.0633538285714,1.253
0.44978208432,0.447459821171,-0.124437506195,-1.51199858406,0.0696923974802,1.95084902469,0.137036391203,-0.0439861640254,-0.248923612862,-0.00273379793588,-0.372430278591,-0.0238892830207,0.121844054754,-0.0507773977832,0.573788553185,0.818987755178,0.00254951049368,0.0,0.818951564098,-0.573726809927,-0.011688889306,0.0,-0.00811049084292,0.00879504582162,-0.999928430993,0.0,0.64232198745,0.235758439521,0.303738534806,1.0,-0.050332,-0.0661506285714,1.272
0.449036244626,0.443503685374,-0.124444460625,-1.51811704088,0.0692782906734,1.95287995019,0.136109445045,-0.0496980991525,-0.248357305966,6.89766761186e-06,-0.381321711756,-0.0273903022768,0.129700153869,-0.0581445937515,0.573804097824,0.818977210725,0.00243567961061,0.0,0.818939267468,-0.573742475838,-0.011781108586,0.0,-0.00825116545934,0.0087548906184,-0.999927632461,0.0,0.641472609934,0.234680274904,0.303711844688,1.0,-0.052124,-0.0685058285714,1.288
0.448229237418,0.43918866801,-0.124455714799,-1.52476331962,0.0688147964209,1.95523768289,0.135009587317,-0.0466072573907,-0.254871547911,6.60188923256e-05,-0.392198269991,-0.0274228830892,0.139052071372,-0.0687461738604,0.573738428807,0.819023199272,0.00244157025127,0.0,0.818985388087,-0.573676851999,-0.0117707468589,0.0,-0.00824000106008,0.00875310869297,-0.999927740125,0.0,0.640574033346,0.233518198313,0.303703843651,1.0,-0.054028,-0.0710082285714,1.305
0.447355551001,0.434704023255,-0.124472141216,-1.53149540062,0.0683667183982,1.95767163464,0.133921473865,-0.0504684461174,-0.271761484626,-0.00311613296699,-0.388640150854,-0.0402455628825,0.151921088172,-0.0689368259107,0.57374620797,0.819017279635,0.00259449419614,0.0,0.818981456122,-0.573684074236,-0.0116920655779,0.0,-0.00808773945591,0.00883329099151,-0.999928278148,0.0,0.639681131663,0.232311390146,0.303772525238,1.0,-0.055932,-0.0735106285714,1.322
0.446492891319,0.430430463031,-0.124501156762,-1.53806183689,0.0678862996987,1.96000444772,0.132871749535,-0.0583497209572,-0.270239135996,-0.00191310156079,-0.42050577995,-0.0298936898354,0.138802107944,-0.0700609441706,0.57376451968,0.819004444428,0.00259670249933,0.0,0.818968946429,-0.573702700347,-0.0116543253875,0.0,-0.00805536414407,0.00881362680788,-0.999928713005,0.0,0.638798672798,0.231111017241,0.303763444763,1.0,-0.057724,-0.0758658285714,1.338
0.445549560979,0.425723429735,-0.12454383816,-1.54538549306,0.0673550709491,1.96236530981,0.131683682715,-0.0545248845362,-0.271764697334,-0.000460636915549,-0.428087848492,-0.0294817591297,0.14267121799,-0.0756769559837,0.573759098018,0.819008965442,0.00235772531183,0.0,0.818970270451,-0.573698051497,-0.0117893480551,0.0,-0.00830311919728,0.00869532005446,-0.999927722198,0.0,0.637752773276,0.229765007455,0.303687470949,1.0,-0.059628,-0.0783682285714,1.355
0.444507829095,0.42056162105,-0.124595217864,-1.55322113193,0.0668017749408,1.96503181915,0.130406502251,-0.0572627106887,-0.290439171015,-0.00548272090105,-0.441830266148,-0.0319665231224,0.150835288022,-0.0662530303626,0.573780013904,0.818994386764,0.00233173624275,0.0,0.818955395584,-0.573719107267,-0.0117980041191,0.0,-0.0083248977931,0.00867921404636,-0.999927681045,0.0,0.636662519811,0.228316011595,0.303697325393,1.0,-0.061644,-0.0810178285714,1.373
0.443534405461,0.415824060659,-0.124613825113,-1.56019533628,0.0663367570714,1.96761170708,0.129273889859,-0.063349502565,-0.292969359908,-0.000411829324309,-0.436124351697,-0.0256958744934,0.161918593235,-0.072673540948,0.573825462133,0.818961677544,0.00261851527836,0.0,0.818926486516,-0.573763585334,-0.0116406498348,0.0,-0.00803099202354,0.0088242426818,-0.99992881542,0.0,0.635731527371,0.227034016946,0.30381410003,1.0,-0.063436,-0.0833730285714,1.389
0.442467483859,0.410752528018,-0.124639028129,-1.56792470337,0.0657873182356,1.9702496826,0.127938224839,-0.063421395078,-0.298479677729,-0.00137206383018,-0.465304362212,-0.0337901203309,0.147361585707,-0.0701860506994,0.573787299678,0.818988515272,0.00258717633524,0.0,0.818952853822,-0.573725467377,-0.0116643988582,0.0,-0.00806883510035,0.00881182902129,-0.999928620237,0.0,0.634639954024,0.225599376293,0.303797948222,1.0,-0.06534,-0.0858754285714,1.406
0.441492074164,0.406161327392,-0.124679054005,-1.57498737225,0.0652884272075,1.97251343702,0.126814822556,-0.0627396386237,-0.30698568412,-0.00524761918918,-0.466761399347,-0.0353685099727,0.153049922079,-0.069254241872,0.573841193664,0.818951313702,0.00240356832434,0.0,0.818912972245,-0.573779708277,-0.0117956415631,0.0,-0.00828109685887,0.0087373065353,-0.999927538829,0.0,0.633605861916,0.224271387128,0.303736756852,1.0,-0.06702,-0.0880834285714,1.421
0.440339356899,0.40082970696,-0.124704990884,-1.58300158979,0.0647385546325,1.97530072127,0.125442983219,-0.0717966639441,-0.332071530876,-0.000838074971517,-0.460142277789,-0.0364903301362,0.171338421185,-0.0862815211769,0.573847538307,0.818946612302,0.00248915231446,0.0,0.818909224971,-0.573785563129,-0.0117709686998,0.0,-0.00821171337868,0.00879330050281,-0.999927620195,0.0,0.632474103029,0.222767295765,0.303760899776,1.0,-0.068924,-0.0905858285714,1.438
0.439136456936,0.395318714495,-0.124708436606,-1.5910734909,0.0641346749959,1.97819201616,0.124069291887,-0.0730163390909,-0.329238262152,0.000615666141862,-0.486854383673,-0.0334156334413,0.169572631311,-0.0823345184707,0.57385638272,0.818939609743,0.00274126017587,0.0,0.81890585188,-0.573793906362,-0.0115976584155,0.0,-0.00792501605316,0.00890039566607,-0.999928986017,0.0,0.631349863542,0.221241833741,0.303878594896,1.0,-0.070828,-0.0930882285714,1.455
0.437695698218,0.388763450413,-0.124731942775,-1.60103861447,0.0633838051984,1.98139566411,0.122382140626,-0.0744333681851,-0.331814277895,-0.00241709301934,-0.504324606519,-0.0460852777855,0.16128945345,-0.0880306523895,0.573841932341,0.818950374512,0.0025431624684,0.0,0.8189138433,-0.573779926023,-0.0117243611909,0.0,-0.00814261118572,0.00881073066624,-0.999928031864,0.0,0.629859575952,0.219353545618,0.303817412594,1.0,-0.073068,-0.0960322285714,1.475
0.43673132242,0.384454367912,-0.124728558908,-1.60761047632,0.0628982640357,1.98354101787,0.121176787406,-0.0689370925623,-0.338275265214,0.000621200497206,-0.492641653281,-0.0372548325661,0.161074774168,-0.0992537019703,0.573741560824,0.819020952515,0.00245919222949,0.0,0.818983092355,-0.573679621955,-0.0117954521406,0.0,-0.00825009281888,0.00878174705443,-0.999927405809,0.0,0.628799722097,0.218025349153,0.303777291656,1.0,-0.074636,-0.0980930285714,1.489
0.435433126319,0.378594447049,-0.124731383019,-1.61612261186,0.0622998364317,1.98655685861,0.119687183451,-0.0787782442425,-0.339002033642,-0.000918131621002,-0.510602662834,-0.036675097019,0.169406334942,-0.0870811704911,0.573747602674,0.819015815204,0.00274404300834,0.0,0.818981603383,-0.573684580923,-0.0116568363251,0.0,-0.00797307164857,0.00893557467651,-0.999928290246,0.0,0.627646767543,0.216505256443,0.30389370332,1.0,-0.076428,-0.100448228571,1.505
0.433782306121,0.371672790615,-0.124765960093,-1.62659466549,0.0614716427261,1.98993941862,0.117823687923,-0.0864345318174,-0.351959793761,-0.00494196914262,-0.52442962218,-0.0377684837111,0.167029083719,-0.0887981754525,0.573741923108,0.81902043241,0.00254634353931,0.0,0.818983689881,-0.573679644615,-0.0117527854152,0.0,-0.00816514314034,0.00882864951235,-0.999927690078,0.0,0.625985576905,0.214335540409,0.303818102058,1.0,-0.07878,-0.103539428571,1.526
0.43260361428,0.366712071601,-0.1248290714,-1.63401421797,0.0609181322394,1.99231566679,0.11657857071,-0.0883369757831,-0.350556695952,-0.00118043543929,-0.525960844168,-0.041358665137,0.1725887317,-0.0936304084857,0.573844094655,0.818949070261,0.00247431784334,0.0,0.818911308851,-0.573781981573,-0.0118005406482,0.0,-0.00824448152906,0.00879808681875,-0.999927308454,0.0,0.624945734776,0.21295545158,0.303803584351,1.0,-0.080236,-0.105453028571,1.539
0.431218528847,0.360885100742,-0.124856669119,-1.6424421445,0.0602441465652,1.99525108589,0.114968077009,-0.0873486081184,-0.356693608091,-0.000246601855428,-0.528096689091,-0.0416486020791,0.179170633947,-0.101682454189,0.573782496105,0.818991467505,0.00271481459786,0.0,0.818957391343,-0.573720145872,-0.0116074237882,0.0,-0.00794899025781,0.00888362511287,-0.999928944855,0.0,0.623712295557,0.211280973598,0.303918206727,1.0,-0.082028,-0.107808228571,1.555
0.429470648938,0.353961385497,-0.124890993429,-1.65283174676,0.0594902362231,1.99855367458,0.11305277844,-0.092052040709,-0.367341368797,-0.000382592906857,-0.556474024252,-0.0469718610847,0.178514447736,-0.095980047241,0.573814212443,0.818969670436,0.00258368041724,0.0,0.818933247029,-0.573751608197,-0.0117548246968,0.0,-0.00814461092249,0.00886111787313,-0.999927570328,0.0,0.622107852329,0.209187234003,0.303850841796,1.0,-0.084156,-0.110605028571,1.574
0.427866631605,0.347628655923,-0.124962337463,-1.66221779448,0.0587814600518,2.00158468399,0.111278051326,-0.0959180684683,-0.387744055723,-0.00477880465469,-0.545803055454,-0.0452257610176,0.191172576814,-0.108891654948,0.573841075958,0.818950954663,0.00254956883468,0.0,0.818913937271,-0.573778430506,-0.0117907985719,0.0,-0.00819335588976,0.00885409246036,-0.999927234336,0.0,0.620667136855,0.207262147038,0.303835244575,1.0,-0.08606,-0.113107428571,1.591
0.426416511709,0.341873668482,-0.124959634787,-1.67045750329,0.0581296238447,2.00435716007,0.109760281686,-0.0987353396218,-0.388128780683,0.00188610273728,-0.555772443305,-0.0410504204278,0.178365376421,-0.0956880387998,0.573865720311,0.818932966365,0.00277102023839,0.0,0.818899027956,-0.573802504599,-0.0116539534256,0.0,-0.00795394143362,0.00895716260983,-0.999928249453,0.0,0.619413525361,0.205594330624,0.303948257328,1.0,-0.08774,-0.115315428571,1.606
0.424724211648,0.3353615167,-0.124967221854,-1.68017256749,0.0573499438558,2.00734903176,0.107875571153,-0.0989681513358,-0.387592035719,-0.00203951214842,-0.57483825801,-0.0436435971327,0.178528611208,-0.105835419763,0.573798500222,0.818980705445,0.00257529672307,0.0,0.818943868861,-0.57373559834,-0.0117961753576,0.0,-0.0081834581665,0.00887782211597,-0.999927104987,0.0,0.617854765973,0.203617501607,0.303869889423,1.0,-0.089644,-0.117817828571,1.623
0.423006012643,0.328632727287,-0.124957809236,-1.68985764579,0.0565447338787,2.01045720733,0.105996702947,-0.106247494734,-0.411997176152,0.00309284727748,-0.565164702773,-0.0397062376877,0.200286630228,-0.114726627214,0.573726238125,0.819031023838,0.00267068873866,0.0,0.818995594719,-0.573663181773,-0.0117267476583,0.0,-0.00807264976501,0.00891539678025,-0.999927671397,0.0,0.616319223712,0.201650473708,0.303944152804,1.0,-0.091548,-0.120320228571,1.64
0.421313992921,0.322324233393,-0.124955093741,-1.6990601632,0.055829072499,2.0134826296,0.104207309504,-0.107253196075,-0.388887185674,0.000887577258311,-0.575679901347,-0.0494395485792,0.182620618841,-0.0991389058929,0.573718375504,0.819036192639,0.002772662602,0.0,0.819001935721,-0.573654790713,-0.01169432679,0.0,-0.00798767949243,0.00898023910412,-0.999927773533,0.0,0.614867426106,0.199758059237,0.303955673758,1.0,-0.09334,-0.122675428571,1.656
0.419232320278,0.3146594478,-0.125016867861,-1.71029610044,0.0549170984397,2.01687522014,0.101995152946,-0.109670769877,-0.405660090834,-0.002893731695,-0.598517920648,-0.0432851389934,0.179126847315,-0.122112006563,0.573724849076,0.819032219214,0.002601604062,0.0,0.818995389854,-0.573661494845,-0.0118231819345,0.0,-0.00819128457037,0.00891412662852,-0.999926717917,0.0,0.613028315704,0.197385090459,0.303906829852,1.0,-0.095468,-0.125472228571,1.675
0.417291629947,0.307641849254,-0.125053032042,-1.72024029153,0.0540434577081,2.0201260992,0.0999242574751,-0.109971489923,-0.413906385989,0.000952269248033,-0.582309187044,-0.0520132868841,0.185030358979,-0.115848952215,0.573672293439,0.819068334801,0.00281239545804,0.0,0.819035007537,-0.573609046025,-0.0116217747441,0.0,-0.00790596442563,0.00897071322047,-0.99992850846,0.0,0.611455817471,0.195251367883,0.30402126138,1.0,-0.097372,-0.127974628571,1.692
0.415273613772,0.300593443014,-0.125078136654,-1.73049958133,0.0532086391706,2.02321247501,0.0978214908381,-0.121269266795,-0.417618387613,-0.00103126356937,-0.611572350222,-0.049010122953,0.175736998043,-0.122401596745,0.573663009294,0.819075215662,0.0026999551376,0.0,0.819039974161,-0.573599643353,-0.0117352790208,0.0,-0.00806353813895,0.00894363885691,-0.99992749271,0.0,0.609752236559,0.193048825394,0.303980503899,1.0,-0.099276,-0.130477028571,1.709
0.413428423175,0.294344354626,-0.125160258838,-1.73960078596,0.0524836047111,2.02594589669,0.0960139580054,-0.126228121752,-0.429049058034,-0.00717496327137,-0.60363493007,-0.0465857896185,0.185514778776,-0.129572267181,0.573792245762,0.818985025501,0.00259492013606,0.0,0.818948002474,-0.573728791838,-0.0118401672608,0.0,-0.00820829732662,0.00891907254458,-0.999926534301,0.0,0.60824416555,0.191035878784,0.303931969464,1.0,-0.100956,-0.132685028571,1.724
0.411295644628,0.287055756107,-0.125222756744,-1.7498233131,0.0516159771261,2.02928857041,0.0938053194138,-0.127419993479,-0.421994683061,-0.00138234449004,-0.613372388492,-0.0514320594181,0.19140299586,-0.128434907099,0.573790658308,0.818985127733,0.00289618564004,0.0,0.81895259443,-0.573726780478,-0.0116179318495,0.0,-0.00785344533997,0.00903827352273,-0.999928313935,0.0,0.606601759425,0.188775399725,0.304058408642,1.0,-0.10286,-0.135187428571,1.741
0.409090531187,0.279772079411,-0.125261996504,-1.76047026387,0.0506741435678,2.03230929873,0.0915485649292,-0.132537918197,-0.426923266108,-0.00560113355879,-0.626004599605,-0.0550547364595,0.180060331599,-0.139463863979,0.573765404318,0.819003886909,0.00257700143509,0.0,0.818966829935,-0.5737022373,-0.0118246050283,0.0,-0.00820612398385,0.00889519924117,-0.999926764798,0.0,0.604761312841,0.18642226817,0.303940920956,1.0,-0.104764,-0.137689828571,1.758
0.406948366811,0.272712693725,-0.12531134148,-1.7703316063,0.0498264028292,2.0353789142,0.0894361994,-0.130499396769,-0.449017686931,-0.00310007410015,-0.610091764505,-0.0474270429739,0.206984336693,-0.134824968517,0.573817000814,0.818967100681,0.00277208964866,0.0,0.818932832211,-0.57375340066,-0.0116960873249,0.0,-0.00798836866381,0.00898174190353,-0.99992775453,0.0,0.603120690052,0.184206680982,0.304039792779,1.0,-0.106556,-0.140045028571,1.774
0.404594535911,0.265245791734,-0.125402552539,-1.78093142915,0.0489147084616,2.03859001787,0.0871041063919,-0.131536309845,-0.444263525229,-0.00925724054958,-0.62626650194,-0.0539569206642,0.187716122617,-0.136227544851,0.573884381441,0.818919762072,0.00280836729061,0.0,0.818886012664,-0.573820701183,-0.0116725343662,0.0,-0.00794752279255,0.00899859110808,-0.999927928523,0.0,0.60133091838,0.181776608001,0.304048450514,1.0,-0.10846,-0.142547428571,1.791
0.402302349115,0.258133441286,-0.125483784002,-1.79114189953,0.04799263553,2.04146688129,0.084868812174,-0.146434093276,-0.45447313458,-0.00475698391343,-0.63667492372,-0.0612456179675,0.185169884585,-0.13321096263,0.573946773094,0.818876760344,0.0025884213548,0.0,0.818839960988,-0.573883658508,-0.0118072726525,0.0,-0.00818340601721,0.00889642016276,-0.999926940118,0.0,0.599544542155,0.179417268962,0.303973665686,1.0,-0.110252,-0.144902628571,1.807
0.399849937583,0.25039304286,-0.125480910156,-1.80183171453,0.0470192430497,2.04473097217,0.0824510392848,-0.145493772015,-0.444779643379,-0.000542743478758,-0.645291723002,-0.0596637755004,0.194851472136,-0.145828863557,0.573909957433,0.818901827687,0.00281145369016,0.0,0.818868307092,-0.573846477205,-0.0116474521294,0.0,-0.00792492962017,0.00898697210656,-0.999928212335,0.0,0.597705822653,0.176994872453,0.304083361027,1.0,-0.112156,-0.147405028571,1.824
0.397337057319,0.24266383751,-0.12547745713,-1.81285308968,0.0460857508956,2.04784771996,0.0799407915781,-0.145836000401,-0.452760498291,0.000286441087484,-0.649413770723,-0.0605884630803,0.17975731768,-0.148923511013,0.573859489209,0.81893763036,0.00268162767278,0.0,0.818901490576,-0.57379543466,-0.0118277130836,0.0,-0.00814761047594,0.00898360724937,-0.999926452918,0.0,0.595723872853,0.174514120054,0.304002858905,1.0,-0.11406,-0.149907428571,1.841
0.394738511939,0.234712174274,-0.125483701598,-1.82366895921,0.0451268755191,2.05104563133,0.0774122492647,-0.154493355815,-0.474845773094,0.00105673283909,-0.639119117423,-0.0514267754134,0.196791341997,-0.143439042846,0.573846006476,0.818946162011,0.00294813166023,0.0,0.818913531208,-0.573781055755,-0.0116908238155,0.0,-0.00788272496483,0.00912317311664,-0.999927312538,0.0,0.593820398733,0.172013729149,0.304145551613,1.0,-0.115964,-0.152409828571,1.858
0.392265184553,0.227263075412,-0.125462815024,-1.83411692896,0.0441364670544,2.05400740818,0.0749226049049,-0.157432897758,-0.473613920821,-0.00176208809013,-0.64931105332,-0.0645660283352,0.171800565475,-0.160910450049,0.573707985044,0.819043092663,0.00288221429766,0.0,0.819009539197,-0.573643203717,-0.0117301506863,0.0,-0.00795428939675,0.00909041713702,-0.999927044137,0.0,0.591919099765,0.16963071071,0.304113226774,1.0,-0.117756,-0.154765028571,1.874
0.389463643043,0.219247172309,-0.12551765274,-1.84529114336,0.0430937914041,2.05705918263,0.0722286125784,-0.1651783022,-0.477025007432,-0.00381311001734,-0.644473834259,-0.0531545790108,0.187184155752,-0.15864229683,0.573718839247,0.819035880335,0.00276895629488,0.0,0.819000562585,-0.573654132291,-0.011822093364,0.0,-0.00809445126837,0.00905050869589,-0.999926281358,0.0,0.589878161209,0.166956263765,0.304082863061,1.0,-0.11966,-0.157267428571,1.891
0.38661977127,0.211096875154,-0.12557427743,-1.85637187659,0.042105787801,2.06030087992,0.0695330148684,-0.169133613684,-0.47834776081,0.000588582785801,-0.660469302168,-0.0617729621262,0.183197319063,-0.158162269089,0.573773058662,0.818997015911,0.0030186064268,0.0,0.818964970147,-0.57370749333,-0.0116977207042,0.0,-0.00784875233602,0.00918414673331,-0.999927021605,0.0,0.587888615325,0.164299323213,0.304176213717,1.0,-0.121564,-0.159769828571,1.908
0.383668233465,0.202952473658,-0.125627335957,-1.86776885151,0.0409999603922,2.06323020251,0.0666798210129,-0.175551834194,-0.476870924232,-0.00475668414715,-0.681776607589,-0.0730989632882,0.173148445767,-0.17088650273,0.573733583987,0.819025659897,0.00273677486678,0.0,0.81898935048,-0.57366835757,-0.0119082418429,0.0,-0.00818331204483,0.00907372243934,-0.999925347696,0.0,0.585856107829,0.161700529384,0.304075025698,1.0,-0.123356,-0.162125028571,1.924
0.380634901893,0.19460720049,-0.125710575815,-1.87895274703,0.039932876895,2.06645734979,0.0638298870338,-0.182436323918,-0.48545980678,-0.00404837619054,-0.661540904302,-0.0635454402758,0.185811659166,-0.160017486071,0.573784755812,0.818988867299,0.00300601721193,0.0,0.818956647145,-0.573719219093,-0.0117053253344,0.0,-0.00786207265882,0.00917831172677,-0.999926970537,0.0,0.58370140776,0.158765913128,0.304198100917,1.0,-0.125372,-0.164774628571,1.942
0.377639982631,0.186776194528,-0.125806729558,-1.88974835297,0.0389214565091,2.06928665059,0.06102100134,-0.192462199571,-0.495969053231,-0.00947050617755,-0.675938752858,-0.064326222409,0.17607144672,-0.180935240455,0.573851233657,0.818942708391,0.00288944703009,0.0,0.818908412009,-0.573785452283,-0.0118327676779,0.0,-0.00803259079114,0.00915661710178,-0.999925814172,0.0,0.581662867005,0.156047431034,0.304140757993,1.0,-0.127164,-0.167129828571,1.958
0.374395605284,0.178303886177,-0.125943803503,-1.9010866556,0.0378074752125,2.07234596082,0.0580334513558,-0.190743286415,-0.505848830536,-0.00380672320721,-0.661930584632,-0.0691690348812,0.184132931492,-0.172543976927,0.573968434806,0.818860133947,0.00301061129006,0.0,0.818827717008,-0.573902558465,-0.0117375528864,0.0,-0.0078837683938,0.00920233400152,-0.999926578927,0.0,0.579542760382,0.153132258132,0.304217386084,1.0,-0.129068,-0.169632228571,1.975
0.371124252604,0.169846198005,-0.125936123001,-1.91259409099,0.0366174515922,2.07535263062,0.0549723881547,-0.194897749254,-0.501953167021,0.000598738226419,-0.675371654722,-0.0677785275653,0.163853695312,-0.189647341776,0.573891743396,0.818914188897,0.00292659976859,0.0,0.818880728535,-0.573826227244,-0.0117711623562,0.0,-0.00796036543118,0.00915208524305,-0.999926433253,0.0,0.577315870356,0.150275852943,0.3041802803,1.0,-0.130972,-0.172134628571,1.992
0.367751628999,0.161258838867,-0.125962358156,-1.92416346252,0.0354851840102,2.07829133581,0.0517614211211,-0.199409156074,-0.515406126742,-0.0028659366216,-0.665357035372,-0.0664842070738,0.17888799833,-0.187884752196,0.573813674984,0.818969028267,0.0028886053525,0.0,0.818934540073,-0.573747695653,-0.0118552819339,0.0,-0.00805193308524,0.00916847811187,-0.99992554992,0.0,0.575050082246,0.147362525293,0.304165383747,1.0,-0.132876,-0.174637028571,2.009
0.364489416281,0.15306724103,-0.125986032621,-1.93495074842,0.0343291475888,2.08120919205,0.0487876440104,-0.205913781417,-0.51047969073,0.00020360346168,-0.690884008956,-0.0734227787843,0.175140015492,-0.188572355071,0.573801759727,0.818976667862,0.0030830072141,0.0,0.818945592782,-0.573736133137,-0.0116495707079,0.0,-0.0077720435988,0.00920953665485,-0.99992738725,0.0,0.57297423821,0.144594432211,0.304256248558,1.0,-0.134668,-0.176992228571,2.025
0.360910237198,0.144365083695,-0.126012774268,-1.94676472067,0.0331584353999,2.08393215047,0.0455015936194,-0.216451504246,-0.510465398417,-0.00169647924038,-0.692508167571,-0.0614560849541,0.165746080839,-0.195207784863,0.573794618981,0.818982747062,0.00278247094072,0.0,0.818946447969,-0.573728558877,-0.0119583857232,0.0,-0.00819748637413,0.00914052805667,-0.999924623141,0.0,0.570566397719,0.141569315183,0.3041356131,1.0,-0.136572,-0.179494628571,2.042
0.357251610763,0.135489465787,-0.126112802116,-1.95825694792,0.0319920222879,2.08697866507,0.0421042268996,-0.219418857456,-0.513446127855,-0.00467413126472,-0.681823594289,-0.070638719214,0.179103153045,-0.203359474791,0.573805596791,0.818973887923,0.00310723223731,0.0,0.818942360461,-0.573738979206,-0.0117363062059,0.0,-0.00782913880646,0.00927918094248,-0.999926297977,0.0,0.568325047823,0.138524664551,0.304271095012,1.0,-0.138476,-0.181997028571,2.059
0.353460275582,0.126581420058,-0.126185025385,-1.97007038686,0.0307132372163,2.08971696465,0.0386446188017,-0.230123651314,-0.520067546284,-0.00641400807596,-0.697858174278,-0.0708587901562,0.158087510293,-0.194177231536,0.573796422516,0.818980957965,0.00293307016406,0.0,0.818946896373,-0.57373010881,-0.0118528506019,0.0,-0.00802462277503,0.00920332917229,-0.999925449302,0.0,0.56590677075,0.135388773036,0.304227226278,1.0,-0.14038,-0.184499428571,2.076
0.349763248395,0.118048662364,-0.126312328142,-1.9810393109,0.0295416492925,2.09245649012,0.0353730514976,-0.232948605227,-0.533061700025,-0.00481206906943,-0.685778991442,-0.075361571715,0.177843527193,-0.211706375885,0.57392956385,0.818886816008,0.00315993803738,0.0,0.81885629101,-0.573863130931,-0.0116716979718,0.0,-0.00774457676097,0.00928644646033,-0.999926889049,0.0,0.563580270759,0.132190868628,0.304339029323,1.0,-0.142284,-0.187001828571,2.093
0.345522293374,0.108523195162,-0.126385243686,-1.99356289502,0.0281833958969,2.09537011488,0.0314839929588,-0.230054669464,-0.538579755286,-0.00327912536224,-0.697952418283,-0.0787851207181,0.152893100034,-0.210748862765,0.573886457474,0.818917474865,0.00304141250652,0.0,0.818885125236,-0.573820095738,-0.0117641954963,0.0,-0.0078888335385,0.00924205787797,-0.999926172611,0.0,0.561119984022,0.128986727202,0.304286239945,1.0,-0.144188,-0.189504228571,2.11
0.34169384051,0.0999098086975,-0.126379007066,-2.00461368276,0.0269437732159,2.0979435817,0.0280053741776,-0.244009319084,-0.550415281389,-0.000899557913094,-0.689589918171,-0.0698509414653,0.170160012885,-0.224602646688,0.573794250865,0.818981824671,0.00311053607319,0.0,0.818950648849,-0.573727989904,-0.0116950951641,0.0,-0.00779361881968,0.0092581321516,-0.999926770566,0.0,0.558812545739,0.126005974658,0.304340232972,1.0,-0.14598,-0.191859428571,2.126
0.337529103851,0.0907424780517,-0.12638301873,-2.01645807792,0.0257456579891,2.10067407219,0.0242241148948,-0.253874200453,-0.544644299923,-0.00167467611465,-0.699538162604,-0.071070850293,0.155490868479,-0.220748589486,0.57375242831,0.819010812573,0.00319167645662,0.0,0.818979874114,-0.573684921735,-0.0117610914287,0.0,-0.00780159459442,0.00936205379799,-0.999925740778,0.0,0.556308015956,0.122813387306,0.304335120238,1.0,-0.147884,-0.194361828571,2.143
0.332659768539,0.0803821166915,-0.126502381002,-2.02970632553,0.0242520249369,2.10352348583,0.0197767268352,-0.260180538824,-0.554441512861,-0.0109984824814,-0.680495108111,-0.0841738167786,0.172362328357,-0.241693963035,0.573711894449,0.81903943724,0.00313198256224,0.0,0.819007528101,-0.573644369519,-0.0118132609761,0.0,-0.00787903415536,0.00934270550657,-0.999925314548,0.0,0.553474400919,0.119067520842,0.304342515948,1.0,-0.150012,-0.197158628571,2.162
0.328482005045,0.0716001733005,-0.126605542719,-2.04085360817,0.0230059792613,2.10606299464,0.0161082827946,-0.265862581192,-0.5492728705,-0.00726723701499,-0.703977236771,-0.0758848015962,0.145894192907,-0.236899149216,0.573798238718,0.81897850487,0.00324602935117,0.0,0.818948306988,-0.57373058189,-0.0117318705922,0.0,-0.007745952662,0.0093902377154,-0.999925909082,0.0,0.551099983798,0.115906572123,0.304372383667,1.0,-0.151804,-0.199513828571,2.178
0.323830593593,0.0621910274965,-0.126753963639,-2.05290999688,0.0216177028302,2.10840899095,0.0119716698814,-0.27957164317,-0.557041479482,-0.0108503140536,-0.70419949943,-0.0817724777232,0.13191356556,-0.244069873574,0.573859356853,0.818936649828,0.00299149154732,0.0,0.818902331295,-0.573791646972,-0.0119525966192,0.0,-0.0080720819828,0.00930902803838,-0.999924088863,0.0,0.548434885945,0.11240380639,0.304294562861,1.0,-0.153708,-0.202016228571,2.195
0.319649407491,0.0537834254187,-0.126851408777,-2.06324238605,0.0204168686335,2.1107528986,0.00829284021325,-0.27792070132,-0.549272607929,-0.00385712601346,-0.696204968051,-0.071320613649,0.145695447774,-0.243827493508,0.573922280979,0.818891413994,0.00328852287657,0.0,0.818861851526,-0.573854566323,-0.0117026376096,0.0,-0.00769620376621,0.0094094315626,-0.999926112793,0.0,0.546220928938,0.109352700067,0.304425679847,1.0,-0.155388,-0.204224228571,2.21
0.314886556973,0.0443265635553,-0.12686209314,-2.0753307366,0.0190629574056,2.11310410466,0.00406995094961,-0.283182560436,-0.556664606651,0.000608849412244,-0.713015499701,-0.0707222552825,0.130214132205,-0.253161456965,0.573879582439,0.81892211361,0.00308927198071,0.0,0.818888732263,-0.573811110149,-0.0119499348739,0.0,-0.00801356162554,0.00938777439526,-0.99992382336,0.0,0.543481234323,0.105930558915,0.304309084506,1.0,-0.157292,-0.206726628571,2.227
0.309946796586,0.0346362190746,-0.12690464039,-2.08711548834,0.0176679417213,2.11555881648,-0.000363784532174,-0.295757855543,-0.557324457946,-0.00830797401075,-0.701730199339,-0.0781501299692,0.148957665344,-0.261707960836,0.57380098073,0.818976170485,0.00334867014761,0.0,0.818946815536,-0.573732377201,-0.0117481732944,0.0,-0.0077003817468,0.00948367870199,-0.999925379195,0.0,0.540861149471,0.10244968604,0.304441033663,1.0,-0.159196,-0.209229028571,2.244
0.304861739401,0.0249924996597,-0.127022009738,-2.09911471615,0.0161914443413,2.11783396643,-0.0048406451019,-0.300896716193,-0.563274819931,-0.00897809792883,-0.700541123707,-0.0939467824863,0.124441051155,-0.272916029762,0.57381871107,0.818964166081,0.00324475012698,0.0,0.818933402817,-0.573750391681,-0.0118032494668,0.0,-0.00780491196913,0.00943034122156,-0.9999250732,0.0,0.538121261309,0.0988540580164,0.304405516694,1.0,-0.15998,-0.210259428571,2.261
0.299336985182,0.014737211652,-0.127152636357,-2.1115355791,0.0146614541263,2.12017374419,-0.00967033965512,-0.304821383297,-0.573173091375,-0.00759247724947,-0.681870028535,-0.0886717729319,0.133908929608,-0.266248259359,0.573882299753,0.818919181078,0.00335079017185,0.0,0.818890158521,-0.573814053749,-0.0117084114903,0.0,-0.00766565984529,0.00946336140653,-0.999925838475,0.0,0.535119078729,0.0948161133451,0.30448335812,1.0,-0.15998,-0.210259428571,2.28
0.293079908476,0.00350850297533,-0.127249762934,-2.12535099392,0.0130627826559,2.12260090362,-0.0151323012361,-0.313459592324,-0.563964339986,-0.0025784250512,-0.684098524909,-0.0815867591687,0.128561593524,-0.274470531114,0.573955323151,0.818868326005,0.00327087036959,0.0,0.818837045003,-0.573885855467,-0.0119023328269,0.0,-0.00786948862941,0.009509900207,-0.999923813571,0.0,0.532035334948,0.0907947615952,0.304424455743,1.0,-0.15998,-0.210259428571,2.299
0.288700442574,-0.00437215895427,-0.127246238012,-2.13477802567,0.0119041880907,2.12427217785,-0.0190235429171,-0.312222449766,-0.578731512326,-3.32111259353e-05,-0.656941675154,-0.081436557547,0.125832002939,-0.279918179694,0.573863261607,0.818932465649,0.00336460777452,0.0,0.818902476225,-0.573793558709,-0.0118504564168,0.0,-0.00777428290294,0.0095560111918,-0.999924118709,0.0,0.529809347467,0.0879085725868,0.304478948759,1.0,-0.15998,-0.210259428571,2.313
0.283329488581,-0.0138450821809,-0.127239154804,-2.14617377296,0.0104723769648,2.12632059562,-0.0237329302405,-0.322008994779,-0.556661571615,-0.000264390039948,-0.683662647803,-0.0794304687479,0.107507133459,-0.281832356868,0.573782757421,0.818988565717,0.0034385191023,0.0,0.818959798996,-0.57371313331,-0.0117828348432,0.0,-0.00767743125452,0.00957698076598,-0.999924666407,0.0,0.527101053779,0.084410424705,0.30449337178,1.0,-0.15998,-0.210259428571,2.33
0.278111252443,-0.0227137473866,-0.127293271439,-2.15691111237,0.00909317293738,2.12788023184,-0.0283141224171,-0.327006454608,-0.551165243378,-0.00571921146382,-0.666850474187,-0.082024351216,0.100870876185,-0.282101272738,0.573740791929,0.819018948852,0.00319562198636,0.0,0.818986096602,-0.573670926307,-0.0120078633868,0.0,-0.00800158627934,0.00950675406025,-0.999922795142,0.0,0.524459847275,0.0810186201476,0.304419478812,1.0,-0.15998,-0.210259428571,2.346
0.272458629977,-0.0321722645316,-0.127478906625,-2.16788955892,0.00765350703563,2.12985401935,-0.0331418335154,-0.338414250739,-0.552022119176,-0.00995545416617,-0.651984062702,-0.0862070097274,0.111194369171,-0.282956629867,0.573922286033,0.818890533455,0.0035001017588,0.0,0.81886297358,-0.57385294747,-0.0117035072142,0.0,-0.00757549340696,0.00958319185519,-0.999925384383,0.0,0.521854563539,0.0773638659959,0.304555877379,1.0,-0.15998,-0.210259428571,2.363
0.266770448499,-0.0415056750483,-0.127538853441,-2.17906347747,0.00628553832844,2.13142712284,-0.0381248826919,-0.332035499178,-0.537866954144,-0.000613145255374,-0.659119016737,-0.0838783819927,0.0900633178443,-0.294996693693,0.57391998147,0.818892789479,0.00334680586729,0.0,0.818861829384,-0.573849429812,-0.0119533754117,0.0,-0.00786812178167,0.00960103741959,-0.999922953402,0.0,0.51905409174,0.073782902575,0.304475953949,1.0,-0.15998,-0.210259428571,2.38
0.260026305722,-0.0524679598698,-0.127552669493,-2.19165777097,0.00464320287047,2.13345408598,-0.0440099882866,-0.345963403671,-0.547795100838,-0.000178915324948,-0.622977347182,-0.0898217887982,0.0986667889529,-0.307312489345,0.573866356756,0.818929161921,0.00363032221056,0.0,0.818902829557,-0.573796009183,-0.0117065148831,0.0,-0.00750388649884,0.00969104275931,-0.999924884868,0.0,0.515946063498,0.0696479694298,0.304604047214,1.0,-0.15998,-0.210259428571,2.4
0.255563023145,-0.0594827466927,-0.127584901153,-2.19996257385,0.00352557198412,2.13456468748,-0.0479126864651,-0.346764537766,-0.537322290254,-0.000832886408292,-0.636847720786,-0.0806237320896,0.0739891922179,-0.286836991315,0.573820385115,0.818962018634,0.00348203426533,0.0,0.818933315483,-0.573749977943,-0.0118293915621,0.0,-0.00769015336924,0.00963968548118,-0.999923966112,0.0,0.513823705808,0.0669182580131,0.304538308284,1.0,-0.15998,-0.210259428571,2.413
0.249312978681,-0.0692148321164,-0.127648776824,-2.21133388136,0.00204958722716,2.13600330367,-0.0534060374507,-0.35200260393,-0.540561852327,-0.00871953354185,-0.60825133325,-0.0810932580974,0.0827279385475,-0.307722535631,0.573776256023,0.818993441178,0.00336128449056,0.0,0.818962158131,-0.573705046865,-0.0120103976755,0.0,-0.0079082033034,0.00964423149341,-0.999922221535,0.0,0.510883754713,0.0631441028218,0.304481240838,1.0,-0.15998,-0.210259428571,2.431
0.243580468803,-0.077850807505,-0.127815896888,-2.22108237037,0.000736848604992,2.13742903017,-0.0583397877011,-0.361730243309,-0.532383158356,-0.00897265871501,-0.613878099023,-0.0780607618267,0.0818421540258,-0.319860909366,0.57392140557,0.818890763406,0.00358953180012,0.0,0.818863248521,-0.573850348327,-0.0118112170441,0.0,-0.00761238903023,0.00971823306405,-0.999923800837,0.0,0.508414185095,0.0596984103445,0.304573423097,1.0,-0.15998,-0.210259428571,2.447
0.237557847882,-0.0869234890814,-0.127838569621,-2.23164389072,-0.00062903369017,2.13861923981,-0.0636223138363,-0.355713650161,-0.53301332124,0.000784440830882,-0.621254898424,-0.0832754985407,0.0687542151909,-0.310687216837,0.573859757254,0.818934704814,0.00341689282406,0.0,0.818903493431,-0.573787524561,-0.012070294349,0.0,-0.00792436503306,0.00972494889079,-0.999921311808,0.0,0.505604817636,0.0561779765931,0.304473814937,1.0,-0.15998,-0.210259428571,2.464
0.232160872235,-0.0949770065159,-0.127863006091,-2.24061493511,-0.00184893027297,2.1397256601,-0.0683893555259,-0.364612059326,-0.536560967314,-0.00508226349049,-0.586447749047,-0.0789974987914,0.0770423107155,-0.316569037425,0.57376774106,0.81899845212,0.00358631360889,0.0,0.818970023849,-0.57369560839,-0.0119245902219,0.0,-0.00770891698669,0.0097792168167,-0.999922466753,0.0,0.503089780667,0.0528637958224,0.304564673105,1.0,-0.15998,-0.210259428571,2.48
0.225920893203,-0.103989469222,-0.127940491959,-2.25072131558,-0.00331564738981,2.14085213016,-0.073770597199,-0.364423682439,-0.529608493301,-0.00257751452101,-0.595624671896,-0.0836349912428,0.0576673847994,-0.314114393393,0.573793443637,0.818980609359,0.00354858198148,0.0,0.818951930622,-0.573721747294,-0.0119096143395,0.0,-0.00771799314948,0.00973996421346,-0.999922779858,0.0,0.500535386442,0.0494921332917,0.304573213357,1.0,-0.15998,-0.210259428571,2.496
0.218764246638,-0.114008468969,-0.12812407778,-2.26208768685,-0.00489476461662,2.14194114339,-0.079923477216,-0.385165009445,-0.528258516994,-0.0120506086157,-0.591373898563,-0.0833708927184,0.0575221521202,-0.325051739879,0.573940334762,0.818878359425,0.00338696024187,0.0,0.818846471191,-0.573867856562,-0.0121196833056,0.0,-0.00798103242738,0.00972956285997,-0.999920816229,0.0,0.497426082013,0.0454032334532,0.304493089563,1.0,-0.15998,-0.210259428571,2.515
0.212737869109,-0.122462347843,-0.12816936639,-2.27119141863,-0.00616090385509,2.14301677623,-0.0852231562229,-0.370169241869,-0.522466443187,-0.00125158562228,-0.576560382747,-0.0833842685562,0.0629790243046,-0.335637898937,0.573901028904,0.818904534633,0.00370392794132,0.0,0.818877969831,-0.573828890519,-0.0118330820899,0.0,-0.00756488936854,0.00982427212718,-0.999923125108,0.0,0.494970828604,0.0420777750457,0.304635834579,1.0,-0.15998,-0.210259428571,2.531
0.206279715691,-0.13132131383,-0.128182567211,-2.28104267603,-0.00752296148719,2.14382245532,-0.0909049478679,-0.385860283976,-0.524789895417,-0.00243346958954,-0.579841046236,-0.0906659830925,0.0423576396692,-0.332176865543,0.573814279621,0.818965759868,0.00360604597987,0.0,0.818936997827,-0.573741318647,-0.0119933218247,0.0,-0.00775333162158,0.00983525315099,-0.999921573747,0.0,0.492198150107,0.0385611534924,0.304592432012,1.0,-0.15998,-0.210259428571,2.548
0.20045558075,-0.139100728764,-0.128245649972,-2.28959622924,-0.00877892015585,2.14457016476,-0.0959996374062,-0.382431343072,-0.518542491954,0.000730891588874,-0.550666118194,-0.0780027062417,0.0525950713877,-0.336538148586,0.573784954539,0.818986431236,0.00357747079532,0.0,0.818957324935,-0.573712139459,-0.0120011614031,0.0,-0.00777649964611,0.00981607075244,-0.999921582329,0.0,0.489790431558,0.0354029272779,0.304580793056,1.0,-0.15998,-0.210259428571,2.563
0.19377029924,-0.14792691544,-0.128405676365,-2.29900866347,-0.0101205557266,2.14546585906,-0.101808227414,-0.40369745953,-0.513871092668,-0.0149433825607,-0.553981464401,-0.0821451408981,0.0483778374627,-0.340665502538,0.573895319744,0.818907988387,0.00382301362873,0.0,0.81888284417,-0.573822609683,-0.0118002983306,0.0,-0.0074697707272,0.00990292691913,-0.999923064322,0.0,0.487148726618,0.0317959034417,0.30467986051,1.0,-0.15998,-0.210259428571,2.58
0.186584942722,-0.157165647568,-0.1285099603,-2.30911529213,-0.0116043497059,2.14606911123,-0.108111602275,-0.388700183455,-0.506863348296,-0.00161337555821,-0.564366462885,-0.078443338144,0.0366533616913,-0.348555184168,0.57386887002,0.818927300085,0.00365295749036,0.0,0.818899028283,-0.573795573529,-0.0119903368183,0.0,-0.00772331201712,0.00987247445601,-0.999921439264,0.0,0.484035325261,0.0277811470273,0.3046161472,1.0,-0.15998,-0.210259428571,2.599
0.179365532191,-0.166389097995,-0.128525788648,-2.31882012345,-0.0129950399045,2.14675107577,-0.114420057442,-0.411264925706,-0.52156733468,-0.00259369710869,-0.537025619258,-0.0795327360433,0.0429625242044,-0.355582400727,0.573853204365,0.818937462256,0.00383140371528,0.0,0.818911881534,-0.573779749394,-0.0118691351723,0.0,-0.00752184239241,0.00994891482452,-0.999922217465,0.0,0.481367448716,0.0242700329514,0.304701891025,1.0,-0.15998,-0.210259428571,2.616
0.17243928875,-0.174968622189,-0.128586240741,-2.32801856505,-0.0142973211805,2.1473042189,-0.120555429343,-0.408752087084,-0.507095553137,-0.00387075787538,-0.548332202915,-0.0753604461141,0.0201100890224,-0.351596119856,0.573803666063,0.818972127151,0.00384118006339,0.0,0.818946059229,-0.573729372312,-0.0119459751067,0.0,-0.0075797687514,0.0100005561283,-0.999921264892,0.0,0.478636095483,0.0207292325214,0.304674945265,1.0,-0.15998,-0.210259428571,2.633
0.166564501202,-0.182035265368,-0.128748980273,-2.33553446633,-0.0154817499966,2.14762386155,-0.125656775488,-0.423578362944,-0.504859265739,-0.00533891634911,-0.531408352332,-0.0766368343,0.0244046543235,-0.366767359755,0.573896879437,0.818907251341,0.00374598114727,0.0,0.818879638951,-0.573822522487,-0.0120248284608,0.0,-0.00769783907884,0.00996871114741,-0.99992068089,0.0,0.476363729303,0.0176968418256,0.304649294449,1.0,-0.15998,-0.210259428571,2.647
0.159433444133,-0.190594728903,-0.128820801434,-2.34437685835,-0.016762622856,2.14810930964,-0.131941653389,-0.418001498014,-0.507851345451,-0.00240120595222,-0.514518346224,-0.0723894200153,0.0303679134325,-0.382539719539,0.573900570754,0.818903771443,0.00393635684597,0.0,0.818879030133,-0.573826041,-0.0118977132504,0.0,-0.00748444228612,0.0100516980277,-0.999921470162,0.0,0.473695174001,0.0141366439193,0.304724987714,1.0,-0.15998,-0.210259428571,2.664
0.15143230997,-0.200023028631,-0.128849123869,-2.35423931062,-0.0183074290367,2.14849793989,-0.139058649442,-0.428411070217,-0.485309439498,-0.00272164461359,-0.529056834384,-0.0815235759619,0.00196553890681,-0.37849572625,0.573751681915,0.819008313404,0.00389062671986,0.0,0.818983128546,-0.57367753795,-0.0118938853902,0.0,-0.00750937043417,0.0100106871269,-0.999921694684,0.0,0.47065080795,0.010201686333,0.304713610561,1.0,-0.15998,-0.210259428571,2.683
0.144557590324,-0.2079177185,-0.128982029334,-2.36254231354,-0.0195069052191,2.14868797097,-0.145111542823,-0.433957038721,-0.491173101879,-0.00805095111069,-0.51384738486,-0.0714556361652,0.0149934004707,-0.382693548443,0.573814547216,0.818964577036,0.0038254233621,0.0,0.818937193788,-0.57373885322,-0.0120974310287,0.0,-0.00771272196662,0.0100746573498,-0.99991950436,0.0,0.468032499185,0.00682898245807,0.304649036957,1.0,-0.15998,-0.210259428571,2.699
0.137502074685,-0.215823996469,-0.129144002946,-2.37046040773,-0.0207128932658,2.14896005704,-0.151255962665,-0.440652649165,-0.497478980368,-0.00792637038223,-0.490758697699,-0.0784206611272,0.0178752425176,-0.383040279863,0.573970845803,0.81885398066,0.00404640905939,0.0,0.818830224071,-0.573895312173,-0.0119156080163,0.0,-0.00743507101401,0.0101527291197,-0.99992081777,0.0,0.465544094622,0.00339605967389,0.304750428341,1.0,-0.15998,-0.210259428571,2.715
0.130553517506,-0.223611664547,-0.129154368611,-2.37840239787,-0.0219696971716,2.14912367836,-0.157465388184,-0.436703122376,-0.479767055567,0.000914510868538,-0.50211900734,-0.0833363159948,0.014282584275,-0.393233010651,0.573834799842,0.818949303132,0.00405071498809,0.0,0.818925857057,-0.5737596201,-0.011877958069,0.0,-0.00740345132993,0.010133416034,-0.999921248293,0.0,0.462995494546,0.000112770367957,0.304759015963,1.0,-0.15998,-0.210259428571,2.731
0.12294705075,-0.231790465651,-0.1292240176,-2.38687297977,-0.0232895093908,2.14915584275,-0.164189868035,-0.44845679822,-0.478167498835,-0.0029267644781,-0.494945165714,-0.0798732416199,0.00256635661502,-0.396136613021,0.573815090947,0.818963789163,0.0039115652909,0.0,0.818937522153,-0.573739059638,-0.0120653701257,0.0,-0.00763703048055,0.0101268140156,-0.999919558466,0.0,0.460216821114,-0.00346027843025,0.304675664158,1.0,-0.15998,-0.210259428571,2.748
0.114321835515,-0.240966079569,-0.129421957963,-2.39593446762,-0.024742653832,2.14919767674,-0.171810318506,-0.462833688596,-0.476224412769,-0.0116509839827,-0.460506158764,-0.0740367087875,0.00435051871919,-0.405839332202,0.573913567515,0.818894096492,0.00405248753441,0.0,0.818870212788,-0.573837739669,-0.0119402697161,0.0,-0.00745248957781,0.0101713399493,-0.999920498961,0.0,0.457222574563,-0.00751260185348,0.304754878376,1.0,-0.15998,-0.210259428571,2.767
0.107013466668,-0.248620918653,-0.129490107328,-2.40350137921,-0.0258919722221,2.1492469087,-0.178321003178,-0.452293170374,-0.475554555905,-0.000421270116206,-0.474644693818,-0.0680622911531,0.000916879263126,-0.404930566567,0.573906894283,0.818898026585,0.00420067274936,0.0,0.818876374376,-0.573830971322,-0.0118425817157,0.0,-0.0072875309802,0.0102365680493,-0.999921049167,0.0,0.454697677708,-0.0108508355526,0.304799659715,1.0,-0.15998,-0.210259428571,2.783
0.0991464718846,-0.256609267296,-0.129550251318,-2.41163474648,-0.0271561762894,2.14915462785,-0.185343982793,-0.468619858583,-0.462753653543,-0.00297568008968,-0.469243566895,-0.0784829488433,-0.00843197277568,-0.416866707044,0.573858882311,0.818932191149,0.00409834039367,0.0,0.818908175031,-0.573781899386,-0.0120199711489,0.0,-0.00749213202186,0.0102541290851,-0.999919357146,0.0,0.45191943951,-0.0143982786514,0.304707063408,1.0,-0.15998,-0.210259428571,2.8
0.0921214104692,-0.263668385165,-0.129651932352,-2.41854825912,-0.0282732397096,2.1490510322,-0.191556062145,-0.471659066877,-0.47542535443,-0.00879931133975,-0.455687454244,-0.074463962242,-0.0109513090595,-0.40923486442,0.573910356459,0.818895822901,0.00415702855412,0.0,0.818872752487,-0.573833400316,-0.0119745904467,0.0,-0.00742064313769,0.0102766167427,-0.999919659375,0.0,0.449531822311,-0.0175552866902,0.304729210997,1.0,-0.15998,-0.210259428571,2.815
0.0840248788885,-0.271634146141,-0.129818627121,-2.42607929192,-0.0295049636633,2.14896953181,-0.198787144639,-0.476810203001,-0.469302923542,-0.0117773076647,-0.454539877441,-0.0705788360716,-0.00710306744484,-0.423253612946,0.573980333205,0.81884539036,0.00442161518875,0.0,0.818827134752,-0.573904431976,-0.011686455973,0.0,-0.00703195143668,0.0103285332456,-0.999921933483,0.0,0.446910185422,-0.0211772856732,0.304859408286,1.0,-0.15998,-0.210259428571,2.832
0.0759629663711,-0.27941582019,-0.129843995924,-2.43385039469,-0.0307605476315,2.14867396423,-0.206097027383,-0.479489171119,-0.454693291094,-0.00259726294765,-0.459335237733,-0.0766744769508,-0.020243024051,-0.436085425812,0.57382296259,0.81895645757,0.00427493978303,0.0,0.818935269678,-0.573746089975,-0.0118825594091,0.0,-0.00727870891289,0.0103195830913,-0.999920260121,0.0,0.44412916766,-0.024673465783,0.304763323807,1.0,-0.15998,-0.210259428571,2.849
0.0676845792233,-0.287175378452,-0.129940195551,-2.44135877581,-0.0320088837822,2.14838764256,-0.213492415502,-0.482642016976,-0.448706174036,-0.00873918643129,-0.437896969339,-0.0619199891018,-0.0249461021448,-0.438324534691,0.573832396542,0.81894981303,0.00428150882357,0.0,0.818928702906,-0.573755488758,-0.0118813120792,0.0,-0.00727379916131,0.0103243310272,-0.999920246837,0.0,0.441407826966,-0.0282572494092,0.304756487202,1.0,-0.15998,-0.210259428571,2.866
0.0597713125793,-0.29447436462,-0.13011690958,-2.44819065666,-0.0330638276679,2.14812932976,-0.220562927635,-0.498032664244,-0.450148371955,-0.00790654245964,-0.42146447924,-0.0642033479343,-0.015608092536,-0.447916049436,0.573973333597,0.818849770902,0.00451795463287,0.0,0.818832125737,-0.573896180247,-0.0117418508066,0.0,-0.00702211013396,0.0104391566322,-0.999920853857,0.0,0.438900416441,-0.0316709174548,0.304836363999,1.0,-0.15998,-0.210259428571,2.882
0.0514173432043,-0.302129036382,-0.130169081324,-2.4553573864,-0.0342777184856,2.14777522186,-0.228166083861,-0.496035397534,-0.448558554471,-0.00217389632056,-0.426985154546,-0.0826950993981,-0.0250822697421,-0.453027463864,0.573830692667,0.818949293064,0.00459765650137,0.0,0.818933403245,-0.57375439654,-0.0116069118242,0.0,-0.00686767882575,0.010425777466,-0.999922066039,0.0,0.436063812787,-0.0353923543626,0.304887063362,1.0,-0.15998,-0.210259428571,2.9
0.0428547306543,-0.309590753269,-0.13024200715,-2.46261107403,-0.0355267284233,2.14721632515,-0.235801886721,-0.507730339688,-0.436864973916,-0.00631483351804,-0.408179318637,-0.0678865205518,-0.0258225047502,-0.451371230043,0.573870177457,0.818922602076,0.00442019639055,0.0,0.818903315471,-0.573792817941,-0.0118283089086,0.0,-0.00715033023278,0.0104078275946,-0.999920271773,0.0,0.433439023902,-0.0387593749383,0.304795965843,1.0,-0.15998,-0.210259428571,2.916
0.034196176,-0.31710147198,-0.130426405068,-2.46963886984,-0.0366461386841,2.14675154741,-0.243617987584,-0.514187195148,-0.433621000282,-0.0128921019074,-0.402788928511,-0.071461369713,-0.0260606862919,-0.46699854621,0.573964182083,0.818856054357,0.00454167698203,0.0,0.818838044053,-0.573885951473,-0.01182874527,0.0,-0.00707977137123,0.0105083763195,-0.99991972221,0.0,0.430716210831,-0.0423638712827,0.30480768395,1.0,-0.15998,-0.210259428571,2.933
0.0250407732831,-0.324945953539,-0.130495030886,-2.47670729956,-0.0378853836754,2.14628619947,-0.252003062745,-0.506487169035,-0.43677131096,-0.0018934050161,-0.394794916598,-0.0680874605363,-0.0283312479357,-0.47508751413,0.573846806524,0.818937230588,0.00473306454434,0.0,0.818923358147,-0.573770513927,-0.011518581959,0.0,-0.00671743206515,0.0104861204742,-0.999922455685,0.0,0.427941179063,-0.0461006188126,0.304927258728,1.0,-0.15998,-0.210259428571,2.951
0.016171110595,-0.332170305033,-0.130560549065,-2.4835431098,-0.0390340007056,2.14564309153,-0.260016254411,-0.519941020471,-0.417472825793,-0.000175788003714,-0.402938978637,-0.0698717729994,-0.042398292114,-0.477293374024,0.573842419749,0.81894085287,0.00463720811399,0.0,0.818924765496,-0.573764920329,-0.0116957923496,0.0,-0.00691762800348,0.0105092686861,-0.999920847715,0.0,0.425177495177,-0.0496636272036,0.304854076541,1.0,-0.15998,-0.210259428571,2.968
0.0071894539326,-0.339408083561,-0.130749565269,-2.49020302846,-0.0401226494006,2.14495959252,-0.268121671088,-0.530082026154,-0.429194635378,-0.00642384923593,-0.386789254,-0.0636074297926,-0.0372850337113,-0.477366162842,0.573976888423,0.818846296214,0.00469272139157,0.0,0.818830142886,-0.573897989155,-0.0117916091499,0.0,-0.0069625061583,0.0106108571488,-0.999919463366,0.0,0.422427886164,-0.0532766007556,0.304843691651,1.0,-0.15998,-0.210259428571,2.985
-0.00173778077598,-0.346534530486,-0.130835588798,-2.49669725871,-0.041211718042,2.14429256717,-0.276370763169,-0.526570543084,-0.410962555096,-0.00488781998332,-0.378881712724,-0.0687587811632,-0.0403389477961,-0.493249115434,0.573870273968,0.818920719295,0.00474458293381,0.0,0.818905075864,-0.573790968488,-0.011796105567,0.0,-0.00693780999352,0.0106550025227,-0.99991916559,0.0,0.4197162074,-0.0567899220875,0.304848090594,1.0,-0.15998,-0.210259428571,3.002
-0.0104046456531,-0.353200736355,-0.130920972247,-2.50249928561,-0.0422912026252,2.14369250068,-0.284201970211,-0.545599961675,-0.410939335912,-0.00363975783421,-0.356628800953,-0.0595593071813,-0.0325959555715,-0.497946779456,0.57391667573,0.818887359472,0.00488760858531,0.0,0.818875170194,-0.573839424719,-0.0115116106751,0.0,-0.00662213746682,0.010609250904,-0.999921792487,0.0,0.4172346472,-0.0601950683123,0.304962781716,1.0,-0.15998,-0.210259428571,3.018
-0.0196594771203,-0.360094069455,-0.131094419044,-2.50880216443,-0.0433662419284,2.14289351717,-0.292634685209,-0.54455531002,-0.401584780543,-0.00131509296709,-0.380365173741,-0.0589152994816,-0.0502719077955,-0.490878471162,0.57399972548,0.818829268343,0.00486737652838,0.0,0.818815790274,-0.573920888571,-0.0116731384386,0.0,-0.006764948591,0.0106860687578,-0.999920018504,0.0,0.414475932956,-0.0637960759404,0.304912478877,1.0,-0.15998,-0.210259428571,3.035
-0.0277301355612,-0.366144242636,-0.131143543705,-2.51429506016,-0.044359332947,2.14215860994,-0.300198384358,-0.546348265627,-0.406649828114,-0.00275077815834,-0.361094478589,-0.0616749470306,-0.0473449271859,-0.50801289649,0.573790612851,0.818976258268,0.00479248355217,0.0,0.818961364612,-0.573711358514,-0.011760411832,0.0,-0.00688212833082,0.0106730782721,-0.999919357603,0.0,0.411889786256,-0.0670746778251,0.304876414301,1.0,-0.15998,-0.210259428571,3.051
-0.0372120528893,-0.372881357094,-0.131233562447,-2.52029916466,-0.0454176892596,2.141357952,-0.308833712588,-0.555477369181,-0.392007443027,-0.000843330249888,-0.350297246019,-0.0496266937297,-0.0455055471993,-0.505841288368,0.573842878408,0.818939555944,0.00480640313448,0.0,0.818924650574,-0.573763270429,-0.0117844427438,0.0,-0.00689314144054,0.0106987065352,-0.99991900786,0.0,0.409322688722,-0.0704588213927,0.304866272235,1.0,-0.15998,-0.210259428571,3.067
-0.0478852933428,-0.380315183393,-0.131405863855,-2.52667266875,-0.0465382553081,2.14046841632,-0.318554208344,-0.55483205536,-0.391364919034,-0.00196062871057,-0.33282002646,-0.0637282549136,-0.048099508003,-0.522871880171,0.573993759952,0.818832708079,0.00499065300127,0.0,0.818820974104,-0.573914773494,-0.0116099971172,0.0,-0.00664256378336,0.010750724235,-0.999920145949,0.0,0.406348881827,-0.0744960175733,0.304954414158,1.0,-0.15998,-0.210259428571,3.086
-0.0568086496255,-0.386438093453,-0.131481110584,-2.53204723991,-0.0475378740666,2.13966909892,-0.326925316931,-0.568277648944,-0.379637531842,-0.00610756886424,-0.342765755194,-0.0692556447127,-0.0547064015367,-0.530719008788,0.573834735352,0.818944206149,0.00498303324742,0.0,0.818932490596,-0.573755988794,-0.0115925868709,0.0,-0.00663476442388,0.0107332034945,-0.999920385953,0.0,0.403808026099,-0.0778042916983,0.304952879428,1.0,-0.15998,-0.210259428571,3.102
-0.0666099279556,-0.392895101471,-0.131623158018,-2.53779399536,-0.048600666058,2.13869127209,-0.335888991665,-0.575263318936,-0.377404644511,-0.0129726943068,-0.332436840664,-0.0625412600203,-0.0571738871467,-0.526415157256,0.573913122682,0.818889785758,0.00489829517645,0.0,0.818875933538,-0.573832976488,-0.011775715182,0.0,-0.00683234112548,0.0107695408543,-0.999918664745,0.0,0.401010013391,-0.081418056574,0.30488979574,1.0,-0.15998,-0.210259428571,3.119
-0.0752113532524,-0.398523127627,-0.131719878515,-2.54259598234,-0.0494619802928,2.13788706647,-0.343881525649,-0.562569324471,-0.370559029085,-0.00453452447547,-0.318282937985,-0.0578704759887,-0.0556496005792,-0.534935590417,0.573895513115,0.818901677303,0.00497291046033,0.0,0.818888998726,-0.573815449475,-0.0117211181115,0.0,-0.00674504029331,0.0107991666779,-0.99991893793,0.0,0.398625883253,-0.0845539502862,0.304922508761,1.0,-0.15998,-0.210259428571,3.134
-0.0855786644666,-0.405067138244,-0.131801407163,-2.54824598431,-0.050519367682,2.1368794217,-0.353599903151,-0.594765750907,-0.366470254872,-0.00575580950107,-0.309126376167,-0.0620049150881,-0.051280595458,-0.542917180181,0.573772704083,0.818987849149,0.00495317034932,0.0,0.818974719248,-0.573692414979,-0.0117545365339,0.0,-0.00678535697333,0.0108011614644,-0.999918643611,0.0,0.395756639583,-0.088287042432,0.304912278548,1.0,-0.15998,-0.210259428571,3.152
-0.0951136376037,-0.410764996879,-0.131949524834,-2.55302856614,-0.0514505312506,2.13603455286,-0.36229017691,-0.601964468527,-0.350720337405,-0.011553773326,-0.301840327344,-0.0491949842091,-0.0509733733793,-0.54881689146,0.573950701621,0.818862692521,0.00502292808335,0.0,0.818851114567,-0.573871197377,-0.0116382084095,0.0,-0.00664770890978,0.0107929959403,-0.999919656375,0.0,0.393231863839,-0.0917384649938,0.304955493911,1.0,-0.15998,-0.210259428571,3.168
-0.105066978024,-0.416780461216,-0.132024168282,-2.55810889388,-0.0523141152174,2.13509597711,-0.371670899347,-0.582562035329,-0.350181834676,-0.00169174603315,-0.306279081448,-0.0492659010637,-0.0604232255008,-0.555785703826,0.573864862072,0.818922196233,0.00512869343701,0.0,0.818911945295,-0.573784971891,-0.0116094266058,0.0,-0.00656457630188,0.0108623994521,-0.999919454064,0.0,0.390536773727,-0.095244642627,0.304973859747,1.0,-0.15998,-0.210259428571,3.185
-0.115818263431,-0.423050736108,-0.132169161352,-2.56345741789,-0.0533107150472,2.13392689088,-0.381738371128,-0.605939753785,-0.343800585602,-0.00902292163631,-0.28910557289,-0.0540620386989,-0.0629018267289,-0.560540701166,0.573863869101,0.818923147933,0.00508767341249,0.0,0.81891115862,-0.57378213733,-0.0118033923254,0.0,-0.00674698497515,0.0109401035482,-0.999917392752,0.0,0.387428873903,-0.0992358771928,0.304930845579,1.0,-0.15998,-0.210259428571,3.204
-0.126177976769,-0.428750087821,-0.132313050305,-2.56826677217,-0.0542605262897,2.13295696476,-0.391263384312,-0.601503333594,-0.335311213574,-0.0105631368208,-0.276000945331,-0.0478531366738,-0.0497909649333,-0.555275925844,0.573997462134,0.818829450352,0.00509819589195,0.0,0.818817685002,-0.573915812627,-0.0117892173718,0.0,-0.00672755266863,0.0109416844712,-0.999917506385,0.0,0.384863995441,-0.102647736225,0.304927787904,1.0,-0.15998,-0.210259428571,3.22
-0.136327717192,-0.43428669231,-0.132346355088,-2.57290336081,-0.0551126957116,2.13198638667,-0.400980045926,-0.602842673691,-0.321707979385,-0.0071347962203,-0.273206134596,-0.0458116932305,-0.0656391888219,-0.569902519465,0.573783685042,0.818979116668,0.00512212294076,0.0,0.818967585427,-0.573701866994,-0.0117901962402,0.0,-0.00671748234038,0.0109600859187,-0.99991737256,0.0,0.382190756111,-0.106119469211,0.304923313459,1.0,-0.15998,-0.210259428571,3.237
-0.145620512317,-0.439097226945,-0.132488497584,-2.57688119437,-0.0558817196054,2.13105126403,-0.409651444087,-0.622555866727,-0.322199719496,-0.016691992223,-0.263343577858,-0.049847245365,-0.0577797920198,-0.580714842802,0.573870129246,0.818918379852,0.00514866989458,0.0,0.818906815392,-0.573787586851,-0.0118397542861,0.0,-0.00674167932172,0.0110109741846,-0.99991665063,0.0,0.3797788125,-0.109322803544,0.304924170521,1.0,-0.15998,-0.210259428571,3.252
-0.156122599592,-0.444541853884,-0.132578523799,-2.58119447631,-0.0567536178144,2.13007660683,-0.419518499388,-0.60522653083,-0.321920804494,0.000749488856457,-0.253061992946,-0.0430854065224,-0.053363695666,-0.59394624411,0.57386486044,0.818921469267,0.00524366536221,0.0,0.818912369611,-0.573784045652,-0.0116252635968,0.0,-0.00651157178764,0.0109656438214,-0.999918673737,0.0,0.377106802059,-0.112902567763,0.3050108452,1.0,-0.15998,-0.210259428571,3.269
-0.166654786491,-0.449838230276,-0.132671352421,-2.58555404936,-0.0576279522008,2.12903842537,-0.429481649305,-0.621539436744,-0.306788419355,-0.00585580932975,-0.259883825111,-0.0563904599601,-0.0596750434084,-0.595368206058,0.573803330373,0.81896465121,0.00523307011126,0.0,0.818955297557,-0.573722363955,-0.0116454541493,0.0,-0.0065350117598,0.0109680620339,-0.999918494297,0.0,0.374367241327,-0.116440490281,0.305004243876,1.0,-0.15998,-0.210259428571,3.286
-0.177460073391,-0.45488404654,-0.132839516517,-2.58974847755,-0.0584229670418,2.1279675613,-0.439568698457,-0.629522753854,-0.287817101589,0.000686463028563,-0.236444283176,-0.0423930089554,-0.0592080116787,-0.591322836361,0.573960472459,0.818854413027,0.00525102106743,0.0,0.818844229747,-0.573877642061,-0.0118036542657,0.0,-0.00665215887139,0.0110748125049,-0.999916545173,0.0,0.371599020799,-0.120066339456,0.304962400073,1.0,-0.15998,-0.210259428571,3.303
-0.187405867003,-0.459488620067,-0.132887075535,-2.59344335328,-0.0590958564507,2.12707288821,-0.449172345221,-0.62594967317,-0.28793458678,-0.00644297724662,-0.229350200151,-0.0403120501208,-0.0538759660319,-0.60419486852,0.573796713603,0.818968590314,0.00534101468069,0.0,0.818959826487,-0.573714026762,-0.0117373334962,0.0,-0.00654841850536,0.011109133728,-0.999916849224,0.0,0.369106813034,-0.123347367155,0.304987127722,1.0,-0.15998,-0.210259428571,3.319
-0.198330791147,-0.464225221649,-0.13303316842,-2.59736916843,-0.0598919955305,2.12606368476,-0.459462040343,-0.646392710934,-0.272685646846,-0.0147459854501,-0.228354696258,-0.0541050911376,-0.0619689700362,-0.610660166806,0.573878863257,0.818911109165,0.00532846086295,0.0,0.818901418226,-0.573794915733,-0.0118578584681,0.0,-0.00665321637364,0.0111686735276,-0.999915494151,0.0,0.366354008063,-0.126959053714,0.304939023186,1.0,-0.15998,-0.210259428571,3.336
-0.210471104668,-0.469434092222,-0.133123119399,-2.60153914894,-0.0607447225469,2.12493006904,-0.471019786379,-0.629483847049,-0.276958985297,-0.00210469450108,-0.212394385111,-0.0397619946173,-0.0602487481526,-0.609697014998,0.573836967694,0.818940374005,0.00534277403049,0.0,0.818930790068,-0.573752843665,-0.0118651744747,0.0,-0.00665156669214,0.0111842532312,-0.999915330986,0.0,0.363323247109,-0.1309175715,0.30494453696,1.0,-0.15998,-0.210259428571,3.355
-0.220161912741,-0.4735095851,-0.13323771731,-2.60461839082,-0.0614030377055,2.12408608146,-0.480285845796,-0.648926066354,-0.278875297375,-0.00820080202588,-0.204056040426,-0.0361722796187,-0.0563719118873,-0.631424956913,0.573850191585,0.818930408638,0.00544888312651,0.0,0.818923309558,-0.573767590879,-0.0116666884861,0.0,-0.00642793718258,0.0111573636401,-0.999917093993,0.0,0.360798207117,-0.134303636062,0.305029358091,1.0,-0.15998,-0.210259428571,3.371
-0.23200139643,-0.478135798121,-0.13335607365,-2.60823822102,-0.0621945674473,2.12307178825,-0.491453256946,-0.646616240374,-0.245580480582,-0.000619408282618,-0.193572601071,-0.0440479762117,-0.053817024981,-0.627393436824,0.573925537364,0.818877447695,0.00547267016398,0.0,0.818871122085,-0.573843657709,-0.0115883054407,0.0,-0.00634906715725,0.0111324503193,-0.999917875576,0.0,0.358079675851,-0.137924401862,0.305057387356,1.0,-0.15998,-0.210259428571,3.388
-0.241641659873,-0.481786709526,-0.133392222028,-2.61122074702,-0.0627597951059,2.1222277681,-0.500864056848,-0.648667963236,-0.241083388973,-0.00995201192562,-0.202072381287,-0.0412292996535,-0.0598463745641,-0.628773650687,0.57375883814,0.818994195191,0.0054818609836,0.0,0.818987269921,-0.57367570348,-0.011695548123,0.0,-0.00643389943868,0.0112002141024,-0.999916576591,0.0,0.35553587987,-0.14118958872,0.305016749271,1.0,-0.15998,-0.210259428571,3.404
-0.253014780005,-0.485806674009,-0.133543746706,-2.61446624165,-0.0634871102587,2.12122369566,-0.511583302693,-0.676920295281,-0.234506126663,-0.0097079447108,-0.192942860371,-0.0406601178527,-0.0542723557756,-0.633308151042,0.573897035737,0.818897586915,0.00544806566785,0.0,0.818889364455,-0.573812510157,-0.0118388712074,0.0,-0.00656878129659,0.0112558728351,-0.999915074613,0.0,0.352917232811,-0.144614839507,0.304973588402,1.0,-0.15998,-0.210259428571,3.42
-0.265503997257,-0.490068747172,-0.133592277797,-2.61787372954,-0.0641726263022,2.12019386916,-0.523703708642,-0.658324007244,-0.217246216455,-0.00519159507541,-0.177779941148,-0.0372256487253,-0.0529407586174,-0.635004346895,0.573755893642,0.818996384215,0.00546297134536,0.0,0.818987749797,-0.573670304153,-0.011924542605,0.0,-0.00663234053676,0.011316101078,-0.999913975258,0.0,0.349901332549,-0.148536990161,0.30494437469,1.0,-0.15998,-0.210259428571,3.439
-0.27623824695,-0.493540599972,-0.133742495707,-2.62058122373,-0.0647556011914,2.11938404327,-0.533965102866,-0.683553553017,-0.224222181829,-0.00867336386812,-0.169282953617,-0.0282186836034,-0.052133309924,-0.645926046994,0.573853708354,0.818927385229,0.00553227183015,0.0,0.818919642655,-0.573767824298,-0.0119100619547,0.0,-0.00657936299617,0.0113653381076,-0.999913766818,0.0,0.34733996542,-0.151936349177,0.30494722094,1.0,-0.15998,-0.210259428571,3.455
-0.287627440835,-0.497134218568,-0.133787251962,-2.62331968105,-0.0653425478767,2.11848893475,-0.544958820268,-0.653488673314,-0.209646317018,0.00232835496697,-0.157799722805,-0.0297065846735,-0.0485111409141,-0.648221999385,0.573828960151,0.81894447385,0.00556957305692,0.0,0.818937354035,-0.573743180658,-0.0118793819271,0.0,-0.00653317540525,0.0113780838642,-0.999913924709,0.0,0.344788429317,-0.155285285267,0.30496967934,1.0,-0.15998,-0.210259428571,3.471
-0.29768751247,-0.500157988022,-0.133831534783,-2.62562177024,-0.0658453745394,2.11773019881,-0.554704045854,-0.675181247785,-0.197411934849,-0.00242053063474,-0.147786507317,-0.0351349804058,-0.0517584545303,-0.661970705688,0.573754304987,0.818996542536,0.0056042595312,0.0,0.818990068287,-0.573668752648,-0.0118396445842,0.0,-0.00648176419854,0.0113830991058,-0.999914202213,0.0,0.342256558485,-0.158600361012,0.304992307691,1.0,-0.15998,-0.210259428571,3.487
-0.310057840223,-0.503573293057,-0.133971104571,-2.62822602948,-0.0664449906434,2.11688113464,-0.566502669426,-0.671685919422,-0.182721687392,-8.12215280754e-05,-0.142889981661,-0.0334526516483,-0.0428576874002,-0.658913706666,0.573921047786,0.818879281269,0.00566573182992,0.0,0.818873767126,-0.573835525659,-0.0118021144232,0.0,-0.00641343225189,0.0114132207828,-0.999914299467,0.0,0.339359121363,-0.162454638384,0.305007156769,1.0,-0.159532,-0.209670628571,3.505
-0.32078621928,-0.506390536266,-0.133977043916,-2.63037243425,-0.0669201671392,2.11622134047,-0.577051998466,-0.676651144369,-0.172914099845,-0.00552162284785,-0.136436406627,-0.0359794227037,-0.0515172174218,-0.663290782993,0.573748816764,0.818999727797,0.00569982740189,0.0,0.818995150225,-0.573664091345,-0.011713287749,0.0,-0.00632351491798,0.0113888352561,-0.999915150196,0.0,0.336875394981,-0.165745390376,0.305023767164,1.0,-0.15774,-0.207315428571,3.521
-0.331738129853,-0.509079184755,-0.134055590243,-2.63240383189,-0.0673938279036,2.11554047041,-0.587484976579,-0.683857891022,-0.159015338226,-0.00271505731089,-0.124475220879,-0.0335142733357,-0.0410692537892,-0.649821871822,0.573921896677,0.818878173319,0.00573939694603,0.0,0.818874313838,-0.573837372577,-0.0116736828718,0.0,-0.00626596428155,0.0113998464334,-0.999915387017,0.0,0.334178442214,-0.169324763592,0.305036463137,1.0,-0.155836,-0.204813028571,3.538
-0.344388554891,-0.512012430472,-0.134001471561,-2.63466264715,-0.0678359651515,2.11472675478,-0.599880608952,-0.659572309561,-0.141975102034,0.000348992547781,-0.116256048958,-0.0213381454709,-0.0408483760949,-0.6469857769,0.573767540471,0.818986037525,0.00578158652804,0.0,0.818982382659,-0.573682275845,-0.0117153820401,0.0,-0.00627806146981,0.0114571440346,-0.999914656256,0.0,0.331412092343,-0.172919106323,0.305031023992,1.0,-0.15382,-0.202163428571,3.556
-0.355859378189,-0.514397931903,-0.134028932129,-2.63654069251,-0.0682508895076,2.11402857103,-0.610892345364,-0.678347112681,-0.134204588883,-0.00276347029373,-0.10779793147,-0.0301688225037,-0.0418349087173,-0.643894973446,0.573880192019,0.818906981561,0.00579893606275,0.0,0.818902832556,-0.573793533579,-0.0118270264789,0.0,-0.00635796495078,0.0115362835035,-0.999913241459,0.0,0.32875929577,-0.176383962355,0.304999097701,1.0,-0.151916,-0.199661028571,3.573
-0.36645021833,-0.516454234909,-0.13397629608,-2.63814395924,-0.0685842139588,2.11344313685,-0.621185388419,-0.646045237506,-0.124074467692,0.00593855102174,-0.106031436706,-0.0157934201342,-0.0385455456905,-0.637779793916,0.573849060549,0.818928699917,0.0058126637913,0.0,0.818924219793,-0.573761433489,-0.0119032171115,0.0,-0.00641292727335,0.0115910042799,-0.999912257642,0.0,0.326187215968,-0.179741552918,0.304971950083,1.0,-0.150012,-0.197158628571,3.59
-0.378263659265,-0.518558614966,-0.133966414399,-2.6398051943,-0.0689278510069,2.11281444123,-0.63264530112,-0.660007097956,-0.114231367293,-0.00265504633421,-0.0894280996358,-0.01295910281,-0.0367962795185,-0.646489403902,0.573895816482,0.818895638623,0.00585420969862,0.0,0.818891101864,-0.573806936695,-0.0119878934884,0.0,-0.00645777189214,0.0116739869125,-0.999911003646,0.0,0.323633606779,-0.183079669442,0.30494747908,1.0,-0.148108,-0.194656228571,3.607
