nelsonifechukwu/NELSON_IML_WORK/CNN-GradCAM/train2dof/data_sample_2022-02-22-07-30-11/robot_state.csv
position_joint1,position_joint2,position_joint3,position_joint4,position_joint5,position_joint6,position_joint7,velocity_joint1,velocity_joint2,velocity_joint3,velocity_joint4,velocity_joint5,velocity_joint6,velocity_joint7,ee_T_00,ee_T_10,ee_T_20,ee_T_30,ee_T_01,ee_T_11,ee_T_21,ee_T_31,ee_T_02,ee_T_12,ee_T_22,ee_T_32,ee_T_03,ee_T_13,ee_T_23,ee_T_33,v_x,v_y,time
0.465061009329,0.547677025787,-0.124038307664,-1.35586012086,0.0795301488572,1.89415140003,0.159127907147,-0.000171185477762,0.00245188626468,0.000847143120519,5.15909027911e-05,-0.000339614180852,-0.000375632915146,-0.000200776212563,0.573834936238,0.818956635894,0.00205946083894,0.0,0.81891493308,-0.573775933347,-0.0118430397814,0.0,-0.00851743094004,0.00848263652997,-0.999927746514,0.0,0.661696824225,0.260859789588,0.303281381401,1.0,0.0,0.0,0.0
0.465067095326,0.547671295135,-0.124040073395,-1.35586012063,0.0795294367803,1.89415209609,0.159128986663,0.00113905828152,0.000416429586856,0.000216806149404,-0.000312538356372,-0.000549539331195,0.000292339977156,-0.000785441908381,0.573831875371,0.818958768606,0.0020642267265,0.0,0.818917144168,-0.573772870086,-0.0118385574344,0.0,-0.00851105698938,0.00848393561209,-0.999927789766,0.0,0.661695973248,0.26086280315,0.303285558798,1.0,-0.00016,-0.000210285714286,0.009
0.465058854112,0.547664971952,-0.124041058889,-1.35586047634,0.0795307592087,1.89414801937,0.159134112443,-0.00113773355179,0.000667139956124,-0.000654349803156,0.000526032276161,2.07269130715e-05,0.000189003691261,0.00637965436246,0.573843840708,0.818950378506,0.00206662228862,0.0,0.818908773857,-0.573784813031,-0.0118387219259,0.0,-0.00850969315672,0.00848611616745,-0.99992778287,0.0,0.661697547925,0.260856758288,0.303289549775,1.0,-0.00046,-0.000604571428571,0.024
0.465065864944,0.547647703002,-0.124043119605,-1.35587283521,0.0795314712315,1.89415090413,0.159133993709,0.00133535539349,-0.00495577541411,0.00178835445476,-0.00204482891164,0.000157940086005,0.0083831263952,0.000723783000992,0.573840294257,0.818952845196,0.00207386946347,0.0,0.81891133,-0.573781233247,-0.0118354075851,0.0,-0.00850285704385,0.00849011243282,-0.999927807101,0.0,0.661694351844,0.260859277209,0.30329622093,1.0,-0.00078,-0.00102514285714,0.04
0.465060542345,0.547573225621,-0.12404071041,-1.35593494543,0.079527080945,1.89416427293,0.159126023773,-0.0027185772879,-0.00550383372432,0.000256726407596,-0.00220753113368,5.90186867281e-05,0.00126192140907,-0.00229898088222,0.573838630833,0.818953950865,0.00209738590799,0.0,0.818912724066,-0.573779458959,-0.011824962558,0.0,-0.0084808261364,0.00850336004731,-0.999927881627,0.0,0.661685831849,0.260850955764,0.303320491287,1.0,-0.00114,-0.00149828571429,0.058
0.465058748926,0.547448952027,-0.124041397675,-1.35609932714,0.079528004514,1.8941961958,0.159130967044,-0.000286708127687,-0.00690661666822,-0.000753673977047,-0.0126138810623,0.000182483974667,-0.000377468167598,0.000525320183866,0.573853851545,0.818943285047,0.00209758075225,0.0,0.818901930168,-0.573794546088,-0.0118403779111,0.0,-0.00849318110713,0.00851252328716,-0.999927698797,0.0,0.661658367487,0.260833805836,0.303333079809,1.0,-0.00148,-0.00194514285714,0.075
0.46504188267,0.547294348688,-0.1240431688,-1.35631474604,0.0795252394884,1.89428190493,0.15912766953,-0.0015346098811,-0.00793995855594,-0.000237803910591,-0.0164279387219,0.000284213722043,0.00846777478099,0.000521854972927,0.573877550423,0.818926610508,0.00212382284842,0.0,0.818885523987,-0.573818064346,-0.0118353088918,0.0,-0.0084737246246,0.00853135011631,-0.999927703415,0.0,0.661635115089,0.260803456002,0.30334755828,1.0,-0.00182,-0.002392,0.092
0.465034629492,0.547133765499,-0.124043880402,-1.35649458646,0.0795231068257,1.89437510627,0.159112297693,-0.00113475499818,-0.012976818035,-0.000415939452602,-0.0104135771069,0.000225248265331,0.00703873710997,0.000757794738851,0.573881005834,0.818924010896,0.00219144312469,0.0,0.818883767992,-0.573821217381,-0.0118038935623,0.0,-0.00840915720093,0.00856873248823,-0.999927928852,0.0,0.661618884966,0.260785000715,0.303383819283,1.0,-0.00212,-0.00278628571429,0.107
0.4650083557,0.546931966004,-0.124043222133,-1.35672994588,0.079517138952,1.89450441802,0.159100214105,-0.000971027305244,-0.0114451000875,-0.0036870570032,-0.0116647935192,0.000163963907883,0.007676447549,-0.00276040784073,0.573903953889,0.818907695384,0.00227707112019,0.0,0.818868550847,-0.573843818583,-0.0117607486732,0.0,-0.00832444467655,0.00861432794514,-0.999928245913,0.0,0.661603066583,0.260750537376,0.303425926932,1.0,-0.00246,-0.00323314285714,0.124
0.464984706815,0.546681051838,-0.124041093415,-1.35707362737,0.0795101920137,1.89463918969,0.15905723542,8.50093956725e-05,-0.0161656423881,0.000572531098749,-0.0202195665943,-5.20925036889e-05,0.0114023911772,-0.00191853822571,0.573904032072,0.818907516244,0.00232135995397,0.0,0.818868826345,-0.57384360402,-0.011752032509,0.0,-0.00829188983515,0.0086455945975,-0.999928246554,0.0,0.661563800514,0.260706650797,0.303451671751,1.0,-0.00282,-0.00370628571429,0.142
0.464944861528,0.546419905404,-0.124044116625,-1.35745612834,0.0794998900088,1.89477725404,0.158955629051,-0.00724757299772,-0.0206199646865,-0.000785582353635,-0.0232422424301,-0.000108028128995,0.00966421157729,-0.0014514024928,0.573874198434,0.818928361913,0.00234293141766,0.0,0.818889845574,-0.573813581619,-0.0117533512571,0.0,-0.00828090625679,0.00866371458171,-0.999928180742,0.0,0.66152212386,0.260644269891,0.303466620095,1.0,-0.00316,-0.00415314285714,0.159
0.464911143424,0.546120231757,-0.124041806091,-1.35794116307,0.0794791894273,1.89494170532,0.1589327866,-0.0028764481873,-0.0204962753903,-0.000214141200972,-0.0248564343321,-0.00129172341128,0.0119885759852,0.000448865069338,0.573903065388,0.818908169078,0.00233003360122,0.0,0.818869376999,-0.573842380598,-0.0117733829059,0.0,-0.00830440729628,0.00866494053005,-0.999927975219,0.0,0.661460924214,0.260577467541,0.303462124715,1.0,-0.00352,-0.00462628571429,0.177
0.464869746538,0.545863512342,-0.124043484746,-1.35835956148,0.0794553977089,1.89508283707,0.158876717999,-0.00766048331537,-0.0165884504701,-0.000769464496863,-0.0288239174324,0.00012703873102,0.00307620816096,-1.78877259472e-05,0.573909248399,0.818903884188,0.00231299897494,0.0,0.818864843304,-0.573848598983,-0.0117856161456,0.0,-0.00832413588336,0.00865807434197,-0.999927870654,0.0,0.661412290675,0.260508540934,0.303457015444,1.0,-0.0038,-0.00499428571429,0.191
0.464812227621,0.545534872205,-0.124040717275,-1.35893888831,0.0794066016379,1.89526968367,0.158783499225,0.000566788171383,-0.0170960729152,-0.000249082811982,-0.0340884391239,-0.00451372999634,0.00649304493698,-0.00387121428054,0.573897413296,0.818912349639,0.00225155995334,0.0,0.818872569772,-0.573837063176,-0.0118104319148,0.0,-0.00837984133633,0.00862188300877,-0.999927718084,0.0,0.661342251166,0.260412417746,0.303429987698,1.0,-0.00414,-0.00544114285714,0.208
0.464742209671,0.545125613796,-0.124044206448,-1.35965028071,0.0793678725315,1.89548695652,0.158724857826,-0.00395456442478,-0.0249792046774,3.63486914421e-05,-0.0399541243425,-0.00336174677361,0.0132868771967,-0.000527126123448,0.573938408294,0.818883810592,0.00218062740945,0.0,0.818843017474,-0.573878238624,-0.0118586200202,0.0,-0.00845958020683,0.00859187444713,-0.999927304956,0.0,0.661254116858,0.260293485744,0.303400012787,1.0,-0.0045,-0.00591428571429,0.226
0.464667946443,0.544719465711,-0.124047066334,-1.36035558582,0.079339152084,1.89572029542,0.158611084593,-0.00160559554303,-0.0229234497837,-0.00176526491006,-0.0500330845381,-0.00333216946085,0.0125900868806,-0.00632429453897,0.573934935245,0.818886361984,0.00213615586065,0.0,0.818844798651,-0.573874750903,-0.0119043227036,0.0,-0.008522565684,0.00858165201902,-0.999926857887,0.0,0.661165130017,0.260170717923,0.303375723478,1.0,-0.00486,-0.00638742857143,0.244
0.464594118811,0.544266361492,-0.124045212549,-1.36109269456,0.079304949786,1.89597702386,0.158547440258,-0.00770155355906,-0.0224200255792,0.000666072621418,-0.0443084279604,-0.00232597453559,0.0188249266871,-0.00226323048993,0.573978703979,0.818855742312,0.00211366117426,0.0,0.818813787093,-0.573918506398,-0.0119279914694,0.0,-0.00855439974351,0.0085772731345,-0.999926623623,0.0,0.661085125394,0.260058110565,0.303364094261,1.0,-0.00518,-0.006808,0.26
0.464539554752,0.543837977587,-0.124047589749,-1.36179171647,0.0792679570236,1.89622673001,0.158457097721,-0.00190549096327,-0.0339067353178,0.000428801937467,-0.0535942702685,-0.000676583726427,0.011736742678,-0.00228178378669,0.573980177135,0.818854750879,0.00209764611725,0.0,0.818812530512,-0.573919988577,-0.0119429263386,0.0,-0.00857580604694,0.00857274695266,-0.999926479078,0.0,0.661002172204,0.259954266421,0.30335621178,1.0,-0.00548,-0.00720228571429,0.275
0.464453110751,0.543320312081,-0.124051388078,-1.3626356229,0.0792206385058,1.89650628602,0.158333814031,-0.00506759182776,-0.0320511012451,-0.00276397912155,-0.049594661309,-0.00216747153137,0.0251227249484,-0.00800283317557,0.573986903743,0.81885013264,0.00205949224541,0.0,0.818807343659,-0.57392680152,-0.0119711055579,0.0,-0.0086207095521,0.00855774995149,-0.99992622142,0.0,0.660903258122,0.259812858962,0.303345112343,1.0,-0.00582,-0.00764914285714,0.292
0.46437973719,0.542775013995,-0.124059479431,-1.36350780483,0.0791652851225,1.89682015792,0.158228658768,-0.00690027850207,-0.034646716882,-0.000763977740651,-0.0539434730039,-0.00207198831974,0.0183202706855,-0.00173527718996,0.574000307833,0.818840774275,0.0020444787813,0.0,0.818797833467,-0.573940310219,-0.0119739349134,0.0,-0.00863150353282,0.00854722168346,-0.999926218352,0.0,0.660803315915,0.259675647669,0.303343146778,1.0,-0.00616,-0.008096,0.309
0.464302666448,0.542181685594,-0.124059926954,-1.36442517175,0.0791130461846,1.8971519865,0.158106185145,-0.00388341485725,-0.0399098300684,6.4111230056e-05,-0.0536933426689,-0.000113987302323,0.0227688908432,-0.00295188202617,0.574000467982,0.81884064094,0.00205290081665,0.0,0.818797764871,-0.573940390458,-0.0119747795038,0.0,-0.00862735953115,0.00855460434199,-0.999926190982,0.0,0.660696705537,0.259537421865,0.303354885277,1.0,-0.0065,-0.00854285714286,0.326
0.464220390025,0.541550304502,-0.124063294258,-1.36538288332,0.0790533918434,1.89749926399,0.157975046484,0.000248516258706,-0.0451641955605,-0.000562839238051,-0.0573861444462,-0.0066128426006,0.0157595368859,-0.00351806608577,0.574000022956,0.818840911314,0.00206942159035,0.0,0.818798267341,-0.573939893177,-0.011964251797,0.0,-0.00860926099307,0.00856208446535,-0.99992628295,0.0,0.66058715761,0.259389633267,0.303375668917,1.0,-0.00684,-0.00898971428571,0.343
0.464148029166,0.540927172036,-0.12406615659,-1.36633215555,0.0790007168004,1.89784849671,0.157857735313,-0.00442408659325,-0.044258436127,-0.000980745765998,-0.061983813823,-0.00109207373862,0.0294884447667,-0.00976007992151,0.574003802132,0.818838207231,0.00209103260492,0.0,0.818795807925,-0.573943545284,-0.0119573681463,0.0,-0.00859118063642,0.00857586862267,-0.999926320332,0.0,0.660476494271,0.259250848521,0.303394715661,1.0,-0.00716,-0.00941028571429,0.359
0.464048153918,0.540193298757,-0.12406317896,-1.36745549964,0.0789359455208,1.89825515518,0.157705976827,-0.00445364141893,-0.0402035470486,0.00015094808952,-0.0663424990863,-0.00467636920364,0.0209440377097,-0.0111360885815,0.574004108783,0.818837947401,0.00210852967274,0.0,0.818795711779,-0.573943715181,-0.0119557968263,0.0,-0.00857984796752,0.00858929692685,-0.999926302378,0.0,0.660346291255,0.259080016998,0.303413863381,1.0,-0.00752,-0.00988342857143,0.377
0.46394865213,0.539397455197,-0.124070153627,-1.3686755096,0.0788617566573,1.898709183,0.157573798447,-0.00324482655878,-0.0462542988684,4.48115452165e-05,-0.0676025057396,-0.00153720878238,0.0216049384851,-0.00136451481861,0.574029943265,0.818819777346,0.00213151671666,0.0,0.818777877161,-0.573969487822,-0.0119399255653,0.0,-0.00855338631394,0.00859927909,-0.999926443286,0.0,0.660207300856,0.25889470167,0.303435091103,1.0,-0.00788,-0.0103565714286,0.395
0.463849599503,0.538637901401,-0.124070565884,-1.36984280613,0.078798124076,1.89915873321,0.157419090694,-0.0047182421111,-0.0423467368664,-0.000394281712701,-0.0672601622377,-0.000871395776775,0.0273431775521,-0.0119394005318,0.574032280249,0.818818037855,0.00217002686274,0.0,0.818776595202,-0.573971622799,-0.0119251947999,0.0,-0.00851919478803,0.00862237997708,-0.999926536243,0.0,0.660076199568,0.258720681645,0.303455048118,1.0,-0.00822,-0.0108034285714,0.412
0.463754275273,0.537985078243,-0.124078566517,-1.37084522413,0.0787392823882,1.89954786748,0.157303476847,-0.0103664837579,-0.0435576596741,-0.000498847040995,-0.0713237751302,-0.00244489112897,0.0261364950042,-0.00774283764725,0.574060995181,0.818797821946,0.00220170155013,0.0,0.818756836081,-0.574000251066,-0.0119038669298,0.0,-0.0084832464011,0.0086363701683,-0.999926721136,0.0,0.65996869238,0.258559578681,0.303472985472,1.0,-0.0085,-0.0111714285714,0.426
0.463642573758,0.537183681474,-0.124081875522,-1.37212113562,0.0786691078846,1.90001616005,0.157150753317,-0.00960634963236,-0.0467180452959,-0.00114277194809,-0.0767205275211,-0.00600799282725,0.0307468018923,-0.00762474692098,0.574081315401,0.818783583496,0.00219854627742,0.0,0.818742491087,-0.574020514825,-0.0119133853175,0.0,-0.00849263716537,0.0086394615063,-0.999926614717,0.0,0.659821096674,0.258363424024,0.303472268946,1.0,-0.00884,-0.0116182857143,0.443
0.46352942686,0.536337259661,-0.124085334095,-1.37343155838,0.0785882278876,1.90050808492,0.156984947767,-0.00332470154687,-0.0527757951125,-0.0005703809702,-0.08043549634,-0.00677527267516,0.0298110882605,-0.0156421763896,0.574091146568,0.818776632603,0.00221996338566,0.0,0.818735849193,-0.574030289382,-0.0118988662915,0.0,-0.00846835049127,0.00864876391541,-0.999926740278,0.0,0.659672112447,0.258162613728,0.303488795029,1.0,-0.00918,-0.0120651428571,0.46
0.463417277418,0.53546666996,-0.124088232056,-1.37480390461,0.0785013487546,1.90100022428,0.156821593354,-0.0110425516452,-0.054756619324,0.00182767354946,-0.0805035209632,-0.0118469633093,0.0342025672338,-0.00786731058062,0.574103313495,0.818768131966,0.00220871263085,0.0,0.818727213212,-0.574042511265,-0.0119034662289,0.0,-0.00847844709925,0.00864231893254,-0.999926710443,0.0,0.659509064799,0.257954820487,0.303492736662,1.0,-0.00952,-0.012512,0.477
0.463288639806,0.534528375506,-0.124097269943,-1.37633804961,0.0784313604782,1.90154546701,0.15663294992,-0.00952379346127,-0.0485407922561,-0.00178099359952,-0.0873816006298,-0.00488275442442,0.0298591484428,-0.00776389856424,0.574125949598,0.818752349481,0.00217511354332,0.0,0.818710777191,-0.574065061313,-0.0119463630971,0.0,-0.00853262044325,0.00863967229735,-0.999926272508,0.0,0.659325165499,0.257720610304,0.303472124434,1.0,-0.00988,-0.0129851428571,0.495
0.46316258319,0.53360829197,-0.12409857535,-1.37781795785,0.0783377969678,1.90208052659,0.156451502453,-0.00755226439848,-0.0542686597404,0.00219084596757,-0.0848259357693,-0.00883481067587,0.0311226777415,-0.0172582595106,0.574137441653,0.818744355518,0.00215065112581,0.0,0.818702467198,-0.57407665502,-0.0119587317557,0.0,-0.00855667026215,0.00862686513232,-0.999926177571,0.0,0.659149842316,0.25749432317,0.303463100443,1.0,-0.01022,-0.013432,0.512
0.463033025724,0.532664009807,-0.124098614824,-1.37931793848,0.0782696194949,1.90265954453,0.156264776378,-0.00549166180112,-0.0600126120433,-0.00111403212942,-0.091514385564,-0.000258695576155,0.0398384541471,-0.016417785505,0.574154647965,0.818732209365,0.00218093308845,0.0,0.818690529301,-0.574093546245,-0.0119651282074,0.0,-0.00854434074674,0.00865550988372,-0.99992603546,0.0,0.65897808837,0.257271480077,0.303465215297,1.0,-0.01056,-0.0138788571429,0.529
0.46291552367,0.531823446501,-0.124096822418,-1.38067255481,0.0781839887483,1.90316274593,0.156094506766,-0.00798944003603,-0.0605487424533,0.000421812550838,-0.0892366319498,-0.00455975361243,0.0282225556486,-0.00601168752461,0.574161188247,0.818727655018,0.00216880632506,0.0,0.818685822345,-0.574100141132,-0.0119707620997,0.0,-0.00855584669194,0.00864888449897,-0.999925994404,0.0,0.658819421636,0.257065620251,0.303456540626,1.0,-0.01086,-0.0142731428571,0.544
0.462780487232,0.530813000983,-0.124101021908,-1.38228853857,0.0780813640799,1.90373072578,0.15588934254,-0.00597919632086,-0.0626050657557,9.14834932347e-05,-0.0919871803254,-0.0103027488332,0.0262283062111,-0.00388453939235,0.574167038288,0.818723645844,0.00213325605077,0.0,0.818681343887,-0.574106131855,-0.0119897221861,0.0,-0.00859171909849,0.0086307263762,-0.999925843713,0.0,0.658623619829,0.256817616409,0.303448805873,1.0,-0.0112,-0.01472,0.561
0.46263208794,0.529737796345,-0.124101732203,-1.38402996818,0.0779806592868,1.90436300503,0.155659182107,-0.00963302095251,-0.0589748023704,0.000478503829739,-0.09758575503,-0.00457017577325,0.0299387732385,-0.0154977624755,0.574168232244,0.818722879645,0.00210578446758,0.0,0.818680130817,-0.574107351883,-0.0120141092409,0.0,-0.00862744587484,0.00862224977325,-0.999925609226,0.0,0.658415108116,0.256553486081,0.303432239735,1.0,-0.01156,-0.0151931428571,0.579
0.462491204424,0.528669397499,-0.124105648473,-1.38570883363,0.0778661398309,1.9049896748,0.155424397883,-0.00954589045411,-0.0654030556652,-0.000837968849736,-0.102882093892,-0.00300018297065,0.0395010992813,-0.0172558631367,0.574157515837,0.818730369404,0.0021156854294,0.0,0.818687882155,-0.574096727834,-0.0119935651588,0.0,-0.00860505362473,0.00861844753292,-0.999925834957,0.0,0.658206040788,0.256283294711,0.30344406629,1.0,-0.01192,-0.0156662857143,0.597
0.462354936981,0.527563831513,-0.124102498846,-1.3874378802,0.0777555728956,1.90564944689,0.155181652586,-0.000785712277008,-0.0677824927698,0.000406819602832,-0.100277369694,-0.00705384093251,0.0375914765268,-0.014314919414,0.574128992637,0.818750312892,0.00213818971268,0.0,0.818708145142,-0.574068140745,-0.0119787211725,0.0,-0.00858028031212,0.00862805057021,-0.999925965026,0.0,0.658015186508,0.256045501386,0.303452371921,1.0,-0.01224,-0.0160868571429,0.613
0.462219075267,0.526541764593,-0.124110983409,-1.38900714903,0.0776678327289,1.90624534287,0.154972006472,-0.0128853804305,-0.069819721024,-0.00100842725684,-0.108433294892,-0.00861856860302,0.0424780844728,-0.0160133836534,0.574135861421,0.8187453829,0.00218117203295,0.0,0.818703755687,-0.574074811484,-0.0119590193495,0.0,-0.00853940036272,0.00865200218902,-0.99992610802,0.0,0.657834700063,0.255804541368,0.303476646964,1.0,-0.01254,-0.0164811428571,0.628
0.462072174332,0.525434190019,-0.124116354213,-1.39073064457,0.0775583644794,1.90686798258,0.154741201947,-0.012078657883,-0.0709158413941,0.000760707909371,-0.105948872605,-0.00438819627555,0.0368310002773,-0.0126083192449,0.574136377509,0.818745002549,0.00218808665511,0.0,0.81870347327,-0.574075307108,-0.0119545608828,0.0,-0.00853177472504,0.00865510906198,-0.999926146226,0.0,0.657614663473,0.255525595057,0.303492836339,1.0,-0.01288,-0.016928,0.645
0.461895770664,0.524119709681,-0.124125574718,-1.39281902397,0.0774211554581,1.90761230745,0.154453770655,-0.00827241301833,-0.0700803974177,-0.00130154026609,-0.114169907124,-0.0100845914934,0.0411308332903,-0.00628749918951,0.574125063186,0.818753036313,0.00215040721885,0.0,0.818711092261,-0.574064226141,-0.0119648892483,0.0,-0.00856198238987,0.00863007119424,-0.999926104434,0.0,0.657375544674,0.255215669733,0.303484802233,1.0,-0.01324,-0.0174011428571,0.663
0.461746945493,0.523003060564,-0.124126547309,-1.3946234882,0.0773187409655,1.90829346904,0.154212526566,-0.00883921475242,-0.0757975578996,-0.000958780703037,-0.112698673329,-0.00720734793423,0.0438188247729,-0.0137161114649,0.57411951299,0.818756938583,0.00214644519092,0.0,0.818714868363,-0.574058617934,-0.0119755750599,0.0,-0.00857306487207,0.00863290412323,-0.999925985023,0.0,0.657160114741,0.254947394653,0.303470008051,1.0,-0.01356,-0.0178217142857,0.679
0.461593347512,0.521815556066,-0.12412735005,-1.39646182335,0.0772007517948,1.90901910287,0.153957011539,-0.0111181116922,-0.0788252764008,0.000854272000335,-0.12096273725,-0.00383930405808,0.0475017919557,-0.0133330637903,0.574103482971,0.818768024543,0.00220447891514,0.0,0.81872681251,-0.574042455261,-0.0119336891392,0.0,-0.00850562235262,0.00865620515375,-0.999926359539,0.0,0.656948921967,0.25467351987,0.303492379531,1.0,-0.01388,-0.0182422857143,0.695
0.461407674698,0.520419658511,-0.124136549707,-1.39871872715,0.077057040544,1.90986307199,0.153657685572,-0.00976132749127,-0.0735008633234,7.72623283584e-05,-0.121601311628,-0.00799527612173,0.0485759219337,-0.0154412447546,0.574098795256,0.818771371743,0.00218197193834,0.0,0.818729936791,-0.574037931026,-0.0119369697898,0.0,-0.00852127853326,0.00863961206182,-0.999926369747,0.0,0.656678896148,0.254330681946,0.30347213251,1.0,-0.01426,-0.0187417142857,0.714
0.461247009911,0.519181885777,-0.124139747009,-1.40065346918,0.0769370489432,1.9105548901,0.153402686892,-0.00760397140189,-0.0732773430099,-0.000498422091146,-0.120223184656,-0.00527367278682,0.0449924943139,-0.0109929181709,0.574094279181,0.81877455369,0.00217617627742,0.0,0.81873301288,-0.574033408401,-0.0119434735602,0.0,-0.0085299785765,0.00863855352356,-0.999926304714,0.0,0.656440604842,0.254037514548,0.303480362814,1.0,-0.01458,-0.0191622857143,0.73
0.461063538277,0.517818091975,-0.124140166237,-1.40274952512,0.076803606591,1.91131101258,0.153116391025,-0.00625226135652,-0.0771044096532,0.00152410842465,-0.127563603404,-0.0040279487396,0.0436901975149,-0.0155109759005,0.574085446737,0.818780698295,0.00219427549629,0.0,0.818739389609,-0.574024499612,-0.0119345149872,0.0,-0.0085123465103,0.00864813765193,-0.999926372125,0.0,0.656185523466,0.253715747944,0.303505345236,1.0,-0.01492,-0.0196091428571,0.747
0.460877193382,0.516487746815,-0.124151486278,-1.40488432319,0.0766604595494,1.91209776432,0.152810896547,-0.0109441431161,-0.0735814041183,-0.00128314995067,-0.129234410297,-0.00497647414663,0.0558868435673,-0.0166369165306,0.574070267507,0.81879141025,0.00216826365587,0.0,0.81874988482,-0.574009551938,-0.011933452664,0.0,-0.00852656864921,0.00862607206025,-0.999926441549,0.0,0.655929451212,0.253381267209,0.303491066607,1.0,-0.01526,-0.020056,0.764
0.460705937556,0.515182567468,-0.12415729361,-1.40693101678,0.0765366743891,1.91287053987,0.152540650419,-0.0120737382163,-0.0781937834813,-0.00129721474226,-0.12770973791,-0.0016964630067,0.048795187037,-0.0128885393488,0.574068114139,0.81879285473,0.00219277743587,0.0,0.81875165617,-0.574007306987,-0.0119198970608,0.0,-0.00850141995043,0.00863833929847,-0.999926549779,0.0,0.655683938614,0.253072217079,0.303499286189,1.0,-0.01558,-0.0204765714286,0.78
0.460485472569,0.513603229403,-0.124149754769,-1.40945999289,0.0763816431218,1.91375417277,0.152185702499,-0.0159120017709,-0.0899423148018,-0.000603120895055,-0.131145122936,-0.00546269128729,0.0467053548252,-0.0214330476899,0.574043587291,0.818810192718,0.00213894668148,0.0,0.818768132875,-0.573982841635,-0.0119661605408,0.0,-0.00857046053204,0.00862056507623,-0.999926113802,0.0,0.655363454264,0.252687681008,0.303478892378,1.0,-0.01596,-0.020976,0.799
0.460311092616,0.512303840543,-0.124158569673,-1.41159903516,0.0762469253018,1.91451643712,0.151887104287,-0.00584922723393,-0.08163345878,6.89774891188e-05,-0.133139671453,-0.0119055167883,0.0448980401052,-0.0143961818164,0.574023892014,0.818824182608,0.00206791548773,0.0,0.81878117752,-0.573963426168,-0.0120048182387,0.0,-0.00864309402963,0.00858438804242,-0.999925799851,0.0,0.655094108862,0.252361502624,0.303437506418,1.0,-0.01628,-0.0213965714286,0.815
0.460135042888,0.51101476419,-0.124159161566,-1.4136416712,0.076126977634,1.91528629261,0.15160321626,-0.0129414581871,-0.0773184952265,0.000853043890544,-0.13244784124,-0.00601947914547,0.0526019209475,-0.0242740870218,0.57400504292,0.818837355702,0.00208386934521,0.0,0.818794458099,-0.573944412182,-0.0120080811347,0.0,-0.00863680652224,0.00859912535816,-0.99992572755,0.0,0.654830842008,0.252032240546,0.303430543195,1.0,-0.0166,-0.0218171428571,0.831
0.459915686926,0.509454341317,-0.124159337052,-1.4161355398,0.0759678325551,1.91622777586,0.151249824751,-0.0120243151541,-0.0888803585221,-0.000898876562478,-0.145147702404,-0.000592907783463,0.0528025779461,-0.0152359246586,0.573988234596,0.818849137673,0.00208402948365,0.0,0.818806317903,-0.573927680727,-0.0119990815672,0.0,-0.0086295215311,0.00859391361293,-0.999925835253,0.0,0.654543725135,0.251672254146,0.303421617018,1.0,-0.01694,-0.022264,0.848
0.459733671006,0.508132904139,-0.124169958895,-1.41821693371,0.075822561463,1.91696968252,0.150963327936,-0.0157712671383,-0.0906909617123,-0.000907315543542,-0.13575769843,-0.00531892913671,0.0520550172723,-0.0170624638199,0.573978835452,0.818855794465,0.00205699423913,0.0,0.818812750298,-0.573918523855,-0.0119981176418,0.0,-0.00864434748685,0.00857112372264,-0.999925902802,0.0,0.654285116836,0.251344289485,0.303420060205,1.0,-0.01724,-0.0226582857143,0.863
0.459517164707,0.506617677782,-0.124171019366,-1.42062535574,0.0756754088483,1.91785699416,0.150628685548,-0.0154119962835,-0.092461415579,-0.00137597997829,-0.146858044381,-0.00613583977928,0.0529966391974,-0.0197128961799,0.57396793721,0.818863448253,0.00205111488841,0.0,0.818820272661,-0.573907597545,-0.0120073919431,0.0,-0.00865543059705,0.00857151746533,-0.999925803552,0.0,0.653988156346,0.250972657566,0.303410301932,1.0,-0.01758,-0.0231051428571,0.88
0.459296671604,0.505017402989,-0.124174551167,-1.42307846826,0.0755231470294,1.91879467471,0.150292377008,-0.0133836935866,-0.0949963928324,0.000863364783775,-0.141962419701,-0.0165935962818,0.0540767741749,-0.0224183413573,0.573961307232,0.818867918614,0.00212051090254,0.0,0.818825688703,-0.573900718716,-0.0119667655683,0.0,-0.00858240292026,0.00860495488111,-0.999926145829,0.0,0.653693616503,0.250595425501,0.303442529956,1.0,-0.01792,-0.023552,0.897
0.459054866195,0.503247053109,-0.124179808825,-1.42571695438,0.0753592686917,1.91979074012,0.1499336651,-0.01286162263,-0.0983901097162,-0.000740762511524,-0.146180369557,-0.0097520464397,0.0598927666454,-0.0210748469598,0.57396078609,0.818867998869,0.00222786007634,0.0,0.818827210644,-0.573899803685,-0.0119063571748,0.0,-0.00847132951244,0.00865818127234,-0.999926633545,0.0,0.653375951471,0.250185694156,0.303509735838,1.0,-0.01828,-0.0240251428571,0.915
0.458839624928,0.501658666089,-0.124180307139,-1.42808390044,0.0752047314749,1.92065355719,0.149602867357,-0.0159374471967,-0.0945233110722,9.66933688524e-05,-0.15003745441,-0.00248001315503,0.0540455980009,-0.0247029323529,0.573945750406,0.818878347574,0.00229659900414,0.0,0.818838490733,-0.573884534642,-0.0118665029899,0.0,-0.00839940142361,0.00869143996276,-0.999926951796,0.0,0.653082824379,0.249818561185,0.303566753001,1.0,-0.0186,-0.0244457142857,0.931
0.458591770518,0.499833744031,-0.124181055249,-1.43084028357,0.0750274174904,1.92162361741,0.149215963951,-0.0140090719315,-0.104815384271,-0.000820855297353,-0.154198444601,-0.016387725522,0.0580987097268,-0.0245954935288,0.573924732055,0.818892988742,0.00232848131096,0.0,0.818853506501,-0.573863352432,-0.0118547259344,0.0,-0.00837168304079,0.00871057319731,-0.999927017756,0.0,0.652731827025,0.249390674769,0.303612150327,1.0,-0.01896,-0.0249188571429,0.949
0.458370253388,0.49837070337,-0.124186165104,-1.43314024475,0.0748840861233,1.92249313471,0.148874632435,-0.0149364704972,-0.0972170708691,-0.0017440553355,-0.157766617607,-0.010002217661,0.0593794159426,-0.0203249342253,0.573908733943,0.818904131161,0.00235286485909,0.0,0.818864986706,-0.573847283137,-0.0118395981855,0.0,-0.00834547143463,0.00872169537628,-0.999927139914,0.0,0.65245282262,0.249025445934,0.303613304133,1.0,-0.01926,-0.0253131428571,0.964
0.458107095219,0.496682476844,-0.124181623804,-1.43581040769,0.0747184761069,1.9234554955,0.148480242654,-0.0137581606473,-0.0985986596985,-3.60727678718e-06,-0.15928109994,-0.0114031320966,0.0508903696918,-0.026643152826,0.573888518533,0.818918343248,0.00233715435046,0.0,0.818878888309,-0.573827020604,-0.0118601689728,0.0,-0.00837154878649,0.00872042905295,-0.999926932975,0.0,0.652117129911,0.248600665021,0.303602449821,1.0,-0.0196,-0.02576,0.981
0.457818242122,0.494904850302,-0.124184408838,-1.43870059052,0.0745389972847,1.92445272582,0.148057712136,-0.013383999149,-0.0938670623101,-0.000834766456454,-0.162118314723,-0.00487977370651,0.0624572479349,-0.0243439872598,0.573878172155,0.818925867915,0.0022390364548,0.0,0.818884972984,-0.573816897242,-0.0119296421366,0.0,-0.00848485894918,0.00867984164447,-0.999926331045,0.0,0.651744888143,0.248130308302,0.303551835535,1.0,-0.01996,-0.0262331428571,0.999
0.457535563351,0.493017624696,-0.124224481687,-1.44167206822,0.0743570309293,1.92552346246,0.147653863067,-0.0140924314539,-0.132460428196,-0.00824101146751,-0.191754234289,-0.01596935311,0.0763253374702,-0.029718749858,0.573907967678,0.818905040057,0.00221966337825,0.0,0.818863957433,-0.57384683341,-0.0119322212426,0.0,-0.00849777292227,0.00866576602417,-0.999926343465,0.0,0.651375986111,0.247638574707,0.303545513035,1.0,-0.0267,-0.0350914285714,1.016
0.457211832939,0.490535088427,-0.12426822175,-1.44556576849,0.0741478013659,1.92698922843,0.147070123678,-0.0252545429235,-0.153760300126,0.000322241588156,-0.255999369089,-0.0158126955079,0.0820071964219,-0.0338245387276,0.573867832461,0.818933078354,0.00225187602895,0.0,0.818892259567,-0.573806413705,-0.0119337216941,0.0,-0.00848094181927,0.00869259021068,-0.999926253531,0.0,0.650852426987,0.246994763578,0.303535867436,1.0,-0.034764,-0.0456898285714,1.034
0.456737561412,0.487408196194,-0.124292882322,-1.45056013291,0.0738599138233,1.92881916767,0.146342810983,-0.0334125846622,-0.199116208221,-0.000747955088785,-0.314588000859,-0.0149304463694,0.119121172958,-0.044564564772,0.573847490693,0.818947350546,0.00224529738188,0.0,0.818906247782,-0.573785898202,-0.0119602369742,0.0,-0.00850664818623,0.00870220757432,-0.999925951518,0.0,0.650255272841,0.24624285542,0.303503701596,1.0,-0.041932,-0.0551106285714,1.05
0.456197732795,0.483847824459,-0.124377289324,-1.45609508804,0.0735185109785,1.9308941959,0.145481880797,-0.0383876216741,-0.228769226862,-0.00610664652962,-0.366650230027,-0.0157204364981,0.137790022132,-0.0630792918465,0.573826830284,0.81896164044,0.00231240903203,0.0,0.818921697637,-0.573765265118,-0.0118920386958,0.0,-0.00841250550393,0.0087178206456,-0.999926611984,0.0,0.649578290952,0.245319283981,0.303523621172,1.0,-0.0491,-0.0645314285714,1.066
0.455457992842,0.479153239217,-0.124491356205,-1.4634948596,0.0730799117667,1.93345617526,0.144372647365,-0.045004761953,-0.277364112242,-0.0100329925371,-0.428425089556,-0.022646112991,0.150317229203,-0.0642478311987,0.573849846125,0.818945863505,0.0021848690394,0.0,0.818904117336,-0.573788647871,-0.0119741841525,0.0,-0.00855272019502,0.00866074873184,-0.99992591846,0.0,0.64862424308,0.244061156643,0.303482197927,1.0,-0.057164,-0.0751298285714,1.084
0.454686943491,0.474341565521,-0.124584484929,-1.47089815082,0.0726230832105,1.93615082027,0.143313785268,-0.050619956004,-0.310873303122,-0.0065169214052,-0.475670047409,-0.0338295544276,0.172690150317,-0.0678890318075,0.573916365079,0.818899048978,0.00225840169937,0.0,0.818858409071,-0.573855010196,-0.0119197343774,0.0,-0.00846522699732,0.00869040916646,-0.999926405652,0.0,0.647693221735,0.242803107243,0.303525457255,1.0,-0.064332,-0.0845506285714,1.1
0.453811377555,0.469030936974,-0.124635111646,-1.47905361048,0.0721457753183,1.93912528154,0.142064784517,-0.0623007654425,-0.348065214178,-0.00112349007103,-0.514167121864,-0.0333306323433,0.196610181575,-0.0775915458851,0.573909013643,0.818903853858,0.00238098640877,0.0,0.818864505342,-0.573846856671,-0.011893438625,0.0,-0.00837342237352,0.00877562584592,-0.999926434388,0.0,0.646651311774,0.241436939382,0.303572751276,1.0,-0.0715,-0.0939714285714,1.116
0.452700671133,0.462368191897,-0.124686614578,-1.48920700408,0.0714908424976,1.94281043169,0.140436754105,-0.0630788569967,-0.38605394464,-0.00125489940767,-0.590967179238,-0.0441182402713,0.199049257724,-0.0950141344444,0.573823463876,0.818963340581,0.00253495390633,0.0,0.81892604649,-0.573760781647,-0.0118085869545,0.0,-0.00821650087818,0.00885215448167,-0.999927061577,0.0,0.64534093921,0.239721921879,0.3036553618,1.0,-0.079564,-0.104569828571,1.134
0.451499465123,0.455520810523,-0.124760909023,-1.49993382307,0.070783379592,1.94641537881,0.138833289804,-0.0752944810361,-0.410611594365,-0.00519732894621,-0.649276771323,-0.0448726841966,0.220181791407,-0.104187285074,0.573851402602,0.818944492928,0.00228738645191,0.0,0.818903671378,-0.573789363738,-0.01197037869,0.0,-0.008490761163,0.00874253608515,-0.999925734761,0.0,0.643885472662,0.237860173606,0.303575787895,1.0,-0.08718,-0.114579428571,1.151
0.450291100095,0.448365891985,-0.124862613629,-1.51047919631,0.0700457984246,1.95036426,0.137140233524,-0.0765125398316,-0.458965166523,-0.00427498671252,-0.677940108029,-0.0447224692888,0.25087704003,-0.0973882169588,0.57380748455,0.818973973493,0.00271077784052,0.0,0.818939595568,-0.573744866444,-0.0116410455379,0.0,-0.00797857206198,0.00889985371582,-0.999928564944,0.0,0.642542020627,0.236023478982,0.303811152739,1.0,-0.094348,-0.124000228571,1.167
0.448669217956,0.439428050331,-0.124899621431,-1.52415547007,0.0691600042333,1.95514025416,0.135005535359,-0.0884696616003,-0.487922811219,-0.000782091811512,-0.740889229998,-0.0497042543249,0.249473223363,-0.124154889833,0.573783294415,0.818990798501,0.00274771220251,0.0,0.818956417724,-0.573720012697,-0.0116824569472,0.0,-0.00799156112624,0.0089536275614,-0.999927981159,0.0,0.640680387922,0.233652249584,0.303833664098,1.0,-0.10286,-0.135187428571,1.186
0.447172589339,0.431289023389,-0.124944631775,-1.53639007945,0.0683260332715,1.95948442396,0.13299001939,-0.096963831963,-0.523468262324,-0.0036308355796,-0.781638146171,-0.0523210414198,0.285504046484,-0.122521165418,0.573696382133,0.819051011429,0.00294086818302,0.0,0.819019207326,-0.5736325427,-0.0115754433182,0.0,-0.00779405092357,0.00904959171402,-0.999928676286,0.0,0.639020169999,0.231500140305,0.30394105304,1.0,-0.110028,-0.144608228571,1.202
0.445646583596,0.423331242883,-0.124989586218,-1.54851730204,0.0674676067118,1.96368356866,0.130999365907,-0.107331843142,-0.53915348645,-0.00482562545717,-0.80952673896,-0.0547579049578,0.2848382576,-0.138561390132,0.573629390999,0.819097947471,0.0029361764897,0.0,0.819066143445,-0.573565646137,-0.0115693186764,0.0,-0.00779246524505,0.00904159805927,-0.999928760957,0.0,0.637335108504,0.229332142981,0.303948314386,1.0,-0.116748,-0.153440228571,1.217
0.443753072268,0.413751257671,-0.125107134,-1.56296963788,0.0664139397695,1.9686724634,0.128651141733,-0.110568441884,-0.579781196297,-0.00775972096315,-0.87945585023,-0.0641079659961,0.301083870972,-0.149593660762,0.573639792429,0.819090477718,0.00298743303598,0.0,0.819059847709,-0.573576479368,-0.0114775906771,0.0,-0.00768781192181,0.00903106305702,-0.999929666251,0.0,0.63520293703,0.226508541618,0.304004628869,1.0,-0.124812,-0.164038628571,1.235
0.441543535764,0.40318058587,-0.125192121458,-1.57917958307,0.0653448024156,1.97411525608,0.125941600625,-0.126711618873,-0.594240545707,-0.00178777511157,-0.911631674936,-0.0561270800583,0.301217732127,-0.145765234315,0.573667994354,0.819071199855,0.00285459687047,0.0,0.81903800879,-0.573604136762,-0.01165252541,0.0,-0.00790699162934,0.00902287793618,-0.999928030989,0.0,0.633129809175,0.223843633915,0.303916863924,1.0,-0.13198,-0.173459428571,1.251
0.439383199036,0.393156372866,-0.125322585977,-1.59400960096,0.0642900473113,1.97927248221,0.123392494831,-0.137733348574,-0.62876068993,-0.00571886972624,-0.951973511715,-0.06754053518,0.324014840322,-0.162016563728,0.573734530451,0.819023665039,0.00310991574485,0.0,0.818994007701,-0.573670100373,-0.0114968773216,0.0,-0.0076322958683,0.00914333390876,-0.999929071237,0.0,0.631046988301,0.221003592636,0.304055932454,1.0,-0.139148,-0.182880228571,1.267
0.43693399421,0.382202203563,-0.125448080274,-1.61056245999,0.0630141859727,1.98470569346,0.120443005838,-0.150455946773,-0.672666077898,-0.00940853583981,-0.96766582844,-0.0633739618908,0.322551627042,-0.182481317962,0.573692978821,0.819053620694,0.00287739122231,0.0,0.819021253969,-0.573629647426,-0.0115741108334,0.0,-0.00782941121246,0.00899680390461,-0.999928876391,0.0,0.628469781173,0.217600191745,0.303984964939,1.0,-0.147212,-0.193478628571,1.285
0.43430238142,0.370707066693,-0.125555650171,-1.62768031291,0.061771986755,1.99043972028,0.117398107538,-0.15677462208,-0.683268138313,-0.00972878858711,-1.02293819792,-0.0804024162047,0.347830090279,-0.178635162612,0.573716410172,0.819036953101,0.00294907709168,0.0,0.819005315862,-0.573652611818,-0.0115637557007,0.0,-0.00777954723983,0.00904980046042,-0.999928787343,0.0,0.625936867261,0.214261818047,0.30401245904,1.0,-0.154828,-0.203488228571,1.302
0.43161791846,0.359453993624,-0.12570742807,-1.64425606632,0.0604431299237,1.99598211736,0.114447915032,-0.164225708237,-0.711671266273,-0.00483159405437,-1.04516878804,-0.0917006453954,0.349956234153,-0.197259582547,0.573820236583,0.818963873176,0.00304260114526,0.0,0.818934318752,-0.573757161321,-0.0114038723642,0.0,-0.00759379148848,0.00903563719814,-0.99993034337,0.0,0.623477895976,0.21091441381,0.304087312741,1.0,-0.161996,-0.212909028571,1.318
0.428530950035,0.347187218906,-0.12584888032,-1.66250721828,0.0591062708877,2.00180104816,0.110992952938,-0.184422805751,-0.742901905286,-0.0080882633509,-1.06808716263,-0.0768996921275,0.351145754768,-0.207841963618,0.573869557119,0.818929824524,0.00290186450358,0.0,0.818897670786,-0.573806002954,-0.0115768154827,0.0,-0.00781564267522,0.00902008572142,-0.999928774355,0.0,0.620666826272,0.207183347075,0.304026859354,1.0,-0.169612,-0.222918628571,1.335
0.425282526345,0.334409697656,-0.125974522004,-1.68120230337,0.0576355363948,2.00790366023,0.107446827993,-0.191826974254,-0.74372355779,-0.00788628441042,-1.11866893622,-0.0877354730415,0.358616487395,-0.213527925891,0.573907550078,0.818902822307,0.00300640666143,0.0,0.818872177084,-0.573843836798,-0.0115045846159,0.0,-0.00769607705118,0.00906460526136,-0.999929299165,0.0,0.617775172756,0.203339141551,0.304074271258,1.0,-0.177228,-0.232928228571,1.352
0.422094692656,0.321970623681,-0.126022403834,-1.69927985719,0.056116282181,2.0136807931,0.103904429265,-0.207225375565,-0.772849746804,-0.000978997159499,-1.14278118063,-0.0882308262993,0.363185153707,-0.221287772838,0.57376974812,0.818999223454,0.00304877434202,0.0,0.81896949721,-0.573706361539,-0.0114332965657,0.0,-0.00761490638443,0.00905710725803,-0.999929988554,0.0,0.614892981991,0.199640523726,0.304121224091,1.0,-0.184396,-0.242349028571,1.368
0.418211290139,0.307557754686,-0.126099095989,-1.72009396586,0.0544414465102,2.02023943424,0.0996940524622,-0.22407490337,-0.846781998539,-0.00256251865618,-1.15920386847,-0.101598626657,0.378717659316,-0.249842478637,0.573685526795,0.819057830631,0.00315171836643,0.0,0.819029113952,-0.573621458396,-0.0114227784117,0.0,-0.00754816814551,0.00913460762118,-0.999929789586,0.0,0.611525503521,0.195276635867,0.304175936438,1.0,-0.19246,-0.252947428571,1.386
0.414521127514,0.294465646201,-0.126213964969,-1.7391509499,0.0528205203108,2.02594873326,0.0958095677194,-0.239364203321,-0.870578865425,-0.0103867752469,-1.18931525433,-0.0934240248298,0.359212364152,-0.243392975829,0.573664028701,0.819073883756,0.00288132337737,0.0,0.819041382112,-0.573600474519,-0.0115955560508,0.0,-0.00784503971365,0.00901204999032,-0.999928616606,0.0,0.608345670394,0.191173969791,0.304087384131,1.0,-0.199628,-0.262368228571,1.402
0.410609580432,0.280926529959,-0.126361948918,-1.75840650973,0.0512423028513,2.03190663563,0.0917289470996,-0.248870194402,-0.833614658632,-0.00853157611897,-1.22683512341,-0.104320606097,0.371222720151,-0.261321356875,0.573688324382,0.819056316828,0.00303368309469,0.0,0.819025476098,-0.573623906446,-0.0115598597525,0.0,-0.00772813179469,0.00911659583516,-0.999928579279,0.0,0.6049360875,0.186677563893,0.304149185412,1.0,-0.207244,-0.272377828571,1.419
0.405876582234,0.265286736129,-0.126541867531,-1.78052662309,0.0493074102178,2.03853503629,0.0869178568785,-0.272665497733,-0.872511570851,-0.0118639819512,-1.24263367966,-0.113708539876,0.361108967196,-0.274194845129,0.57371645018,0.819036309794,0.00311527426514,0.0,0.819006746549,-0.573652035637,-0.0114907796973,0.0,-0.00762442917005,0.00914405602966,-0.999929124648,0.0,0.601393410923,0.181972607396,0.30422829893,1.0,-0.21486,-0.282387428571,1.436
0.401358251159,0.25109018554,-0.126725308581,-1.8005077793,0.0475435146544,2.04438875907,0.0824770391168,-0.286372795992,-0.903371445056,-0.00565445098639,-1.2573909623,-0.102252344956,0.362480153352,-0.278591423715,0.573843381208,0.818947356847,0.00312209190018,0.0,0.818917795192,-0.573778825152,-0.0115000620367,0.0,-0.0076267020237,0.00915614738275,-0.99992899667,0.0,0.597942842251,0.177349409093,0.30426040118,1.0,-0.222028,-0.291808228571,1.452
0.396351271762,0.235668593201,-0.126863235938,-1.8221160084,0.0456008828712,2.05061380891,0.0774489792773,-0.301899749992,-0.924793509201,-0.00965541934581,-1.2632477966,-0.114247328962,0.383553387805,-0.296235189642,0.573793294456,0.818982494009,0.00311073071191,0.0,0.818952463589,-0.573728395007,-0.0115472094051,0.0,-0.00767239553618,0.00917342852333,-0.999928488721,0.0,0.594114661051,0.172353416064,0.304265487702,1.0,-0.229644,-0.301817828571,1.469
0.390809256132,0.219021617408,-0.126975715233,-1.84533479009,0.0434352797828,2.05720549641,0.0719136518506,-0.313345349827,-0.947282968598,-0.00570405000497,-1.28297864198,-0.128450282572,0.365480613833,-0.32023595862,0.57365772628,0.819077633501,0.00306435613515,0.0,0.819046810374,-0.573592764687,-0.0115935161261,0.0,-0.00773844623402,0.0091607375914,-0.999928096083,0.0,0.589905190913,0.166955676487,0.304235387296,1.0,-0.237708,-0.312416228571,1.487
0.385490532962,0.203796996781,-0.127143469421,-1.86630876923,0.0414424043712,2.06301694653,0.0667780411665,-0.333086461481,-0.928796353042,-0.0101804403377,-1.33742640949,-0.127948166262,0.359690634795,-0.338954779015,0.573675600521,0.819065138655,0.00305792527938,0.0,0.819034143849,-0.573610553021,-0.0116082545626,0.0,-0.00775400771097,0.00916409405759,-0.999927944776,0.0,0.586050385118,0.161904802401,0.30424388205,1.0,-0.244876,-0.321837028571,1.503
0.379474063224,0.187249292841,-0.127366644543,-1.88873205179,0.0392703091315,2.06913660547,0.0610043728426,-0.36612974009,-0.970092103204,-0.014529590893,-1.34155892695,-0.12794958532,0.365205639901,-0.347784839763,0.573706563513,0.819042919444,0.00319718501846,0.0,0.819013880673,-0.573641251571,-0.011520619046,0.0,-0.00760199060364,0.00922817134253,-0.999928522742,0.0,0.581879746583,0.156344634331,0.304335859893,1.0,-0.252492,-0.331846628571,1.52
0.372619059813,0.16948706015,-0.127628216645,-1.91269871385,0.0369257017335,2.07546881195,0.0546523296286,-0.390706797796,-0.991376321981,-0.0113189226132,-1.35116351322,-0.135091471151,0.339942840588,-0.361589308246,0.573896212117,0.818909811787,0.00325649765146,0.0,0.818881299485,-0.573830397631,-0.0115255806187,0.0,-0.00756987945662,0.00928135078289,-0.999928274154,0.0,0.577335577401,0.150210709632,0.304375204073,1.0,-0.260556,-0.342445028571,1.538
0.366347105283,0.153386583194,-0.127787788979,-1.93423218507,0.034720854003,2.08100796334,0.0486938796143,-0.392007418695,-1.00563442424,-0.00946316530988,-1.35143514854,-0.135174622956,0.345939509546,-0.370979188366,0.573806229603,0.818972754135,0.00328416729789,0.0,0.818944566667,-0.573740301305,-0.0115156539894,0.0,-0.00754689302945,0.00929748396709,-0.999928298028,0.0,0.573131476579,0.144734779998,0.304402730826,1.0,-0.267724,-0.351865828571,1.554
0.359716601547,0.136980382894,-0.127985971991,-1.95600608198,0.0324401455907,2.0864384557,0.0425258287548,-0.424945458678,-1.05672886484,-0.0199674018942,-1.36693397083,-0.147557770382,0.35537716962,-0.395173411654,0.573797438034,0.818978955594,0.00327372877671,0.0,0.818950573345,-0.573731469515,-0.0115284954559,0.0,-0.00756349956703,0.00929622219675,-0.999928184285,0.0,0.568798185985,0.139075205243,0.304413459687,1.0,-0.274892,-0.361286628571,1.57
0.352233274241,0.119295276199,-0.128227532308,-1.97922342786,0.0299799461284,2.09207027136,0.0356214489408,-0.444428596397,-1.06600825697,-0.0244624045525,-1.3661096833,-0.162104345636,0.34351789912,-0.406409698342,0.573824960191,0.818959512486,0.00331343801843,0.0,0.818931682815,-0.573758914341,-0.0115045207255,0.0,-0.00752076688259,0.00931523986687,-0.999928329618,0.0,0.563823006637,0.132488891272,0.304443647644,1.0,-0.282956,-0.371885028571,1.588
0.344801584434,0.102419395852,-0.128517352492,-2.00127458944,0.0275551104229,2.09720375607,0.0288188655788,-0.469122476029,-1.05048799867,-0.00927078837733,-1.36415853177,-0.150060455487,0.309073178529,-0.428697004841,0.57387036665,0.818928066108,0.00322051576139,0.0,0.818898702857,-0.57380419858,-0.0115932330584,0.0,-0.00764622567654,0.00929046795573,-0.999927608599,0.0,0.559258973049,0.126460626081,0.304404794416,1.0,-0.290124,-0.381305828571,1.604
0.336601722361,0.0841513942443,-0.128721034263,-2.02486558765,0.0249987934561,2.10248892274,0.0212333586675,-0.494890839576,-1.05696442457,-0.00934847069957,-1.40243017742,-0.144399433339,0.291251672587,-0.451757901013,0.573749916178,0.819012615782,0.00318053100905,0.0,0.818981659396,-0.573682600418,-0.011749997898,0.0,-0.0077989313675,0.00934653682243,-0.999925906715,0.0,0.554523668975,0.120403352796,0.304366644088,1.0,-0.297292,-0.390726628571,1.62
0.32790183795,0.0655451490143,-0.128996581894,-2.0484165512,0.0222555156713,2.10768143987,0.013290187937,-0.521020949995,-1.07995672757,-0.0223685443555,-1.40062210421,-0.168844448192,0.301345258764,-0.46577750871,0.573665911811,0.819071124034,0.00326531794801,0.0,0.819041713694,-0.573598862206,-0.0116517555191,0.0,-0.00767078151656,0.00935882674836,-0.999926783056,0.0,0.549158839028,0.11335319273,0.304418124229,1.0,-0.29998,-0.394259428571,1.638
0.318731669291,0.0470878197714,-0.129312648441,-2.0715051274,0.0195180154498,2.1124197174,0.00518843407232,-0.538781189049,-1.07484750503,-0.0155984142133,-1.36804177109,-0.169053807146,0.279174992889,-0.482694502271,0.573819893063,0.818963001054,0.00332868318628,0.0,0.818934490781,-0.573752714372,-0.0116133311736,0.0,-0.00760119388325,0.00939011471104,-0.999927021136,0.0,0.544383023858,0.106952779006,0.304489493139,1.0,-0.29998,-0.394259428571,1.654
0.309957634057,0.0298483336369,-0.129479954934,-2.0928354812,0.0170214094599,2.11660445254,-0.00261155155517,-0.550582398797,-1.06474636415,-0.0120046430091,-1.33162386266,-0.163488952738,0.255171074936,-0.488484514839,0.573810175258,0.818969463808,0.00341277331815,0.0,0.818941391477,-0.573741917173,-0.0116600474306,0.0,-0.00759131784217,0.0094856978187,-0.999926193991,0.0,0.539564188864,0.100691861819,0.304533361599,1.0,-0.29998,-0.394259428571,1.67
0.299720782129,0.0106253907521,-0.129740770855,-2.11622422357,0.0140714896234,2.12103619436,-0.0116239559496,-0.575969197976,-1.07031197984,-0.0210733916072,-1.28719403688,-0.160787640262,0.238622572186,-0.511845204544,0.573854449581,0.81893810568,0.00349237216265,0.0,0.818911580166,-0.573786584374,-0.0115553607905,0.0,-0.00745939259803,0.0094912219478,-0.999927134429,0.0,0.533892312256,0.0931586111351,0.304610546756,1.0,-0.29998,-0.394259428571,1.689
0.289746813428,-0.0073187620798,-0.129957216589,-2.13783183757,0.0114031415397,2.1248744107,-0.0204096436262,-0.584809297717,-1.06169117181,-0.0064082930132,-1.25178058492,-0.159007648977,0.246794793087,-0.521142991605,0.573875195144,0.818922733646,0.00368288169112,0.0,0.818898545039,-0.573806591999,-0.0114854174193,0.0,-0.00729254804231,0.00960728759128,-0.999927256738,0.0,0.529130894875,0.0868374392117,0.304705756571,1.0,-0.29998,-0.394259428571,1.705
0.280215160428,-0.023943516146,-0.130131849559,-2.15786697265,0.00881039081333,2.12814909017,-0.0288326645441,-0.600613281543,-1.04872459034,-0.012092477976,-1.22357937432,-0.16327166642,0.187240037962,-0.529363652852,0.573791708073,0.818981812688,0.00355149746995,0.0,0.81895540126,-0.573722836235,-0.0116148539145,0.0,-0.00747492282706,0.00957320921611,-0.999926236877,0.0,0.524286380785,0.0805679574083,0.304649944101,1.0,-0.29998,-0.394259428571,1.721
0.269037524661,-0.0425371535035,-0.130446916788,-2.17987662895,0.00590313741242,2.13165260365,-0.0385261992804,-0.630759230764,-1.00835748709,-0.0219440675415,-1.23352161312,-0.147208437037,0.172945582534,-0.556576461445,0.573942836202,0.818875752299,0.00358747423024,0.0,0.818849832536,-0.573873863703,-0.0115968623296,0.0,-0.00743777486722,0.00959372343804,-0.999926317273,0.0,0.518902183192,0.0733819593398,0.304653261597,1.0,-0.29998,-0.394259428571,1.739
0.258984437496,-0.0589848224193,-0.130585104778,-2.19888195631,0.00339937905894,2.13448001128,-0.0474047859104,-0.630678712709,-1.00606191525,-0.00771297400757,-1.18925061088,-0.161905040689,0.177274266191,-0.559945723795,0.573835583073,0.818949937583,0.00380397591258,0.0,0.818926947783,-0.573766146156,-0.0114808806479,0.0,-0.00721981289434,0.00970350304681,-0.99992685549,0.0,0.514138676123,0.0671647175987,0.304754244398,1.0,-0.29998,-0.394259428571,1.755
0.247935216663,-0.0762246822247,-0.130852983171,-2.21873196943,0.0006737198566,2.13712507812,-0.0570488307306,-0.662117045001,-1.02234161206,-0.0140884100119,-1.15447711773,-0.150958708082,0.164121127703,-0.574704830919,0.573879100282,0.818919365446,0.00382074041138,0.0,0.818896445273,-0.573809410685,-0.0114943042431,0.0,-0.00722067055348,0.00972531896114,-0.999926637353,0.0,0.509043023485,0.0604384635092,0.304772829043,1.0,-0.29998,-0.394259428571,1.772
0.237952982244,-0.091187048839,-0.131056681381,-2.23603911107,-0.00168381597878,2.13914451602,-0.065830769325,-0.670611090015,-1.01257755233,-0.00901774488862,-1.15341595,-0.153107205388,0.122335445775,-0.574912293989,0.573845117939,0.818944090834,0.00361989054618,0.0,0.818917095004,-0.57377412796,-0.0117808528906,0.0,-0.00757100608363,0.0097249624024,-0.999924049602,0.0,0.504467651665,0.0545259729773,0.304653258742,1.0,-0.29998,-0.394259428571,1.787
0.226475578859,-0.108114704566,-0.131272434804,-2.25501593805,-0.00440485225558,2.14128288805,-0.0759235824851,-0.681730654474,-0.980458265175,-0.0196043147768,-1.11486771159,-0.154134683333,0.110757623831,-0.608603609,0.573757804158,0.819005026927,0.00367354562272,0.0,0.818978880315,-0.573686844503,-0.011736479151,0.0,-0.00750491511953,0.00974264036312,-0.999924375744,0.0,0.499381932892,0.0478970956408,0.304693965149,1.0,-0.29998,-0.394259428571,1.804
0.215170115024,-0.123859405266,-0.131596142736,-2.27254876512,-0.00695925923965,2.14304484929,-0.085708431378,-0.709679127156,-0.982107093258,-0.0226916615388,-1.08811462906,-0.154578209913,0.105500220914,-0.610979046073,0.573921653668,0.818890273022,0.00366102469822,0.0,0.818863701129,-0.57385037165,-0.0117786600285,0.0,-0.00754469500161,0.00975809614942,-0.999923925675,0.0,0.494585560297,0.041485514887,0.304683012086,1.0,-0.29998,-0.394259428571,1.82
0.202356473869,-0.141424594155,-0.131816128249,-2.2918382942,-0.00975543102499,2.14469839982,-0.0970208168113,-0.715943116702,-0.988846819593,-0.0191708205315,-1.05092772014,-0.157505109552,0.0985803577062,-0.64369594281,0.57381584122,0.818964431759,0.00365879481441,0.0,0.818937079784,-0.573743613546,-0.0118773806609,0.0,-0.00762808901001,0.00981194082651,-0.999922766055,0.0,0.489155941471,0.0344673727113,0.304674408297,1.0,-0.29998,-0.394259428571,1.838
0.189734739333,-0.157840970084,-0.132178304437,-2.30964229759,-0.0124596075885,2.14606610309,-0.108047279376,-0.753782458651,-0.963211993984,-0.0180115834497,-1.0508693409,-0.16543936116,0.0622800486786,-0.66065280452,0.573925489506,0.818887596037,0.00365847690848,0.0,0.818860050935,-0.573853003856,-0.0119035225641,0.0,-0.00764836626814,0.00982770481581,-0.999922456349,0.0,0.484045613397,0.0276617853868,0.304661783157,1.0,-0.29998,-0.394259428571,1.855
0.176289705787,-0.175016346267,-0.132388331891,-2.32789130944,-0.0151495443001,2.14717820487,-0.119981002747,-0.75973207305,-0.940707719122,-0.0157144636276,-1.02257075455,-0.157496170023,0.0565639911022,-0.669547354348,0.573803831856,0.818972298411,0.00377940264055,0.0,0.818945673448,-0.573730084836,-0.0119381990807,0.0,-0.00760884383627,0.00994550130041,-0.999921593176,0.0,0.478656349005,0.0206889955908,0.304701666285,1.0,-0.29998,-0.394259428571,1.873
0.163838904684,-0.190098383939,-0.132743590158,-2.34372536681,-0.0176721342072,2.14792196612,-0.130868392025,-0.792784488271,-0.921810553331,-0.0251573048956,-0.956979008467,-0.153284723136,0.0538676212853,-0.681978826472,0.573927316179,0.818885732891,0.00378670200729,0.0,0.818859194543,-0.573853513382,-0.011937821988,0.0,-0.00760284623508,0.00995240950496,-0.999921570061,0.0,0.473866355631,0.0142996464368,0.304722724227,1.0,-0.29998,-0.394259428571,1.889
0.149711306365,-0.206944351229,-0.132960911788,-2.3611864824,-0.0203651088351,2.14857096483,-0.143515047818,-0.785358377028,-0.944504974932,-0.0181336363331,-0.962404674747,-0.149954089256,0.028973112173,-0.713062105176,0.573729974081,0.819023523451,0.00388995842914,0.0,0.818997977531,-0.573655366655,-0.0119406871492,0.0,-0.00754835346164,0.0100367914541,-0.999921139479,0.0,0.468452319902,0.00731996788673,0.304748135932,1.0,-0.29998,-0.394259428571,1.907
0.136673746379,-0.221733312845,-0.133310425629,-2.37617673103,-0.0228332799811,2.14894083713,-0.15495179364,-0.81196911985,-0.943687201439,-0.0185055073441,-0.94588782528,-0.153921260177,0.0226776050762,-0.716671291466,0.573860724351,0.818931275432,0.00402269417345,0.0,0.818908148163,-0.573786571082,-0.0117967206752,0.0,-0.00735267717402,0.0100640854727,-0.999922323144,0.0,0.463691061864,0.000953201207826,0.304828914073,1.0,-0.29998,-0.394259428571,1.923
0.123527495991,-0.236223048338,-0.133528973738,-2.39096546816,-0.0252687399313,2.14906554185,-0.166747371548,-0.829007175376,-0.893804187521,-0.0175648167653,-0.926589798514,-0.157818857287,0.0129373369814,-0.748483119449,0.573675665102,0.819061356888,0.00393342394406,0.0,0.819036538284,-0.573601127409,-0.0119013651493,0.0,-0.00749187612098,0.0100493349793,-0.999921438243,0.0,0.458853855683,-0.00526520767375,0.304774979694,1.0,-0.29998,-0.394259428571,1.939
0.108154399677,-0.252318207254,-0.133946035464,-2.40688334791,-0.0278772947122,2.14908347933,-0.180362922072,-0.855681276372,-0.867139312697,-0.0171204091225,-0.86711282078,-0.147521123518,-0.00618016422358,-0.760981545801,0.573845361562,0.818941353588,0.00416020401926,0.0,0.818919824378,-0.573770493963,-0.0117681093946,0.0,-0.00725052871683,0.0101601441495,-0.999922097618,0.0,0.4535269071,-0.0124310622726,0.30485321592,1.0,-0.29998,-0.394259428571,1.957
0.0934743107496,-0.267291736407,-0.134231499019,-2.42164871195,-0.0303536296943,2.14892428255,-0.193531742075,-0.872916192666,-0.85609766835,-0.0207946403245,-0.837336564424,-0.151543290299,-0.0120161694631,-0.777914001044,0.573772051271,0.818992256976,0.00425006996301,0.0,0.818972079306,-0.573697165453,-0.0117065182128,0.0,-0.0071494323304,0.0101977579414,-0.999922442668,0.0,0.448445332954,-0.0190682775991,0.304856991746,1.0,-0.29998,-0.394259428571,1.974
0.0792466135339,-0.28114095071,-0.134593034535,-2.43510855786,-0.0326886780296,2.14858371297,-0.206314516845,-0.870665761217,-0.845523443589,-0.00721701107119,-0.851463500169,-0.142272276638,-0.0283007017853,-0.80643942584,0.573781535448,0.818985194037,0.00432994541833,0.0,0.818966334517,-0.573706804222,-0.0116358333474,0.0,-0.00704559173284,0.0102227026709,-0.999922925023,0.0,0.443671259268,-0.0254045298024,0.304866896699,1.0,-0.29998,-0.394259428571,1.99
0.0647668130674,-0.294797571848,-0.134905133063,-2.44819016634,-0.0348881772086,2.14801098168,-0.219382885875,-0.915954211734,-0.848542450774,-0.0285790479911,-0.797981365611,-0.140003813192,-0.032836215877,-0.827951353217,0.573775115355,0.81898904636,0.0044503754978,0.0,0.818971410071,-0.573699520272,-0.0116377329096,0.0,-0.00697813183996,0.0103223705771,-0.999922374158,0.0,0.438884666208,-0.0316823118137,0.304883011081,1.0,-0.29998,-0.394259428571,2.006
0.0499788560956,-0.308205378384,-0.13522405229,-2.4608582341,-0.0371729355211,2.14733092756,-0.232735292817,-0.918236142806,-0.807495770485,-0.0167009443879,-0.78442419999,-0.141301254082,-0.0527889147297,-0.84138982088,0.573747946978,0.819007708448,0.00451815701857,0.0,0.818991516709,-0.57367299943,-0.0115296220501,0.0,-0.00685103654946,0.0103156278579,-0.99992332262,0.0,0.434117012436,-0.0379811579897,0.304909214128,1.0,-0.29998,-0.394259428571,2.022
0.0339002588834,-0.322160230487,-0.135636703945,-2.47394078171,-0.0395209189396,2.14634363913,-0.247273352568,-0.961456967832,-0.794837977875,-0.0261672794047,-0.747988086621,-0.136766409125,-0.0523485282067,-0.863889720159,0.573816064431,0.818959843515,0.00454376631626,0.0,0.818943503938,-0.573740308581,-0.0115906241119,0.0,-0.00688544638671,0.0103721739168,-0.999922501315,0.0,0.429007866242,-0.0447075175434,0.304895954601,1.0,-0.29998,-0.394259428571,2.039
0.0176241878935,-0.335878760003,-0.135927607298,-2.48656341848,-0.0417730927074,2.14532557635,-0.262248670289,-0.961562810708,-0.785873539559,-0.0158542816701,-0.746555048176,-0.140274571325,-0.0617914471362,-0.89008593621,0.573631767714,0.819088164971,0.004681877192,0.0,0.819073994628,-0.573556222776,-0.0114803109654,0.0,-0.00671819639028,0.0104204755534,-0.999923136809,0.0,0.423945874516,-0.0513181035199,0.304928015686,1.0,-0.29998,-0.394259428571,2.056
-0.000194117364246,-0.350058407199,-0.136362341624,-2.49944434446,-0.0442215648961,2.14391641636,-0.278387630851,-0.991379459122,-0.780088999139,-0.014419362231,-0.706194800028,-0.129537949858,-0.0775894948455,-0.908308948467,0.573749374956,0.819005788504,0.00468188374748,0.0,0.818991505135,-0.573673635752,-0.0114987416821,0.0,-0.0067317923344,0.0104320197188,-0.999922924998,0.0,0.418530712953,-0.0584665306294,0.304939460251,1.0,-0.29998,-0.394259428571,2.074
-0.017292456687,-0.363136390583,-0.136814797548,-2.51105114534,-0.046369922568,2.14257787207,-0.294084883608,-1.01738311338,-0.750034107472,-0.0372216716308,-0.692410226084,-0.126970175159,-0.0924142309429,-0.927655041856,0.573817008918,0.818957165152,0.00489375361437,0.0,0.818946051937,-0.573741363397,-0.0113560048466,0.0,-0.00649245766567,0.0105241915592,-0.99992354177,0.0,0.413479523842,-0.0651920428303,0.30501249299,1.0,-0.29998,-0.394259428571,2.091
-0.0346297804895,-0.37576843136,-0.137118918843,-2.5224275233,-0.0485287675704,2.14098548422,-0.310158307093,-1.02278434397,-0.748692599733,-0.0184921094093,-0.664951098922,-0.125757396669,-0.100671632473,-0.946905809525,0.573647341391,0.81907660607,0.00479458081973,0.0,0.819063061283,-0.573570167314,-0.0115633779441,0.0,-0.00672139324583,0.0105605683826,-0.999921645564,0.0,0.408335306748,-0.0718069862459,0.304933441248,1.0,-0.29998,-0.394259428571,2.108
-0.050346594712,-0.386712272505,-0.137504174077,-2.53180905438,-0.0504369366036,2.13964967025,-0.32459089214,-1.04428852855,-0.720762832672,-0.0167752913523,-0.629361451666,-0.125956311882,-0.0823277669387,-0.965526748991,0.573736489519,0.819013247835,0.00494847110558,0.0,0.819003173091,-0.573661259427,-0.0112831201444,0.0,-0.0064024019746,0.0105265539487,-0.999924097575,0.0,0.403908413296,-0.077776142921,0.305039797378,1.0,-0.29998,-0.394259428571,2.123
-0.0684039570817,-0.398643763845,-0.137900782357,-2.54224245234,-0.0524528703488,2.13792905933,-0.341402776853,-1.08252020564,-0.694901608782,-0.0351740186398,-0.60593562789,-0.114706409053,-0.0917111981064,-0.999324870817,0.573696761006,0.819040981972,0.00496418801266,0.0,0.819030238067,-0.573620067445,-0.0114120225302,0.0,-0.00649948141194,0.0106130647863,-0.9999225568,0.0,0.398791570811,-0.0844619038916,0.304997541784,1.0,-0.29998,-0.394259428571,2.14
-0.0856015091094,-0.409555604642,-0.138195463775,-2.55161418593,-0.0542326046882,2.13614865263,-0.3574800534,-1.07548473803,-0.67501637318,-0.0144055032762,-0.561220634045,-0.114392776741,-0.114054975474,-1.0150072689,0.573616667544,0.819096881819,0.00499637970873,0.0,0.819085459823,-0.573538113241,-0.0115667224302,0.0,-0.00660877932375,0.0107275332843,-0.999920618882,0.0,0.393983342156,-0.0906768933746,0.304980296932,1.0,-0.29998,-0.394259428571,2.156
-0.104358652805,-0.420801766461,-0.138597697099,-2.56103801733,-0.0562396616259,2.13445457363,-0.374954153315,-1.10015393365,-0.653957600384,-0.0161147818919,-0.560058583258,-0.114758396733,-0.10307206079,-1.03743113962,0.573635455016,0.819083148479,0.00508994377134,0.0,0.819074240312,-0.573558785844,-0.0113337963272,0.0,-0.00636406213829,0.0106707146853,-0.999922814302,0.0,0.388929877542,-0.0974192028948,0.305039485011,1.0,-0.29998,-0.394259428571,2.173
-0.125652662126,-0.432804317775,-0.139035331941,-2.57121350125,-0.0583417496768,2.13217320411,-0.394880430363,-1.12184651017,-0.617875491214,-0.0197249476985,-0.517269790437,-0.11193541242,-0.117048386923,-1.05252642855,0.573659638941,0.819066718692,0.00500758260583,0.0,0.819054947694,-0.573580242106,-0.0116381022557,0.0,-0.00666026001361,0.0107780023572,-0.99991973458,0.0,0.383150432833,-0.104886566302,0.304964616714,1.0,-0.29998,-0.394259428571,2.192
-0.143784261403,-0.442513883335,-0.139384651523,-2.57910910324,-0.0599512795755,2.13040694872,-0.412053239567,-1.14554071724,-0.603761344046,-0.0279922662552,-0.475089225985,-0.105856757214,-0.107664654952,-1.08165587331,0.573600201104,0.819107315368,0.00517321030033,0.0,0.819098105621,-0.573520996096,-0.0115198657337,0.0,-0.00646918612194,0.0108453728655,-0.99992026058,0.0,0.378408730602,-0.111149254197,0.305030336571,1.0,-0.29998,-0.394259428571,2.208
-0.163509404953,-0.452323208112,-0.139788400441,-2.58706957668,-0.0617394307467,2.12853928099,-0.430638660407,-1.15817832443,-0.562008601591,-0.0221874684929,-0.468744235539,-0.0981512397573,-0.116853280285,-1.10408180741,0.573639031266,0.819079834417,0.00521857830535,0.0,0.81907180361,-0.573560690033,-0.0114132502036,0.0,-0.00635531407262,0.0108216844862,-0.999921247463,0.0,0.373334718487,-0.117893748171,0.305065735856,1.0,-0.29998,-0.394259428571,2.225
-0.184612262913,-0.462161616353,-0.140163511539,-2.59511445038,-0.063548081613,2.12641759427,-0.4507186894,-1.16715070728,-0.530354450929,-0.0150705359369,-0.43472638195,-0.100079249268,-0.109325911949,-1.12475122371,0.57353951543,0.819149935828,0.00515303546171,0.0,0.819140099127,-0.573459770928,-0.0115817110219,0.0,-0.00653222507046,0.0108638360687,-0.999919650323,0.0,0.367902131726,-0.124952883584,0.305022992643,1.0,-0.29998,-0.394259428571,2.243
-0.203704619753,-0.47039274126,-0.140573478068,-2.60174706355,-0.064997414093,2.12471009694,-0.468857428504,-1.19792373052,-0.505270557104,-0.0153914262014,-0.39629834338,-0.0873592961911,-0.101131714315,-1.1231484295,0.57363305771,0.81908376135,0.00525869712663,0.0,0.8190749961,-0.573552472538,-0.0115956418685,0.0,-0.00648178801209,0.0109591218267,-0.999918938751,0.0,0.363110100163,-0.131282661606,0.305012138873,1.0,-0.296396,-0.389549028572,2.259
-0.223981070429,-0.478483237582,-0.140748731464,-2.608056523,-0.0663278950012,2.12293513799,-0.488103663364,-1.20055284054,-0.462214147283,-0.0236994332039,-0.364091926261,-0.0708976958029,-0.10665269714,-1.13028144076,0.573680417776,0.81904976543,0.00538580633342,0.0,0.819043173245,-0.573600346139,-0.0114747623976,0.0,-0.00630922254513,0.0109942660696,-0.999919656685,0.0,0.358170918735,-0.137851931573,0.305073796963,1.0,-0.28878,-0.379539428572,2.276
-0.241721919252,-0.48503146894,-0.140864075766,-2.61330113252,-0.0674265501052,2.12138693163,-0.505045901195,-1.17866541321,-0.429177954233,-0.00463519701853,-0.339213247644,-0.0545052670502,-0.106579687661,-1.10286720324,0.573651151624,0.819070128672,0.00540624260431,0.0,0.819062973237,-0.573569585093,-0.0115984408473,0.0,-0.00639920331424,0.0110817254482,-0.999918119427,0.0,0.353837657429,-0.143498414872,0.305037517006,1.0,-0.28206,-0.370707428572,2.291
-0.261733891692,-0.491805193029,-0.140896154823,-2.61873287968,-0.068568266589,2.11969156169,-0.524073406285,-1.1670073449,-0.388291758473,0.00886314436891,-0.308542975826,-0.0725114812402,-0.0925384056808,-1.12081750873,0.573681901273,0.8190487665,0.00537969769968,0.0,0.819040003848,-0.573598251797,-0.0118010395027,0.0,-0.00657996833714,0.0111764455847,-0.999915892003,0.0,0.349008908004,-0.14976990601,0.30497741151,1.0,-0.274444,-0.360697828572,2.308
-0.282630711702,-0.498291196997,-0.140893236525,-2.62371516401,-0.06951727714,2.11817268587,-0.543917133075,-1.15142163435,-0.350684740914,-0.0026163444054,-0.265774465464,-0.0566995553771,-0.0835302405049,-1.10148118194,0.573848566595,0.818930854045,0.00555209968944,0.0,0.818924705148,-0.573764942851,-0.0116989125187,0.0,-0.00639512338524,0.0112603725778,-0.999916149688,0.0,0.344114468417,-0.156261817941,0.305016101134,1.0,-0.26638,-0.350099428572,2.326
-0.300713138789,-0.503425623714,-0.140742310121,-2.62764763694,-0.0702643844305,2.11685463558,-0.561262716507,-1.13527166842,-0.317281107576,0.00432467109016,-0.23481403704,-0.0383528777531,-0.0774832573358,-1.07791861775,0.573795363808,0.818967703073,0.0056150420439,0.0,0.818962339273,-0.573711481645,-0.0116862989146,0.0,-0.00634940953485,0.0113042697469,-0.999915945709,0.0,0.339910523507,-0.161776509198,0.30503690773,1.0,-0.259212,-0.340678628572,2.342
-0.318636972116,-0.507971464,-0.140636886325,-2.63108073523,-0.070920929269,2.11574766483,-0.578410852479,-1.10537911352,-0.277118460093,0.00836170011204,-0.200046197929,-0.0382590348359,-0.0640917154006,-1.06977780802,0.573879771329,0.81890769043,0.00574016677687,0.0,0.818904613846,-0.573796666086,-0.0115484333258,0.0,-0.00616353097066,0.0113282794385,-0.999916837027,0.0,0.335571553163,-0.167570888432,0.305083206356,1.0,-0.251596,-0.330669028572,2.359
-0.338363446195,-0.512567626729,-0.140387444257,-2.63457008303,-0.0715612713369,2.1144873225,-0.597287604008,-1.08232000719,-0.238861915303,0.0221432703305,-0.186417381375,-0.0423362941884,-0.0758207750762,-1.03934163443,0.573912490941,0.818884508556,0.0057759232398,0.0,0.818881706952,-0.573828918112,-0.0115702056897,0.0,-0.00616038902288,0.0113703023635,-0.999916379419,0.0,0.331310242801,-0.173142167887,0.305091006612,1.0,-0.24398,-0.320659428572,2.376
-0.357517241015,-0.516389034276,-0.140180891005,-2.63763977428,-0.072002065101,2.11337022315,-0.615781145834,-1.06975390036,-0.204399019873,0.00263705618163,-0.159249030398,-0.0235247434591,-0.054596326952,-1.02079224682,0.573938084053,0.818865751972,0.00589091017201,0.0,0.818862787342,-0.573851052534,-0.0118089759932,0.0,-0.00628958209801,0.0116016915481,-0.999912917163,0.0,0.326935527584,-0.178817068303,0.305016892817,1.0,-0.235916,-0.310061028572,2.394
-0.374134905584,-0.519287755222,-0.139831894478,-2.63997701014,-0.0723809038026,2.11254946859,-0.63178445965,-1.02747485747,-0.181286599891,0.0263516054151,-0.139421255871,-0.0211672547149,-0.053606298396,-0.997494630935,0.573894307776,0.818896509662,0.0058802097078,0.0,0.818892638704,-0.573805919122,-0.011931485973,0.0,-0.00639667623819,0.0116628968739,-0.999911525771,0.0,0.323200258404,-0.183683347754,0.30496108225,1.0,-0.228748,-0.300640228572,2.41
-0.391423245311,-0.521916254338,-0.139553002014,-2.64199301931,-0.0727175464252,2.11178629466,-0.648451875359,-0.996585769774,-0.139812983618,0.0273565248332,-0.105175560874,-0.0171199706522,-0.0443468106598,-0.969935913807,0.573942092287,0.818862655485,0.00593068762642,0.0,0.818859239687,-0.57385312449,-0.011953409281,0.0,-0.00638497977178,0.0117171886855,-0.999910965798,0.0,0.319353642732,-0.188769193206,0.304952681709,1.0,-0.221132,-0.290630628572,2.427
-0.40621545284,-0.523956439592,-0.139251112058,-2.64351033129,-0.0729183242339,2.11117758378,-0.662791505892,-0.988629211329,-0.129461298431,0.0162496568744,-0.0906429734799,-0.0127117569786,-0.0414705961063,-0.938936119832,0.573944006474,0.818860763822,0.00600614732597,0.0,0.81885838558,-0.573854838844,-0.0119295935052,0.0,-0.00632214106477,0.011765329314,-0.999910799801,0.0,0.31585779986,-0.193368804391,0.304967813505,1.0,-0.213964,-0.281209828572,2.443
-0.422606292548,-0.525854007141,-0.138898423162,-2.64493517883,-0.0731256069885,2.11061430789,-0.678645060904,-0.948420874379,-0.101928703012,0.0263074375087,-0.0812446051904,-0.0108269255646,-0.0260380838156,-0.925890686753,0.573940655424,0.818862887089,0.00603681217274,0.0,0.818861088945,-0.573851704862,-0.011894735793,0.0,-0.00627604356863,0.0117704096635,-0.999911030409,0.0,0.312464239786,-0.197837381661,0.304975590002,1.0,-0.206796,-0.271789028572,2.459
-0.441279851228,-0.527620603224,-0.138537472939,-2.64621899146,-0.0733151434223,2.11007046227,-0.696666166469,-0.915563614482,-0.0794144355728,0.0273309291711,-0.0564224703401,-0.00592793735143,-0.0295017482706,-0.888821013306,0.574062628554,0.818776932401,0.00609757049943,0.0,0.818776340616,-0.573974202932,-0.0118180081702,0.0,-0.00617658322785,0.0117770500394,-0.999911571546,0.0,0.308359023091,-0.203262900406,0.305001018004,1.0,-0.197836,-0.260013028572,2.479
-0.454627463098,-0.528609895599,-0.138118580943,-2.64695812442,-0.0733481701539,2.10974205295,-0.70968168496,-0.89010818786,-0.0632365046534,0.0307703105768,-0.0453679141841,-0.0027948034977,-0.0147587041331,-0.86059074664,0.573980927726,0.818834066336,0.00611664253493,0.0,0.818833865551,-0.573892719595,-0.0117895684774,0.0,-0.00614352195937,0.0117757282225,-0.999911790791,0.0,0.305454282901,-0.207078600049,0.305009378622,1.0,-0.191116,-0.251181028572,2.494
-0.468624462273,-0.52937529712,-0.137778313619,-2.64754141733,-0.0733650832747,2.10944768071,-0.723142670995,-0.855080756022,-0.040184827456,0.0301589239404,-0.0309179857073,-0.000793179230846,-0.0189140080476,-0.834573175297,0.574138066423,0.818723512828,0.00616742464456,0.0,0.818723872515,-0.574049439657,-0.0117986568635,0.0,-0.00611954895288,0.0118237034694,-0.999911371651,0.0,0.302394952415,-0.211101993233,0.305007421966,1.0,-0.183948,-0.241760228572,2.51
-0.481944230505,-0.529862752994,-0.137329446006,-2.64790767852,-0.0733716959481,2.10923842922,-0.73623514403,-0.824353291354,-0.0260274668516,0.0304700883413,-0.016315640476,-0.00338812098878,-0.0202628591399,-0.811127729955,0.573983172522,0.818832320339,0.00613968497831,0.0,0.818832460515,-0.57389495608,-0.0117782805864,0.0,-0.00612102042982,0.0117881351736,-0.999911782598,0.0,0.299514163286,-0.21490358435,0.305012651808,1.0,-0.17678,-0.232339428572,2.526
-0.498028610905,-0.530141455297,-0.136790048895,-2.64815167914,-0.0733461300611,2.10904290624,-0.751861820947,-0.783072275227,-0.0079000073244,0.0326583921873,-0.00678075405746,0.00167490029193,-0.00594511861516,-0.762187440703,0.573974398391,0.818838766889,0.0061000600491,0.0,0.818838227418,-0.573886019484,-0.0118127414772,0.0,-0.00617211031681,0.0117754002534,-0.999911618596,0.0,0.296028054692,-0.219485638016,0.305000762819,1.0,-0.16782,-0.220563428572,2.546
-0.511067512883,-0.53022388003,-0.136320870812,-2.64824451694,-0.0733114103421,2.10892408929,-0.764538031875,-0.771886824542,-0.00260686124612,0.0249026072916,-0.00359492155159,0.00565971150995,-0.00745145664871,-0.739055664401,0.573950176074,0.81885611477,0.00605025535634,0.0,0.818854812929,-0.573861775906,-0.0118407938353,0.0,-0.00622401598389,0.0117505326588,-0.999911589395,0.0,0.29318807734,-0.223176019464,0.304990675541,1.0,-0.160204,-0.210553828572,2.563
-0.522162192826,-0.530151313264,-0.13588907198,-2.6482243454,-0.0732500034684,2.10888152706,-0.775322824002,-0.718184060671,0.00701891892276,0.0317273664968,0.00232236053581,0.00481102089641,-0.000174265454998,-0.70904027524,0.573927069608,0.818872643133,0.0060049980542,0.0,0.818870745043,-0.573838834169,-0.0118508317869,0.0,-0.00625854136238,0.0117190560186,-0.999911743298,0.0,0.290775989729,-0.226303680961,0.304980957235,1.0,-0.153484,-0.201721828572,2.578
-0.534760771385,-0.529924316465,-0.135364381242,-2.64811260347,-0.0730948405663,2.10888474886,-0.787650707638,-0.695502193152,0.0145774089818,0.0162390627686,0.00936498606803,0.0142068393818,-0.000958684592543,-0.669202385156,0.573851706812,0.818925519882,0.00599653028192,0.0,0.818923409867,-0.573763329157,-0.0118675097516,0.0,-0.00627813828869,0.0117211154202,-0.999911596309,0.0,0.288037636544,-0.229830938751,0.304962863203,1.0,-0.14542,-0.191123428572,2.596
-0.54622593127,-0.529599191747,-0.134903376547,-2.6478937511,-0.0729068395596,2.10889990237,-0.79870328034,-0.648422745318,0.0226984046167,0.0354830445218,0.0125393549967,0.0169790517932,0.00281649373444,-0.636924678845,0.573957296653,0.818851328509,0.00602248442769,0.0,0.818849487527,-0.57386866811,-0.0118749921869,0.0,-0.00626785868673,0.0117474728759,-0.999911351485,0.0,0.285537593343,-0.233038093448,0.304956986315,1.0,-0.137804,-0.181113828572,2.613
-0.555654350843,-0.529135168085,-0.134402268135,-2.64760164181,-0.0726810203541,2.10893411544,-0.8080332516,-0.625570966247,0.0359156372758,0.0348846794936,0.0144847081212,0.0113665885512,0.00462165112242,-0.618112214442,0.573797753799,0.818963089089,0.00602854430845,0.0,0.818960900845,-0.573708337266,-0.011938741142,0.0,-0.00631888385228,0.0117877918796,-0.999910555835,0.0,0.283511444207,-0.235645374203,0.304936299615,1.0,-0.131084,-0.172281828572,2.628
-0.566659455259,-0.528508943359,-0.133932849947,-2.64717651181,-0.0724322857254,2.10902091158,-0.818569898192,-0.603787692205,0.0326750121212,0.022570008122,0.026040165226,0.012895130123,0.0053213641999,-0.56396602697,0.573980701939,0.818834584891,0.0060682195263,0.0,0.818832666298,-0.57389062448,-0.0119734137983,0.0,-0.00632187273951,0.0118415928183,-0.999909901243,0.0,0.281118942824,-0.238719448928,0.304920409265,1.0,-0.12302,-0.161683428572,2.646
-0.576199256913,-0.527732243509,-0.133372300077,-2.64667232416,-0.0721326649007,2.10915593328,-0.828022202567,-0.550477197338,0.0494276740506,0.0280694012185,0.0264887761708,0.0144311086714,0.0037470155931,-0.536336125601,0.573813525837,0.818951654128,0.00608051545273,0.0,0.818949468958,-0.5737226341,-0.0120355023417,0.0,-0.00636808781417,0.0118859977772,-0.999909081124,0.0,0.279093508322,-0.241357246817,0.304891749123,1.0,-0.115404,-0.151673828572,2.663
-0.584759963862,-0.526988994217,-0.132896270186,-2.64616469298,-0.0718797345483,2.1092623422,-0.836323898025,-0.530925207754,0.0489346276914,0.0274584660921,0.0323067921109,0.0174341129051,0.00723800105136,-0.510701915651,0.573826338651,0.818942635473,0.00608603129144,0.0,0.818940103667,-0.573734641012,-0.0121002152981,0.0,-0.00641773878918,0.0119277469842,-0.999908266533,0.0,0.27725803451,-0.243728338238,0.304872022803,1.0,-0.108236,-0.142253028572,2.679
-0.592437750466,-0.526276104873,-0.132480803675,-2.6456530487,-0.0716253672007,2.1093791944,-0.843664594978,-0.498346877163,0.0467632924622,0.0291689143758,0.0377604976498,0.0116578429083,0.0105737149784,-0.487269494045,0.573946273412,0.818858383539,0.00611308804511,0.0,0.818856014619,-0.573854078199,-0.0121272897966,0.0,-0.00642263607008,0.0119663820889,-0.99990777347,0.0,0.275610849106,-0.245858606894,0.304864379167,1.0,-0.101516,-0.133421028572,2.694
-0.600328067232,-0.525386041909,-0.131919604604,-2.64502489042,-0.0712934203168,2.10953374538,-0.851440202421,-0.449428823692,0.0550818951168,0.036483760032,0.0401961829811,0.0234856908419,0.0110295877804,-0.449023937103,0.57382056168,0.818946407581,0.00612302242564,0.0,0.818943862489,-0.573727779891,-0.0121709315499,0.0,-0.00645451687664,0.0119985734232,-0.999907182416,0.0,0.273961358827,-0.248025941444,0.304851534472,1.0,-0.0939000000001,-0.123411428572,2.711
-0.608159834632,-0.524493812063,-0.131341976545,-2.64438027337,-0.0709681097421,2.10970086308,-0.859039676607,-0.430713867231,0.0440120627304,0.0297921185823,0.0372514548607,0.0189197850449,0.00470020278497,-0.40989188529,0.57377715187,0.818976874999,0.00611597167065,0.0,0.818974117381,-0.573684187497,-0.0121899539801,0.0,-0.00647477883794,0.0120033706791,-0.999906993841,0.0,0.272318460148,-0.250169027999,0.304846533462,1.0,-0.0858360000001,-0.112813028572,2.729
-0.614637774065,-0.523727803435,-0.130835767379,-2.64377975494,-0.0706657488369,2.10985081232,-0.865243402595,-0.398082338104,0.0509314168044,0.0298275480681,0.0362670644339,0.0248041300227,0.0136398281396,-0.375536057266,0.573805665189,0.818956900765,0.00611556933368,0.0,0.818954371837,-0.573713130848,-0.0121543096824,0.0,-0.006445397453,0.0119828147006,-0.999907430217,0.0,0.270973069194,-0.251941600569,0.304864202764,1.0,-0.0786680000001,-0.103392228572,2.745
-0.620593989112,-0.522925886145,-0.130386419607,-2.6431799332,-0.070344228925,2.11000481977,-0.870957601657,-0.351897970559,0.0540934226339,0.027582304958,0.0402825716336,0.0255504815739,0.00674449175234,-0.353411807206,0.573856050116,0.818921305551,0.00615434493734,0.0,0.81891925543,-0.573763280778,-0.0121530909118,0.0,-0.00642141156572,0.012014267633,-0.999907207118,0.0,0.269737977838,-0.253576689973,0.304867093315,1.0,-0.0715000000001,-0.0939714285715,2.761
-0.627153399386,-0.522045379177,-0.129723043698,-2.64251530562,-0.0699339604919,2.11017790701,-0.877308680791,-0.317640732962,0.0375921160707,0.0301202313059,0.0301543910381,0.0203108994266,0.00152722730219,-0.306840566037,0.573768370269,0.818982687433,0.00616132007166,0.0,0.81898080583,-0.573675733666,-0.0121383353939,0.0,-0.00640661007646,0.0120108270396,-0.999907343398,0.0,0.268409008938,-0.25532885366,0.30487727159,1.0,-0.0625400000001,-0.0821954285715,2.781
-0.631984335629,-0.521450812253,-0.129211429805,-2.64203110855,-0.0696194273339,2.11031920932,-0.881883258077,-0.291299554773,0.0369615073548,0.0330126380445,0.0331762398331,0.0255139042938,0.00546941111865,-0.273662019071,0.573776232036,0.818977166372,0.00616306844472,0.0,0.818975772871,-0.57368446108,-0.0120652172181,0.0,-0.00634560298212,0.0119703690835,-0.999908217581,0.0,0.267431365314,-0.2566099565,0.304903701366,1.0,-0.0553720000001,-0.0727746285715,2.797
-0.636523975797,-0.52077781944,-0.128719955391,-2.64153279412,-0.069293291299,2.11045745304,-0.886121647037,-0.248625445046,0.0422164538778,0.0238134603131,0.0294396259388,0.0224004621413,0.00319554066368,-0.236190625555,0.573840900708,0.818931720983,0.00618093380525,0.0,0.818930577346,-0.573749070529,-0.0120606987807,0.0,-0.00633070566869,0.0119829086493,-0.999908161816,0.0,0.266520564468,-0.257814797877,0.304906804929,1.0,-0.0477560000001,-0.0627650285715,2.814
-0.640263690274,-0.520206327954,-0.128268274095,-2.64111957306,-0.0689622954054,2.11057551904,-0.889616592709,-0.228212620618,0.0320144762266,0.0244670318443,0.0254888753018,0.0164034410202,0.00229355792542,-0.216174304563,0.573884816039,0.818900610677,0.00622532355201,0.0,0.818899992936,-0.57379268288,-0.0120625678532,0.0,-0.00630612049098,0.0120206733814,-0.999907863883,0.0,0.265782851346,-0.258789269189,0.304905696049,1.0,-0.0405880000001,-0.0533442285715,2.83
-0.643725310942,-0.519719528058,-0.127782955176,-2.64077160091,-0.0686680783588,2.11065475352,-0.892751889105,-0.194655367718,0.0348981899798,0.0292970881632,0.0207946114658,0.0128887927384,0.00868389167815,-0.177460779383,0.573952333908,0.818853264101,0.0062287377159,0.0,0.818852529639,-0.573859864057,-0.0120887563362,0.0,-0.00632461677444,0.0120390193368,-0.999907526342,0.0,0.265098651849,-0.25966360002,0.304903426832,1.0,-0.0329720000001,-0.0433346285715,2.847
-0.646258981723,-0.519337900207,-0.12728462259,-2.64050530933,-0.0683816281238,2.11072935361,-0.895031084848,-0.156174693135,0.0255321857947,0.0364149129709,0.0186629876838,0.0155991122479,0.00658034460622,-0.141234709268,0.57394395439,0.818859219082,0.00621799361635,0.0,0.818858273691,-0.573851399314,-0.0121014880844,0.0,-0.00634133283513,0.0120374632021,-0.999907439205,0.0,0.264638313397,-0.260268761405,0.304902540841,1.0,-0.0262520000001,-0.0345026285715,2.862
-0.64853795993,-0.518987203692,-0.126705277242,-2.64028862282,-0.0680746736932,2.11082308802,-0.897090456352,-0.123284969016,0.0227084943859,0.0349009692214,0.0102710984388,0.0191354002177,0.0047664386995,-0.106333402461,0.573855695891,0.818921314116,0.00618615231263,0.0,0.818919893759,-0.573763188193,-0.0121143874001,0.0,-0.0063714662463,0.0120181047921,-0.999907480508,0.0,0.264254933238,-0.260776500246,0.30489398974,1.0,-0.01992,-0.0261805714286,2.879
-0.650480242582,-0.518685802895,-0.126259243904,-2.64009950037,-0.0678206336736,2.11084979378,-0.898867704421,-0.104580362841,0.0158336403984,0.0219513750857,0.0119206564012,0.0112045126635,0.0017547001823,-0.0966030624174,0.573793137585,0.818965177201,0.00618228872009,0.0,0.818963307878,-0.573699911112,-0.0121761750849,0.0,-0.006425208602,0.0120499053242,-0.999906753891,0.0,0.263908924972,-0.261213569403,0.304882031928,1.0,-0.01956,-0.0257074285714,2.897
-0.652027509929,-0.518447677398,-0.125975998075,-2.6399229105,-0.0676639165197,2.11090486803,-0.90041112027,-0.0966738914533,0.0156743345305,0.0114782647665,0.0127421009189,0.0074222693293,0.00579538492119,-0.0941901878998,0.573671553457,0.819050439722,0.00617031986732,0.0,0.819048475147,-0.573578521692,-0.0121664174585,0.0,-0.00642587033932,0.0120335503651,-0.999906946599,0.0,0.263624250239,-0.261593194506,0.304886104832,1.0,-0.01924,-0.0252868571429,2.913
-0.653500365337,-0.518187000535,-0.125826211428,-2.63971603489,-0.0675723312377,2.11099499352,-0.901806774094,-0.0906292578628,0.0208638388032,0.00789331333014,0.0123543281049,0.00575719873789,0.00107958368063,-0.0881394730065,0.573678403862,0.819045719768,0.00615993291278,0.0,0.819043935392,-0.573586009014,-0.0121189546762,0.0,-0.00639284970252,0.0119978692659,-0.999907587033,0.0,0.263335398899,-0.262000899351,0.304895376395,1.0,-0.01892,-0.0248662857143,2.929
-0.655183843274,-0.517884421335,-0.125741528346,-2.63949016574,-0.0675165004914,2.11103650769,-0.903421910157,-0.0853434375345,0.0150803490783,0.00120834241738,0.0149679077153,0.00126207858413,0.00259958214619,-0.0861220777921,0.573710040257,0.819023568651,0.00615878266915,0.0,0.819021615838,-0.573617356099,-0.0121436597923,0.0,-0.00641328242364,0.0120113469372,-0.999907294379,0.0,0.26296889847,-0.262478770987,0.304892098167,1.0,-0.01854,-0.0243668571429,2.948
-0.656569910464,-0.517678338151,-0.125719901316,-2.6393155091,-0.0674807949919,2.11104929126,-0.90469611885,-0.0847500542362,0.0124366173925,0.00266134717143,0.00819807760245,-3.27077965052e-06,0.00262396141631,-0.0870519990915,0.573810639206,0.818952972044,0.00617469161929,0.0,0.818951157489,-0.573717732082,-0.0121537007659,0.0,-0.00641090272119,0.0120309252866,-0.999907074264,0.0,0.262650024208,-0.262878112357,0.304897128814,1.0,-0.01822,-0.0239462857143,2.964
-0.657950694566,-0.517435835334,-0.125708162148,-2.63910280672,-0.0674447132119,2.11111095413,-0.906132204684,-0.0817110377653,0.0137081478177,0.000730998346512,0.0145801473373,0.000422623537305,-0.000173577190591,-0.0815116596342,0.573783415088,0.818971947963,0.00618772341931,0.0,0.818970548423,-0.573690916557,-0.0121128021535,0.0,-0.00637032710369,0.0120179196103,-0.999907489991,0.0,0.262345324356,-0.263293932395,0.304909941235,1.0,-0.01788,-0.0234994285714,2.981
-0.659211829093,-0.51720752429,-0.125709235952,-2.63891119624,-0.0674149839523,2.11121006569,-0.90741540995,-0.0772984423588,0.0136045403776,-0.00108289504837,0.0113044057959,0.00423753786199,0.00204098359934,-0.0793407327205,0.573788709851,0.818968161946,0.0061978277059,0.0,0.818967329151,-0.573696989609,-0.012042624191,0.0,-0.00630697213045,0.0119859709677,-0.999908275095,0.0,0.262069530166,-0.263681568016,0.304921273439,1.0,-0.01756,-0.0230788571429,2.997
-0.660480429995,-0.516997595363,-0.125707753733,-2.63874653009,-0.0673861985152,2.11121232302,-0.908653811276,-0.0794693744732,0.012294533046,-0.000527652997173,0.00842317334845,0.000493606539445,7.10761055735e-05,-0.083618478607,0.573833327257,0.818936728873,0.00622041264845,0.0,0.818935954019,-0.573741049452,-0.012077180568,0.0,-0.00632166237901,0.0120246397874,-0.999907718053,0.0,0.261770802826,-0.264049999536,0.30491892464,1.0,-0.01724,-0.0226582857143,3.013
-0.661925629758,-0.516740698265,-0.12568510212,-2.63853583811,-0.067354479749,2.11122938577,-0.910127570751,-0.0735851393987,0.0155940496321,0.000816297842209,0.00924258935257,0.004573809395,-0.000217723721633,-0.0712537384068,0.573818389541,0.818947113706,0.00623118597022,0.0,0.818946339349,-0.573725801105,-0.0120973267394,0.0,-0.00633220056864,0.0120449073892,-0.999907407434,0.0,0.261441521208,-0.264472638507,0.304921915788,1.0,-0.01686,-0.0221588571429,3.032
-0.663092117214,-0.516516848392,-0.125654046961,-2.63835299236,-0.0673248708141,2.11131371086,-0.911266788983,-0.0729262542935,0.0138734630111,0.000750539073646,0.0158011982348,-0.000171741830668,0.00733962865027,-0.0764189261412,0.573843303206,0.818929693006,0.00622640983266,0.0,0.818929117241,-0.573751227271,-0.012057240177,0.0,-0.00630174304177,0.0120181862259,-0.999907921378,0.0,0.261174297312,-0.264846935499,0.304926540818,1.0,-0.01652,-0.021712,3.049
-0.664391303904,-0.516252643728,-0.125589693955,-2.63816052523,-0.0672934409089,2.11135596668,-0.912640218161,-0.0750048938725,0.0171018381194,0.000923565677017,0.0102081590556,4.21076796909e-05,0.00111429367973,-0.0740464409708,0.573757853336,0.818989647417,0.00621530855047,0.0,0.818988848984,-0.573665695868,-0.0120698601565,0.0,-0.00631970288314,0.0120156767883,-0.999907838186,0.0,0.260909127937,-0.265196994449,0.304925475926,1.0,-0.01618,-0.0212651428571,3.066
-0.665591093193,-0.516017320448,-0.125523000227,-2.63798447275,-0.0672705387954,2.11137168443,-0.913839275473,-0.0696023408635,0.0142094510567,0.00207776493827,0.012246037471,0.00345368967539,-0.00039924081923,-0.0730110770941,0.573730117657,0.819009205679,0.00619838751492,0.0,0.819007960329,-0.573637611781,-0.0121077730579,0.0,-0.00636087185023,0.0120233542638,-0.999907484851,0.0,0.260644661325,-0.265537165523,0.30492155442,1.0,-0.01584,-0.0208182857143,3.083
-0.666697068652,-0.515800392785,-0.125497960375,-2.63781569345,-0.0672434762872,2.11143568206,-0.914978887176,-0.0658796921468,0.0153858565969,0.000262043169614,0.00863673147642,-0.000253657488454,0.00902565113691,-0.0809972963155,0.573705127941,0.819026707561,0.00619882053294,0.0,0.819025606452,-0.573612887728,-0.0120854420149,0.0,-0.00634269855305,0.0120107040469,-0.999907752327,0.0,0.260402100292,-0.265866542545,0.304924236991,1.0,-0.01552,-0.0203977142857,3.099
-0.667866484296,-0.515573523834,-0.125496134832,-2.63763619842,-0.067215776087,2.11150402609,-0.916164013353,-0.0641028558925,0.0172275078109,-0.00152863811379,0.013750110137,0.00580677194605,0.0047904577851,-0.0659972167481,0.573712121674,0.819021724227,0.00620995900447,0.0,0.819020936436,-0.573620150211,-0.0120571909046,0.0,-0.0063130652131,0.0120036741223,-0.999908024278,0.0,0.260139998163,-0.266220393013,0.304927925761,1.0,-0.01518,-0.0199508571429,3.116
-0.668896295583,-0.515380010376,-0.125488024464,-2.63747885625,-0.067191269646,2.11152213127,-0.917113098265,-0.072231784747,0.0118953902361,-0.000167658086124,0.0129616260381,-0.000225828754014,0.00238900545742,-0.0649390344891,0.573791120066,0.818966299426,0.00622075878386,0.0,0.818965574228,-0.573698935719,-0.0120692288557,0.0,-0.00631557059351,0.0120200350559,-0.999907811913,0.0,0.259903691337,-0.266524272408,0.30492971149,1.0,-0.01488,-0.0195565714286,3.131
-0.670041913942,-0.515165934007,-0.12548377197,-2.63729957493,-0.0671650802032,2.11155886373,-0.918271720798,-0.0707053906986,0.00783869557666,0.000167663925062,0.0124084276719,0.000193443330901,0.00339391975131,-0.0746432609866,0.573797906777,0.818961455065,0.00623251124861,0.0,0.818960929326,-0.573705757666,-0.0120601309762,0.0,-0.00630127614362,0.0120244926226,-0.999907848502,0.0,0.259642796011,-0.266866729116,0.304935357423,1.0,-0.01454,-0.0191097142857,3.148
-0.671140775742,-0.514961179607,-0.125465770744,-2.6371271941,-0.0671353690521,2.11161026999,-0.91940473772,-0.0649223705346,0.0145778688328,0.000800803287428,0.0109597803695,0.00182903463109,-0.000230281833826,-0.0668835348385,0.573778722582,0.818974848135,0.00623879274655,0.0,0.818974559221,-0.573686846412,-0.0120341390968,0.0,-0.00627666474829,0.0120145768158,-0.999908122491,0.0,0.259398289904,-0.267193972277,0.304942876048,1.0,-0.0142,-0.0186628571429,3.165
-0.672220199975,-0.514746382133,-0.125429181131,-2.63695413398,-0.067116429466,2.11164975104,-0.920441173844,-0.0561919921078,0.0121477963966,0.00272780591975,0.0109399201299,0.000216922976121,0.00160554115977,-0.0554134573122,0.573804986443,0.818956530914,0.00622775293139,0.0,0.818956127744,-0.573713209011,-0.0120316889459,0.0,-0.00628060704213,0.0120043306583,-0.999908220799,0.0,0.259159846927,-0.26751132484,0.304946395371,1.0,-0.01386,-0.018216,3.182
-0.673197301283,-0.514556835343,-0.125390393594,-2.63678959056,-0.0670889925412,2.11168741607,-0.921451193041,-0.0629014885036,0.0100635861023,0.000938710318855,0.0119699803016,0.00065264797391,6.08405054926e-05,-0.0610045255284,0.573770629226,0.818980641366,0.0062226205994,0.0,0.818980286804,-0.573679102025,-0.0120135185298,0.0,-0.00626917241388,0.0119894385231,-0.999908471232,0.0,0.258948071842,-0.267798609874,0.304955262038,1.0,-0.01354,-0.0177954285714,3.198
-0.674215833469,-0.51435930018,-0.125340859748,-2.63661368866,-0.0670624144855,2.11173747825,-0.922506932203,-0.0592712747153,0.0111363609752,0.000441423164677,0.012983055199,-0.000325009206777,0.000970438508522,-0.0571792558979,0.573725291618,0.819012506899,0.00620888084206,0.0,0.819012192335,-0.573634251344,-0.0119800414015,0.0,-0.00625029736509,0.0119586320978,-0.999908958306,0.0,0.258731503173,-0.268098858467,0.304967635356,1.0,-0.0132,-0.0173485714286,3.215
-0.675187414509,-0.514152653662,-0.125319376575,-2.63644473469,-0.0670432041424,2.11177667774,-0.923434076294,-0.0536941947356,0.0129703193265,0.000797289870396,0.00683696310047,-0.000525066725394,0.00168609772044,-0.0504977227167,0.573763346607,0.818985881798,0.00620438605144,0.0,0.81898555521,-0.573672406125,-0.0119740431693,0.0,-0.00624740751098,0.0119517997455,-0.999909058056,0.0,0.258516780456,-0.268389989908,0.30497188075,1.0,-0.01286,-0.0169017142857,3.232
-0.676148638238,-0.513956244792,-0.125312933011,-2.6362873677,-0.0670174387279,2.11181270175,-0.924396608423,-0.0601168229497,0.00869222396617,8.15429931802e-06,0.00809053710911,0.000353738015401,0.00688056628838,-0.0512117760206,0.57377684747,0.818976342787,0.00621499508749,0.0,0.818976164017,-0.573685878051,-0.0119709230134,0.0,-0.00623856794724,0.0119588015481,-0.99990902953,0.0,0.258298886716,-0.268677531134,0.304974012509,1.0,-0.01252,-0.0164548571429,3.249
-0.677161675149,-0.513737239766,-0.125305622259,-2.63612278636,-0.0669950303103,2.11185043833,-0.925443305549,-0.0593908893646,0.0127139354052,-0.00125340379482,0.0097034452604,0.00255256468794,0.000157749398751,-0.0528196808902,0.573762238404,0.818986514275,0.00622335271528,0.0,0.818986368198,-0.573671090884,-0.0119814477725,0.0,-0.00624260679553,0.0119715738214,-0.999908851486,0.0,0.25806801102,-0.268980167095,0.304971220825,1.0,-0.01216,-0.0159817142857,3.267
-0.678098501823,-0.513542234533,-0.125298111177,-2.63596687026,-0.0669726205151,2.11190588799,-0.926332847113,-0.0539817034137,0.00721092806862,-0.00132947201249,0.0087417610317,0.00519800394081,0.0106979536267,-0.0496347269133,0.573813246076,0.818950748071,0.00622717936496,0.0,0.818950787217,-0.573722331541,-0.0119599878326,0.0,-0.0062220889127,0.011962783205,-0.999909084581,0.0,0.257858683068,-0.269263624189,0.304974868032,1.0,-0.01182,-0.0155348571429,3.284
-0.678999525532,-0.513351180368,-0.125282517495,-2.63581125301,-0.0669523658963,2.11193141686,-0.927218839946,-0.0522322275014,0.0127983497502,0.000480426256333,0.010001390734,0.00130970840677,-6.28284141275e-05,-0.0578355093161,0.573831156725,0.818938183222,0.00622916800042,0.0,0.818938216677,-0.573740169299,-0.0119650449398,0.0,-0.00622482810921,0.0119674497222,-0.999909011692,0.0,0.257655743175,-0.269531840566,0.304977465181,1.0,-0.01148,-0.015088,3.301
-0.679839483514,-0.513176047796,-0.125266516506,-2.63566854706,-0.066934747934,2.11196018684,-0.92811068056,-0.0496236236993,0.0101957962499,0.00340014672587,0.00939063972368,0.000795443247484,0.00169034881475,-0.0584726820197,0.573792176006,0.818965492777,0.00622955026467,0.0,0.818965533048,-0.573701198834,-0.0119639891947,0.0,-0.00622431368871,0.011966860746,-0.999909021943,0.0,0.257466833552,-0.269781707816,0.304980359558,1.0,-0.01114,-0.0146411428571,3.318
-0.680627040961,-0.512995533219,-0.125242320101,-2.6355300863,-0.0669176229453,2.11200261861,-0.928909815652,-0.0440431242737,0.00959523071008,0.00125992904043,0.0120608559072,-0.000314272930955,0.00694878519703,-0.0465631016507,0.573779975517,0.818974086106,0.00622357476083,0.0,0.818974079143,-0.573689084761,-0.0119598754069,0.0,-0.00622455096474,0.0119595136846,-0.999909108368,0.0,0.257294692363,-0.27001703299,0.304980683671,1.0,-0.01082,-0.0142205714286,3.334
-0.681456645672,-0.512812427835,-0.125218647327,-2.63539783249,-0.0668986920998,2.11203287559,-0.929711292029,-0.0469793217748,0.0121444229008,0.00184163879489,0.00515632930679,-0.000190666055465,0.000489704339901,-0.0492912163141,0.573801170812,0.818959244683,0.00622244521275,0.0,0.818959124483,-0.573710091113,-0.0119762549464,0.0,-0.00623830520182,0.0119681478177,-0.999908919345,0.0,0.257107724689,-0.270259545488,0.304976170216,1.0,-0.01048,-0.0137737142857,3.351
-0.682223362316,-0.512642259131,-0.125203222756,-2.63526352989,-0.0668798668328,2.11206000339,-0.930433356711,-0.0467895535682,0.00699976218235,-9.56606855223e-05,0.00884431006233,5.79790696086e-05,0.00620537287236,-0.0529518484294,0.573841752385,0.818930801727,0.00622351213435,0.0,0.818930668928,-0.573750608691,-0.0119810440644,0.0,-0.00624102230494,0.0119720787762,-0.999908855332,0.0,0.256935919113,-0.270487857992,0.304976902309,1.0,-0.01016,-0.0133531428571,3.367
-0.682963485521,-0.512465261574,-0.125193667164,-2.63512664404,-0.0668576389562,2.11210178467,-0.931169259885,-0.0462154491068,0.0128449391261,-7.1016355653e-05,0.0143184503306,0.00168033277301,0.00231490385677,-0.0433255605582,0.573854987836,0.81892149014,0.00622838849142,0.0,0.818921455459,-0.573763887169,-0.0119749100838,0.0,-0.00623300682322,0.0119726533597,-0.999908898449,0.0,0.256772771633,-0.270712848084,0.304977385994,1.0,-0.00984000000001,-0.0129325714286,3.383
-0.683792634626,-0.512276570852,-0.125181919351,-2.6349793077,-0.0668337277516,2.11214341926,-0.932031269151,-0.0410988481096,0.00795879422601,-0.000968197213121,0.00499874697966,0.000233926866977,-0.000815664661409,-0.0509727513017,0.573837547816,0.818933667433,0.00623409675274,0.0,0.818933733425,-0.573746477447,-0.0119694100297,0.0,-0.00622548166052,0.0119740395659,-0.99990892873,0.0,0.256588004322,-0.270962491556,0.304978319045,1.0,-0.00946000000001,-0.0124331428571,3.402
-0.684406921369,-0.512135463233,-0.125155078618,-2.634861229,-0.0668152664352,2.11216865183,-0.932631670923,-0.038640862443,0.0112395381684,0.00693177259492,0.00939931904117,0.00068617382088,0.00484224449938,-0.0406271776651,0.573843758427,0.81892935483,0.00622893356919,0.0,0.818929391914,-0.57375278214,-0.0119642362087,0.0,-0.00622411610784,0.0119668894525,-0.999909022829,0.0,0.256456249128,-0.271144950043,0.30498251723,1.0,-0.00916000000001,-0.0120388571429,3.417
-0.685098406356,-0.511979945298,-0.125106517571,-2.63474163023,-0.0667921420003,2.11220226031,-0.933303125983,-0.0399846895912,0.00880679063082,0.00404629399306,0.00835445258982,0.00201901416175,-0.000153063841076,-0.0376608275909,0.573841656182,0.818930914912,0.00621748605206,0.0,0.818930819802,-0.573750760752,-0.0119634366305,0.0,-0.00623006070098,0.0119570394495,-0.999909103645,0.0,0.256310112448,-0.271343423581,0.304983292648,1.0,-0.00882000000001,-0.011592,3.434
-0.685765765119,-0.511821296926,-0.125072568762,-2.63464485757,-0.0667679470301,2.11223223432,-0.933980956067,-0.0396468620035,0.00880087829425,0.0016819284083,0.00490246610455,0.00419750398754,-0.000162646565899,-0.039951513097,0.573824406147,0.818942989849,0.00621909872407,0.0,0.818942739676,-0.573733170041,-0.0119910644974,0.0,-0.00625201535586,0.0119740817499,-0.999908762673,0.0,0.256161482319,-0.271532012879,0.304971881985,1.0,-0.00848000000001,-0.0111451428571,3.451
-0.686428876458,-0.511657663324,-0.12505444831,-2.63455784727,-0.0667436164913,2.11225235192,-0.93467164062,-0.0378054492663,0.0102833802284,0.0033121580717,0.0036252300294,0.00312382978308,-0.000871065501085,-0.0345652371875,0.57380406359,0.818957142299,0.00623238205397,0.0,0.818956727879,-0.573712129514,-0.0120423092607,0.0,-0.00628666303648,0.0120142085134,-0.999908064105,0.0,0.256006501212,-0.271718671723,0.304952972515,1.0,-0.00812000000001,-0.010672,3.469
-0.686972179211,-0.511532893605,-0.125043436199,-2.63449644516,-0.0667238481572,2.11227243777,-0.935216350475,-0.0374234413379,0.00869347504292,0.00306336487724,0.000319937377164,0.00293009496468,-0.000501251869004,-0.0423007430811,0.573806904546,0.818955052821,0.0062453706278,0.0,0.818954550238,-0.573714421179,-0.0120811620978,0.0,-0.00631099105529,0.0120471608654,-0.999907514377,0.0,0.255877102211,-0.271870442271,0.304936644448,1.0,-0.00782000000001,-0.0102777142857,3.484
-0.68756447883,-0.511392774804,-0.125033161006,-2.6344272342,-0.0667038296754,2.11229160492,-0.935776440936,-0.0342866987576,0.00655046386088,-5.0103954794e-06,0.00703469170964,0.00267561046935,0.00014799144575,-0.0257883584222,0.573838338105,0.818932923478,0.00625903080633,0.0,0.818932290424,-0.573745198238,-0.0121284005555,0.0,-0.00634137974451,0.0120856963398,-0.999906857086,0.0,0.255735388718,-0.27203647773,0.304918079402,1.0,-0.00748000000001,-0.00983085714286,3.501
-0.688150860468,-0.511260868506,-0.125019976704,-2.63436284982,-0.0666823668045,2.11231166801,-0.936363982865,-0.0302527422612,0.00580997121023,0.000345844824069,0.00459328589362,0.000333322340851,0.00599846028913,-0.0343585799999,0.573840728353,0.818931141698,0.00627300100622,0.0,0.818930406997,-0.573746983509,-0.012171043974,0.0,-0.00636825414103,0.0121216253848,-0.999906251374,0.0,0.255595230789,-0.272199165371,0.304900504276,1.0,-0.00712000000001,-0.00935771428572,3.519
-0.688678264656,-0.511139782925,-0.124995171739,-2.63428379848,-0.0666581942694,2.11232630173,-0.936896721062,-0.029002906502,0.00402733914863,0.000734794609843,0.00341185026822,-3.9197843878e-05,4.95451717161e-05,-0.0338893178409,0.573833202149,0.818936359988,0.00628023113791,0.0,0.818935563762,-0.573739128894,-0.0121943135713,0.0,-0.00638327532416,0.0121408403809,-0.99990592247,0.0,0.255476580724,-0.272347277205,0.304893402742,1.0,-0.00678000000001,-0.00891085714286,3.536
-0.689199232181,-0.511029048062,-0.124961450773,-2.63419550597,-0.0666343055402,2.11234724846,-0.937410635238,-0.0302727056662,0.00637541590062,0.00172829606,0.00518448262334,0.00470064764954,0.0017148787093,-0.0269708861509,0.573829710146,0.818938814771,0.00627919703767,0.0,0.818938017467,-0.573735666087,-0.0121924529016,0.0,-0.0063823965144,0.0121388985992,-0.999905951655,0.0,0.255364838249,-0.272495395408,0.304895073295,1.0,-0.00644000000001,-0.00846400000001,3.553
-0.689624106854,-0.51093026395,-0.124926657349,-2.63412007259,-0.0666133240398,2.11236516835,-0.937863018074,-0.0248023374473,0.00495806134379,0.000563183726005,0.00432060898793,0.00417579878603,0.00165288332066,-0.0322264992453,0.573790602706,0.818966260553,0.00627337417828,0.0,0.818965428461,-0.573696672593,-0.0121861290972,0.0,-0.006381137542,0.012130196475,-0.999906065297,0.0,0.255271763412,-0.272625134265,0.304898730175,1.0,-0.00612000000001,-0.00804342857144,3.569
-0.690078958701,-0.510836547166,-0.124902865659,-2.63403375489,-0.0665922507036,2.11240115294,-0.938340285335,-0.0245898002858,0.00565413811865,0.00244808471068,0.00956719477318,0.00243964108735,0.00349267473001,-0.023342696644,0.573773314077,0.818978367564,0.0062741068122,0.0,0.818977686297,-0.573679653158,-0.0121635439521,0.0,-0.00636247444713,0.0121177037083,-0.999906335701,0.0,0.255181985624,-0.272750879865,0.304903210675,1.0,-0.00580000000001,-0.00762285714286,3.585
