nelsonifechukwu/NELSON_IML_WORK/CNN-GradCAM/train2dof/data_sample_2022-07-06-11-33-23/robot_state.csv
position_joint1,position_joint2,position_joint3,position_joint4,position_joint5,position_joint6,position_joint7,velocity_joint1,velocity_joint2,velocity_joint3,velocity_joint4,velocity_joint5,velocity_joint6,velocity_joint7,ee_T_00,ee_T_10,ee_T_20,ee_T_30,ee_T_01,ee_T_11,ee_T_21,ee_T_31,ee_T_02,ee_T_12,ee_T_22,ee_T_32,ee_T_03,ee_T_13,ee_T_23,ee_T_33,v_x,v_y,w_z,time
0.4650971297896213,0.5472953173203772,-0.12397750189045552,-1.3555810108540736,0.07944899594124812,1.894176206270853,0.15912580347067964,-0.005615597360474979,0.0010749454592487832,0.00015228962587304968,-0.00025880180405005214,0.00033402939317147813,-0.005134140936052064,-0.000764583780932419,0.5737236947553166,0.8190329833846337,0.002615550722621118,0.0,0.818999233115417,-0.5736634707931523,-0.011455362723240953,0.0,-0.007882025754815336,0.008714514843756516,-0.99993096306747,0.0,0.6617569903942884,0.26094564132556747,0.30368467216564793,1.0,5e-324,6.91240128906933e-310,6.91218908949033e-310,0.0
0.46509919862998095,0.547290010365212,-0.12398494289445738,-1.355578724428244,0.07944899642876006,1.8941769183476762,0.15913024681993743,0.0008852542101984171,-0.0005179555293773918,-0.001457957360834887,0.00022520433672817424,0.00020578214457684312,0.00028447574792348884,0.0002706617326683877,0.5737307052460384,0.8190280558128775,0.002620791954601856,0.0,0.8189944117777997,-0.5736705061320801,-0.011447740917178054,0.0,-0.007872701513682412,0.008714502216309747,-0.9999310366330261,0.0,0.6617589643679705,0.2609430939794333,0.30368982898652963,1.0,-0.00018,-0.00023657142857142863,-9e-05,0.010000000000000002
0.4650942599605802,0.5472893577628978,-0.12398179285239481,-1.355578734824841,0.07944828386440042,1.8941754315531212,0.15913135879989335,0.0013249265889896016,0.002637279819957269,-0.0006988637081132353,-0.005556013305774307,-0.00013379000803610084,0.0004616840826534615,-7.089043309946143e-05,0.5737332606417815,0.8190262666007244,0.002620525259754286,0.0,0.8189926088939781,-0.5736730507545431,-0.011449205920900402,0.0,-0.007874027260020122,0.008715148857538019,-0.9999310205584682,0.0,0.6617592877131356,0.26094143939860176,0.30369005146856665,1.0,-0.0003800000000000002,-0.0004994285714285718,-0.0001900000000000001,0.02000000000000001
0.4650916443212953,0.54727690522087,-0.12398216875910315,-1.3555851715860736,0.0794476735308869,1.8941737648646062,0.15912429977875653,-0.00044347182451239664,-0.0014326900480983423,-0.0009679255895148071,0.00029406674036484257,-0.0003564568331957945,7.864834806311629e-05,0.00016696919889460876,0.573730038001209,0.8190285113872963,0.002624486816371738,0.0,0.8189949034365146,-0.5736698141808131,-0.011447241762702528,0.0,-0.0078701800414826,0.008717235612067581,-0.9999310326564519,0.0,0.6617586100052777,0.26093867762303585,0.3036956754773941,1.0,-0.0006800000000000005,-0.0008937142857142865,-0.00034000000000000024,0.035000000000000024
0.4650882181309583,0.5472348197716944,-0.1239772166754622,-1.3556266051949408,0.07944899594121509,1.8941799068669998,0.1591207545542021,-2.2637821370358532e-05,-0.004841686589144069,7.704940844794069e-05,-0.004343101415479011,0.00011353797984171251,-0.0004747881883888441,0.0003503099534147063,0.573732775116426,0.8190265780422674,0.0026294711990867345,0.0,0.8189929743347396,-0.573672468268462,-0.011452250534957376,0.0,-0.007871393882232014,0.00872421788724606,-0.9999309622071948,0.0,0.6617491837496896,0.260934418821175,0.3037045933203289,1.0,-0.0010400000000000008,-0.001366857142857144,-0.0005200000000000004,0.05300000000000004
0.4650928231976933,0.5471121426669591,-0.12398274331383895,-1.3557724094876908,0.07944605712204608,1.8942065273490278,0.1591308875484967,9.847124516263492e-05,-0.0048721895353960295,-0.0008176744414774798,-0.0061067799793717735,0.00012356862370218656,-0.00012288526343484174,0.0017630634016235875,0.5737445902556848,0.819018264924805,0.0026407902427753116,0.0,0.8189847475970771,-0.573684179099869,-0.011453940591317508,0.0,-0.007866158414976232,0.008734571549383521,-0.9999309130193141,0.0,0.6617264815289938,0.2609210198526361,0.3037261201266679,1.0,-0.001360000000000001,-0.001787428571428573,-0.0006800000000000005,0.06900000000000005
0.4650825808822791,0.5469768679241603,-0.12398214787476527,-1.3559671419890498,0.07944152470879635,1.8942466923390782,0.1591214311016883,0.00040458911768167496,-0.009492623104613837,-0.0008238180665235116,-0.011221043888982598,0.00013070780209254438,0.0039454399894872285,-0.0014225231718054782,0.5737542949824143,0.819011501676405,0.0026298312115608157,0.0,0.8189777409400415,-0.5736938051883209,-0.0114727779765758,0.0,-0.007887771108268382,0.008736497068778867,-0.9999307259435081,0.0,0.6616962098567372,0.26089523528522535,0.30373270016283965,1.0,-0.0017000000000000012,-0.0022342857142857164,-0.0008500000000000006,0.08600000000000006
0.465052478645006,0.5467941732992195,-0.12398027661495961,-1.3562040969383873,0.07943716938425806,1.8943812621895486,0.1591256843236471,-0.0011622377579608109,-0.009939775596692393,-3.0827834300480475e-05,-0.013771124027902872,-7.007063580235487e-05,0.0033258924934576085,0.00015373887055669026,0.5737934622862226,0.8189838249692393,0.0027025871959767437,0.0,0.818950974615416,-0.5737327010739267,-0.011438347611651013,0.0,-0.007817409535840258,0.008776704475809222,-0.9999309263977654,0.0,0.661681208312184,0.26085911298281955,0.30376093827245426,1.0,-0.0020600000000000015,-0.0027074285714285737,-0.0010300000000000008,0.10400000000000008
0.4650261846440726,0.5465812760108558,-0.12397507490700545,-1.3564376271540097,0.07943227318483777,1.8944977694222722,0.15911336725274497,-0.002232852020301694,-0.008853734093530612,-9.443315480923422e-05,-0.011504188081101662,2.7054797759553454e-06,0.009164147311520373,-0.00019917607904148347,0.5738130830345408,0.8189697820659119,0.0027908247018061895,0.0,0.8189380134775969,-0.5737519786095262,-0.011399299286756696,0.0,-0.007734589372778766,0.008826749447707824,-0.9999311299391684,0.0,0.6616624375353333,0.26082692249137146,0.303810511781619,1.0,-0.002400000000000002,-0.0031542857142857175,-0.001200000000000001,0.1210000000000001
0.4650020738795107,0.5463732083987495,-0.12397580071324397,-1.356711515373479,0.07942614217571725,1.8946206183407477,0.15910985065733102,-0.0013098911095600684,-0.01082921902909527,0.0008148890737599803,-0.014006237343057764,0.000454269805923543,0.005588482244650811,-0.0002750930568241486,0.5738442114905682,0.8189477863525767,0.0028444803024401276,0.0,0.8189166591514261,-0.5737828809286498,-0.011377953185632603,0.0,-0.007685983450916978,0.008858735438590823,-0.999931221867195,0.0,0.6616364056957352,0.2607881210505269,0.3038381832026773,1.0,-0.002720000000000002,-0.003574857142857146,-0.001360000000000001,0.1370000000000001
0.4649648093155517,0.5461348167253314,-0.12398343637562476,-1.357068669505698,0.07941026502396069,1.8947481476938328,0.15910560489282372,0.0005448477416815747,-0.018005581038422338,-0.0001635262557726179,-0.019685122103848894,-0.003029470590927424,0.000982780090587668,0.0007721688235813337,0.5738923111171267,0.8189140507766818,0.00285299533432732,0.0,0.8188830193262843,-0.5738309325620926,-0.011375781080687177,0.0,-0.007678797832895323,0.00886491340570933,-0.999931222321891,0.0,0.6615985605650369,0.26072586703604367,0.3038482901387404,1.0,-0.0030400000000000023,-0.003995428571428575,-0.0015200000000000012,0.1530000000000001
0.4649299283669926,0.545843921368043,-0.12398351512660757,-1.3575104440248713,0.07938955998867855,1.8949042404420038,0.15909493541815015,-0.0008648536668909312,-0.01922848543422335,0.00028746413271112017,-0.025754178732590286,-0.004395036682469714,0.004825097780426989,0.00010955515600670764,0.5739313453009672,0.8188866682745397,0.0028604727676089115,0.0,0.8188556782557205,-0.5738698757237135,-0.011379403605731708,0.0,-0.007677050561002818,0.008873481630431196,-0.9999311597397285,0.0,0.6615462700323452,0.26066136749563784,0.3038575012245156,1.0,-0.0033800000000000024,-0.004442285714285718,-0.0016900000000000012,0.17000000000000012
0.4648771025057239,0.5455375880242237,-0.12398825692063566,-1.3580088999288642,0.07935366111009144,1.8950686640768848,0.15908524539944627,-0.0025952995200702656,-0.022722427067042566,-0.00190626970363014,-0.035571494005854895,0.00019291440678281867,0.015732672320176784,0.0002693954824467677,0.573988235867433,0.8188468912452683,0.002832081383047068,0.0,0.8188155801461913,-0.5739268975027007,-0.011388983009441276,0.0,-0.007700573909989017,0.008856265137141939,-0.9999311314932031,0.0,0.6614896066554816,0.2605738778355282,0.3038514860767538,1.0,-0.003720000000000003,-0.004889142857142862,-0.0018600000000000014,0.18700000000000014
0.46483095400925,0.5451932783411723,-0.12398143635643892,-1.3585704953072484,0.07929507067856095,1.8952575757719161,0.1590320987459856,-0.001204888189968853,-0.022330480412671286,0.0014791480196466415,-0.03570574212172686,-0.0017392303540919984,0.012713648672952107,-0.0020953471177046546,0.5739934866594787,0.8188433352553384,0.0027957971343748837,0.0,0.8188116995985557,-0.5739324231504379,-0.01138951967377498,0.0,-0.0077217823208993175,0.008826911457655434,-0.9999312274911247,0.0,0.6614211618316463,0.26048849548008596,0.30384398240685495,1.0,-0.004060000000000003,-0.005336000000000005,-0.0020300000000000014,0.20400000000000015
0.4647708984147999,0.5448188175249258,-0.12397823212334974,-1.3591979670157956,0.07927485717279252,1.8954715400401243,0.15891330521981528,-0.003865883229938631,-0.02296871824771078,0.00132598182660073,-0.03969542456080301,-0.00020450013648570786,0.01874159530253739,-0.008163411155666538,0.5739727687317681,0.8188579347069096,0.002773161216181392,0.0,0.8188258159677896,-0.5739115601435529,-0.011425897753976058,0.0,-0.00776478725310098,0.00882906015151301,-0.999930875498779,0.0,0.6613456235899026,0.2603923181405931,0.30382880321994016,1.0,-0.004400000000000004,-0.005782857142857149,-0.002200000000000002,0.22100000000000017
0.46471449358849637,0.5444371658208352,-0.1239868864616095,-1.3598719624113296,0.07925037999463043,1.8956809546024802,0.15890950330960862,-0.0015868388086534284,-0.023630671069410088,0.0006972148280746604,-0.043358408483446485,-0.00024977415921028035,0.014504671139842721,-0.0017879480818774182,0.5740528709918994,0.8188019988655431,0.0027082948431053685,0.0,0.8187688963263592,-0.5739916934835314,-0.011479421659285484,0.0,-0.007844985697281426,0.008807432110815694,-0.999930440250232,0.0,0.6612606171342409,0.26028526305402466,0.30379652047475625,1.0,-0.004720000000000004,-0.006203428571428578,-0.002360000000000002,0.23700000000000018
0.46465455972792374,0.5439920814933089,-0.12398567033604722,-1.3606140599743621,0.07921903297950746,1.8959221507052133,0.15887941622459475,-0.00461312402384502,-0.026877232384322845,0.0007912363450863674,-0.04291074905851895,-0.0030591286586452654,0.014506387093722288,-0.0024292294020057366,0.5741093646078856,0.818762521590497,0.002667884838091548,0.0,0.8187287339624443,-0.5740481300187374,-0.011521784039481684,0.0,-0.00790226279402162,0.008799207501915693,-0.9999300616493497,0.0,0.6611669131471251,0.26017538892,0.30377910271161584,1.0,-0.005060000000000004,-0.0066502857142857206,-0.002530000000000002,0.25400000000000017
0.46458627779942013,0.543517908247441,-0.1239903462081388,-1.3613794292159451,0.07917725526347798,1.8962055563845392,0.15882145308254983,-0.0059754720918265124,-0.026404196510452026,0.00011876911935359938,-0.04660357791246002,-0.004647478760931344,0.0227179807111888,-0.005328889318207418,0.5741518528672269,0.8187327488263175,0.0026613435780315905,0.0,0.8186988449044705,-0.5740905993466533,-0.011529613831100096,0.0,-0.007911972425049707,0.008798757460544801,-0.9999299888289659,0.0,0.6610857405699028,0.26006355202952824,0.30377514859273463,1.0,-0.005380000000000004,-0.007070857142857149,-0.002690000000000002,0.2700000000000002
0.46451861009827783,0.5430402959210747,-0.12398821219295535,-1.3621573919410337,0.07912754817092665,1.8964812359704992,0.15876947375104108,-0.0050442007656541455,-0.025704312572980417,0.0022898025882140374,-0.04784755771754019,-0.00034136543328071875,0.007783560034329859,-0.008271323904533338,0.5741940617572869,0.818703222251862,0.002638222563696376,0.0,0.8186690264738239,-0.5741328878974596,-0.011541188332780557,0.0,-0.007934270496545492,0.008786882078856431,-0.9999299165716664,0.0,0.6609894545619784,0.2599364814820716,0.3037663597642282,1.0,-0.005720000000000004,-0.007517714285714292,-0.002860000000000002,0.2870000000000002
0.4644482034486613,0.5425090182453106,-0.12399425869906486,-1.3630420448112448,0.07906990395248081,1.8967747124313286,0.1587094416404489,-0.0011643790696935778,-0.03272113142255361,-0.0011566894040158531,-0.04931946062137419,-0.0030806881177535103,0.017340216279949985,-0.0017713024196563767,0.5742333668026746,0.8186758023539847,0.0025919088974295243,0.0,0.8186410348019434,-0.5741723741176626,-0.011562345769710151,0.0,-0.00797776381165266,0.00876149640733731,-0.9999297932681424,0.0,0.6608753708793662,0.2597959505040244,0.3037536870698404,1.0,-0.006080000000000005,-0.00799085714285715,-0.0030400000000000023,0.3050000000000002
0.4643729096100767,0.5419425633843479,-0.12399419696774729,-1.3639502403929493,0.07902720825083495,1.8971058132307514,0.15864870925261387,-0.0032567595642556263,-0.029877814187909312,0.0005673060120828326,-0.056745999070761104,-0.006746649464364665,0.01826905557483181,-0.0025837283421369663,0.574291479323796,0.8186350785712505,0.0025791102994414377,0.0,0.8186000190446555,-0.5742303844745124,-0.01158539026325499,0.0,-0.008003357459019866,0.008764819403003027,-0.9999295596241848,0.0,0.6607747883102735,0.25966446760777245,0.303743642624162,1.0,-0.006400000000000005,-0.008411428571428578,-0.0032000000000000023,0.32100000000000023
0.46428102005686384,0.5413306847596794,-0.12399447035380208,-1.36489228773184,0.07895968950830796,1.8974473126609013,0.15857039661357747,-0.00034049732259303675,-0.040017665510379975,0.000733355141118157,-0.0532771109766595,4.248143952417338e-05,0.010584159940813617,-0.0028056170584454697,0.574337005404105,0.8186031285975415,0.002582435859814187,0.0,0.8185681919250647,-0.5742759809735072,-0.011574098092481385,0.0,-0.007991715887799622,0.008761501377271289,-0.9999296818130685,0.0,0.6606694886219304,0.25951205577935893,0.30375743491509827,1.0,-0.006740000000000005,-0.008858285714285721,-0.0033700000000000023,0.33800000000000024
0.4641957346985636,0.5406754940750378,-0.12400618031464965,-1.3658884441818342,0.0789046457448471,1.897809441119681,0.1585073375830783,-0.005636618123632276,-0.03934509162464457,-0.001772498098836531,-0.0600338910845979,-3.7850151773788495e-05,0.0253753750649742,-0.002935189286747133,0.5744038781615398,0.818556150656096,0.0025999763971837073,0.0,0.8185214441920324,-0.5743427893298959,-0.011565147805042215,0.0,-0.007973598689397066,0.008771371062289257,-0.9999297399185746,0.0,0.6605570056376066,0.25935494865571995,0.30377819432490305,1.0,-0.0070800000000000056,-0.009305142857142866,-0.0035400000000000028,0.35500000000000026
0.4640918653604787,0.5400143247879526,-0.12401226836861129,-1.366881934045428,0.07885032397096849,1.898188012930397,0.15842097108343742,-0.011516411226341021,-0.04101071917892958,-0.0007818748344328463,-0.06513467467562642,-0.006710018003092334,0.019629784187823296,-0.008895199117660487,0.5744539914720377,0.8185208736332564,0.0026340101941731984,0.0,0.8184865559381742,-0.5743927246723789,-0.011554327895435194,0.0,-0.007944655230202657,0.008793501012588023,-0.9999297759308973,0.0,0.6604409048483038,0.2591887873805234,0.3037989789493314,1.0,-0.007420000000000006,-0.009752000000000009,-0.003710000000000003,0.3720000000000003
0.4639856428689318,0.5392595290715045,-0.12401481281333354,-1.3680791982654719,0.07876903998156845,1.8986249969701043,0.15835551321363026,-0.008842036053377014,-0.04117002895789594,-0.0003005014580548328,-0.06357176853237749,-0.008675795046915853,0.03003003373343288,-0.003900152652638362,0.5745426642684539,0.818458651945687,0.0026284770806926337,0.0,0.8184243843579599,-0.5744815396256567,-0.01154273012927268,0.0,-0.007937388600517181,0.008783169761204093,-0.9999299244402831,0.0,0.6603149139752419,0.2590031346286234,0.30380697156103303,1.0,-0.007760000000000006,-0.010198857142857152,-0.003880000000000003,0.3890000000000003
0.46390123191822924,0.5385664628129039,-0.12401837127255523,-1.369165426520784,0.0787200373062335,1.8990474648196087,0.15825223397104837,-0.0033667724431793735,-0.0459057420141009,0.0005213667238748292,-0.07057456296913914,0.0001969570285714929,0.03333471298118345,-0.008758836520176136,0.5745767811065299,0.8184345999232171,0.0026599178541208317,0.0,0.8184006364689091,-0.5745154336007355,-0.011539570314862944,0.0,-0.00791637216932356,0.008807417201707399,-0.9999298777683923,0.0,0.6601916445762691,0.25884623153820263,0.30381629999244253,1.0,-0.008080000000000006,-0.01061942857142858,-0.004040000000000003,0.4050000000000003
0.46379141498925347,0.5377907193712672,-0.12403065059058781,-1.370362945875904,0.07864553236735944,1.89951505348159,0.15817300813891352,-0.006758217120575309,-0.04483779839662435,0.000206625607588388,-0.07391826735299573,-0.007384903175164527,0.016817242443282747,-0.008071624282733296,0.5746567168269516,0.8183783688010458,0.002692616834350246,0.0,0.8183449320521694,-0.5745953674737045,-0.011510115703023023,0.0,-0.007872616126607945,0.008818024414841683,-0.9999301297394445,0.0,0.6600635657140972,0.2586543199561562,0.303835093452099,1.0,-0.008420000000000007,-0.011066285714285726,-0.004210000000000004,0.4220000000000003
0.4636920261338237,0.5369948653098365,-0.12403467428713115,-1.3716247938899495,0.07856931961900147,1.8999872559870907,0.15807758651016388,-0.0037802690080767786,-0.04301843466784292,8.187171349902212e-05,-0.07771790819282474,-0.0031095584038880473,0.025308725364180332,-0.008192218171336247,0.5747119784400022,0.8183395537473517,0.0026950902344838393,0.0,0.8183061663052312,-0.5746506335288648,-0.011507148774470769,0.0,-0.007868171169018168,0.00881887498667798,-0.9999301572242055,0.0,0.659917287192586,0.2584667627188773,0.3038374594244397,1.0,-0.008760000000000007,-0.01151314285714287,-0.004380000000000004,0.43900000000000033
0.463570639541748,0.5361586334363702,-0.1240396634110814,-1.372951171068565,0.0784939291005603,1.9004696142202286,0.15798714808130276,-0.007964449635793253,-0.05012322006918413,0.00045495110778433017,-0.07538578406624262,-0.008475360130683137,0.02627379084595537,0.0014431604811394072,0.5747935707891717,0.8182822681335791,0.0026884082292622947,0.0,0.8182487601325407,-0.5747321992662808,-0.011515753093582756,0.0,-0.007878173465805771,0.008819137337033212,-0.9999300761550645,0.0,0.6597647089758636,0.2582578373311951,0.3038383835602968,1.0,-0.009100000000000007,-0.011960000000000012,-0.004550000000000004,0.45600000000000035
0.46347687613973476,0.535328944866694,-0.12404961665020488,-1.3742378024319237,0.07840896747803236,1.90093909243026,0.15788628115988756,-0.011234453424373177,-0.058233322322879554,-0.0012651674626470103,-0.08162892894568288,-0.003425614367790161,0.03609019964070869,-0.0035476275004837367,0.5748425937847114,0.8182478187762997,0.002691902654495042,0.0,0.8182144453740806,-0.5747813048883356,-0.011503035827824151,0.0,-0.00786523008509149,0.008815158308227336,-0.9999302131347514,0.0,0.6596128364571565,0.2580664830894941,0.3038524735197019,1.0,-0.009420000000000008,-0.012380571428571442,-0.004710000000000004,0.47200000000000036
0.46335617131846,0.5344486444562335,-0.12405210873519788,-1.3756526795601105,0.0783505698931226,1.9014459965882111,0.15777626770389977,-0.009392136808272474,-0.050288190013185144,-0.0008078886194511043,-0.08350255986736714,-0.0030887670595578787,0.028657189621290817,-0.0150627142780631,0.5749150335378789,0.8181969577490982,0.0026813137579529247,0.0,0.8181632009750549,-0.5748534945773045,-0.011540504482975358,0.0,-0.007901195197534627,0.008828731749343607,-0.9999298098417452,0.0,0.6594434549798113,0.25785397015071315,0.30384413560020196,1.0,-0.009760000000000008,-0.012827428571428585,-0.004880000000000004,0.4890000000000004
0.4632425245452039,0.5335302908530313,-0.12405407961088924,-1.3771250495510865,0.0782543700465681,1.9019843149523519,0.15770206464465814,-0.0035556913982259667,-0.05281054225645398,0.0005857413539905908,-0.0823744677560171,-0.009297996103217819,0.03247118159367978,-0.0029300300516872666,0.5750034954056863,0.8181348574939742,0.0026612263650116017,0.0,0.8181008917764588,-0.5749420688421856,-0.011545356262959092,0.0,-0.007915759811861767,0.008815941603535077,-0.9999298074966283,0.0,0.6592677747656702,0.2576361406956066,0.3038377406088132,1.0,-0.010100000000000007,-0.013274285714285725,-0.005050000000000003,0.5060000000000003
0.4631284974690334,0.5326514853384172,-0.12405109519341627,-1.378530355091796,0.07817999427177029,1.90251699450197,0.1575794608283083,-0.0008136619733035253,-0.05744595174104357,0.0012831942336829993,-0.09025475309083217,-0.0026362434247818004,0.03329505858659101,-0.00799957533309027,0.575057134199235,0.8180971255971738,0.0026706548660287033,0.0,0.8180631897624677,-0.5749955668806439,-0.011552598169757506,0.0,-0.00791568504868928,0.008828338407385714,-0.9999296987144519,0.0,0.6590943936290349,0.2574141288154622,0.30383504628495844,1.0,-0.010440000000000007,-0.013721142857142868,-0.005220000000000003,0.5230000000000004
0.46298441603769824,0.5316242626069837,-0.12405426192434896,-1.3801540176614053,0.07809210929624906,1.9031295055378492,0.15748054420149268,-0.00943809535215505,-0.060043141123229726,-9.846480405885481e-06,-0.09593615676656542,-0.006626665151391591,0.02762208583494281,-0.003488388916727606,0.5751556490516243,0.8180278161063927,0.0026866971208081023,0.0,0.8179940164753328,-0.5750939362550198,-0.0115542370785988,0.0,-0.007906736330626718,0.008843357157169413,-0.9999296368019044,0.0,0.6589165676288046,0.2571828152565061,0.30383904571921994,1.0,-0.010780000000000008,-0.014168000000000014,-0.005390000000000004,0.5400000000000004
0.4628674976404918,0.5306921751108413,-0.1240542648607211,-1.3816615183216052,0.0779820588487798,1.903666845181759,0.15735270904617596,-0.008987278773059403,-0.06064169496782226,-0.0007198941878549139,-0.09582444373651662,-0.011359773473842651,0.0388784326267218,-0.006871548998438467,0.5751991201753182,0.8179973936547125,0.0026425413611845,0.0,0.8179631354687324,-0.5751376751812363,-0.011563325753912921,0.0,-0.007939098085878893,0.008812885892714367,-0.9999296494073097,0.0,0.6587328607897208,0.2569577572650958,0.3038248566171577,1.0,-0.011100000000000007,-0.01458857142857144,-0.005550000000000004,0.5560000000000004
0.4627188170194098,0.5296291395384692,-0.12405707619066333,-1.3834026426602202,0.07788969489250158,1.9042983147023635,0.15724403489328057,-0.007281894496154014,-0.05742044095139973,-0.0009125918272094865,-0.09703826082321837,-0.0021670359595040755,0.03590936847357764,-0.0040459340763694075,0.5753036725712383,0.8179239801478613,0.002606516129829868,0.0,0.8178891251819632,-0.575242192275571,-0.011599398100173162,0.0,-0.00798820160632302,0.008805187050980837,-0.9999293261606512,0.0,0.6585242397539597,0.25669337786650603,0.3037998265337373,1.0,-0.011460000000000008,-0.0150617142857143,-0.005730000000000004,0.5740000000000004
0.46257924044879833,0.5286122722984067,-0.1240574523371177,-1.384979405293532,0.07778208594005563,1.9048700240983536,0.15712563179893943,-0.010166059449339366,-0.06477451974139072,0.0010582212252237362,-0.09712242057266693,-0.0049257874754258905,0.03453528342746453,-0.01117452110362139,0.5753776665507019,0.8178719219853079,0.002609015894170767,0.0,0.8178371771081577,-0.5753162541581418,-0.011589061325770093,0.0,-0.007977512201070402,0.0088020067229585,-0.9999294394989731,0.0,0.6583383289495813,0.25644884231942316,0.3038149386378265,1.0,-0.01178000000000001,-0.01548228571428573,-0.005890000000000005,0.5900000000000004
0.46244128907262394,0.5275102683382591,-0.12406594672133488,-1.386710351754819,0.07768266082128196,1.9055381833840008,0.15699180985690564,-0.0029042330961863948,-0.06437813648450028,-0.0014449623346597259,-0.10547872960912907,-0.009699026468575997,0.036857124034085365,-0.011448574051778305,0.5754541483751098,0.8178180103860336,0.0026404369552647904,0.0,0.8177836880373875,-0.5753926374931712,-0.011571482179443848,0.0,-0.007944231500459864,0.008818333474561846,-0.9999295606094453,0.0,0.6581383636317899,0.2561913288653717,0.303825028689492,1.0,-0.01212000000000001,-0.01592914285714287,-0.006060000000000005,0.6070000000000004
0.46228456075381347,0.526373310182038,-0.12406426071658953,-1.3884774858440148,0.07756948824266033,1.9062108790496015,0.15687032082073757,-0.015698917388509405,-0.06951117041094533,0.0016756640804221079,-0.10507079522347376,-0.004014609987019252,0.035162078397185055,-0.010629455490694852,0.5755467838455495,0.8177527198460524,0.002671271352053782,0.0,0.8177188531397817,-0.5754852212984487,-0.011549207247423449,0.0,-0.007907270692925183,0.00883162806985456,-0.9999297362394142,0.0,0.6579344575901008,0.25592167528394244,0.30384224722260306,1.0,-0.01246000000000001,-0.016376000000000016,-0.006230000000000005,0.6240000000000004
0.46213931513311524,0.5252773893337859,-0.12407874615090037,-1.3901892482176292,0.07746317879881275,1.9068378064518463,0.1567478228595297,-0.010501722343278033,-0.07351967577468535,-0.0020703020401073293,-0.1061575232449976,-0.007064695289202986,0.036645460918531186,-0.0036937991107278928,0.575639132740668,0.8176877049973974,0.0026744821683180346,0.0,0.8176539446914928,-0.5755776204531706,-0.01154021079162703,0.0,-0.007897068438045551,0.008829967830911972,-0.9999298315272875,0.0,0.6577331524219091,0.2556542504649346,0.3038532239622961,1.0,-0.01278000000000001,-0.016796571428571445,-0.006390000000000005,0.6400000000000005
0.4619909651316591,0.5241178959360419,-0.12408154549074664,-1.3920263654797727,0.07733975962851031,1.9074873351845336,0.15662084128293635,-0.008829534920621503,-0.07175306626255998,0.00026199620561275796,-0.10883085343049148,-0.0071124054793059634,0.035186946965561024,-0.009528838069909527,0.5757238379188144,0.8176281720019645,0.0026422910446745338,0.0,0.8175940502558426,-0.5756624832427792,-0.011550812707837834,0.0,-0.007923354604348065,0.00881056929116894,-0.9999297946958973,0.0,0.657507125868772,0.2553763735444573,0.3038505268334453,1.0,-0.01312000000000001,-0.017243428571428587,-0.006560000000000005,0.6570000000000005
0.4618154429214548,0.5228646225841224,-0.1240798277902238,-1.394055708949673,0.07721873723751663,1.9082452502223122,0.15645780593029995,-0.00991737119979573,-0.07026353950245806,0.0005713756783251958,-0.11368510274509747,-0.005392721841904957,0.035690931397596826,-0.0125480061752447,0.5758091460989995,0.8175681519630015,0.0026250839513937913,0.0,0.8175337667884802,-0.5757477930749394,-0.011565717927727225,0.0,-0.007944529297453318,0.008805910475969764,-0.9999296677241511,0.0,0.6572651687271618,0.2550694210220498,0.3038312503518274,1.0,-0.01348000000000001,-0.017716571428571443,-0.006740000000000005,0.6750000000000005
0.4616780468543924,0.5217675130130807,-0.12408333092018767,-1.3957754798860038,0.07710966735703631,1.9089177470219156,0.1563444307012659,-0.01043851331130841,-0.07299555636662407,7.63186731320804e-05,-0.10960000573422424,-0.0066580088293348265,0.04696991086718871,-0.004777026901512329,0.5758994150890908,0.8175044530367931,0.002660801808755724,0.0,0.8174706144018755,-0.5758380256108943,-0.011537319930361556,0.0,-0.007899771654169052,0.00881963289425955,-0.9999299013848033,0.0,0.657052661109112,0.2548004506917006,0.3038390607748954,1.0,-0.01380000000000001,-0.018137142857142872,-0.006900000000000005,0.6910000000000005
0.4615423935186887,0.5207633636617898,-0.12408807703858918,-1.3974355485915662,0.07701018589013592,1.9095539194733147,0.15622510256016045,-0.011999709391324338,-0.07030976563038205,0.0015343303486850528,-0.11610315683267092,-0.014202080469292834,0.036839394841061884,-0.006484911901682832,0.5759854280721368,0.8174439282274325,0.00263775546056688,0.0,0.8174097979147235,-0.5759241114926695,-0.01154932792843558,0.0,-0.007921933542014259,0.008808541340492457,-0.9999298238218565,0.0,0.6568265822554978,0.254510027445529,0.30381197397467985,1.0,-0.014120000000000011,-0.018557714285714302,-0.0070600000000000055,0.7070000000000005
0.4613382434893275,0.5192221002460473,-0.12409686571465257,-1.399847869082337,0.07685256652591506,1.9104226960055566,0.15604444812337315,-0.011646144595262623,-0.07302296894993454,-0.00148948954470475,-0.12454957287907119,-0.0070977925960529495,0.042214289187601645,-0.001155595769450024,0.5760837669723047,0.8173746593363045,0.0026280424402008173,0.0,0.8173404919750857,-0.5760225688974185,-0.0115441413691654,0.0,-0.007922229388840907,0.008798567347101133,-0.9999299092907207,0.0,0.6565752458445225,0.2541948954471847,0.30382207951475537,1.0,-0.014460000000000011,-0.019004571428571447,-0.0072300000000000055,0.7240000000000005
0.4611583833506801,0.5178724125580179,-0.12409813485199148,-1.4019168497794787,0.07672100890475807,1.9111766023012313,0.15587879792006895,-0.01125969410227619,-0.07992769926650257,2.3776297964086087e-06,-0.1224194057901133,-0.00527568029107988,0.04526233868623952,-0.017265544658174363,0.5761703386612427,0.8173135545612293,0.002653540782672971,0.0,0.8172797369648532,-0.5761090675632778,-0.01152912482538032,0.0,-0.007894333076339466,0.008811594518495391,-0.9999300152047247,0.0,0.6563252215796275,0.2538781526961746,0.3038498781290024,1.0,-0.014800000000000011,-0.019451428571428588,-0.0074000000000000055,0.7410000000000005
0.46098138485390866,0.5165275390675387,-0.12410212902394922,-1.4040499881668902,0.07658025280403404,1.9119532298712008,0.1557275107438077,-0.006075148444821293,-0.07701647255251808,-5.9702440760484526e-05,-0.12306583424079653,-0.012607955695093634,0.04954034603309513,-0.016863237271698753,0.5762688874042448,0.8172441343097137,0.0026346247263625217,0.0,0.8172101400633078,-0.5762077421857925,-0.011531336612392317,0.0,-0.007905978256724622,0.008798361957284104,-0.9999300397201161,0.0,0.656064059490674,0.25355415090820305,0.3038454393393645,1.0,-0.015140000000000011,-0.019898285714285733,-0.0075700000000000055,0.7580000000000006
0.46079143047904086,0.5151513408526774,-0.12411007585839254,-1.4062141254505884,0.07645033345753183,1.9127722123885813,0.1555610371056438,-0.012250255595741178,-0.07738202862357796,0.0015027214775839084,-0.12717522937246897,-0.008412075444232432,0.052692698700897087,-0.008409219128530088,0.5763729096887127,0.8171707010427012,0.0026572985446852914,0.0,0.8171370200842356,-0.5763116992754251,-0.011517924610613614,0.0,-0.00788083001924128,0.008810166358676208,-0.9999301343028622,0.0,0.6558076309084581,0.2532207032148046,0.30385161756502543,1.0,-0.015480000000000011,-0.020345142857142874,-0.0077400000000000056,0.7750000000000006
0.46061749123729495,0.513833786445905,-0.12411680713281086,-1.4083160495985214,0.07631705366194258,1.913538495043261,0.15539809449460124,-0.011461370922358197,-0.08580848216842454,0.0006546760938904321,-0.1373975366086467,-0.012637345103843784,0.046187519588211684,-0.002906297694911672,0.5764611467330468,0.8171085289165593,0.0026353709881693967,0.0,0.8170745953851576,-0.57640003189934,-0.011526304864483384,0.0,-0.0078993661772917,0.008797930991057648,-0.999930095768836,0.0,0.6555489539568001,0.2529010684134786,0.3038412754364095,1.0,-0.015800000000000012,-0.020765714285714304,-0.007900000000000006,0.7910000000000006
0.4604417933994726,0.512518345693409,-0.1241173916392934,-1.4104688111569232,0.07620520197524322,1.9142740150089355,0.1552371833688436,-0.010989969319284807,-0.07849665388542916,0.0004963814876838693,-0.12866139465941623,-0.00579974259471112,0.04698484379388277,-0.01022528864672302,0.5765562224952243,0.817041690838982,0.002558248272262787,0.0,0.8170064865478173,-0.5764950537191021,-0.011601761823477729,0.0,-0.0080044597324746,0.008779342433419199,-0.9999294233948854,0.0,0.6552691018283833,0.2525792581418467,0.3038020722290662,1.0,-0.016120000000000013,-0.021186285714285734,-0.008060000000000006,0.8070000000000006
0.46024115383543723,0.5110799413548619,-0.12412166114159831,-1.4127775035132968,0.07605725366965468,1.9151305544581516,0.15504971584512486,-0.0073980738873483005,-0.08877418682567943,-0.00034698738591429476,-0.13548660551910993,-0.004961889046211841,0.051569736689870416,-0.01199157662364714,0.5766507549009311,0.8169750359434319,0.0025385859494099373,0.0,0.8169396256281193,-0.5765896951209261,-0.01160682816939984,0.0,-0.008018920751349523,0.008767126475377737,-0.9999294147105325,0.0,0.6549877815047054,0.2522244827788354,0.303784906329447,1.0,-0.016460000000000013,-0.02163314285714288,-0.008230000000000006,0.8240000000000006
0.4600475471000074,0.5096200648711036,-0.12412147770120076,-1.4151105780045368,0.07591552516695615,1.9160245859803677,0.15487743754605163,-0.007218218263102976,-0.08928632598800584,0.0005159355999242221,-0.14388763100872595,-0.00906610190378363,0.050232770037240845,-0.00973165110570353,0.5767515790224901,0.8169038181874123,0.0025524159339078596,0.0,0.8168685894014948,-0.5766904617557226,-0.011600253031363835,0.0,-0.008004491181002715,0.008775621614306617,-0.9999294558048661,0.0,0.6547046619941459,0.25187787108995147,0.3037738194718532,1.0,-0.016800000000000013,-0.02208000000000002,-0.008400000000000006,0.8410000000000006
0.4598433643234462,0.5081159411119972,-0.12412959903621755,-1.4174849056092789,0.07575915556269554,1.9168717420445147,0.15469122566574922,-0.011792611832568153,-0.08410907222830177,-0.0011424832162625909,-0.1382876825248294,-0.015052834338804302,0.05065979952336215,-0.013757923782139131,0.5768527813795654,0.8168324471120695,0.002523660194217881,0.0,0.8167969029639572,-0.5767918127755104,-0.011609088027778984,0.0,-0.008027207792842495,0.008758221171772565,-0.9999294262581518,0.0,0.6544078458633005,0.251509805995833,0.303769699585174,1.0,-0.017140000000000013,-0.022526857142857164,-0.008570000000000006,0.8580000000000007
0.45964532706056505,0.5066981841296352,-0.12412986568551586,-1.4197240357707832,0.07562102615212421,1.9176830504274818,0.15451821375376576,-0.012325566875128008,-0.08192612187456005,0.00017841082768237286,-0.14114740852619792,-0.009318007932669901,0.04756914168334508,-0.011135418844318463,0.576951870348342,0.816762494238575,0.0025128087750178277,0.0,0.8167267676152317,-0.5768908812365229,-0.01162089102141335,0.0,-0.008042046301637296,0.008757141600486532,-0.9999293164830559,0.0,0.6541286988402258,0.2511658124104239,0.30376570266046077,1.0,-0.017460000000000014,-0.022947428571428594,-0.008730000000000007,0.8740000000000007
0.45942271684889024,0.5050952226822094,-0.12413374516555543,-1.422172373276629,0.07546417146335578,1.9186236344135736,0.15432019471093383,-0.011920834104203065,-0.09146827845404784,0.0012413570122949949,-0.14185701107670012,-0.009267141865630723,0.05723048160480672,-0.012522117192546959,0.5770586666468638,0.8166868135772929,0.0025866344774330184,0.0,0.8166521391152464,-0.5769975171152562,-0.011571336246530672,0.0,-0.007957829269720107,0.008789889677464746,-0.9999297029255467,0.0,0.6538371989051002,0.2507870065125623,0.30380233683128866,1.0,-0.017800000000000014,-0.023394285714285736,-0.008900000000000007,0.8910000000000007
0.4591996589979746,0.5034488278985232,-0.12414193310604378,-1.424646367847208,0.07530872484246104,1.9195760786224108,0.15411774975991654,-0.012324670675014512,-0.09432301154877448,-0.0009371789289622563,-0.14146209114654695,-0.012604297045137923,0.048455433039765565,-0.014398533628276942,0.5771665223788378,0.8166102693692556,0.0026870628944194973,0.0,0.8165769881445653,-0.5771051323882528,-0.011508062612616714,0.0,-0.0078470354023355,0.008836432331426655,-0.999930168311291,0.0,0.6535430056546907,0.2504040197915173,0.30385763020787854,1.0,-0.018140000000000014,-0.02384114285714288,-0.009070000000000007,0.9080000000000007
0.45896828463706346,0.5017768510622972,-0.12415070412756074,-1.4271438165507235,0.07514702116991626,1.9205002221259335,0.15393547080620243,-0.01100403112383491,-0.09483399971620061,-0.0014857794353339763,-0.1454032669418113,-0.014567047322934717,0.057141510841730386,-0.009218378500632042,0.5772967726316587,0.8165179377639288,0.0027641490589509106,0.0,0.8164857406417925,-0.5772352203603764,-0.01145786216270326,0.0,-0.007760135199770868,0.008871645946104664,-0.9999305346872294,0.0,0.6532396474654462,0.25001004292353474,0.3039165167266111,1.0,-0.018480000000000014,-0.02428800000000002,-0.009240000000000007,0.9250000000000007
0.458740173679351,0.5000577995145321,-0.12414947875263861,-1.4297356890979138,0.07497608704321311,1.9214172654942505,0.15373950591816804,-0.013459060282979635,-0.09801385193976593,9.016740336773043e-05,-0.15449293740658487,-0.007912748005946905,0.05643337444957296,-0.01342377665640104,0.5774075885852958,0.8164394657585253,0.0027968370092065747,0.0,0.8164077021556111,-0.5773459335492729,-0.011440444760679121,0.0,-0.007725836880683901,0.008889330044746721,-0.9999306432227428,0.0,0.6529096676258798,0.24961168466875305,0.30396172266225613,1.0,-0.018820000000000014,-0.024734857142857166,-0.009410000000000007,0.9420000000000007
0.45851010276059934,0.4984854704569219,-0.12414693515666898,-1.4321925563857316,0.07482456279342294,1.922334327885106,0.15353654527098745,-0.014501941055925957,-0.09276036093400392,0.00036867548568704023,-0.1526092666449746,-0.011869948643492707,0.05795464388542346,-0.008603167876416337,0.5775118573957044,0.8163656258631188,0.0028224772258029765,0.0,0.8163341662458875,-0.5774500789094458,-0.011431635417327144,0.0,-0.0077027028062433,0.008906161067003898,-0.999930671929073,0.0,0.6526064569123579,0.24923004631827997,0.30396830832674343,1.0,-0.019140000000000015,-0.025155428571428596,-0.009570000000000007,0.9580000000000007
0.4582513682256433,0.49681669904006354,-0.12415043116890077,-1.4348521641453393,0.07466005996280435,1.9233023166470447,0.15332631467775779,-0.017481830001337212,-0.09007444262730023,0.0009576384882928396,-0.15941877878071614,-0.01564755251261541,0.05527886529106565,-0.017836960506682237,0.5776441301706272,0.8162721175371401,0.0027992699156995024,0.0,0.81624032102105,-0.5775823637586199,-0.011449817276546382,0.0,-0.007729506475983583,0.008898968048649383,-0.999930529135553,0.0,0.6522750560313744,0.2488049252624424,0.30394969009558254,1.0,-0.019480000000000015,-0.025602285714285737,-0.009740000000000007,0.9750000000000008
0.4579603454115698,0.49503440810032234,-0.1241504311863425,-1.437726940432237,0.07448625334758249,1.9242959172209693,0.15309875174495727,-0.02022740334570427,-0.09547459000217351,-0.00035439234272853515,-0.16013983739882726,-0.010948880866261296,0.05695247663258104,-0.009758266697768508,0.5777936711260179,0.8161665541372265,0.002715955760494892,0.0,0.8161335160549179,-0.577731961476539,-0.011515709336217924,0.0,-0.007829793106372884,0.008870457281046143,-0.9999300022139233,0.0,0.6519060917136636,0.2483372583466335,0.3039092325045902,1.0,-0.019840000000000017,-0.0260754285714286,-0.009920000000000009,0.9930000000000008
0.4577137572913984,0.4935479985346083,-0.12416978691817188,-1.4401789291104246,0.07433001508559692,1.9251603018524608,0.15290952885759287,-0.016993572258137572,-0.10302668989742197,-0.0032387615103657494,-0.16175704986580122,-0.018462018849091454,0.061081907515502284,-0.010685317663607998,0.5779351559314313,0.8160666868587853,0.002620121952431175,0.0,0.8160324304034993,-0.5778737670736526,-0.011564115144356367,0.0,-0.007923141934498945,0.008821583016767942,-0.9999296992763861,0.0,0.6515970982175097,0.24792764207474727,0.3038527819290108,1.0,-0.02703599999999991,-0.03553302857142846,-0.04165725391199954,1.0079999999999998
0.45743863593443673,0.4907656743561175,-0.12434387549361572,-1.4442001273023986,0.07414061254429494,1.9266729070592294,0.15300037496855198,-0.015690725187941824,-0.1882844430020794,-0.012265027807706767,-0.2972242978775915,-0.021319009827918425,0.11835513037339887,0.01922218700867179,0.5785579800812317,0.8156245089927961,0.0028409357250256005,0.0,0.8155933749661322,-0.5784961143998865,-0.01142099981595501,0.0,-0.007671924797234053,0.008924930772636425,-0.9999307411919133,0.0,0.6510710646466179,0.2472370175050403,0.30400372651387236,1.0,-0.04417199999999802,-0.05805462857142599,-0.11856344198399109,1.024999999999998
0.4570087312997808,0.4863901402994054,-0.12452903578500485,-1.4511757752784153,0.07389487141442436,1.929416575733503,0.15425270702600133,-0.02697528563204256,-0.27861642444497436,-0.009945647560508988,-0.43722669218055515,-0.015791998795853354,0.1754930742702468,0.10716911656404811,0.5802982046771477,0.8143867634378923,0.0029899977995981727,0.0,0.8143571077336602,-0.58023514346078,-0.01142043247534762,0.0,-0.007565892905345706,0.009062356900744292,-0.9999303130478384,0.0,0.6502353918083706,0.24626589551947006,0.303975604705963,1.0,-0.06130799999999613,-0.0805762285714235,-0.1954696300559826,1.041999999999996
0.4563753932064123,0.4810958035495168,-0.1248070769669993,-1.4596029124513377,0.07349376711698022,1.9325328464105278,0.15641015724214227,-0.04150054194525894,-0.35249673491679584,-0.02024461777549628,-0.5739008035768586,-0.030093348723959842,0.21150210045037868,0.15876581646902094,0.5830763951152371,0.8124001609405778,0.0029398748870845277,0.0,0.8123700972777623,-0.5830134093317942,-0.01144274833442291,0.0,-0.007582250089369691,0.009060437338546723,-0.9999302065438449,0.0,0.6491710267762514,0.2449082258623722,0.30391701387433906,1.0,-0.07743599999999436,-0.10177302857142118,-0.26785192471197466,1.0579999999999943
0.4554607413222607,0.4740200166514738,-0.12516655786742842,-1.4709018456269158,0.07292139700962828,1.936526000584009,0.15956407208561155,-0.05899347544308269,-0.44525475702208284,-0.0235718847717055,-0.7035429242660338,-0.02819445073951385,0.2520348751174611,0.20248040109664414,0.5870288276042843,0.8095496799977573,0.0026866481490038447,0.0,0.809516601232984,-0.586966418376389,-0.011577690952878247,0.0,-0.007795893859671943,0.008971497353848112,-0.9999293656424733,0.0,0.6477019231062395,0.24303671781277386,0.30379593820904083,1.0,-0.09457199999999247,-0.1242946285714187,-0.34475811278396623,1.0749999999999924
0.45431649852335315,0.46548024745759237,-0.1255018560106113,-1.484098603335863,0.07224882208045513,1.9413572314412944,0.16381242660671722,-0.06684205172118232,-0.5261216100184088,-0.023950284938992303,-0.8139090776425499,-0.044984604278786006,0.31355306845989084,0.2578610465628009,0.5920737345380717,0.8058670447893209,0.0027831446020623856,0.0,0.8058354507569657,-0.5920106366308414,-0.011548996513640377,0.0,-0.007659451951212037,0.009080788914249072,-0.9999294335444386,0.0,0.645998776539113,0.24086763930900357,0.3038407476791072,1.0,-0.11170799999999058,-0.1468162285714162,-0.42166430085595774,1.0919999999999905
0.452970537237827,0.4563149531350757,-0.12580787648635403,-1.4984924740387653,0.07143184567672747,1.9465112365195179,0.16859049595511252,-0.09251665681127999,-0.5961239081305327,-0.022977547476125345,-0.9660217760596194,-0.05263962994128261,0.32778013537636647,0.3205590343705068,0.5976650294502751,0.8017295849521996,0.0026328854483102836,0.0,0.8016964807257893,-0.5976021746950438,-0.01162499431598794,0.0,-0.007746832948935689,0.0090588019782981,-0.9999289598196359,0.0,0.6440942068024481,0.23845514229858059,0.3037559248360295,1.0,-0.12783599999998882,-0.1680130285714139,-0.4940465955119498,1.1079999999999888
0.45109408554344954,0.44439235117255366,-0.1262253785709362,-1.5166107431933857,0.070310986778362,1.9530660153804587,0.17508221139196464,-0.10458636880487275,-0.6731361944563553,-0.028904708704191102,-1.0417687021253648,-0.06943678023862486,0.3778298258809062,0.3767213052050828,0.6051641848879801,0.796083716813226,0.002787840546787603,0.0,0.7960540257375828,-0.6051015572719909,-0.011438548649529525,0.0,-0.007419258511296323,0.009141647665224364,-0.9999306900386182,0.0,0.641723783466397,0.2352839469209223,0.3038898511130309,1.0,-0.14597999999998681,-0.19185942857141128,-0.5754766769999409,1.1259999999999868
0.44916676059017674,0.4326910421898089,-0.12654719493020702,-1.5345750496336419,0.06922395298974887,1.9594128271691504,0.18172227395334448,-0.13012277854556376,-0.7541821218047327,-0.023407103312917087,-1.141408603898989,-0.07125079826781085,0.4237433223093212,0.4278320158927321,0.6126811575519816,0.790313229163607,0.002746978515367671,0.0,0.7902835457426248,-0.6126182878797952,-0.011467239637371082,0.0,-0.007380004000422602,0.009196830643642975,-0.9999304745066359,0.0,0.6392767962065667,0.23215296868967297,0.303891593674939,1.0,-0.16210799999998504,-0.21305622857140893,-0.647858971655933,1.141999999999985
0.4467610629093655,0.41901522392464746,-0.12690375151295083,-1.5553370534088755,0.0679070049933867,1.96663783587885,0.1897939535834571,-0.1433217545533878,-0.8009721939490504,-0.024223619708073837,-1.258898103126824,-0.07888965025664185,0.4302072697827579,0.49026976024179336,0.621695076448861,0.7832423486425523,0.0027206825157724485,0.0,0.7832130865526515,-0.6216319898281483,-0.01147506758907526,0.0,-0.0072966360861844715,0.009265045553591297,-0.9999304565982154,0.0,0.6364001010681475,0.22842852870337743,0.3039445059295241,1.0,-0.17924399999998317,-0.23557782857140647,-0.7247651597279244,1.1589999999999832
0.44400258775485946,0.4041417618406931,-0.12726459467580856,-1.5776017637481654,0.06632702774649793,1.9746485022467766,0.19877030665929232,-0.1729939925950211,-0.8764989421428779,-0.016582235332819217,-1.3560412389023422,-0.09129773044001079,0.47269611968528036,0.5525472490229837,0.6315604661608818,0.7753083102434132,0.0030246572303596264,0.0,0.7752849441410421,-0.6314979246637661,-0.011152283837214842,0.0,-0.006736523272342754,0.00938849354846888,-0.999933235492796,0.0,0.6333318643587892,0.22434514079983894,0.3041111868671263,1.0,-0.19637999999998126,-0.25809942857140394,-0.801671347799916,1.1759999999999813
0.440817446258051,0.38812013490166053,-0.12765394740155203,-1.6013836090147526,0.06478385396079867,1.9829894956930265,0.2086551554722196,-0.19930441783262087,-0.952298933808603,-0.026806209009932126,-1.4389649375340747,-0.09144040375248302,0.49639760753214845,0.6079966432381828,0.6417423408398376,0.766900380863476,0.003364625695270481,0.0,0.7668818980009883,-0.6416784915574045,-0.011027914228176797,0.0,-0.00629842494511984,0.009657535968117109,-0.9999335287119016,0.0,0.6301721430204831,0.2201451420634691,0.30429170715235254,1.0,-0.2125079999999795,-0.27929622857140163,-0.8740536424559081,1.1919999999999795
0.437454359719744,0.3721400237298977,-0.12799844013652317,-1.6251852401742004,0.06303513820096707,1.9910571353574407,0.21881632702727222,-0.21086826246771814,-1.0378376630592336,-0.02216860802747595,-1.4938336327319064,-0.10807685060736942,0.5033486496388366,0.6506565102856687,0.6533326309463787,0.7570507963855999,0.0033633218430251656,0.0,0.7570338003519674,-0.6532693521649899,-0.010941917007537773,0.0,-0.006086549087957194,0.009695046402449836,-0.9999344778511512,0.0,0.6264687543397797,0.21527542710867792,0.3043610955939833,1.0,-0.22964399999997806,-0.30181782857139977,-0.9509598305279017,1.208999999999978
0.4334536166629849,0.3542112071903866,-0.12835350453674643,-1.6518286091302503,0.06104675807413224,2.000015730476817,0.23058594288049056,-0.23973258864671917,-1.0623920707137893,-0.018971095108008436,-1.6070083800805686,-0.11140005574227202,0.5209631414673633,0.7083967372443809,0.6657981646491519,0.7461115836044372,0.0033250056102687793,0.0,0.7460954882317651,-0.6657352076299661,-0.010904249781553705,0.0,-0.00592232779537244,0.009740988719819377,-0.999935017474758,0.0,0.6224662280436344,0.2100385495904847,0.3043729559513877,1.0,-0.24677999999997616,-0.3243394285713973,-1.0278660185998931,1.2259999999999762
0.42916660436002285,0.33636037345978886,-0.12875044971283522,-1.6780181843381392,0.05901212592776504,2.008708143891874,0.24247058451288944,-0.27252759063721643,-1.1132119108416973,-0.023598565343617105,-1.6858527169649333,-0.1314056850277658,0.5512289272901431,0.7691964022877058,0.6791361880322204,0.7339916233040295,0.0033289526563596355,0.0,0.7339771775503199,-0.6790737425858336,-0.010821361603026668,0.0,-0.005682293831884677,0.009792742083942041,-0.9999359048155464,0.0,0.6182067399106538,0.20432173634047296,0.30441442039235905,1.0,-0.2639159999999743,-0.34686102857139484,-1.1047722066718846,1.2429999999999743
0.42389059504035687,0.31531051923682507,-0.12913899566704679,-1.7087881080184955,0.05658553476178614,2.018779318950394,0.2567232915861032,-0.30861173996995706,-1.1955440898488654,-0.022037005296881268,-1.724687553192062,-0.14678434522997677,0.5582737956606346,0.8193482813351493,0.6930454805530547,0.72087258258288,0.003380601497159052,0.0,0.7208602103068699,-0.6929831527258615,-0.010754261279555666,0.0,-0.005409856375252542,0.00989032370206784,-0.999936455456579,0.0,0.6136269450124965,0.19831045946511897,0.3044547160327463,1.0,-0.2810519999999724,-0.3693826285713923,-1.181678394743876,1.2599999999999725
0.41874064202732014,0.29584378143977796,-0.12940002680863655,-1.7370997441566471,0.05419516419277848,2.027757601739527,0.27034170035317495,-0.34479992181738567,-1.2436758679638489,-0.021440861731541933,-1.814982674110721,-0.15498046443167784,0.5533693968569423,0.8746869853966044,0.7067315464849387,0.7074610324570394,0.0031867944764829743,0.0,0.707447851171732,-0.7066698665278384,-0.010769610728088325,0.0,-0.005367171632191636,0.009865904498650435,-0.9999369267094271,0.0,0.609000968173264,0.1923623850050342,0.3043981852093314,1.0,-0.2971799999999708,-0.3905794285713903,-1.2540606893998691,1.275999999999971
0.4126581764067021,0.2742271970137343,-0.12970303260177102,-1.7679804256926215,0.05156427119849418,2.037391599315863,0.2855952121008922,-0.36667455570098845,-1.2707327072617367,-0.016784325737495408,-1.812073708985743,-0.14565756360068519,0.5625671863713408,0.9000312445263552,0.7218986239551691,0.6919775314400833,0.003196813246015993,0.0,0.6919659117004796,-0.7218368574593199,-0.010745936859374194,0.0,-0.005128467972472794,0.009969754772880549,-0.9999371494279148,0.0,0.6038532641658735,0.18565300748151115,0.30444946711200727,1.0,-0.31431599999996895,-0.4131010285713878,-1.3309668774718608,1.292999999999969
0.405933678821838,0.2516774831627984,-0.13004748117357848,-1.7997248294156125,0.04871579363018819,2.0471873155068385,0.30159610583726065,-0.4095969957908166,-1.3417026832249506,-0.01868508195240766,-1.8750418585141724,-0.17092282664516692,0.578434485824779,0.9494379101342857,0.737576224305681,0.6752411851817673,0.0033766957970988876,0.0,0.6752335357773381,-0.7375149013095484,-0.010591950208041481,0.0,-0.004661847299321065,0.010092623199072115,-0.9999382011588114,0.0,0.5984555923696001,0.17852609983455103,0.30456604603910936,1.0,-0.33145199999996705,-0.43562262857138534,-1.4078730655438523,1.3099999999999672
0.39845887009916714,0.22834500499891863,-0.13043141199147354,-1.8322826966947687,0.0456183954154243,2.0570453152922297,0.31857765773058916,-0.4481023426077952,-1.3835387299313866,-0.009812249920164301,-1.9348823219017348,-0.19406695105789118,0.5880966615437351,1.0142101649353679,0.7538971234923699,0.6569683197875957,0.003535659288140013,0.0,0.6569647410975064,-0.7538372063838894,-0.010370252032999834,0.0,-0.00414769538938603,0.010141101914048392,-0.9999399755359947,0.0,0.592795585690877,0.17093428589118975,0.3046506645508421,1.0,-0.34858799999996515,-0.45814422857138287,-1.4847792536158437,1.3269999999999653
0.390420712105446,0.2043154449525734,-0.13070108989614768,-1.8656339205125907,0.04246044038733427,2.0666015554968302,0.3361573509482226,-0.4940429121331821,-1.41896476418374,-0.008916047790995241,-1.9900505477359995,-0.20321011692496235,0.5615553996338049,1.033997363647019,0.7703542431965,0.6375921117213358,0.003374308978675015,0.0,0.6375881281282181,-0.7702941745824065,-0.010440803396869338,0.0,-0.004057841462385303,0.01019473282479659,-0.9999397988605601,0.0,0.5867159879093012,0.16311156562068516,0.3046095971765824,1.0,-0.36572399999996325,-0.4806658285713804,-1.5616854416878354,1.3439999999999634
0.38204797257306505,0.1809361467684576,-0.13100615311111433,-1.8974664939461463,0.039258326764953125,2.075434945961084,0.353584109374658,-0.5455751314441961,-1.4561119569862446,-0.021009812303813487,-1.9716560044933948,-0.20461697196693157,0.538391606686473,1.1076197126893086,0.7863292221841389,0.6177831716519722,0.0033247652736625357,0.0,0.6177803948324261,-0.7862697601105646,-0.010392064163350779,0.0,-0.0038059532410928965,0.010225755411422816,-0.9999404725513376,0.0,0.5807860705505149,0.15530831858979788,0.3046602544244445,1.0,-0.3818519999999615,-0.501862628571378,-1.6340677363438274,1.3599999999999617
0.372213753220833,0.15530480551333248,-0.13143853035692826,-1.9318172903240352,0.03570720664865017,2.0848169744142613,0.3725984555493966,-0.5978487157303521,-1.5320386484373396,-0.021218659092505584,-2.0160788747579326,-0.2149927867006519,0.54559536677706,1.1073737049682955,0.8035494800564723,0.5952114627178281,0.0035063729814394954,0.0,0.5952127076513897,-0.8034907322908019,-0.01025781040479206,0.0,-0.0032882914505770744,0.010329894856092967,-0.9999412384793408,0.0,0.5742738785107053,0.1465167063445888,0.30476563166152115,1.0,-0.3989879999999596,-0.5243842285713756,-1.7109739244158189,1.3769999999999598
0.36169684356904114,0.12900158286463176,-0.13170850428998648,-1.9666055131648517,0.03192509864996741,2.093922347634996,0.3923448043080213,-0.6328807360733308,-1.5445674484689402,-0.012841651832282284,-2.055262119750515,-0.21480865949570563,0.5052961368944842,1.1767451878339743,0.8206967157318786,0.5713357038686463,0.003627833104561919,0.0,0.5713402952873644,-0.8206389572642175,-0.010134875551943487,0.0,-0.002813329246340368,0.010390586368030849,-0.999942058768147,0.0,0.5674160606085261,0.13754427579840856,0.3048429328232819,1.0,-0.4161239999999577,-0.5469058285713732,-1.7878801124878105,1.393999999999958
0.35008866942046096,0.10208350975165138,-0.13211268535783083,-2.0017776835594043,0.027929691506510965,2.102646921284476,0.41263234458524667,-0.7084584577276961,-1.593239548102867,-0.02608552350794595,-2.048290715065831,-0.23352159443387438,0.48133858453107276,1.1822486657631401,0.8379618335439263,0.5456994138500711,0.0035863837772851623,0.0,0.5457056279716224,-0.8379054886812453,-0.010025294965685685,0.0,-0.002465794409127642,0.010358123788575868,-0.9999433129580462,0.0,0.5602850473164775,0.12802433337900854,0.3048599690593959,1.0,-0.43325999999995585,-0.5694274285713706,-1.864786300559802,1.410999999999956
0.33834841203829624,0.07610956492041707,-0.13235975368973377,-2.03505845992402,0.024094177592012486,2.110513256994988,0.43227534697655023,-0.7513879703529183,-1.5810679066814355,-0.01520714960222645,-2.0514300817912643,-0.22845940912877116,0.4917023313113762,1.2285881487977146,0.8540277444917349,0.5201959252857524,0.003682099356072661,0.0,0.5202049354550101,-0.8539719195036264,-0.00997660908068184,0.0,-0.002045421317729723,0.010435948133055581,-0.9999434520202615,0.0,0.5533010549093182,0.1188742076333361,0.3049268901532301,1.0,-0.43998,-0.5782594285714286,-1.8949455900000003,1.4269999999999543
0.3250093533976229,0.04886138110473498,-0.1326173385441156,-2.0698098317308404,0.01986364508942191,2.118172346529682,0.45282361794353837,-0.8098838435754764,-1.5941352806954232,-0.018779054137978514,-2.019166300670436,-0.2528391329887037,0.41732098040630394,1.2093654765329642,0.8703939439118287,0.49232505349732336,0.003342304845250395,0.0,0.49233236504073274,-0.8703392775628422,-0.009956463528633283,0.0,-0.001992915624769942,0.010311768940756763,-0.9999448463333491,0.0,0.5457651967810817,0.10892782369474241,0.3048028868219427,1.0,-0.43998,-0.5782594285714286,-1.8949455900000003,1.4439999999999524
0.31005769604274147,0.020180342837711474,-0.1328050878461361,-2.1053949424062877,0.015427586235471795,2.1253652800378244,0.47423795362115,-0.8319721199717912,-1.517023755445184,-0.008218605669637306,-1.9295025553423462,-0.24463248140631913,0.37932501941505353,1.168863032802087,0.8868435375668378,0.46203836425812633,0.003136356296727821,0.0,0.46204542045703406,-0.8867894659069022,-0.009960898174478596,0.0,-0.0018210644349423988,0.010283095219670482,-0.9999454693517178,0.0,0.5377771897495266,0.09834878974271213,0.3048098926145242,1.0,-0.43998,-0.5782594285714286,-1.8949455900000003,1.4619999999999505
0.29616509980641187,-0.00503310239881148,-0.1330389393134507,-2.135696791622716,0.011522398304530238,2.1313443781693544,0.4926641693135878,-0.8992621581090048,-1.54340344616421,-0.018915437810437946,-1.8273398562386687,-0.22937258578464753,0.3541353501582316,1.1315111361320258,0.9005538884936943,0.4347074627627181,0.0035864520761882193,0.0,0.4347210224838678,-0.9005010217712346,-0.009812711182495045,0.0,-0.0010360749694782734,0.010396181484420605,-0.9999454214901933,0.0,0.5308471218333787,0.08892582051591261,0.30502766077831633,1.0,-0.43998,-0.5782594285714286,-1.8949455900000003,1.4779999999999487
0.2809489080108685,-0.03147992502508245,-0.13306321107406188,-2.167025815742616,0.007348892225874287,2.1371020520110644,0.5120013670684275,-0.9091524630419099,-1.533337929772666,-0.0017077463942320836,-1.8187295273412916,-0.2511372665605723,0.33153515280750456,1.131715776769867,0.9141352702286318,0.4053657673592552,0.004006155074028366,0.0,0.4053854836276321,-0.914084271923687,-0.009659212542549759,0.0,-0.0002535556420721341,0.010454065253102877,-0.9999453226198021,0.0,0.5234209774364543,0.07909638621921371,0.30520847436290005,1.0,-0.43998,-0.5782594285714286,-1.8949455900000003,1.494999999999947
0.2650215074679746,-0.05748152332222571,-0.1332134250637933,-2.1974248414322672,0.0032589219404736357,2.142015255434434,0.5306618753658704,-0.9335466335951883,-1.513750047314099,-0.0015299677411776888,-1.7929534455782083,-0.2414748015126239,0.28954055569185316,1.0777531157064915,0.9267906263890848,0.3755302540417033,0.004112181648369469,0.0,0.3755527216087333,-0.9267404076183172,-0.009649719214371367,0.0,0.00018716699255100222,0.010487812247845972,-0.999944983867998,0.0,0.5159450496636097,0.06915523648041057,0.30529247666241605,1.0,-0.43998,-0.5782594285714286,-1.8949455900000003,1.5119999999999452
0.24962787984620435,-0.08154798524053505,-0.13324556932777626,-2.2251519581903954,-0.0006215954944104381,2.146084184193742,0.547814840689505,-0.9746066233768615,-1.4721638932971624,-0.0034599236650524664,-1.7337276445837504,-0.24008054595845052,0.24326230043273173,1.0571707901970533,0.9377296401207125,0.3473136075271565,0.0041384739650790255,0.0,0.34733783059825457,-0.9376807092408708,-0.009595095311891289,0.0,0.0005480705874673641,0.010435254753752343,-0.9999454010479047,0.0,0.5088904004550967,0.05994146599526878,0.30532701440527255,1.0,-0.43998,-0.5782594285714286,-1.8949455900000003,1.5279999999999434
0.23163442704784928,-0.10808209365863436,-0.13332153025599433,-2.255350667236919,-0.0049296092499142635,2.149969240253131,0.5664589020243536,-1.0004940210104216,-1.4405798493976798,0.007036236293821907,-1.6450151512553186,-0.2299060217409733,0.18063753237187,1.0149130504517418,0.949003465975018,0.31521026950074105,0.003956572997161376,0.0,0.3152342423174524,-0.9489554142952767,-0.009578154907373921,0.0,0.0007354927385520016,0.010337148517818966,-0.9999462997636186,0.0,0.5009381535380037,0.04956273100950564,0.30527038702109194,1.0,-0.43998,-0.5782594285714286,-1.8949455900000003,1.5459999999999414
0.21497184406522393,-0.13132161504273995,-0.13342480540471666,-2.2813796785704477,-0.00872335546605138,2.152893522473983,0.5825641837142375,-1.0621012141097432,-1.4422360802604923,-0.006171749223010829,-1.5826983015732894,-0.2273878380131342,0.1599734831109243,1.0029546667108402,0.9581496702728187,0.2862095132072263,0.0037511074337921516,0.0,0.28623281290952357,-0.9581023032980495,-0.00956557003436632,0.0,0.0008562040137295446,0.010239134941776376,-0.9999472121218854,0.0,0.49385528779341786,0.04029764233696111,0.3051870681491984,1.0,-0.43998,-0.5782594285714286,-1.8949455900000003,1.5619999999999397
0.19677328926363383,-0.15564499869751616,-0.13348288355461727,-2.3082255073646376,-0.012732983358298313,2.155396699364874,0.5990114651939783,-1.0882104354973745,-1.414576420127636,-0.011674202710143841,-1.5356999101746922,-0.2308689945231171,0.132865478580432,0.9702103390889627,0.9668210745296819,0.25539436487764205,0.0033874968967284574,0.0,0.25541545342675537,-0.9667743655498184,-0.00954039662483749,0.0,0.0008383977682105415,0.010089269821832978,-0.9999487505485689,0.0,0.4862802684184489,0.03055529588273807,0.3050484257322453,1.0,-0.43998,-0.5782594285714286,-1.8949455900000003,1.5789999999999378
0.17784694252316685,-0.17960530110138961,-0.1336370471495044,-2.3340808553186494,-0.016574586485147962,2.1573056854840105,0.6147665118699643,-1.119002959976089,-1.4055708222488228,-0.0088271467320856,-1.5216898159854308,-0.21715440012515008,0.09713665966743681,0.9273205363556415,0.9745339636032714,0.22417568492021805,0.003092406095135777,0.0,0.22419535939248092,-0.9744870446891438,-0.009601430159241147,0.0,0.0008611190736765306,0.010050416386891324,-0.999949122507936,0.0,0.4787263950249682,0.02076617120857626,0.3049458537588873,1.0,-0.43998,-0.5782594285714286,-1.8949455900000003,1.595999999999936
0.15931168891762548,-0.20183303072373807,-0.13386370386243526,-2.357519606036574,-0.02026824440658232,2.15866868882249,0.6290722425250853,-1.1742821621426303,-1.3703717857560103,-0.008843957653081559,-1.4501475537124673,-0.21265201353966373,0.058645486369000646,0.8736485540118704,0.9809061135225511,0.19440997788705594,0.0029502293549790075,0.0,0.19442957913406633,-0.9808603297028019,-0.009534111089594309,0.0,0.0010402566398868829,0.009925870810395067,-0.9999501962371817,0.0,0.47165278751772716,0.01146427091856072,0.3048979315382434,1.0,-0.43998,-0.5782594285714286,-1.8949455900000003,1.6119999999999342
0.13898690864965083,-0.22515827634926974,-0.13414562653127027,-2.3815172920893786,-0.024003808441638946,2.159578547682256,0.6434863820424049,-1.2097046910815898,-1.3449405130305383,-0.023531302783352918,-1.4036779494511031,-0.20942895993124427,0.040508216445719045,0.8475565891312402,0.9866688824403843,0.16265544426566636,0.0029102879221934415,0.0,0.16267616203997803,-0.9866233703061552,-0.009567568702360155,0.0,0.0013151662615571436,0.009913647657280752,-0.9999499937136016,0.0,0.4641339062722164,0.0016118559776027346,0.30490260595662705,1.0,-0.43998,-0.5782594285714286,-1.8949455900000003,1.6289999999999323
0.11802719270728393,-0.24808950278628372,-0.1343686748243257,-2.4045293004575967,-0.027775677616193192,2.1600575097370394,0.6572866127414991,-1.2494207387579008,-1.3489837062264605,-0.02560771147304363,-1.3407036726635828,-0.21949701330577842,0.028752956397814014,0.7980631411939608,0.9913895057650569,0.13083724488172044,0.0030348166147117126,0.0,0.1308604802936285,-0.9913458156987703,-0.00947392711967241,0.0,0.0017690442894437441,0.009789677966267486,-0.9999505151194328,0.0,0.4566516695408656,-0.00818446347641362,0.30496429996657226,1.0,-0.43998,-0.5782594285714286,-1.8949455900000003,1.6459999999999304
0.09635106482202922,-0.27039803140328184,-0.13464673614519104,-2.4265889066240747,-0.031371654431318605,2.1601092253191494,0.6703554767793296,-1.2833711537477432,-1.3013104534875835,-0.01762725277501471,-1.303422358068111,-0.21253097238328084,0.01407374019560614,0.749562818878692,0.9950938287902833,0.0987900308805656,0.0030900814422268,0.0,0.09881517389771521,-0.9950511519884448,-0.009461143442608008,0.0,0.0021401636507473176,0.009720259533227698,-0.9999504669003134,0.0,0.44918323125585385,-0.01798563985380246,0.3049736612064147,1.0,-0.43998,-0.5782594285714286,-1.8949455900000003,1.6629999999999285
0.07398019774891715,-0.29228336339564887,-0.1349563012370535,-2.447760196600285,-0.03486234023617707,2.1597138710718427,0.6825752888429062,-1.3220133513092678,-1.269484791063545,-0.021376188834347845,-1.2307324195156806,-0.19483807726990446,-0.025639379354206775,0.6974365332063741,0.9977555444733917,0.06674191561016307,0.003183877274667158,0.0,0.0667693523475395,-0.9977138210896247,-0.009472681512585141,0.0,0.0025444224394903237,0.009664191989439118,-0.9999500634069887,0.0,0.4417010085187964,-0.027775183914867035,0.30500093753674196,1.0,-0.43998,-0.5782594285714286,-1.8949455900000003,1.6799999999999267
0.052290569377594444,-0.3124027705320309,-0.1352789518779017,-2.4669245286072248,-0.038227986397932075,2.1590925940216117,0.6934264214187742,-1.3433874068773877,-1.2368470800240718,-0.013388338075495238,-1.1924876805890323,-0.20491054825447313,-0.05649963664296912,0.6607690379240821,0.9993158813773491,0.036572741182169466,0.003309188819479512,0.0,0.036602261969467975,-0.999276542183348,-0.009349522020855051,0.0,0.0029649141957013847,0.009464431854446245,-0.9999508156971948,0.0,0.43465196688244956,-0.036998621248113914,0.3050025454383741,1.0,-0.43998,-0.5782594285714286,-1.8949455900000003,1.695999999999925
0.028542588527840175,-0.33310920172010566,-0.13568130260485892,-2.486196905297532,-0.04150988926967767,2.157928725487091,0.7041991446726197,-1.3943275278063372,-1.1870399807433456,-0.01613084016125503,-1.120116334649213,-0.18844823675983577,-0.08481183158393926,0.6016880854237409,0.9999815598033365,0.0024635028989836716,0.003399721747601154,0.0,0.002495279620741697,-0.99994331897218,-0.00937439724587809,0.0,0.003376500201178745,0.009382888286217382,-0.9999502790908155,0.0,0.42675168382358103,-0.047363380632809766,0.3050306353194837,1.0,-0.43998,-0.5782594285714286,-1.8949455900000003,1.713999999999923
0.00404485473604783,-0.3532693882313603,-0.1361451080384012,-2.5045253398669836,-0.044827518942271195,2.1564137827305205,0.7141408007919801,-1.4601544355852418,-1.183201312419395,-0.027656786525942542,-1.0617695258328081,-0.19968958192006955,-0.0877055551856021,0.5626089918082061,0.9995958923226332,-0.027863930858769148,0.003521407392598251,0.0,-0.027830068442167843,-0.9995595453568917,-0.009324670376834624,0.0,0.0037797511149445517,0.009223078770044371,-0.999950322915849,0.0,0.41972048643145166,-0.056628360357233544,0.3050802555318991,1.0,-0.43998,-0.5782594285714286,-1.8949455900000003,1.7299999999999212
-0.021200353344046057,-0.372570033302293,-0.1366586178087967,-2.5220629041229645,-0.04794443199416952,2.1545461006520457,0.7232326536330984,-1.4957903203052556,-1.1046676147436532,-0.031171488412121882,-1.0097619228276418,-0.18588267311378362,-0.10812075609033261,0.5098264211155755,0.9981792051621418,-0.060070165739231185,0.0032552221344235837,0.0,-0.06003744168074954,-0.9981426050559846,-0.009359084874668664,0.0,0.003811451063122251,0.009146784796139763,-0.9999509033791042,0.0,0.4121700183618531,-0.06645620121961773,0.3049767707636821,1.0,-0.43998,-0.5782594285714286,-1.8949455900000003,1.7469999999999193
-0.048635817897225056,-0.3923789074335906,-0.13716184963212794,-2.539300537866499,-0.051133548593151446,2.1523368296186214,0.7320914318818668,-1.5283906872391775,-1.0774571579598753,-0.03122542359085389,-0.94596580609205,-0.1783301837361026,-0.1266053919423296,0.47823704574377857,0.995725789285044,-0.09219031719012127,0.003441637730741049,0.0,-0.09215467645977693,-0.9956908870289933,-0.009376566280820153,0.0,0.00429131856571735,0.009019499502499959,-0.9999501153626074,0.0,0.4047198917942552,-0.076245112011277,0.3050598579131529,1.0,-0.43998,-0.5782594285714286,-1.8949455900000003,1.7639999999999174
-0.07369530059575555,-0.4091588448414441,-0.13767300775177085,-2.553723410725506,-0.05373152499883505,2.1501713646164546,0.7391532411428056,-1.5581120103834971,-1.0196489201791539,-0.029679614793571403,-0.8771306571914904,-0.16081421228991785,-0.13300112989405571,0.42306231287335333,0.9922312413296233,-0.12427975907416927,0.0035287554675723894,0.0,-0.12424198982556445,-0.9921974385671999,-0.00942962173580002,0.0,0.004673223227769363,0.008918117380677604,-0.9999493127989278,0.0,0.3972702815662343,-0.08604646586124247,0.30510262086338213,1.0,-0.43998,-0.5782594285714286,-1.8949455900000003,1.7809999999999155
-0.10094845837022445,-0.4261200877627861,-0.13816692566739106,-2.568105845279219,-0.05650597254197608,2.1477656297906544,0.7458835248951325,-1.6275316382005054,-0.9760689504453964,-0.016515614790883648,-0.8013795918994212,-0.17522434597498215,-0.14377153566980178,0.37015468144895286,0.9880165849734892,-0.15424334338676782,0.003600797051231941,0.0,-0.15420403013862627,-0.9879844614337276,-0.009411054973858114,0.0,0.005009220562376571,0.008743189312745397,-0.9999492308862481,0.0,0.39026132025392174,-0.09525091546128299,0.3051254558090101,1.0,-0.43998,-0.5782594285714286,-1.8949455900000003,1.796999999999914
-0.12725812913627424,-0.4413182865916883,-0.13867086895782704,-2.5807557275463378,-0.05897647796902644,2.1452836417143857,0.751434599766987,-1.6506196668811128,-0.9246254785002613,-0.026655390378260337,-0.7456276947280032,-0.1537680933380055,-0.14034449610438798,0.3346739189273347,0.9825643643300466,-0.18583712581247513,0.003546761855279426,0.0,-0.18579752742041794,-0.9825336601749495,-0.009361214071074297,0.0,0.005224574613771571,0.008539180175722166,-0.9999498918556028,0.0,0.3827653500303804,-0.10502676090210022,0.3051326096769691,1.0,-0.43998,-0.5782594285714286,-1.8949455900000003,1.8139999999999121
-0.15580024107488424,-0.45649079610214965,-0.13918659358450378,-2.593238375478677,-0.06139963518902118,2.1426735994754775,0.7566218528711849,-1.6597405811766623,-0.8880387063509104,-0.026377441664464665,-0.7104958661030504,-0.16755709899910612,-0.15786748723875904,0.284695753049928,0.9760914017306834,-0.21728745313379189,0.0035334231657240464,0.0,-0.21724694071767003,-0.9760618194676407,-0.009372205052183212,0.0,0.0054854076212171865,0.008380664747444713,-0.9999498361226028,0.0,0.375288669218247,-0.11477371781573081,0.30513014281872824,1.0,-0.43998,-0.5782594285714286,-1.8949455900000003,1.8309999999999103
-0.18313981779887706,-0.46966950956549325,-0.1396231484860751,-2.603964881635621,-0.06352511938087738,2.1401812847462756,0.7606603012947873,-1.698240165559952,-0.8003326390365814,-0.001991497488845621,-0.6199828062412186,-0.13289443615699573,-0.14678338936718607,0.23391652703321703,0.9686940897816442,-0.24819465739126584,0.0034524434466649233,0.0,-0.24815412739437492,-0.9686656904896067,-0.009330381912775063,0.0,0.005660123432226438,0.008181705246604568,-0.9999505101263709,0.0,0.3678682972939504,-0.12446661234269592,0.30512151265327353,1.0,-0.4262040000000921,-0.5601538285715498,-1.833119046648414,1.8479999999999084
-0.21383520690317695,-0.48284691773556015,-0.13996564419800972,-2.6144978003682127,-0.06548438051395224,2.1376594766347123,0.7642856533310282,-1.7000782758523896,-0.7102618914225959,-0.012544799475660217,-0.5616478505487762,-0.09532563884268568,-0.158291319972266,0.1796498972407049,0.9605262172869933,-0.2781331029904367,0.003479917593723351,0.0,-0.2780910279387647,-0.960498626074559,-0.009408314942309558,0.0,0.005959334632098301,0.008069354661883021,-0.9999496846572247,0.0,0.36071172109847577,-0.13390878328962974,0.305110290530773,1.0,-0.409068000000094,-0.5376322285715522,-1.7562128585764223,1.8649999999999065
-0.2405318583440101,-0.4932073769687502,-0.1401489285908239,-2.622771069361748,-0.06688388555684303,2.1354111873123984,0.7665657066125119,-1.660027348031191,-0.6211032451558184,-0.010921656632319702,-0.4861744600692922,-0.07372064478332595,-0.13730776314218668,0.12642573397210988,0.9524156106704446,-0.30475315230548655,0.0032814040167423353,0.0,-0.3047111738035101,-0.9523870236269596,-0.009529149357436635,0.0,0.006029320993404197,0.008075985622516824,-0.9999492115825599,0.0,0.35417906821690454,-0.1423820635500229,0.3050610211103518,1.0,-0.3929400000000958,-0.5164354285715546,-1.6838305639204303,1.8809999999999047
-0.26836277306240586,-0.5028336675116312,-0.14014061812829431,-2.6301159522960984,-0.06818798669952,2.133422686371327,0.7682515973882055,-1.6308787666190596,-0.5382823515069619,-0.006009579463591155,-0.40119350310438123,-0.06421718374953005,-0.1119626248878655,0.08766687576500048,0.9434076526288105,-0.3315873161892635,0.0035495922310982858,0.0,-0.3315424688437595,-0.9433820137061717,-0.009524414411485733,0.0,0.006506921758195616,0.007808715212882206,-0.9999483406336334,0.0,0.34763474303265135,-0.15109067239950832,0.30515561018472126,1.0,-0.3758040000000977,-0.4939138285715571,-1.6069243758484388,1.8979999999999029
-0.29525516113246636,-0.5110429743603914,-0.13997845422785865,-2.6363084637362917,-0.06918036323950554,2.1317690143127748,0.7692649397789134,-1.5637101726908063,-0.45158327282097427,0.007246172547826465,-0.3483817389495973,-0.042984855004070066,-0.08772462890606128,0.04084691662460491,0.9341811892213441,-0.3567506405149306,0.0039029602086286864,0.0,-0.3567023816955986,-0.9341591218643022,-0.009533773209564965,0.0,0.00704730126258768,0.00751422106463745,-0.9999469346053849,0.0,0.3414479619473495,-0.15935390115363185,0.3052546706851898,1.0,-0.3586680000000996,-0.47139222857155955,-1.5300181877764472,1.914999999999901
-0.3213202469304867,-0.5179638753401976,-0.13973457431851014,-2.6417790135809773,-0.0699564533122169,2.1300219445540334,0.7697656518471191,-1.4896501303916527,-0.3855483979955827,0.006194716059001345,-0.29178095831090023,-0.02773236518818603,-0.09544803269064002,0.025452649720119735,0.9247627346898504,-0.38050179758716046,0.003607417787946783,0.0,-0.3804550539641806,-0.9247396804259373,-0.009551034501867783,0.0,0.006970242367931256,0.007460124086385772,-0.9999478797767152,0.0,0.33539638790790577,-0.16717773898781815,0.3051798194711882,1.0,-0.34153200000010125,-0.4488706285715617,-1.4531119997044546,1.9319999999998994
-0.3450904494693873,-0.5235259971214128,-0.13943732464631645,-2.645964634201843,-0.07053575439314702,2.128751075914296,0.7698441116712768,-1.4622020995825065,-0.3222439232729942,0.009416712775273785,-0.24165318601231156,-0.022229509923868657,-0.0694573745593206,0.002192027643175144,0.9157736138852799,-0.4016535718001768,0.003720654897063444,0.0,-0.4016056217414752,-0.9157525892701293,-0.009532404308757753,0.0,0.007236062910856378,0.007235427724030907,-0.9999476426189529,0.0,0.33002154767630326,-0.17426676592144036,0.30522019114869403,1.0,-0.32540400000010306,-0.42767382857156405,-1.3807297050484626,1.9479999999998976
-0.36943328954404014,-0.528370545451071,-0.13903107245142982,-2.649575504088804,-0.07093197605261763,2.1276067291254743,0.7697389500550302,-1.408545348597569,-0.2558502023144392,0.02119468491844826,-0.20046075070769553,-0.014236075462227044,-0.06359807880632837,-0.017736658483803625,0.9061181987732382,-0.4229845512087024,0.0038244204689107278,0.0,-0.42293542683152985,-0.9060991089544966,-0.00952766413697255,0.0,0.007495503029852246,0.007015842039607811,-0.9999472963085628,0.0,0.32459456745202303,-0.18144517390907142,0.30526443965344613,1.0,-0.3082680000001049,-0.4051522285715665,-1.3038235169764711,1.9649999999998957
-0.39259287576273066,-0.5321900316639662,-0.13857161401816384,-2.652428976307716,-0.07115023551666912,2.126703303858733,0.7691001673743251,-1.310520666601465,-0.20250831457414792,0.03884939227130441,-0.1447642089977144,-0.00025385014865740053,-0.047139319257437945,-0.051906130603530554,0.8966815720741705,-0.4426371218325885,0.003909421896461747,0.0,-0.4425870101781009,-0.8966642090954063,-0.00952793000221229,0.0,0.007723002897750519,0.0068133910832081646,-0.9999469650577418,0.0,0.319489027606928,-0.18821300852450162,0.305295058845687,1.0,-0.2911320000001068,-0.38263062857156904,-1.2269173289044795,1.9819999999998938
-0.4147054866126772,-0.5351903286994386,-0.1381033039898702,-2.654581725511645,-0.07126451464174975,2.1260993515492785,0.7681834461687372,-1.2921343130945004,-0.1700738932279952,0.020849828385932308,-0.12337717142920382,-0.007268420065794937,-0.031046240686394187,-0.05460798886665299,0.8873837476481008,-0.4609917269928374,0.004178391482532094,0.0,-0.4609396342254249,-0.8873696774207991,-0.009510840943209297,0.0,0.008092352696422445,0.0065139048507147634,-0.9999460399798743,0.0,0.31468529914052545,-0.19466225815259128,0.30536896889630705,1.0,-0.2739960000001087,-0.36010902857157145,-1.150011140832488,1.998999999999892
-0.434446407043392,-0.5374581969772874,-0.13757153852773013,-2.656079649835388,-0.07128034974864687,2.125654771619866,0.7670981005677482,-1.2174080281128274,-0.12543252517720224,0.024654238225289195,-0.08359717127656599,-0.001993408151664181,-0.022686901274533003,-0.06548157533246253,0.8789028030706767,-0.476959185913189,0.004532618309891793,0.0,-0.47690509100221096,-0.8788929802659293,-0.00945570286407276,0.0,0.00849383428770456,0.006149133394552364,-0.9999450199573918,0.0,0.3104351605349336,-0.2003731615558543,0.3054880935869493,1.0,-0.25786800000011023,-0.33891222857157355,-1.077628846176495,2.0149999999998904
-0.4553132812649428,-0.539329927117706,-0.13689247916812428,-2.6570951553746487,-0.07122002747629357,2.1253333270535304,0.7656549994639807,-1.1231825533578141,-0.089499530544381,0.04627068742691834,-0.04900719474770669,0.005151937094516351,-0.01208646341156465,-0.0832245280820767,0.869780019817326,-0.49339377394294903,0.005103710622071803,0.0,-0.4933372944253201,-0.8697769772536734,-0.009331166581725812,0.0,0.009043203602383476,0.005598319249543154,-0.9999434380454657,0.0,0.30602223831952957,-0.2064027801795158,0.30569683961321953,1.0,-0.23972400000011224,-0.31506582857157617,-0.9961987646885039,2.0329999999998885
-0.472878527538285,-0.5405438936260364,-0.1363122926101078,-2.6576186526909216,-0.07107234908308127,2.1251388932864743,0.7643429017764912,-1.0632900586688288,-0.06808292358411082,0.04518385364720855,-0.025138410847915536,0.020173891695374,-0.011477422875976959,-0.08442417837724533,0.8618768587351864,-0.5070673644726946,0.005631621852631787,0.0,-0.5070087265161434,-0.8618800215222757,-0.009258868097544361,0.0,0.009548836052457599,0.005124821396324281,-0.9999412762436096,0.0,0.3023176451343917,-0.21146641344524053,0.3058986872694438,1.0,-0.223596000000114,-0.2938690285715785,-0.9238164700325119,2.0489999999998867
-0.49027779753949,-0.5413874700210898,-0.1356902186028412,-2.657919167926924,-0.07078025256603963,2.1249663527157607,0.7627191994072555,-1.0094804021555441,-0.040064107051333786,0.030538627269849575,-0.017282658245500446,0.01650344863007484,-0.006116016575251434,-0.10294971441159055,0.8539786215609372,-0.5202545378519337,0.006039591257780241,0.0,-0.520194066535589,-0.8539867307892179,-0.009248982555885367,0.0,0.00996974788728866,0.004756765419793252,-0.9999389867935967,0.0,0.2986362478567477,-0.21643487505911185,0.3060703180834703,1.0,-0.2064600000001159,-0.27134742857158095,-0.8469102819605203,2.065999999999885
-0.5062544708634177,-0.5417799299444207,-0.13490875720517415,-2.6580615270613763,-0.07041337831671451,2.124888105138857,0.7610632136958659,-0.9080506079179121,-0.014984175099373012,0.05004497827178141,-0.005218781477647324,0.01120318698486577,-0.0005648719058061485,-0.09850154846535024,0.8467002472531902,-0.5320153347412404,0.00625474242163764,0.0,-0.5319546837312548,-0.8467116707070426,-0.009181941302237645,0.0,0.01018109299874087,0.004447198066489855,-0.9999382819827973,0.0,0.2952689306760306,-0.22091358675499365,0.30616211537921467,1.0,-0.1893240000001178,-0.24882582857158342,-0.7700040938885289,2.082999999999883
-0.5212054698315118,-0.5420395873070301,-0.1342235962005059,-2.6581262865960587,-0.07002704802358141,2.1249015858999085,0.7593415955120497,-0.8472652873340788,-0.028777322952230008,0.04787122369062949,-0.010243939919366458,0.012767724403041017,0.017261529806879734,-0.09913836372056951,0.8397986182732462,-0.5428413426299576,0.006504181674848851,0.0,-0.5427799566002331,-0.8398134684270231,-0.00916536212219016,0.0,0.010437837812456385,0.004166799222791839,-0.9999368426685946,0.0,0.2920814668703535,-0.2250881504105527,0.30624659903752366,1.0,-0.1721880000001197,-0.22630422857158589,-0.6930979058165372,2.099999999999881
-0.5346404546531867,-0.5415274734998675,-0.13342050417396958,-2.6580458102516067,-0.06952562826759673,2.1248978455535115,0.7576685044880478,-0.7748718609850116,0.027277739899664723,0.03738793757158078,0.010418543266231433,0.026440719259211022,0.011845329275567279,-0.0990691941909264,0.8335907152766919,-0.5523313088802702,0.006114861920670126,0.0,-0.5522719933659814,-0.8336023592751274,-0.009137770828552062,0.0,0.01014463556136519,0.004240175575440153,-0.9999395518132166,0.0,0.289229013712638,-0.22875917381697367,0.30611721208785697,1.0,-0.15505200000012154,-0.20378262857158835,-0.6161917177445457,2.116999999999879
-0.5468894549442493,-0.5413785329498381,-0.1327276201457618,-2.6578949914383023,-0.06900478981106692,2.1250003599635923,0.7558691793161859,-0.6768736628244767,0.00577324510827434,0.034614472757966835,0.002615007589208896,0.024065556187156313,0.02398741772478619,-0.11044172001410316,0.8279470805491486,-0.5607540932098234,0.006263039180693374,0.0,-0.5606937078096267,-0.8279606133023658,-0.009194332160166692,0.0,0.010341508260407972,0.004100852763352647,-0.9999381161919538,0.0,0.2866301481635744,-0.23211254701170206,0.3061593500279429,1.0,-0.13791600000012344,-0.18126102857159088,-0.539285529672554,2.1339999999998773
-0.5583158313474078,-0.540519871193857,-0.1318634974132053,-2.6576379839883293,-0.0684052755599966,2.1250337812004227,0.7539973264100003,-0.6350508832312128,0.04377222152905688,0.04864135354825255,0.02073283250425529,0.037696935095411784,0.003151602400676529,-0.10281772898262692,0.8227874333593626,-0.5683032429356467,0.005745474388421925,0.0,-0.5682451619856093,-0.8227962685960621,-0.009191472436656363,0.0,0.009951090070533353,0.004297872737785369,-0.9999412503224065,0.0,0.28422385901047936,-0.23516087235227565,0.30598882610990097,1.0,-0.11977200000012544,-0.1574146285715935,-0.45785544818456314,2.1519999999998753
-0.5674741582556625,-0.540235651454502,-0.13121592472500512,-2.657441341388603,-0.06792234771377742,2.1251757941864864,0.7523342471521153,-0.5424162979801758,0.020548207726716925,0.04164353449230777,0.012054779892968966,0.035612214762329814,0.009350899290734023,-0.09511799788536056,0.8186700085364412,-0.5742177748187053,0.005840471419847899,0.0,-0.574158970148351,-0.8186800518988838,-0.009230196218611349,0.0,0.010081814285072488,0.004203206686236416,-0.9999403432576736,0.0,0.28228936936374543,-0.23761443346923808,0.3060045429915949,1.0,-0.10364400000012725,-0.1362178285715958,-0.38547315352857114,2.1679999999998736
-0.5756607186934503,-0.5394327373554143,-0.1303187837305568,-2.657078497505827,-0.06734024720609615,2.1252755555627982,0.7505339607971983,-0.44964602073040066,0.03116380210612686,0.042314120539446484,0.019343854006386857,0.04477427269538466,0.013383838665612019,-0.10921404205032206,0.8152428219472889,-0.579076065998879,0.005549590245341036,0.0,-0.5790189224490048,-0.8152504709132529,-0.009192606970864372,0.0,0.009847714340869007,0.004280971506056219,-0.9999423462406345,0.0,0.2806459866232409,-0.23973873558678577,0.305909104828832,1.0,-0.08650800000012909,-0.11369622857159828,-0.30856696545657947,2.1849999999998717
-0.5826937981180402,-0.5390395971085912,-0.12954415227582963,-2.6567681751179064,-0.06679999606945335,2.125416840979601,0.7486702135736005,-0.3699215381599502,0.03713988372799992,0.0481085967803077,0.021223575159330356,0.03507778353850533,0.003233384398526022,-0.11077875044449817,0.8124482740394287,-0.58298934888568,0.0056540248861039494,0.0,-0.5829317072365751,-0.812457192216722,-0.009202304862383662,0.0,0.009958690639310763,0.004180566811879505,-0.9999416719698613,0.0,0.2792410976263411,-0.24156076361136805,0.30593988304502767,1.0,-0.069372000000131,-0.09117462857160075,-0.231660777384588,2.20199999999987
-0.5890698616242748,-0.538471615213543,-0.12862931869712477,-2.6563507516683322,-0.0661778382365887,2.1255627381265203,0.7466780339490363,-0.2976741754502888,0.02800014977308257,0.04257834571314346,0.019336371824971176,0.038187997051179444,0.006331281558880036,-0.10100381726346426,0.8101374538464071,-0.5861958302213277,0.005701000578638422,0.0,-0.5861381054705125,-0.810147100104851,-0.009194803333814255,0.0,0.010008797160827532,0.004107559966283203,-0.9999414742526269,0.0,0.27804184043544605,-0.2431755058743678,0.3059594905180707,1.0,-0.0502200000001331,-0.06600342857160357,-0.14570680248059742,2.2209999999998677
-0.5931249009425396,-0.5381134690728406,-0.12792817801899783,-2.6560673427004904,-0.06571529918665651,2.125681419965517,0.7450835007855379,-0.2264229787213065,0.029807438741287433,0.040505316958744354,0.018383531689006354,0.031757762999817654,0.013457713697114671,-0.08772871091294615,0.8088926412598147,-0.5879115401538033,0.00578470145402822,0.0,-0.5878536242921786,-0.8089033024869392,-0.009182076752131278,0.0,0.010077707022309146,0.004026834130118617,-0.9999411104800429,0.0,0.27731258487924226,-0.24417313968839904,0.3059864594898496,1.0,-0.0340920000001349,-0.04480662857160589,-0.07332450782460542,2.236999999999866
-0.595903882294964,-0.5378525804179679,-0.12722994472460214,-2.655906954093447,-0.06525711943887379,2.1257098178836062,0.7434775218560712,-0.16489285416000307,0.024220245749842412,0.04920861269631369,0.00950461491795013,0.025836984580791866,-0.0019268374982801457,-0.11189481556237965,0.808416534373395,-0.5885662013029227,0.005768928563036574,0.0,-0.5885083059475792,-0.8084270629196799,-0.009187201477000643,0.0,0.010071228150682565,0.0040321008332973585,-0.9999411545318089,0.0,0.27687234168987374,-0.24474761657799948,0.30598828024987224,1.0,-0.019980000000136444,-0.0262594285716079,-0.009990000000612342,2.2509999999998644
-0.5981182239546368,-0.5376907507994306,-0.1265989730335217,-2.655762688823972,-0.06485298854195623,2.1257185421246736,0.7417598203501248,-0.11572666187319597,0.00038032885036271696,0.03691233811181785,0.009962557008332566,0.019945910860281794,0.00011675468312407157,-0.09457582766079252,0.8083050353585868,-0.5887191879300014,0.005782255459726757,0.0,-0.5886613299998051,-0.8083157446857142,-0.009178363538675599,0.0,0.010077560881182834,0.004015204580472054,-0.9999411587182833,0.0,0.27650044682151254,-0.24523811150820338,0.30600773034226225,1.0,-0.019620000000002764,-0.025786285714289352,-0.009810000000001382,2.2689999999998625
-0.5997555790672895,-0.5375253707078577,-0.12609464033977905,-2.6556185304924487,-0.06463421035273192,2.1257792998320686,0.7403298998649759,-0.09895315852016953,0.00970662266168619,0.029740609275622706,0.008808315806984938,0.017111922610449613,0.009225338632817192,-0.08367660508225533,0.8083648316342584,-0.5886364182469601,0.005849187252512294,0.0,-0.588579291804185,-0.8083766010911395,-0.009079370508419041,0.0,0.01007298818258101,0.0038968083473054915,-0.9999416731958808,0.0,0.276259846438002,-0.24559466199069677,0.30603098185817024,1.0,-0.019300000000002798,-0.025365714285717968,-0.009650000000001399,2.2849999999998607
-0.6015624531921274,-0.5372709334612761,-0.12575254404336,-2.6553762667536014,-0.06444414731484725,2.1258605085073543,0.7387838691020926,-0.09276728187042754,0.014614629831859533,0.007797926956822219,0.011238797997648894,0.016942678750803106,0.0036302428081789483,-0.08315530351978359,0.8083159121120298,-0.588702658233949,0.005942500819343546,0.0,-0.5886457033987065,-0.8083288301877638,-0.009026907484382781,0.0,0.010117853967419765,0.0037986385176024817,-0.9999415979828555,0.0,0.27596652816765027,-0.24606263084328064,0.30606440476572067,1.0,-0.01892000000000284,-0.024866285714289452,-0.00946000000000142,2.3039999999998586
-0.6029762152956163,-0.5370043581794045,-0.12560260037539145,-2.655255868907887,-0.06434317331317414,2.125890078391773,0.7375277492920894,-0.08774912074336402,0.00970716487396975,0.007672192095656893,0.0016651131075460382,0.0023477851512627513,-0.006710974268079567,-0.08049617727369322,0.8082636797549148,-0.5887753716695792,0.0058423116658861156,0.0,-0.5887189662551917,-0.8082756564843263,-0.009010483197790988,0.0,0.01002754195208777,0.003843440619477223,-0.9999423365207634,0.0,0.27568498256804785,-0.24643758658386083,0.306028163718346,1.0,-0.018600000000002875,-0.024445714285718068,-0.009300000000001437,2.319999999999857
-0.604404221742584,-0.5368294553989472,-0.12554858349576953,-2.6552114551806993,-0.0642820325189395,2.125882795713018,0.7362755093189942,-0.08486162985996745,0.010005738753741956,0.00018782679673195806,0.0021708025912367448,0.0036112436879539357,-0.001164800947797731,-0.07239394624430129,0.8081675714197997,-0.5889084996507689,0.005718605224322045,0.0,-0.5888524825290838,-0.8081782861546166,-0.00901989516182128,0.0,0.009933736751357836,0.003922247399861245,-0.9999429667983515,0.0,0.2753544242053625,-0.2468197753587955,0.3059850792687634,1.0,-0.018280000000002912,-0.02402514285714669,-0.009140000000001456,2.335999999999855
-0.6057841815031674,-0.5367203438349902,-0.12554245982631163,-2.6551374249523496,-0.06424634789797697,2.125888051778573,0.7350998874857256,-0.08679012902569536,0.004505577102673334,-0.0011295407149464437,0.007741449191139465,0.0062541621832058174,0.0006495900185779657,-0.07498358492658541,0.8080365188725237,-0.5890884791169022,0.005700424661102791,0.0,-0.5890324221541062,-0.8080470205432766,-0.00903134229273834,0.0,0.009926661977852691,0.003939995298652854,-0.9999429672831466,0.0,0.27503384991615853,-0.24721163928427906,0.30597964567501756,1.0,-0.017960000000002946,-0.023604571428575305,-0.008980000000001473,2.3519999999998533
-0.6072679682263441,-0.536530020428168,-0.12556859696857542,-2.6549706582238044,-0.06419701734762975,2.125890009520539,0.7337457457492843,-0.0892548824494953,0.010481581543702252,-0.0009616500465880908,0.008756078558111816,0.005305479641257847,0.0006812200092059914,-0.08019341936081752,0.8079253105992069,-0.5892410738245832,0.005691775859564567,0.0,-0.5891847646401763,-0.8079356221912379,-0.009060375906421062,0.0,0.009937525426983063,0.003966675768939054,-0.9999427538973079,0.0,0.274701254363403,-0.24765854129757192,0.30598587559158247,1.0,-0.017600000000002985,-0.023131428571432498,-0.008800000000001492,2.3699999999998513
-0.6086211619221144,-0.5363899814697365,-0.12559268567100346,-2.6548235666479436,-0.06415794893000781,2.125921756061081,0.7326529103557663,-0.08551720917982324,0.006301496652940051,0.0010414087082498598,0.0077673502663253985,0.0014286712568370482,-0.0007711116229096346,-0.06566662784454741,0.807741566548986,-0.5894924516503676,0.005740907370569473,0.0,-0.5894357321790344,-0.8077522982838842,-0.009082353707973426,0.0,0.009991402442339703,0.003952374768148692,-0.9999422736392973,0.0,0.2744011753248726,-0.24806967125598586,0.30600421844579084,1.0,-0.01728000000000301,-0.022710857142861106,-0.008640000000001506,2.38599999999985
-0.6099809984486155,-0.5362409909510965,-0.1255845893599919,-2.654649581223422,-0.0641214994255037,2.1259389347790294,0.7314917267266047,-0.07618475681068591,0.007881754361451075,0.00019516382474193535,0.007435114470829284,0.00022314727525691907,0.0017924231448930303,-0.07211246688207798,0.8076103662808631,-0.5896716633471704,0.005794188664490433,0.0,-0.589614725925514,-0.8076216399919138,-0.009083418396227493,0.0,0.010035939809160788,0.003919599361119075,-0.999941956641982,0.0,0.2741090543540868,-0.24847985635287365,0.306031064321327,1.0,-0.01694000000000305,-0.022264000000004013,-0.008470000000001525,2.402999999999848
-0.61129191291561,-0.5360577614027389,-0.12555228498084178,-2.6545071997294545,-0.0640713888383561,2.126019486679981,0.7301641773642817,-0.06687859799379695,0.005370497103269334,0.0008815060640300077,0.0066613884263097755,0.005362309873647369,-0.00016536046047918487,-0.06959850717223709,0.8076150049640154,-0.5896647845885811,0.005847433136363946,0.0,-0.589607660466702,-0.8076268219148589,-0.00908130738910989,0.0,0.010077665031944016,0.003886583569646107,-0.9999416658663944,0.0,0.27383665915305017,-0.24886962913899915,0.3060370891907708,1.0,-0.01658000000000309,-0.021790857142861206,-0.008290000000001544,2.420999999999846
-0.6124998324053261,-0.5359124796332796,-0.1254965162262644,-2.6543739140774076,-0.06404022513364488,2.1260242519025305,0.7290605267343365,-0.07402866908424854,0.0073812359134911645,0.007809795720575607,0.011188725570631736,0.0006338003330714334,0.0005727017509558064,-0.05729835929651027,0.8075671618430106,-0.5897302675002227,0.005851291152278786,0.0,-0.589673363567404,-0.8075791123839837,-0.009058059472628952,0.0,0.01006738617926456,0.003864715252884343,-0.9999418541652969,0.0,0.2735790658109763,-0.24921582264709027,0.30604664699340517,1.0,-0.016240000000003127,-0.021344000000004113,-0.008120000000001563,2.4379999999998443
-0.6134926176114077,-0.5358217728447346,-0.12543165894489067,-2.6542840657738473,-0.0640095809099178,2.1260702707567245,0.728127938091811,-0.07041759711091343,0.0007956498599470301,0.00018560816707881744,-0.0017283602046956224,-4.406582724998014e-06,0.008076533246650855,-0.06911338243017753,0.8075512585820974,-0.5897514972521484,0.005906196113228777,0.0,-0.5896946329817105,-0.8075638594184466,-0.009033254948088936,0.0,0.010097200560776898,0.003812037646651223,-0.9999417557587122,0.0,0.27337416343468024,-0.24949660690245806,0.3060602154690983,1.0,-0.01596000000000316,-0.020976000000004155,-0.00798000000000158,2.4519999999998427
-0.6146193001976265,-0.5356228704983013,-0.12540301263847706,-2.654158667496326,-0.06395427005769759,2.126088541885169,0.7270582860348107,-0.07845845471630498,0.0034101731352794724,-0.004599543331135781,0.007441054602586625,0.014284683925302254,0.00713969045107229,-0.0655452134055228,0.8075104145014096,-0.5898078567532897,0.005862549365318502,0.0,-0.5897510556923646,-0.8075225394224924,-0.009043646145171823,0.0,0.010068348147992179,0.0038454678072182835,-0.9999419186847376,0.0,0.27313164592171224,-0.24982276350537574,0.30604704393450166,1.0,-0.015640000000003193,-0.02055542857143277,-0.007820000000001597,2.467999999999841
-0.6158759728408845,-0.5354372806801027,-0.12538892595776455,-2.6540179080017654,-0.06389910615674206,2.1261132975988386,0.7259740822714164,-0.07204890369789854,0.007416838979503829,-0.00020381861045919462,0.007005862099143167,0.004810573769322296,-0.003452906130305751,-0.05628498696940661,0.8073933273096557,-0.5899682133001897,0.005853991154197601,0.0,-0.5899112853775158,-0.807405315256246,-0.009059756145576685,0.0,0.01007170563104709,0.0038615255589629083,-0.9999418229907373,0.0,0.2728581571855743,-0.25019230832524597,0.30604602303217476,1.0,-0.015280000000003232,-0.020082285714289966,-0.007640000000001616,2.485999999999839
-0.6169839162017576,-0.5352306266837918,-0.12538390995106424,-2.6539071882171577,-0.06387813862155373,2.1261261374460596,0.7249900846369475,-0.0722106978720318,0.006051325086887504,-0.0015721387426886853,0.008917563387089307,-0.002957748918785082,0.004775901042973516,-0.06521835638159414,0.8073123653729186,-0.5900797250931752,0.005780108230294592,0.0,-0.5900231309731294,-0.8073236368589399,-0.009055229799858823,0.0,0.010009918230820536,0.0039000765218759614,-0.9999422938050653,0.0,0.2726072076270064,-0.25051715157611115,0.3060221657071279,1.0,-0.014960000000003268,-0.019661714285718584,-0.007480000000001634,2.5019999999998372
-0.6182298815941363,-0.5350537489198668,-0.12538222853250905,-2.6538108852165476,-0.06385662115820337,2.1261276431065848,0.7238575603917073,-0.06877832562910435,0.01027081259347983,-0.0005827992122913594,0.005546358412446295,0.0018829671265876153,-0.002179469302021172,-0.060865838541752315,0.8072362834339063,-0.5901844677623144,0.005711709125637029,0.0,-0.5901281492020453,-0.8072468818103108,-0.009054624680625418,0.0,0.009954849891108841,0.003938657071338059,-0.9999426923299755,0.0,0.2723160406506281,-0.2508753828683453,0.30600153927000373,1.0,-0.014600000000003298,-0.019188571428575767,-0.007300000000001649,2.5199999999998357
-0.6193605887059489,-0.5349323783044305,-0.12537975816723254,-2.65370232805628,-0.06381009615155225,2.126157648482964,0.7228727717467994,-0.06895247075195683,0.01199643478965702,0.0002238125958152953,0.01311795170956414,0.0009471106973683314,0.005870556055774427,-0.05457729363617641,0.8071325740253416,-0.5903260244904724,0.005739308121074458,0.0,-0.5902694097689122,-0.8071433827594716,-0.009073613385257254,0.0,0.009989027008749207,0.003935946689415437,-0.9999423621704785,0.0,0.2720643259285286,-0.25120696147927096,0.306009500694783,1.0,-0.014260000000003336,-0.018741714285718674,-0.007130000000001668,2.536999999999834
-0.6204417967526039,-0.5347407797016075,-0.1253477851609379,-2.6535797406313835,-0.0637785274072366,2.126173858114163,0.7219050113613872,-0.06262484522021419,0.012735731343251528,0.0025838446103351735,0.008230405170910561,-0.0005976121850591863,-0.0005421835377043553,-0.05563174993683254,0.8070675906009313,-0.5904152815532928,0.00569617513442562,0.0,-0.5903589376410059,-0.8070780149474419,-0.009063632665108238,0.0,0.009948756496542421,0.003952252369249454,-0.9999426993310077,0.0,0.27182907670013684,-0.25152031147991233,0.3059975398768843,1.0,-0.013920000000003374,-0.01829485714286158,-0.006960000000001687,2.553999999999832
-0.6215030806196141,-0.5345980295623796,-0.125323677066584,-2.653450532205367,-0.06374678986960838,2.126210744821912,0.7209194657269726,-0.06291979560808138,0.007088402126336472,0.0015291696174543105,0.01033077804450429,0.0008795943627023823,0.005060978137965402,-0.0661697057764905,0.807020094820126,-0.5904798807784369,0.0057292105569517575,0.0,-0.5904234804537576,-0.8070308815476211,-0.00905631594794232,0.0,0.00997141418820413,0.0039260441062564655,-0.9999425768896748,0.0,0.27160280797733044,-0.25183497841846775,0.3060082071114945,1.0,-0.013580000000003412,-0.01784800000000449,-0.006790000000001706,2.57099999999983
-0.6224751505130802,-0.5344332757920394,-0.12530671407925723,-2.653331874407052,-0.06370809605738022,2.1262358596890776,0.720023890381555,-0.061455599194234205,0.013720416937689658,0.0013668283598389469,0.008948417864975853,0.00705870809860174,-5.169560145756283e-05,-0.05060656921486486,0.8069670029212184,-0.5905525489744367,0.005717516711903463,0.0,-0.590496152608939,-0.8069776612110598,-0.009060626996904518,0.0,0.009964876487186969,0.003935531162593042,-0.9999426047684254,0.0,0.2713929302863383,-0.2521215489821558,0.3060047367357859,1.0,-0.013260000000003446,-0.017427428571433104,-0.006630000000001723,2.5869999999998283
-0.6234062017848745,-0.5342809567425949,-0.12530020893729263,-2.6532356946431888,-0.06367732446791703,2.126261183970286,0.7192144966262246,-0.06163590015501813,0.0066782888452761955,0.0022123346940170546,0.004072897810742042,0.0007042677690470386,0.00013346961940774904,-0.0437819180321407,0.8068852538720048,-0.5906644579028737,0.0056949236538628815,0.0,-0.5906080949719039,-0.8068956723694247,-0.00906636456142571,0.0,0.009950580139102994,0.003952123951256603,-0.9999426816928905,0.0,0.2711852901501386,-0.2523945713840026,0.30599528709631396,1.0,-0.012940000000003482,-0.017006857142861723,-0.006470000000001741,2.6029999999998266
-0.6243784591524725,-0.5341229426071756,-0.12528130515863314,-2.6531457455142604,-0.06364007456004704,2.12628022192221,0.7183043798803218,-0.058766210039233574,0.010309522430943263,0.0019608508596301918,0.0041282986340591635,-0.00013216877341269408,0.005218576757939511,-0.05316018452632284,0.8068432954024373,-0.5907221504176595,0.005655490366003205,0.0,-0.590665890860056,-0.8068533046401732,-0.009071773086691215,0.0,0.009922239430897595,0.003979070646563498,-0.9999428564480399,0.0,0.27096752579219324,-0.2526726832819223,0.30598062453584707,1.0,-0.012600000000003518,-0.016560000000004627,-0.006300000000001759,2.6199999999998247
-0.6253425695275785,-0.5340030420472734,-0.1252682401273532,-2.6530565205951198,-0.06360747167138087,2.1262989493222766,0.717405440279279,-0.05148566453797766,0.0049648290103393045,-7.334589012373278e-05,0.005455559189027518,-1.4511534987371715e-05,0.001128930283770424,-0.047362026285463085,0.8067978733933608,-0.590784211353393,0.005652787339727566,0.0,-0.5907279145204339,-0.8068078405543757,-0.009076691441953664,0.0,0.009923270195612732,0.003983872778287323,-0.9999428270987853,0.0,0.2707505350486354,-0.25295054919997845,0.30597946131428827,1.0,-0.012260000000003556,-0.016113142857147534,-0.006130000000001778,2.636999999999823
