nelsonifechukwu/NELSON_IML_WORK/CNN-GradCAM/train2dof/data_sample_2022-02-21-14-11-18/robot_state.csv
position_joint1,position_joint2,position_joint3,position_joint4,position_joint5,position_joint6,position_joint7,velocity_joint1,velocity_joint2,velocity_joint3,velocity_joint4,velocity_joint5,velocity_joint6,velocity_joint7,ee_T_00,ee_T_10,ee_T_20,ee_T_30,ee_T_01,ee_T_11,ee_T_21,ee_T_31,ee_T_02,ee_T_12,ee_T_22,ee_T_32,ee_T_03,ee_T_13,ee_T_23,ee_T_33,v_x,v_y,time
0.465085740722,0.547811534184,-0.123985601446,-1.35577304806,0.0794898381452,1.89408685614,0.159154089246,0.000679714028241,-0.000357837471883,0.0010361966492,-0.00119410513839,5.1047741728e-06,-5.071220898e-05,-6.6288392393e-05,0.573783653857,0.818992832278,0.00195093435736,0.0,0.818949816336,-0.573725196496,-0.0118888236997,0.0,-0.00861772711466,0.00841949213741,-0.999927420832,0.0,0.661684046196,0.260904285958,0.30322011002,1.0,0.0,0.0,0.0
0.465080000676,0.547811456194,-0.123988856668,-1.35577304917,0.0794898761086,1.89409109176,0.159157490637,-0.000793505363907,-0.00134700744105,0.000228185061775,-0.000347954603888,4.29917427425e-05,-2.07702089809e-05,-0.0006127085704,0.573793454383,0.818985959598,0.00195360945482,0.0,0.818943001126,-0.573735006931,-0.0118848487347,0.0,-0.00861283593537,0.00841950530184,-0.999927462863,0.0,0.661687136415,0.260898899604,0.303220640504,1.0,-0.00014,-0.000184,0.008
0.46508408298,0.547807348256,-0.123985451749,-1.35577531268,0.0794890472087,1.89409216195,0.159155654453,0.000518840285527,-0.00211940900747,0.00139421173276,-0.00159294587356,4.07424927052e-05,0.000203502545026,0.00346280040483,0.573786132515,0.818991082134,0.00195663466505,0.0,0.818948151893,-0.5737276626,-0.0118844679913,0.0,-0.00861086365367,0.00842168741219,-0.999927461473,0.0,0.661685139499,0.26090329555,0.303222452014,1.0,-0.00046,-0.000604571428571,0.024
0.465078630519,0.547794963973,-0.123988473617,-1.35578639818,0.079488797322,1.89409080196,0.159155569663,0.00029728257603,-0.00274051652531,0.00103347354591,-0.00145013914642,-9.44327001505e-05,0.00535536135632,0.00162300731732,0.573793147598,0.818986167821,0.00195642244723,0.0,0.8189432398,-0.573734682572,-0.011884060778,0.0,-0.0086105797633,0.00842135371453,-0.999927466728,0.0,0.661684785349,0.260896652875,0.303225930574,1.0,-0.0008,-0.00105142857143,0.041
0.465077975724,0.547731156221,-0.123991336848,-1.35585387928,0.0794882813911,1.89410367875,0.159144616612,0.00144686790259,-0.0074052566468,0.000786155789814,-0.0122584745362,-1.74054722609e-05,4.22304342507e-05,-0.00201248438849,0.573790238848,0.818988181355,0.00196659696695,0.0,0.818945351838,-0.573731699116,-0.0118825516017,0.0,-0.00860353595154,0.00842878984702,-0.999927464705,0.0,0.661674430197,0.260888183451,0.303240227247,1.0,-0.00114,-0.00149828571429,0.058
0.465074538574,0.547592869109,-0.12398629364,-1.35602734539,0.0794866671033,1.89414057621,0.159153155989,0.00134064763125,-0.0103740373572,0.000730636879087,-0.0112308577105,-0.00321709883033,0.00238422864175,0.000388971243111,0.573805576785,0.81897741347,0.00197564625453,0.0,0.818934561153,-0.573746860114,-0.0118941985657,0.0,-0.00860772486675,0.00844304502159,-0.99992730839,0.0,0.661645505615,0.260872297744,0.303258661658,1.0,-0.00148,-0.00194514285714,0.075
0.465057372733,0.547446229742,-0.12398950091,-1.35623264048,0.0794781976601,1.89421292743,0.159147207465,-0.00123281724914,-0.0098769846469,0.000903457168438,-0.00999961378633,-0.00024810833138,0.0104426561917,0.000814796409288,0.573826209154,0.818962925169,0.00198891615898,0.0,0.818920222772,-0.573767412945,-0.0118899739256,0.0,-0.00859643805524,0.00845170505015,-0.999927332327,0.0,0.661622431092,0.260840184134,0.303271198963,1.0,-0.00182,-0.002392,0.092
0.465039572433,0.547261304511,-0.123988178037,-1.35644414311,0.0794759187334,1.894332912,0.159138780058,-0.000675150127763,-0.0154474295941,0.000837145803338,-0.00971418511639,-0.00025207828727,0.00305033346128,0.000758502038817,0.573844402634,0.818949966287,0.002073929866,0.0,0.81890832779,-0.573785217,-0.0118499927926,0.0,-0.00851472483461,0.00849857409768,-0.999927634231,0.0,0.661607224743,0.260814291975,0.303311894802,1.0,-0.00216,-0.00283885714286,0.109
0.465025815233,0.547090968626,-0.123988792479,-1.35666499145,0.0794735938155,1.89444971971,0.15912362777,0.000645930287404,-0.0109774211946,-0.00126296189579,-0.0159143459364,-0.000388138731771,0.00680815350207,-0.00205648125048,0.573855628098,0.818941942402,0.00213541022383,0.0,0.818901056249,-0.57379614893,-0.0118231319206,0.0,-0.00845733128737,0.00853362478094,-0.999927822793,0.0,0.661588236657,0.260788423051,0.303337590614,1.0,-0.00246,-0.00323314285714,0.124
0.464987162537,0.546854537143,-0.123991432932,-1.35700985588,0.0794662122936,1.89458931982,0.1591072829,-0.00302831618071,-0.0101721626457,-0.000425716192606,-0.022704348726,-7.75415759189e-05,0.00876185794235,0.000831029180724,0.57389314514,0.818915565835,0.00216815478554,0.0,0.818875016856,-0.573833442847,-0.0118166636438,0.0,-0.00843285242748,0.00855711480114,-0.999927828789,0.0,0.661554317573,0.260731779135,0.303353100637,1.0,-0.00282,-0.00370628571429,0.142
0.464949894921,0.546578448285,-0.123984491894,-1.35742753738,0.0794575578727,1.89473469326,0.159029897964,-0.000718820640103,-0.0164974546863,0.000864403604237,-0.022665433782,-0.00148554819531,0.00943460573541,0.000456139152024,0.573876444813,0.818927229891,0.00218291848175,0.0,0.818886674025,-0.573816484581,-0.0118323297938,0.0,-0.00843738489769,0.00857802336466,-0.999927611406,0.0,0.661503372849,0.260673657033,0.303362205304,1.0,-0.00318,-0.00417942857143,0.16
0.464920021449,0.546316999009,-0.123987111467,-1.35782004051,0.0794438833388,1.89488019327,0.158930749617,0.000991377005019,-0.0220092511416,0.00042514340933,-0.0254533533584,-0.00059605019192,0.015290356524,-0.00236165136367,0.573839861842,0.818952817034,0.0022007575394,0.0,0.818912411123,-0.573779752463,-0.0118323908831,0.0,-0.00842758198683,0.00859229064071,-0.999927571579,0.0,0.661458366744,0.260616886285,0.303373228736,1.0,-0.00348,-0.00457371428571,0.175
0.464872145755,0.546017274197,-0.123989243072,-1.3583330861,0.0794159539427,1.89505297166,0.158915030519,-0.000724818289854,-0.0193836164494,0.00051198041127,-0.0340724780087,-0.00014641444691,0.00886256397629,0.00147708833221,0.573888904247,0.818918542417,0.00216641854971,0.0,0.818877648046,-0.573828882008,-0.0118557414288,0.0,-0.00846589595052,0.0085780753388,-0.999927369977,0.0,0.66139747856,0.260534219706,0.303356290531,1.0,-0.00382,-0.00502057142857,0.192
0.464803015631,0.545653301625,-0.123986501016,-1.35896272762,0.0793327494637,1.89525919478,0.158820626925,-0.00294586040787,-0.0207629377377,0.00443848754618,-0.0338288146385,-0.00734930374169,0.0104560380927,-0.00582666284441,0.573879267783,0.818925490561,0.00209136781397,0.0,0.818883965831,-0.57381989487,-0.0118543518344,0.0,-0.0085079262361,0.00851571827427,-0.999927546242,0.0,0.661325635548,0.260420640859,0.303331964854,1.0,-0.00418,-0.00549371428571,0.21
0.464737540024,0.545247955996,-0.123994932233,-1.359675833,0.079292167622,1.8954909373,0.158723608529,-0.00333867845489,-0.0284979725773,0.00019161612082,-0.0384928147435,-8.44525178e-05,0.0182809905518,-0.0097055466006,0.573888247375,0.818919363388,0.00202551095035,0.0,0.818876948365,-0.573829107098,-0.0118931150577,0.0,-0.00857737021266,0.00848412652792,-0.99992722151,0.0,0.66123993941,0.26030228399,0.303299838933,1.0,-0.00454,-0.00596685714286,0.228
0.464675229126,0.544863533939,-0.123997076252,-1.36029312591,0.0792733047294,1.89570249766,0.158661857806,-0.0032008479155,-0.026672460314,-0.00160231651565,-0.0402357554373,-0.00277377174759,0.0142587897525,-0.00997077302046,0.573919547786,0.818897448861,0.00201688333052,0.0,0.818854738492,-0.57386025829,-0.0119192325992,0.0,-0.00860338562074,0.0084923785601,-0.999926927961,0.0,0.66116813284,0.260202919485,0.303296547853,1.0,-0.00484,-0.00636114285714,0.243
0.464614358602,0.544416149176,-0.123997167875,-1.36102782328,0.079242041243,1.89596024002,0.158556950511,-0.00157357703667,-0.0288703888392,0.000330514032749,-0.0469121446354,-0.000785490823704,0.0194237653404,-0.0096613097313,0.573916157602,0.818899869621,0.0019986194913,0.0,0.818856773544,-0.573856798753,-0.01194595522,0.0,-0.00863578605457,0.00849272333816,-0.999926645734,0.0,0.661079968758,0.260093716267,0.30328582475,1.0,-0.00518,-0.006808,0.26
0.464541570696,0.543959371166,-0.123996377604,-1.36178642796,0.0792063621259,1.89623540857,0.158476940488,-0.00390017100501,-0.0299457789782,-6.61332875628e-05,-0.0500738290396,-0.000339125158772,0.0110617480518,-0.00227028667968,0.573942487966,0.818881459575,0.00198054860919,0.0,0.818838016363,-0.573883092032,-0.0119685646547,0.0,-0.00866439915024,0.00849117975129,-0.999926411319,0.0,0.660993074545,0.259974904083,0.303271802991,1.0,-0.0055,-0.00722857142857,0.276
0.464468920756,0.543435318861,-0.124001426713,-1.36263241201,0.0791595320986,1.89652386863,0.158361497962,0.00175721014827,-0.0362350356099,-4.57952268783e-05,-0.0522416729589,-0.00638193381244,0.0208520815991,-0.00266994652156,0.573945480407,0.818879427478,0.00195337532615,0.0,0.81883557236,-0.573886142745,-0.0119894747344,0.0,-0.00869708662092,0.00848096132429,-0.999926214267,0.0,0.660892304803,0.259842415914,0.303265066018,1.0,-0.00584,-0.00767542857143,0.293
0.464389187996,0.542888918676,-0.124002024585,-1.36351284978,0.079106804194,1.89683926836,0.158277974232,-0.00304964079886,-0.0313477955425,0.00111122009248,-0.0526980473616,-6.20252869287e-05,0.0267228070321,-0.00841620877342,0.57397768298,0.818856895414,0.00193679506617,0.0,0.818812801718,-0.573918390233,-0.0120009997771,0.0,-0.00871570691712,0.00847434179734,-0.999926108262,0.0,0.6607905827,0.259704912032,0.303259859901,1.0,-0.00618,-0.00812228571429,0.31
0.464317511576,0.54232376293,-0.124007650573,-1.36437695466,0.0790584662248,1.89715395935,0.15813188117,-0.0050880160851,-0.0387680443007,-0.000762246902724,-0.055029203778,-0.0012052967728,0.0243252325232,-0.00746977329707,0.573955776847,0.818872215085,0.00195153471332,0.0,0.818828290099,-0.573896401024,-0.0119957962188,0.0,-0.00870321303679,0.00848319169778,-0.999926142043,0.0,0.660691665967,0.259572677479,0.303275731211,1.0,-0.0065,-0.00854285714286,0.326
0.464227676478,0.541675837198,-0.124009940381,-1.36539679392,0.0790009995293,1.89752943777,0.158010779577,-0.00351049702657,-0.0291310806693,0.000111675579652,-0.0613629582903,-0.00167104385432,0.0169345261871,-0.00589972469714,0.57397307366,0.818860081443,0.00195566688612,0.0,0.818816172571,-0.573913641246,-0.0119981177031,0.0,-0.00870256328718,0.00848809159279,-0.999926106117,0.0,0.660575444956,0.259415632484,0.303281090146,1.0,-0.00686,-0.009016,0.344
0.46414401477,0.541060600393,-0.124008422165,-1.36635859936,0.0789430184535,1.89788888324,0.157886947324,-0.0073847489569,-0.0325616537893,0.000145711888606,-0.0619494364032,-0.00412334115792,0.0209859517938,-0.00459414661404,0.57397700969,0.818857296563,0.0019664977996,0.0,0.818813516105,-0.573917518159,-0.0119939607937,0.0,-0.00869290213934,0.00849461627611,-0.999926134745,0.0,0.660465938617,0.259270171998,0.303289348498,1.0,-0.00718,-0.00943657142857,0.36
0.464062322093,0.540396013377,-0.124016334489,-1.367363012,0.0788789346948,1.89825680902,0.157752853293,-0.00370425444424,-0.0358459389265,-0.00231762513157,-0.0630267645405,-0.000687155597928,0.0221365679229,-0.00721258673059,0.573978115634,0.81885647182,0.00198701637211,0.0,0.818813017439,-0.573918594395,-0.0119764928583,0.0,-0.00866680990634,0.00850140335241,-0.999926303558,0.0,0.660351409632,0.259115735293,0.303313152183,1.0,-0.0075,-0.00985714285714,0.376
0.463952975659,0.539604343495,-0.124012670171,-1.3685790917,0.0788127223161,1.89872348591,0.157606810654,-0.00450941074595,-0.0425370245548,5.18830556434e-06,-0.0726065866728,-0.000592001333191,0.0255247644453,-0.00750615493573,0.573995190358,0.81884440512,0.00202695614599,0.0,0.818801401515,-0.573935430487,-0.0119638376045,0.0,-0.00863334575667,0.00852702394801,-0.999926374891,0.0,0.660215437528,0.258932656333,0.303334107094,1.0,-0.00786,-0.0103302857143,0.394
0.463857408514,0.538800827507,-0.12401767752,-1.36981256082,0.0787439560657,1.89919476929,0.157458086252,-0.00964555563773,-0.0419538219022,0.000711113507604,-0.0655992431114,-0.00115297132576,0.0346606743148,-0.0131936518127,0.574005032226,0.818837415392,0.00206325833155,0.0,0.818794869032,-0.573945104327,-0.0119468224745,0.0,-0.00859847376606,0.00854708611271,-0.999926504083,0.0,0.660074972585,0.258751647856,0.303355693214,1.0,-0.00822,-0.0108034285714,0.412
0.463759213765,0.538110314614,-0.124023606762,-1.37088365619,0.0786755501263,1.89960736226,0.157322997827,-0.0112413797607,-0.0470841466361,-0.00344252882821,-0.0747343497373,-0.00644581789893,0.0262599576933,-0.00675209846017,0.574019889959,0.81882694222,0.00208603136222,0.0,0.818784769019,-0.573959942488,-0.0119261621501,0.0,-0.00856832941203,0.00855402968372,-0.999926703467,0.0,0.659958039089,0.258582248359,0.303369544189,1.0,-0.00852,-0.0111977142857,0.427
0.463648262839,0.537314546064,-0.124024495676,-1.37215370765,0.0786008094816,1.900074407,0.157167336009,-0.0081014225367,-0.0499247740022,-0.000217258791553,-0.0716746630463,-0.00629567212827,0.020659277384,-0.00791630858986,0.574033900494,0.81881713607,0.00207982278673,0.0,0.818774849185,-0.573973944062,-0.0119333474359,0.0,-0.00857763042927,0.00855321723902,-0.999926630674,0.0,0.659810904416,0.258387802091,0.303367476297,1.0,-0.00886,-0.0116445714286,0.444
0.463538009982,0.536465690653,-0.124032530645,-1.37346911206,0.078532173812,1.90057445832,0.157002061927,-0.00459230448897,-0.0470880901616,-0.000546099503618,-0.0779703205636,-0.00326099324196,0.0380047908588,-0.0112864490261,0.574048594601,0.818806753495,0.00211148507215,0.0,0.818764827277,-0.573988454691,-0.0119230196254,0.0,-0.00855084556794,0.00857336743365,-0.999926687518,0.0,0.659662069253,0.258188220117,0.303384258706,1.0,-0.0092,-0.0120914285714,0.461
0.463416049276,0.535606476182,-0.124033306639,-1.3748312231,0.0784672880335,1.90106619972,0.156836629246,-0.002854709885,-0.0508009060572,-0.000900821044867,-0.0782332160788,-0.00124525033323,0.021310006373,-0.0180654667128,0.574070969414,0.818791067784,0.00211099391366,0.0,0.818748948699,-0.574010641824,-0.0119452491719,0.0,-0.00856909533476,0.00858596012585,-0.99992642324,0.0,0.659501843806,0.25797977995,0.303385015551,1.0,-0.00954,-0.0125382857143,0.478
0.463285798294,0.534702078806,-0.124033747954,-1.37627484926,0.0783644587325,1.90158682017,0.156659678789,-0.00593931738388,-0.054469076576,0.00058557333166,-0.0824528611632,-0.00864433039523,0.0259649827463,-0.00684512204973,0.574084559192,0.818781603933,0.0020858712299,0.0,0.818739261842,-0.574024437821,-0.011946246434,0.0,-0.0085841910284,0.00856610521321,-0.999926464049,0.0,0.65933345146,0.257752845295,0.303381118075,1.0,-0.00988,-0.0129851428571,0.495
0.463159036784,0.53379323924,-0.124047343014,-1.37775338531,0.0782830804491,1.9021347633,0.156485071851,-0.00618948120652,-0.0564872241878,-0.00114457724374,-0.0868148369229,-0.00613407249708,0.0359254568293,-0.0142823583028,0.574114176876,0.818760885425,0.00206671434736,0.0,0.818718268206,-0.574054105779,-0.0119594249076,0.0,-0.00860566915574,0.00855829695183,-0.999926346293,0.0,0.659163054829,0.257521812294,0.303366408262,1.0,-0.01022,-0.013432,0.512
0.463033350506,0.532916525733,-0.124040376643,-1.37916022552,0.0782110771799,1.90267839242,0.15629781696,-0.00408492307893,-0.0588339327825,-0.000123146665809,-0.0920289970756,-0.000605200093595,0.0370166350037,-0.0115854753394,0.574116673624,0.81875908813,0.00208508346926,0.0,0.818716569673,-0.574056385798,-0.0119662595566,0.0,-0.00860069387242,0.00857728665712,-0.999926226388,0.0,0.659001788065,0.25731275606,0.303361952145,1.0,-0.01054,-0.0138525714286,0.528
0.462899763425,0.531948014672,-0.124040377742,-1.38071162828,0.0781136885031,1.90324788338,0.156103639421,-0.00487347949899,-0.0600671028255,0.000932823823512,-0.0957949121508,-0.00592248839037,0.0292484820341,-0.0134614878816,0.574125561907,0.818752892141,0.00207067084978,0.0,0.818710188246,-0.574065335405,-0.0119735228719,0.0,-0.00861482198664,0.00856974986232,-0.999926169389,0.0,0.658819057269,0.257076185199,0.303355655446,1.0,-0.01088,-0.0142994285714,0.545
0.462761065211,0.530935696128,-0.12404353657,-1.3823370539,0.0780208884227,1.90382698456,0.155908463417,-0.00757458867573,-0.0612723959115,4.39548332691e-05,-0.0971933762599,-0.00996190177311,0.0345998099345,-0.00978762438544,0.574145043913,0.818739298809,0.00204353520693,0.0,0.818696149418,-0.57408483782,-0.0119983671541,0.0,-0.00865053868245,0.00856200228679,-0.999925927405,0.0,0.658623469868,0.256827622855,0.303345737107,1.0,-0.01122,-0.0147462857143,0.562
0.462627326284,0.529914322079,-0.124051812411,-1.38398379238,0.0779132122033,1.90441017471,0.155689024975,-0.00821378205512,-0.0546246814669,-0.000375682440909,-0.100043612149,-0.00271286784156,0.0326033611148,-0.0149948276797,0.57414111427,0.81874215945,0.002001035879,0.0,0.818698502559,-0.574081134967,-0.0120149608018,0.0,-0.00868856528589,0.00853669241816,-0.999925814106,0.0,0.65842420407,0.256574853613,0.303332323482,1.0,-0.01156,-0.0151931428571,0.579
0.462497114208,0.528905240325,-0.124053177622,-1.38554519679,0.077815650642,1.90500626584,0.15546865596,-0.00932462193759,-0.0645619670325,0.00136399734881,-0.0974844806473,-0.00246086669582,0.041065336479,-0.0134847946376,0.574126811447,0.818752103983,0.00203555944403,0.0,0.818708937105,-0.574066726846,-0.0119923448147,0.0,-0.00865037714796,0.00855182204815,-0.999926015921,0.0,0.658243669013,0.256340908171,0.303351519448,1.0,-0.01188,-0.0156137142857,0.595
0.462350944811,0.527729054121,-0.124053188271,-1.38737406932,0.0777123612477,1.9057109399,0.155223639686,-0.00906163602401,-0.0631312963283,-0.000947745305062,-0.102403393026,-0.00644045380109,0.033629870193,-0.0133609582847,0.574117301157,0.818758654699,0.00208249097575,0.0,0.818716047637,-0.574056969396,-0.0119739772023,0.0,-0.0086084947474,0.00857960144031,-0.999926139401,0.0,0.658030219516,0.256074144756,0.303370199368,1.0,-0.01224,-0.0160868571429,0.613
0.462214630592,0.526619737895,-0.124056248652,-1.38905942861,0.0775986029868,1.9063496714,0.154972021092,-0.00533810813921,-0.0692173391567,0.000711109035545,-0.110116513131,-0.000398907898162,0.0430373996621,-0.0158901956741,0.574085442998,0.818780873697,0.00212882750527,0.0,0.818738990758,-0.574025044177,-0.0119356847912,0.0,-0.00855087474956,0.00859522245865,-0.999926499645,0.0,0.657833681038,0.255822140493,0.30340414937,1.0,-0.01256,-0.0165074285714,0.629
0.462060813834,0.525450995124,-0.124058836527,-1.39089236197,0.0774828560245,1.90700836442,0.154736690708,-0.0104227834539,-0.0716561974331,-6.46848946792e-06,-0.110840187529,-0.00753637281387,0.0388758409963,-0.00783158427159,0.574087973492,0.818779119276,0.00212118612163,0.0,0.818737135582,-0.574027604477,-0.0119398081266,0.0,-0.00855861097398,0.00859135951086,-0.999926466656,0.0,0.65761200214,0.255543239928,0.303411128775,1.0,-0.0129,-0.0169542857143,0.646
0.461901792695,0.524272458332,-0.124064840232,-1.39275926856,0.0773712606302,1.90767845256,0.154491523125,-0.0102555761525,-0.0675148810882,4.31481404064e-06,-0.106547077502,-0.0092151060298,0.0393246321871,-0.0168525950729,0.574091878991,0.818776422425,0.00210510298021,0.0,0.818734182952,-0.574031529384,-0.0119535701942,0.0,-0.00857907112932,0.00858613265165,-0.999926336219,0.0,0.65738615831,0.255256501891,0.303409636589,1.0,-0.01324,-0.0174011428571,0.663
0.461751365815,0.523145843807,-0.124062741619,-1.39456347118,0.0772502933878,1.90835692272,0.15422916472,-0.00836862040322,-0.0693474050929,0.000905317908151,-0.11448803015,-0.00817797579207,0.0442814748656,-0.0208754885551,0.574062956937,0.818796717198,0.00209863765408,0.0,0.818754467412,-0.574002711607,-0.0119480568162,0.0,-0.00857857115794,0.00857737092128,-0.999926415705,0.0,0.657171259597,0.254985979107,0.303401641588,1.0,-0.01356,-0.0178217142857,0.679
0.461586102429,0.521904649937,-0.124070487123,-1.39652930583,0.0771364668722,1.90912396748,0.153975501139,-0.0115452328768,-0.0747164570745,-0.00141184716396,-0.114034314799,-0.00573192322805,0.0521246133036,-0.0107959410758,0.574070888725,0.818791066742,0.00213322369658,0.0,0.81874928099,-0.574010513889,-0.011928609516,0.0,-0.00854271055367,0.0085946083067,-0.999926574707,0.0,0.656944031112,0.254689450202,0.303404955328,1.0,-0.0139,-0.0182685714286,0.696
0.461409118685,0.520593942485,-0.124073848484,-1.39866781612,0.0769969619408,1.90991335998,0.153683689378,-0.00963708907419,-0.0690586860571,0.00015127604547,-0.118714557167,-0.00479434733697,0.0422706663684,-0.00782481932656,0.574055757682,0.818801780122,0.00209256823401,0.0,0.818759518877,-0.573995605872,-0.0119432654407,0.0,-0.00857820718907,0.00856957544313,-0.999926485667,0.0,0.656685022291,0.254365659949,0.303376356042,1.0,-0.01426,-0.0187417142857,0.714
0.461255981814,0.519424932527,-0.12408087289,-1.40049139252,0.0768822632974,1.91056186321,0.153446208168,-0.0133586725915,-0.0806451191022,0.000610608636137,-0.120916036363,-0.00292333795793,0.0427485243456,-0.0141628347834,0.57405756928,0.818800530861,0.00208439827769,0.0,0.818758164485,-0.573997452287,-0.0119473745583,0.0,-0.00858624264158,0.008565263814,-0.999926453642,0.0,0.656461240324,0.254085427733,0.303385646697,1.0,-0.01456,-0.019136,0.729
0.461081489226,0.518076847253,-0.124086156148,-1.40259004088,0.0767488706964,1.91131372965,0.153159895603,-0.0146504141496,-0.0808055310518,-0.000970553154462,-0.123737724651,-0.00325784896315,0.0468072784662,-0.0178737848474,0.574043644052,0.818810273022,0.00209246686192,0.0,0.818768011942,-0.573983495658,-0.0119430412612,0.0,-0.00857820858898,0.00856923684361,-0.999926488557,0.0,0.656187585158,0.253750181878,0.30340597213,1.0,-0.01492,-0.0196091428571,0.747
0.460888952899,0.516639677743,-0.124093149293,-1.40485194605,0.0766029464814,1.91214161155,0.152842822983,-0.00594999084605,-0.0728956300942,-0.00286664107048,-0.124830725006,-0.0124591975104,0.0482785158306,-0.023609930603,0.574028141433,0.818821177265,0.00207831813182,0.0,0.818778791073,-0.573968112469,-0.0119433688425,0.0,-0.00858676032267,0.00855767738838,-0.999926514152,0.0,0.655928786326,0.253418586109,0.303401908601,1.0,-0.01526,-0.020056,0.764
0.460717458377,0.515332248005,-0.124096798354,-1.40690781578,0.0764764862442,1.91291735967,0.152574945872,-0.0134370520639,-0.0808686663801,-0.000553030943763,-0.1323410143,-0.00875841660314,0.0477599145037,-0.0217075916771,0.574026272822,0.81882243537,0.00209865331713,0.0,0.818780328609,-0.573966174841,-0.0119310737857,0.0,-0.00856503978056,0.00856725081471,-0.999926618461,0.0,0.655681481409,0.253109364383,0.303407582534,1.0,-0.01554,-0.020424,0.78
0.460528041414,0.51384720269,-0.124101061531,-1.40928263956,0.0763375021064,1.9137617177,0.152237237417,-0.00685644753282,-0.0861186133666,-0.000991335265455,-0.134619225683,-0.00733009991173,0.04468134707,-0.0114089727938,0.57399518606,0.818844319137,0.00206259498406,0.0,0.818801609851,-0.573935108837,-0.0119650094222,0.0,-0.00861385016046,0.00855687864937,-0.99992628799,0.0,0.655381312115,0.252755246845,0.303391533643,1.0,-0.01594,-0.0209497142857,0.798
0.460352691042,0.512529281068,-0.124103567667,-1.41142167183,0.0762081376762,1.91451859225,0.151934041875,-0.00955189696715,-0.0833243133073,-0.000428823594148,-0.129781609452,-0.00529721236229,0.0523868833988,-0.0194261502276,0.573969414869,0.818862519456,0.00200796546684,0.0,0.818818998107,-0.573909471989,-0.0120047158101,0.0,-0.00867798851098,0.00853466429975,-0.999925923267,0.0,0.655109983658,0.252432852726,0.30336253225,1.0,-0.01626,-0.0213702857143,0.814
0.460160362796,0.511165283788,-0.124101087649,-1.41359007308,0.0760768675066,1.91533762677,0.151631628935,-0.0111296634685,-0.0841597199593,0.00135067538264,-0.138295829669,-0.0067669327564,0.058295564608,-0.0188648239217,0.573955624239,0.81887215606,0.0020199840758,0.0,0.818828749915,-0.573895591215,-0.0120031494983,0.0,-0.00866995187719,0.00854346068685,-0.999925917863,0.0,0.654847769158,0.252103280485,0.303356622425,1.0,-0.01658,-0.0217908571429,0.83
0.459950947843,0.509675814092,-0.124106562499,-1.41594209424,0.0759289096176,1.91622510628,0.151305356053,-0.0114067641535,-0.0911579870367,0.000558307099198,-0.146560200666,-0.00193458381826,0.053922314974,-0.0166880787468,0.573942978062,0.818880998621,0.00202852965796,0.0,0.818837748269,-0.573882954221,-0.0119934884644,0.0,-0.00865726789704,0.00854477965749,-0.99992601649,0.0,0.654546368633,0.251717692671,0.303352492686,1.0,-0.01694,-0.022264,0.848
0.459731267116,0.508077646021,-0.124116233533,-1.41846444571,0.0757666389295,1.91711125055,0.1509602097,-0.0129142883534,-0.0960367047305,-0.000812952056163,-0.143179533475,-0.00837389807476,0.0496940390974,-0.0155978582594,0.573937596011,0.818884844939,0.00199837816095,0.0,0.818841198321,-0.573877697644,-0.0120094537902,0.0,-0.00868770231192,0.00852919561918,-0.999925885579,0.0,0.654247097596,0.251346075654,0.303351572768,1.0,-0.01728,-0.0227108571429,0.865
0.459527803713,0.506642709159,-0.124119908626,-1.42073055472,0.0756249442568,1.91794131716,0.150637659547,-0.0180530564223,-0.0854278306926,0.000337742807574,-0.140819638501,-0.00993268434047,0.0520728299588,-0.0233463729967,0.573921708507,0.818895988773,0.00199473740957,0.0,0.81885227941,-0.573861812663,-0.0120129668382,0.0,-0.00869283409543,0.0085280619183,-0.999925850649,0.0,0.653967623641,0.250994299861,0.303348506248,1.0,-0.0176,-0.0231314285714,0.881
0.459310910659,0.505034140527,-0.124123461581,-1.42318617197,0.0754686208403,1.9188916235,0.150311268082,-0.0137443725418,-0.0961295355343,0.00214330277685,-0.146925941702,-0.00779954143186,0.0551658176771,-0.0258289657791,0.573919234259,0.818897518011,0.00207712387761,0.0,0.818854977486,-0.573859085611,-0.0119592060816,0.0,-0.0086015533751,0.00856464651874,-0.999926327341,0.0,0.653674519036,0.250619425283,0.303386433856,1.0,-0.01794,-0.0235782857143,0.898
0.459069163326,0.503275220488,-0.124137660727,-1.42581493674,0.0753039894931,1.91989557529,0.149940327652,-0.0160079022829,-0.0998473860277,-0.00101273466508,-0.149791563362,-0.00888404263226,0.0546948727338,-0.0230938167086,0.573914342526,0.818900661931,0.00218637457948,0.0,0.818859653797,-0.573853858586,-0.0118896287096,0.0,-0.00848192863506,0.00861412822363,-0.999926924171,0.0,0.65336248197,0.250205914234,0.30345127418,1.0,-0.0183,-0.0240514285714,0.916
0.458854297547,0.501680408664,-0.124138722143,-1.42817582243,0.0751504311906,1.92076303971,0.149602112623,-0.0130828716241,-0.102174651985,-0.000170205160246,-0.152591961501,-0.00190644980917,0.0533274741109,-0.0215193234329,0.573893246065,0.818915219351,0.00226992030764,0.0,0.81887534199,-0.573832478713,-0.011840927169,0.0,-0.00839432309,0.00865437652118,-0.999927315912,0.0,0.653071872664,0.249839968006,0.303516083128,1.0,-0.01862,-0.024472,0.932
0.458636552431,0.500061051823,-0.12414071673,-1.43063491684,0.0749916525503,1.92162303529,0.149266957259,-0.00940757294711,-0.100730000889,9.45086922816e-05,-0.160572806903,-0.0145120062244,0.0541172672615,-0.0251906264475,0.573880651308,0.818924002134,0.00228553795343,0.0,0.818884293482,-0.573819789076,-0.0118368262047,0.0,-0.00838213556383,0.00866468348598,-0.999927328891,0.0,0.652756939786,0.249459091705,0.303550125367,1.0,-0.01894,-0.0248925714286,0.948
0.458389488954,0.498400927119,-0.124138651174,-1.43326426012,0.0748332009272,1.92260225014,0.148890294015,-0.0114379526011,-0.0907436396576,8.58611237889e-05,-0.15911806293,-0.0122738230229,0.0565711044792,-0.0283351974812,0.573864138089,0.818935546909,0.00229519620697,0.0,0.818895879748,-0.573803153275,-0.011841719646,0.0,-0.00838077568957,0.00867523198031,-0.999927248828,0.0,0.652431109461,0.249049934532,0.303541325623,1.0,-0.01928,-0.0253394285714,0.965
0.458124870715,0.496713661225,-0.124138756493,-1.43594111778,0.0746673608051,1.92355170353,0.148490174284,-0.019562024289,-0.0966555210417,-0.00031679428346,-0.155911486398,-0.00551984730826,0.0549379328605,-0.0182749414259,0.573843865733,0.818949845621,0.00226164064965,0.0,0.818909630681,-0.573782900424,-0.0118721042697,0.0,-0.00842512943708,0.0086649803454,-0.999926964988,0.0,0.652092564077,0.24861979504,0.303525673472,1.0,-0.01962,-0.0257862857143,0.982
0.45786480352,0.49503327431,-0.124133742269,-1.43865927121,0.0744967723429,1.92449550579,0.148093811277,-0.0185674142043,-0.0987624735723,0.001271928867,-0.160323750381,-0.0148920565431,0.0573869260247,-0.0224783865908,0.573819406992,0.818967198607,0.00218235364597,0.0,0.818925791957,-0.573758600028,-0.0119315993134,0.0,-0.00851960832081,0.00863393516036,-0.999926433013,0.0,0.651739389507,0.248189682773,0.303484341735,1.0,-0.01996,-0.0262331428571,0.999
0.457586297891,0.493255793164,-0.124152279239,-1.44150136846,0.0743208553596,1.92552799295,0.147706766941,-0.0164446885944,-0.110396091109,-0.00140045083141,-0.177961997491,-0.00978425634513,0.0673217194767,-0.0279404973007,0.573842855773,0.818950849944,0.00215154733107,0.0,0.818909068139,-0.573782198139,-0.0119446271803,0.0,-0.00854770759444,0.00861642648517,-0.999926344232,0.0,0.651363886872,0.247693510221,0.303459389275,1.0,-0.0229422857143,-0.0301527183673,1.017
0.457287581454,0.491208954175,-0.124175260311,-1.44474020222,0.0741282603829,1.92672653965,0.147240129408,-0.0228441933473,-0.123477899593,-0.000654230919029,-0.200302192601,-0.00527731929,0.07251829715,-0.0343081618225,0.573828533267,0.818960880799,0.00215337659253,0.0,0.818919057379,-0.573767803949,-0.0119512139541,0.0,-0.00855220320428,0.00862155469501,-0.999926261589,0.0,0.650980281029,0.247210842971,0.303446702369,1.0,-0.0259045714286,-0.0340460081633,1.033
0.45695363655,0.489071367614,-0.124184411343,-1.44818768062,0.0739286355441,1.92793806083,0.14674876255,-0.019794467437,-0.135026019932,0.00161478221636,-0.218542315272,-0.0137191608575,0.0719105282111,-0.0310415866148,0.573824001991,0.818964255198,0.0020761377508,0.0,0.818921154541,-0.573763325113,-0.0120223251627,0.0,-0.00865480950522,0.00859905742046,-0.999925572472,0.0,0.650533485113,0.24665785848,0.303397661968,1.0,-0.0288668571429,-0.0379392979592,1.049
0.456537342411,0.486472975956,-0.124213668296,-1.45222620968,0.0736781961132,1.92948565817,0.14615836801,-0.0261169527444,-0.15292690945,-0.00300309680021,-0.243964577253,-0.0167033684037,0.0973844241417,-0.0401042840948,0.573835349251,0.818956091746,0.00215838907335,0.0,0.818914202571,-0.573774466278,-0.0119640117231,0.0,-0.00855973654526,0.00863307452587,-0.999926097736,0.0,0.650046863839,0.245990205372,0.303415848757,1.0,-0.0320142857143,-0.0420759183673,1.066
0.456107526067,0.483795459056,-0.124242419253,-1.45633876155,0.0734227536657,1.93096709155,0.145516648295,-0.0249519701572,-0.163706948003,-0.000147149191576,-0.265971149636,-0.0180958743622,0.0932348022665,-0.0357949059309,0.57381579139,0.818969699154,0.00219461163031,0.0,0.81892827204,-0.573754752208,-0.0119464000472,0.0,-0.00852473492802,0.0086524290936,-0.999926229462,0.0,0.64953147126,0.24530160195,0.3034462892,1.0,-0.0349765714286,-0.0459692081633,1.082
0.455571750549,0.480491069407,-0.124305703637,-1.46151386692,0.0731124618253,1.93277425408,0.14474582645,-0.0298547144903,-0.187534784001,-0.000350606106771,-0.296425974392,-0.0128897427492,0.107489321161,-0.0385040537988,0.573838063655,0.818954244016,0.00213771137908,0.0,0.818911971156,-0.573777151118,-0.0119879628486,0.0,-0.00859118851397,0.00862991297998,-0.999925855292,0.0,0.648869699581,0.24442018651,0.303433305947,1.0,-0.0383091428571,-0.0503491591837,1.1
0.455012784181,0.477080335139,-0.124342810392,-1.46673779392,0.0727839496275,1.93467067749,0.143993745665,-0.0378760147496,-0.20211978926,-0.000529877202083,-0.313034634048,-0.0151261242232,0.110427984629,-0.0460681366947,0.573871237139,0.818930829039,0.00220166641214,0.0,0.81888942868,-0.573810095962,-0.0119509108279,0.0,-0.00852379500628,0.00866137209036,-0.99992616005,0.0,0.648212581284,0.243538327806,0.303474870537,1.0,-0.0414565714286,-0.0544857795918,1.117
0.454429566901,0.473644941681,-0.124379423062,-1.47199831165,0.0724619252373,1.93661017499,0.143231579964,-0.039212591681,-0.215611116955,-0.00453980475603,-0.339487974466,-0.0191096248903,0.119422589563,-0.0452809497184,0.573910032981,0.818903374426,0.00229876013299,0.0,0.818863215551,-0.573848471701,-0.0119043120531,0.0,-0.00842950361546,0.00871454201923,-0.999926497412,0.0,0.647598385802,0.24270085162,0.303516722274,1.0,-0.0442337142857,-0.0581357387755,1.132
0.453781486768,0.469754529312,-0.124396136113,-1.47793698086,0.0721004825849,1.93872620199,0.142328106401,-0.0373085299448,-0.241334322882,-0.0023537874234,-0.35719683289,-0.0209823327764,0.137664612309,-0.0489506228776,0.573906142462,0.818905920685,0.00236212039804,0.0,0.818866353956,-0.573844088776,-0.0118997073922,0.0,-0.00838941353273,0.00876374481309,-0.999926404551,0.0,0.64678690518,0.241646890355,0.303562628871,1.0,-0.0475662857143,-0.0625156897959,1.15
0.453092770917,0.46559203576,-0.124409771934,-1.48420019301,0.0716896045819,1.94106025378,0.14130616241,-0.0412757730502,-0.249631625923,-0.00106113937056,-0.379240617868,-0.0184201467674,0.139170315346,-0.0613130739714,0.573827625026,0.818960374038,0.00255135547695,0.0,0.818923410159,-0.573765007402,-0.0117860712524,0.0,-0.00818860448323,0.00885270844495,-0.999927285511,0.0,0.645992741,0.240600597963,0.303656340853,1.0,-0.0507137142857,-0.0666523102041,1.167
0.452381410242,0.461488086876,-0.124414637191,-1.49058735729,0.071271498262,1.94323915984,0.140355723662,-0.0439970892964,-0.258171529182,0.000271034466922,-0.405418511039,-0.0287792000832,0.139766383551,-0.052631232679,0.573819649008,0.818966235919,0.00246205976436,0.0,0.81892783074,-0.573757069957,-0.0118650585862,0.0,-0.00830461806243,0.00882482292053,-0.999926575214,0.0,0.645131677623,0.239519570819,0.303633388696,1.0,-0.053676,-0.0705456,1.183
0.451541033632,0.456652591588,-0.124430679791,-1.49809337405,0.0707582151903,1.94587520898,0.139218460491,-0.0519729362169,-0.271763141174,-0.000809625461784,-0.424179651553,-0.0285644675484,0.159674048603,-0.0651170841896,0.573794648725,0.81898389177,0.00241516421894,0.0,0.818944882574,-0.573732261535,-0.0118877365599,0.0,-0.00835036789334,0.00879917541261,-0.999926420227,0.0,0.644130439635,0.238243399309,0.303616845153,1.0,-0.0570085714286,-0.0749255510204,1.201
0.450726266657,0.452105305864,-0.124454792231,-1.50503123791,0.0702816696018,1.94839043635,0.138100980322,-0.0514192563256,-0.284547032411,-0.00227454254299,-0.43140215339,-0.031257104438,0.165581552172,-0.0671834049853,0.573751057758,0.819014173057,0.00250099063672,0.0,0.818976481214,-0.573688559651,-0.0118197565708,0.0,-0.00824591719694,0.00883002035139,-0.999927015132,0.0,0.643225114039,0.237041120449,0.303656849829,1.0,-0.0599708571429,-0.0788188408163,1.217
0.449866844937,0.447295301026,-0.124512495752,-1.51225109769,0.0697963035044,1.9510374685,0.137017146288,-0.0556095498829,-0.307249883626,-0.00577978689598,-0.465949716353,-0.031614936332,0.154327371164,-0.0720752497166,0.57380330887,0.818976998452,0.00268060388819,0.0,0.818941956408,-0.573740493233,-0.0116903960358,0.0,-0.00803634918375,0.00890341833828,-0.99992807053,0.0,0.642291150041,0.235769434448,0.303749831045,1.0,-0.0629331428571,-0.0827121306122,1.233
0.448845269275,0.441713379746,-0.124532538519,-1.52092750639,0.0692070148493,1.95393408429,0.135680954739,-0.0589049299914,-0.316753816726,-0.000255665834581,-0.486252693131,-0.0275056601989,0.162608780338,-0.0728873987579,0.57378450443,0.818990728517,0.00250519063485,0.0,0.818953074054,-0.573721967727,-0.0118200315819,0.0,-0.00824337208626,0.00883395461609,-0.999927001367,0.0,0.641080907935,0.234258255112,0.303693242846,1.0,-0.0662657142857,-0.0870920816326,1.251
0.44780807137,0.436235486865,-0.124552432438,-1.52938066013,0.068639607385,1.95688544697,0.13431032632,-0.0636901632368,-0.331535478284,-7.63767442647e-05,-0.499798366126,-0.0365517088287,0.193346085494,-0.082031192321,0.573741715354,0.819020788819,0.00247758879893,0.0,0.818982589928,-0.573679091066,-0.0118560014299,0.0,-0.00828913034459,0.00883155472374,-0.999926644289,0.0,0.639925463451,0.232771183013,0.303669105814,1.0,-0.0694131428571,-0.0912287020408,1.268
0.446756586479,0.430823359656,-0.124584377657,-1.53745090605,0.0680819505071,1.95985966718,0.132996186786,-0.0695887507555,-0.333329365933,-0.00407444371924,-0.514686181851,-0.0412830176402,0.179290964348,-0.0801301327025,0.573746570219,0.819016604773,0.00272418241044,0.0,0.818981937982,-0.5736833971,-0.011691537651,0.0,-0.00801289952514,0.00893920792524,-0.999927939405,0.0,0.638864494334,0.231316804602,0.303776624007,1.0,-0.0723754285714,-0.0951219918367,1.284
0.445573637773,0.424933640092,-0.124655917985,-1.54659470534,0.0674189889718,1.96286257798,0.131496837021,-0.0722920363407,-0.346713151237,-0.00596715904606,-0.542101542549,-0.0389514814151,0.170299499399,-0.0920857290866,0.573745302343,0.8190182754,0.00247780175765,0.0,0.818980426189,-0.573683046669,-0.0118139910794,0.0,-0.00825456066396,0.00880766259802,-0.999927141,0.0,0.637575008089,0.229625618971,0.303695446715,1.0,-0.0755228571429,-0.0992586122449,1.301
0.444322480095,0.418766631506,-0.124746089946,-1.55600465723,0.0667453061688,1.96601451578,0.130001664698,-0.0758297708792,-0.364540513227,-0.000367103231674,-0.549399491589,-0.0466053091827,0.19673642539,-0.0874198500403,0.573819370068,0.818966708055,0.0023682341606,0.0,0.818927563141,-0.573757661399,-0.0118549236806,0.0,-0.00835015609366,0.00874216538244,-0.999926922049,0.0,0.636258116907,0.227864051925,0.303680228542,1.0,-0.0786702857143,-0.103395232653,1.318
0.443072441802,0.41271788305,-0.124766896189,-1.56494787068,0.0661377018858,1.96929457323,0.128499177559,-0.0832516559822,-0.379827828778,-0.00109195438997,-0.558805534118,-0.0442558431979,0.204749999548,-0.0955425247611,0.573830033207,0.818958254751,0.00268642263196,0.0,0.818923370865,-0.573767285358,-0.0116774058088,0.0,-0.00802208091027,0.00890099181205,-0.999928206704,0.0,0.635052284731,0.226218109383,0.30380604105,1.0,-0.0816325714286,-0.107288522449,1.334
0.441684609181,0.406189951467,-0.124806496347,-1.57492284451,0.0654354900675,1.97258803631,0.126849002712,-0.081985746479,-0.394786909101,-0.00254406019938,-0.594239928748,-0.0415097805704,0.197928928587,-0.0990712337075,0.573852908031,0.818942673376,0.00254648189418,0.0,0.818905639559,-0.573790298141,-0.0117895783982,0.0,-0.00819400000605,0.00885098264132,-0.999927256589,0.0,0.633613968371,0.224351836923,0.303758206812,1.0,-0.08478,-0.111425142857,1.351
0.440131925773,0.399025457637,-0.124904253952,-1.58566174286,0.0646749873866,1.97631297173,0.125030015757,-0.0901508567317,-0.407025142261,-0.00319742585382,-0.597111379837,-0.0422303396624,0.221246530783,-0.102155530957,0.573923019235,0.818893225585,0.00264574829427,0.0,0.818857685171,-0.573860261176,-0.0117149042047,0.0,-0.0080751213556,0.0088901156773,-0.999927876528,0.0,0.632109793839,0.222290257677,0.303803204755,1.0,-0.0881125714286,-0.115805093878,1.369
0.438685027993,0.392473211166,-0.1249238396,-1.59548628185,0.0639169954154,1.9796912605,0.123353940864,-0.0847957017466,-0.407184262889,-0.00259170515576,-0.625801182983,-0.0444353274618,0.208912292683,-0.105255452342,0.573917770741,0.818896753406,0.00269194925504,0.0,0.818862164316,-0.573855240313,-0.0116475713153,0.0,-0.0079935230486,0.00888925470274,-0.999928539817,0.0,0.630703199636,0.22042270046,0.303827262844,1.0,-0.0910748571428,-0.119698383673,1.385
0.437188432045,0.385788383747,-0.124964862781,-1.60572722635,0.0631518424766,1.98294065589,0.121564474622,-0.0913183636928,-0.420847042429,-0.00493410349337,-0.644178062883,-0.0476363324455,0.203165071333,-0.121396106425,0.573882177008,0.818922569343,0.00241230896496,0.0,0.81888400665,-0.573820299768,-0.0118319113877,0.0,-0.00830534732415,0.00876569306262,-0.999927089257,0.0,0.629159937113,0.21846194196,0.303721819715,1.0,-0.0940371428571,-0.123591673469,1.401
0.435428618015,0.37795014979,-0.124995484649,-1.6171961264,0.0623379993435,1.98688991152,0.119518183812,-0.104701597442,-0.432937704837,0.000430314128168,-0.640256141015,-0.0411626489154,0.216785508527,-0.109082080409,0.57387029719,0.81893006752,0.00267832340332,0.0,0.818894837035,-0.573807305161,-0.0117119307306,0.0,-0.00805456576496,0.00891456600897,-0.999927824637,0.0,0.62749389,0.216258882782,0.303849614608,1.0,-0.0973697142857,-0.12797162449,1.419
0.433746023497,0.370901216653,-0.12503796781,-1.62782695179,0.0615086004948,1.99037219457,0.1176227585,-0.105297459905,-0.436702853184,-0.00176558195873,-0.664439644417,-0.0582790845349,0.213293003608,-0.114205013318,0.573877912477,0.818925126171,0.00255464264341,0.0,0.818888371696,-0.573815456631,-0.0117644946154,0.0,-0.00816850407131,0.00884352103094,-0.999927531213,0.0,0.625903492282,0.214158298524,0.30379651103,1.0,-0.100332,-0.131864914286,1.435
0.431919880433,0.363143242833,-0.125146465214,-1.63922016027,0.0606187607482,1.99409602467,0.115617913637,-0.110216364021,-0.467603918409,-0.00298806333848,-0.665462423696,-0.0546132686379,0.228134257033,-0.132783145818,0.573963540194,0.818865027817,0.00258217877274,0.0,0.818828979462,-0.573901352032,-0.011708434145,0.0,-0.00810586742603,0.00883474721753,-0.999928118494,0.0,0.624197128166,0.211864916782,0.303860094182,1.0,-0.103479428571,-0.136001534694,1.452
0.430000897175,0.355279150518,-0.125165286041,-1.65091822909,0.0597530800429,1.99791689326,0.113400491333,-0.118277374472,-0.468672346553,-0.000956660696133,-0.689314825457,-0.0509895349365,0.22558995091,-0.124958869238,0.573892187716,0.818915077545,0.00256895857818,0.0,0.818878398997,-0.573829558085,-0.011770846391,0.0,-0.00816533642743,0.00885903203801,-0.999927419782,0.0,0.622405176218,0.209551879024,0.303840800042,1.0,-0.106626857143,-0.140138155102,1.469
0.427953522806,0.347204815247,-0.12522746699,-1.6628427201,0.0588553606255,2.00174050118,0.111183575564,-0.118279014163,-0.48134623665,-0.00505133102136,-0.686757162432,-0.0532345683711,0.228541864955,-0.141243487462,0.573945496621,0.818877818311,0.0025362351819,0.0,0.818840363266,-0.573882602594,-0.0118306731525,0.0,-0.00823253307508,0.00886710403479,-0.999926797253,0.0,0.620567770808,0.207115370796,0.30383760236,1.0,-0.109774285714,-0.14427477551,1.486
0.425876310152,0.338932578143,-0.125251234807,-1.67483196307,0.0578973540499,2.00574736449,0.108936526058,-0.123959686099,-0.479317720443,-0.00101618072758,-0.726555529974,-0.0644808150874,0.228494669801,-0.13900108158,0.57393943238,0.818881406945,0.00274157251928,0.0,0.818846940286,-0.573876145053,-0.0116878323449,0.0,-0.00799777950804,0.00895320850779,-0.999927935194,0.0,0.618729077602,0.204690033211,0.303930581089,1.0,-0.112921714286,-0.148411395918,1.503
0.423715557177,0.330540842656,-0.12525336129,-1.68726251197,0.0568788334442,2.00958549057,0.106549072707,-0.128417086446,-0.501277619206,0.000249291853504,-0.729829245392,-0.0623484621161,0.23207155931,-0.141722612399,0.573851040395,0.818943996376,0.00254187674142,0.0,0.818906630051,-0.573788153767,-0.0118250901307,0.0,-0.00822574617765,0.00886757071878,-0.999926848969,0.0,0.616723496563,0.202170966661,0.303860962189,1.0,-0.116069142857,-0.152548016327,1.52
0.421589870108,0.322451950717,-0.125256985938,-1.69893898226,0.0559233525472,2.01342469825,0.104227838963,-0.13651694161,-0.505009949271,-0.00161047964839,-0.736121400724,-0.0583364024251,0.23855791293,-0.144265297634,0.573772871898,0.818998200263,0.00271778234152,0.0,0.818963357836,-0.573709614735,-0.0117065530461,0.0,-0.00802858259103,0.00894283889091,-0.999927781139,0.0,0.614885905203,0.199771163225,0.303932082249,1.0,-0.119031428571,-0.156441306122,1.536
0.419221060143,0.313725513753,-0.125289151459,-1.71170482865,0.0549125199531,2.01734869562,0.101718786158,-0.145103399771,-0.506630876482,-0.00463356984373,-0.76637475101,-0.0575807869495,0.229872512996,-0.149401982267,0.573766889701,0.819002727602,0.00261445304908,0.0,0.81896595923,-0.573703366357,-0.011830129112,0.0,-0.00818914516155,0.00892905634653,-0.999926602234,0.0,0.612801902727,0.197103396307,0.303892336284,1.0,-0.122178857143,-0.160577926531,1.553
0.416599585311,0.304234888589,-0.125375817617,-1.72523886516,0.0537366102609,2.0216802145,0.0988979312753,-0.152916739824,-0.525153648436,-0.00385023602276,-0.74810415899,-0.0592131861949,0.235041758959,-0.161317243583,0.573707973874,0.819043449218,0.0027813500497,0.0,0.819009632457,-0.573644729088,-0.0116487610036,0.0,-0.00794548757101,0.00896111208464,-0.999928281277,0.0,0.610635833947,0.194188527368,0.303996699592,1.0,-0.125511428571,-0.164957877551,1.571
0.414283858857,0.296293376378,-0.125423596513,-1.73692810916,0.0528020274248,2.02510296187,0.0965809439098,-0.164343639437,-0.52716552437,-0.00534833776249,-0.774383780103,-0.0627617753162,0.220293097645,-0.156257997376,0.573791327915,0.818985924575,0.00251281900064,0.0,0.818947715324,-0.573728060722,-0.0118953270934,0.0,-0.00830059049764,0.00888347394292,-0.999926089313,0.0,0.60866681417,0.191659231056,0.303877543477,1.0,-0.128288571429,-0.168607836735,1.586
0.411580587432,0.286967004077,-0.125537063236,-1.74998007161,0.0517229714432,2.02927168226,0.0937946287661,-0.16089594294,-0.543427998973,-0.00384044758321,-0.778450743811,-0.0661172188541,0.235367399155,-0.166484575299,0.573839222257,0.818951261833,0.00285037605502,0.0,0.818917847382,-0.573775164586,-0.0116776129371,0.0,-0.00792807349994,0.00903547010966,-0.999927750355,0.0,0.606554958921,0.188762195518,0.304046147068,1.0,-0.131436,-0.172744457143,1.603
0.40861985383,0.277101858723,-0.125590658507,-1.76429980602,0.0504904195633,2.03343654587,0.090745458985,-0.171162594752,-0.559572507957,-0.00492833205164,-0.79656009393,-0.0677609479222,0.234350161445,-0.17197912875,0.573802058212,0.818978197436,0.00258011970549,0.0,0.818940704815,-0.573738358788,-0.0118812690046,0.0,-0.00825034547201,0.00893063360147,-0.99992608506,0.0,0.60409487066,0.185613414206,0.303936681641,1.0,-0.134768571429,-0.177124408163,1.621
0.405841613708,0.268064428784,-0.125679046842,-1.77690580966,0.0493765872892,2.03739189281,0.0879741200371,-0.174613704873,-0.563509746627,-0.0144715688003,-0.78648442775,-0.0659696818742,0.246051221656,-0.167902952368,0.573846707983,0.818946025567,0.002847779035,0.0,0.818912669303,-0.573782762966,-0.0116673852617,0.0,-0.00792110477165,0.0090275467626,-0.999927877148,0.0,0.602004875914,0.182745823959,0.304065444318,1.0,-0.137730857143,-0.181017697959,1.637
0.402780896989,0.258461060675,-0.125828021121,-1.79068513891,0.048171055191,2.04138182266,0.0849678438539,-0.181100463738,-0.565574132938,-0.0116786417288,-0.793312004271,-0.0741180554679,0.232526601743,-0.171914331135,0.573962658293,0.818865414372,0.00265460584847,0.0,0.818829297259,-0.573899102,-0.0117961678471,0.0,-0.00813615460568,0.00894440110401,-0.999926897667,0.0,0.599622248875,0.179565781252,0.303981628748,1.0,-0.140878285714,-0.185154318367,1.654
0.399626431418,0.248585994304,-0.125899476372,-1.80442211803,0.0468958293893,2.04546992278,0.0818637740796,-0.184534003184,-0.577851298003,-0.00170695174948,-0.830226118892,-0.0819521731205,0.227836409467,-0.187647951136,0.573969854489,0.81885996348,0.00277727367334,0.0,0.818825975657,-0.573906456808,-0.0116682186072,0.0,-0.00796089504102,0.00897148229018,-0.999928065741,0.0,0.597247701623,0.176398201121,0.304067861991,1.0,-0.144025714286,-0.189290938775,1.671
0.396555568556,0.239236797452,-0.125902199617,-1.81762047907,0.0457591013187,2.04924763166,0.0787804754052,-0.198140881259,-0.584341851299,-0.000172958057938,-0.800212595366,-0.074728959972,0.233842522227,-0.190388091542,0.573891755677,0.818914867136,0.00272764560327,0.0,0.818879407482,-0.573827618081,-0.0117952376019,0.0,-0.00809425289359,0.00900297576661,-0.999926712063,0.0,0.594889258769,0.1733924739,0.30402623875,1.0,-0.146988,-0.193184228571,1.687
0.393024788953,0.22847104397,-0.125914919177,-1.83238063708,0.0444003615304,2.05361486402,0.0753419727974,-0.198989770749,-0.585884113988,0.00462869321085,-0.816021769047,-0.081073709075,0.225647669264,-0.204877910746,0.573847231794,0.818945129704,0.0029959970567,0.0,0.818913463896,-0.573782520238,-0.0116234685506,0.0,-0.00780008239375,0.00912373323928,-0.999927955508,0.0,0.592270301326,0.169990210098,0.304153880156,1.0,-0.150320571429,-0.197564179592,1.705
0.389712286742,0.218818622655,-0.125941740805,-1.84586452706,0.0431166063401,2.05729192266,0.0720716048934,-0.20943071568,-0.620118730501,-0.00418360187887,-0.848319655471,-0.0788375546517,0.24364017541,-0.207482877159,0.573749037896,0.819014517624,0.00282990042851,0.0,0.818980399014,-0.573684565351,-0.011741908294,0.0,-0.00799347705931,0.00905471590022,-0.999927055562,0.0,0.589790254945,0.16682066344,0.304104416519,1.0,-0.153282857143,-0.201457469388,1.721
0.386050257812,0.208392829284,-0.126060325009,-1.86009430946,0.0418343258324,2.0613427474,0.0685806409412,-0.219470308715,-0.614017348778,-0.0110206804906,-0.854128942653,-0.0767968169764,0.235749686409,-0.202598536936,0.57383198827,0.81895571612,0.00302178325561,0.0,0.818923960929,-0.573766696451,-0.0116649544268,0.0,-0.00781943305848,0.00916851122683,-0.999927394799,0.0,0.587214699185,0.163371719334,0.30418558043,1.0,-0.156430285714,-0.205594089796,1.738
0.382281968943,0.197850507022,-0.1261415805,-1.87456217088,0.0404332747291,2.06519426152,0.0649127864293,-0.227640455567,-0.632398838547,-0.00707912302227,-0.859882909316,-0.0770014562518,0.239586977961,-0.217344880382,0.573766564998,0.819001913218,0.00292265919099,0.0,0.818968634957,-0.57370134757,-0.0117424721915,0.0,-0.00794052655414,0.0091311799455,-0.999926782115,0.0,0.584501937867,0.159861504244,0.304178128449,1.0,-0.159577714286,-0.209730710204,1.755
0.378291203764,0.187181629645,-0.126275922664,-1.889148876,0.039068290882,2.06917017283,0.0611592040066,-0.239838787745,-0.629224913374,-0.00833860422327,-0.850863124937,-0.0751706920888,0.227809643445,-0.227424102201,0.573853949397,0.818940572304,0.00295477539378,0.0,0.818907388936,-0.573788235929,-0.0117684135411,0.0,-0.00794236887492,0.00917321460413,-0.999926382745,0.0,0.581780841038,0.156221296867,0.30417180656,1.0,-0.162725142857,-0.213867330612,1.772
0.374371327981,0.176973601924,-0.126430485696,-1.90285393637,0.037745011594,2.07281972309,0.0575466512042,-0.245260394507,-0.645730670325,-0.0109913181356,-0.840580774398,-0.0847416419905,0.238427978698,-0.224921144311,0.573993381225,0.818842483816,0.00305481745392,0.0,0.818810579894,-0.573927277545,-0.0117243867519,0.0,-0.00784733398994,0.00923121497493,-0.999926599316,0.0,0.579203134191,0.152706299525,0.304238865612,1.0,-0.165687428571,-0.217760620408,1.788
0.370176842742,0.166127854763,-0.126466192232,-1.91769109932,0.0362032757703,2.07662079786,0.0535948259593,-0.245765559123,-0.642322657864,-0.00738511039336,-0.873836446418,-0.0875302325074,0.218677200132,-0.233549348283,0.573900987618,0.818908027202,0.002836599366,0.0,0.818873148586,-0.573835512548,-0.0118455883805,0.0,-0.00807286138822,0.00912118553568,-0.99992581369,0.0,0.576308029051,0.149012817959,0.30414171008,1.0,-0.168834857143,-0.221897240816,1.805
0.365801799552,0.154976425492,-0.126503653949,-1.93234665975,0.0347222858711,2.08051254572,0.0494746762269,-0.266237243836,-0.666132665217,-0.00242322365194,-0.850017004425,-0.0916557347063,0.233162486854,-0.241428791176,0.573819867628,0.818963842201,0.00311954866119,0.0,0.818933005146,-0.573753836948,-0.0116625284829,0.0,-0.00776148555486,0.00924706994481,-0.999927122864,0.0,0.573477155013,0.145279963174,0.304282650202,1.0,-0.171982285714,-0.226033861224,1.822
0.361549033279,0.144588784725,-0.126588410898,-1.94647991984,0.0332344126061,2.08393095043,0.0455627597373,-0.272078078856,-0.646467909705,-0.00255914861211,-0.885908736652,-0.0867797260021,0.206082443533,-0.242496877676,0.573814473442,0.818968752744,0.0028069554784,0.0,0.818933339276,-0.573748951853,-0.0118774143029,0.0,-0.00811689968931,0.00911431713604,-0.999925519808,0.0,0.570639591899,0.141638886066,0.304142056285,1.0,-0.174944571429,-0.22992715102,1.838
0.35684646236,0.133190798677,-0.126711188601,-1.96131370171,0.0317486911003,2.08771699473,0.0411958520344,-0.281370488459,-0.655841647157,-0.00394092374717,-0.897613915856,-0.0924694087051,0.224879431491,-0.262427967417,0.573828588254,0.8189578592,0.00308594529135,0.0,0.818926091656,-0.573762083889,-0.0117419929068,0.0,-0.00784575002756,0.00926523071391,-0.999926297137,0.0,0.567706155619,0.137722680958,0.30426632607,1.0,-0.178092,-0.234063771429,1.855
0.351625725349,0.121096162334,-0.126894911687,-1.97722264012,0.0300216602376,2.09151238393,0.0365272616451,-0.292819827768,-0.679658115043,-0.0123217420164,-0.856305085556,-0.0947918845701,0.214401730843,-0.248096238549,0.573964334662,0.818863014034,0.00300893415974,0.0,0.818830352741,-0.573898205119,-0.0117664987508,0.0,-0.00790848098089,0.00921753471232,-0.999926243771,0.0,0.564484157012,0.133405231494,0.304260080856,1.0,-0.181424571429,-0.238443722449,1.873
0.346806205101,0.110187837781,-0.127017241016,-1.99136561073,0.0284788026032,2.09491458182,0.0321187590645,-0.301510677629,-0.669453156441,-0.00141671598218,-0.878889449109,-0.0958470517893,0.199738872619,-0.277617494112,0.5739625143,0.818863959258,0.00309762950932,0.0,0.818832746674,-0.573896429474,-0.0116862360591,0.0,-0.00779186903059,0.00924407988768,-0.999926914211,0.0,0.561601315453,0.129531267532,0.304310093909,1.0,-0.184386857143,-0.242337012245,1.889
0.341625382419,0.0984415176398,-0.127072902461,-2.00647439526,0.0268076181258,2.09840038339,0.0273817227603,-0.305109925768,-0.702176205293,0.000742803851248,-0.884898679526,-0.0906133704169,0.21415059968,-0.287628418136,0.573871258603,0.818927685876,0.00315765050074,0.0,0.818897326139,-0.573805074888,-0.0116469814051,0.0,-0.00772630840282,0.0092698379029,-0.999927184481,0.0,0.558439906124,0.125451047741,0.304364230215,1.0,-0.187534285714,-0.246473632653,1.906
0.336261627963,0.0866863189611,-0.127130386538,-2.02175527058,0.0252369561712,2.10180068273,0.0224836663324,-0.319121476611,-0.694928230646,-0.00314720760629,-0.907713930118,-0.0937637586905,0.209364474191,-0.294850201487,0.573820836943,0.818963221317,0.00310421031676,0.0,0.818930797714,-0.573753214958,-0.0118466780908,0.0,-0.00792109550765,0.00934018399553,-0.999925005792,0.0,0.555175183933,0.121310310969,0.304296380073,1.0,-0.190681714286,-0.250610253061,1.923
0.331007201363,0.075356638622,-0.127248018651,-2.03594270788,0.0235722608261,2.10497025991,0.0176990676024,-0.325387099077,-0.71371718748,-0.00826341772162,-0.891522895693,-0.103758960028,0.204535830252,-0.290540062274,0.573749042028,0.819012815643,0.00328503955711,0.0,0.818983595673,-0.573681836834,-0.0116519100208,0.0,-0.00765864355918,0.00937584623474,-0.999926716658,0.0,0.55215813094,0.117298066966,0.304430872003,1.0,-0.193644,-0.254503542857,1.939
0.325151350554,0.0634412963068,-0.127445214034,-2.05130755012,0.0218363347558,2.10817268132,0.0125108322107,-0.347986986359,-0.698744022547,-0.00834861368875,-0.914791113193,-0.104353768893,0.173039141905,-0.31351029797,0.57386394169,0.818933135713,0.00307287497938,0.0,0.81890036017,-0.573796492327,-0.0118546365731,0.0,-0.0079451027849,0.00931950632791,-0.99992500826,0.0,0.548807083808,0.112869789027,0.30431628318,1.0,-0.196791428571,-0.258640163265,1.956
0.31908991112,0.051219674954,-0.127579735204,-2.06644079103,0.0200597009321,2.11138837015,0.00714792168983,-0.357490110983,-0.699340983035,-0.00374639305981,-0.882901805268,-0.103683520275,0.182481472488,-0.317016313386,0.573909620112,0.818900349883,0.00327288952204,0.0,0.81887071997,-0.573842124624,-0.0116921719027,0.0,-0.0076967499713,0.00939050413055,-0.999926286519,0.0,0.54550658523,0.108431085983,0.304435121399,1.0,-0.199938857143,-0.262776783673,1.973
0.312964352124,0.0391176189745,-0.127652510777,-2.08171929108,0.0183262998521,2.11442000411,0.00167803056346,-0.360844127708,-0.707031453341,-0.00895645975076,-0.894294404498,-0.110760526931,0.173099166678,-0.315718984036,0.573865735918,0.818931479574,0.00317738925304,0.0,0.818899596109,-0.573797355978,-0.0118656085545,0.0,-0.0078940948031,0.00941141016007,-0.999924551467,0.0,0.54206163403,0.104034146803,0.304360708043,1.0,-0.19998,-0.262830857143,1.99
0.306625543625,0.0269548009984,-0.127743679756,-2.09668818947,0.0164727971819,2.11738904276,-0.00391205163223,-0.37533055989,-0.714998743284,-0.00988011912568,-0.861991814351,-0.119847062898,0.168112465139,-0.334789662142,0.573835941496,0.818952097743,0.00324357063327,0.0,0.818921645932,-0.573768018979,-0.0117620203368,0.0,-0.00777162375969,0.00940588130791,-0.99992556286,0.0,0.538682463181,0.099570585529,0.304411041611,1.0,-0.19998,-0.262830857143,2.007
0.300146134977,0.0148188984291,-0.127904436678,-2.11147114534,0.0146687480516,2.12015154005,-0.00961245478201,-0.384626827133,-0.723215783793,-0.0072686807356,-0.841298086726,-0.116904689658,0.178398469429,-0.339939181608,0.573884551129,0.818917765018,0.00331104424856,0.0,0.818888248875,-0.573816465144,-0.011723782847,0.0,-0.00770103060871,0.00943965482595,-0.999925790769,0.0,0.535288433966,0.0950621606317,0.30446890333,1.0,-0.19998,-0.262830857143,2.024
0.293856754019,0.00354522847043,-0.128048691502,-2.12524477652,0.0130229575603,2.12260800119,-0.0150699752315,-0.394038003151,-0.69500320323,-0.00303291892255,-0.865775558355,-0.0973326170576,0.153214626529,-0.340332504216,0.574006918595,0.81883206353,0.00329485081838,0.0,0.818801670763,-0.573938057212,-0.0118185168611,0.0,-0.00778649018582,0.00948192235721,-0.999924729027,0.0,0.532074738594,0.0907836909059,0.30445398421,1.0,-0.19998,-0.262830857143,2.04
0.28722969077,-0.00842367459697,-0.128081427981,-2.13952588781,0.0112609343727,2.12518272301,-0.0209730503741,-0.392843190423,-0.715198289225,-0.00137763182085,-0.863515486959,-0.110311372352,0.153168070048,-0.343138525669,0.573879504355,0.818920548122,0.00349245567545,0.0,0.818892986071,-0.573810319564,-0.0116936489598,0.0,-0.0075723080989,0.00957087719498,-0.999925526457,0.0,0.528706644754,0.0864056992309,0.304548416817,1.0,-0.19998,-0.262830857143,2.057
0.280399732706,-0.0201985933597,-0.128122671188,-2.15382223164,0.00941852802813,2.1274746143,-0.0269703878771,-0.413170271046,-0.68830967278,0.000168961201221,-0.849825468472,-0.109819487428,0.11681410853,-0.363256636765,0.573791205047,0.8189832592,0.00328953838767,0.0,0.818952472199,-0.573721997304,-0.0118602272351,0.0,-0.00782619770041,0.00949945256622,-0.999924252646,0.0,0.52523859497,0.0819532812626,0.304464785282,1.0,-0.19998,-0.262830857143,2.074
0.273851953207,-0.0313501546305,-0.128277212869,-2.1667978769,0.00774320669991,2.12963184955,-0.0326386485305,-0.417953142797,-0.701620611409,-0.0101096061647,-0.813740811832,-0.106416027766,0.132342082714,-0.355567174488,0.573887595752,0.818914730386,0.00352685416288,0.0,0.818887704416,-0.573818412141,-0.0116663767252,0.0,-0.00753013887339,0.00958347091071,-0.999925724288,0.0,0.522112577333,0.0777272087196,0.304601581288,1.0,-0.19998,-0.262830857143,2.09
0.266307393562,-0.0436354482813,-0.128426400306,-2.18153620886,0.00592908981676,2.13180535828,-0.039232034841,-0.413144803537,-0.679922684688,-0.00252495157481,-0.83003978256,-0.0922059217489,0.108366763003,-0.371325786834,0.573954106781,0.818868756316,0.00337492794185,0.0,0.818838141341,-0.573883420878,-0.0119442215082,0.0,-0.00784408564202,0.00961913990823,-0.999922968267,0.0,0.51844444481,0.0729509648972,0.304488060305,1.0,-0.19998,-0.262830857143,2.108
0.259141826365,-0.0552952848166,-0.128469445576,-2.19489519571,0.00411048665911,2.13391347426,-0.0454818428873,-0.4315958463,-0.668739431575,-0.00512426370655,-0.7867971507,-0.116339057648,0.116581869092,-0.381024513869,0.573885648681,0.818915632752,0.00363257122955,0.0,0.818889689572,-0.573815756714,-0.0116576396125,0.0,-0.00746234038392,0.00966501327908,-0.999925447718,0.0,0.515133492578,0.0685467633339,0.304626960615,1.0,-0.19998,-0.262830857143,2.125
0.25226938937,-0.0660406356144,-0.128556726343,-2.20765659082,0.00242696826112,2.13554725672,-0.0515270484666,-0.427256470412,-0.667069216586,-0.00502017320482,-0.803117942614,-0.110492488681,0.0985244649233,-0.380059009385,0.573824751586,0.818959460805,0.00336198237742,0.0,0.818928645367,-0.573754092808,-0.0119524760513,0.0,-0.00785979351865,0.00961203533654,-0.99992291324,0.0,0.511840063592,0.0643528132405,0.304485778956,1.0,-0.19998,-0.262830857143,2.141
0.245642573041,-0.0762361378544,-0.128734843132,-2.21917144777,0.000879342446437,2.13712513815,-0.0572756196606,-0.450820285287,-0.676487877087,-0.0149190112954,-0.758520952296,-0.0977177930658,0.102682060007,-0.387382296101,0.573930507557,0.818884503496,0.0035622087723,0.0,0.818856751438,-0.573859692884,-0.0118076419529,0.0,-0.00762503379156,0.00969389127978,-0.999923940773,0.0,0.50889941412,0.060352741947,0.304589972736,1.0,-0.19998,-0.262830857143,2.156
0.237174355876,-0.0888686756962,-0.128842855044,-2.233845803,-0.00104614031124,2.13886916426,-0.0646631562726,-0.442674256833,-0.658834753349,-0.002702165977,-0.774718403624,-0.0970976281925,0.0734321929999,-0.388836531525,0.573937037982,0.818880624611,0.00339793618268,0.0,0.818849153666,-0.573864852132,-0.0120806427539,0.0,-0.00794280106248,0.00971611255174,-0.999921251433,0.0,0.505025342907,0.0553726200857,0.304471096485,1.0,-0.19998,-0.262830857143,2.175
0.229944774731,-0.0995974991632,-0.128895465448,-2.2457241808,-0.00275445231873,2.14031547734,-0.0710298036355,-0.45563557217,-0.664771657419,-0.00301430116798,-0.749148842937,-0.111612347191,0.0846587524326,-0.407707222178,0.573819439998,0.818962267499,0.00357793155859,0.0,0.818934280238,-0.57374802806,-0.0118571434121,0.0,-0.00765786931627,0.00973413761068,-0.99992329886,0.0,0.501887069963,0.0512147676273,0.30459296272,1.0,-0.19998,-0.262830857143,2.191
0.221627692957,-0.111415594274,-0.12907084183,-2.25919184618,-0.00462484643144,2.14168178887,-0.0782380409939,-0.466619928913,-0.643211603804,-0.0149371368221,-0.753705220829,-0.106651256888,0.0690808304801,-0.40555935348,0.573898578238,0.818907576402,0.00339854511142,0.0,0.818876044882,-0.573826311853,-0.0120885832377,0.0,-0.00794941084514,0.00972079506762,-0.999921153397,0.0,0.498223128609,0.0464521764232,0.304490842911,1.0,-0.19998,-0.262830857143,2.209
0.213554634694,-0.12267848589,-0.129225631466,-2.27145835679,-0.00636905342388,2.1429940211,-0.0852305799354,-0.467197604245,-0.64701465171,-0.00463619055291,-0.722743524599,-0.0938428843033,0.0716873935562,-0.423228508117,0.573988028787,0.818843879199,0.00363197032409,0.0,0.81881618257,-0.573915876028,-0.0118900507356,0.0,-0.00765179715877,0.00979885151814,-0.999922713268,0.0,0.494889585593,0.0419347181557,0.304610892555,1.0,-0.19998,-0.262830857143,2.226
0.206448743264,-0.132448824744,-0.129289622374,-2.28228824958,-0.00787625867461,2.14394525849,-0.0915009871807,-0.479214236482,-0.653665334181,-0.00338979051004,-0.723563202096,-0.108878845226,0.0605501106014,-0.424792528367,0.573911835669,0.818897445051,0.0035953121909,0.0,0.818868520926,-0.57383887189,-0.012001726785,0.0,-0.00776520301291,0.0098322103269,-0.999921511551,0.0,0.491855424915,0.0380465234733,0.304581121831,1.0,-0.19998,-0.262830857143,2.241
0.197714592875,-0.144178852311,-0.129438778189,-2.29492026005,-0.00974658746684,2.1450845859,-0.0991732230687,-0.487621899143,-0.653014734647,-0.0131999799487,-0.705492535456,-0.102007587687,0.0653254511081,-0.432681383761,0.573887725721,0.818913615645,0.00375703072761,0.0,0.818887625763,-0.573815256575,-0.0118260134894,0.0,-0.00752878686681,0.00986357986269,-0.999923010617,0.0,0.488306666493,0.0333108650234,0.304671907887,1.0,-0.19998,-0.262830857143,2.259
0.189257847822,-0.15508187005,-0.129628047915,-2.30678388735,-0.0114755015427,2.14593459369,-0.106519591196,-0.498041167193,-0.653557527037,-0.00477242256646,-0.692069471632,-0.104363087825,0.0407347308008,-0.442856911925,0.57399358458,0.818839612325,0.00371497644409,0.0,0.818812431283,-0.573920408125,-0.0119295605713,0.0,-0.00763644298164,0.00988955053363,-0.999921937718,0.0,0.484886701588,0.0287844360213,0.304643001804,1.0,-0.19998,-0.262830857143,2.276
0.181316986018,-0.165301759225,-0.129679249142,-2.3177120238,-0.0130652930122,2.14661206818,-0.113513606546,-0.502665980068,-0.636950022349,-0.00671649471584,-0.667433978953,-0.0999385556403,0.048510302676,-0.438195319673,0.573915978658,0.818893931769,0.00373160201618,0.0,0.81886658499,-0.573842258576,-0.0119718486566,0.0,-0.00766247081416,0.00992671055755,-0.999921370388,0.0,0.481679299765,0.0246611429755,0.304659350954,1.0,-0.19998,-0.262830857143,2.292
0.172675847678,-0.176040848044,-0.129766203926,-2.32917393794,-0.0147547460049,2.14732635719,-0.121139593141,-0.508238570531,-0.622792873971,-0.00180690441791,-0.672000400626,-0.104424985462,0.0385192567471,-0.438563388044,0.573855869,0.818935922487,0.0037607679728,0.0,0.818908722467,-0.573781748569,-0.0119898364034,0.0,-0.00766119521381,0.00996035545223,-0.999921045587,0.0,0.478282872891,0.0202322791562,0.304650124077,1.0,-0.19998,-0.262830857143,2.309
0.163256028215,-0.187392804005,-0.12997938063,-2.34114215876,-0.0165553904606,2.14787970922,-0.129366583355,-0.527090417491,-0.625368558455,-0.00554754897318,-0.642055819692,-0.0931007397269,0.028818816248,-0.460336896283,0.573967437799,0.818857696116,0.00376838961739,0.0,0.818830061542,-0.57389257859,-0.0120575890768,0.0,-0.00771094723711,0.0100065268674,-0.999920202173,0.0,0.474661426623,0.0154295732054,0.304648263063,1.0,-0.19998,-0.262830857143,2.327
0.155437318137,-0.196818433933,-0.130051814016,-2.35077699358,-0.0180624061014,2.14840081208,-0.136351627234,-0.519460535511,-0.620481290298,-0.00753436589907,-0.645594408253,-0.11028893395,0.0258045695733,-0.470556224589,0.573835743728,0.81894901143,0.00397527344212,0.0,0.81892536606,-0.573761886837,-0.0118020734552,0.0,-0.00738457817413,0.0100280969294,-0.999922449632,0.0,0.471735043411,0.0115494166564,0.304758581656,1.0,-0.19998,-0.262830857143,2.342
0.145809501561,-0.207907853808,-0.130184184813,-2.36245339532,-0.0198004126057,2.14866412737,-0.144847836635,-0.536779763179,-0.612778034389,-0.0102339111069,-0.638932312679,-0.0951747095587,0.0125787270415,-0.47448714463,0.573837405331,0.818948497955,0.00383885926348,0.0,0.818921419795,-0.573761826424,-0.01207566314,0.0,-0.0076869032846,0.0100733852262,-0.999919715991,0.0,0.468058291093,0.00683308785507,0.304667065372,1.0,-0.19998,-0.262830857143,2.36
0.136493431669,-0.21839780502,-0.130386072054,-2.37300402971,-0.0214234477649,2.1489769317,-0.152983875563,-0.54794357665,-0.615827921639,-0.0045239790261,-0.611010746246,-0.0961364154074,0.0258960191959,-0.476383812526,0.573995715877,0.818836437369,0.00406864749991,0.0,0.81881299354,-0.573920132122,-0.0119042201145,0.0,-0.00741267319447,0.0101646284863,-0.999920863171,0.0,0.464724949072,0.00231202032489,0.304772218562,1.0,-0.19998,-0.262830857143,2.377
0.128333406572,-0.227470857775,-0.130443246136,-2.38234862648,-0.0229135940453,2.14912235416,-0.160313094892,-0.555133575981,-0.605059605081,-0.00314327823079,-0.619166794495,-0.0982001732867,0.00571066697705,-0.489045710819,0.573817445752,0.818961836749,0.00397439296917,0.0,0.818936812383,-0.573741746879,-0.0119854959256,0.0,-0.00753553367507,0.0101324584487,-0.999920271331,0.0,0.46129823384,-0.00206695813063,0.304717142725,1.0,-0.19998,-0.262830857143,2.394
0.118218219556,-0.238319047919,-0.130621042928,-2.39332036228,-0.02469578388,2.14915206337,-0.169258299901,-0.567002347779,-0.599843366606,-0.0136955142752,-0.597319559852,-0.0964815673023,0.00155473841394,-0.502413660361,0.573853572814,0.81893660469,0.00395744478793,0.0,0.81891113703,-0.573777632133,-0.0120218722815,0.0,-0.0075746038031,0.0101397851939,-0.999919901859,0.0,0.458083415801,-0.00630287059378,0.304713634472,1.0,-0.19998,-0.262830857143,2.41
0.108502528595,-0.248521646951,-0.130790189032,-2.40330439065,-0.0262406609589,2.14922848896,-0.177901659249,-0.560600510306,-0.596405906882,-0.00495229307655,-0.591932173276,-0.0839229192918,-0.00231211214739,-0.511811766544,0.573909764302,0.818895848726,0.00423299879742,0.0,0.818874734597,-0.573833897734,-0.0118141335191,0.0,-0.00724564619722,0.0102467396317,-0.999921249368,0.0,0.454762139429,-0.0107868154534,0.304822751815,1.0,-0.19998,-0.262830857143,2.427
0.0993499891753,-0.257927321601,-0.13091309079,-2.41282290934,-0.0277477146458,2.14913055705,-0.186162789518,-0.576596177067,-0.580491378267,-0.00791055251303,-0.594679861416,-0.101513538691,-0.00946578275443,-0.519518543508,0.573800553094,0.818972766879,0.00415683533146,0.0,0.818949696451,-0.573723618493,-0.0119729347893,0.0,-0.00742077579712,0.0102745134534,-0.999919680004,0.0,0.45151235727,-0.0149349197396,0.304737553581,1.0,-0.19998,-0.262830857143,2.443
0.089284093293,-0.267892947559,-0.131112750239,-2.42247428817,-0.0293679138674,2.14901753069,-0.195012636695,-0.597230479721,-0.581949926498,-0.0147861396573,-0.549789430707,-0.0891294734453,-0.00154289894556,-0.532627602347,0.57395110507,0.81886647655,0.00430923108163,0.0,0.81884635208,-0.573874976581,-0.0117860019005,0.0,-0.0071783401681,0.0102933851462,-0.999921255727,0.0,0.448171647529,-0.0194704374165,0.304810324399,1.0,-0.19998,-0.262830857143,2.46
0.0792499638274,-0.277721064872,-0.131215358444,-2.43202924499,-0.0309334233315,2.1487851191,-0.204092775326,-0.581543815691,-0.562102923215,-0.00360562212816,-0.569195183704,-0.0960256570705,-0.0142983171055,-0.538159796069,0.573827379289,0.818952818873,0.00437791510763,0.0,0.818933806786,-0.573751364556,-0.0117276883432,0.0,-0.00709272521753,0.0103150899494,-0.999921643014,0.0,0.444794860732,-0.0238749833179,0.304825335825,1.0,-0.19998,-0.262830857143,2.477
0.0696229928561,-0.286847199142,-0.131359760916,-2.44097101298,-0.0324226422407,2.14840092393,-0.2127746722,-0.613410566339,-0.564697397421,-0.00781612718845,-0.557843087169,-0.0864554330813,-0.0215417591788,-0.542881130041,0.573772210585,0.81899187583,0.00430169570746,0.0,0.818971102016,-0.573695347613,-0.0118629293137,0.0,-0.00724791946214,0.0103297825307,-0.999920378458,0.0,0.441551682135,-0.0280592411184,0.304764859631,1.0,-0.19998,-0.262830857143,2.493
0.0578050140031,-0.297647569775,-0.131573776227,-2.451069039,-0.0340890071186,2.14799971142,-0.2232623921,-0.623389696569,-0.56913459729,-0.00683514423725,-0.524659894465,-0.104541692411,-0.0198977909798,-0.557473229113,0.573959467638,0.818859180995,0.00457363208713,0.0,0.818843000757,-0.573883255272,-0.0116144879768,0.0,-0.00688603181919,0.0104115324129,-0.999922088244,0.0,0.437831950948,-0.0331393552657,0.304881474262,1.0,-0.19998,-0.262830857143,2.512
0.0480327975306,-0.306581420801,-0.131668094879,-2.4595759926,-0.0355530354026,2.14746516378,-0.232200528425,-0.62161772117,-0.556567472044,-0.00635987566667,-0.542752499502,-0.0885139628335,-0.0468031643582,-0.563965814357,0.573779245513,0.818985700285,0.00453288521505,0.0,0.818968802584,-0.573702902257,-0.0116544943348,0.0,-0.00694446850328,0.0103995987675,-0.999921808294,0.0,0.434618426347,-0.0372396046812,0.304863899356,1.0,-0.19998,-0.262830857143,2.528
0.0378574330147,-0.315379601113,-0.131882916397,-2.46795120413,-0.0369552727306,2.14682526912,-0.241300518643,-0.652491244445,-0.542819751991,-0.0194871765988,-0.521895759107,-0.0873361821546,-0.0434043972174,-0.565396649507,0.573914589349,0.818891059837,0.00449701599051,0.0,0.818872589411,-0.573836695944,-0.0118269015336,0.0,-0.00710452791798,0.0104703160517,-0.999919945878,0.0,0.431367954855,-0.0414959872583,0.30481088478,1.0,-0.19998,-0.262830857143,2.544
0.0269969596681,-0.324675911834,-0.131999371181,-2.47637687379,-0.0384470741888,2.14626222046,-0.251147024196,-0.627080624403,-0.547962961809,-0.00406528318006,-0.492006943001,-0.0844293728563,-0.0294112005177,-0.567830153905,0.573871319352,0.818920266469,0.00469605077321,0.0,0.818906019136,-0.573795291527,-0.011517037197,0.0,-0.00673709305781,0.0104551228692,-0.999922648,0.0,0.428062746366,-0.0459495975158,0.304931129517,1.0,-0.19998,-0.262830857143,2.561
0.0160982786415,-0.333724641035,-0.132155132101,-2.48486310078,-0.0398433043632,2.145522994,-0.261187737219,-0.65355143075,-0.532671936959,-0.0144547975757,-0.498248427896,-0.0863606013575,-0.0545111406276,-0.586287683685,0.573764716351,0.818994899872,0.00470650136282,0.0,0.818979817295,-0.573687174092,-0.0116547006157,0.0,-0.00684521268862,0.0105417885812,-0.999921003758,0.0,0.42464645665,-0.0503453100498,0.304875717604,1.0,-0.19998,-0.262830857143,2.578
0.00539871480451,-0.342190888578,-0.132356676666,-2.4926539833,-0.0412419729856,2.14469261311,-0.270708645187,-0.662636988171,-0.54039426446,-0.00711998008721,-0.485532993867,-0.0934658162137,-0.0494763261689,-0.595594540915,0.57397131289,0.818850331459,0.00467049790917,0.0,0.818834274207,-0.573893073889,-0.0117438506694,0.0,-0.00693622315531,0.0105652005656,-0.999920129483,0.0,0.421403432154,-0.0546435598048,0.304854419322,1.0,-0.19998,-0.262830857143,2.594
-0.0057543893063,-0.351046079418,-0.13249163032,-2.5005965162,-0.0426495883712,2.14384293873,-0.281070153044,-0.66247852311,-0.530885837849,-0.0143580921771,-0.454182964012,-0.0840794284008,-0.0520087021354,-0.61243276922,0.573791941804,0.818975499451,0.00476295294223,0.0,0.818961088143,-0.573714125884,-0.0116440873453,0.0,-0.00680377985924,0.0105821603521,-0.999920860099,0.0,0.418050898215,-0.05902943095,0.304904069761,1.0,-0.19998,-0.262830857143,2.611
-0.0180204637955,-0.360233745348,-0.132747417357,-2.50884232172,-0.0441724941171,2.14288665532,-0.292187012471,-0.693547016335,-0.51598799134,-0.0159559794352,-0.467968985591,-0.087816089412,-0.0559013307219,-0.619872593227,0.573927364229,0.818880327776,0.00481001791237,0.0,0.818866701649,-0.573849655455,-0.0116036531041,0.0,-0.00674190593811,0.0105986216005,-0.99992110485,0.0,0.414458392119,-0.063842087617,0.304918139834,1.0,-0.19998,-0.262830857143,2.629
-0.0281898773918,-0.367777699287,-0.132811434333,-2.51566258356,-0.0453742050796,2.14196093072,-0.30163437883,-0.67486921688,-0.506975448095,-0.00687486077951,-0.449586424832,-0.075053581327,-0.051871282786,-0.627478739535,0.573756873988,0.819000018614,0.0047713691183,0.0,0.8189851214,-0.573678113637,-0.0117277346438,0.0,-0.00686791708501,0.0106367534753,-0.999919842383,0.0,0.411228018268,-0.0679596241265,0.304880352362,1.0,-0.19998,-0.262830857143,2.645
-0.0406303118568,-0.376630155124,-0.133051141368,-2.52355710049,-0.0467489101949,2.14084028463,-0.313033042679,-0.708613468207,-0.48978572683,-0.0211274582801,-0.430567627911,-0.078522952354,-0.064631045009,-0.644293366721,0.5738599984,0.818927551971,0.00480767719643,0.0,0.818912212415,-0.573779684993,-0.0118494028328,0.0,-0.00694538866709,0.010737170584,-0.999918234029,0.0,0.407810864297,-0.0724321470225,0.304850870041,1.0,-0.19998,-0.262830857143,2.662
-0.05260467626,-0.384881903812,-0.133184854063,-2.53058707514,-0.0481248469837,2.13986280817,-0.324036166839,-0.694043890987,-0.479395783873,-0.00649929703407,-0.416138261399,-0.0778140892141,-0.0620023836959,-0.655857402853,0.573849140875,0.818934425122,0.00493130491212,0.0,0.818922447407,-0.573771204966,-0.0115488694561,0.0,-0.00662845362564,0.0106658704541,-0.999921148296,0.0,0.404497180516,-0.0769275199452,0.304959434245,1.0,-0.19998,-0.262830857143,2.679
-0.064609932769,-0.39293256171,-0.133381839021,-2.53771329382,-0.049425698243,2.13870243748,-0.335209360961,-0.71502936532,-0.472398581438,-0.0115461754622,-0.41787700199,-0.076043898663,-0.0703978106733,-0.656512304832,0.573797243087,0.818970963418,0.00490222440668,0.0,0.818957601058,-0.57371779718,-0.011708277813,0.0,-0.00677637663887,0.0107330981158,-0.999919437417,0.0,0.401055456532,-0.0813621215318,0.304904451824,1.0,-0.19998,-0.262830857143,2.696
-0.0775754583808,-0.401289242261,-0.133550584325,-2.54496054799,-0.0508340010282,2.13741493264,-0.347162718131,-0.700694649956,-0.462221634281,-0.00453419008585,-0.405334514744,-0.0688969443111,-0.0694134498726,-0.656511579583,0.573811476819,0.818961312187,0.00484820708219,0.0,0.818946865814,-0.57373160373,-0.0117823917369,0.0,-0.00686788560118,0.0107315022125,-0.99991883021,0.0,0.397427625367,-0.0860928158309,0.304887066792,1.0,-0.19998,-0.262830857143,2.714
-0.08839790139,-0.408113368055,-0.133683860994,-2.55075548179,-0.051893139777,2.13640526551,-0.357333220692,-0.721159316015,-0.447650688435,-0.0106802957281,-0.385015436832,-0.068449808239,-0.069409580334,-0.677039498853,0.573723942313,0.819021985685,0.0049570033667,0.0,0.819009101982,-0.573643962097,-0.0117235882538,0.0,-0.00675845160075,0.0107861418136,-0.999918987957,0.0,0.394260566614,-0.0902535205429,0.304918235896,1.0,-0.19998,-0.262830857143,2.73
-0.100312561148,-0.415194613062,-0.133894923047,-2.55662681823,-0.0529773965087,2.13534846746,-0.368311970988,-0.743628442255,-0.441591267575,-0.00506757144732,-0.362158045182,-0.0720752715644,-0.0633483600188,-0.69044105079,0.573895447391,0.818900757468,0.0051295013873,0.0,0.818890905019,-0.573816192946,-0.0115502940044,0.0,-0.00651527899072,0.0108293716775,-0.999920134735,0.0,0.391316569034,-0.0942755652543,0.304992749291,1.0,-0.19998,-0.262830857143,2.745
-0.113555638018,-0.42301222352,-0.134029137038,-2.56328850611,-0.0542784179472,2.13394702124,-0.380830833423,-0.737281897324,-0.42592084678,-0.00738018389316,-0.36204104291,-0.0764810740003,-0.0789871729881,-0.689830708081,0.573706161911,0.819033798334,0.00506200282782,0.0,0.819022319522,-0.573625913568,-0.0116832490401,0.0,-0.00666540817134,0.010848854137,-0.999918934063,0.0,0.387686056713,-0.0989199726112,0.304959499897,1.0,-0.19998,-0.262830857143,2.763
-0.126442841423,-0.430172243587,-0.134250932517,-2.56935034452,-0.0554703014592,2.13267453831,-0.392740381355,-0.757935619507,-0.424983926668,-0.0058085626735,-0.346548475364,-0.0687185596945,-0.0732279394667,-0.706321487757,0.573861218017,0.818925167826,0.00506150740079,0.0,0.818913077148,-0.573779961849,-0.0117760077041,0.0,-0.00673960732038,0.0109029386404,-0.999917848437,0.0,0.384244575283,-0.103432278161,0.304928896216,1.0,-0.19998,-0.262830857143,2.78
-0.138450617798,-0.436641480806,-0.134352434268,-2.57478460951,-0.0565133360034,2.13151748322,-0.404171845407,-0.758776238521,-0.404781275528,-0.00617538285547,-0.334016507306,-0.0751480051635,-0.0721352365233,-0.717337369259,0.573689448881,0.819045443913,0.0050718782479,0.0,0.819033184546,-0.573607697126,-0.0118152152207,0.0,-0.00676806009963,0.0109325113861,-0.999917333362,0.0,0.381077467569,-0.107551540116,0.304908472673,1.0,-0.19998,-0.262830857143,2.796
-0.1516863529,-0.443434431809,-0.134575429781,-2.58018788739,-0.0576698324694,2.13027421473,-0.416458086386,-0.77777805974,-0.396033211949,-0.00949371636795,-0.313453489448,-0.0683071636822,-0.0660727658665,-0.728656027002,0.573859607087,0.818925602722,0.00517256821594,0.0,0.81891589624,-0.573779542159,-0.0115990855994,0.0,-0.0065310000848,0.0108923547527,-0.999919348071,0.0,0.377718112729,-0.11212797078,0.305005060945,1.0,-0.19998,-0.262830857143,2.813
-0.165493855854,-0.450403849978,-0.134685070252,-2.58589813267,-0.0587448260922,2.12891713026,-0.429635628054,-0.770040896021,-0.383217523498,-0.00683119196902,-0.318765342329,-0.067426878107,-0.0813007045082,-0.741183179647,0.573702549486,0.819035233033,0.00523628347521,0.0,0.819026087971,-0.57362187126,-0.0116173549415,0.0,-0.00651150165279,0.0109537698124,-0.99991880434,0.0,0.374136543904,-0.11675638266,0.30500965255,1.0,-0.19998,-0.262830857143,2.831
-0.177348561928,-0.455999947538,-0.13490982254,-2.59057367946,-0.0596636834421,2.1276825631,-0.440761853967,-0.790044730606,-0.369435356119,-0.00340802872359,-0.306822014468,-0.060903352324,-0.0808289939064,-0.737287604978,0.573828109646,0.818947328964,0.00522684070826,0.0,0.818936490336,-0.573744822471,-0.0118596115546,0.0,-0.00671365366956,0.0110860425053,-0.999916009731,0.0,0.371054770089,-0.120732497986,0.304945682249,1.0,-0.19998,-0.262830857143,2.846
-0.190665119988,-0.462085637079,-0.135023232614,-2.59548371427,-0.0606565732444,2.12649064066,-0.453527347413,-0.784816388814,-0.351574264058,-0.00952004349819,-0.285902958262,-0.0586162687262,-0.0647719941732,-0.758251684544,0.573678825797,0.819051547195,0.00528344308371,0.0,0.819041787184,-0.573595937851,-0.0117897340137,0.0,-0.00662596596464,0.0110910949692,-0.999916538611,0.0,0.367707221414,-0.125136817915,0.304960278128,1.0,-0.19998,-0.262830857143,2.863
-0.205188775731,-0.468264896448,-0.135226777853,-2.60049494014,-0.0617643959862,2.1251776495,-0.467162144209,-0.802322490947,-0.345564631794,-0.00140352275691,-0.271879379945,-0.0608619877142,-0.07886212736,-0.753978184851,0.573814077977,0.818956926385,0.00526341555049,0.0,0.81894671994,-0.573730924243,-0.0118255387938,0.0,-0.00666495095591,0.0110963311791,-0.999916221422,0.0,0.364085413708,-0.129934559882,0.304940691827,1.0,-0.19998,-0.262830857143,2.881
-0.217927120126,-0.473639094737,-0.135346681385,-2.60463063738,-0.0626036919613,2.12402162631,-0.479428701536,-0.802740915989,-0.336721721334,-0.0128272352647,-0.257973737027,-0.0502533990193,-0.0680424615801,-0.768806430011,0.573705246029,0.819032392933,0.00538302015685,0.0,0.819024475828,-0.57362295058,-0.0116775624422,0.0,-0.00647660269996,0.0111085179697,-0.999917323805,0.0,0.360952849824,-0.134078382952,0.305015371859,1.0,-0.19998,-0.262830857143,2.897
-0.231867983619,-0.479095495765,-0.135561142003,-2.60892429547,-0.0635993435401,2.12280760465,-0.49262213427,-0.815518927775,-0.316539656639,-0.0043712415304,-0.251912498736,-0.0596965692123,-0.0711970145208,-0.791943070284,0.573813204369,0.818956673277,0.00539635872388,0.0,0.81894921396,-0.573731336003,-0.0116312485473,0.0,-0.00642955230497,0.0110937213234,-0.999917791723,0.0,0.357532390401,-0.138615489513,0.305033292853,1.0,-0.19998,-0.262830857143,2.914
-0.245659704732,-0.48426001928,-0.135646777523,-2.61307611568,-0.0644500302874,2.12158414304,-0.505929142001,-0.810361652287,-0.305555348585,-0.00466974382703,-0.234779007534,-0.0568638551677,-0.0734242982434,-0.780159132018,0.573681561857,0.819048875473,0.00539926593129,0.0,0.819040713435,-0.573598435645,-0.0117427110934,0.0,-0.00652096937307,0.0111590103064,-0.999916473235,0.0,0.354136093138,-0.142991580555,0.304998536349,1.0,-0.19998,-0.262830857143,2.931
-0.258985262922,-0.488844321705,-0.135834452924,-2.61674836465,-0.065222634583,2.12044969793,-0.518641279094,-0.828642642005,-0.27717047275,-2.06995259587e-05,-0.223161880388,-0.0473120707962,-0.068422825488,-0.789157187125,0.573786923414,0.818974800077,0.0054396929557,0.0,0.818966162987,-0.573701926177,-0.0118857345216,0.0,-0.00661348205715,0.0112750205905,-0.999914564233,0.0,0.35089921866,-0.147233807261,0.304959873061,1.0,-0.199692,-0.262452342857,2.947
-0.272982491032,-0.493421184222,-0.135916780644,-2.62037020256,-0.0659862826754,2.11940482293,-0.53218275331,-0.842469597317,-0.266987682211,-0.0054835245072,-0.207653697081,-0.0492225732352,-0.0610209941996,-0.794627002251,0.57369200376,0.819040989658,0.00548534262723,0.0,0.819032888231,-0.573606757619,-0.0118811830762,0.0,-0.00658487312545,0.0113090334749,-0.999914368938,0.0,0.347559393701,-0.151630854882,0.304945159128,1.0,-0.196544571429,-0.258315722449,2.964
-0.287070651237,-0.497767570398,-0.135994605509,-2.62373025537,-0.0666860188761,2.1182988088,-0.545620266903,-0.802383515825,-0.250175143225,0.00385037155779,-0.192637811493,-0.0329480245612,-0.0668673791655,-0.777364757972,0.573770670562,0.818985508223,0.00554092277872,0.0,0.818977932267,-0.573684863564,-0.0118983477326,0.0,-0.00656595725152,0.0113650352494,-0.999913858379,0.0,0.344030409058,-0.156269041024,0.304957965607,1.0,-0.193212,-0.253935771429,2.982
-0.300142786666,-0.501602056139,-0.135996200976,-2.62664140264,-0.0673015287956,2.11732846323,-0.558222117745,-0.815876506157,-0.224736361902,-0.00272608407862,-0.1794321938,-0.0385477226608,-0.057441734573,-0.786099174154,0.573752327151,0.818998030066,0.00558934148037,0.0,0.818991201078,-0.573666548169,-0.0118680651596,0.0,-0.00651362916035,0.0113871707346,-0.999913948787,0.0,0.341149629141,-0.16005148695,0.304978798527,1.0,-0.190434857143,-0.250285812245,2.997
-0.314070645173,-0.505323492015,-0.135985640584,-2.62944507011,-0.0678649371048,2.11641653585,-0.571551899969,-0.799643051508,-0.211135760731,0.00817014637293,-0.155535878885,-0.0308244782097,-0.0477361086011,-0.78759808884,0.573833928294,0.818940248457,0.00567794841216,0.0,0.818935072527,-0.57374869937,-0.0117696158938,0.0,-0.00638101950214,0.0114038955779,-0.999914613232,0.0,0.337759068581,-0.164575246101,0.305015376379,1.0,-0.187102285714,-0.245905861225,3.015
-0.329356234286,-0.509118253677,-0.135978071511,-2.63229333001,-0.0684426310966,2.11549779371,-0.586250920022,-0.819748916625,-0.193857277308,-0.00317162377903,-0.144991164053,-0.0335698274607,-0.0493953016987,-0.772384646389,0.573900840149,0.818892659285,0.00577798815528,0.0,0.818889394648,-0.573816361476,-0.011648585188,0.0,-0.00622355658435,0.0114168858591,-0.999915457457,0.0,0.334435726976,-0.168999107723,0.305050688508,1.0,-0.183769714286,-0.241525910204,3.033
-0.338933976034,-0.511354393115,-0.135925334004,-2.63402090984,-0.068799302706,2.11486567055,-0.595512285112,-0.781355781215,-0.183118333094,0.014518139973,-0.137830355978,-0.0320666045194,-0.0497512616691,-0.771391180401,0.573871524545,0.818913175329,0.00578199713717,0.0,0.818909635345,-0.573786438371,-0.0116995376825,0.0,-0.00626339459921,0.0114491851258,-0.999914839398,0.0,0.332217365512,-0.171880137042,0.305041526478,1.0,-0.181548,-0.238605942857,3.045
-0.354696955933,-0.514671764123,-0.135834094656,-2.63667413983,-0.0692767508618,2.11388871886,-0.610795427034,-0.799868194896,-0.158287703092,-0.00120508961066,-0.126283296012,-0.0239715129773,-0.0459744835776,-0.77328760716,0.57384480039,0.818931594787,0.00582537770671,0.0,0.818927272466,-0.573757111459,-0.0119015277351,0.0,-0.00640430850517,0.0116004138279,-0.999912203762,0.0,0.328578831101,-0.176585840441,0.304981149129,1.0,-0.177845142857,-0.233739330612,3.065
-0.367928395698,-0.51715488221,-0.135723680785,-2.63864503457,-0.0696950189683,2.11320001738,-0.623578394561,-0.771320689406,-0.137864127989,0.0119285022831,-0.110420653568,-0.0120688094827,-0.0387469234761,-0.750757160174,0.573842511223,0.818933269578,0.00581542715279,0.0,0.818928359214,-0.573754034187,-0.0119748750068,0.0,-0.00647012332257,0.0116343345588,-0.999911385956,0.0,0.325569732475,-0.180530837766,0.304945312068,1.0,-0.174697714286,-0.229602710204,3.082
-0.380205626271,-0.519273984146,-0.135638197698,-2.64028091151,-0.0700184857597,2.11260986387,-0.635476910326,-0.77541002067,-0.126912103279,0.00305768033978,-0.0910625861829,-0.021278607601,-0.0396697162131,-0.740916214229,0.573860076257,0.818920661555,0.00585746171015,0.0,0.818916111012,-0.573771089113,-0.0119953042637,0.0,-0.00646248474119,0.0116806208717,-0.999910895724,0.0,0.322797052271,-0.18418441345,0.304933821776,1.0,-0.171735428571,-0.225709420408,3.098
-0.393070760183,-0.521323000851,-0.135494862124,-2.64179937607,-0.0703408264625,2.11201445577,-0.647970230204,-0.745347460713,-0.116799995425,0.0179945696406,-0.0903249617811,-0.0189853019855,-0.0328401515681,-0.733890536133,0.573837653649,0.818936241713,0.00587589691901,0.0,0.818932107708,-0.573748916898,-0.0119637044492,0.0,-0.00642634539254,0.0116774095649,-0.99991116615,0.0,0.319913308924,-0.187991641368,0.304949623871,1.0,-0.168588,-0.2215728,3.115
-0.406488724692,-0.523257751612,-0.135395329188,-2.64320923793,-0.0706176615407,2.11144014105,-0.661026556822,-0.749926429437,-0.105119930773,0.000657691173399,-0.0771487144325,-0.0160883775536,-0.0315986179219,-0.714875848758,0.573863521678,0.818917587649,0.00594895188146,0.0,0.818914574486,-0.573774800659,-0.011922446243,0.0,-0.00635026449857,0.011713765913,-0.999911226974,0.0,0.316906549873,-0.191959128503,0.304972355868,1.0,-0.165255428571,-0.21719284898,3.133
-0.41829219938,-0.524781402671,-0.135273431317,-2.64428541911,-0.0708427814667,2.11098304793,-0.672505378897,-0.720961353732,-0.0864926140878,0.0181854876356,-0.0624835700408,-0.0133483603145,-0.0290228271297,-0.719196400272,0.573884432033,0.818902599876,0.00599478837804,0.0,0.818900590898,-0.573796285516,-0.0118487069225,0.0,-0.00626327018761,0.0117091496251,-0.999911829744,0.0,0.314278217324,-0.195435574948,0.305005676664,1.0,-0.162293142857,-0.213299559184,3.149
-0.430571694736,-0.526096925786,-0.135151051828,-2.64527040946,-0.0710378821141,2.11058997141,-0.684477903345,-0.725050186783,-0.0748231442853,0.00454086816174,-0.0527978879912,-0.014104340198,-0.0186479601448,-0.691635791234,0.573909157546,0.818884902603,0.00604500416224,0.0,0.818883630988,-0.573820971979,-0.0118253083828,0.0,-0.00621493599608,0.0117370337037,-0.999911804416,0.0,0.311551097556,-0.199044470237,0.305009092133,1.0,-0.159145714286,-0.209162938776,3.166
-0.442744296538,-0.527240245204,-0.135041031962,-2.64614447272,-0.0712291066396,2.11020578409,-0.696310137491,-0.702832894989,-0.0640659906157,0.0124888356365,-0.0481180581429,-0.00766822743936,-0.0111750891399,-0.694452516078,0.573978209935,0.818836240915,0.00608045929441,0.0,0.818835209627,-0.573889455545,-0.011854922675,0.0,-0.00621784855843,0.0117835883275,-0.999911238763,0.0,0.308830266337,-0.202607686579,0.304999884072,1.0,-0.155998285714,-0.205026318367,3.183
-0.453809734242,-0.528099639064,-0.134874215926,-2.64682964876,-0.0713497472039,2.10991636313,-0.707224724598,-0.697088864837,-0.0485601134761,0.0105127489944,-0.037793274537,-0.0174944472025,-0.023097392888,-0.6761848208,0.573893215389,0.818895604479,0.00610845288185,0.0,0.818894682192,-0.573803884371,-0.0118890142144,0.0,-0.00623092745529,0.0118254318529,-0.999910663362,0.0,0.306372878319,-0.205819372714,0.304982015212,1.0,-0.153036,-0.201133028571,3.199
-0.46565040725,-0.52883621579,-0.134752560784,-2.64741334942,-0.0714802424593,2.10963479776,-0.718661586045,-0.686980203663,-0.0350019791616,0.0109758889102,-0.0269556682462,-0.00503465706206,-0.0255532670328,-0.675291427558,0.574048911283,0.818786205266,0.00614364885816,0.0,0.818785424997,-0.573958805199,-0.0119358555953,0.0,-0.00624683282215,0.0118823238226,-0.99990988967,0.0,0.303737162129,-0.20927060702,0.304964706238,1.0,-0.149888571429,-0.196996408163,3.216
-0.476941935508,-0.529337687125,-0.134543339756,-2.64782475689,-0.0715407039478,2.10942436607,-0.72989653451,-0.668278618475,-0.0263686568014,0.00989821077957,-0.0233442369159,-8.37469699395e-05,-0.0123252320197,-0.648854404679,0.573907091956,0.818885373155,0.0061759482408,0.0,0.818884770813,-0.573816420517,-0.0119663936087,0.0,-0.00625536461793,0.0119252177143,-0.999909325687,0.0,0.301107357097,-0.212727605997,0.304951786591,1.0,-0.146556,-0.192616457143,3.234
-0.488286779136,-0.52972071266,-0.134415672822,-2.64811673221,-0.0715999960898,2.10922579746,-0.740891438497,-0.663344597263,-0.0156253419774,0.00646906222031,-0.0123871707078,-0.00340244403908,-0.0162841689115,-0.638331093356,0.574052802142,0.818782882649,0.00622240594805,0.0,0.818782622901,-0.57396140226,-0.0120030017992,0.0,-0.00625655202822,0.0119853854356,-0.999908598869,0.0,0.29873789074,-0.215833194292,0.304941432105,1.0,-0.143593714286,-0.188723167347,3.25
-0.49916052658,-0.52993125888,-0.134165956004,-2.64828381063,-0.071630370037,2.10908938101,-0.75173733944,-0.628015846339,-0.0136969008391,0.0175846324332,-0.00942766646435,-0.00067986953077,-0.0056993881858,-0.630329950366,0.573877025975,0.818906106032,0.00622056779503,0.0,0.818905738789,-0.573785511676,-0.0120135120148,0.0,-0.00626878736224,0.0119885680295,-0.999908484083,0.0,0.296353964193,-0.218961277505,0.304936997467,1.0,-0.140446285714,-0.184586546939,3.267
-0.509965510511,-0.530040598257,-0.134018101999,-2.64839193775,-0.0716529699303,2.10899737578,-0.762330712013,-0.63821324877,-0.00704203951786,0.00341560202611,-0.00352556186404,-0.00227797273071,-0.0010142295308,-0.603605600159,0.573930414486,0.818868355645,0.0062643716322,0.0,0.818868417771,-0.573838428705,-0.0120299218605,0.0,-0.00625630561145,0.0120342658233,-0.999908013312,0.0,0.293954939273,-0.222083699569,0.304923622401,1.0,-0.137298857143,-0.180449926531,3.284
-0.520586574642,-0.530042662956,-0.133826464572,-2.64838506334,-0.0716659061631,2.10891392525,-0.772723641252,-0.605412498561,-0.0014393232882,0.0172253368063,0.0029505695513,0.00093258637041,-0.00138892906677,-0.602148227346,0.57397695607,0.818835609895,0.00628050706227,0.0,0.81883587278,-0.5738848718,-0.0120297244047,0.0,-0.00624619898825,0.012047721034,-0.999907914468,0.0,0.291601794823,-0.225140438437,0.304925229944,1.0,-0.134151428571,-0.176313306123,3.301
-0.530167007544,-0.529918728626,-0.133662573126,-2.64830956681,-0.0716715559811,2.10891690222,-0.78227907243,-0.604217208319,0.00863263386544,0.00964082742714,0.00943335661348,-0.000663231302647,0.00823437026419,-0.595537809848,0.573897203931,0.818891354022,0.00630051821565,0.0,0.81889201474,-0.573805315347,-0.0120031318683,0.0,-0.00621410970738,0.0120482398391,-0.999908108157,0.0,0.289343227856,-0.228077770536,0.304920332657,1.0,-0.131004,-0.172176685714,3.318
-0.540383967406,-0.52973747266,-0.133524047401,-2.64814745194,-0.0716681406159,2.10890868241,-0.792220972964,-0.594332808637,0.0137343012148,0.000668249940075,0.0111588428028,-0.000532196213096,0.000330167313532,-0.592845655211,0.57402208124,0.818803616489,0.00632730388153,0.0,0.81880483791,-0.573930462848,-0.0119669600013,0.0,-0.0061672764213,0.0120503583219,-0.999908372585,0.0,0.287197347134,-0.23084821067,0.304929089838,1.0,-0.128041714286,-0.168283395918,3.334
-0.550659671417,-0.52935352464,-0.133260929913,-2.64783265769,-0.0716671424629,2.10893513901,-0.802495402757,-0.563031205468,0.0226751093363,0.0091096641291,0.0223579941657,0.00031257666959,0.000139898577155,-0.571275536643,0.573855847527,0.818920514793,0.00627722958197,0.0,0.818921304113,-0.573764904894,-0.0119364350946,0.0,-0.0061734563965,0.011990580969,-0.999909053066,0.0,0.284935404385,-0.233797299465,0.304940953574,1.0,-0.124709142857,-0.163903444898,3.352
-0.559688503451,-0.528923005512,-0.133086344381,-2.647539425,-0.0716640357904,2.10895190908,-0.811392920659,-0.565334007851,0.0272046807562,0.0111581364108,0.0146442253808,-0.000977072681538,0.0069356931381,-0.5537174727,0.573858520532,0.818918799509,0.00625660644328,0.0,0.818918967699,-0.573766982582,-0.0119967054839,0.0,-0.0062346134884,0.012008296547,-0.999908461015,0.0,0.282912835271,-0.236384889651,0.304922883707,1.0,-0.121746857143,-0.160010155102,3.368
-0.569188401868,-0.528368313543,-0.132923671386,-2.64709680423,-0.0716427855395,2.10905139464,-0.820633700217,-0.54293584445,0.0358044452197,0.0142180142904,0.0372155530505,-0.000524664636433,0.00559742819551,-0.528779346336,0.573989992431,0.818826748685,0.00624428764126,0.0,0.818827082548,-0.573899107209,-0.0119486623172,0.0,-0.00620041259103,0.011971634916,-0.99990911329,0.0,0.280801073312,-0.239132570779,0.304934069312,1.0,-0.118599428571,-0.155873534694,3.385
-0.578094883789,-0.527616129741,-0.132672256743,-2.64658488197,-0.0715796134805,2.10917062708,-0.829698404013,-0.518255716956,0.0475064176715,0.0114521082759,0.0300246192704,0.000939919245764,0.000902033459633,-0.519315004,0.573739275437,0.819002720238,0.00620765384745,0.0,0.819002212591,-0.573647898967,-0.0120087752754,0.0,-0.00627433283048,0.0119742188022,-0.999908621241,0.0,0.278843053559,-0.241687460302,0.304908411906,1.0,-0.115452,-0.151736914286,3.402
-0.586520023445,-0.526905795915,-0.132492790216,-2.64604243688,-0.0715495261577,2.10927791116,-0.837968567179,-0.522871784892,0.0486929031708,0.0158889822941,0.0333362535672,0.000244791297618,0.00958443223267,-0.509986411531,0.57378291238,0.818972432027,0.00617024641135,0.0,0.818971427038,-0.573691666993,-0.0120174797468,0.0,-0.00630228700417,0.0119489100908,-0.9999087482,0.0,0.276968427381,-0.244119480918,0.304908898111,1.0,-0.112489714286,-0.14784362449,3.418
-0.595242764446,-0.526020101533,-0.13231218024,-2.64536958798,-0.0714775562229,2.10943016008,-0.846547608398,-0.500519329446,0.0599131426486,0.0179237066018,0.0421350697985,0.00154328755467,0.00909671605688,-0.498170799117,0.573841534948,0.818931479353,0.00615400634036,0.0,0.818930241797,-0.573750306553,-0.0120246289799,0.0,-0.00631660578912,0.0119401633365,-0.999908762333,0.0,0.275037753796,-0.246649413747,0.304908204332,1.0,-0.109342285714,-0.143707004082,3.435
-0.602923613169,-0.525107299485,-0.132045107736,-2.64471204269,-0.0713427089967,2.10957413026,-0.85437062016,-0.472788882983,0.0543459304791,0.0129939766368,0.0446831664754,0.0057236339625,0.00966275436473,-0.490916753809,0.57363089096,0.819079134943,0.00614154206624,0.0,0.819077346498,-0.573539029488,-0.0120842463288,0.0,-0.00637566270449,0.0119625252829,-0.999908120236,0.0,0.273361241033,-0.248848085961,0.304891885552,1.0,-0.10638,-0.139813714286,3.451
-0.611604752623,-0.524100202667,-0.131828053186,-2.64393802234,-0.0712063829039,2.10973982436,-0.86288536267,-0.477422907701,0.0559258375538,0.0163452027946,0.0453614149874,0.00558727564065,0.00826109990479,-0.464843978261,0.573714960491,0.819020184568,0.00615046985945,0.0,0.819018427179,-0.57362288188,-0.0120976124595,0.0,-0.00638026138351,0.0119781600216,-0.999907903733,0.0,0.271434648499,-0.25134856734,0.304894265193,1.0,-0.103047428571,-0.135433763265,3.469
-0.619137404763,-0.523128505444,-0.131675972894,-2.64314709647,-0.0710436115131,2.1099162595,-0.870272468233,-0.466182775395,0.0662507276929,0.00671473996241,0.0542915781114,0.0106359006665,0.00613897843745,-0.457847204738,0.573833526535,0.818936735166,0.00620117099085,0.0,0.81893586965,-0.573741637248,-0.0120549570546,0.0,-0.00631449874942,0.0119961308398,-0.999908105753,0.0,0.269670970009,-0.253675726292,0.304916194614,1.0,-0.0999000000001,-0.131297142857,3.486
-0.626659631316,-0.521984762593,-0.131423281094,-2.64228279347,-0.0708566295822,2.11011932924,-0.877872003362,-0.426192290616,0.0687128306814,0.0128614377499,0.0498809672236,0.0116743786835,0.00882006872212,-0.443210200881,0.573725100231,0.819012634326,0.00620975688105,0.0,0.819011700158,-0.573632853811,-0.0120801876246,0.0,-0.00633182763572,0.0120168017571,-0.999907747962,0.0,0.268135228745,-0.255717531905,0.304913014785,1.0,-0.0969377142858,-0.127403853061,3.502
-0.634087842589,-0.520917541334,-0.131206265211,-2.64145789116,-0.0706996921171,2.11032460232,-0.885249528303,-0.440775336602,0.0624331379445,0.0140060828698,0.050514184115,0.0129835603349,0.0139023786131,-0.433129008818,0.573725303343,0.819012450154,0.00621527944628,0.0,0.819011641215,-0.573633133745,-0.0120708875278,0.0,-0.00632103864337,0.0120159911735,-0.999907825965,0.0,0.266488271254,-0.257859487197,0.304918809533,1.0,-0.0937902857143,-0.123267232653,3.519
-0.641716229526,-0.519725403818,-0.13099203846,-2.64050001855,-0.070502929624,2.11055977671,-0.8927816021,-0.419803529347,0.0672212904357,0.00245855190938,0.0537187111336,0.00346736234497,0.0146361433874,-0.410739280804,0.573788657297,0.818967880203,0.00623977999814,0.0,0.818967684024,-0.573696927707,-0.012021421068,0.0,-0.00626553574559,0.0120081644217,-0.999908269317,0.0,0.264807822325,-0.260076732036,0.304941216037,1.0,-0.0904577142858,-0.118887281633,3.537
-0.648244291868,-0.518593417362,-0.130817270239,-2.63965337264,-0.0703203116018,2.11078955524,-0.89921014091,-0.402084103622,0.0702691495074,0.0136729719156,0.0542024500091,0.0175164850796,0.00657091010174,-0.398757453961,0.573870639663,0.818910176744,0.00627361606012,0.0,0.818910313404,-0.573778538215,-0.0120347241576,0.0,-0.00625581227843,0.0120441356314,-0.999907897563,0.0,0.263362944709,-0.26197510966,0.304933345695,1.0,-0.0874954285715,-0.114993991837,3.553
-0.654781442408,-0.517417643908,-0.130541176792,-2.63877261802,-0.0701296412646,2.11101118683,-0.905894647512,-0.385293257949,0.0660555631401,0.0123494467918,0.0461225301912,0.0120567877407,0.0139591232079,-0.373430721634,0.573683611365,0.819041271776,0.00626546728745,0.0,0.8190410927,-0.573591183609,-0.0120660456007,0.0,-0.00628889361749,0.0120539998653,-0.999907571181,0.0,0.261930916612,-0.263852192562,0.304926241226,1.0,-0.0843480000001,-0.110857371429,3.57
-0.661276315954,-0.51625257374,-0.130314292071,-2.63787177474,-0.0699420412316,2.11124941246,-0.912267775104,-0.381507094742,0.0741105890087,0.0131208044647,0.0508147141576,0.0135712284599,0.0135302673363,-0.363852036292,0.57375121451,0.8189938781,0.00627043730491,0.0,0.818993854186,-0.573658923679,-0.0120520948141,0.0,-0.00627362034237,0.0120505856639,-0.999907708278,0.0,0.260493199768,-0.265729274941,0.304931969623,1.0,-0.0812005714286,-0.10672075102,3.587
