nelsonifechukwu/NELSON_IML_WORK/CNN-GradCAM/train2dof/data_sample_2022-02-21-09-09-24/robot_state.csv
position_joint1,position_joint2,position_joint3,position_joint4,position_joint5,position_joint6,position_joint7,velocity_joint1,velocity_joint2,velocity_joint3,velocity_joint4,velocity_joint5,velocity_joint6,velocity_joint7,ee_T_00,ee_T_10,ee_T_20,ee_T_30,ee_T_01,ee_T_11,ee_T_21,ee_T_31,ee_T_02,ee_T_12,ee_T_22,ee_T_32,ee_T_03,ee_T_13,ee_T_23,ee_T_33,v_x,v_y,time
0.46508862145,0.547603925236,-0.123990653665,-1.35575064193,0.0794154769491,1.89408685176,0.159155391113,-0.000315821831869,0.00112023074766,0.000304631720249,-0.00208113134978,0.00018115150294,0.000372802665312,-0.00176482778396,0.573764591606,0.819005793067,0.00210979694023,0.0,0.818965566975,-0.573706224192,-0.0117181625941,0.0,-0.00838700088806,0.00845148053974,-0.999929112834,0.0,0.661699278696,0.260896644562,0.303377879381,1.0,0.0,0.0,0.0
0.465085325522,0.547606470878,-0.123993759714,-1.35575063552,0.0794158316372,1.89408837182,0.15916133018,-0.00051270673777,-0.00273230576065,-0.000893927416055,-0.00105122246144,0.00010447351884,0.000567457569427,-0.000553381018962,0.573774433914,0.818998902065,0.00210815175158,0.0,0.818958669684,-0.573716086779,-0.0117173384867,0.0,-0.00838716826145,0.00844976109524,-0.999929125961,0.0,0.661701069404,0.26089279408,0.303376314622,1.0,-0.00016,-0.000210285714286,0.009
0.465082256887,0.547595022508,-0.123986161139,-1.35575397075,0.0794158316372,1.89408603747,0.159158603417,-0.000103765910089,-0.00218056392492,0.00105303496003,-0.00350172478377,0.000328946665834,0.00193832452759,-0.000927732046093,0.573769549505,0.819002305014,0.00211550080928,0.0,0.818962123583,-0.573711130071,-0.0117186292388,0.0,-0.00838405941736,0.00845647046764,-0.999929095314,0.0,0.661699197415,0.260894757658,0.303382382927,1.0,-0.0005,-0.000657142857143,0.026
0.465079055066,0.54757238565,-0.123988526542,-1.35576798235,0.0794167621551,1.89408912615,0.159164382116,9.98679447765e-05,-0.00267391338623,0.00022069418991,-0.00170673536403,-3.72773018317e-06,-0.000477489956408,0.000843314048946,0.573779548251,0.818995272244,0.0021262529677,0.0,0.81895522446,-0.573721080614,-0.0117136198814,0.0,-0.00837368437284,0.00846250442981,-0.999929131203,0.0,0.661698526422,0.26089026643,0.303392098267,1.0,-0.00084,-0.001104,0.043
0.465081804135,0.547486998224,-0.123991336848,-1.35584924464,0.0794160498432,1.89410514786,0.159158887258,0.00105851814494,-0.00408069844484,-0.00146314939026,-0.0089696004134,-0.000426069871486,0.00553309686151,-0.000665768783288,0.573778964399,0.818995628567,0.00214646290838,0.0,0.818955801585,-0.573720378022,-0.011707680948,0.0,-0.00835723090842,0.00847564248393,-0.999929157579,0.0,0.661685317512,0.260882909243,0.303415390474,1.0,-0.00114,-0.00149828571429,0.058
0.465074719584,0.547343346486,-0.123989099829,-1.3560372935,0.0794098401884,1.89414124348,0.15915561957,-0.00227404702962,-0.00955626978684,0.000229293952241,-0.0131466149276,-0.000756979049728,0.00389359839831,-7.73513789146e-06,0.573789142267,0.818988503142,0.0021444903175,0.0,0.818948551821,-0.573730462051,-0.011720635082,0.0,-0.00836886708757,0.00848156368682,-0.999929010051,0.0,0.661654880474,0.260860522728,0.30343068998,1.0,-0.0015,-0.00197142857143,0.076
0.465058859977,0.547190576306,-0.123989377075,-1.3562429107,0.0794052614813,1.89422432537,0.159150873677,-0.00227144497394,-0.00973844331374,0.000403577009534,-0.0146463811696,-0.000286939020687,0.00604059964056,0.000755785533453,0.573808744688,0.818974690217,0.00217444357708,0.0,0.818935069048,-0.573749888809,-0.0117117323952,0.0,-0.00834418630111,0.0085011862389,-0.999929049677,0.0,0.661632799657,0.260832372743,0.303448251051,1.0,-0.00184,-0.00241828571429,0.093
0.465033995416,0.547000190429,-0.123984290784,-1.35645126118,0.0794003696139,1.89434345169,0.159138807225,-0.00173176304934,-0.00857265376724,0.000121933397657,-0.0123443682772,0.000500315392648,0.00647864170884,-0.0024899758681,0.573826208457,0.818962206711,0.00226569353954,0.0,0.818923731182,-0.573766970736,-0.0116675918848,0.0,-0.00825549562202,0.00855076484889,-0.999929363111,0.0,0.661619403682,0.2608039463,0.303494105021,1.0,-0.00218,-0.00286514285714,0.11
0.465008474951,0.546792499996,-0.123984288185,-1.35669791383,0.0793945030897,1.89447143227,0.159129038062,-0.00348225981779,-0.0119877646111,0.000535538085409,-0.0141761912418,5.34568932092e-05,0.0116712421567,-0.000271306010196,0.573851498162,0.818944260171,0.002345994585,0.0,0.818906795437,-0.573791933943,-0.0116285781534,0.0,-0.0081772019992,0.00859439337123,-0.999929632409,0.0,0.66160082807,0.260768264601,0.30353491173,1.0,-0.00252,-0.003312,0.127
0.464980735455,0.546565831155,-0.123986998232,-1.35701761571,0.0793818936824,1.89459300461,0.159104143199,-0.00255491893862,-0.0180657672589,-0.00134432036173,-0.0209118948498,-0.000414039215378,0.00413746343831,-0.00510983626186,0.57387024413,0.818931045031,0.00237345483092,0.0,0.818893895701,-0.573810536798,-0.0116190509025,0.0,-0.00815344508636,0.00861160105075,-0.999929678358,0.0,0.661566283404,0.260719586252,0.303553895168,1.0,-0.00284,-0.00373257142857,0.143
0.464939921162,0.546298535923,-0.123988445129,-1.35741623904,0.079359655904,1.89473885231,0.159027984896,-0.00327129832926,-0.0197057059714,-0.000263303133934,-0.0321528415168,-0.00126880960955,0.0112007546169,-0.0111102664461,0.573858677566,0.818939110984,0.00238696125645,0.0,0.818902121747,-0.573798907846,-0.0116135805647,0.0,-0.0081413363269,0.00861940757238,-0.999929709758,0.0,0.661523182471,0.260654242453,0.303566118273,1.0,-0.00318,-0.00417942857143,0.16
0.464903788934,0.54601334405,-0.123986740702,-1.35787133564,0.079317602064,1.89490021086,0.158930583054,-0.00379049703157,-0.0204599130228,0.00279494934125,-0.0312086155491,-0.00223031330509,0.016651155034,-0.00140046143794,0.573821567865,0.818965156131,0.00237238240694,0.0,0.818928079688,-0.57376196196,-0.0116085403045,0.0,-0.00814596407368,0.00860420702462,-0.999929802982,0.0,0.66146982358,0.260585194732,0.303565322016,1.0,-0.00352,-0.00462628571429,0.177
0.464853329839,0.545703389513,-0.123988871604,-1.35837953495,0.0792581989517,1.89507739926,0.158906056809,-0.00221145213025,-0.0197165397371,0.000666985821948,-0.0279398857453,-0.00122691736437,0.015786369404,5.96764101835e-05,0.573856888736,0.818940507596,0.00233734234885,0.0,0.818903222695,-0.573797661523,-0.0115975166335,0.0,-0.00815667162595,0.00856953698452,-0.999930013423,0.0,0.661413630018,0.260496738248,0.303558232764,1.0,-0.00386,-0.00507314285714,0.194
0.464790118749,0.545353055253,-0.123992359386,-1.35901618555,0.0792483380412,1.89527830118,0.158817919197,-0.0043217733606,-0.0167702950564,-0.00024967746642,-0.0346559400934,0.000149171530944,0.0119046827615,-0.01173875627,0.573871741673,0.818930263716,0.00227907441306,0.0,0.818891942125,-0.573812428933,-0.0116632082519,0.0,-0.00824375170256,0.00855966610544,-0.999929383844,0.0,0.661334531735,0.260393976803,0.30352076179,1.0,-0.00422,-0.00554628571429,0.212
0.464739730034,0.545003424806,-0.123990644692,-1.3596136572,0.0792272889452,1.89546910534,0.158750339786,-0.00989907605884,-0.0215727040108,0.000925501081146,-0.0396699141022,0.000336689798654,0.0137186119913,-0.00190821858133,0.573884086387,0.81892172311,0.00223913170009,0.0,0.818882699282,-0.573824729778,-0.011706887465,0.0,-0.00830231515764,0.00855214728325,-0.999928963647,0.0,0.661258426609,0.26030485781,0.303500346742,1.0,-0.00452,-0.00594057142857,0.227
0.464677828262,0.544590522414,-0.123998062439,-1.36032219545,0.0791964910036,1.89572314687,0.158650135498,-0.00344836876192,-0.0246034514463,-0.000600084376254,-0.0447436572899,-6.46934296361e-06,0.0156440020998,-0.010638978763,0.573889278434,0.818918170657,0.00220743469576,0.0,0.818878647307,-0.573829950229,-0.0117343984057,0.0,-0.00834298056276,0.00854203103214,-0.99992871165,0.0,0.661176642314,0.260193203775,0.303477599397,1.0,-0.00486,-0.00638742857143,0.244
0.464601256859,0.544149920371,-0.123998759324,-1.3610628366,0.0791502539673,1.89597826535,0.158561947164,-0.00748282634265,-0.0263686760326,0.000354802500511,-0.0458997045683,-0.00140695752397,0.0215099598821,-0.00673244278632,0.573909179157,0.818904330581,0.00216756471407,0.0,0.818864275321,-0.5738499864,-0.011757491745,0.0,-0.00838456535396,0.00852283783619,-0.999928527595,0.0,0.661091464592,0.260069875001,0.303458979019,1.0,-0.0052,-0.00683428571429,0.261
0.464531259836,0.543584446892,-0.123999548414,-1.36197580312,0.0790983944379,1.89629702692,0.158452350211,-0.00173440600059,-0.0363583623781,-0.0023825474552,-0.0534886212149,-0.00536963367696,0.0145767959773,-0.00419879919403,0.573914257482,0.818900832429,0.0021444363654,0.0,0.81886041808,-0.573855093993,-0.0117768289814,0.0,-0.00841362131252,0.00851504806016,-0.9999283499,0.0,0.66098113346,0.259935442392,0.303452163201,1.0,-0.00558,-0.00733371428571,0.28
0.464465717429,0.543162386579,-0.123999445088,-1.36265617019,0.0790552608972,1.89653972162,0.158360556213,-0.0031155415302,-0.0277051434073,0.000953177627625,-0.047115418969,-0.00276135053542,0.0214382010292,-0.00849062896271,0.573919026254,0.818897528581,0.00212976280055,0.0,0.818856922753,-0.573859918448,-0.0117847765779,0.0,-0.00842850118223,0.00850764230973,-0.999928287624,0.0,0.660903430372,0.259826454658,0.303447917086,1.0,-0.00586,-0.00770171428571,0.294
0.464386772164,0.542570867391,-0.124013019917,-1.36360282124,0.0789981027408,1.896865109,0.15823777904,-0.00116618435793,-0.0337784945971,0.00101283042206,-0.053801957651,-0.00309543237269,0.0173022862994,-0.00852414044859,0.573917575699,0.818898618269,0.00210147621343,0.0,0.818857642825,-0.573858576849,-0.0118000620676,0.0,-0.00845726720214,0.00849323639465,-0.999928167204,0.0,0.660782578253,0.259673187444,0.303443775384,1.0,-0.00624,-0.00820114285714,0.313
0.46431012818,0.541980223957,-0.124005915557,-1.36452938682,0.078948189573,1.89721352757,0.158111844398,-0.00405467943849,-0.0305828306472,0.000320456512725,-0.0565124336757,-0.00155148058248,0.0223348247055,-0.00569321910509,0.573922767137,0.818894941452,0.00211639471128,0.0,0.818854095437,-0.573863644191,-0.0117997950076,0.0,-0.00844843311883,0.0085053532337,-0.99992813889,0.0,0.660685159424,0.259541464846,0.303450984775,1.0,-0.00656,-0.00862171428571,0.329
0.464234198025,0.541354050166,-0.124016894087,-1.36549059592,0.0788882452014,1.89757442895,0.157984225888,-0.00337583611886,-0.0378539351799,1.11310066399e-05,-0.0552212135234,-0.00159452632083,0.0211821491162,-0.00540894676507,0.573925495397,0.818892982622,0.00213439607249,0.0,0.818852439712,-0.573866371484,-0.0117820439007,0.0,-0.00842353712098,0.00850993465638,-0.999928309948,0.0,0.66057747989,0.25939385823,0.303467827743,1.0,-0.0069,-0.00906857142857,0.346
0.464143890304,0.540717790138,-0.124009205163,-1.36645504678,0.0788223394123,1.89792999635,0.157871867664,-0.00854811245313,-0.0392933484606,0.00063947576186,-0.0602158920724,-0.00752348687591,0.0189983008172,-0.00567878155859,0.573937857779,0.818884263237,0.00215539599412,0.0,0.818844014737,-0.573878672714,-0.0117684083595,0.0,-0.00840019034634,0.00851943221794,-0.999928425477,0.0,0.660467874286,0.259246007533,0.30348907922,1.0,-0.00722,-0.00948914285714,0.362
0.464065795062,0.540046871429,-0.124020103431,-1.36746506918,0.0787782821551,1.89829600858,0.157729327326,-0.00396941891099,-0.0439048546895,-0.000987998714832,-0.064227423141,-0.00044405730273,0.0185973127488,-0.0136762490208,0.573936800858,0.818884923587,0.00218573630789,0.0,0.818844952237,-0.573877379961,-0.0117662171614,0.0,-0.00838099457562,0.00854300865787,-0.999928385402,0.0,0.660350444322,0.259094739584,0.303514599659,1.0,-0.00754,-0.00990971428571,0.378
0.463968217896,0.539356841353,-0.124025452482,-1.36855703688,0.0787149651885,1.89871588124,0.157605513983,-0.00260102567094,-0.0473322924836,-0.00233514428309,-0.0720625878695,-0.00517947728523,0.0256017151741,-0.00261307301931,0.573962667613,0.818866756491,0.00219959124166,0.0,0.818826979015,-0.573903204551,-0.011757429326,0.0,-0.00836557661786,0.00854957475752,-0.999928458391,0.0,0.660229985114,0.258924893997,0.303518988465,1.0,-0.00786,-0.0103302857143,0.394
0.463865236742,0.538602482043,-0.124022985527,-1.36971516068,0.0786507111299,1.89915960384,0.157458994953,-0.00241680595865,-0.048014379747,-0.000286863127707,-0.0693831742922,-0.00515530085447,0.0285465781517,-0.00648782762906,0.573972152284,0.818860008149,0.00223659519262,0.0,0.818820658357,-0.573912492788,-0.0117442313752,0.0,-0.00833343192162,0.00857239715265,-0.999928531406,0.0,0.660100118773,0.258750484882,0.303539032409,1.0,-0.0082,-0.0107771428571,0.411
0.463756946394,0.537825216989,-0.124026917469,-1.37093705179,0.078570955685,1.89962820988,0.157302629975,-0.007186206334,-0.0456443869615,0.000209782886163,-0.0772755484229,-0.00261922901757,0.0210776037374,-0.0122144756069,0.573981717798,0.818853262511,0.00225144612441,0.0,0.818814185718,-0.573922083609,-0.0117268117737,0.0,-0.00831054343262,0.00857465667993,-0.999928702524,0.0,0.659964511889,0.25856078705,0.303547122,1.0,-0.00854,-0.011224,0.428
0.463658204488,0.53702077439,-0.124035808811,-1.37220465381,0.0785041128234,1.90009673349,0.157147037853,-0.004012679738,-0.0482658088186,-0.000463448397852,-0.07052520496,-0.0051144074717,0.0243491816276,-0.0107301527097,0.573993363309,0.818845080005,0.00225847968451,0.0,0.818806037302,-0.573933642144,-0.0117300722765,0.0,-0.00830905447576,0.00858240567658,-0.999928648418,0.0,0.659816690962,0.258371536363,0.303552686749,1.0,-0.00888,-0.0116708571429,0.445
0.463537970421,0.536228947354,-0.124033300975,-1.37345169718,0.0784231464892,1.90057801424,0.156997939294,-0.0110343277585,-0.0487444109209,0.00019998847657,-0.0819162400016,-0.00834739994782,0.0301852269394,-0.00958266853581,0.574014996754,0.818829864924,0.0022765568477,0.0,0.818791107582,-0.57395525761,-0.0117145766966,0.0,-0.00828576300877,0.00858853256316,-0.999928789084,0.0,0.65967930412,0.258175593871,0.303559697647,1.0,-0.0092,-0.0120914285714,0.461
0.463426714161,0.535351071625,-0.124042193851,-1.37481804593,0.0783403063656,1.90107012806,0.156826388575,-0.00778366724707,-0.051114173539,-0.000296910527874,-0.0846397888207,-0.0012883882756,0.0315743957672,-0.013135434226,0.574024611292,0.818823122343,0.0022774654732,0.0,0.818784389042,-0.573964880271,-0.0117127015834,0.0,-0.00828360516898,0.00858829750094,-0.999928808982,0.0,0.65951874607,0.257966378389,0.30357180934,1.0,-0.00954,-0.0125382857143,0.478
0.463298323205,0.534407146151,-0.124040364709,-1.37635013682,0.078269886209,1.90162462103,0.156649988463,-0.00901191818159,-0.0514902609231,0.000701423901938,-0.0828144595355,-0.00849336972475,0.0259589071609,-0.00452032108159,0.574047476307,0.818807136769,0.00226155342482,0.0,0.818767967803,-0.573987565224,-0.011748905018,0.0,-0.0083221439611,0.00859628228175,-0.999928420364,0.0,0.659345782649,0.257749831282,0.303557912682,1.0,-0.00988,-0.0129851428571,0.495
0.463160856348,0.533429041868,-0.124048862762,-1.37790844562,0.0781674448598,1.90219981907,0.156449875986,-0.00753386503348,-0.0606833005143,0.00144465753166,-0.0857475205268,-0.00336337166021,0.0325518074154,-0.00233453037612,0.574061640787,0.818797242621,0.00224832259503,0.0,0.818757982637,-0.574001861462,-0.0117463103781,0.0,-0.00832746552333,0.00858410355164,-0.999928480685,0.0,0.659155831058,0.257494298405,0.303554815201,1.0,-0.01026,-0.0134845714286,0.514
0.463052684201,0.53266351265,-0.124049245315,-1.37916202478,0.078102109307,1.90267938159,0.156294150753,-0.0066626058902,-0.0506947021721,0.000110187998093,-0.0885709574094,-0.00742210155471,0.0345159429704,-0.010661174185,0.574077095861,0.818786420018,0.00224350235525,0.0,0.818746980717,-0.574017212726,-0.0117629912421,0.0,-0.00834372916176,0.0085898900125,-0.999928295416,0.0,0.658999470242,0.257294987159,0.303538697051,1.0,-0.01056,-0.0138788571429,0.529
0.462926518555,0.531686788827,-0.124044536329,-1.38071186884,0.0780130797955,1.90324226235,0.156101473412,-0.00561102688761,-0.062440764926,0.00101092225043,-0.0942296127189,-0.00156467875149,0.037596042697,-0.0189413734179,0.574076928002,0.818786549844,0.0022390694191,0.0,0.818746982525,-0.574016989364,-0.0117737601859,0.0,-0.00835509345583,0.00859244084024,-0.999928178608,0.0,0.658824403354,0.257078239686,0.303538979058,1.0,-0.01088,-0.0142994285714,0.545
0.462791091196,0.530692197152,-0.124047466485,-1.38232463082,0.0779036149054,1.90381645643,0.155902975827,-0.00743699505126,-0.0586352932933,0.000861532511898,-0.0920877924261,-0.00348482468057,0.0318751046603,-0.00425557143792,0.574085600787,0.818780591934,0.0021936593148,0.0,0.818740498664,-0.57402590167,-0.0117901213561,0.0,-0.00839446689627,0.00856474152117,-0.999928086478,0.0,0.658630354036,0.256830222907,0.30352206657,1.0,-0.01122,-0.0147462857143,0.562
0.4626590031,0.529662631575,-0.124050002349,-1.38397675258,0.0778157631121,1.90441117036,0.155677348794,-0.00494542973347,-0.061761741769,0.00146651324246,-0.100251538977,-0.002471474226,0.0334764960225,-0.0182857402087,0.574076913189,0.818786731226,0.00217564080384,0.0,0.818746258833,-0.574017137774,-0.0118167715795,0.0,-0.00842672290867,0.00856519842752,-0.999927811253,0.0,0.658429531216,0.256585315269,0.303512640029,1.0,-0.01156,-0.0151931428571,0.579
0.462516714174,0.528587987293,-0.124053161964,-1.38564151323,0.077699385776,1.90503297524,0.155446567486,-0.0100828915582,-0.0672026808085,0.000267501599979,-0.0999676749745,-0.00388973910384,0.044041922695,-0.0182643623137,0.57406558747,0.818794625755,0.00219294721045,0.0,0.818754516321,-0.574005886532,-0.0117911463473,0.0,-0.00839592430055,0.00856454168138,-0.999928075954,0.0,0.658236204942,0.256329688475,0.303531000176,1.0,-0.0119,-0.01564,0.596
0.462381053406,0.527487486599,-0.124058047927,-1.38735649956,0.0775951314412,1.90570457138,0.155213720425,-0.00544713988854,-0.0641017416105,-0.00172883386359,-0.105569336356,-0.00887983612964,0.037349171976,-0.0199239906039,0.57405442014,0.818802332472,0.00223829323533,0.0,0.818762864153,-0.573994599441,-0.0117609097378,0.0,-0.0083452527682,0.00858419887242,-0.999928331575,0.0,0.658039282587,0.25607713316,0.303547803944,1.0,-0.01224,-0.0160868571429,0.613
0.462238383743,0.526402267941,-0.124056492266,-1.38903469034,0.0774885018995,1.90634007958,0.154976539152,-0.00534989490795,-0.0670391171094,-0.000792072950168,-0.105779732119,-0.0123095675608,0.035367844887,-0.00938227597426,0.574037860938,0.81881385005,0.00227158032175,0.0,0.818774845179,-0.573977948191,-0.0117394545677,0.0,-0.00830875094903,0.00859896977167,-0.999928508633,0.0,0.657843327926,0.255825094237,0.303567740355,1.0,-0.01256,-0.0165074285714,0.629
0.462086024947,0.525213443424,-0.124062597951,-1.39087790461,0.0773728533259,1.907009894,0.154742476806,-0.00617492186732,-0.0732786475086,-0.00155967477248,-0.109052719843,-0.00653050247122,0.0420094668125,-0.00962957684456,0.574043278948,0.818810024636,0.00228130472076,0.0,0.818771167314,-0.573983350998,-0.0117318051932,0.0,-0.00829684851106,0.00860259607696,-0.999928576272,0.0,0.657622413236,0.255544914409,0.303584952375,1.0,-0.0129,-0.0169542857143,0.646
0.46192943513,0.52403446388,-0.12407054184,-1.39274836977,0.0772488363272,1.90767502768,0.154469392318,-0.00854966341826,-0.0691068102084,-0.0011220995266,-0.108775611813,-0.00566166718708,0.0342536436116,-0.0136526519652,0.574020393621,0.818826150423,0.00225166406255,0.0,0.818786969388,-0.573960643394,-0.0117399104183,0.0,-0.00832073930006,0.00858274643768,-0.999928548328,0.0,0.657395257628,0.255255905449,0.303581611895,1.0,-0.01324,-0.0174011428571,0.663
0.461777621023,0.52290565872,-0.124080541603,-1.39455716736,0.077136288761,1.9083514333,0.154233486601,-0.0100170059448,-0.0766632934719,-0.00174045793161,-0.112410023407,-0.00623240135992,0.0461041102262,-0.0108017045575,0.574025328829,0.818822714135,0.00224311851628,0.0,0.818783473101,-0.57396566284,-0.0117383541626,0.0,-0.00832431827777,0.00857490607092,-0.999928585806,0.0,0.657181571235,0.254978122777,0.30357312355,1.0,-0.01356,-0.0178217142857,0.679
0.461603424852,0.521545118439,-0.124086155857,-1.39674463835,0.0770052999927,1.90921271065,0.153935878432,-0.0106786183063,-0.0724133150246,0.000278250733005,-0.11651066982,-0.0036824017182,0.0527584306434,-0.0144687796028,0.57401032646,0.818833161902,0.00226825678198,0.0,0.818794288132,-0.573950609931,-0.0117199822168,0.0,-0.00829500243705,0.00858479179934,-0.999928744603,0.0,0.656926770384,0.254655843884,0.30356282421,1.0,-0.01394,-0.0183211428571,0.698
0.461438594485,0.520335345852,-0.12409040576,-1.39864611871,0.0768870166092,1.90991733133,0.153677565726,-0.0177846978013,-0.0740451369269,0.000246612772871,-0.12076750778,-0.00800233714736,0.0471652585482,-0.0181062602294,0.574006283801,0.818835974021,0.00227611664752,0.0,0.818797216298,-0.573946552898,-0.011714089854,0.0,-0.00828570839706,0.00858780450198,-0.99992879579,0.0,0.656700028575,0.254363995009,0.303568689052,1.0,-0.01426,-0.0187417142857,0.714
0.461273138412,0.519023411678,-0.124096672611,-1.40070579492,0.0767554945355,1.91065610915,0.153412889824,-0.00897566901453,-0.0754335557251,-0.00740256659355,-0.124763550071,-0.00256529369908,0.0418547564151,-0.00832109442151,0.574003351765,0.818838063464,0.00226382102527,0.0,0.818799165233,-0.57394368697,-0.0117182806898,0.0,-0.00829622820939,0.00858011235235,-0.999928774598,0.0,0.656446096375,0.254053376977,0.303573650438,1.0,-0.0146,-0.0191885714286,0.731
0.461113201815,0.517829238146,-0.124105578225,-1.40256758464,0.076627195143,1.91132849744,0.153148389417,-0.00981530398773,-0.0829326938181,-0.00184500947847,-0.124851095078,-0.00575868444647,0.0465915241607,-0.0161693036496,0.573984741173,0.818851109308,0.00226375518187,0.0,0.818812294315,-0.573925165891,-0.0117080116369,0.0,-0.00828805181904,0.00857397567888,-0.999928895041,0.0,0.656204681543,0.253747320115,0.303587915914,1.0,-0.01492,-0.0196091428571,0.747
0.460930956867,0.516485657014,-0.124097902358,-1.40471133144,0.0764907151265,1.91210773204,0.152849093131,-0.0100155875282,-0.077315465901,0.00113763629378,-0.128550825146,-0.00485250734341,0.0512919185651,-0.0212588560117,0.573963121536,0.818866333393,0.00223831487039,0.0,0.818827179894,-0.573903635688,-0.0117223423798,0.0,-0.00831461456351,0.00856115010574,-0.999928784411,0.0,0.655955958389,0.253441830091,0.303573577266,1.0,-0.01524,-0.0200297142857,0.763
0.460753385377,0.515111792915,-0.124108517078,-1.40688452616,0.0763649194082,1.91292575377,0.152565092943,-0.0117152607377,-0.0778817295548,-0.00033606564069,-0.13084776482,-0.00855733710354,0.0414793593234,-0.0242905355194,0.573964376199,0.818865411589,0.00225376553609,0.0,0.818826430711,-0.573904803348,-0.0117175067595,0.0,-0.00830177396349,0.00857103926647,-0.999928806383,0.0,0.655694121074,0.253114468063,0.303573834508,1.0,-0.01558,-0.0204765714286,0.78
0.460560331616,0.51371131155,-0.124110543755,-1.4091415604,0.0762273516735,1.91372294948,0.152247881116,-0.0131126816133,-0.0822663486029,-0.00108791416328,-0.134404612972,-0.00159462826191,0.0412517836575,-0.0213922102533,0.573945533129,0.818878756934,0.00220303056835,0.0,0.818839029382,-0.573886064379,-0.0117548276611,0.0,-0.00836165110824,0.00855072286901,-0.999928481407,0.0,0.655410663102,0.252769182841,0.303550342193,1.0,-0.01592,-0.0209234285714,0.797
0.460364347592,0.512325872317,-0.124112128984,-1.41141648801,0.0760966764499,1.91451519332,0.151925780453,-0.0139857387808,-0.0819117016792,-0.000166684365456,-0.132351053687,-0.009895354547,0.0521770408483,-0.0196433107939,0.573927254517,0.818891775491,0.00212448982138,0.0,0.818850844273,-0.573867907361,-0.0118180639668,0.0,-0.00845870171289,0.00852251337488,-0.999927905967,0.0,0.6551209352,0.252420763854,0.303506963476,1.0,-0.01626,-0.0213702857143,0.814
0.460167122244,0.510889222795,-0.124118424155,-1.41371999673,0.0759618123673,1.91538298612,0.151608763872,-0.0125282892922,-0.0814208867802,-0.000886954847235,-0.133357670093,-0.00230883600291,0.0472405813643,-0.0135657365745,0.573917862422,0.818898356693,0.00212497048278,0.0,0.818857384342,-0.573858466786,-0.0118233289386,0.0,-0.00846283527101,0.00852583159114,-0.999927842704,0.0,0.654841558588,0.252070508252,0.303492067629,1.0,-0.0166,-0.0218171428571,0.831
0.459977982757,0.5094803734,-0.12411646891,-1.41593016198,0.0758195930185,1.91621718517,0.151290051343,-0.0153374910107,-0.0885078838008,-0.00011340793712,-0.140086148057,-0.0101763185672,0.0519622979045,-0.020531157055,0.573900024779,0.818910807901,0.00214409927744,0.0,0.818870105308,-0.573840577225,-0.0118105657568,0.0,-0.00844159130549,0.00853398708731,-0.999927952705,0.0,0.654555192034,0.251710744937,0.303497158183,1.0,-0.01694,-0.022264,0.848
0.45976855944,0.507975676965,-0.124122573275,-1.41830924194,0.075658320459,1.91706423176,0.150957130114,-0.00662744787288,-0.0929654861186,0.00170472378758,-0.142406367067,-0.00338946376404,0.0466555477076,-0.0161459560944,0.573869979137,0.818931937081,0.00211574466806,0.0,0.818890952498,-0.573810734276,-0.0118150771223,0.0,-0.00846186991025,0.00851304613068,-0.999927959807,0.0,0.654275433632,0.251366088625,0.303492360136,1.0,-0.01726,-0.0226845714286,0.864
0.459554258726,0.506444041864,-0.124133766549,-1.42071966287,0.07550812873,1.91795039448,0.150634128919,-0.0158388213105,-0.0922891407745,-0.00190272672565,-0.143691458545,-0.00788331620814,0.0564218870781,-0.0230744143896,0.573873107274,0.818929740554,0.00211747131533,0.0,0.818888799504,-0.573813876435,-0.0118116958411,0.0,-0.00845807743114,0.00851255203088,-0.9999279961,0.0,0.653980067689,0.250989406508,0.303493253444,1.0,-0.0176,-0.0231314285714,0.881
0.459333200758,0.504833264496,-0.12413435213,-1.42317620049,0.0753643689246,1.9189004301,0.150295535528,-0.0160787272578,-0.0962723323558,0.000173359339234,-0.148840174266,-0.0137872051449,0.0589572686426,-0.0243986489076,0.573865449385,0.81893486618,0.00220858758807,0.0,0.818895067367,-0.573805822475,-0.0117683320074,0.0,-0.00837035813549,0.00856220546664,-0.999928310301,0.0,0.653686442637,0.250615442943,0.303532105957,1.0,-0.01794,-0.0235782857143,0.898
0.459105620438,0.503178849114,-0.124135238807,-1.42564677593,0.0752054748484,1.91983861135,0.149945473028,-0.0147873619686,-0.0931036611261,0.00173022123962,-0.151077374794,-0.00661880821616,0.0561430242067,-0.0127553801954,0.573849756887,0.818945586334,0.00230868911431,0.0,0.818907151015,-0.573789819707,-0.0117075923576,0.0,-0.00826333787206,0.00860916680646,-0.999928797212,0.0,0.653389678405,0.250232849504,0.303593048548,1.0,-0.01828,-0.0240251428571,0.915
0.458885201627,0.501574977258,-0.124141530678,-1.42800552389,0.0750508119703,1.92070338236,0.149627134434,-0.0139676730326,-0.106919653099,-0.000586081935067,-0.159951531873,-0.00138190080087,0.0585195532477,-0.0245935017545,0.573858812183,0.818938970125,0.00240287160118,0.0,0.818901840896,-0.573798618869,-0.0116476119031,0.0,-0.00816007599697,0.00865196728628,-0.99992927581,0.0,0.653082283249,0.249833182006,0.303670349182,1.0,-0.01862,-0.024472,0.932
0.458645380144,0.499864241292,-0.124139713289,-1.43061729094,0.0748856702502,1.92161694302,0.14926560949,-0.0128920208646,-0.101303747377,0.000403957283956,-0.155798769477,-0.00588647168877,0.0601530468351,-0.0211894319117,0.573839931177,0.818952181669,0.00240923779961,0.0,0.818915036622,-0.573779612998,-0.0116561316006,0.0,-0.00816360004645,0.00866188158443,-0.999929161212,0.0,0.652768366639,0.249452864315,0.303694670073,1.0,-0.01894,-0.0248925714286,0.948
0.458393452604,0.498189517579,-0.124147814769,-1.43324687979,0.0747234042433,1.92260183301,0.148885649065,-0.020117560846,-0.0974006719722,-0.000189871789936,-0.15793139402,-0.00857191885268,0.0584869723537,-0.0195237557947,0.573830854258,0.818958475651,0.0024316173462,0.0,0.818921625856,-0.573770462437,-0.0116436265993,0.0,-0.00814061321365,0.00867294320978,-0.999929252734,0.0,0.652447700311,0.249034519181,0.30369661776,1.0,-0.01928,-0.0253394285714,0.965
0.458131740229,0.496498371212,-0.124146985648,-1.43591149321,0.0745580103882,1.92355728326,0.148485003758,-0.0135038839133,-0.0974975994663,-0.00130459228682,-0.154490457731,-0.00763188259899,0.0585021888469,-0.0214463166149,0.573806571528,0.818975533699,0.00241672835391,0.0,0.818938400713,-0.573746140209,-0.0116623039475,0.0,-0.00816471023054,0.00867122524529,-0.999929071164,0.0,0.652112466605,0.248608792068,0.303689864712,1.0,-0.01962,-0.0257862857143,0.982
0.45786898501,0.494833979205,-0.124140476142,-1.43863947915,0.0743832261649,1.92449517405,0.148094243024,-0.0169547086096,-0.100062858922,0.000218116986625,-0.161806129674,-0.00842722106929,0.0622157103503,-0.0139050669018,0.573787046668,0.818989525342,0.00230853984583,0.0,0.818950848107,-0.573726867902,-0.0117361123448,0.0,-0.0082874413024,0.00862477596,-0.999928463219,0.0,0.651755866817,0.248175393899,0.3036320845,1.0,-0.01996,-0.0262331428571,0.999
0.457573536609,0.493004850333,-0.124146515765,-1.44160695963,0.0741930001571,1.92557399975,0.147674566018,-0.0169187496256,-0.110065070704,-0.000102984319057,-0.17087261551,-0.0132253884107,0.0727598639643,-0.0193851695574,0.573787237049,0.818989551328,0.00225129236263,0.0,0.818950121286,-0.573727265314,-0.0117673608529,0.0,-0.00834587845863,0.00859582312081,-0.999928226493,0.0,0.651384036335,0.247694244081,0.30358694576,1.0,-0.0212965714286,-0.0279897795918,1.017
0.45731530537,0.49137127589,-0.124151963464,-1.44422503076,0.0740343110037,1.92653062115,0.147310057845,-0.0191806656554,-0.112233640879,-0.000833580622759,-0.175109989883,-0.00835435046168,0.0664474468158,-0.0289178832866,0.573792312955,0.81898606121,0.00222711446002,0.0,0.818946237637,-0.573732351865,-0.0117896218947,0.0,-0.00837792968277,0.00858884678555,-0.999928018412,0.0,0.651055129912,0.247273426745,0.303560674839,1.0,-0.0225308571429,-0.0296119836735,1.032
0.456966003777,0.489179524079,-0.124156393764,-1.44777933866,0.0738156029214,1.92777018856,0.14679972568,-0.0172722043321,-0.119941758514,0.000380351545348,-0.191619738262,-0.00982378268293,0.0723318843902,-0.0327470002345,0.573781252648,0.818994086008,0.00212322750676,0.0,0.818952720978,-0.573721508413,-0.0118666966042,0.0,-0.0085007767177,0.00854787555936,-0.999927332669,0.0,0.650593329558,0.246700173153,0.303500793504,1.0,-0.0240942857143,-0.0316667755102,1.051
0.456633108447,0.48717137355,-0.124174929953,-1.45087748964,0.0736195914576,1.92896768926,0.146356406714,-0.0246235938083,-0.127285245465,-0.0011062206786,-0.190188246823,-0.0163838962324,0.0753800537487,-0.0247473920697,0.573805030847,0.818977207733,0.00220605760536,0.0,0.818937055772,-0.573745093855,-0.0118073224182,0.0,-0.0084043750273,0.00858188855255,-0.999927856232,0.0,0.650225583462,0.246181711312,0.303525932314,1.0,-0.0254108571429,-0.0333971265306,1.067
0.456260323012,0.484900883976,-0.124199614786,-1.45432479278,0.0734067535471,1.93026004804,0.145828193942,-0.022318658446,-0.13676476487,0.00120231222509,-0.211051104219,-0.0114018696835,0.0810668737397,-0.0311155329767,0.573804533343,0.818977297483,0.00230013579767,0.0,0.818938363519,-0.573744230635,-0.0117584637944,0.0,-0.00831038525799,0.00863089544789,-0.999928219994,0.0,0.64977819172,0.24557008996,0.303574366621,1.0,-0.026892,-0.0353437714286,1.085
0.455919130235,0.482813001616,-0.124237469282,-1.45754592872,0.0732035320511,1.93134974997,0.145339414849,-0.0244024717167,-0.147966206261,-0.00436438042093,-0.221845066811,-0.0159662728264,0.0809239139759,-0.0316972191446,0.573817097925,0.818968610243,0.00225842140334,0.0,0.818929181828,-0.573757001482,-0.0117747739963,0.0,-0.00834754591933,0.00860621953172,-0.999928123148,0.0,0.649394131165,0.245043433342,0.303585490088,1.0,-0.028044,-0.0368578285714,1.099
0.455485944683,0.480181753414,-0.124264647623,-1.46163309458,0.0729509936799,1.93282547746,0.144737830176,-0.0198563186567,-0.143954201055,-3.49309035484e-05,-0.232022569519,-0.0125962012036,0.0850104167144,-0.0326328308845,0.573829969368,0.818959553941,0.00227203997474,0.0,0.818920266998,-0.573769782698,-0.0117719863934,0.0,-0.00833731336227,0.00861590405712,-0.999928125119,0.0,0.648878990488,0.24435659042,0.30359318509,1.0,-0.0295251428571,-0.0388044734694,1.117
0.455019168684,0.477414499674,-0.124282063163,-1.46582240498,0.0726977689017,1.93437407615,0.144129783363,-0.0244263015115,-0.155521382004,-0.00087379916866,-0.233918840031,-0.015559702318,0.0891863525565,-0.0309447941032,0.573861767163,0.818936960575,0.00238195150198,0.0,0.818899034948,-0.573801094706,-0.0117226779252,0.0,-0.00823352637143,0.00867794153359,-0.999928448627,0.0,0.648359897061,0.243648499018,0.303650653382,1.0,-0.0310062857143,-0.0407511183673,1.135
0.454558393576,0.474726037768,-0.124294277078,-1.46997518471,0.0724313549519,1.93590111553,0.143533246041,-0.0258102732268,-0.159803511475,-0.000412915848318,-0.252959023935,-0.0151974407825,0.0898232251814,-0.043541655614,0.57388736654,0.818918882319,0.00242932257586,0.0,0.818881589049,-0.573826535665,-0.0116960242764,0.0,-0.0081842429423,0.00870169563679,-0.999928646785,0.0,0.647838379302,0.242947586886,0.303667318441,1.0,-0.0324051428571,-0.0425896163265,1.152
0.454162570033,0.472408403594,-0.124295716011,-1.47354642076,0.0722116292401,1.937123882,0.143016251818,-0.0275440757796,-0.163202844277,0.000578883523204,-0.257099644676,-0.0157063921654,0.0865526069688,-0.0348272459653,0.573899814037,0.818910234151,0.00240390363886,0.0,0.818872326797,-0.573838773889,-0.0117439724712,0.0,-0.00823796473596,0.00870852144947,-0.999928146214,0.0,0.647332739622,0.242302888025,0.303671225501,1.0,-0.0336394285714,-0.0442118204082,1.167
0.453615258898,0.469149230443,-0.124290990154,-1.47849507254,0.0718960313843,1.93897701284,0.142232829392,-0.0347212324288,-0.177673348034,-0.000730769221533,-0.255362641793,-0.0216743766063,0.100917559135,-0.0432487091175,0.573853577819,0.818942197962,0.00254843525232,0.0,0.81890618053,-0.573792033723,-0.0116668944536,0.0,-0.00809239614467,0.00878218758736,-0.99992869061,0.0,0.646741593558,0.241527949416,0.303732445082,1.0,-0.0351205714286,-0.0461584653061,1.185
0.453111480508,0.466123828525,-0.124291464124,-1.4831157809,0.0715821628931,1.94066723345,0.141509101826,-0.0337382036224,-0.181034321897,-0.000125363738513,-0.279160653096,-0.0164802524405,0.0939609440385,-0.036529879046,0.573806254655,0.818975135732,0.00261841029839,0.0,0.818940110334,-0.573744564186,-0.0116197097799,0.0,-0.00801410901505,0.00881195302503,-0.999929059254,0.0,0.646145656721,0.240760254451,0.303767240947,1.0,-0.0365194285714,-0.0479969632653,1.202
0.452638360601,0.463389688349,-0.124294242385,-1.4874205309,0.071296522437,1.94211359898,0.140870784903,-0.0260252526631,-0.180334803327,0.000771886070166,-0.286640569813,-0.0227949240856,0.106406351075,-0.04488994101,0.573796323124,0.818982432449,0.00251034076872,0.0,0.818945819691,-0.573734813204,-0.0116985225325,0.0,-0.00814077128281,0.00876857111587,-0.99992841744,0.0,0.645560182857,0.240033463862,0.303728794745,1.0,-0.0377537142857,-0.0496191673469,1.217
0.452068654722,0.46019917814,-0.124290647882,-1.49241102132,0.0709589761972,1.94385729193,0.140124889788,-0.0314461697748,-0.186704138228,0.000887034891305,-0.291580619682,-0.0223787005957,0.100300860413,-0.0498847704671,0.573789032466,0.818987707718,0.00245514368189,0.0,0.818950286374,-0.573727626134,-0.0117382434662,0.0,-0.00820505132528,0.00874608437194,-0.999928088985,0.0,0.6448952158,0.239185488536,0.303701912168,1.0,-0.0391525714286,-0.0514576653061,1.234
0.451395622798,0.456566076676,-0.124296232198,-1.49816341571,0.0705827814868,1.94590175729,0.139237830963,-0.0359854343346,-0.190694779378,0.00143302896019,-0.308761996079,-0.0249647677028,0.107269483384,-0.0543304744103,0.573780665731,0.818993773484,0.00238611143529,0.0,0.818955308239,-0.573719362714,-0.0117916435049,0.0,-0.00828848385661,0.00872010357528,-0.999927627796,0.0,0.644134371761,0.238196383408,0.303640866541,1.0,-0.040716,-0.0535124571429,1.253
0.450786884755,0.453372150432,-0.124347027947,-1.50316513697,0.070230683831,1.94762275786,0.138447909809,-0.0385618524169,-0.208256985684,-0.00588066952824,-0.313900694268,-0.0266742997635,0.110180626855,-0.0591363797898,0.573801080165,0.818979749915,0.00228834699679,0.0,0.818940201268,-0.573740344674,-0.011819921356,0.0,-0.00836752034215,0.00865646965552,-0.999927522442,0.0,0.643474444394,0.237287882876,0.303605511846,1.0,-0.0420325714286,-0.0552428081633,1.269
0.450148336751,0.449758162507,-0.124392484167,-1.50852330478,0.0698797489346,1.94964607701,0.13761543618,-0.0415806699298,-0.210171765297,-0.00111116964482,-0.321344369228,-0.0160974485553,0.118216285044,-0.0492713711238,0.573823271763,0.818963546419,0.0025118361272,0.0,0.818927163322,-0.573761979712,-0.0116721339789,0.0,-0.00811801246547,0.00875492150197,-0.999928722071,0.0,0.642797143415,0.236347568491,0.303711536048,1.0,-0.0434314285714,-0.0570813061224,1.286
0.449543836973,0.446497928362,-0.124410380952,-1.513457269,0.0695393379009,1.95126717856,0.136901546527,-0.0341022627526,-0.219579067446,-0.00135840585956,-0.333392473832,-0.0225334669577,0.108964765793,-0.051606104614,0.573874068595,0.818928107052,0.00246084868069,0.0,0.818890954472,-0.573812838424,-0.0117123031434,0.0,-0.00817962515918,0.00873672199144,-0.999928379146,0.0,0.642117985226,0.235467089467,0.303738582345,1.0,-0.0446657142857,-0.0587035102041,1.301
0.44885596971,0.442788981033,-0.124419949655,-1.51917154109,0.0691372988844,1.953277209,0.136007106619,-0.0365541497212,-0.224332712426,-0.00138052381079,-0.338383783703,-0.0256891699991,0.122359998854,-0.0565941911183,0.573855496586,0.818941158654,0.00244838779525,0.0,0.818903908543,-0.573794382726,-0.0117107568424,0.0,-0.00818570721383,0.00872544451021,-0.999928427846,0.0,0.641345900084,0.234469256148,0.3037324542,1.0,-0.0460645714286,-0.0605420081633,1.318
0.448138127527,0.439039279444,-0.124418167802,-1.52499847433,0.0687497842123,1.95532776505,0.135033583828,-0.0414068779852,-0.222830828033,-3.02714416162e-05,-0.348967979398,-0.0174846007576,0.11918823592,-0.0645773568733,0.573795577281,0.818983214165,0.00242431641626,0.0,0.818945457878,-0.573734353663,-0.0117462908673,0.0,-0.0082292598756,0.00872552065997,-0.999928069699,0.0,0.640552127651,0.233452344447,0.303700662667,1.0,-0.0474634285714,-0.0623805061224,1.335
0.447417336012,0.43537199082,-0.124434035561,-1.53058754753,0.0683670249517,1.9573377633,0.134145226832,-0.0426011973491,-0.235872989136,-0.00176920540029,-0.347108543788,-0.0256947600983,0.128489139479,-0.0614434954042,0.57380896289,0.818973646916,0.00248730076284,0.0,0.81893677191,-0.573747574261,-0.0117060473429,0.0,-0.00816001860989,0.00875414548728,-0.999928386952,0.0,0.639807440874,0.232448985436,0.303719126581,1.0,-0.04878,-0.0641108571429,1.351
0.446564334944,0.431120401038,-0.124454768871,-1.5370370815,0.0678915616545,1.95963734739,0.133110846545,-0.0491419543577,-0.228000684176,-0.000942528340843,-0.367458516282,-0.0313670962368,0.121720019252,-0.0590636647312,0.573822226911,0.818964183239,0.00254271030208,0.0,0.818928351956,-0.573760989528,-0.0116373605106,0.0,-0.00807182887438,0.00876024234258,-0.999929049349,0.0,0.638944686189,0.231271423532,0.303748028794,1.0,-0.0502611428571,-0.0660575020408,1.369
0.445752341219,0.42701894234,-0.124506375381,-1.54342801712,0.0674320138677,1.96166540391,0.13209408709,-0.0472648491437,-0.241657978878,-0.0035415385385,-0.379345411233,-0.0272651538234,0.129111522777,-0.0619695053396,0.573837040901,0.818954514932,0.00230214330392,0.0,0.818915462479,-0.573776576404,-0.0117750832188,0.0,-0.00832250189637,0.00864240605215,-0.999928019799,0.0,0.638027340178,0.230093703685,0.303676219827,1.0,-0.05166,-0.067896,1.386
0.444905476092,0.422788102272,-0.124538157851,-1.54981479359,0.0669814315722,1.96388535704,0.13101960554,-0.0528996834257,-0.248815018105,0.00119993805716,-0.375290090793,-0.0330928617704,0.134231249778,-0.0624155027631,0.573818871123,0.818967137139,0.00234058368988,0.0,0.818928661646,-0.573758344624,-0.0117454676488,0.0,-0.00827638193737,0.00865670872416,-0.999928278876,0.0,0.637149032591,0.228922666161,0.303705649021,1.0,-0.0530588571429,-0.0697344979592,1.403
0.444065477616,0.41875137584,-0.124545259171,-1.55591761705,0.0665717948913,1.96602576471,0.130072837645,-0.0505014200766,-0.255392789921,-0.000698164069032,-0.383623082686,-0.028676944856,0.143961004085,-0.0631736872073,0.573878676263,0.818925049031,0.00240331034345,0.0,0.818887221243,-0.573817733222,-0.011733491657,0.0,-0.00822994658902,0.0087018083258,-0.999928270683,0.0,0.636307594034,0.22780378488,0.303726721948,1.0,-0.0543754285714,-0.0714648489796,1.419
0.443151453121,0.414334651137,-0.1245591378,-1.56244194365,0.066119337628,1.9684277368,0.128966706898,-0.0518515642094,-0.259226720007,0.000906870305259,-0.391889445007,-0.0376617834991,0.140060891096,-0.0771780286905,0.573876124211,0.818926105969,0.00264081894645,0.0,0.81889152561,-0.573814518697,-0.0115894053924,0.0,-0.00797567993232,0.00881359699348,-0.999929352023,0.0,0.635431795631,0.226601628917,0.303822828342,1.0,-0.0557742857143,-0.0733033469388,1.436
0.442220545382,0.409869325208,-0.124570113777,-1.56929978927,0.0656325192772,1.97061052345,0.127806825709,-0.0580173028047,-0.259599997791,-0.0011616902204,-0.40296805726,-0.0316624733511,0.127781378064,-0.070982685799,0.573839589798,0.818952267879,0.00246069440809,0.0,0.818914977958,-0.573778220006,-0.011728598556,0.0,-0.00819342727792,0.00874560207119,-0.999928188518,0.0,0.634422294384,0.225336038701,0.303770153833,1.0,-0.0571731428571,-0.075141844898,1.453
0.44120903764,0.405054652895,-0.124587760679,-1.57665443755,0.0651177698148,1.97311272595,0.126629715883,-0.0566184875136,-0.264236433674,0.00163106920713,-0.405594264673,-0.0230351919316,0.146922168653,-0.0683663937939,0.573865782279,0.818934076667,0.00240601410187,0.0,0.818895868758,-0.573804391976,-0.0117823079659,0.0,-0.00826851123076,0.00873190650238,-0.999927690151,0.0,0.63330580414,0.22390759695,0.303728550867,1.0,-0.0587365714286,-0.0771966367347,1.472
0.440321687612,0.400959082558,-0.124588948242,-1.58280228933,0.064700020218,1.97527870278,0.125563000778,-0.0598559219394,-0.281047819816,-0.00099684670472,-0.403734403134,-0.0290929254678,0.151953865288,-0.070954454007,0.573852005168,0.818943390023,0.00251932605586,0.0,0.818906503173,-0.573790034678,-0.0117423194746,0.0,-0.00817088804717,0.00880161552493,-0.999927881476,0.0,0.63250055384,0.222838767982,0.303763483244,1.0,-0.0598885714286,-0.0787106938775,1.486
0.439087568621,0.395312183594,-0.124611680856,-1.59109089886,0.0640654196751,1.97817921312,0.12414820155,-0.0608920530086,-0.280280388315,-0.00144254788442,-0.42947579541,-0.0279290470362,0.13499394801,-0.0709642146273,0.573865806618,0.818933137463,0.00270171444098,0.0,0.818899051063,-0.573803668366,-0.0115948798421,0.0,-0.0079453306427,0.0088665071729,-0.999929125874,0.0,0.631336627677,0.22125517055,0.303870966155,1.0,-0.0615342857143,-0.0808736326531,1.506
0.438209110399,0.391341435536,-0.124624815806,-1.59715849534,0.0636136865026,1.98007377742,0.123147597083,-0.0594067567811,-0.281383266554,-0.000186676157208,-0.428387780348,-0.0320280105492,0.133852317012,-0.0675777167631,0.573869438946,0.818931112371,0.00253912127126,0.0,0.818894666275,-0.573807592638,-0.0117097855827,0.0,-0.00813269724839,0.00879933036294,-0.999928212934,0.0,0.630480885227,0.220188956362,0.303825439847,1.0,-0.062604,-0.0822795428571,1.519
0.436934461617,0.385585449196,-0.1246309117,-1.60588185624,0.0629635287369,1.98298286614,0.121590093268,-0.0651992843138,-0.285034736107,-0.000827373578641,-0.435096923518,-0.0319554446719,0.146020797041,-0.0758114128622,0.573801334426,0.818979091143,0.00245433974543,0.0,0.818941406846,-0.573739660523,-0.011769494336,0.0,-0.00823097619393,0.00876348072366,-0.999927723606,0.0,0.629127187742,0.218459395449,0.303778212558,1.0,-0.064332,-0.0845506285714,1.54
0.436076822722,0.381704051892,-0.124631575358,-1.61146909175,0.0625725615607,1.98495451297,0.120581147057,-0.0682208130601,-0.298762723151,-0.00257211303782,-0.435753648995,-0.0325448889523,0.161170657363,-0.0774043741471,0.573777688908,0.818994946699,0.00268102484863,0.0,0.818960171359,-0.573715164672,-0.0116573776899,0.0,-0.00800934301194,0.00888456685453,-0.999928454889,0.0,0.628326545461,0.21739826214,0.30388764473,1.0,-0.0654017142857,-0.0859565387755,1.553
0.434605643467,0.375519241389,-0.12465955977,-1.62085042721,0.061847853098,1.9880669346,0.118942347433,-0.0738895110232,-0.296044526784,-0.00272660370059,-0.454296408611,-0.0384520006158,0.141545297562,-0.0813248733889,0.573800210911,0.818979507032,0.00257525188164,0.0,0.818943438778,-0.573738144528,-0.0117018160093,0.0,-0.00810618333957,0.00882366000865,-0.999928213831,0.0,0.626935869672,0.215558699644,0.303827046221,1.0,-0.0671297142857,-0.0882276244898,1.574
0.433668773133,0.37156092306,-0.124708374699,-1.62683532332,0.0613755504155,1.98995419838,0.117886044687,-0.0746462777165,-0.303591474997,-0.00606107626323,-0.463457197802,-0.0394787388361,0.152446524005,-0.0811717828699,0.573820154982,0.818965973095,0.00243136778502,0.0,0.818928089055,-0.573758669384,-0.0117695014938,0.0,-0.00824396162041,0.00874486091089,-0.999927779644,0.0,0.626027017128,0.214363306279,0.303783982836,1.0,-0.0681994285714,-0.0896335346939,1.587
0.432197604534,0.365342001573,-0.124762495397,-1.63594464089,0.0606691481507,1.99300963806,0.116302174944,-0.0770369218169,-0.320878004408,-0.00214195361614,-0.445267104624,-0.0382533176747,0.156603466138,-0.0844497084487,0.573891082489,0.818915955381,0.00253581597681,0.0,0.818879724662,-0.573829524839,-0.0116798913115,0.0,-0.00810987941537,0.0087796827931,-0.999928570962,0.0,0.624677992471,0.212546891997,0.30385376209,1.0,-0.0698451428571,-0.0917964734694,1.607
0.431214330705,0.361250081016,-0.124765331971,-1.64185632167,0.0602160672387,1.99507154302,0.115167608402,-0.074936121827,-0.311590104399,0.000327357042104,-0.45731443305,-0.0374342800318,0.154805730689,-0.0841688259538,0.57384697463,0.818946257417,0.00272471504517,0.0,0.818912655278,-0.573784970133,-0.0115593242064,0.0,-0.00790321691768,0.00886475753116,-0.999929475131,0.0,0.623810972673,0.211378331509,0.303936585961,1.0,-0.0709148571429,-0.0932023836735,1.62
0.429706830509,0.355288610911,-0.124790138313,-1.65084488457,0.0595582901974,1.9978779747,0.113507828214,-0.0785107222704,-0.313945072591,-0.000173053832455,-0.477399946569,-0.0360574874087,0.14523707574,-0.0905151434387,0.573863026628,0.818935590423,0.00254407338871,0.0,0.818899026021,-0.573800965621,-0.0117296178516,0.0,-0.00814616659265,0.00881470293202,-0.999927967897,0.0,0.622412200148,0.209567970985,0.303856372066,1.0,-0.0724782857143,-0.0952571755102,1.639
0.42831686744,0.349853654542,-0.124832472409,-1.65901747615,0.0589450551104,2.00047767898,0.111997578258,-0.0795974507901,-0.315050341816,-7.36408854338e-05,-0.477321580718,-0.0340733682676,0.153117890292,-0.105451576799,0.573897082671,0.818912101243,0.00241988466369,0.0,0.818873595236,-0.573835130339,-0.011833220841,0.0,-0.0083019127495,0.00877279947741,-0.999927055457,0.0,0.621146051004,0.207903666079,0.303789868134,1.0,-0.0738771428571,-0.0970956734694,1.656
0.426902711673,0.34422969769,-0.124844935389,-1.6670123466,0.0583371055494,2.00323348466,0.11048104999,-0.0776380813302,-0.32321735709,-0.000602560948284,-0.470753866821,-0.0326745854036,0.151099082255,-0.0852786524419,0.573913276373,0.818899771957,0.00273159150957,0.0,0.818865508176,-0.573850399047,-0.0116510057193,0.0,-0.00797363456597,0.00892364474282,-0.999928392294,0.0,0.619952392823,0.206278310318,0.303934958801,1.0,-0.075276,-0.0989341714286,1.673
0.425537967677,0.338908098926,-0.124842137488,-1.67482807664,0.0577013658494,2.00565122063,0.109027819622,-0.0851381247901,-0.330495530653,0.00175213533153,-0.485863896299,-0.038836954642,0.146739362367,-0.0949644926971,0.573906141789,0.818905044683,0.00264860540932,0.0,0.818869554171,-0.573843389801,-0.0117117092857,0.0,-0.00807104850227,0.00889045538941,-0.999927906391,0.0,0.618708385201,0.204689226133,0.303930190116,1.0,-0.0765925714286,-0.100664522449,1.689
0.424173855538,0.333559136738,-0.124837176504,-1.68281899881,0.0570302458096,2.00811552076,0.107485109932,-0.0877562126228,-0.336799115072,0.00106116795281,-0.496607584277,-0.0410119391358,0.153685821409,-0.0925562118873,0.573812380057,0.818971307301,0.00246925349555,0.0,0.818933394749,-0.573750199136,-0.0118131645843,0.0,-0.00825806715152,0.00880086367759,-0.999927171911,0.0,0.617414867444,0.203084982411,0.303857677062,1.0,-0.0779091428571,-0.102394873469,1.705
0.422782483189,0.328077350585,-0.124836477267,-1.69058807248,0.0564137939899,2.01071283208,0.105936897532,-0.0803137576656,-0.344477911157,-0.000963452993053,-0.485229760096,-0.0390430964637,0.167059213312,-0.103519278689,0.573746199952,0.819016894764,0.00271496463192,0.0,0.818982334853,-0.573683311667,-0.0116679053388,0.0,-0.0079988357003,0.00891809612385,-0.99992824052,0.0,0.616206707815,0.201507381978,0.303979201537,1.0,-0.0792257142857,-0.10412522449,1.721
0.421199976858,0.32230309578,-0.124845332704,-1.69909319129,0.0557330137158,2.01346096653,0.104291058161,-0.0909992471912,-0.34143480841,-0.00182917050462,-0.506883945788,-0.045178644088,0.146852164361,-0.0891120173939,0.573761947439,0.819005877637,0.00271052901961,0.0,0.818971183991,-0.573698987715,-0.0116798197571,0.0,-0.00801096751199,0.0089214530556,-0.999928113454,0.0,0.614859818537,0.199734263379,0.303949346597,1.0,-0.0806245714286,-0.105963722449,1.738
0.419589551486,0.316381419611,-0.124891351786,-1.70780561381,0.0550134921562,2.01607760035,0.102619631223,-0.0960142839373,-0.352257934724,-0.00290147365924,-0.521020423054,-0.0414459512706,0.157629886868,-0.0962664550869,0.573794478508,0.818983631262,0.00254068081283,0.0,0.818946531336,-0.573731907679,-0.0117908364786,0.0,-0.0081989902813,0.00884636892733,-0.999927256512,0.0,0.613431710758,0.197894072899,0.303897658058,1.0,-0.0820234285714,-0.107802220408,1.755
0.417923637586,0.310337756108,-0.124926136107,-1.71639087132,0.0542732518422,2.01886976804,0.100800574556,-0.0964955891167,-0.358462222474,-0.00102678383296,-0.495365448966,-0.0484072590256,0.165992223285,-0.100022443442,0.573725481139,0.819031439544,0.00270559255669,0.0,0.818997006353,-0.57366290467,-0.0116414042016,0.0,-0.00798273164898,0.00889501368765,-0.999928574813,0.0,0.612074117209,0.196054643261,0.303989298089,1.0,-0.0834222857143,-0.109640718367,1.772
0.416293603352,0.304652108251,-0.124936869558,-1.72456342671,0.0536088735118,2.02145822007,0.0991303231629,-0.101824376451,-0.353308650793,-8.54557794455e-05,-0.51731240925,-0.0426035857827,0.148966882804,-0.108132288333,0.573737128251,0.819023039408,0.00277767642278,0.0,0.818989467641,-0.573674222393,-0.0116140154939,0.0,-0.00791881736944,0.00893845172461,-0.999928695664,0.0,0.61075547052,0.194296747079,0.304018150118,1.0,-0.0847388571429,-0.111371069388,1.788
0.414299778919,0.297883157497,-0.125017876865,-1.73458643514,0.052782963202,2.02436617459,0.0971517976948,-0.106064620168,-0.35306196181,-0.00598068845796,-0.528213281636,-0.0371790134588,0.153792170525,-0.104639621965,0.57384446297,0.818948824984,0.00247007646625,0.0,0.818910753195,-0.573782093774,-0.0118335991097,0.0,-0.00827398573946,0.00881358719438,-0.999926928251,0.0,0.609073264891,0.192093086914,0.303890593467,1.0,-0.0863022857143,-0.113425861224,1.807
0.412587290181,0.291980165636,-0.125076640738,-1.74285927121,0.0521263029201,2.02704409551,0.0953980982233,-0.104322035212,-0.365856497335,-0.00149694397289,-0.517256772918,-0.0412043341332,0.17875979706,-0.113034333086,0.573886435223,0.818918622141,0.00271968337134,0.0,0.818883884885,-0.573823246474,-0.011696656892,0.0,-0.00801814697835,0.00893982973201,-0.999927891782,0.0,0.607745302192,0.190267923644,0.304000352235,1.0,-0.0876188571428,-0.115156212245,1.823
0.41061198248,0.285343052787,-0.125092014558,-1.75233547838,0.0513151334482,2.02995119308,0.0933892773021,-0.107897176975,-0.358908964889,-0.000492010365759,-0.539517781006,-0.0427667715779,0.153404476625,-0.111346679695,0.573875591018,0.818926114965,0.00275157458902,0.0,0.818891788727,-0.573812288936,-0.0116808528283,0.0,-0.00798702188795,0.00895677060302,-0.999927989278,0.0,0.606167235456,0.188188479108,0.304021007517,1.0,-0.0891,-0.117102857143,1.841
0.40904916725,0.28015772254,-0.12511884902,-1.75988009982,0.0506248894073,2.03211795684,0.0917706871027,-0.109280054329,-0.374170407796,-0.00650646040623,-0.542839558851,-0.0558134485908,0.149116320942,-0.123798809475,0.573831941828,0.818957343152,0.00255333825079,0.0,0.818920427837,-0.573769340954,-0.0117823238016,0.0,-0.00818435096541,0.00885222503181,-0.999927324615,0.0,0.604868290336,0.186520743076,0.303954235898,1.0,-0.090252,-0.118616914286,1.855
0.406983410022,0.273345344686,-0.125137178259,-1.76945235853,0.0498132084627,2.0351224092,0.0897298874694,-0.112120604711,-0.378119627461,-0.00592338494588,-0.527553983207,-0.047952733435,0.168678971513,-0.116462653449,0.573860065899,0.818937041474,0.00273747488306,0.0,0.818902623612,-0.573796917181,-0.0116763768269,0.0,-0.00799161670835,0.00894250391006,-0.999928080257,0.0,0.603272693752,0.184397727336,0.304027664144,1.0,-0.0917331428571,-0.120563559184,1.873
0.405083755103,0.267281487745,-0.125178535118,-1.77803618976,0.0490638402044,2.03772509723,0.0878250650822,-0.119684565197,-0.381275104903,-0.00245212529609,-0.547869690107,-0.0516724612552,0.15553352384,-0.108224711461,0.573867151245,0.818931930948,0.0027806648289,0.0,0.818898148766,-0.573803937403,-0.0116451822324,0.0,-0.00794120803727,0.00896004134272,-0.999928324868,0.0,0.601820812733,0.182450057373,0.304047203015,1.0,-0.0930497142857,-0.122293910204,1.889
0.403028018725,0.260760952076,-0.125265804837,-1.78740404493,0.0482206178726,2.04033491202,0.0858072582035,-0.118908005029,-0.375892716215,-0.00135749131597,-0.552081015121,-0.0445695404307,0.15836404991,-0.117796476141,0.573925853519,0.8188915432,0.00254990962435,0.0,0.818854563828,-0.573863232269,-0.0117873172769,0.0,-0.00818939272724,0.00885322171404,-0.999927274512,0.0,0.600175461183,0.180301904461,0.303977393024,1.0,-0.0944485714286,-0.124132408163,1.906
0.400803090988,0.253702958054,-0.125263329837,-1.79711208774,0.047357941212,2.04330042095,0.0836310147092,-0.120590193947,-0.395131351899,0.0036495733006,-0.537811730928,-0.0473393298199,0.16736526136,-0.112974359751,0.573917777385,0.81889642749,0.00278796474062,0.0,0.818862765433,-0.573854560885,-0.0116387816861,0.0,-0.00793122316172,0.00896283679658,-0.999928379063,0.0,0.598513561374,0.178102340678,0.30410061703,1.0,-0.0959297142857,-0.126079053061,1.924
0.398665692229,0.247089953722,-0.125254694736,-1.8064962625,0.0465446224491,2.04601746054,0.0814441835248,-0.130282636533,-0.392722771671,-0.00132132204062,-0.553966498496,-0.0407294970408,0.157053300232,-0.125794509669,0.573825397366,0.818961320551,0.00274147421318,0.0,0.818926585771,-0.573761826589,-0.0117200839731,0.0,-0.00802549671117,0.00897052067072,-0.999927557957,0.0,0.596849296992,0.175990138463,0.304064185597,1.0,-0.0973285714286,-0.12791755102,1.941
0.396456594278,0.240416027755,-0.125268788934,-1.81598817775,0.0457032142089,2.04869189265,0.0792783639787,-0.136415154596,-0.392823267403,0.00105489811548,-0.551761429841,-0.0462173458917,0.148774486043,-0.132967166499,0.573810981006,0.818971839352,0.00261368056786,0.0,0.818934955831,-0.573747340279,-0.0118437554604,0.0,-0.00820026780064,0.00893668337875,-0.999926442944,0.0,0.595145935283,0.173815479106,0.304000024149,1.0,-0.0987274285714,-0.12975604898,1.958
0.394215451098,0.23351190183,-0.125261089234,-1.82529843939,0.0448870366968,2.05154044124,0.0771358114099,-0.137704317578,-0.408723043423,-4.8905874147e-05,-0.550998076407,-0.0475599182444,0.167717771322,-0.12418204403,0.573821865955,0.818962989781,0.00297227553436,0.0,0.81893097405,-0.573757187165,-0.0116403100746,0.0,-0.00782776939943,0.00911372841332,-0.999927830386,0.0,0.593522489088,0.171677796921,0.304164336759,1.0,-0.100126285714,-0.131594546939,1.975
0.392042616417,0.227107490735,-0.125268943379,-1.83435666475,0.0439993878193,2.05401638603,0.0749517681,-0.135007460459,-0.40457761943,-0.00237879377685,-0.565628544111,-0.0514908669014,0.156496779193,-0.137920725027,0.573712536435,0.819040257632,0.00278007494637,0.0,0.819005718527,-0.573648500952,-0.0117378565617,0.0,-0.00801914563026,0.00901122623338,-0.999927242906,0.0,0.591862534576,0.169571428407,0.30409459733,1.0,-0.101442857143,-0.133324897959,1.991
0.389632507785,0.220204100821,-0.125313596054,-1.84399593187,0.0431000028228,2.05666176416,0.0726409855741,-0.140330022881,-0.404848942886,-0.00201419747097,-0.550642810699,-0.0474591070294,0.163969346085,-0.129641889707,0.573725253353,0.819031677023,0.00268190213227,0.0,0.818995636502,-0.573661320791,-0.0118145385375,0.0,-0.00813813447651,0.0089749380549,-0.999926607934,0.0,0.590103718732,0.167269846225,0.304063379199,1.0,-0.102841714286,-0.135163395918,2.008
0.387310531225,0.213591779569,-0.125377530668,-1.85289670593,0.0423100197549,2.05935845556,0.0704633556979,-0.145801210673,-0.404666996148,-0.000333062227692,-0.557146226579,-0.044347248813,0.158746108973,-0.130817044409,0.573807503281,0.818972927946,0.00300655467213,0.0,0.818941412127,-0.573742777448,-0.0116161840167,0.0,-0.00778850116033,0.00912782141593,-0.999928008472,0.0,0.58853970628,0.165106075069,0.304189756989,1.0,-0.104158285714,-0.136893746939,2.024
0.384760885125,0.206608817054,-0.125445823221,-1.8626750332,0.0413567780409,2.06191655717,0.0680493948906,-0.148400313723,-0.410288923118,-0.0077872439835,-0.580769148208,-0.0549277563277,0.138421989722,-0.147143016718,0.57383449987,0.818954828593,0.00277531689191,0.0,0.818920061176,-0.573770278509,-0.0117621343878,0.0,-0.00804041720837,0.00902245489294,-0.999926970833,0.0,0.586714857199,0.162707536166,0.304109005834,1.0,-0.105557142857,-0.138732244898,2.041
0.382182538853,0.199506812572,-0.125512357133,-1.87241447488,0.0404149702678,2.06454598943,0.0655674733522,-0.157608791021,-0.429004577092,-0.00296941301269,-0.556825342403,-0.0465414853212,0.163290677622,-0.148842530982,0.573822907334,0.818963076135,0.00273821966534,0.0,0.818927801904,-0.573758793647,-0.0117834155934,0.0,-0.00807926022062,0.009004171364,-0.999926822549,0.0,0.58490421155,0.160316234913,0.30411067135,1.0,-0.106956,-0.140570742857,2.058
0.37965319303,0.192793602285,-0.125545070327,-1.88152556287,0.0395627756598,2.06718242081,0.0632804024554,-0.163588517938,-0.407355997655,0.000136367426083,-0.572198464133,-0.062194310736,0.158879372759,-0.14125415238,0.573917314864,0.818896305856,0.00291596569317,0.0,0.818863506652,-0.573852752209,-0.0116757507814,0.0,-0.00788804611396,0.00908886841916,-0.999927582978,0.0,0.583243889483,0.158053006321,0.304156074839,1.0,-0.108272571429,-0.142301093878,2.074
0.376910744421,0.185593046992,-0.125671784827,-1.89143445346,0.038638638587,2.06967693318,0.0606922491934,-0.158820667226,-0.427327895761,-0.0054284757433,-0.582451771169,-0.0544098180182,0.144582645342,-0.157683134791,0.573994450522,0.818842842894,0.00274158951459,0.0,0.818807068983,-0.573929696728,-0.0118504808883,0.0,-0.00813035835615,0.00904711732573,-0.999926020734,0.0,0.581352211219,0.155538571164,0.304099786366,1.0,-0.109671428571,-0.144139591837,2.091
0.374296315384,0.178687390812,-0.125728245798,-1.90057766913,0.0377400571428,2.07221642821,0.0582509285453,-0.159253244819,-0.43595842591,-0.000294545328104,-0.571639502012,-0.0542145395658,0.162278213573,-0.157346302393,0.574016845664,0.818826383194,0.00296006436745,0.0,0.818793861814,-0.573951778972,-0.0116924835536,0.0,-0.00787533143375,0.00913554094955,-0.999927257877,0.0,0.579649444454,0.153225266066,0.304210411244,1.0,-0.110988,-0.145869942857,2.107
0.371505459418,0.171403904769,-0.125693281367,-1.91046671372,0.0367087350851,2.07481143746,0.0556353678313,-0.162421354851,-0.423878111737,0.0012363879347,-0.584691852357,-0.0559095186769,0.139990231044,-0.154111017191,0.573920973869,0.818893779622,0.00290522837514,0.0,0.818860672552,-0.573856253678,-0.0117023913696,0.0,-0.00791598443504,0.00909540022724,-0.9999273028,0.0,0.577733899867,0.150796407875,0.30419032933,1.0,-0.112386857143,-0.147708440816,2.124
0.368637967563,0.164076698636,-0.125705718711,-1.92050171118,0.035715765006,2.07728968825,0.0529096147596,-0.17225807986,-0.429835597261,-0.00142699113398,-0.588449846826,-0.0581133530414,0.152917589288,-0.15646024363,0.573843925665,0.818948439107,0.00271108148189,0.0,0.818912116207,-0.57377913753,-0.0118825151262,0.0,-0.00817576262961,0.00903902062951,-0.999925723747,0.0,0.575746967935,0.148298260418,0.304104155797,1.0,-0.113785714286,-0.149546938775,2.141
0.365692236083,0.156524345802,-0.125703539456,-1.93025654616,0.0347170667039,2.0799980223,0.0501829848843,-0.180819021457,-0.439739721376,0.000574285330161,-0.581161174677,-0.0737922103645,0.160402061505,-0.166976422412,0.57380218903,0.818976353737,0.00308654900133,0.0,0.818945694714,-0.573736989959,-0.0116001018692,0.0,-0.00772949061507,0.00918405668323,-0.999927951443,0.0,0.573891089966,0.145815728074,0.304284307722,1.0,-0.115184571429,-0.151385436735,2.158
0.362833053401,0.149503818896,-0.125715113899,-1.93975848594,0.0337557555391,2.08223269716,0.0475474800085,-0.180765131361,-0.436140352483,0.000900583925566,-0.591377295403,-0.0643021017045,0.130881063114,-0.161850200586,0.57377554703,0.81899576545,0.00288178879306,0.0,0.818961725047,-0.573710208769,-0.0117913596883,0.0,-0.0080039161037,0.00912584427734,-0.999926325433,0.0,0.571972305716,0.143389864956,0.304212283832,1.0,-0.116501142857,-0.153115787755,2.174
0.359702183653,0.141968977621,-0.125768864901,-1.94982441922,0.0327636841834,2.08469288393,0.0446984863061,-0.183589018265,-0.450115004593,-0.00267263987344,-0.575660152379,-0.0540703161435,0.156656211755,-0.178428438464,0.573819438489,0.818965193869,0.00283021986928,0.0,0.818929874654,-0.573753594584,-0.0118920142258,0.0,-0.0081154531601,0.00914179653627,-0.999925280697,0.0,0.569960374216,0.140763368124,0.304186065776,1.0,-0.1179,-0.154954285714,2.191
0.356518860409,0.13434310975,-0.125818778686,-1.95974117141,0.0317266803248,2.0873470578,0.0417368925348,-0.192932178418,-0.444935199115,-0.00214410753003,-0.594950022589,-0.0581206608951,0.140660779842,-0.174371059088,0.573781607431,0.818990773326,0.00308659713845,0.0,0.818959452017,-0.573715624744,-0.0116852375549,0.0,-0.00779942289904,0.00923275004762,-0.999926959997,0.0,0.568025276008,0.138142445766,0.304281776082,1.0,-0.119298857143,-0.156792783673,2.208
0.353234906091,0.126691978252,-0.125921092753,-1.96994466325,0.0305981235327,2.0896605994,0.0387537498082,-0.194771787684,-0.439378517472,-0.0107360652022,-0.604798447722,-0.061687062578,0.139617712401,-0.172200718415,0.573806658217,0.818974097527,0.00284490186002,0.0,0.818939458267,-0.573741313814,-0.0118243569338,0.0,-0.00805175933915,0.00911487261533,-0.999926041399,0.0,0.5659307056,0.135401430944,0.304213870875,1.0,-0.120697714286,-0.158631281633,2.225
0.35006372978,0.11935448061,-0.126027753507,-1.97937055169,0.0295938342966,2.09203811761,0.035960155549,-0.202356526935,-0.465018427692,-0.0041714989386,-0.586593603393,-0.0602237779056,0.154433034972,-0.183118922451,0.573928848363,0.818887755331,0.00304435327846,0.0,0.818856231593,-0.57386339597,-0.0116628319044,0.0,-0.0078036575727,0.00918670020925,-0.999927351095,0.0,0.564051355537,0.132820108368,0.304312074359,1.0,-0.122014285714,-0.160361632653,2.241
0.34660021679,0.111653241185,-0.126055908896,-1.98947095021,0.0285122179295,2.09446332945,0.0328065931472,-0.203834000927,-0.456625911789,-0.000106532114936,-0.600519514933,-0.0685418481227,0.135008517331,-0.190985330612,0.573887813249,0.818916567456,0.00302989306171,0.0,0.818884763268,-0.573822305818,-0.011681298485,0.0,-0.00782753934007,0.00918506494698,-0.999927179453,0.0,0.561854911041,0.129915174504,0.304291031285,1.0,-0.123495428571,-0.162308277551,2.259
0.343127650397,0.10384510921,-0.126070263499,-1.99969300018,0.0273766547632,2.09673766689,0.0296663625822,-0.202016994502,-0.463772053667,0.00097103784416,-0.603754484195,-0.0609736872798,0.136060865981,-0.18407641979,0.573847109082,0.818945555425,0.00290164599607,0.0,0.818911824387,-0.573781748955,-0.0117760496871,0.0,-0.00797918566132,0.00913402014393,-0.999926448431,0.0,0.559826216238,0.127333429384,0.304254327727,1.0,-0.124812,-0.164038628571,2.275
0.339616210777,0.0959140899158,-0.126065194663,-2.00972760224,0.0263545366948,2.09917663361,0.0264049895631,-0.210826852464,-0.465103732572,-0.00176305012433,-0.600631830584,-0.0590372862174,0.144608059594,-0.190374766667,0.573746034857,0.819015298435,0.00318987718839,0.0,0.818985253132,-0.573679637694,-0.0116436828234,0.0,-0.00770653514746,0.00929315814975,-0.999927120608,0.0,0.55774449582,0.124637160147,0.304364948907,1.0,-0.126210857143,-0.165877126531,2.292
0.335951703008,0.0880296862855,-0.126098167932,-2.02001168916,0.0252714461914,2.10135521488,0.0231479485046,-0.216245639544,-0.462863467653,-0.00179749114998,-0.604918112757,-0.0726302970562,0.121391381575,-0.198847312088,0.573771450107,0.818998090809,0.00303268776661,0.0,0.818964990658,-0.573704390492,-0.0118475021795,0.0,-0.00796336869873,0.00928160231376,-0.999925215512,0.0,0.555529178485,0.121816468768,0.304293643746,1.0,-0.127609714286,-0.16771562449,2.309
0.332177352196,0.0800131625494,-0.126210166388,-2.03015902889,0.0240954321915,2.10364283057,0.019695250033,-0.219140161883,-0.487012999977,-0.00448258663471,-0.589948947509,-0.0717658570627,0.14756487772,-0.205733636075,0.573740575787,0.819019434886,0.00310867757391,0.0,0.818987848653,-0.573673870113,-0.0117448460809,0.0,-0.0078360409733,0.00928464266952,-0.999926193212,0.0,0.553386842929,0.118916256013,0.304350733592,1.0,-0.129008571429,-0.169554122449,2.326
0.328564998162,0.072466675879,-0.126257721995,-2.03974705734,0.0230264604133,2.10580063075,0.0165358354298,-0.228371188954,-0.465436885412,-0.00214156246363,-0.614188423523,-0.0616555879314,0.127741725618,-0.200960362749,0.573794434636,0.818981413721,0.00318396949403,0.0,0.818950883326,-0.573727558821,-0.011699822614,0.0,-0.00775535553412,0.00932098718962,-0.999926484127,0.0,0.55133681952,0.116208395164,0.304370683691,1.0,-0.130325142857,-0.171284473469,2.342
0.324344944381,0.0639134370832,-0.126385868897,-2.0507485906,0.0217662537508,2.10794809513,0.0127683085782,-0.236400519345,-0.474026996602,-0.00567685454563,-0.60511910678,-0.0688070951461,0.114337042954,-0.221459715712,0.5738344864,0.818954292736,0.00293181296459,0.0,0.818919701472,-0.573767584291,-0.0119175777494,0.0,-0.00807792773974,0.00923981439975,-0.99992468362,0.0,0.548905764396,0.113026300935,0.304285546875,1.0,-0.131806285714,-0.173231118367,2.36
0.320519544898,0.0562201754972,-0.126476723704,-2.06018607352,0.0206589070762,2.11012640387,0.00940966239401,-0.245577479133,-0.483741267797,-0.00192732025212,-0.600659221032,-0.0680102830323,0.135526158349,-0.208804221718,0.573897818404,0.818908781446,0.00323242976072,0.0,0.818879127403,-0.57383106731,-0.0116459346869,0.0,-0.00768223747055,0.00933072541733,-0.999926957728,0.0,0.54689867373,0.110229360695,0.304421248131,1.0,-0.133122857143,-0.174961469388,2.376
0.316439342418,0.0480822297045,-0.126467490147,-2.07050394158,0.0195074734311,2.11218807397,0.00578595243871,-0.238055533114,-0.487382975049,0.000421951983476,-0.603058220705,-0.0686091308966,0.115599292752,-0.21732064756,0.573848377361,0.818943732676,0.00315426891953,0.0,0.818912313921,-0.573780994155,-0.0117787841592,0.0,-0.00783645278524,0.00934248570846,-0.99992565122,0.0,0.544582161555,0.107303934414,0.304370650728,1.0,-0.134521714286,-0.176799967347,2.393
0.312515677242,0.0403748836679,-0.126478936947,-2.08020176573,0.0183812836119,2.11406703957,0.00230300038102,-0.247713260227,-0.479571104859,0.00011583900335,-0.585070264546,-0.0703014897421,0.125442812688,-0.215024773495,0.573799798024,0.818977959877,0.00310482275782,0.0,0.818945512758,-0.573732139595,-0.0118501490068,0.0,-0.0079238268121,0.00934247364363,-0.999924962762,0.0,0.542260060107,0.104332693744,0.304355163361,1.0,-0.135920571429,-0.178638465306,2.41
0.308199783742,0.0320586173328,-0.126555392204,-2.09032522987,0.0171409998788,2.11623265851,-0.00149396125574,-0.255186424364,-0.481537262397,-0.00549327423877,-0.601822403839,-0.0676374239875,0.122766118611,-0.217981934224,0.573811190653,0.818969245591,0.00329228766273,0.0,0.818940132701,-0.573743969428,-0.0116474674317,0.0,-0.00765013471228,0.00937981424098,-0.999926744579,0.0,0.540148724159,0.101465985808,0.304437836452,1.0,-0.137237142857,-0.180368816327,2.426
0.303800400134,0.0237325217919,-0.126665365966,-2.10071787216,0.0159194830886,2.11805671923,-0.00541131756339,-0.268760744162,-0.488775436428,-0.0107917433771,-0.610830606334,-0.0683630910523,0.1049539646,-0.232314689408,0.57381788895,0.818965258195,0.00311176667839,0.0,0.818932892848,-0.573750192954,-0.0118482065583,0.0,-0.00791804525792,0.0093472209259,-0.999924964195,0.0,0.537737474886,0.0983585843622,0.304375442587,1.0,-0.138636,-0.182207314286,2.443
0.299274034054,0.0152764255186,-0.126782490334,-2.11086363765,0.0146794463227,2.12003954711,-0.00937941033306,-0.26701097287,-0.5082611874,-0.00355748519539,-0.595704912923,-0.0775867921829,0.116081174121,-0.239160085679,0.573873442457,0.818925537706,0.00331400613216,0.0,0.818896428088,-0.573805799959,-0.0116743693441,0.0,-0.00765899071205,0.00941361954963,-0.999926359103,0.0,0.535433857409,0.0952263863453,0.304488547331,1.0,-0.13998,-0.183973714286,2.46
0.294628099985,0.00694865403276,-0.12685347393,-2.12115277175,0.0134668302722,2.12185060048,-0.0134428180355,-0.269663198798,-0.491051073039,-0.00423443382334,-0.60286960913,-0.0665848753377,0.104100935706,-0.240271958279,0.573912607917,0.818898486678,0.00321463706698,0.0,0.818867297677,-0.573844340011,-0.0118223996753,0.0,-0.00783679479949,0.00941756671487,-0.999924944226,0.0,0.53302303367,0.0920715601109,0.304430442872,1.0,-0.13998,-0.183973714286,2.477
0.289958326341,-0.00138592860856,-0.12685717582,-2.13134000537,0.0122390448295,2.12361641517,-0.0175500209788,-0.27680428435,-0.495215581488,5.84862112802e-05,-0.592005144366,-0.0704773810723,0.107588416415,-0.240802907519,0.573862588328,0.818933767767,0.0031560467047,0.0,0.818901252279,-0.573793865531,-0.0119199747113,0.0,-0.00795090264303,0.00942509960173,-0.999923972432,0.0,0.530608237852,0.0889714363234,0.304397306315,1.0,-0.13998,-0.183973714286,2.494
0.285306268704,-0.00977387691523,-0.126845327186,-2.14124003921,0.0109800083274,2.12549888957,-0.0216758263258,-0.279655130288,-0.489379746503,-0.000714894164285,-0.583490909918,-0.0715170558271,0.108414290971,-0.248527754341,0.573745856046,0.819014562036,0.00340393064464,0.0,0.818986271264,-0.573677506157,-0.0116770421037,0.0,-0.00761105561751,0.00948760965007,-0.999926025812,0.0,0.528290039168,0.0859333601637,0.304512221581,1.0,-0.13998,-0.183973714286,2.511
0.280777681627,-0.0175238808434,-0.126875484039,-2.15069434884,0.00979210509198,2.12693786274,-0.0256301205411,-0.285901218877,-0.484569136832,-0.00487232969182,-0.590544496234,-0.0738010358407,0.0859086896771,-0.246631121446,0.573722958004,0.819031423212,0.00320033608676,0.0,0.818999657931,-0.573654299689,-0.0118765170656,0.0,-0.00789150605433,0.0094350863166,-0.999924348778,0.0,0.525982291647,0.0829798899295,0.304433031617,1.0,-0.13998,-0.183973714286,2.527
0.275894982249,-0.0258164963742,-0.126993248364,-2.16041706934,0.00856553879766,2.12854802037,-0.0298655595244,-0.291664025279,-0.49203297316,-0.00954181338422,-0.557632603197,-0.0767764362162,0.0994502760721,-0.244284270578,0.573804881786,0.818973493623,0.00333485870293,0.0,0.818943726744,-0.573736039074,-0.011784599931,0.0,-0.00773809533567,0.0094933053602,-0.999924996704,0.0,0.523647036276,0.0798127118063,0.304513033518,1.0,-0.13998,-0.183973714286,2.544
0.271232659001,-0.0335358058628,-0.12711480984,-2.16954234735,0.00736386162027,2.13009866963,-0.0338639712063,-0.292725880632,-0.479612633602,-0.00852564936569,-0.581266595868,-0.0676116716936,0.0826713046991,-0.256727976641,0.5739069798,0.81890165047,0.0034076819516,0.0,0.818873265376,-0.573838416982,-0.0116958688866,0.0,-0.00762245427407,0.00950298339778,-0.999925792995,0.0,0.521302378086,0.0766275312352,0.3045396048,1.0,-0.13998,-0.183973714286,2.561
0.265951894764,-0.0421771180462,-0.127135428999,-2.17989296965,0.00613048867202,2.13153991945,-0.0385145345556,-0.291817806494,-0.481525781555,-0.000438480365462,-0.566345954775,-0.0680348979814,0.0826905047306,-0.259290463694,0.573870426137,0.818927817082,0.00327281470084,0.0,0.818896214684,-0.573800544693,-0.0119445128547,0.0,-0.00790390315479,0.00953488182781,-0.999923304231,0.0,0.518843754791,0.0735167900713,0.304458516389,1.0,-0.13998,-0.183973714286,2.578
0.261229361766,-0.0498673293611,-0.127134013555,-2.1887018002,0.00496408462593,2.13299793066,-0.0425759671599,-0.296824746431,-0.487460888015,-0.00147523569749,-0.545306071708,-0.0780140816084,0.0969211859046,-0.257187019521,0.573856498914,0.818936543559,0.00352181470372,0.0,0.818909246838,-0.573787074949,-0.0116955105045,0.0,-0.00755725469092,0.00959577608607,-0.999925401709,0.0,0.516547275902,0.0704490255381,0.3045769317,1.0,-0.13998,-0.183973714286,2.595
0.256141865217,-0.0579460368351,-0.127146000404,-2.1981544415,0.00370681826258,2.13430438396,-0.0470800147702,-0.301128685772,-0.470328671657,-0.00291117014791,-0.561709033774,-0.0680088796142,0.0657514551322,-0.257541268871,0.573758193259,0.819005768415,0.0034400396081,0.0,0.818977130447,-0.573688703463,-0.0117676770906,0.0,-0.00766443111945,0.00956929915189,-0.99992483968,0.0,0.514281839225,0.067520938442,0.304549006161,1.0,-0.13998,-0.183973714286,2.611
0.250352523797,-0.0669160660403,-0.127231323742,-2.20874245877,0.00235453703436,2.13565873219,-0.0521020006192,-0.308403038891,-0.470681888024,-0.0092097974494,-0.54507028795,-0.0692440424748,0.0752215514289,-0.261939509283,0.57380232542,0.818975514011,0.00327806263638,0.0,0.81894354876,-0.573731914258,-0.0119958912781,0.0,-0.0079437650162,0.00956800277309,-0.99992267197,0.0,0.5115506448,0.0640031770761,0.304455727954,1.0,-0.13998,-0.183973714286,2.63
0.245067287786,-0.074979277462,-0.127396217344,-2.21776435142,0.00110361554623,2.13698813558,-0.0566655579281,-0.310934506102,-0.471917801348,-0.00846800416109,-0.533889254818,-0.074025654165,0.0744384569209,-0.271581943209,0.573917406476,0.818893847063,0.00352486702873,0.0,0.81886627976,-0.573847570223,-0.0117357966248,0.0,-0.00758778135495,0.00962195796483,-0.999924918931,0.0,0.509276720279,0.0608053580715,0.304584700144,1.0,-0.13998,-0.183973714286,2.647
0.2400779809,-0.0824847705225,-0.12742875203,-2.22646510185,4.43939830316e-06,2.13799465559,-0.0610336060236,-0.309459751583,-0.461566578165,-0.000788668572214,-0.546974797239,-0.0658791306043,0.0563898121241,-0.274759836607,0.573902961202,0.81890434418,0.00343702023784,0.0,0.818874497325,-0.573832006406,-0.0119219526838,0.0,-0.00779081662211,0.00965671808986,-0.999923022523,0.0,0.506980627999,0.0578744871794,0.304529469638,1.0,-0.13998,-0.183973714286,2.663
0.235406212196,-0.0894875821093,-0.127412480028,-2.23455705161,-0.00106544794636,2.13893205093,-0.0651135529049,-0.318107723865,-0.469216353607,0.000464449723106,-0.540133521545,-0.0703423925591,0.0582651995096,-0.274745349288,0.573834826032,0.818952477462,0.00334349999534,0.0,0.818920708174,-0.573763366575,-0.0120507179052,0.0,-0.0079507405466,0.00965336885393,-0.999921796039,0.0,0.504827535431,0.0551753044907,0.304473894276,1.0,-0.13998,-0.183973714286,2.678
0.230009121886,-0.0974647219759,-0.12742941111,-2.24331744033,-0.00232314782492,2.14008540661,-0.0698611681751,-0.323099450212,-0.467070193294,-0.000874887567504,-0.518748491202,-0.0794251028987,0.0658645045195,-0.279529955791,0.573743853951,0.819015239534,0.00357412444715,0.0,0.818987881594,-0.57367333032,-0.0117688904155,0.0,-0.00758866683344,0.00967967951705,-0.999924355109,0.0,0.502537849063,0.0520855356405,0.304606443474,1.0,-0.13998,-0.183973714286,2.695
0.224525178664,-0.105364172832,-0.127477570728,-2.25225398385,-0.00354054608396,2.14098607915,-0.0745729966547,-0.32399568252,-0.465502208209,-0.0044792425164,-0.52658409114,-0.074457192445,0.0510856575974,-0.280769717934,0.573786400452,0.818985781579,0.00349329769841,0.0,0.818956740132,-0.573715351124,-0.011886992026,0.0,-0.0077312677903,0.00968164046379,-0.999923243722,0.0,0.500114176733,0.0489616669099,0.304578224151,1.0,-0.13998,-0.183973714286,2.712
0.218894342448,-0.113171914006,-0.127632784948,-2.26111485862,-0.00479313429205,2.14186338145,-0.07944812254,-0.332267389458,-0.457682163622,-0.00767886433405,-0.520131443615,-0.0765259628346,0.0590586222436,-0.283761038641,0.573879389522,0.818921145141,0.00336915786389,0.0,0.818889891169,-0.573808045974,-0.0120174630794,0.0,-0.00790825699466,0.00965572959481,-0.999922110145,0.0,0.497698748681,0.0457407449181,0.304516284411,1.0,-0.13998,-0.183973714286,2.729
0.213296366792,-0.121044899373,-0.127665213639,-2.26957170047,-0.00596610522103,2.14287386839,-0.0843256104756,-0.32896039579,-0.455130372343,0.000458268690709,-0.504963241188,-0.0687563706259,0.0580119612051,-0.290809350906,0.573875134183,0.818922775486,0.00368307734775,0.0,0.818896797348,-0.573804184352,-0.0117277539847,0.0,-0.00749090387305,0.0097465142867,-0.999924443055,0.0,0.49542374516,0.042652128135,0.30466278036,1.0,-0.13998,-0.183973714286,2.746
0.207985002943,-0.128302333955,-0.12767355973,-2.2777346911,-0.00706580415479,2.14353344579,-0.089010132061,-0.337893916824,-0.455032170342,-0.00187754774897,-0.503654699818,-0.0731356492446,0.0361149999899,-0.298668473125,0.573806123077,0.818971783299,0.00353527665591,0.0,0.818942670057,-0.573734143911,-0.0119491494533,0.0,-0.00775785667379,0.0097518717796,-0.999922355314,0.0,0.492982299061,0.0395700522491,0.304586234003,1.0,-0.13998,-0.183973714286,2.763
0.202207758614,-0.136062620086,-0.127731234128,-2.28630683165,-0.008310278795,2.14426247391,-0.0940241383477,-0.337188267596,-0.448771987864,-0.00258280870437,-0.500893180909,-0.071519198314,0.0467807720494,-0.290433396545,0.573805630359,0.818972337055,0.00348663271091,0.0,0.818942435591,-0.57373363699,-0.011989490225,0.0,-0.00781881289994,0.00973517591281,-0.999922043219,0.0,0.49071413391,0.0366082910854,0.304567306739,1.0,-0.13998,-0.183973714286,2.779
0.196413940919,-0.143852574311,-0.127820080937,-2.29454158611,-0.00946461954063,2.14510252626,-0.0991340644172,-0.343210908402,-0.462893331486,-0.00625865353467,-0.482585454098,-0.077679852938,0.0511633146884,-0.293092926585,0.573805269917,0.818971236259,0.00379121309838,0.0,0.818946323026,-0.573733531755,-0.0117261009362,0.0,-0.00742833631816,0.00983348786463,-0.999924058284,0.0,0.488423383862,0.0334923995204,0.304701495574,1.0,-0.13998,-0.183973714286,2.796
0.189754832617,-0.152349942462,-0.127966118444,-2.30389209042,-0.0108260588862,2.14572339193,-0.10489028621,-0.352294004515,-0.443290642425,-0.00188879007953,-0.4960080283,-0.0703960278248,0.0292339447126,-0.307972208741,0.573913000143,0.818896398559,0.00364740933708,0.0,0.818868748563,-0.573840605927,-0.0119028785608,0.0,-0.00765434017165,0.00981815529444,-0.999922504449,0.0,0.485720007267,0.0299193113752,0.304633020737,1.0,-0.13998,-0.183973714286,2.815
0.184574669522,-0.159094407212,-0.127954261652,-2.31118277063,-0.0119056139861,2.14617125599,-0.109474386068,-0.344605183807,-0.444000282494,0.0010477360493,-0.47645652695,-0.0746060330705,0.0295822043831,-0.308518861864,0.573791689196,0.818981717683,0.00357636851119,0.0,0.818952892265,-0.573719250169,-0.0119636590363,0.0,-0.0077463357077,0.00979371402279,-0.999922035685,0.0,0.483584460073,0.0272261361847,0.304618869834,1.0,-0.13998,-0.183973714286,2.83
0.178243484418,-0.167169701101,-0.127967691043,-2.31962231157,-0.0130725934867,2.1468208379,-0.115054726527,-0.356074170752,-0.446563406851,-0.00171586284211,-0.471807771353,-0.0644123841995,0.0388941415377,-0.321156669107,0.573753109611,0.81900761226,0.00382716248943,0.0,0.818982587667,-0.573680493852,-0.0117880860579,0.0,-0.00745910735937,0.00989802103869,-0.999923192499,0.0,0.481135113748,0.0239799824095,0.304723657795,1.0,-0.13998,-0.183973714286,2.848
0.172147673251,-0.174651124208,-0.128016933407,-2.32767814128,-0.0142177581155,2.14725636851,-0.120397265163,-0.360753907635,-0.442190992415,-0.00937692881774,-0.475493596503,-0.0767069782344,0.0161126822847,-0.310222090345,0.57375460322,0.819006806126,0.00377540776231,0.0,0.818980342567,-0.57368115687,-0.0119111561984,0.0,-0.00758958382562,0.00992625655224,-0.999921930777,0.0,0.478731954974,0.0208655100888,0.304680112315,1.0,-0.13998,-0.183973714286,2.865
0.166620840633,-0.181265552522,-0.128180886837,-2.33472715146,-0.0153088420865,2.14758781124,-0.125185016878,-0.369456324934,-0.44439930513,-0.00990939791498,-0.46340082157,-0.0693372538825,0.0251470553177,-0.323706642553,0.573872482469,0.818924522567,0.00370770892483,0.0,0.818896881303,-0.573798877906,-0.0119788315915,0.0,-0.00768242763184,0.00991074391035,-0.99992137564,0.0,0.47660891351,0.0180083109858,0.304653788005,1.0,-0.13998,-0.183973714286,2.88
0.160388731984,-0.188750625502,-0.128240785334,-2.34254082152,-0.0164383839471,2.14799933586,-0.130671000388,-0.36373543519,-0.439415982989,0.000258941453457,-0.450100884829,-0.0598423208174,0.0287237836716,-0.31978154906,0.573874564702,0.818922605625,0.00380747755024,0.0,0.818896288917,-0.573800631318,-0.0119352586301,0.0,-0.00758946619484,0.0099674624915,-0.999921521768,0.0,0.474247510166,0.0148905249016,0.304685535226,1.0,-0.13998,-0.183973714286,2.897
0.154163976303,-0.196204268284,-0.128241156088,-2.35018281637,-0.0176280814602,2.14839066313,-0.136212443063,-0.371526209826,-0.43692046197,-0.00170057191641,-0.450823046941,-0.0704263001365,0.0156443544419,-0.328513778501,0.573746597992,0.81901169471,0.00392837389764,0.0,0.818987938491,-0.573673585335,-0.0117524889394,0.0,-0.00737196347805,0.00996043315617,-0.999923219015,0.0,0.471919875198,0.0118286908134,0.304761112301,1.0,-0.13998,-0.183973714286,2.914
0.147777557195,-0.203529340304,-0.128311078181,-2.35798166795,-0.0187795798724,2.1485701335,-0.141819571415,-0.376279248506,-0.426297380031,-0.00428710885307,-0.454759484619,-0.0637331286985,0.0147891266898,-0.330189913034,0.573761059985,0.819002284604,0.00377501787926,0.0,0.818975253315,-0.573686879566,-0.0119852231327,0.0,-0.0076503941935,0.00996849247707,-0.999921047196,0.0,0.469469475925,0.00869542119701,0.30466902419,1.0,-0.13998,-0.183973714286,2.931
0.141697890976,-0.21043798896,-0.128467393807,-2.36512805633,-0.0198229311524,2.14876651677,-0.147176046529,-0.385569745911,-0.425527796858,-0.0101488457968,-0.440005225472,-0.0643619103638,0.012770133898,-0.340495228646,0.573854737946,0.818936462223,0.00381542654676,0.0,0.818909353212,-0.573779604482,-0.0120492158983,0.0,-0.00767847613988,0.0100391814028,-0.99992012473,0.0,0.467219057824,0.00570963385721,0.304662194007,1.0,-0.13998,-0.183973714286,2.947
0.135173899193,-0.217770975163,-0.128549178809,-2.3724161251,-0.0209370250236,2.14901627007,-0.152877262149,-0.380390141223,-0.427827926773,-0.00043495416612,-0.439884273926,-0.0622435154781,0.0105148448466,-0.324623945219,0.573939560391,0.818875931585,0.00404185485011,0.0,0.818852782931,-0.573864960177,-0.0118268451979,0.0,-0.00736538181294,0.0100977728393,-0.999921890017,0.0,0.464785559439,0.00239478726102,0.304777131099,1.0,-0.13998,-0.183973714286,2.965
0.128272566004,-0.225385595635,-0.128546817777,-2.38032519582,-0.0222039169845,2.14911482983,-0.159054450837,-0.390347538014,-0.419021407906,-0.00116429711983,-0.445437468413,-0.0747541205232,0.00203782813834,-0.345981811974,0.573765853645,0.818998362424,0.00389543824908,0.0,0.818972935976,-0.573691285201,-0.0119325740761,0.0,-0.00753812478457,0.0100369552932,-0.999921214998,0.0,0.46236190894,-0.000673570907248,0.30471113353,1.0,-0.13998,-0.183973714286,2.982
0.121585400812,-0.232581806021,-0.128605192647,-2.38768040587,-0.0233253854303,2.14913772098,-0.164959250232,-0.387787389329,-0.429566251942,2.11432284659e-05,-0.428436559602,-0.0650351366745,-0.000565733659106,-0.351656891745,0.573771088231,0.818994914401,0.00384907732696,0.0,0.818968215348,-0.573695803746,-0.0120388502629,0.0,-0.00765170494884,0.010060009892,-0.999920120616,0.0,0.459946633003,-0.00380384570526,0.304678842549,1.0,-0.13998,-0.183973714286,2.999
0.11521898867,-0.2393601376,-0.128756968632,-2.39437513911,-0.0243880838999,2.14916851209,-0.170569502121,-0.40375576225,-0.422203780743,-0.0149091790498,-0.407459534384,-0.06795993203,0.000924504132829,-0.342438900882,0.573865623273,0.818928160121,0.00395751025831,0.0,0.818903228509,-0.573790398259,-0.0119510712406,0.0,-0.00751643210994,0.0100993213169,-0.999920750338,0.0,0.457735619175,-0.0067983760087,0.304738076775,1.0,-0.13998,-0.183973714286,3.015
0.108394266519,-0.246485312054,-0.128857588247,-2.40135166448,-0.0254880790597,2.14924032967,-0.176643552248,-0.392039002988,-0.414595839552,-0.00349351240436,-0.418408254954,-0.0669476547633,-0.00870895922847,-0.353447137135,0.573885813697,0.818913154846,0.00413092704806,0.0,0.818891296434,-0.573811107648,-0.0117730312874,0.0,-0.00727085835519,0.0101393510599,-0.99992216106,0.0,0.455419611163,-0.00994657978027,0.304816114572,1.0,-0.13998,-0.183973714286,3.032
0.101174965744,-0.253902130151,-0.128864327964,-2.40893356924,-0.026617219626,2.14917793789,-0.183090455828,-0.407587353599,-0.41211262826,-0.000582533263597,-0.42700867694,-0.0736938482818,-0.00213242867007,-0.369898849967,0.573815618374,0.818962755356,0.00404825286211,0.0,0.818938709201,-0.573739674585,-0.0119550524683,0.0,-0.00746824321697,0.0101754627074,-0.999920339478,0.0,0.452843522032,-0.0131875228346,0.304725163496,1.0,-0.13998,-0.183973714286,3.05
0.094625767593,-0.260486831853,-0.128920095238,-2.41546019199,-0.027655184756,2.14909516068,-0.18890858207,-0.408302534466,-0.400794920921,0.00103844671285,-0.412647735051,-0.0666880641081,-0.00498708845907,-0.367017380632,0.573813400287,0.818964251775,0.00405990984761,0.0,0.818940291063,-0.573737324469,-0.0119594768671,0.0,-0.0074652059389,0.0101875279806,-0.999920239306,0.0,0.450600925717,-0.0161259320862,0.304718940256,1.0,-0.13998,-0.183973714286,3.066
0.0875638338987,-0.267482389404,-0.129114490352,-2.42210865843,-0.0287391646789,2.14903215593,-0.195166479657,-0.421915576173,-0.407793981911,-0.0122548222774,-0.38355941877,-0.0631887039646,0.000456864146482,-0.371760194796,0.573950604303,0.81886696893,0.00428227934547,0.0,0.818846935716,-0.573875196348,-0.0117346404316,0.0,-0.00715175323494,0.0102418324739,-0.999921975603,0.0,0.448299599111,-0.0193236208641,0.30482608614,1.0,-0.13998,-0.183973714286,3.083
0.0809309478844,-0.273951447732,-0.129152611128,-2.42839050144,-0.02975297641,2.14890183167,-0.201127132211,-0.412416445275,-0.400097846845,-0.00202658232056,-0.398260668588,-0.0690784070032,-0.0114339958251,-0.379650495402,0.573894168541,0.818906222261,0.00433928087374,0.0,0.818887250554,-0.573819052482,-0.0116667386262,0.0,-0.00706413882163,0.0102490523736,-0.999922524433,0.0,0.446090014484,-0.0222323993462,0.304846703814,1.0,-0.13998,-0.183973714286,3.099
0.074251641239,-0.280366386758,-0.129162103297,-2.43480353364,-0.0307900745187,2.14863386029,-0.207184184329,-0.422608810365,-0.399917863868,-0.00168055028859,-0.383433899036,-0.0610799417776,-0.0220684113847,-0.366672436242,0.573756030108,0.819003766813,0.00419461108009,0.0,0.818981989205,-0.573680086073,-0.0118493503033,0.0,-0.00729843820477,0.0102341441547,-0.999920994426,0.0,0.443784626796,-0.0251169915046,0.304759345809,1.0,-0.13998,-0.183973714286,3.115
0.0669761808401,-0.287164247875,-0.129224956284,-2.4413457461,-0.0318696916496,2.14839916401,-0.213673819595,-0.421092488474,-0.39925673141,-0.00625646909697,-0.375975702135,-0.061659273706,-0.0174649611018,-0.37870047893,0.573765542435,0.818996924972,0.00422919637695,0.0,0.818975826574,-0.573689803308,-0.0118047435165,0.0,-0.00724194123224,0.0102369617588,-0.99992137636,0.0,0.441414995458,-0.0282556385045,0.304770392201,1.0,-0.13998,-0.183973714286,3.132
0.0595961020114,-0.293942245149,-0.129405893971,-2.44768121363,-0.0328427027103,2.14816354951,-0.220259559395,-0.434289032098,-0.397217979953,-0.00819068205406,-0.365270671673,-0.065941530167,-0.0113296809662,-0.394114580659,0.573923765657,0.81888483029,0.00446013852888,0.0,0.818867098873,-0.573847788796,-0.011667758079,0.0,-0.00699524414197,0.0103488635989,-0.999921980747,0.0,0.439089888618,-0.0314481065825,0.304849443999,1.0,-0.13998,-0.183973714286,3.149
0.052284562055,-0.300652841782,-0.129431123196,-2.45397529705,-0.0338744494232,2.14784634546,-0.226901362105,-0.42956611852,-0.392207386338,0.00477231873309,-0.369449322349,-0.0628506925469,-0.0201895161506,-0.391119923562,0.573828027723,0.818951429726,0.00454942297775,0.0,0.818935362227,-0.573752553096,-0.0115597237178,0.0,-0.00685674123085,0.0103591762625,-0.999922833306,0.0,0.436745266981,-0.0345198480884,0.304898669928,1.0,-0.13998,-0.183973714286,3.166
0.0448147058336,-0.307216861092,-0.129477234504,-2.46038292407,-0.034979593191,2.14736761115,-0.23355589461,-0.438257027471,-0.378152262989,-0.00076598849562,-0.37120553149,-0.0632860986344,-0.0263896740591,-0.384735834575,0.57382380982,0.818955399297,0.00436304341768,0.0,0.818936013195,-0.573747581293,-0.0117586629455,0.0,-0.00712667211025,0.0103206528562,-0.999921344241,0.0,0.434438846824,-0.0374508310927,0.304810893483,1.0,-0.13998,-0.183973714286,3.182
0.0372835843559,-0.313788917412,-0.129611514133,-2.46655702205,-0.0359531321581,2.14698350103,-0.240383833813,-0.452543712696,-0.378266019624,-0.0121128345239,-0.364959614174,-0.0542258180875,-0.0214966795143,-0.405436938883,0.573874838227,0.818919163734,0.00445199061976,0.0,0.818900636815,-0.573797878701,-0.0117681061644,0.0,-0.00708272124962,0.0103993581948,-0.999920841071,0.0,0.43206024926,-0.0405915842266,0.304813750091,1.0,-0.13998,-0.183973714286,3.199
0.030117103867,-0.319917340707,-0.129708639702,-2.47220173716,-0.0369013474731,2.14658346602,-0.246845598142,-0.441280997291,-0.376455429793,0.000443374015725,-0.345970052903,-0.0575520000696,-0.0258915335314,-0.397172377083,0.573901109401,0.818900221116,0.00454877849446,0.0,0.818883306807,-0.573824363184,-0.0116823349672,0.0,-0.00695660070104,0.0104296245761,-0.999921411231,0.0,0.429712587367,-0.0437296123161,0.304854722872,1.0,-0.13998,-0.183973714286,3.216
0.0225024030069,-0.32636895908,-0.129707409719,-2.47803225663,-0.0379334953338,2.14617824876,-0.253827025326,-0.452736413173,-0.371597277403,0.00304898441921,-0.344808020686,-0.0580689166238,-0.0358854815588,-0.410298264111,0.57375317112,0.819003266598,0.00465777127273,0.0,0.818989116454,-0.573678188489,-0.0114415944598,0.0,-0.00669877042362,0.0103795149211,-0.999923693161,0.0,0.427410945273,-0.0468061493645,0.304940247067,1.0,-0.13998,-0.183973714286,3.233
0.0147315045101,-0.33270064663,-0.12976461593,-2.48406079375,-0.0389218152028,2.1455761561,-0.260854548488,-0.456027828048,-0.376970837017,-0.00970624519195,-0.350754614717,-0.0636485920225,-0.0346144655664,-0.413287561841,0.573750964625,0.819005444531,0.00454525275297,0.0,0.818988575809,-0.573674390529,-0.0116684723466,0.0,-0.00694918107164,0.0104175079127,-0.999921589132,0.0,0.424964535427,-0.0499176434575,0.304854160691,1.0,-0.13998,-0.183973714286,3.25
0.0068417315608,-0.339019470161,-0.129939237162,-2.48985855676,-0.0398635387718,2.14502116518,-0.267953289926,-0.465743615948,-0.370139626225,0.000136466787254,-0.336874053718,-0.0545067714762,-0.025635080381,-0.413667385737,0.573902942848,0.818898496722,0.00462721932363,0.0,0.81888224822,-0.573825417465,-0.0117047307961,0.0,-0.00692990381553,0.010506729499,-0.999920789397,0.0,0.422575379461,-0.0530971396501,0.304856094141,1.0,-0.13998,-0.183973714286,3.267
-0.00052948471186,-0.34490688042,-0.129974977572,-2.49520938898,-0.0407561275627,2.14447350967,-0.274767169718,-0.462806154121,-0.35801689048,0.00296285639795,-0.332927195799,-0.0584040674943,-0.0325062134693,-0.432260677368,0.573790677836,0.81897692264,0.00466959445693,0.0,0.818961230215,-0.573713045877,-0.0116872279339,0.0,-0.00689269541434,0.0105304420029,-0.999920797134,0.0,0.4203460499,-0.0559904147817,0.304869232928,1.0,-0.13998,-0.183973714286,3.283
-0.00947603210607,-0.351812214764,-0.130039595476,-2.50130499073,-0.0418787447436,2.14381195254,-0.28286994229,-0.467922148725,-0.36555549645,-0.00161447949287,-0.324136030957,-0.0538875039836,-0.0348430355025,-0.432201798901,0.573800079752,0.818969906581,0.0047442061792,0.0,0.81895630452,-0.573723960155,-0.0114950307686,0.0,-0.00669234836621,0.0104813489306,-0.999922673909,0.0,0.417746213998,-0.0594998613594,0.304949961781,1.0,-0.13998,-0.183973714286,3.302
-0.0170822797576,-0.357536138984,-0.13019566078,-2.50648076993,-0.0427631213135,2.14319629656,-0.289827545289,-0.48165470711,-0.354762917567,-0.0095273692443,-0.32961036215,-0.0591996837907,-0.0430827513201,-0.43651932147,0.573858552407,0.818928720504,0.00478115719933,0.0,0.818915209564,-0.573781709448,-0.0115402057646,0.0,-0.00670739452829,0.0105380110138,-0.999921977548,0.0,0.4154964901,-0.0624777147272,0.304942049469,1.0,-0.13998,-0.183973714286,3.318
-0.0251477893272,-0.363545660717,-0.130263992969,-2.51200404509,-0.0437128477587,2.14245214378,-0.297286818576,-0.47090535767,-0.353614720321,0.00100780351886,-0.317671183611,-0.0585684575739,-0.0445155598856,-0.439460948083,0.573769463108,0.818991652202,0.00469294466013,0.0,0.818975942311,-0.573691270149,-0.011725159762,0.0,-0.0069106396342,0.0105711509241,-0.999920243733,0.0,0.41306222448,-0.0655599390791,0.30487556754,1.0,-0.13998,-0.183973714286,3.335
-0.0323938749965,-0.368847976773,-0.130301533414,-2.5166794303,-0.0445539217646,2.14187505435,-0.303912130645,-0.490039645423,-0.355197312727,-0.00192822820791,-0.308197525131,-0.0509533431228,-0.039915324863,-0.447797362624,0.573746694541,0.819007376637,0.00473227407913,0.0,0.818992697138,-0.57366918189,-0.0116352346851,0.0,-0.0068147144409,0.010551578503,-0.999921108817,0.0,0.410974354074,-0.068311483305,0.304904179881,1.0,-0.13998,-0.183973714286,3.35
-0.0407022956971,-0.374653822796,-0.130403047449,-2.52185508756,-0.0454305569105,2.14113413498,-0.31145059505,-0.492734701039,-0.34182289852,-0.0137886530938,-0.305507766066,-0.0587659455408,-0.0401599451245,-0.450276168172,0.573856736725,0.818930153389,0.00475357625685,0.0,0.818915192662,-0.573778276168,-0.0117108465325,0.0,-0.0068629986909,0.0106133283311,-0.999920125065,0.0,0.40859666318,-0.0714546244753,0.304889305397,1.0,-0.13998,-0.183973714286,3.367
-0.0490287991334,-0.380477949231,-0.130530902109,-2.52681653893,-0.0463027814309,2.14045224062,-0.319147343236,-0.488577659909,-0.338144172494,-0.00306751645357,-0.289949008229,-0.0526368828266,-0.0344924277198,-0.466400649728,0.573878569712,0.818913891153,0.00491660485162,0.0,0.818901882759,-0.573800928829,-0.0115302813817,0.0,-0.00662128264208,0.010643403276,-0.999921435205,0.0,0.406279979191,-0.0745974457279,0.304972679058,1.0,-0.13998,-0.183973714286,3.384
-0.0574189306122,-0.386167135027,-0.130567860806,-2.53185706919,-0.0472236304463,2.13967888378,-0.326909401037,-0.497118300026,-0.333218713828,-0.0034488038644,-0.299804414203,-0.0549191099554,-0.0457862114068,-0.460528332207,0.573803181474,0.818967012412,0.00486707432006,0.0,0.81895414664,-0.573725354652,-0.0115788614375,0.0,-0.0066904704305,0.0106301028895,-0.999921116148,0.0,0.403891524957,-0.0776943627193,0.304948463814,1.0,-0.13998,-0.183973714286,3.401
-0.0659454492055,-0.391841556662,-0.130655087903,-2.53689708899,-0.0481459671945,2.13884838326,-0.334753443416,-0.501484082381,-0.334603970217,-0.0103307192805,-0.291200974537,-0.0431073834103,-0.0443554262595,-0.459199137581,0.573807145739,0.818964624059,0.00480113947377,0.0,0.818950237019,-0.573728473605,-0.0117002035098,0.0,-0.00682763380006,0.0106457596544,-0.999920022411,0.0,0.401454395649,-0.080826794012,0.304902315321,1.0,-0.13998,-0.183973714286,3.418
-0.0739951679274,-0.397091528631,-0.130794709114,-2.5413637594,-0.0489464079723,2.13813164643,-0.342216104164,-0.500685505739,-0.321818162796,-0.00496469355895,-0.278421151006,-0.049715150205,-0.0429200747823,-0.459992032193,0.573847477556,0.818935750248,0.00490472929238,0.0,0.818923034221,-0.573768990814,-0.011617060861,0.0,-0.00669957386318,0.010683222551,-0.999920489072,0.0,0.399240373225,-0.083790196147,0.304942694954,1.0,-0.13998,-0.183973714286,3.434
-0.0835774208364,-0.40312718429,-0.130838503933,-2.54661979274,-0.0498888862863,2.13718431883,-0.35113168997,-0.513564406243,-0.315763223405,-0.001870987039,-0.280303055557,-0.0494621005399,-0.05072195965,-0.474569848398,0.573781583765,0.81898212801,0.0048698083733,0.0,0.818968407715,-0.573702344047,-0.0117095901128,0.0,-0.00679625539886,0.0107071725158,-0.999919580451,0.0,0.396583584451,-0.0872337676325,0.304915472294,1.0,-0.13998,-0.183973714286,3.453
-0.0923598848282,-0.408496237915,-0.130918093794,-2.55118017384,-0.0507587449773,2.13635575775,-0.359214160019,-0.517154631278,-0.314163042929,-0.0114607003666,-0.265786793661,-0.0418662767896,-0.0451617292858,-0.469102425034,0.573829210252,0.818948689962,0.00488134934049,0.0,0.818935370696,-0.573750322544,-0.0116693146757,0.0,-0.00675602428229,0.0106939091471,-0.999919995021,0.0,0.394211623205,-0.0903920082463,0.304934076942,1.0,-0.13998,-0.183973714286,3.47
-0.101141182348,-0.413810014306,-0.131066770669,-2.55562134385,-0.0515792699028,2.1355925503,-0.367440535875,-0.512882607055,-0.309094141826,-0.00349459283734,-0.258228162834,-0.0414972269169,-0.0454579901062,-0.486498151249,0.573845009491,0.818936929224,0.00499579181143,0.0,0.818925765919,-0.573766851215,-0.0115298422186,0.0,-0.00657592045085,0.0107077312099,-0.999921047765,0.0,0.392006176042,-0.093367858884,0.304980949307,1.0,-0.13998,-0.183973714286,3.486
-0.108362569298,-0.418130392263,-0.131113698284,-2.55929392608,-0.052201186242,2.13482941872,-0.374233897608,-0.520030571768,-0.310420376466,-0.00215461070467,-0.26116385683,-0.0457741428356,-0.0501333600372,-0.492011085167,0.573773958859,0.818986572889,0.00501841243259,0.0,0.818975007188,-0.57369461391,-0.011626455708,0.0,-0.00664300283058,0.0107811194471,-0.999919815774,0.0,0.389745325604,-0.0962553889414,0.30496801044,1.0,-0.13998,-0.183973714286,3.502
-0.117354825621,-0.42327334934,-0.131180746378,-2.56365380156,-0.0530088135551,2.1339108145,-0.38254217113,-0.530228406708,-0.2989948023,-0.00682469042657,-0.251688500817,-0.0447503500105,-0.0492219252806,-0.492530333454,0.573832314784,0.818945721888,0.00501258528644,0.0,0.818933659646,-0.57375229684,-0.011692299611,0.0,-0.00669950541053,0.0108146023785,-0.999919077227,0.0,0.387335732732,-0.099399806656,0.304958015164,1.0,-0.13998,-0.183973714286,3.519
-0.126301765215,-0.428224937113,-0.131307088787,-2.56783411302,-0.0537928283651,2.13307419312,-0.390896558787,-0.519827680931,-0.288370153021,-0.00331303988167,-0.244829260717,-0.0482481158345,-0.0446362756132,-0.487784373063,0.573876962642,0.818914261545,0.00504092141043,0.0,0.818902443602,-0.57379664605,-0.0117022966147,0.0,-0.00669084261175,0.0108439100771,-0.999918817824,0.0,0.385110441248,-0.102345713841,0.304949285986,1.0,-0.13998,-0.183973714286,3.535
-0.135232679912,-0.433093690168,-0.131336635932,-2.57194168519,-0.0545531503188,2.13219990128,-0.399387176625,-0.533832876777,-0.287574550308,-0.00245315452897,-0.241192150946,-0.0482272606579,-0.0578752419482,-0.499298808172,0.573733492653,0.819014849954,0.00503009584947,0.0,0.819002604401,-0.573652772314,-0.0117463910046,0.0,-0.00673506990803,0.0108591686109,-0.999918355312,0.0,0.38274797108,-0.105404392548,0.304931289184,1.0,-0.13998,-0.183973714286,3.552
-0.144458568658,-0.437909312794,-0.131418206718,-2.57596585863,-0.0553165556968,2.13126630877,-0.40794110781,-0.545138847008,-0.280096591573,-0.00779166476429,-0.22985133354,-0.0382613049947,-0.0610330835035,-0.501815215573,0.573818874136,0.818955096105,0.0050196763938,0.0,0.818942224054,-0.573737384825,-0.0118234435488,0.0,-0.00680302432024,0.0108955497886,-0.999917499524,0.0,0.380339823406,-0.1085651387,0.304916597829,1.0,-0.13998,-0.183973714286,3.569
-0.153632424949,-0.442684271198,-0.131550110657,-2.57973392128,-0.0560664382172,2.13043056583,-0.416584008646,-0.531043236359,-0.277006235214,-0.005353599321,-0.222593296478,-0.0471060240039,-0.0500066004441,-0.518106209817,0.573841261408,0.818938642879,0.00514322909997,0.0,0.818928491193,-0.573761182597,-0.0116180273354,0.0,-0.00656359269776,0.0108790497634,-0.999919279506,0.0,0.378011860549,-0.111720406285,0.305002155597,1.0,-0.13998,-0.183973714286,3.586
