nelsonifechukwu/NELSON_IML_WORK/CNN-GradCAM/train2dof/data_sample_2022-02-21-09-42-01/robot_state.csv
position_joint1,position_joint2,position_joint3,position_joint4,position_joint5,position_joint6,position_joint7,velocity_joint1,velocity_joint2,velocity_joint3,velocity_joint4,velocity_joint5,velocity_joint6,velocity_joint7,ee_T_00,ee_T_10,ee_T_20,ee_T_30,ee_T_01,ee_T_11,ee_T_21,ee_T_31,ee_T_02,ee_T_12,ee_T_22,ee_T_32,ee_T_03,ee_T_13,ee_T_23,ee_T_33,v_x,v_y,time
0.465070171565,0.54762627699,-0.123966160707,-1.35575190462,0.0794660234812,1.89409233074,0.159157495383,0.000105046962257,0.00326321266449,0.000614430619323,0.000289681864681,0.000194419794154,-0.000145559339119,-0.00238438313689,0.573777846977,0.818996461023,0.00212745188595,0.0,0.818955896251,-0.573718837177,-0.0117763646464,0.0,-0.00842440394288,0.00849947005917,-0.99992839165,0.0,0.661695841168,0.260906730033,0.303361202412,1.0,0.0,0.0,0.0
0.46506714876,0.547626010327,-0.123970085278,-1.35575675498,0.0794660278691,1.89409314601,0.159166049865,-0.000630794157427,4.90612653953e-05,-2.82472715764e-05,9.011186851e-05,0.000154454572128,-7.8153475838e-05,0.000730413545903,0.573790342144,0.818987717748,0.00212328562044,0.0,0.818947115487,-0.57373136382,-0.0117767187752,0.0,-0.00842695472245,0.0084963897114,-0.999928396334,0.0,0.661696588457,0.260901941819,0.303359283296,1.0,-0.0002,-0.000262857142857,0.011
0.465062042968,0.547624729517,-0.123967904406,-1.35575562432,0.0794653157923,1.89409233219,0.159162861603,-0.00128289931688,-0.00218729717787,0.000577597766193,-0.000349986211593,-0.000176661382818,-0.0005314274646,-0.00061244938925,0.573790130429,0.818987861973,0.00212486794007,0.0,0.818947275869,-0.573731141532,-0.0117763952112,0.0,-0.00842578404935,0.00849749775848,-0.999928396784,0.0,0.661697590465,0.260899806033,0.303360584628,1.0,-0.00054,-0.000709714285714,0.028
0.465065957103,0.547594493503,-0.123970065589,-1.35578229807,0.0794660278691,1.89409557399,0.159169163694,0.00138251909047,-0.00739747060322,0.000265883130893,-0.00215456034981,-3.51822511348e-05,0.00247382349734,0.00194433002543,0.57379520859,0.818984285789,0.00213193124011,0.0,0.818943773895,-0.573736173877,-0.0117747562234,0.0,-0.00842033636087,0.0085023942162,-0.999928401051,0.0,0.66169235685,0.260898712618,0.30336966243,1.0,-0.00092,-0.00120914285714,0.047
0.465062950582,0.547500856405,-0.123970065651,-1.35588055753,0.0794646040746,1.89411476168,0.159166808526,0.000267054320339,-0.00492657421964,0.00244447250551,-0.00714861808908,-3.91370759472e-07,-0.000209044973403,0.000644479826564,0.573800693525,0.818980400306,0.00214823788942,0.0,0.818940039159,-0.573741533051,-0.0117733774044,0.0,-0.00840979395419,0.00851501408149,-0.999928382386,0.0,0.661676996945,0.260887363443,0.303390889243,1.0,-0.00122,-0.00160342857143,0.062
0.465059497168,0.54736346402,-0.123969828869,-1.35605018142,0.0794605176185,1.89415234313,0.159159313238,-0.000297394350308,-0.00668147664264,0.00138706322131,-0.0120444117323,-0.000689106008402,0.000259772402032,0.00166282028402,0.573805409512,0.818977070851,0.00215785456237,0.0,0.818936746838,-0.573746122191,-0.0117787456636,0.0,-0.0084086238265,0.00852601852676,-0.999928298456,0.0,0.66165030866,0.260868774935,0.303410725242,1.0,-0.00154,-0.002024,0.078
0.465037669557,0.547214436575,-0.123973523589,-1.35626380922,0.0794535968999,1.89425426929,0.159150817514,-0.00291755526122,-0.00848285375234,-0.00237371407435,-0.0133922861668,-0.000392832475074,0.00467976901699,-0.00161961536699,0.573829171969,0.818960333238,0.00219109129609,0.0,0.81892043754,-0.573769749908,-0.01176171634,0.0,-0.00837535847987,0.00854370988408,-0.999928426635,0.0,0.661632525134,0.2608346009,0.303423569456,1.0,-0.00188,-0.00247085714286,0.095
0.465015384434,0.547006199973,-0.12396477886,-1.35649011562,0.0794522475983,1.89436413125,0.15914042155,-0.00376393743924,-0.0178886908426,0.000846016475883,-0.0108440378441,3.21581753118e-05,0.0109700901937,-0.00171246279839,0.573845160486,0.818948891361,0.00227860204946,0.0,0.818910019099,-0.573785287988,-0.0117290583512,0.0,-0.00829823076694,0.00859679893477,-0.999928614659,0.0,0.66161192243,0.260808044899,0.303472601045,1.0,-0.00224,-0.002944,0.113
0.464989517459,0.546812725011,-0.123964776082,-1.35673629096,0.0794448675155,1.89449316711,0.159125643659,-0.000624718216572,-0.0107907580398,0.00042214382816,-0.0153386326,-0.00530634202691,0.00991114647336,7.18554245787e-05,0.573866244288,0.818933924572,0.00234686045455,0.0,0.818895925665,-0.573806102465,-0.0116947255056,0.0,-0.00823072307156,0.00863320888423,-0.999928858921,0.0,0.661593467194,0.260771829963,0.303503655515,1.0,-0.00256,-0.00336457142857,0.129
0.464950231055,0.546567402884,-0.123967809019,-1.35710169987,0.079436241952,1.8946227101,0.159097745999,-0.00293115069962,-0.0159510674924,0.000287439176511,-0.0224267425246,-0.000830670159774,0.0144108488878,-0.000958599973215,0.573895792006,0.818913175557,0.00236171951726,0.0,0.818875260907,-0.573835477905,-0.0117003535902,0.0,-0.00822649365128,0.00864890389445,-0.999928758094,0.0,0.661553378,0.260711330489,0.303514803636,1.0,-0.00292,-0.00383771428571,0.147
0.46491577983,0.546307292882,-0.123970417216,-1.3574852923,0.0794267573671,1.89477515315,0.158973105091,-0.00170936227913,-0.0186036878889,-0.00122628520772,-0.023675602166,-1.05761571329e-05,0.00985380581134,-0.00829666845283,0.573842744639,0.818950255129,0.00239394045366,0.0,0.818912658758,-0.573782213757,-0.0116951016791,0.0,-0.00820426400829,0.00867174434615,-0.999928742912,0.0,0.661512741056,0.26065373094,0.303529730011,1.0,-0.00324,-0.00425828571429,0.163
0.464879448664,0.54604359561,-0.123970525431,-1.35792461656,0.0794095177715,1.89492657114,0.158938142338,-0.00329639548437,-0.013679117595,-0.000213743355962,-0.0283388412451,-0.00541415570006,0.00958392203898,-0.000670883379379,0.573863901461,0.818935476762,0.00237789875457,0.0,0.81889757455,-0.573803323819,-0.0117155823954,0.0,-0.00823001829877,0.00867057227932,-0.999928541434,0.0,0.661459525023,0.260588435806,0.303520464799,1.0,-0.00356,-0.00467885714286,0.179
0.464829862326,0.545723798045,-0.123966175508,-1.358448274,0.0793693833908,1.89510625891,0.158906791321,-0.000197606371647,-0.0221944086245,0.00291548994866,-0.0346326040937,-0.00321798783229,0.0184981689419,0.00129140011248,0.573894350617,0.818914210405,0.00235313150725,0.0,0.818876019217,-0.573833895076,-0.0117248843815,0.0,-0.00825152668442,0.00865593452311,-0.999928490996,0.0,0.661397740533,0.260505893666,0.303513028105,1.0,-0.0039,-0.00512571428571,0.196
0.46477163389,0.545380520712,-0.123972982411,-1.3590520454,0.079266049596,1.89530632786,0.158798909175,-0.00340973796699,-0.0209060332062,-0.000205235704779,-0.0366437718196,-0.00113432769484,0.0131420559934,-0.00583987876408,0.573864665023,0.818935267653,0.00226285944091,0.0,0.818896482248,-0.573805150431,-0.0117024613686,0.0,-0.00828527744844,0.00856884168596,-0.999928962042,0.0,0.661330536081,0.260393124187,0.303486079547,1.0,-0.00424,-0.00557257142857,0.213
0.46471671365,0.545003761531,-0.123971175865,-1.3597006932,0.0792583482288,1.89550477259,0.158720570192,-0.00358497260577,-0.0217975807005,0.0010846087986,-0.0433889949752,-0.000270935539658,0.00973574009857,-0.00626856155584,0.573878183452,0.818925916233,0.00221837375283,0.0,0.818886205603,-0.573818477544,-0.0117679226706,0.0,-0.00836427404386,0.00857011475151,-0.999928293456,0.0,0.661245313261,0.260298023066,0.303461197097,1.0,-0.00456,-0.00599314285714,0.229
0.46465771859,0.544591311183,-0.123977037947,-1.36040600832,0.0792379594402,1.89575535277,0.158641296304,-0.00282956111608,-0.0226082734414,9.72879293635e-05,-0.0431209403841,-0.00229990599774,0.0163728409008,-0.00295354367222,0.573899616397,0.818910967254,0.00219201093288,0.0,0.818870724596,-0.573839816162,-0.0118046045279,0.0,-0.00840921886476,0.00856979658635,-0.999927919214,0.0,0.661161860155,0.260191020184,0.303439332908,1.0,-0.0049,-0.00644,0.246
0.464586997432,0.5441930618,-0.123977451279,-1.36105400841,0.0792065705967,1.89598390814,0.158543372156,-0.00341977605769,-0.0269452039451,-0.000131877797486,-0.0444164768342,-0.000101190408397,0.0159543128744,-0.00383977729882,0.573905365619,0.81890697555,0.00217798301235,0.0,0.818866461469,-0.573845528915,-0.0118226107973,0.0,-0.00843195497866,0.00856870198869,-0.99992773713,0.0,0.661089154574,0.260082768009,0.303432548159,1.0,-0.0052,-0.00683428571429,0.261
0.464530226921,0.543699251986,-0.123987489797,-1.36186080699,0.0791690341522,1.89627614269,0.158476302882,-0.00526403124095,-0.0336587344935,-0.00314392591415,-0.051550623685,-0.000514106014664,0.0249679998035,-0.00439123306778,0.573938922617,0.818883497365,0.00216281056039,0.0,0.818842721719,-0.573879076337,-0.0118384851851,0.0,-0.00845331117763,0.00856573403532,-0.999927582243,0.0,0.660993967486,0.259963899287,0.303423596408,1.0,-0.00554,-0.00728114285714,0.278
0.464436631143,0.543174453473,-0.12398075742,-1.36270108411,0.0791204337591,1.89656605583,0.158344467044,-0.00364768275368,-0.0279977629633,-0.0027070548053,-0.0551180220392,-0.000641545133206,0.0157502310452,-0.00423437268206,0.573936607789,0.818885168543,0.00214426697565,0.0,0.818844060896,-0.573876743631,-0.0118589188634,0.0,-0.00848071110268,0.00856225279238,-0.999927380046,0.0,0.660897651738,0.259824897826,0.30341980174,1.0,-0.00588,-0.007728,0.295
0.464371117954,0.542611138516,-0.123991695336,-1.36359819536,0.0790671067564,1.89688413693,0.1582474424,-0.0107752341834,-0.035632300906,-0.000729407365034,-0.0577656642144,-0.00621378552271,0.0198589799795,-0.00744321899332,0.573954074261,0.818872968081,0.00212830599257,0.0,0.818831673068,-0.573894292216,-0.011865051328,0.0,-0.00849471068564,0.00855288357721,-0.999927341397,0.0,0.660791765765,0.259689132512,0.303419157282,1.0,-0.00622,-0.00817485714286,0.312
0.464279626381,0.541951729058,-0.123989934073,-1.36463763058,0.0790057093318,1.89726964033,0.158094931314,-0.00201204521278,-0.0304402909922,1.37175722422e-05,-0.0543387776767,-0.00628590332328,0.0108934507495,-0.00357372052594,0.573944267043,0.818879827884,0.00213370898826,0.0,0.818838571893,-0.573884433067,-0.0118658149394,0.0,-0.00849233762607,0.00855764444023,-0.999927320821,0.0,0.660673185542,0.259531206548,0.303424076975,1.0,-0.0066,-0.00867428571429,0.331
0.464210375666,0.541393990195,-0.123994817,-1.3654863186,0.0789480520136,1.89757654935,0.157985977661,-0.0037548305733,-0.0334434832897,0.000455307827,-0.0650685068842,-0.00115391602426,0.019060544794,-0.00671998299174,0.5739452415,0.818879135367,0.00213736316549,0.0,0.818838008105,-0.573885474651,-0.011854339654,0.0,-0.00848083301377,0.00855406072472,-0.999927449126,0.0,0.660569786029,0.259393694515,0.303436948901,1.0,-0.00692,-0.00909485714286,0.347
0.4641110089,0.540670210871,-0.123993103625,-1.36656970093,0.0788891792771,1.89798834946,0.157834609092,-0.00248014325051,-0.0438154732041,-7.66547869296e-05,-0.0671891983007,-0.000194997598954,0.0260935764803,-0.0182730199173,0.573947394996,0.818877483022,0.0021914556171,0.0,0.818836984824,-0.573887338069,-0.0118347957263,0.0,-0.00843376148185,0.00858716041674,-0.999927563548,0.0,0.660455406132,0.259235400651,0.303472808858,1.0,-0.00726,-0.00954171428571,0.364
0.46402467924,0.539958649804,-0.123996330854,-1.36765913992,0.0788241238108,1.8983860855,0.157704147721,-0.00460468249734,-0.0411442169587,5.93631391587e-05,-0.0697376380948,-0.0016768427757,0.0270819793002,-0.014860185051,0.573956401314,0.818871125919,0.00220803722857,0.0,0.818830837358,-0.57389627205,-0.0118269024217,0.0,-0.00841768663473,0.00859630083087,-0.999927620462,0.0,0.660328548538,0.259073010589,0.30349171252,1.0,-0.0076,-0.00998857142857,0.381
0.46392572604,0.539269281346,-0.124004503663,-1.36875355791,0.0787653678873,1.89880027617,0.157578237469,-0.00456766276229,-0.0450100797597,-0.0011595119134,-0.0724335208699,-0.0059749602131,0.0228267873532,-0.00643449126048,0.573984976486,0.818851073508,0.0022165475742,0.0,0.818810873278,-0.573924787539,-0.0118253520753,0.0,-0.00841123258814,0.00860267331588,-0.99992761997,0.0,0.660207082421,0.258900674911,0.303494063282,1.0,-0.00792,-0.0104091428571,0.397
0.463809636935,0.538461592704,-0.124000508364,-1.36998635302,0.0786874211445,1.89928161378,0.157429655609,-0.00773650266316,-0.0412145785469,-0.000302802768606,-0.0723430451452,-0.00545821720595,0.025111680634,-0.0147620864893,0.574002932797,0.8188383613,0.00226232292607,0.0,0.818798793807,-0.573942602628,-0.0117970780188,0.0,-0.00836161751188,0.00862411070514,-0.999927851431,0.0,0.660072605243,0.258710680783,0.303519413506,1.0,-0.00828,-0.0108822857143,0.415
0.463722442069,0.537821063456,-0.124010896526,-1.37100999845,0.0786319241376,1.89966613298,0.157298715479,-0.00742780619988,-0.0472345571232,0.000309426032201,-0.071755777411,-0.00669227744979,0.0282701658135,-0.0151788508935,0.574016099249,0.818829128485,0.00226341518044,0.0,0.81878956587,-0.573955753624,-0.0117977373357,0.0,-0.00836139179775,0.00862551796634,-0.99992784118,0.0,0.659957161615,0.258551116915,0.303518230716,1.0,-0.00856,-0.0112502857143,0.429
0.463617530766,0.537010096419,-0.124012316878,-1.37227529134,0.0785579712342,1.90013818683,0.157141677299,-0.00820375284301,-0.0466388082052,0.000301444984959,-0.0725107481993,-0.0014057452616,0.0320630509847,-0.012175410346,0.574024342061,0.818823307233,0.00227884942372,0.0,0.818783922982,-0.573963913109,-0.0117924050373,0.0,-0.00834807948664,0.00863517906783,-0.999927869024,0.0,0.659811015867,0.258361586552,0.303529548538,1.0,-0.0089,-0.0116971428571,0.446
0.463502012626,0.536172806367,-0.124025794116,-1.37359745918,0.0784802204063,1.90064504048,0.15696873209,-0.00720469727083,-0.0497879413057,-0.00162247302914,-0.0843606396829,-0.00403047565538,0.0381004311427,-0.020532989305,0.574038834013,0.818813105363,0.00229399909997,0.0,0.818773973615,-0.573978402962,-0.0117779440513,0.0,-0.0083273893317,0.00863943036464,-0.999928004823,0.0,0.659664737227,0.258153411635,0.303535643214,1.0,-0.00924,-0.012144,0.463
0.463387759618,0.535282099805,-0.12402189658,-1.37498267499,0.0783974306689,1.90114636655,0.156807402847,-0.00874267457717,-0.0543625615912,0.00131687931428,-0.0814414031439,-0.0119209575637,0.0332053139489,-0.0146123774107,0.574051342816,0.818804315715,0.00230114726177,0.0,0.818765221152,-0.573990825154,-0.0117810089326,0.0,-0.00832566383669,0.00864716982896,-0.999927952292,0.0,0.659499784541,0.257948210483,0.303548201491,1.0,-0.00958,-0.0125908571429,0.48
0.463274092495,0.534395483465,-0.124025190956,-1.37642605538,0.0783309472522,1.90166539068,0.156627371842,-0.00839473260574,-0.0509331985772,0.00135465728566,-0.08747633992,-0.00349690066125,0.0306736570907,-0.0127668348204,0.574060648917,0.818797854043,0.00227870151629,0.0,0.818758258953,-0.573999999986,-0.0118177965052,0.0,-0.00836857286862,0.00865000415607,-0.999927569585,0.0,0.659324986752,0.257736107211,0.303531832416,1.0,-0.00992,-0.0130377142857,0.497
0.463144926221,0.53352532591,-0.12402760779,-1.37782412045,0.0782358098776,1.9021763803,0.156458532872,-0.0086125937125,-0.0594269874811,-0.00129785587742,-0.0838201862891,-0.0014055945932,0.0346741871409,-0.00545779162679,0.574080841276,0.818783757388,0.00225681619443,0.0,0.818743955823,-0.574020355237,-0.011820045571,0.0,-0.0083827642857,0.00863358254714,-0.999927592636,0.0,0.659163716121,0.257514314244,0.303524465805,1.0,-0.01024,-0.0134582857143,0.513
0.463012052442,0.532594675279,-0.12402510506,-1.37934326758,0.0781505261656,1.90275298506,0.156263493477,-0.00814983398019,-0.0598720917794,5.86427911031e-05,-0.0940005879442,-0.00731874686828,0.0345454369336,-0.0120892864485,0.574088482919,0.818778422005,0.00224863078912,0.0,0.818738440086,-0.574027951742,-0.0118331840732,0.0,-0.00839814054688,0.00863450139821,-0.999927455679,0.0,0.658987864878,0.25728540882,0.303507518568,1.0,-0.01058,-0.0139051428571,0.53
0.462887083111,0.531610356283,-0.124030792349,-1.3809016915,0.0780614387355,1.90332437811,0.156065033,-0.00414237275234,-0.0619460463751,-0.000179657309206,-0.0909883768657,-0.00619089745194,0.0309952309584,-0.0129631927412,0.574093386617,0.818774987853,0.00224713363152,0.0,0.818734939738,-0.574032812652,-0.0118395671765,0.0,-0.00840417483863,0.00863699032366,-0.999927383485,0.0,0.65880286684,0.257052059546,0.303509302933,1.0,-0.01092,-0.014352,0.547
0.462734511513,0.530493783008,-0.124033904443,-1.38272607188,0.0779492502663,1.90397155756,0.155833412687,-0.0119061653803,-0.0598148867948,1.17231339012e-05,-0.0938464305643,-0.00838973738975,0.0286724815118,-0.0167219210478,0.574099903082,0.818770565677,0.00219293474075,0.0,0.818729772967,-0.574039501933,-0.0118724882856,0.0,-0.00846217570634,0.00861158113616,-0.99992711347,0.0,0.658581715571,0.256773638821,0.30348394871,1.0,-0.0113,-0.0148514285714,0.566
0.462615343162,0.529589516258,-0.124036828356,-1.38417611228,0.0778621594072,1.90449441281,0.155635640147,-0.0110393753647,-0.0587817520076,-0.000478060250406,-0.0974304909476,-0.00654584439297,0.0371958685898,-0.0182693945922,0.574092904531,0.818775526744,0.00217271087002,0.0,0.818734435561,-0.574032549281,-0.0118871061728,0.0,-0.00848582823706,0.00860334215804,-0.999926983946,0.0,0.658407112934,0.256554617915,0.303476177821,1.0,-0.0116,-0.0152457142857,0.581
0.462470426457,0.528423651353,-0.124031065008,-1.38596059944,0.0777507356729,1.90516998663,0.155397273314,-0.0089623717314,-0.0704668948022,0.000545915175911,-0.102948089693,-0.00481450675557,0.0379972051149,-0.0138921265639,0.574079115559,0.818785067232,0.00222028304583,0.0,0.818744598134,-0.574018575549,-0.0118619076319,0.0,-0.00843803158483,0.00862768430191,-0.999927178692,0.0,0.658197210582,0.256293877951,0.303506147717,1.0,-0.01196,-0.0157188571429,0.599
0.462339814861,0.527454157549,-0.124033928963,-1.38746851523,0.077661573597,1.90575412772,0.155181308144,-0.00857583301677,-0.0713706514511,-0.00110454122662,-0.104770298415,-0.0120762817392,0.0397103951962,-0.0123475176223,0.574069003216,0.818792052696,0.0022585147328,0.0,0.818752091806,-0.574008325231,-0.0118406769221,0.0,-0.00839880760617,0.00864669573564,-0.999927344702,0.0,0.658025225892,0.256065197111,0.303521622932,1.0,-0.01226,-0.0161131428571,0.614
0.462192941471,0.526299064998,-0.124034673394,-1.38926503532,0.0775282048921,1.90643965933,0.154935813002,-0.0094997797746,-0.0697037987445,6.24582929319e-05,-0.107281488249,-0.0120541694304,0.0370429727517,-0.0145797525023,0.574049852034,0.818805416641,0.00228121893591,0.0,0.81876597416,-0.573989318703,-0.0118020538369,0.0,-0.00835435115346,0.00864291810606,-0.999927749782,0.0,0.657816371691,0.255795021281,0.303538773923,1.0,-0.0126,-0.01656,0.631
0.462034079032,0.525121208528,-0.124040261635,-1.39109088867,0.0774394409921,1.9070965094,0.154701679118,-0.0125442344942,-0.0645858391447,-0.000249800942946,-0.105804907529,-0.00728964270298,0.0413877197169,-0.00422787854922,0.574066561796,0.818793648727,0.00230007227032,0.0,0.818754236158,-0.574005730793,-0.0118181509177,0.0,-0.00835653313589,0.00866776606027,-0.999927516466,0.0,0.657596654987,0.255516232948,0.303555416131,1.0,-0.01294,-0.0170068571429,0.648
0.461877663808,0.523937973248,-0.124049235547,-1.39297578022,0.0773114185723,1.90776793238,0.154441855569,-0.0114856209649,-0.0683845773343,-0.000259866642422,-0.113516935434,-0.00568813242923,0.0433992614288,-0.0251692800244,0.574054815039,0.81880198274,0.00226479417095,0.0,0.818762204975,-0.573994218879,-0.0118251976507,0.0,-0.00838267791416,0.00864280592021,-0.999927513681,0.0,0.657367811866,0.255224874283,0.303548756611,1.0,-0.01328,-0.0174537142857,0.665
0.46171732207,0.522655583415,-0.124056456485,-1.39502204298,0.0771819753687,1.90854894414,0.154158677039,-0.00874976683344,-0.0722392559595,-0.000274260258651,-0.119161805175,-0.00696052878996,0.0451972915177,-0.0194312352142,0.574034306664,0.818816338903,0.00227262373422,0.0,0.818776740689,-0.573973762944,-0.0118116577829,0.0,-0.0083673130824,0.00864123461043,-0.999927655951,0.0,0.657125526996,0.254921302796,0.30354413058,1.0,-0.01364,-0.0179268571429,0.683
0.461566260764,0.521506117957,-0.124059518506,-1.3968574614,0.0770679413014,1.90927010286,0.153920291986,-0.00510757860455,-0.0659810096974,-0.000176897685162,-0.114041078242,-0.00178087422181,0.0492864193053,-0.0177552781933,0.574040472695,0.818811959031,0.00229311090186,0.0,0.818772642764,-0.573979865453,-0.011799170225,0.0,-0.00834526287211,0.00865090428333,-0.999927756612,0.0,0.656900163067,0.254624266372,0.303534961194,1.0,-0.01398,-0.0183737142857,0.7
0.461381825033,0.520147054316,-0.124062750374,-1.39900465384,0.0769461904814,1.91006128295,0.153622469098,-0.00813311822026,-0.0756435887322,0.00660728756642,-0.120590514485,-0.00888882722978,0.0485471784965,-0.0100026858565,0.574023824545,0.81882360118,0.00230345553671,0.0,0.818784366882,-0.573963125227,-0.0117999292842,0.0,-0.00834012262472,0.00865964064528,-0.999927723877,0.0,0.656654006447,0.254321955535,0.30354203657,1.0,-0.01432,-0.0188205714286,0.717
0.46123917415,0.519063197705,-0.124073732622,-1.40070274973,0.0768189328282,1.91066162912,0.15338885483,-0.0122498531785,-0.0781382505472,-0.00487741594147,-0.124184285988,-0.0108968755386,0.0420777786104,-0.0148623200356,0.574002358218,0.81883868788,0.00228973636628,0.0,0.818799445644,-0.573941890848,-0.0117864601744,0.0,-0.00833719448115,0.00864045715809,-0.999927914246,0.0,0.656430450983,0.254046531377,0.303553537989,1.0,-0.01462,-0.0192148571429,0.732
0.461064988468,0.517698983914,-0.124072327922,-1.40281628209,0.0766809601581,1.91142107772,0.153103217885,-0.013178449114,-0.0810534008801,0.000534169185802,-0.126644616885,-0.00954431660775,0.0508623384332,-0.0188622551375,0.573995120664,0.818843784882,0.00228129678565,0.0,0.818804467738,-0.573934722493,-0.0117866378008,0.0,-0.00834226028463,0.00863357481011,-0.999927931443,0.0,0.656185753374,0.253737661888,0.30356422724,1.0,-0.01494,-0.0196354285714,0.748
0.460864697532,0.516200394147,-0.124077927794,-1.40519473616,0.0765275847511,1.91230462851,0.152779372457,-0.0129807122881,-0.079340244957,0.00132407189281,-0.122168652506,-0.0117713481163,0.04235501919,-0.0203593300264,0.573982310641,0.818852775882,0.00227714778716,0.0,0.818813467831,-0.573921995125,-0.0117811421778,0.0,-0.0083402763503,0.00862689257997,-0.999928005666,0.0,0.655898437321,0.253375584114,0.303560133627,1.0,-0.01532,-0.0201348571429,0.767
0.460701331352,0.514991131378,-0.124084421481,-1.40713710529,0.0764161670443,1.91303417965,0.15251236618,-0.00521606033021,-0.0759595688012,-0.0009642020811,-0.130622855879,-0.0138102012127,0.0476447082639,-0.0206927065147,0.573974615412,0.818858176665,0.00227470264088,0.0,0.818818783834,-0.573914255405,-0.0117887058365,0.0,-0.00834795461807,0.00862915328661,-0.999927922086,0.0,0.655663922671,0.253081510717,0.303547005101,1.0,-0.01562,-0.0205291428571,0.782
0.460506824174,0.513583253561,-0.124084742716,-1.40940112615,0.0762873372739,1.91381806125,0.152208766457,-0.0114111740098,-0.0796528601259,0.000452067358923,-0.129068720705,-0.0062223434452,0.0473239943913,-0.0117080285445,0.57396958485,0.818861855417,0.00221907889967,0.0,0.818821538081,-0.573909234464,-0.0118417174533,0.0,-0.0084233430281,0.0086139810942,-0.999927420677,0.0,0.655375742109,0.252736059145,0.303524137394,1.0,-0.01596,-0.020976,0.799
0.460312146366,0.512170810757,-0.124096342645,-1.4116831345,0.0761436140263,1.91462407695,0.151881232867,-0.0133124507468,-0.0825283359051,-0.00350006375604,-0.13161502493,-0.00731936704701,0.0463348502985,-0.0240218943951,0.573949667808,0.818875973478,0.00216004274472,0.0,0.818834877107,-0.573889542913,-0.011873646027,0.0,-0.00848358084087,0.00858375879223,-0.999927171319,0.0,0.65509033243,0.252381013592,0.303497726953,1.0,-0.0163,-0.0214228571429,0.816
0.460128990246,0.510822802694,-0.124094597114,-1.41385568354,0.0760171339513,1.91544357103,0.151575025087,-0.010181640372,-0.0818598135632,0.000494429702274,-0.137350327269,-0.00837998236052,0.0483088398003,-0.011264474343,0.573927300941,0.818891656651,0.00215749912394,0.0,0.818850439312,-0.573867100167,-0.011885128751,0.0,-0.00849467855541,0.0085880343171,-0.99992704039,0.0,0.654824287465,0.252057130713,0.303478626299,1.0,-0.01662,-0.0218434285714,0.832
0.459928709873,0.509329981454,-0.124102534253,-1.41621647646,0.0758620452256,1.91632528362,0.151239476942,-0.0135535746244,-0.0893895421,-0.000149038254482,-0.141559583544,-0.010847585897,0.0513791513566,-0.0282382693803,0.573903273103,0.818908488923,0.0021602762546,0.0,0.818867405702,-0.573843163279,-0.0118719307077,0.0,-0.00848252839186,0.0085824849428,-0.999927191182,0.0,0.654536739511,0.251695657945,0.303476484648,1.0,-0.01696,-0.0222902857143,0.849
0.459717696026,0.507821339189,-0.124108928762,-1.41858647388,0.0757139771295,1.91716713858,0.150921344476,-0.0122155090097,-0.0912376726779,-0.000244211058471,-0.141220191092,-0.00639777997801,0.0474950620878,-0.0153352732113,0.573902935428,0.81890877512,0.00214141071255,0.0,0.818867408616,-0.573842863236,-0.0118862239824,0.0,-0.0085050636164,0.00857523537547,-0.999927061956,0.0,0.654240435168,0.25132572935,0.303477008035,1.0,-0.0173,-0.0227371428571,0.866
0.459480490867,0.506092893364,-0.12411318083,-1.42129382842,0.075542181572,1.91816825684,0.15053772299,-0.0142722630436,-0.0948777434929,-0.00262421299595,-0.141750141538,-0.00997530255772,0.0526900135357,-0.0131275161891,0.573879681697,0.818925033875,0.00215562753556,0.0,0.818883872596,-0.573819575662,-0.0118762237552,0.0,-0.00848895910203,0.00858089734143,-0.999927150234,0.0,0.653907267147,0.250909812457,0.303483822686,1.0,-0.01768,-0.0232365714286,0.885
0.459272458866,0.504563677553,-0.124119173855,-1.4236193748,0.0753932708371,1.91908125344,0.150220190725,-0.0143232780562,-0.0989055482773,-0.0012019777528,-0.145343848613,-0.00817076020785,0.0590981495694,-0.0294023908364,0.573874165202,0.81892865058,0.00224826036661,0.0,0.818888819165,-0.57381382187,-0.0118129834906,0.0,-0.00838406917503,0.00862040728552,-0.999927695367,0.0,0.653633538829,0.250552360239,0.30352484811,1.0,-0.018,-0.0236571428571,0.901
0.459017598079,0.502691488732,-0.124122271222,-1.42637909659,0.0752256224363,1.92012392344,0.149833770048,-0.011230551324,-0.104731218081,-0.000372342667182,-0.14692448621,-0.00316869088891,0.053429942134,-0.0191795160591,0.573865078721,0.818934640169,0.00238190191805,0.0,0.81889654475,-0.573804227818,-0.0117432549111,0.0,-0.00825037168943,0.00868974245909,-0.999928207294,0.0,0.653301445193,0.250124888981,0.303609210398,1.0,-0.01838,-0.0241565714286,0.92
0.458806666726,0.501176123922,-0.124127956886,-1.42863336874,0.0750727313637,1.92092705897,0.149521778732,-0.0163961123323,-0.106302919807,-0.00129440994267,-0.148441440463,-0.0032009922811,0.0549441673334,-0.0224822809736,0.573859902808,0.818938125199,0.002430215107,0.0,0.818900735091,-0.573798956844,-0.0117085479024,0.0,-0.00819427913997,0.00870933878062,-0.999928498047,0.0,0.653021341824,0.249766228627,0.303663670299,1.0,-0.01868,-0.0245508571429,0.935
0.458563089406,0.499474592372,-0.124125675426,-1.43122976792,0.0749093172686,1.92185197578,0.149151595263,-0.0147373187832,-0.101629879826,0.000549561711719,-0.152801494404,-0.0105497105714,0.0561320945737,-0.0262071221347,0.57384248492,0.818950251566,0.00245659562616,0.0,0.818913134446,-0.573781371004,-0.0117031372461,0.0,-0.00817489577753,0.00872766381753,-0.999928496925,0.0,0.652693940321,0.249359439858,0.303694989544,1.0,-0.01902,-0.0249977142857,0.952
0.458337286015,0.497994092039,-0.124126413433,-1.43355312303,0.0747711855989,1.92272504911,0.148815619638,-0.0190178750123,-0.0992819209248,-0.000629909110561,-0.154229974112,-0.00755658222119,0.057505247156,-0.0203424508351,0.573833739255,0.818956297629,0.00248378081088,0.0,0.818919470603,-0.573772460741,-0.0116966176714,0.0,-0.0081540506659,0.00874609871126,-0.999928506052,0.0,0.652410106765,0.248992528969,0.303697234954,1.0,-0.01932,-0.025392,0.967
0.458077365871,0.496321552378,-0.124126661942,-1.43622685945,0.0746104961888,1.92367612559,0.148421861261,-0.0139107059177,-0.0984416668348,-0.000726853990788,-0.160341965152,-0.0129706202564,0.0545383556187,-0.0182663956176,0.573816206715,0.818968702243,0.00244388174036,0.0,0.818931209946,-0.573754918671,-0.0117351428938,0.0,-0.00820868361981,0.00873535439384,-0.999928152967,0.0,0.652070702547,0.248566498809,0.303672811771,1.0,-0.01966,-0.0258388571429,0.984
0.457823080581,0.494746566849,-0.124129906234,-1.43880323921,0.0744445875239,1.9245613924,0.148052645405,-0.0168741916954,-0.10384607341,-0.00129143534928,-0.165349912202,-0.0136579945908,0.0602238297646,-0.0249137045884,0.573809155935,0.818973941747,0.00234141124064,0.0,0.818935027767,-0.573748158018,-0.011799083413,0.0,-0.00831992164956,0.00868805304535,-0.999927645701,0.0,0.651737468688,0.248147574755,0.303620592695,1.0,-0.01998,-0.0262594285714,1.0
0.457541648574,0.493006376128,-0.124134720873,-1.44161801498,0.0742610100984,1.92559463155,0.147657964789,-0.0201239948889,-0.1096961046,-0.00108309046591,-0.169917962021,-0.0134197563174,0.0676112399164,-0.017251204224,0.573811614777,0.818972341748,0.00229806441397,0.0,0.818932891659,-0.573750811604,-0.0118182927791,0.0,-0.00836049955563,0.00866360100039,-0.999927519406,0.0,0.65138710602,0.247691179086,0.303582190906,1.0,-0.021772,-0.0286146285714,1.017
0.457247929438,0.491090574516,-0.124142783139,-1.44468368932,0.0740704461403,1.92670263087,0.147228881689,-0.0205552508663,-0.117476957824,-0.00040772275115,-0.190017761845,-0.0134646694075,0.0715626716448,-0.0253052226985,0.573808368355,0.818974723441,0.00225957352412,0.0,0.818934708648,-0.573747649185,-0.0118458822967,0.0,-0.00840521500663,0.00864787607642,-0.999927280656,0.0,0.650997961919,0.247201573138,0.303552394174,1.0,-0.023676,-0.0311170285714,1.034
0.456880594449,0.488774453766,-0.124160394531,-1.44842604251,0.0738413637761,1.92801789434,0.146690322589,-0.0177357676182,-0.124631440573,-0.0020756136323,-0.204377061928,-0.0179549635055,0.0729115246923,-0.0262424089617,0.573805017867,0.818977330455,0.00216346322668,0.0,0.818935922291,-0.5737445369,-0.0119125337389,0.0,-0.00851498381318,0.00860737510642,-0.999926701386,0.0,0.65051633911,0.246591691908,0.303496274857,1.0,-0.025804,-0.0339138285714,1.053
0.456534768493,0.486605114478,-0.124180597028,-1.45176716415,0.0736414676759,1.92931931499,0.146204724956,-0.0197599036537,-0.135435157007,-0.000766732858813,-0.220575509132,-0.0129603666554,0.0818700573804,-0.0375353043851,0.573817164353,0.818968530279,0.00227050808782,0.0,0.818928581843,-0.573756323086,-0.011849323225,0.0,-0.00840166621248,0.00865889573147,-0.999927215116,0.0,0.650117602917,0.246043576154,0.303526600897,1.0,-0.027596,-0.0362690285714,1.069
0.45612876752,0.484138791454,-0.12419685994,-1.45551918014,0.0734095764422,1.93068496146,0.14562536148,-0.022523985203,-0.145975996973,0.000426960828346,-0.228822009887,-0.0171040355681,0.0830557831525,-0.0346553150883,0.57380890479,0.818974126965,0.00233817156299,0.0,0.818935024897,-0.57374776698,-0.0118182817439,0.0,-0.00833750678319,0.00869641332402,-0.999927426555,0.0,0.649652347425,0.245413581588,0.303571692934,1.0,-0.0295,-0.0387714285714,1.086
0.455704072232,0.481525849297,-0.124243114422,-1.45959597525,0.0731488532296,1.93207529983,0.145028561006,-0.0246707963922,-0.154119631869,-0.0030352686458,-0.247237106676,-0.0166852775242,0.0823101367169,-0.030087129902,0.573829773171,0.818959706145,0.00226672334457,0.0,0.818919677457,-0.573768913221,-0.0118550830931,0.0,-0.0084084218644,0.00865923070945,-0.999927155429,0.0,0.649126251767,0.244714958639,0.303565627802,1.0,-0.031404,-0.0412738285714,1.103
0.455248540414,0.478758961635,-0.124263940004,-1.46385799023,0.0728906335101,1.93364822853,0.144391830088,-0.0197452641161,-0.168274664575,0.000704603383557,-0.25214595221,-0.0154349217206,0.0935187961966,-0.0282118406865,0.573834281176,0.818956360706,0.00233321819795,0.0,0.818917138328,-0.573773100991,-0.0118277653437,0.0,-0.00834784654237,0.00869805705825,-0.99992732599,0.0,0.648593903811,0.244004199692,0.303591457592,1.0,-0.033308,-0.0437762285714,1.12
0.454752746882,0.475816890902,-0.12429231397,-1.46832999125,0.0726168846615,1.93529835577,0.143756173215,-0.0285721367206,-0.169180569638,-0.00210863380075,-0.266587849124,-0.0174593427623,0.099646128039,-0.0353377031976,0.573882612001,0.818922201388,0.00243364306623,0.0,0.818884284917,-0.573821044249,-0.0117764168787,0.0,-0.00824765242206,0.00875132143046,-0.999927692687,0.0,0.648038754072,0.243243536424,0.303643581349,1.0,-0.035212,-0.0462786285714,1.137
0.454297522675,0.473116089562,-0.124305234268,-1.47250370183,0.0723512807097,1.93678354949,0.143142494453,-0.0294776401471,-0.178479873586,-0.000994323368738,-0.286292313316,-0.0167757916304,0.0983847507323,-0.0439016015459,0.573890424054,0.818916702245,0.00244189762824,0.0,0.818878816975,-0.573828743625,-0.0117814685199,0.0,-0.00824696907953,0.00876105888336,-0.999927613054,0.0,0.647500904715,0.242541164296,0.303654204598,1.0,-0.036892,-0.0484866285714,1.152
0.453795454518,0.470113798587,-0.124308868164,-1.47712690667,0.0720737325935,1.93842399934,0.142447212322,-0.0272136733964,-0.190196401943,-0.000202249059603,-0.294119192015,-0.00942217567913,0.103293865247,-0.0444813442043,0.573880229677,0.81892376604,0.00246866417211,0.0,0.818885945356,-0.573818148452,-0.0118020297635,0.0,-0.00824855716673,0.00879467527043,-0.999927304853,0.0,0.646897106424,0.241773818139,0.303670585073,1.0,-0.038684,-0.0508418285714,1.168
0.453171371148,0.466339326898,-0.12430995147,-1.48280338748,0.0716959143195,1.94057765114,0.141526075221,-0.0325708198322,-0.203464317701,-0.00130837849682,-0.311783962513,-0.0190990768642,0.103913988722,-0.0483154333789,0.573803704952,0.818976750484,0.00267156335775,0.0,0.818941750922,-0.573741097986,-0.0116751008515,0.0,-0.00802900504593,0.00888724200511,-0.999928273431,0.0,0.646183878578,0.240833832903,0.30376029965,1.0,-0.040812,-0.0536386285714,1.187
0.452606194052,0.463047634688,-0.124313015584,-1.48793813204,0.0713522152384,1.94232623451,0.14075282462,-0.0354480094651,-0.210439315497,0.00132481092354,-0.326740173651,-0.0194714051257,0.125450206746,-0.0485687406586,0.573781940501,0.818992272178,0.00258645873766,0.0,0.8189560066,-0.573719462771,-0.0117381511629,0.0,-0.00812970989677,0.00885350552861,-0.999927759019,0.0,0.645491242951,0.23996791569,0.303737248,1.0,-0.042604,-0.0559938285714,1.203
0.451934993484,0.459223862964,-0.12432518137,-1.49390017973,0.070946531396,1.94439529053,0.139870845467,-0.0355670310117,-0.211854889208,-0.00143569040872,-0.334634050478,-0.0208350033585,0.115008033836,-0.0493025668021,0.57378392697,0.818991103131,0.00251496417562,0.0,0.818953862834,-0.573721661872,-0.011780159123,0.0,-0.00820511406266,0.00881907538295,-0.999927447374,0.0,0.644694773157,0.238950218289,0.30371209904,1.0,-0.04462,-0.0586434285714,1.221
0.451382504721,0.456170413137,-0.124325912258,-1.49871387594,0.0706241622326,1.9461224244,0.139123105652,-0.038193480027,-0.223619851791,0.000510783947725,-0.347903426121,-0.022937156963,0.122288286012,-0.0579035702139,0.573758356286,0.819009128279,0.00247856574442,0.0,0.818971364034,-0.573696176148,-0.0118046290569,0.0,-0.00824631403073,0.00880304841875,-0.999927249675,0.0,0.644057831809,0.238131881036,0.303670839293,1.0,-0.046188,-0.0607042285714,1.235
0.450661367431,0.452293061726,-0.124376152593,-1.50470187896,0.0702070635529,1.94823296962,0.138168061147,-0.0416216750082,-0.233573183062,-0.000571858292591,-0.352027401617,-0.0234485626479,0.127075280504,-0.0426231791601,0.573762372914,0.819006390311,0.00245335666255,0.0,0.818968528619,-0.573700532425,-0.0117896195513,0.0,-0.00824844053637,0.00877383090906,-0.999927488931,0.0,0.64327385626,0.237060096671,0.303668501542,1.0,-0.048092,-0.0632066285714,1.252
0.44982520875,0.447693751797,-0.124418897455,-1.51160173086,0.0697435099512,1.95072861458,0.137133189415,-0.0445502479281,-0.249858059071,-0.00164966631232,-0.369156367589,-0.0225039631658,0.123737020555,-0.0555074902702,0.573815880645,0.818968441602,0.00260262958733,0.0,0.818932712063,-0.57375369646,-0.0116899877222,0.0,-0.00808061825789,0.00883944929278,-0.999928281301,0.0,0.642375788321,0.235840531936,0.303756078229,1.0,-0.05022,-0.0660034285714,1.271
0.449086968569,0.443743887999,-0.124432420469,-1.51772753488,0.0693386670593,1.95274941339,0.13620945928,-0.0480079899387,-0.246540045999,-0.0016524033506,-0.379929216687,-0.0193058526491,0.129944624175,-0.062533163086,0.573836051086,0.818954710512,0.00247295469101,0.0,0.818916941993,-0.573773955476,-0.0117998743558,0.0,-0.00824480443036,0.0087965071569,-0.99992731969,0.0,0.641521968212,0.234763132566,0.303721191056,1.0,-0.052012,-0.0683586285714,1.287
0.448232448954,0.439196061008,-0.124440233345,-1.5247558302,0.0688421490446,1.95523639863,0.135052516674,-0.0479358531837,-0.255640756713,-0.000201683199897,-0.391642902467,-0.0340128972515,0.141087960023,-0.0663439084503,0.573767682184,0.819002656556,0.00245811658054,0.0,0.818964777636,-0.573705738967,-0.0117968203293,0.0,-0.00825155046718,0.00878191423531,-0.999927392313,0.0,0.640570045558,0.233534319472,0.303701863005,1.0,-0.054028,-0.0710082285714,1.305
0.447364443107,0.434715940086,-0.124459027861,-1.53149276527,0.0684063139229,1.9576758286,0.133963021539,-0.0509909476834,-0.27089184201,-0.00174340660261,-0.396510398579,-0.0227048796653,0.148288911803,-0.0600043514897,0.573775567368,0.818996650151,0.0026138541703,0.0,0.818960709746,-0.573712958011,-0.0117279411496,0.0,-0.00810569856666,0.00887002072904,-0.999927807586,0.0,0.639675499492,0.232331349002,0.303765763377,1.0,-0.055932,-0.0735106285714,1.322
0.446513581889,0.430441302322,-0.124486302911,-1.53805280223,0.0679165205268,1.96000910133,0.132917383257,-0.0529514890464,-0.272723079489,-0.0022364330348,-0.419339391958,-0.0304071874244,0.135178528311,-0.0630598055798,0.573783075806,0.818991377789,0.00261761854272,0.0,0.818955864616,-0.573720866608,-0.0116792949596,0.0,-0.00806361474139,0.00884526614084,-0.999928367126,0.0,0.63879220539,0.231138864752,0.303760426761,1.0,-0.057724,-0.0758658285714,1.338
0.445624136281,0.426005613507,-0.124540855114,-1.54494062349,0.0674124416475,1.96222264942,0.131802895444,-0.0506174872589,-0.273611975278,-0.00233134284402,-0.433996994548,-0.0359817482557,0.139757785031,-0.0707776978744,0.573791593944,0.818986107056,0.00238957520738,0.0,0.818947624501,-0.573730210827,-0.0117974747381,0.0,-0.00829115605181,0.00872639678434,-0.999927550741,0.0,0.637811562644,0.229861899664,0.303694858206,1.0,-0.059516,-0.0782210285714,1.354
0.444696436995,0.421430981971,-0.124583238824,-1.55189332664,0.0669210425586,1.96457169069,0.130658214392,-0.0595216421213,-0.288808203285,-0.00140685903432,-0.434157984406,-0.0281677280256,0.152495591818,-0.0737518981425,0.573801427882,0.818979335671,0.00234861798312,0.0,0.818940320219,-0.573740199477,-0.0118187277313,0.0,-0.00833195765171,0.00870514841221,-0.999927396801,0.0,0.636841845392,0.228574458232,0.303698944115,1.0,-0.061308,-0.0805762285714,1.37
0.443661949727,0.41642977349,-0.124607344055,-1.55931422528,0.0664157551077,1.96729573216,0.129479846975,-0.065522160127,-0.303404790036,-0.0010613917243,-0.435433228992,-0.0248122008539,0.158466181796,-0.0656092671505,0.573871157258,0.818929732136,0.00259530195704,0.0,0.818894068162,-0.573809167744,-0.0116743754983,0.0,-0.00807144054393,0.00882503466446,-0.999928482748,0.0,0.635848571321,0.227204838109,0.30379561743,1.0,-0.063212,-0.0830786285714,1.387
0.442596719688,0.411361177104,-0.124626470066,-1.56698986714,0.0658780381335,1.96996284071,0.128126182411,-0.0623525075258,-0.298700535631,-0.00308118361331,-0.462639724423,-0.0334347921454,0.142329915979,-0.0827029105918,0.573814528555,0.818969283379,0.00263564085866,0.0,0.818934083396,-0.573752339235,-0.0116604963884,0.0,-0.0080375380105,0.00884954874979,-0.999928539182,0.0,0.634775958316,0.225784254277,0.303805990428,1.0,-0.065116,-0.0855810285714,1.404
0.44155629229,0.406469749664,-0.124672258243,-1.57451722118,0.0653410980603,1.97236348156,0.126931133463,-0.065704622531,-0.307705918127,-0.00164584926839,-0.479994191143,-0.0375715573001,0.155230385806,-0.0720662395424,0.57387554256,0.818927180795,0.00242509972772,0.0,0.818888965468,-0.573813808821,-0.0118034716413,0.0,-0.00827478735859,0.00875977975235,-0.999927394441,0.0,0.633673427613,0.224364681536,0.303739107822,1.0,-0.066908,-0.0879362285714,1.42
0.440414263173,0.401169263993,-0.124709325136,-1.58255019359,0.0647875861645,1.97512939366,0.125567943968,-0.0681360533843,-0.32208083265,-0.00141831438697,-0.47532113999,-0.0318713132985,0.175099355696,-0.0846535274044,0.57388845817,0.818918063781,0.00244730337419,0.0,0.818879974801,-0.573826466585,-0.0118118592247,0.0,-0.00826877663767,0.00878290650215,-0.999927241296,0.0,0.632532376276,0.222856179834,0.303732473972,1.0,-0.068812,-0.0904386285714,1.437
0.439212166913,0.39563749005,-0.124714232929,-1.59057335728,0.0641818027659,1.97803116463,0.124172246637,-0.070583418945,-0.325017497154,0.000155255186157,-0.483145089316,-0.0356417417008,0.16875211689,-0.0875070661405,0.573877426159,0.818924787753,0.00276381094126,0.0,0.818891285618,-0.573814830343,-0.0115909325656,0.0,-0.00790633850627,0.00891520688776,-0.999929001928,0.0,0.631424702163,0.221336304923,0.30388838585,1.0,-0.070716,-0.0929410285714,1.454
0.437981678981,0.390104390248,-0.124733836903,-1.59901371328,0.063547284044,1.98075150413,0.122774740193,-0.0737144531232,-0.328267805629,-0.00395619967103,-0.506643501996,-0.0299977006056,0.16094740387,-0.081487928323,0.573900556379,0.818909161865,0.00258513120714,0.0,0.81887316777,-0.573838382992,-0.0117043672861,0.0,-0.00810152207206,0.00883420756409,-0.999928158478,0.0,0.630167382965,0.219730541246,0.303825562747,1.0,-0.07262,-0.0954434285714,1.471
0.436805737794,0.384795819084,-0.124739886682,-1.60710302747,0.0629450484458,1.98336699529,0.121313396656,-0.0743227000998,-0.333583386601,-0.000594058866001,-0.504180161674,-0.0383411425394,0.157092766083,-0.0907286829894,0.573806983485,0.818975194211,0.00243390035064,0.0,0.818936947524,-0.573745070655,-0.0118159544699,0.0,-0.00828069470719,0.00877345703135,-0.999927225625,0.0,0.628948307956,0.218206265257,0.303762417404,1.0,-0.074412,-0.0977986285714,1.487
0.4355144153,0.378931527967,-0.124734964468,-1.61562010114,0.0623475823169,1.98637677173,0.119822737614,-0.0828897468793,-0.334787069701,-0.00063382210015,-0.5108211477,-0.0353148712739,0.182291990902,-0.0890087495475,0.573790238103,0.818985967329,0.00273767724006,0.0,0.818951592494,-0.573727142847,-0.0116705446502,0.0,-0.00798748634245,0.00893864182564,-0.999928147791,0.0,0.627718473883,0.216602823141,0.303892095678,1.0,-0.076316,-0.100301028571,1.504
0.434122748699,0.373087863253,-0.124764985654,-1.62448803377,0.0616415462006,1.98926631523,0.118220177637,-0.0786646212402,-0.353518459063,-0.00220201888841,-0.528863218179,-0.0489846981653,0.158897277502,-0.0940741024302,0.573761438344,0.819006645779,0.00258320358134,0.0,0.818970403537,-0.573699046461,-0.0117315438981,0.0,-0.00812638744449,0.00884684510956,-0.999927844976,0.0,0.626388779434,0.214856714991,0.303824720452,1.0,-0.07822,-0.102803428571,1.521
0.432687301938,0.367058849996,-0.12482282924,-1.63349663645,0.0609626656051,1.99213287919,0.116699937059,-0.0836391203167,-0.3536450328,-0.0043579445153,-0.530850623565,-0.0457680165226,0.177287280286,-0.0855856187707,0.573864753241,0.818934608812,0.00246948956104,0.0,0.818896710538,-0.573802576712,-0.0118121687484,0.0,-0.00825655328414,0.00880101362906,-0.999927183092,0.0,0.625020063622,0.213060721081,0.303803209685,1.0,-0.080124,-0.105305828571,1.538
0.431306368065,0.361241408126,-0.124856425956,-1.64189737185,0.0602895558839,1.99507016296,0.115110632423,-0.0873297761516,-0.361158361893,-0.00478634194094,-0.532518109586,-0.0335174352267,0.176400277313,-0.105470126721,0.573821350755,0.818964214081,0.00272403612665,0.0,0.818930241504,-0.573758946527,-0.0116050735134,0.0,-0.00794135270655,0.00889020568612,-0.999928947056,0.0,0.623795333419,0.211388153145,0.303925191005,1.0,-0.081916,-0.107661028571,1.554
0.429654504351,0.354693100814,-0.124884757852,-1.65171625764,0.0595840892488,1.99818105974,0.113285860416,-0.0932394770611,-0.36718140392,-0.00324374885401,-0.544570090686,-0.0407376993222,0.174576267614,-0.106991953373,0.573839155096,0.818952139007,0.00260096044175,0.0,0.818915876011,-0.573776414825,-0.0117541783455,0.0,-0.00813389634365,0.00887514644332,-0.999927533127,0.0,0.622277459226,0.209411827912,0.303864657156,1.0,-0.083932,-0.110310628571,1.572
0.428145718868,0.348797680442,-0.124946898274,-1.66059562591,0.0589023442393,2.00099868995,0.111642211421,-0.0952608997232,-0.377943617622,-0.0069328877506,-0.544290201149,-0.0346887629247,0.180436505706,-0.107063789737,0.573879259787,0.818924527358,0.00244142946052,0.0,0.818885980245,-0.57381688689,-0.0118608001297,0.0,-0.00831232672573,0.00880608910038,-0.999926676321,0.0,0.620901811691,0.207592646265,0.303784657913,1.0,-0.085724,-0.112665828571,1.588
0.426503205438,0.34226652618,-0.124964685038,-1.66989951451,0.0581872208939,2.0041695433,0.109903761052,-0.096662256094,-0.381310492173,-0.000670259468703,-0.559884854216,-0.046701942296,0.18771958653,-0.108173985517,0.573915433054,0.818898166343,0.00275966742795,0.0,0.81886397889,-0.573852135659,-0.0116729335378,0.0,-0.00797545637493,0.00895924144996,-0.999928059456,0.0,0.619501514552,0.205699071243,0.303938986667,1.0,-0.087628,-0.115168228571,1.605
0.424820224635,0.335752097806,-0.124967456215,-1.67959043515,0.0574027122541,2.00716191698,0.108039537341,-0.0976994301004,-0.383923967708,-0.00181778832824,-0.571077321859,-0.049676006725,0.177277790394,-0.107103946008,0.573851566766,0.818943498169,0.00258322048993,0.0,0.818906730395,-0.573788591544,-0.0117968651852,0.0,-0.00817890106482,0.0088852372831,-0.999927076409,0.0,0.61794803939,0.203732455221,0.303873994345,1.0,-0.089532,-0.117670628571,1.622
0.423106876286,0.329048748984,-0.124957943998,-1.68927402704,0.0565920909421,2.01026126999,0.106148755727,-0.0990823706247,-0.404574103035,0.000630081578281,-0.557261590505,-0.0512960664971,0.193256740177,-0.120598056321,0.573764042076,0.819004614545,0.0026480703807,0.0,0.818968870894,-0.573701039215,-0.0117410821782,0.0,-0.00809695564583,0.0089054694365,-0.999927563338,0.0,0.616410721702,0.201766623005,0.303932445135,1.0,-0.091436,-0.120173028571,1.639
0.421311597389,0.322316335823,-0.1249575604,-1.69905293148,0.0558386720074,2.01348198994,0.104242423365,-0.106355182132,-0.400607563243,-0.000343632092796,-0.580525595553,-0.0484598934893,0.178843990479,-0.109658458332,0.573754145069,0.819011079223,0.00278927001034,0.0,0.818976989368,-0.573690443151,-0.011692443033,0.0,-0.00797621640577,0.00899310875696,-0.999927749373,0.0,0.614870108297,0.19975737145,0.303964151824,1.0,-0.09334,-0.122675428571,1.656
0.419559132872,0.315868258469,-0.125006627562,-1.70850690153,0.0550565170201,2.01634744226,0.102414899373,-0.111427695589,-0.407119745388,-0.00586936432329,-0.59969493363,-0.0444184398943,0.181104066484,-0.117494362054,0.573781281706,0.818992548962,0.00264431674534,0.0,0.818956419698,-0.573717920204,-0.0117846329183,0.0,-0.00813459126496,0.0089275538377,-0.999927060944,0.0,0.6133267048,0.197759644725,0.303924201127,1.0,-0.095132,-0.125030628571,1.672
0.417644462547,0.308860829852,-0.125053976342,-1.71846941874,0.0542014349281,2.01955581488,0.100321192357,-0.113837098371,-0.421111782633,-0.00339226829997,-0.581946027318,-0.0580994066844,0.190181718782,-0.125182334361,0.573706016559,0.819044730601,0.00280762175822,0.0,0.819011250838,-0.573642678233,-0.0116359620035,0.0,-0.00791995418326,0.00897526801966,-0.999928356878,0.0,0.611739698036,0.195631994824,0.304022358974,1.0,-0.097036,-0.127533028571,1.689
0.41551337721,0.301434792785,-0.12506337689,-1.72927432094,0.053318815492,2.02286032844,0.0980968950646,-0.117211871161,-0.404808790146,0.000176971934077,-0.606696805147,-0.0451820007454,0.168556556361,-0.11903631875,0.573680190958,0.819063069512,0.00273378202279,0.0,0.819028245546,-0.57361667812,-0.011721197938,0.0,-0.00803241204768,0.0089634363391,-0.99992756596,0.0,0.609957713255,0.193320017711,0.303987536673,1.0,-0.099052,-0.130182628571,1.707
0.413423136136,0.294344164105,-0.125150018465,-1.7395830107,0.0524875974365,2.02594333649,0.0960524493919,-0.126850299826,-0.425341118614,-0.00847699137606,-0.604271723259,-0.0497429932476,0.188111558414,-0.126738768164,0.573820942952,0.818964869837,0.00261042200295,0.0,0.818928020486,-0.573757396603,-0.0118361314762,0.0,-0.00819578473562,0.00892973977327,-0.999926541732,0.0,0.608247739979,0.191041012106,0.303939972319,1.0,-0.100956,-0.132685028571,1.724
0.411289920525,0.287045384698,-0.125206439225,-1.74981644227,0.0516163352266,2.02929215241,0.0938397367857,-0.126347852812,-0.418219098719,-0.00332502354075,-0.607086118513,-0.0501685590157,0.189762073744,-0.128099209483,0.573810628004,0.818971068209,0.00291539500091,0.0,0.818938770261,-0.573746667936,-0.0116102754466,0.0,-0.00783593238316,0.00904980367893,-0.999928347041,0.0,0.606602821794,0.188782629424,0.304068157439,1.0,-0.10286,-0.135187428571,1.741
0.409092519793,0.279780258408,-0.12524483113,-1.76046265497,0.0506791896328,2.03230497062,0.0915835285166,-0.130493730638,-0.427265337307,-0.00395969824752,-0.631360809176,-0.0550892998167,0.173444660548,-0.134507528397,0.573780524758,0.818993292004,0.00257758844027,0.0,0.818956159916,-0.573717263896,-0.0118345318444,0.0,-0.00821375334735,0.0089015272048,-0.999926645844,0.0,0.604758741002,0.186434759561,0.303938629117,1.0,-0.104764,-0.137689828571,1.758
0.406945521863,0.272713546183,-0.125301724863,-1.77032690557,0.0498284417243,2.03537494296,0.0894743928553,-0.135058642264,-0.447268619433,-0.00362944533808,-0.612512306452,-0.0525087176204,0.199754973324,-0.129472529682,0.573843619693,0.818948442596,0.00277405989054,0.0,0.818914163732,-0.573779968767,-0.0116998624315,0.0,-0.00799003795249,0.00898578134714,-0.9999277049,0.0,0.603119949655,0.184211171652,0.304040928751,1.0,-0.106556,-0.140045028571,1.774
0.404598973542,0.265244714912,-0.125389049623,-1.78092249277,0.0489141353753,2.03859190822,0.0871420664149,-0.139621497667,-0.440816677732,-0.0115942221338,-0.626632292489,-0.0527505078028,0.182424373704,-0.13430731641,0.573900695455,0.818908293436,0.00281879382171,0.0,0.818874676073,-0.573836973553,-0.0116678863337,0.0,-0.00793755359234,0.00900462032593,-0.999927953433,0.0,0.601330780517,0.181788150067,0.304053204387,1.0,-0.10846,-0.142547428571,1.791
0.402308044159,0.25814094341,-0.125473395697,-1.79113328903,0.0479878566777,2.04146150936,0.0848954308863,-0.149105671536,-0.455775705132,-0.0019213561341,-0.6354374273,-0.0657847381916,0.174634430066,-0.136101582632,0.573953624385,0.818871975335,0.00258301537023,0.0,0.818835119534,-0.573890544082,-0.0118083585763,0.0,-0.00818732344795,0.00889268511406,-0.999926941274,0.0,0.599543130712,0.179426595512,0.30397235094,1.0,-0.110252,-0.144902628571,1.807
0.399994589282,0.250837586426,-0.125467785358,-1.80117956534,0.0470900346343,2.04452873848,0.0826433917498,-0.14562990503,-0.456655856206,0.00214298170611,-0.634605017414,-0.0541708433789,0.191840641528,-0.146249428968,0.573946968116,0.818875836101,0.00282661310369,0.0,0.818842393835,-0.5738832971,-0.0116551391888,0.0,-0.00792211832588,0.00900415579857,-0.999928080024,0.0,0.597816873447,0.177148895215,0.304093800591,1.0,-0.112044,-0.147257828571,1.823
0.397480015869,0.243114992784,-0.125475956179,-1.81218301211,0.0461447736795,2.04766065607,0.0801061372391,-0.150086871106,-0.455703598715,-0.00482064633484,-0.652400351144,-0.0650923488538,0.175970341738,-0.147554380784,0.573880798609,0.818922609194,0.00270851265199,0.0,0.818886881316,-0.57381671086,-0.0118069830036,0.0,-0.00811497174507,0.00899393947506,-0.999926625451,0.0,0.595847376207,0.174660367591,0.304019976731,1.0,-0.113948,-0.149760228571,1.84
0.394893026073,0.235191526522,-0.12548103038,-1.82302815661,0.0451736629962,2.0508559031,0.0775791450621,-0.151000116283,-0.478969950402,-0.00112192300421,-0.642364351179,-0.0570783302199,0.200557389481,-0.141977481105,0.573854986331,0.818939972253,0.00291948794133,0.0,0.818907030828,-0.573790203292,-0.0116971948779,0.0,-0.00790427905124,0.00910345807812,-0.999927322071,0.0,0.593933420403,0.172161644386,0.304132442127,1.0,-0.115852,-0.152262628571,1.857
0.391938199793,0.226311805366,-0.125459874746,-1.83544395663,0.0440132688143,2.05436210692,0.0746402834997,-0.164193720325,-0.470744969724,-0.000932543978522,-0.669021008837,-0.0636254248958,0.178762149933,-0.158547743094,0.573728636162,0.819028693673,0.00286319574421,0.0,0.818994822531,-0.573663838438,-0.0117485334209,0.0,-0.00798002775977,0.00908558747261,-0.999926882956,0.0,0.591673870009,0.169320852643,0.304109312437,1.0,-0.11798,-0.155059428571,1.876
0.389468635098,0.219252958175,-0.125513739178,-1.84529813043,0.0430770211274,2.05705670361,0.0722601061732,-0.165182102594,-0.476877902628,-0.00222177031368,-0.64426277321,-0.0609748064335,0.183239094928,-0.160442947774,0.57373501413,0.819024494555,0.00278527954272,0.0,0.818989564897,-0.573670442483,-0.0117924939149,0.0,-0.00806066401323,0.00904705572755,-0.999926585544,0.0,0.589765669064,0.166801144393,0.304093084269,1.0,-0.119772,-0.157414628571,1.892
0.386451935805,0.210609007402,-0.125564634717,-1.85703978616,0.0420158246789,2.06048648424,0.069388263174,-0.170380077611,-0.484393595097,0.000766783650839,-0.656251428343,-0.062928094737,0.182511333746,-0.175530933071,0.573765209476,0.819002556389,0.00300731184037,0.0,0.81897054033,-0.573699889719,-0.0116806467992,0.0,-0.00784133608763,0.00916502501552,-0.999927255237,0.0,0.587764148043,0.164144573845,0.304178095523,1.0,-0.121676,-0.159917028571,1.909
0.383485685488,0.202480621152,-0.125620930242,-1.8684424174,0.0409075580093,2.06340426157,0.0665454877262,-0.177709152455,-0.482480442541,-0.00314769980021,-0.665864375788,-0.0657433593349,0.169472291704,-0.161791154078,0.573745754969,0.819017309202,0.0026838004542,0.0,0.818980496647,-0.573680935313,-0.0119112330152,0.0,-0.00821601904244,0.00903217350511,-0.999925455658,0.0,0.585606131859,0.161369567479,0.304061041795,1.0,-0.12358,-0.162419428571,1.926
0.380627330608,0.194613423944,-0.125693054154,-1.87894087232,0.0399232124161,2.06645789983,0.06386547835,-0.180577536251,-0.483376173154,0.000391516847899,-0.660733997919,-0.0629667960185,0.18525739593,-0.163142204878,0.573801970657,0.818976805764,0.00300615880725,0.0,0.818944651789,-0.573736506298,-0.0116972453294,0.0,-0.00785518080126,0.009173956726,-0.999927064667,0.0,0.583703792023,0.158771338755,0.304199658405,1.0,-0.125372,-0.164774628571,1.942
0.377453718852,0.186305095127,-0.12582065069,-1.89042362752,0.0388481477229,2.0694575268,0.060869427174,-0.186441175518,-0.493946790003,-0.011898716096,-0.673351300669,-0.0619165081886,0.170388894684,-0.176584882185,0.57387631636,0.818925251941,0.00285519795581,0.0,0.818890525887,-0.573810675012,-0.011847478892,0.0,-0.00806401182741,0.00913725802078,-0.999925738357,0.0,0.581534184007,0.155872131292,0.304124949853,1.0,-0.127276,-0.167277028571,1.959
0.374390905859,0.178310015758,-0.125943429443,-1.90108730328,0.037795966779,2.07234067775,0.0580575758555,-0.187564046725,-0.502570451858,-0.00479681850805,-0.660427324655,-0.0686654964905,0.188803957287,-0.175143837679,0.573987151418,0.818847074754,0.00299417341922,0.0,0.818814509005,-0.573921404989,-0.0117374460711,0.0,-0.00789290512779,0.00918899279002,-0.999926629538,0.0,0.579542347207,0.153127782822,0.304212956098,1.0,-0.129068,-0.169632228571,1.975
0.371318585633,0.170339328075,-0.125941054131,-1.91189954862,0.0366655548904,2.07518933909,0.0552014867155,-0.188886162968,-0.500553836777,0.00177810927973,-0.670824441472,-0.0708478297575,0.170790512511,-0.182439104887,0.573929760328,0.818887479912,0.00294488613906,0.0,0.818854506622,-0.573864462474,-0.0117312657386,0.0,-0.00791677355806,0.00914453188074,-0.999926848441,0.0,0.577457148857,0.150441091972,0.304194965331,1.0,-0.13086,-0.171987428571,1.991
0.367737176543,0.161265099525,-0.125969077328,-1.92414841563,0.0354778481414,2.07829600196,0.0517891673994,-0.198884307403,-0.518999935292,0.000362942113135,-0.665436083228,-0.0655807396814,0.183676306823,-0.185840458194,0.57385046299,0.818943235723,0.00289304176583,0.0,0.818908912588,-0.573784584794,-0.0118401873668,0.0,-0.00803661331501,0.0091638111206,-0.999925715947,0.0,0.575058973575,0.147350837963,0.304169108677,1.0,-0.132876,-0.174637028571,2.009
0.364480349059,0.153080196476,-0.1259914404,-1.93495748448,0.0343213148169,2.08120883733,0.0488107783526,-0.212007137101,-0.504981730066,0.000791238089355,-0.695718396797,-0.0744546613892,0.17118972204,-0.196479371312,0.573829498604,0.818957312432,0.00306167393888,0.0,0.81892599458,-0.573763979383,-0.011655825374,0.0,-0.00778909516398,0.00919591785559,-0.999927379909,0.0,0.572974017466,0.144584345792,0.304245551242,1.0,-0.134668,-0.176992228571,2.025
0.360907239005,0.144371177361,-0.126017014238,-1.94675859566,0.0331502634913,2.0839405517,0.0455265195656,-0.214389887183,-0.507610663108,-0.000573384822677,-0.688290728592,-0.0670363003774,0.167525768099,-0.190951017856,0.573817557702,0.818966674038,0.00278283825727,0.0,0.818930478354,-0.573751603106,-0.0119463993556,0.0,-0.00818720266475,0.00913418062808,-0.999924765398,0.0,0.570571190309,0.14156491554,0.304135637825,1.0,-0.136572,-0.179494628571,2.042
0.357245552773,0.135480173413,-0.126116217946,-1.95825468729,0.0319795433084,2.0869823055,0.0421386662095,-0.213116163535,-0.513225759284,-0.00670842988924,-0.679454886592,-0.0750939974532,0.180936851519,-0.206632623675,0.573836387013,0.818952298687,0.00311132055066,0.0,0.818920948625,-0.573769898735,-0.0117187930246,0.0,-0.00781210081521,0.00927277395586,-0.99992649067,0.0,0.568328458428,0.138518029076,0.304277863588,1.0,-0.138476,-0.181997028571,2.059
0.353698890759,0.127114629806,-0.126186598489,-1.96935899821,0.030771842512,2.08957087182,0.0388569624274,-0.223061684472,-0.51560973344,-0.00300235436045,-0.701989301541,-0.0801198393052,0.163933922376,-0.207918769969,0.573805924731,0.818974333449,0.00292383246082,0.0,0.818940295457,-0.573739808288,-0.0118394157348,0.0,-0.0080188129213,0.00918814801364,-0.999925635523,0.0,0.565910207649,0.13538777121,0.304221981799,1.0,-0.14038,-0.184499428571,2.076
0.349532424756,0.117524438794,-0.126315810738,-1.98170771612,0.0294628621661,2.09263470923,0.0351806318592,-0.233530518439,-0.534519830813,-0.00676781515484,-0.697652510527,-0.0691073796427,0.181001230572,-0.213506142503,0.573939357744,0.818879949201,0.00316059019333,0.0,0.818849507682,-0.573873011326,-0.0116617984302,0.0,-0.00773598443594,0.00928139152049,-0.999927002494,0.0,0.563581598457,0.132195506822,0.304343014783,1.0,-0.142284,-0.187001828571,2.093
0.345037145609,0.107467603475,-0.12637709355,-1.99495081596,0.02802545965,2.09567258676,0.0310801231337,-0.238128806755,-0.532172968834,-0.000221420393012,-0.699761661143,-0.07315918164,0.150137692701,-0.216954206216,0.573899141842,0.818908693713,0.00301218452252,0.0,0.818875918358,-0.573832827465,-0.0117840297869,0.0,-0.00792170659545,0.00922962764821,-0.999926027533,0.0,0.560826312673,0.128611336941,0.30427739289,1.0,-0.144412,-0.189798628571,2.112
0.341215885351,0.0987996363294,-0.126371031665,-2.00596629234,0.0267846821798,2.0982808145,0.0275704787519,-0.238012406487,-0.548387709841,0.00106150570501,-0.685152780609,-0.0724564318713,0.167448570734,-0.229053308628,0.573773348139,0.818996213788,0.00317705335476,0.0,0.818966118427,-0.573707129301,-0.0116350144049,0.0,-0.00770648295884,0.00927793885378,-0.99992726234,0.0,0.558534879839,0.1256420342,0.304378983324,1.0,-0.146204,-0.192153828571,2.128
0.336779837914,0.0891146265741,-0.126387409653,-2.01856030148,0.0255183978219,2.10110855773,0.0235764983127,-0.244838526867,-0.540952696039,-0.00131775151613,-0.713968472776,-0.0721554661779,0.151078201599,-0.220765095246,0.573767717514,0.819000217732,0.00316173914466,0.0,0.818968712455,-0.573700100302,-0.0117978740972,0.0,-0.00784872250223,0.00935878491433,-0.999925402568,0.0,0.555852056513,0.122238029234,0.304327710446,1.0,-0.14822,-0.194803428571,2.146
0.33317639402,0.0815080387887,-0.126470681084,-2.02835694281,0.0243896554921,2.10320536507,0.0202912657254,-0.261785421023,-0.549794022676,-0.00259436486214,-0.691997710587,-0.0785892301053,0.161250664233,-0.240644954341,0.57372829372,0.819028251597,0.00305204382567,0.0,0.818995221334,-0.573660957476,-0.0118608684539,0.0,-0.00796370129486,0.00930470427302,-0.999924998157,0.0,0.553752718544,0.119465884764,0.304300926689,1.0,-0.149788,-0.196864228571,2.16
0.328749159397,0.0721395826541,-0.126584231389,-2.0401223564,0.0230575487427,2.10593181998,0.0163512055465,-0.266868338267,-0.541124923708,-0.00562735864719,-0.693408877913,-0.0797294761831,0.157568437375,-0.230088763395,0.573779720557,0.818991476007,0.00324675322028,0.0,0.818961497208,-0.573712318186,-0.0117042280451,0.0,-0.00772310937942,0.00937479506927,-0.999926230679,0.0,0.551106382761,0.115912322086,0.304375448026,1.0,-0.151804,-0.199513828571,2.178
0.324104060348,0.0627525585394,-0.126731615068,-2.05218541796,0.0216866065821,2.10827059364,0.0122178009928,-0.281679502928,-0.555008878781,-0.00543213693121,-0.706666293289,-0.0770506519563,0.136327624785,-0.249322468883,0.573841906862,0.818948833354,0.00300352749552,0.0,0.818914834239,-0.573774341919,-0.0119266809852,0.0,-0.00804414934123,0.00930384170798,-0.999924362235,0.0,0.548596192921,0.11261560712,0.30430233149,1.0,-0.153596,-0.201869028571,2.194
0.319361032604,0.0532139426219,-0.126849055546,-2.06393273952,0.0203181518897,2.11089812649,0.00805540897901,-0.284767601962,-0.564159816116,-0.00806459580648,-0.695501611976,-0.0774530356079,0.149748904033,-0.247944198508,0.573925132967,0.818889386335,0.0032956936906,0.0,0.818860077724,-0.573857590984,-0.011678410873,0.0,-0.0076722155852,0.00940142651139,-0.999926372433,0.0,0.546070411637,0.109146851495,0.304436905456,1.0,-0.1555,-0.204371428571,2.211
0.314017470155,0.0426255435281,-0.126855353325,-2.07742074749,0.018791539021,2.11350721227,0.00331839813777,-0.284488197863,-0.563035690733,0.000483836187797,-0.715765671724,-0.0791169697993,0.132832874628,-0.254412760911,0.573867329981,0.818930720046,0.00308386888285,0.0,0.818897419819,-0.573799057051,-0.01193335001,0.0,-0.00800321994596,0.00937371245218,-0.999924038108,0.0,0.543010120871,0.10531777768,0.304322063522,1.0,-0.157628,-0.207168228571,2.23
0.309636605111,0.0340757942566,-0.126907318262,-2.08779260755,0.0175521443668,2.11571048758,-0.000614322768937,-0.291649440955,-0.555511030456,-0.00778608082002,-0.700661214908,-0.0888854255991,0.154173380907,-0.26102371018,0.573806023482,0.81897262111,0.00335263914488,0.0,0.818943633705,-0.573737795653,-0.0117052789111,0.0,-0.0076629146929,0.00946236420937,-0.999925868953,0.0,0.540715466788,0.102232038414,0.304450609232,1.0,-0.159308,-0.209376228571,2.245
0.304551714869,0.0244395873606,-0.127015800748,-2.09980529615,0.0160905532955,2.11795532266,-0.00510611461988,-0.301924447632,-0.569194417252,-0.00597289891223,-0.707776721148,-0.079121438524,0.125019538878,-0.268698552087,0.573809595035,0.818970646065,0.00322124666788,0.0,0.818939644522,-0.573741440219,-0.0118053083965,0.0,-0.00782018890483,0.00941218704514,-0.999925124887,0.0,0.537961266626,0.0986434404627,0.304400594871,1.0,-0.15998,-0.210259428571,2.262
0.299324223057,0.0147445264687,-0.127145588461,-2.11152270918,0.0146396507606,2.12017444263,-0.00965613542448,-0.309014454736,-0.568394252819,-0.00947026456111,-0.683943192335,-0.0891453210499,0.140553169176,-0.270127734578,0.573888062151,0.8189151898,0.00333930178875,0.0,0.818886202731,-0.573820081168,-0.0116896674774,0.0,-0.00765683525532,0.00944325058921,-0.999926096215,0.0,0.53528434169,0.0950231528466,0.304486676181,1.0,-0.15998,-0.210259428571,2.279
0.294323310231,0.00577504955428,-0.127231353898,-2.12258478476,0.0133505477845,2.12212575471,-0.0140283049081,-0.316596847447,-0.562411651989,-0.00480930938718,-0.683352406165,-0.0775348055585,0.11726548658,-0.276833853367,0.573945160292,0.818875495085,0.00325936000813,0.0,0.818844536611,-0.573876306295,-0.0118472290808,0.0,-0.00783108686923,0.00946875123208,-0.999924505565,0.0,0.532691958103,0.0916285729005,0.304430708826,1.0,-0.15998,-0.210259428571,2.295
0.289000737029,-0.00378162985958,-0.12724656408,-2.13410882155,0.0119551255534,2.12414749166,-0.0187187904466,-0.312021521534,-0.564492853344,0.00129902380694,-0.657928461024,-0.0777917996323,0.119953026703,-0.27358926367,0.573888631616,0.818914909596,0.00331002189069,0.0,0.818884332295,-0.573819268192,-0.0118593707266,0.0,-0.00781261158442,0.00951666632929,-0.999924195208,0.0,0.5299675515,0.0881024268295,0.304458563067,1.0,-0.15998,-0.210259428571,2.312
0.283323797131,-0.0138351110098,-0.127241634913,-2.14616859326,0.0104346132896,2.12632449043,-0.0237256643098,-0.313700748761,-0.560914083026,0.000109238093425,-0.683022203029,-0.089110474771,0.114525849281,-0.284285948585,0.57377895474,0.818991332522,0.00341397912446,0.0,0.818962503287,-0.573709733895,-0.0117603718444,0.0,-0.00767315728486,0.00954395850496,-0.999925014945,0.0,0.527104801628,0.0844014916943,0.304490732808,1.0,-0.15998,-0.210259428571,2.33
0.278106658715,-0.0227109155696,-0.12729675341,-2.15688265137,0.00906177746711,2.12788816038,-0.0283047552944,-0.327180080894,-0.552824859464,-0.00544766435309,-0.663115273688,-0.0842735690705,0.103769482312,-0.285522857041,0.573741357144,0.819018538611,0.00319928359843,0.0,0.81898606313,-0.573671869026,-0.0119650319264,0.0,-0.00796439730065,0.00948518495404,-0.999923296879,0.0,0.524472433418,0.0810119439792,0.304431584427,1.0,-0.15998,-0.210259428571,2.346
0.272786423939,-0.0316200228553,-0.127466801264,-2.16720197887,0.0077035133088,2.12974282091,-0.0328354729932,-0.335615118647,-0.550456365342,-0.00938212953918,-0.652140216944,-0.0908633704881,0.111207701744,-0.280404324643,0.573931248831,0.8188842651,0.00349698278308,0.0,0.818857018878,-0.57386236749,-0.0116581608388,0.0,-0.00754004282108,0.00955469566357,-0.999925925029,0.0,0.521865012783,0.0773542799709,0.304569627977,1.0,-0.15998,-0.210259428571,2.363
0.267101058515,-0.0409645972394,-0.127542227556,-2.17838791025,0.00633482575085,2.13133993801,-0.0378094636916,-0.329171729545,-0.544687321373,-0.00267407129688,-0.652545061517,-0.0795813929957,0.0903966043126,-0.289180242556,0.573933934209,0.818882962103,0.00335863688007,0.0,0.818852547002,-0.573863815499,-0.0118985053924,0.0,-0.00781623365213,0.00957936880728,-0.999923568171,0.0,0.519228707551,0.0739837795698,0.304494253059,1.0,-0.15998,-0.210259428571,2.379
0.261722659783,-0.0497485348066,-0.127549741061,-2.18852167868,0.00503702346519,2.13293466145,-0.0424852382172,-0.3364503346,-0.556076452813,-0.00182202234131,-0.622631681963,-0.0871441812281,0.111947967158,-0.288533828006,0.573909518202,0.818899277123,0.0035476394892,0.0,0.81887171492,-0.573839237953,-0.0117639444718,0.0,-0.00759785716532,0.00965668725753,-0.999924507629,0.0,0.516720233435,0.0706789256893,0.304579683159,1.0,-0.15998,-0.210259428571,2.395
0.25520568317,-0.0600251555536,-0.127581356595,-2.20058356733,0.00341433502543,2.13464487463,-0.0482030494531,-0.343796225226,-0.542679529455,-0.00175776497463,-0.638922401623,-0.078252690453,0.0819624558168,-0.292543575742,0.573819996298,0.818962361753,0.00346536898356,0.0,0.818933622857,-0.573749873495,-0.0118131672166,0.0,-0.00768643229524,0.0096167238965,-0.999924215818,0.0,0.513665801665,0.0667024815678,0.30454170092,1.0,-0.15998,-0.210259428571,2.414
0.250008877345,-0.068129099418,-0.127623902824,-2.21010795877,0.00217853601617,2.13583145602,-0.0527715091415,-0.34828008915,-0.546236983624,-0.00473507670408,-0.616496501793,-0.0795166790381,0.0820846474599,-0.301418246386,0.573770153283,0.818997904962,0.00331508221623,0.0,0.818966186888,-0.573699322732,-0.0120091103822,0.0,-0.0079337285701,0.00960559428409,-0.999922391243,0.0,0.511195794103,0.0635646406924,0.304468736262,1.0,-0.15998,-0.210259428571,2.429
0.24356723157,-0.0778484109821,-0.127804945627,-2.22106050567,0.000710318864111,2.13743205454,-0.0583251916671,-0.363874021034,-0.53450224383,-0.00261944557742,-0.613281065977,-0.0852695314943,0.0814522129808,-0.315557753346,0.57392359074,0.818889243071,0.00358698699177,0.0,0.818861950935,-0.573852868615,-0.0117786839228,0.0,-0.00758718086379,0.00969749844414,-0.999924193732,0.0,0.508422905675,0.059694618026,0.304582413698,1.0,-0.15998,-0.210259428571,2.447
0.238258290694,-0.0858624670318,-0.127842796297,-2.23037193562,-0.000507155007479,2.13848116614,-0.0629778980849,-0.357119748526,-0.530331922198,-0.000581389179788,-0.630724819443,-0.0891685710875,0.067022125575,-0.311855784307,0.573881522407,0.818919363209,0.00343827043034,0.0,0.81888898855,-0.573809892724,-0.0119907608263,0.0,-0.00784670370687,0.00969702457067,-0.999922195451,0.0,0.505949133476,0.0565785100877,0.304503506991,1.0,-0.15998,-0.210259428571,2.462
0.232157529715,-0.0949903307057,-0.12786293556,-2.24059068808,-0.00187507610371,2.13972715966,-0.0683732874286,-0.368254805505,-0.539492630547,-0.00233073535628,-0.58449015951,-0.0873714748073,0.0831950137794,-0.322101333916,0.573780644897,0.818989472127,0.00357253238821,0.0,0.818960998729,-0.573708730044,-0.0119131244399,0.0,-0.00770727886592,0.00976147285508,-0.999922652759,0.0,0.503250612489,0.053068516107,0.304569118943,1.0,-0.15998,-0.210259428571,2.479
0.225910569005,-0.103992453482,-0.127943282768,-2.25070288173,-0.00334424923732,2.14085115425,-0.0737685480297,-0.37095574223,-0.531192400643,-0.00209903910268,-0.595784544114,-0.0855657418889,0.0567467818864,-0.313243491149,0.57379318859,0.818980806625,0.00354429248216,0.0,0.81895232348,-0.573721824961,-0.0118788186254,0.0,-0.00769523466563,0.00971877889571,-0.999923161398,0.0,0.500542736496,0.0494824220897,0.30458291863,1.0,-0.15998,-0.210259428571,2.496
0.219896615921,-0.112417392257,-0.128102149871,-2.26030860559,-0.00466277671271,2.14175244943,-0.0789485622292,-0.387992220983,-0.52855513147,-0.0161950670646,-0.585936533065,-0.0914717323108,0.0566642298083,-0.330388921541,0.573916699712,0.818894978684,0.00337380761524,0.0,0.818863053112,-0.5738444402,-0.0121080799778,0.0,-0.00797935878038,0.00971190268935,-0.999921001269,0.0,0.49791078746,0.0460399079418,0.304494733491,1.0,-0.15998,-0.210259428571,2.512
0.213475584763,-0.121419133371,-0.128183458503,-2.27002283467,-0.00603491588328,2.14290009146,-0.0845288215508,-0.371982665907,-0.515604040802,-0.0015178576784,-0.572850007033,-0.0708406022055,0.067594709515,-0.333901977221,0.573947190117,0.818872262329,0.00368616966892,0.0,0.818845723182,-0.573875438584,-0.011807180788,0.0,-0.00755331603285,0.00979529109447,-0.999923496918,0.0,0.495295854919,0.0424711116745,0.304641115698,1.0,-0.15998,-0.210259428571,2.529
0.207039828249,-0.130266318715,-0.128187098758,-2.27988195506,-0.00737801383445,2.14372937171,-0.0902136629772,-0.381988253606,-0.522728322504,-0.000366904209968,-0.570244741777,-0.079370313263,0.0434872022494,-0.343763252738,0.573841588834,0.818946647936,0.0036007859842,0.0,0.818917994932,-0.573768868478,-0.0119728878123,0.0,-0.00773928644547,0.0098194784589,-0.999921837589,0.0,0.492526836772,0.0389679181209,0.304593442516,1.0,-0.15998,-0.210259428571,2.546
0.200052527506,-0.139617657614,-0.128263918239,-2.29013172012,-0.00887435056162,2.14461774473,-0.0963332568233,-0.38443273563,-0.527270070228,-0.00759017805441,-0.559176779837,-0.0752924887878,0.0510974576057,-0.33422760614,0.573806284932,0.818971437663,0.00358867189318,0.0,0.818942662716,-0.573733659721,-0.0119728771537,0.0,-0.0077466517038,0.00980921753317,-0.999921881268,0.0,0.48964194211,0.0351786287848,0.304593901523,1.0,-0.15998,-0.210259428571,2.564
0.193361298327,-0.148431128644,-0.128414539352,-2.29955071807,-0.0102292120158,2.14550953582,-0.102146911727,-0.39693729111,-0.514716346662,-0.0117244216752,-0.556977336482,-0.0837561986544,0.0442708538649,-0.340863639867,0.573903185886,0.81890254095,0.00380901002065,0.0,0.818877403847,-0.573830772168,-0.0117808863182,0.0,-0.00746181424229,0.00988039065563,-0.999923346666,0.0,0.48699495464,0.031573781292,0.304682108135,1.0,-0.15998,-0.210259428571,2.581
0.186573512402,-0.157164059111,-0.128520696617,-2.30909751641,-0.0116273104479,2.14606907134,-0.108118593422,-0.39693656785,-0.509387290433,-0.00253888283461,-0.562455241069,-0.0783335361501,0.0384333707734,-0.356203769647,0.573881822875,0.818918222084,0.00365319220556,0.0,0.818890078774,-0.573808684,-0.0119741368627,0.0,-0.0077097538954,0.00986349224592,-0.999921632537,0.0,0.484203251698,0.0279738942847,0.30462047896,1.0,-0.15998,-0.210259428571,2.598
0.179768099371,-0.165862516109,-0.128534809978,-2.31827709487,-0.0129459859066,2.14670895016,-0.114055411558,-0.402949870249,-0.515181878465,-0.00248074203005,-0.530516165916,-0.0719281426861,0.0400952909675,-0.3602932307,0.573860684331,0.818932394652,0.00379405716272,0.0,0.8189064141,-0.573787471656,-0.0118730458645,0.0,-0.00754638470621,0.00992064297404,-0.999922313443,0.0,0.481525913505,0.0244676704812,0.304692155007,1.0,-0.15998,-0.210259428571,2.615
0.173244962036,-0.173959096525,-0.128577564548,-2.32690178129,-0.0141529584029,2.14726097343,-0.119841031532,-0.413769061382,-0.506379303391,-0.00818268142308,-0.547512415563,-0.0758864701175,0.0234637720414,-0.356409299462,0.573806748222,0.818969838801,0.00386855667709,0.0,0.818944484699,-0.573732830249,-0.0118876986031,0.0,-0.00751629334933,0.00998956716388,-0.999921853888,0.0,0.478975962959,0.0211391944645,0.304696804523,1.0,-0.15998,-0.210259428571,2.631
0.166134766359,-0.182537906781,-0.128767499663,-2.33605929832,-0.0155994288672,2.14765585144,-0.126014958602,-0.43059482468,-0.497944022016,-0.0123788576634,-0.540522577349,-0.0868261307011,0.0246184699712,-0.363905174382,0.573926735278,0.818886414833,0.003726799767,0.0,0.818858758278,-0.573852711354,-0.0120061052756,0.0,-0.00769315047127,0.00994253885848,-0.999920977556,0.0,0.476044298021,0.0172505772457,0.304649957787,1.0,-0.15998,-0.210259428571,2.649
0.158610955319,-0.191605037486,-0.12883655397,-2.34539114327,-0.0169552078767,2.14817800103,-0.132662691243,-0.411217990882,-0.503928424047,-0.00418222710794,-0.506166855192,-0.0860522617154,0.0380668937344,-0.367366205456,0.573889408923,0.818911495215,0.00395679566546,0.0,0.818887463899,-0.573815408791,-0.0118298353137,0.0,-0.00741726060789,0.0100293806602,-0.999922194858,0.0,0.473391207466,0.013719819093,0.304746520026,1.0,-0.15998,-0.210259428571,2.666
0.151859031601,-0.19954449215,-0.128862519675,-2.3536909718,-0.0182528747012,2.1485003606,-0.138675697756,-0.428259702421,-0.49493684168,-0.00491851869694,-0.524011276865,-0.0836171384256,0.0168104280274,-0.374970222543,0.573762421828,0.819000645881,0.00392074568787,0.0,0.818976255397,-0.573688711126,-0.0118280482003,0.0,-0.00743803478045,0.00999767968903,-0.999922358006,0.0,0.470827788192,0.0104000141782,0.304738169764,1.0,-0.15998,-0.210259428571,2.682
0.144536967025,-0.207917376195,-0.128984909442,-2.36252625353,-0.0195293863392,2.14869268652,-0.145110275225,-0.439300559587,-0.490668780802,-0.0115178609452,-0.515093160175,-0.0701190089679,0.00935202276486,-0.38169442401,0.57382492075,0.818957320306,0.00382292350645,0.0,0.818930123845,-0.573749521408,-0.0120700391273,0.0,-0.00769159445455,0.0100569900945,-0.99991984495,0.0,0.468039421456,0.006815082734,0.304656477191,1.0,-0.15998,-0.210259428571,2.699
0.136610058593,-0.216798520417,-0.129148337652,-2.37143026323,-0.020877466281,2.14898394814,-0.152003782412,-0.438249738864,-0.494250097903,-0.00259688413618,-0.490581751112,-0.0768687790171,0.0160628539274,-0.381125041395,0.573996107066,0.818836214884,0.00405822232981,0.0,0.818812802781,-0.573920789101,-0.0118856527131,0.0,-0.00740344725646,0.0101454381186,-0.999921126417,0.0,0.465235796514,0.00297013033892,0.304763648007,1.0,-0.15998,-0.210259428571,2.717
0.130118199654,-0.224090889143,-0.129159416049,-2.37890443845,-0.0220826908101,2.14913201442,-0.157858801616,-0.437173351783,-0.485764244986,-0.00154522390277,-0.499676001848,-0.0845033683341,0.00691039966152,-0.39197233721,0.573810397416,0.818966556664,0.00401917694874,0.0,0.818942841648,-0.573735523649,-0.011870885259,0.0,-0.00741605621586,0.0101033080996,-0.999921459554,0.0,0.462832869689,-9.796903147e-05,0.304752636705,1.0,-0.15998,-0.210259428571,2.732
0.12251251562,-0.232277594461,-0.12923064619,-2.38734914288,-0.0233799614147,2.1491650744,-0.164580781956,-0.448006089334,-0.485524913223,-0.00780637161471,-0.487512173165,-0.0752064673191,0.00106610698268,-0.399078603071,0.573803601559,0.818971817381,0.00391613006325,0.0,0.818945773795,-0.57372777243,-0.0120419943186,0.0,-0.00761540801446,0.0101170326591,-0.999919822391,0.0,0.460062108663,-0.00366613860711,0.304683409843,1.0,-0.15998,-0.210259428571,2.749
0.11570460282,-0.239526640063,-0.129370563698,-2.39453320321,-0.0245330036814,2.14918997784,-0.170576051109,-0.45393422265,-0.477126312082,-0.0106271499002,-0.469177445003,-0.0798107263393,-0.000232127428314,-0.402138962279,0.573881289746,0.818916966323,0.00400180571791,0.0,0.81889237449,-0.573805583315,-0.0119657202409,0.0,-0.00750281730772,0.0101441464574,-0.999920398844,0.0,0.457687618048,-0.00686013696097,0.304735254252,1.0,-0.15998,-0.210259428571,2.764
0.107928569719,-0.247681710608,-0.129486395184,-2.40252296173,-0.0257630632918,2.14924932902,-0.177515194762,-0.453117476059,-0.474819842911,-0.00182482958973,-0.470256997326,-0.0706119911111,-0.00535673364679,-0.411973989308,0.573898021781,0.818904207627,0.00420787684474,0.0,0.818882928287,-0.573822468826,-0.0118013106155,0.0,-0.00724970821834,0.0102187040709,-0.999921506828,0.0,0.455028422308,-0.0104396159841,0.304818411078,1.0,-0.15998,-0.210259428571,2.781
0.100090201728,-0.25568796305,-0.129532840652,-2.41067517932,-0.027021794654,2.14916245668,-0.184513569316,-0.471226654002,-0.470887225306,-0.00650772592016,-0.475193528798,-0.0758314021703,-0.00959765234571,-0.418113659142,0.573838699371,0.818946274054,0.00411025761423,0.0,0.8189227008,-0.573762070493,-0.0119767892054,0.0,-0.00745018041497,0.0102389255378,-0.999919826394,0.0,0.452248940732,-0.0139724991282,0.304728410842,1.0,-0.15998,-0.210259428571,2.798
0.0921165071275,-0.263683830288,-0.129648623304,-2.4185300655,-0.0282948669564,2.1490586834,-0.191541019276,-0.474845488119,-0.474419867578,-0.017901720793,-0.451587048861,-0.079578307742,-0.0038957131816,-0.41479235103,0.573914676872,0.818892751781,0.00416553148361,0.0,0.818870094887,-0.573838109733,-0.0119305666299,0.0,-0.00737965590655,0.0102583539587,-0.999920150238,0.0,0.449540236738,-0.0175593340194,0.304745000343,1.0,-0.15998,-0.210259428571,2.815
0.0840301725107,-0.271644055411,-0.12981857592,-2.4260714818,-0.0295281048367,2.14896796308,-0.198792988762,-0.474838864449,-0.466270532372,-0.0126706142109,-0.452266462039,-0.0709179691406,-0.00311087748438,-0.425745450705,0.573960841927,0.818859086345,0.00441537602198,0.0,0.818840930957,-0.573885229425,-0.0116627672064,0.0,-0.00701637890454,0.0103096607903,-0.999922237637,0.0,0.446912934068,-0.021178065082,0.304867166801,1.0,-0.15998,-0.210259428571,2.832
0.0759562364288,-0.279413216392,-0.129836889768,-2.43382292639,-0.0307754661702,2.1486822152,-0.206097091998,-0.482354971331,-0.448435423157,-0.00179815383878,-0.450937823082,-0.076727261846,-0.0125261312321,-0.436002690353,0.573816806856,0.818960741327,0.00428056482837,0.0,0.818939874018,-0.573740267192,-0.0118463262649,0.0,-0.00724588323726,0.0103033447029,-0.999920665985,0.0,0.444140487992,-0.0246763743866,0.304775389311,1.0,-0.15998,-0.210259428571,2.849
0.0666988155638,-0.288100488649,-0.129943845768,-2.44221985125,-0.0321636654622,2.14835291315,-0.214370293511,-0.489185523866,-0.453997050712,-0.0053392124205,-0.431580761515,-0.0783640814487,-0.0183519292238,-0.43372950971,0.57382730335,0.818953316737,0.00429393026184,0.0,0.818932572184,-0.573750643808,-0.0118485377804,0.0,-0.00723989345194,0.0103156524455,-0.999920582475,0.0,0.441093645224,-0.0286796720126,0.304769850311,1.0,-0.15998,-0.210259428571,2.868
0.059279886827,-0.294927066353,-0.130110865318,-2.44858442253,-0.0331484565216,2.14811731642,-0.221010079023,-0.494870873704,-0.446167594361,-0.00378651894719,-0.406133059465,-0.0681188065935,-0.0138027001052,-0.445178438127,0.573954154154,0.818863131097,0.0045330299791,0.0,0.818845987779,-0.573877412067,-0.0116923530055,0.0,-0.00697316753386,0.0104229286639,-0.999921365655,0.0,0.438755858869,-0.0318782729442,0.30485489768,1.0,-0.15998,-0.210259428571,2.883
0.0504138553077,-0.303016911309,-0.130155498818,-2.45620523184,-0.0344470027869,2.1477136256,-0.229047229036,-0.498884022062,-0.446138486706,-0.00110164873466,-0.434431848752,-0.0719697445856,-0.0287869853212,-0.438859181462,0.573839231748,0.818943399896,0.00458156904803,0.0,0.81892746851,-0.573763235795,-0.0115886785584,0.0,-0.00686186804915,0.0104022114181,-0.999922351368,0.0,0.435904541093,-0.0356041387924,0.304892566201,1.0,-0.15998,-0.210259428571,2.901
0.0428480927609,-0.309598100934,-0.130218988264,-2.46259780666,-0.0355452605664,2.14722109737,-0.235800357981,-0.50784584062,-0.443921444628,-0.00392905361853,-0.418653569714,-0.060708779562,-0.0302234593659,-0.454076609485,0.573850900242,0.818936137718,0.00441514799282,0.0,0.818917037795,-0.573773928185,-0.0117945514974,0.0,-0.00712582483621,0.0103841538375,-0.99992069284,0.0,0.433445354842,-0.0387559974864,0.304805918645,1.0,-0.15998,-0.210259428571,2.916
0.0341922821198,-0.31709371198,-0.130413638827,-2.46963165319,-0.036671112559,2.14674341758,-0.243621915575,-0.510171413695,-0.434063890263,-0.0180942612466,-0.404543095395,-0.0716693614032,-0.0320484949653,-0.462257892094,0.573943168772,0.818870927708,0.00451549290245,0.0,0.81885268565,-0.573865190925,-0.0118223833838,0.0,-0.00708985835435,0.0104831015041,-0.999919916039,0.0,0.430716943244,-0.0423638801391,0.304807107867,1.0,-0.15998,-0.210259428571,2.933
0.0260585834907,-0.324062428148,-0.130474039759,-2.4759177911,-0.0377792552068,2.14634831641,-0.251063122371,-0.50405803557,-0.432962910829,-0.000313589592904,-0.387600016803,-0.0653705982139,-0.0241452451775,-0.462986544139,0.573842046574,0.818940835179,0.00468625242588,0.0,0.818926366617,-0.573765905526,-0.0115342367049,0.0,-0.00675717567016,0.010456726993,-0.999922495715,0.0,0.428254635757,-0.0456867832481,0.304912818387,1.0,-0.15998,-0.210259428571,2.949
0.0172061064656,-0.33133724035,-0.130538870567,-2.48272372825,-0.0389226725231,2.14574054901,-0.259050348425,-0.516774950996,-0.41891011818,-0.00584383615744,-0.40455348459,-0.0645131021875,-0.0421951600442,-0.46941403193,0.573848043067,0.818936808727,0.00465550012916,0.0,0.818921459356,-0.573771249769,-0.0116165074631,0.0,-0.00684212515508,0.0104788007842,-0.999921686962,0.0,0.425514423824,-0.0492493422479,0.304879670813,1.0,-0.15998,-0.210259428571,2.966
0.00717804157774,-0.339416376508,-0.130743023943,-2.49018545037,-0.0401399972948,2.14496277724,-0.268118155966,-0.529728665887,-0.426141008462,-0.0108293497979,-0.387287903763,-0.0666773165673,-0.0331095457147,-0.479025887672,0.573976772602,0.818846375311,0.00469308579915,0.0,0.818830458414,-0.573898225641,-0.0117581410467,0.0,-0.00693489108169,0.0105919453738,-0.999919855778,0.0,0.422434430957,-0.0532822301407,0.304855510097,1.0,-0.15998,-0.210259428571,2.985
-0.00175264438242,-0.346541687905,-0.130825682789,-2.49669099343,-0.0412358490802,2.14428797537,-0.276384094537,-0.531663858296,-0.416261419302,-0.00983647785376,-0.381910576662,-0.067084519828,-0.0408686798618,-0.486233149885,0.573853202878,0.818932770689,0.00472922193921,0.0,0.818917096104,-0.573774209895,-0.0117767851954,0.0,-0.00693102319196,0.0106311912846,-0.999919466102,0.0,0.419716992625,-0.0567957388734,0.304853688324,1.0,-0.15998,-0.210259428571,3.002
-0.0109487682751,-0.353594123378,-0.130917393651,-2.50285405318,-0.0423710301018,2.14365326177,-0.284692382738,-0.539600462253,-0.4045673712,-0.00977508914835,-0.367932091722,-0.0680405936971,-0.0378308985146,-0.490524460377,0.573908636232,0.818893072402,0.00487443655587,0.0,0.818880815017,-0.57383158829,-0.0115006946864,0.0,-0.00662086100775,0.0105921345142,-0.9999219824,0.0,0.417080577243,-0.0604062376621,0.304963330247,1.0,-0.15998,-0.210259428571,3.019
-0.018575070182,-0.359289199725,-0.131071086071,-2.50804241145,-0.0432561419981,2.14300668799,-0.291645216491,-0.549673478948,-0.400580644203,-0.0113933843883,-0.37166032353,-0.0645690234006,-0.049783576756,-0.500393411061,0.573982695609,0.818841145706,0.00487751390509,0.0,0.818828207744,-0.57390447758,-0.0116087776592,0.0,-0.00670664685287,0.0106572886485,-0.999920718401,0.0,0.414812146965,-0.0633795194312,0.304931660212,1.0,-0.15998,-0.210259428571,3.033
-0.0277347706269,-0.366140329772,-0.131123447335,-2.51427034689,-0.0443803726425,2.14217121993,-0.300205914723,-0.540296314211,-0.402308150235,-0.0048161966363,-0.358941667225,-0.065468300407,-0.0459926539151,-0.501305807661,0.573767009177,0.818992859109,0.00478150706308,0.0,0.818978076377,-0.573688187771,-0.0117269146421,0.0,-0.00686129733071,0.0106446711407,-0.999919803572,0.0,0.412058121811,-0.0668643580325,0.304883610932,1.0,-0.15998,-0.210259428571,3.05
-0.0372155478177,-0.372876012027,-0.131224217606,-2.52028818657,-0.0454379204271,2.1413605013,-0.308830096504,-0.557366569618,-0.392347423595,-0.00255949595332,-0.344998205384,-0.0627661597982,-0.0495103390687,-0.504742753725,0.573832933123,0.818946611665,0.00479155585923,0.0,0.8189316661,-0.573753612922,-0.0117671074744,0.0,-0.006887592917,0.0106765161754,-0.999919283275,0.0,0.4093268643,-0.0704602994214,0.30486941797,1.0,-0.15998,-0.210259428571,3.067
-0.0462251609712,-0.37913291588,-0.131378915662,-2.52567266789,-0.0463784204875,2.14059572771,-0.316982829984,-0.560834517449,-0.394547912863,-0.00785239891852,-0.330654818094,-0.0643016011335,-0.0464298383148,-0.510031520003,0.574013094526,0.818819488484,0.00493553370525,0.0,0.818806856306,-0.573933980374,-0.0116561202723,0.0,-0.0067117171557,0.0107322211336,-0.999919882932,0.0,0.406813561468,-0.073873965684,0.304934144091,1.0,-0.15998,-0.210259428571,3.083
-0.0556777079605,-0.385677971608,-0.131456118272,-2.53135078422,-0.0474211307937,2.13978491206,-0.325876995278,-0.56771093064,-0.385913377811,-0.00981163444841,-0.33793831281,-0.0684364175231,-0.0534369645827,-0.527809200064,0.573829055603,0.818948124886,0.00499305443926,0.0,0.818936813893,-0.573750725481,-0.0115475868982,0.0,-0.0065922329513,0.0107155432858,-0.999920856667,0.0,0.404141044117,-0.0773846775756,0.304968682019,1.0,-0.15998,-0.210259428571,3.1
-0.065450809042,-0.392147359807,-0.131583072109,-2.5371093886,-0.0484858286879,2.13880816174,-0.334815611362,-0.577096996939,-0.376232085165,-0.00927331588164,-0.331673302796,-0.0599507091124,-0.0600034323073,-0.52805543651,0.573892601426,0.818904138977,0.00490307009183,0.0,0.818890673438,-0.573812955819,-0.0117261925923,0.0,-0.00678931322158,0.0107448604129,-0.999919223338,0.0,0.401346383538,-0.0809867458032,0.304907219877,1.0,-0.15998,-0.210259428571,3.117
-0.0763403901959,-0.399243179592,-0.131703986618,-2.54321323523,-0.0495905436214,2.13779333823,-0.344954218546,-0.567436415154,-0.3646192091,-0.00310155256132,-0.321748595713,-0.059377753897,-0.048529024768,-0.528518263758,0.573845849286,0.818936544197,0.00496233184846,0.0,0.818923916769,-0.573766130039,-0.0116958738677,0.0,-0.00673109018028,0.0107756083703,-0.999919286087,0.0,0.398319494306,-0.0849563092732,0.304926034145,1.0,-0.15998,-0.210259428571,3.136
-0.0855685415793,-0.405059705502,-0.13177558047,-2.54823900629,-0.0505354140268,2.13688910682,-0.353588182221,-0.587097342294,-0.361974708324,-0.00520497827295,-0.311623454645,-0.0626515569654,-0.0515844522632,-0.543903252432,0.573747771285,0.819005425301,0.00493509612953,0.0,0.818992230444,-0.573667815883,-0.0117350071457,0.0,-0.00678005923761,0.0107749470336,-0.999918962373,0.0,0.395763396653,-0.0882770030882,0.304913815425,1.0,-0.15998,-0.210259428571,3.152
-0.0962920686262,-0.411493313017,-0.131951157758,-2.55361026419,-0.0515771058043,2.13594212953,-0.363410202152,-0.595405872061,-0.362930617184,-0.00867451853411,-0.299388081211,-0.0504080291674,-0.0562172768836,-0.545610261538,0.573917520294,0.818885857834,0.00503772181566,0.0,0.818874850231,-0.57383859312,-0.0115756471584,0.0,-0.00658842140161,0.0107689377457,-0.999920308166,0.0,0.392925300494,-0.092159304094,0.304975399586,1.0,-0.15998,-0.210259428571,3.17
-0.10447097107,-0.416437701939,-0.131995024751,-2.55778827144,-0.0522787373987,2.13515902255,-0.371122016911,-0.584452179833,-0.350020139073,-0.000738195272781,-0.299872553362,-0.0517189304468,-0.0672748210734,-0.553595133089,0.573822660338,0.818951890231,0.00510909700056,0.0,0.818941630261,-0.573743242541,-0.0115777702884,0.0,-0.00655045309933,0.0108278476441,-0.999919921434,0.0,0.390545136448,-0.0952374822877,0.304982535523,1.0,-0.15998,-0.210259428571,3.185
-0.11461974838,-0.422345512301,-0.132113640155,-2.56287356876,-0.0532191068839,2.13404813941,-0.38062093928,-0.605341855279,-0.341868066189,-0.0098321974196,-0.294437363211,-0.0566426973429,-0.0730763346736,-0.553262254962,0.573808076052,0.818962417417,0.00505940878216,0.0,0.818950319759,-0.573726869053,-0.0117728668921,0.0,-0.00673894651567,0.0108989803801,-0.999917896043,0.0,0.387920500255,-0.0985875124276,0.304935409691,1.0,-0.15998,-0.210259428571,3.201
-0.124976529123,-0.428083935345,-0.132279326372,-2.56771148214,-0.0541779686741,2.13305634761,-0.390153780749,-0.610885642081,-0.334400437696,-0.00435757464899,-0.278607661747,-0.057954097179,-0.0569101533009,-0.565506595296,0.57395940307,0.818856353254,0.00506194284991,0.0,0.818844149753,-0.573877936622,-0.0117948791533,0.0,-0.00675350443844,0.0109149342335,-0.999917623801,0.0,0.385179348792,-0.102226080694,0.30492565438,1.0,-0.15998,-0.210259428571,3.218
-0.135112738399,-0.433633188944,-0.132321733005,-2.57235600012,-0.0550288618144,2.13211899223,-0.399853720866,-0.601378580206,-0.322395950713,-0.00643072297795,-0.271676612498,-0.0481707486414,-0.0596022003646,-0.577891762014,0.57375557373,0.818998913745,0.00510566349357,0.0,0.818987376404,-0.573674154997,-0.0117638463605,0.0,-0.00670571930624,0.0109312568278,-0.999917767095,0.0,0.382514801582,-0.105701562995,0.304926374459,1.0,-0.15998,-0.210259428571,3.235
-0.146250386429,-0.439424496778,-0.132493176819,-2.57712620225,-0.0559586972694,2.13099766281,-0.410212711476,-0.630516880124,-0.323442304553,-0.0196904238772,-0.25160154294,-0.0582998700796,-0.0639407119319,-0.575138960236,0.573884024716,0.818908688491,0.00514130253777,0.0,0.818897303746,-0.573801955592,-0.0118012108648,0.0,-0.00671415392967,0.0109829366291,-0.999917144187,0.0,0.37962429927,-0.10954351029,0.304936514864,1.0,-0.15998,-0.210259428571,3.253
-0.156720649167,-0.444865112753,-0.132571502553,-2.58143715889,-0.0568340427081,2.13002935755,-0.420117130587,-0.603947444558,-0.323748204755,0.00114168852946,-0.253560917326,-0.0533875268124,-0.0547433479951,-0.590173442696,0.573811981111,0.818958608474,0.00523018553836,0.0,0.818949658237,-0.573731763637,-0.0115787550708,0.0,-0.00648192236464,0.0109274974333,-0.999919283984,0.0,0.376956938281,-0.113105865078,0.305022940354,1.0,-0.15998,-0.210259428571,3.27
-0.167285435624,-0.450127533033,-0.132673156906,-2.58579564931,-0.0576930803884,2.12897807744,-0.430063053559,-0.631463246128,-0.296731745854,-0.00553315754746,-0.256217505801,-0.0505793673684,-0.0525125771928,-0.587700344396,0.573804602509,0.81896387161,0.00521555724467,0.0,0.818954314146,-0.573723730575,-0.0116472837326,0.0,-0.00654654166114,0.0109547790321,-0.999918564488,0.0,0.374208130649,-0.116653672428,0.305001801903,1.0,-0.15998,-0.210259428571,3.287
-0.176820293301,-0.454580550221,-0.132825832772,-2.58951240779,-0.0583990449888,2.12803345352,-0.438994476799,-0.631671852745,-0.288797537066,-0.00399939768187,-0.243807570201,-0.0572570299622,-0.0610928496824,-0.587535050813,0.573918986145,0.818883654578,0.00522537165234,0.0,0.818873205344,-0.573836363633,-0.01180034931,0.0,-0.00666473321744,0.0110515741233,-0.999916718552,0.0,0.37175982109,-0.119853265992,0.304957971,1.0,-0.15998,-0.210259428571,3.302
-0.187401746306,-0.459484427451,-0.132871669404,-2.59343837423,-0.0591147835716,2.12707541333,-0.449192170032,-0.624091925789,-0.279030551508,-0.00247888258947,-0.226874833422,-0.0421012457328,-0.0523692501482,-0.599930346965,0.573757758431,0.81899601534,0.00532056374697,0.0,0.818987096441,-0.573675334413,-0.011725760135,0.0,-0.00655120077154,0.0110854323345,-0.999917094043,0.0,0.369110317012,-0.12334411972,0.304988321621,1.0,-0.15998,-0.210259428571,3.319
-0.197696530661,-0.463962001949,-0.133010828563,-2.59711773528,-0.0598707727261,2.12613596769,-0.458870876852,-0.652080476543,-0.282067263938,-0.00951589169604,-0.227448044543,-0.0462066650128,-0.0618684975754,-0.607249351319,0.573848973136,0.818932113165,0.00531948861042,0.0,0.818922734499,-0.573765783717,-0.0117952218127,0.0,-0.00660747258711,0.0111251402775,-0.999916282776,0.0,0.366526005947,-0.126753463819,0.30495866459,1.0,-0.15998,-0.210259428571,3.335
-0.208591479082,-0.468619711254,-0.133116504877,-2.60089314038,-0.0606445960078,2.12511195661,-0.469191264018,-0.630302426327,-0.271490205065,-0.00129746535873,-0.211752122817,-0.0387900128106,-0.0578750167778,-0.611941759094,0.57386707045,0.81891945043,0.00531658360622,0.0,0.81890962573,-0.573783202211,-0.0118578517783,0.0,-0.00666018732441,0.0111588469954,-0.999915557454,0.0,0.363794269959,-0.130315018624,0.304941714392,1.0,-0.15998,-0.210259428571,3.352
-0.220827498584,-0.473769729163,-0.133237025284,-2.60480695077,-0.0614647600438,2.1240367038,-0.480898587217,-0.655707546023,-0.271209081137,-0.00827630861314,-0.201876713932,-0.0438095461447,-0.0636638044421,-0.617280464072,0.573827902032,0.818946119566,0.00543497917804,0.0,0.818939091931,-0.573745787622,-0.0116310702135,0.0,-0.00640704676404,0.0111253637295,-0.999917584621,0.0,0.360805839786,-0.134306475324,0.305038284202,1.0,-0.15998,-0.210259428571,3.371
-0.23136613275,-0.477874114305,-0.133357986045,-2.60803219822,-0.0621746732288,2.12312536118,-0.490840993954,-0.643523706185,-0.250152873881,-0.00412766990164,-0.202237531074,-0.050002837594,-0.0486896529075,-0.627941251992,0.573927491741,0.8188762017,0.00545411910018,0.0,0.818869658726,-0.573845710425,-0.0115900623872,0.0,-0.00636112588672,0.0111182821426,-0.999917956574,0.0,0.358236495131,-0.137726695532,0.305055964252,1.0,-0.15998,-0.210259428571,3.387
-0.242307945871,-0.482024971311,-0.133381210842,-2.6114072421,-0.0628206343849,2.12216404281,-0.501491217669,-0.653048643717,-0.243163692588,-0.0036722486598,-0.197132722522,-0.0425108064331,-0.0574599910051,-0.621999808257,0.573726261822,0.819017189732,0.00545585197531,0.0,0.819009979715,-0.573643311619,-0.0116940610345,0.0,-0.00644804815511,0.0111778023458,-0.999916736238,0.0,0.355538418148,-0.141187865158,0.305016219776,1.0,-0.15998,-0.210259428571,3.404
-0.254350581617,-0.486260676531,-0.133551866332,-2.61482531419,-0.0635941532446,2.12111127524,-0.512878964787,-0.675489807782,-0.225712245971,-0.00283327819277,-0.183590410427,-0.0389424329768,-0.0580800046707,-0.643225639323,0.573870305713,0.818916482878,0.0054233931003,0.0,0.818907976988,-0.573785937193,-0.011839358353,0.0,-0.00658370576588,0.0112357323923,-0.999915202973,0.0,0.352595985521,-0.145042601146,0.304972166778,1.0,-0.15998,-0.210259428571,3.422
-0.264849533019,-0.489837924446,-0.133581854242,-2.61769273972,-0.0641575157436,2.12025209804,-0.523063099282,-0.653485834724,-0.220204154256,-0.00937856074182,-0.175959709792,-0.0316551627088,-0.056175776108,-0.63882014493,0.573753252174,0.818998382959,0.00544070148503,0.0,0.818989561813,-0.573667921727,-0.0119147020079,0.0,-0.0066370935489,0.0112921941606,-0.999914213991,0.0,0.350061861346,-0.148333674105,0.30494486244,1.0,-0.15998,-0.210259428571,3.438
-0.276251729801,-0.493545253062,-0.133724248818,-2.62056479324,-0.0647739507062,2.11939530445,-0.533995821279,-0.675404676704,-0.22222355518,-0.0101014234254,-0.165653122598,-0.0392684649252,-0.0545260039148,-0.648046670192,0.573819270924,0.818951616873,0.005517285412,0.0,0.818943952018,-0.573733919968,-0.0118717914653,0.0,-0.00655709527312,0.0113308283965,-0.999914304743,0.0,0.34734683437,-0.151941474185,0.30495781958,1.0,-0.15998,-0.210259428571,3.455
-0.286323167804,-0.496714944661,-0.133779688536,-2.62299639396,-0.0652990993007,2.11860073343,-0.54366726728,-0.660633521924,-0.214965004179,0.0017093890449,-0.157974635426,-0.0330964529113,-0.0514577660973,-0.650965577887,0.573827928259,0.818945344965,0.00554775735242,0.0,0.818938103783,-0.573742511626,-0.0118599926528,0.0,-0.00652982725646,0.0113490834046,-0.999914276157,0.0,0.344951232207,-0.155083089943,0.304972736994,1.0,-0.15998,-0.210259428571,3.47
-0.2970139568,-0.49996511014,-0.133805924845,-2.6254601784,-0.0658145773457,2.11778294233,-0.554055958876,-0.680758900128,-0.202136762237,-0.00329256267528,-0.14746246437,-0.0347384568728,-0.0454031251927,-0.657634058228,0.573745062762,0.819003059221,0.00559811083468,0.0,0.818996689398,-0.573659858349,-0.0118125600107,0.0,-0.00646323575485,0.0113624509876,-0.999914556995,0.0,0.342265119951,-0.158601413469,0.305001389643,1.0,-0.15998,-0.210259428571,3.487
-0.309366350779,-0.503402890483,-0.133949047998,-2.62806857567,-0.0664252815724,2.11693490027,-0.565857731636,-0.68187310498,-0.188660994012,-0.000192182048334,-0.140088742496,-0.0325908675149,-0.0431713688191,-0.660365877732,0.573884101664,0.818905254354,0.00565412689656,0.0,0.81889986029,-0.573799110232,-0.0117620922955,0.0,-0.00638782918612,0.0113804606055,-0.999914836751,0.0,0.339528814951,-0.162240791096,0.305020340231,1.0,-0.159644,-0.209817828571,3.504
-0.320103944598,-0.506217634183,-0.133967116564,-2.6302320855,-0.066905969845,2.11626295834,-0.576384231111,-0.68068414023,-0.166936294094,-0.00621424754042,-0.128064287292,-0.0378391129055,-0.03937552016,-0.666872279962,0.573743649953,0.819003468417,0.00568240806327,0.0,0.818998742942,-0.573659126248,-0.0117052480741,0.0,-0.00632699534108,0.0113699157205,-0.99991534349,0.0,0.337036026819,-0.165537112903,0.305027049409,1.0,-0.157852,-0.207462628571,3.52
-0.331740869975,-0.509079793703,-0.134043609952,-2.6323962017,-0.0674055354822,2.11553792597,-0.587498722446,-0.682052727762,-0.161011264157,-0.00794881784982,-0.124552232261,-0.0227400832605,-0.0448744939116,-0.649258677068,0.573891088663,0.818899827051,0.00573048954214,0.0,0.818895966262,-0.573806808474,-0.0116571819067,0.0,-0.00625799081787,0.011382846741,-0.999915630616,0.0,0.3343416837,-0.1691139408,0.305042658509,1.0,-0.155948,-0.204960228571,3.537
-0.343059555852,-0.511744025105,-0.133998965898,-2.6344304801,-0.0678036328443,2.1148228257,-0.598600745533,-0.659933538446,-0.147060387811,-8.75229103476e-05,-0.117677891897,-0.0188567673421,-0.047038308401,-0.649685587538,0.573752197389,0.818996839884,0.00577400664728,0.0,0.818993424098,-0.573667578602,-0.0116630805156,0.0,-0.00623978580861,0.011420811435,-0.999915311484,0.0,0.331723586278,-0.172521367425,0.305045460889,1.0,-0.154044,-0.202457828571,3.554
-0.354483196101,-0.514126748954,-0.134009734308,-2.63631647099,-0.0682296433961,2.11411919309,-0.60961153279,-0.685138658101,-0.137901090753,-0.00427662117175,-0.107266536118,-0.0166219206863,-0.0444438036254,-0.654086519257,0.57383492054,0.818938839986,0.00577989903713,0.0,0.818934692384,-0.573748792209,-0.0117915202487,0.0,-0.00634044589575,0.011499967335,-0.999913771031,0.0,0.328921607996,-0.17618219467,0.305008828197,1.0,-0.152028,-0.199808228571,3.572
-0.365795511407,-0.516324766662,-0.133983011924,-2.63803233827,-0.0685905707451,2.11349301011,-0.620567028422,-0.650982538625,-0.12535432467,0.00327010836918,-0.0976182272892,-0.0130607770632,-0.0289672766326,-0.64329305102,0.573832316825,0.818940552599,0.00579572070492,0.0,0.8189362059,-0.573745397315,-0.011851439887,0.0,-0.00638047949562,0.0115472870537,-0.999912971035,0.0,0.326493202699,-0.179363372987,0.304987690072,1.0,-0.150236,-0.197453028571,3.588
-0.376266260948,-0.518223471068,-0.133955936028,-2.63951784088,-0.0688887133542,2.11295875618,-0.630749510216,-0.65408598544,-0.115102856191,0.0014759386672,-0.0916694674899,-0.0219620668792,-0.0267796799196,-0.648817293052,0.573837966737,0.818936297717,0.00583738926097,0.0,0.818932113048,-0.573750199105,-0.0119016867229,0.0,-0.0063976431852,0.0116102887661,-0.999912131818,0.0,0.324103952833,-0.182489690376,0.304967277796,1.0,-0.148444,-0.195097828571,3.604
