nelsonifechukwu/NELSON_IML_WORK/CNN-GradCAM/train2dof/data_sample_2022-02-22-11-25-46/robot_state.csv
position_joint1,position_joint2,position_joint3,position_joint4,position_joint5,position_joint6,position_joint7,velocity_joint1,velocity_joint2,velocity_joint3,velocity_joint4,velocity_joint5,velocity_joint6,velocity_joint7,ee_T_00,ee_T_10,ee_T_20,ee_T_30,ee_T_01,ee_T_11,ee_T_21,ee_T_31,ee_T_02,ee_T_12,ee_T_22,ee_T_32,ee_T_03,ee_T_13,ee_T_23,ee_T_33,v_x,v_y,time
0.465054547473,0.547724263233,-0.124038724333,-1.35580604348,0.079428620518,1.894096743,0.159151192447,0.000657960411928,0.000758548622256,0.000235621231844,0.00201962968241,-0.000400846880467,-0.000608287953845,-0.00148910558572,0.573829443266,0.818960724728,0.00196170707547,0.0,0.818918660124,-0.573771731009,-0.0117887953778,0.0,-0.00852915255446,0.00837139759356,-0.999928584079,0.0,0.661704545164,0.260840893608,0.303268735036,1.0,0.0,0.0,0.0
0.46505945646,0.54771865969,-0.124037903343,-1.35581532152,0.079430898253,1.8940955491,0.159152816153,0.00199039476739,-0.000593378927982,0.000413513617709,-0.000270316615925,0.000337996615454,0.0001407779284,-0.00109710383832,0.573827270907,0.818962252198,0.00195947448682,0.0,0.818920122648,-0.573769532573,-0.0117941983231,0.0,-0.00853488078405,0.00837264692274,-0.999928524742,0.0,0.661700730805,0.260843876449,0.303268161897,1.0,-0.00012,-0.000157714285714,0.007
0.465048882565,0.54772313311,-0.124046386051,-1.3558162497,0.0794288604342,1.89409706117,0.159154902891,-0.00287685697865,-0.000397091681023,-0.00137130713626,-0.00042640397199,-0.000190628699706,-0.000191079037253,-2.74376753115e-05,0.573843095287,0.818951180262,0.00195275201651,0.0,0.818909027063,-0.573785444401,-0.0117905084699,0.0,-0.00853555447962,0.00836518918514,-0.99992858141,0.0,0.661705521052,0.260831573028,0.30326495976,1.0,-0.00042,-0.000552,0.022
0.465050571133,0.547711393825,-0.124041358799,-1.35582807139,0.0794267265573,1.89410109329,0.159152145776,0.000933502712597,-0.00120400421837,-0.000905539956975,-0.000409936043316,-0.000196427347462,0.000237898761238,-0.00119098385054,0.573836029507,0.818956121781,0.0019567160461,0.0,0.818914006457,-0.573778350258,-0.0117898984413,0.0,-0.00853285248269,0.00836801179682,-0.999928580853,0.0,0.661702450986,0.260834279563,0.303267829079,1.0,-0.00076,-0.000998857142857,0.039
0.46505557664,0.547656671786,-0.124041335578,-1.35589264672,0.0794264689013,1.89411227902,0.159156389761,-0.00103885932522,-0.0087513622557,-0.00096359688054,-0.00795599951564,0.000256880796714,0.000467128464149,0.00108936684682,0.573838827933,0.818954151666,0.00196059337445,0.0,0.818912037338,-0.5737810844,-0.0117936079706,0.0,-0.00853363711718,0.00837334490247,-0.999928529512,0.0,0.661690028236,0.260831376815,0.303276829185,1.0,-0.0011,-0.00144571428571,0.056
0.465052406375,0.547537196044,-0.124037031176,-1.3560395182,0.0794270790153,1.8941398219,0.159148479301,0.000337548790426,-0.0105363119975,0.00260519542054,-0.0115752498834,0.000204663512189,0.00494184817987,-0.000854722533552,0.573840098281,0.81895324222,0.00196864512617,0.0,0.818911089555,-0.573782181984,-0.0118060129846,0.0,-0.00853916352077,0.00838707045373,-0.999928367302,0.0,0.661664810927,0.26081787475,0.303293809283,1.0,-0.0014,-0.00184,0.071
0.465043888667,0.547400716766,-0.124041831117,-1.35623997079,0.0794167000165,1.89419535455,0.159147203803,-0.00161586420228,-0.00926486830436,-0.00212227012222,-0.0144892765348,-0.000365350687643,0.000891799975056,-0.000314269642238,0.573857718124,0.818940912066,0.00196183463077,0.0,0.818898656186,-0.573799812627,-0.0118115548439,0.0,-0.00854742971775,0.0083848570875,-0.999928315239,0.0,0.661637436066,0.260789546372,0.303300040697,1.0,-0.00174,-0.00228685714286,0.088
0.465035992523,0.547210551358,-0.12404075259,-1.35646401886,0.0794147339811,1.89432489768,0.159132545128,-0.00199349755199,-0.0114963291607,0.000279934802411,-0.0129698068092,-0.00347114461017,0.00263642314167,-0.00146774492837,0.57386369088,0.818936513118,0.00204906647444,0.0,0.818895338844,-0.573805386807,-0.0117706835667,0.0,-0.00846384013135,0.00843290126017,-0.999928622246,0.0,0.661618850525,0.260769344628,0.303339313893,1.0,-0.0021,-0.00276,0.106
0.465017901253,0.547024843285,-0.124036901724,-1.35670939726,0.0794129007017,1.89444736454,0.159125980165,-0.000403498062589,-0.0105088199916,-3.1370918919e-05,-0.0155121787546,0.000460954772465,0.0111456736593,0.000595097222049,0.57388385545,0.818922228503,0.00210974376519,0.0,0.818881747318,-0.573825217505,-0.0117494921568,0.0,-0.00841145807252,0.00847063760537,-0.999928745297,0.0,0.661595844905,0.260740945442,0.303364564074,1.0,-0.00244,-0.00320685714286,0.123
0.464996631067,0.546796702679,-0.124038941931,-1.35703893114,0.0793982602261,1.89458050213,0.1591045425,0.00142835216837,-0.0159790299428,0.000427086030229,-0.0265131000067,7.22381205031e-06,0.00726974922631,-0.00564138368852,0.573899753145,0.818911012165,0.00213878402439,0.0,0.818870884982,-0.573840978198,-0.0117367955998,0.0,-0.00838423066988,0.00848729547099,-0.999928832713,0.0,0.661559667367,0.260696243889,0.303380900419,1.0,-0.00278,-0.00365371428571,0.14
0.464964285169,0.546539424028,-0.124038473504,-1.35742304875,0.0793838806758,1.89472056008,0.159013198902,-0.00239314688067,-0.0125625869033,-0.000178443362107,-0.0252916046651,-0.000288180409999,0.0106062615692,-0.0101474256781,0.573868759753,0.818932687299,0.00215572577263,0.0,0.818892690043,-0.573809832428,-0.0117381984856,0.0,-0.00837597904909,0.00850165716688,-0.999928779864,0.0,0.661515389553,0.2606400797,0.303392397309,1.0,-0.00312,-0.00410057142857,0.157
0.464923902479,0.54625219642,-0.124041435415,-1.35785954679,0.0793520592373,1.89487756429,0.158945919095,-0.000650637706179,-0.0130347176379,-0.00053165037656,-0.0234819526048,-0.000638727893521,0.0038286441414,-0.00167081483875,0.573864733549,0.818935500344,0.00215888077824,0.0,0.818895597613,-0.573805849047,-0.011730077216,0.0,-0.00836755933744,0.00849953924358,-0.999928868362,0.0,0.661467091582,0.260569113895,0.303401707781,1.0,-0.00346,-0.00454742857143,0.174
0.464879189409,0.545945187875,-0.124035778258,-1.35836996961,0.0792942343042,1.89504779833,0.158914083018,-0.00134704902429,-0.024746087619,0.00500116397841,-0.0276542307097,-0.00478950148617,0.00591777618693,0.000265978547197,0.573884419387,0.818921815439,0.00211666822487,0.0,0.818881552081,-0.573825883642,-0.0117305509438,0.0,-0.00839196663183,0.00846544396471,-0.999928953053,0.0,0.66140554849,0.2604884411,0.303390635541,1.0,-0.0038,-0.00499428571429,0.191
0.46482384787,0.545628854861,-0.124036489807,-1.3589153006,0.0792606054954,1.89522933488,0.158820674411,-0.00439386197665,-0.0241738075176,0.000767239614425,-0.032798754619,-0.000772840940556,0.00565892887637,-0.0086897133518,0.573875206452,0.818928376736,0.00207559572447,0.0,0.818887557752,-0.573816808048,-0.0117552312836,0.0,-0.00843584317593,0.00844587790278,-0.99992874931,0.0,0.661341312387,0.260397718414,0.303370766849,1.0,-0.00412,-0.00541485714286,0.207
0.464755086934,0.545248355099,-0.12404178246,-1.3595759589,0.0792428188124,1.89545087616,0.158760393642,-0.00275261772177,-0.0243185934278,-0.000469064374197,-0.0349695119306,-0.00187897094004,0.0152678715726,-0.0052826223048,0.573917943121,0.818898526906,0.00203570541119,0.0,0.818856984792,-0.573859491951,-0.011801222705,0.0,-0.00849595858929,0.00844004755316,-0.999928289571,0.0,0.661263845977,0.260287904926,0.303345063598,1.0,-0.00446,-0.00586171428571,0.224
0.464680697968,0.544825697148,-0.124044522314,-1.36027582725,0.0792099172798,1.89568468179,0.15867818203,-0.0066297536984,-0.0270523109093,-0.00125150986667,-0.0425811550086,-0.00404301848721,0.0122459704552,-0.0064892579307,0.573943638841,0.818880598012,0.00200313101336,0.0,0.818838523722,-0.573885207092,-0.0118316546529,0.0,-0.00853930958936,0.0084311060917,-0.999927995729,0.0,0.661182569178,0.260170140582,0.303331457498,1.0,-0.0048,-0.00630857142857,0.241
0.464609044477,0.544423959065,-0.12404497583,-1.3609528094,0.079173832852,1.89592349341,0.15855817937,-0.00648149101886,-0.0283613185382,-0.00020990884415,-0.0461111162076,-0.000641280442219,0.0123727082778,-0.00690159195435,0.573932497934,0.818888476448,0.00197429913615,0.0,0.818845961128,-0.573874119206,-0.0118547100857,0.0,-0.00857485139549,0.00842061236835,-0.999927779998,0.0,0.661105857406,0.260057782608,0.303314255659,1.0,-0.00512,-0.00672914285714,0.257
0.464533051718,0.543902214185,-0.124045668394,-1.36180618524,0.0791328653363,1.8962243874,0.158500186188,-0.00502935920678,-0.0301366350294,0.000183105968927,-0.0495515703294,-0.00162415782403,0.0164419188526,-0.00622595955054,0.573984313655,0.818852209828,0.00195270032682,0.0,0.818809297373,-0.573925903187,-0.0118801972482,0.0,-0.00860758619385,0.00841809812065,-0.999927519915,0.0,0.6610054672,0.25992648608,0.303303367272,1.0,-0.00548,-0.00720228571429,0.275
0.464465205878,0.543455590983,-0.124045666481,-1.36253800659,0.0790857951099,1.89647831666,0.158388423523,-0.00154733357887,-0.031275764656,0.000264959175862,-0.047166980952,-0.00374623852888,0.0156063680915,-0.00544523670856,0.573976482015,0.818857766341,0.00192444741629,0.0,0.818814480753,-0.573918183928,-0.0118958466566,0.0,-0.00863669733896,0.00840386342688,-0.999927388633,0.0,0.660919658986,0.259810251445,0.303293015263,1.0,-0.00578,-0.00759657142857,0.29
0.464388982775,0.542948186228,-0.1240560049,-1.36336355055,0.0790386879019,1.89676044364,0.158282829898,-0.0038432628712,-0.0336180618001,-0.00230420774292,-0.0527335599582,-0.00345195344021,0.0125264754695,-0.00892301470156,0.573992923171,0.818846315548,0.00189276632601,0.0,0.818802605464,-0.57393474344,-0.011914296421,0.0,-0.00866982029188,0.00838868533768,-0.999927229439,0.0,0.660823933451,0.259674075672,0.303283795996,1.0,-0.0061,-0.00801714285714,0.306
0.464312226417,0.542283728103,-0.124057066055,-1.36439189118,0.0789822669872,1.89713745608,0.158140821611,-0.0010257711927,-0.0279856512552,-0.00104988623274,-0.0599079619244,-0.0017909377617,0.0222936168144,-0.0072671303834,0.573982314461,0.818853719311,0.00190681878803,0.0,0.818810129059,-0.573924016063,-0.011913993343,0.0,-0.00866161542697,0.00839990573562,-0.999927206351,0.0,0.660702934961,0.259525858262,0.303296980921,1.0,-0.00648,-0.00851657142857,0.325
0.464237715738,0.541735096892,-0.124059444512,-1.36523181184,0.0789234363595,1.89745312001,0.158034324938,-0.00717953810259,-0.0357012980952,-0.00133180355194,-0.0593214670669,-0.00605055947767,0.020769641479,-0.0109338685287,0.573988738533,0.818849180186,0.00192225043484,0.0,0.818805875972,-0.573930457766,-0.0118959667256,0.0,-0.00863793083567,0.00840226265517,-0.999927391431,0.0,0.660609794749,0.259394661795,0.303312558869,1.0,-0.00678,-0.00891085714286,0.34
0.464165987939,0.541085097842,-0.124057742111,-1.36623567759,0.078866269883,1.89782327461,0.157891495875,-0.00247259673238,-0.0393664127387,-0.00100960085029,-0.0635652711637,-0.00246306095697,0.0245548206295,-0.0125028254521,0.573969722412,0.818862471375,0.00193846025723,0.0,0.81881932369,-0.573911323747,-0.0118934657744,0.0,-0.00862677457714,0.00841389995953,-0.999927389888,0.0,0.660490470059,0.259253511517,0.303326302644,1.0,-0.00712,-0.00935771428571,0.357
0.464075417461,0.540380833031,-0.124055508113,-1.36729962333,0.0788106677816,1.89821605022,0.157786224332,-0.00331451317635,-0.0395684788593,-9.54081712536e-05,-0.065940087188,-0.0029510088331,0.0284209325506,-0.01084612072,0.574000167347,0.818841050857,0.00197185640692,0.0,0.818798239243,-0.573941530736,-0.0118873719116,0.0,-0.00860230344442,0.00843806847955,-0.999927397052,0.0,0.660367710298,0.259095602664,0.303351656331,1.0,-0.00746,-0.00980457142857,0.374
0.463985162489,0.539695508394,-0.124058448436,-1.36836196678,0.078750320306,1.89861941694,0.157638139981,-0.00314858536926,-0.0446703111146,-0.000392209712942,-0.0649888181665,-0.00198872462437,0.026463765761,-0.00658703726856,0.573997599524,0.818842794537,0.00199511316676,0.0,0.818800267244,-0.573938849839,-0.0118771169529,0.0,-0.00858058388337,0.00845119852613,-0.999927472782,0.0,0.660248102931,0.25893480125,0.303365364251,1.0,-0.00778,-0.0102251428571,0.39
0.463888683973,0.538950188704,-0.124064044018,-1.36953533997,0.0786704239288,1.89906146296,0.157491150488,-0.0055556763895,-0.0377734890804,-0.000934846831605,-0.0682880917798,-0.00170671686342,0.0252818542936,-0.0078752071204,0.574003700981,0.818838506312,0.00199968531465,0.0,0.818796145819,-0.573945037661,-0.0118622189086,0.0,-0.00856569706563,0.00844645480428,-0.9999276405,0.0,0.660115205214,0.258755432704,0.303371920269,1.0,-0.00812,-0.010672,0.407
0.463766835886,0.538172118295,-0.124060902125,-1.37072797665,0.0786150273227,1.89951583815,0.157343584524,-0.00942184778324,-0.0468975958336,0.00030176061023,-0.0681753358434,-0.000473069556771,0.0254688995776,-0.011409971203,0.57403151794,0.818818899354,0.00204288366795,0.0,0.8187769412,-0.573972518159,-0.0118581557781,0.0,-0.00853728734863,0.00847978446428,-0.999927601369,0.0,0.659984131119,0.258567338617,0.303393137529,1.0,-0.00846,-0.0111188571429,0.424
0.463655708657,0.537372165426,-0.12406205013,-1.37199316651,0.0785313873092,1.89999129387,0.157193794653,-0.00762279813969,-0.0441005668376,0.00195816138555,-0.0750791990516,-0.00463314119566,0.0332254905805,-0.0117108120107,0.574048054716,0.81880729795,0.00204611870588,0.0,0.818765448514,-0.573989106078,-0.0118487689155,0.0,-0.00852757279504,0.00847721725938,-0.999927706032,0.0,0.659840540389,0.258372390475,0.303397066886,1.0,-0.0088,-0.0115657142857,0.441
0.463523017765,0.536386964105,-0.124070885242,-1.3735293364,0.0784527576,1.90056887538,0.157004364888,-0.00353355363253,-0.0503970171849,-0.00045356386908,-0.0781641061725,-0.000828785644814,0.0237036091691,-0.0132454421443,0.574071348272,0.818790898004,0.00207348501241,0.0,0.818749315943,-0.574012198642,-0.0118448450563,0.0,-0.00850840944282,0.0084976142125,-0.999927696147,0.0,0.659666095629,0.258136768845,0.303411773081,1.0,-0.0092,-0.0120914285714,0.461
0.463429968732,0.535722722431,-0.124082102982,-1.37457925769,0.0783808726317,1.90095427058,0.156879780662,-0.00265471497636,-0.0490125946174,-0.00126385849496,-0.0807606490954,-0.00449147101666,0.032102600166,-0.0103304198208,0.574091807277,0.818776574118,0.00206528312796,0.0,0.818735000572,-0.574032802934,-0.0118358309681,0.0,-0.00850552462683,0.00848593655464,-0.999927819861,0.0,0.659547316359,0.257967497648,0.303414595718,1.0,-0.00946,-0.0124331428571,0.474
0.463304831855,0.534822608234,-0.124079088983,-1.37600947773,0.0783058660307,1.90147433221,0.156711762765,-0.00859986142169,-0.0485346704763,0.000751017813089,-0.0861711011325,-0.00311436157014,0.0367850356707,-0.00693961795984,0.574112909175,0.818761783527,0.00206306960744,0.0,0.818720033561,-0.574053763889,-0.0118545228525,0.0,-0.0085218814729,0.00849507457649,-0.999927603001,0.0,0.659378223208,0.257751920715,0.303413965251,1.0,-0.0098,-0.01288,0.491
0.463178326298,0.533923443138,-0.124080206596,-1.37749362493,0.0782164858194,1.90200028482,0.156531250665,-0.00698495328121,-0.0530358199363,0.000567011626596,-0.0908408434445,-0.0125158891375,0.0277337805608,-0.00827903424573,0.574126702687,0.818752239244,0.00201168999722,0.0,0.818709768987,-0.574067712831,-0.0118878993718,0.0,-0.00857856311885,0.00847231383939,-0.999927311435,0.0,0.659199456704,0.257524733167,0.303387456762,1.0,-0.01014,-0.0133268571429,0.508
0.463054336708,0.532999641181,-0.124080806587,-1.37896796375,0.0781352830905,1.90256935278,0.156341150189,-0.00736561714961,-0.0514629653181,-0.000261773389721,-0.0898942127764,-3.75624433864e-05,0.0362034928861,-0.0076501713837,0.574132012922,0.818748471148,0.00202968787864,0.0,0.818706177233,-0.574072891607,-0.0118851749969,0.0,-0.00856594498947,0.00848554082196,-0.99992730745,0.0,0.659030639648,0.257305245406,0.3033865378,1.0,-0.01048,-0.0137737142857,0.525
0.462914763868,0.53204598593,-0.124083253843,-1.38052328332,0.0780567433856,1.90314426229,0.156136633051,-0.00669695884153,-0.0599769453452,0.00543668289993,-0.0903784546517,-0.00284559882905,0.0300427272341,-0.00779565307248,0.574144458611,0.818739784094,0.00201332774775,0.0,0.818697122947,-0.574085250295,-0.0119118921232,0.0,-0.00859708374162,0.00848761590165,-0.999927022601,0.0,0.65884878549,0.257066045121,0.303368515454,1.0,-0.01082,-0.0142205714286,0.542
0.462783830225,0.531041021111,-0.124081064317,-1.38212886791,0.0779466612763,1.90372233325,0.155935452225,-0.00455836980341,-0.0557449420761,0.000231609467884,-0.0910274612898,-0.0110244285857,0.0289481682736,-0.0174486468328,0.574143145174,0.818740769407,0.00198702348245,0.0,0.818697825594,-0.574084104692,-0.0119188090248,0.0,-0.00861786219499,0.00847003737917,-0.999926992794,0.0,0.658655214994,0.256825109412,0.3033625794,1.0,-0.01116,-0.0146674285714,0.559
0.462647810267,0.530001055269,-0.124088769657,-1.38377215849,0.077843680851,1.90430585378,0.155716172815,-0.00781329586731,-0.0604473584892,0.00025553204469,-0.0914845423476,-0.0048359627734,0.038011694437,-0.0135340029812,0.574141878689,0.818741706585,0.00196670639037,0.0,0.818698508945,-0.574082933348,-0.0119282853123,0.0,-0.00863729839435,0.00845883058677,-0.99992691996,0.0,0.658457563687,0.256572599553,0.303363929742,1.0,-0.0115,-0.0151142857143,0.576
0.462516042628,0.528953893952,-0.124089474106,-1.3854266749,0.0777443247314,1.9049265556,0.155496808014,-0.0115792150481,-0.0629048661054,-0.00062667237027,-0.092668843074,-0.00586963571594,0.0455572955305,-0.00928736804494,0.574133755329,0.81874737759,0.00197726625764,0.0,0.818704299085,-0.574074749013,-0.011924768636,0.0,-0.00862844054269,0.00846537156859,-0.99992694108,0.0,0.658261547719,0.256328838746,0.303367770626,1.0,-0.01184,-0.0155611428571,0.593
0.4623931436,0.527920692507,-0.124089721095,-1.38704303071,0.0776417566246,1.90555847259,0.15526330438,-0.00882932654836,-0.0670391951829,-0.000366386102648,-0.101601945087,-0.00565264851929,0.0414532414203,-0.0184789863487,0.574103479046,0.818768516783,0.00201449074773,0.0,0.81872598656,-0.574044385339,-0.0118974574501,0.0,-0.00858502177517,0.00847985090219,-0.999927192114,0.0,0.658073677627,0.256095786139,0.303380646525,1.0,-0.01216,-0.0159817142857,0.609
0.46225077877,0.526754853377,-0.124089723049,-1.38880217505,0.0775285233452,1.90622709832,0.155016374051,-0.0064303673654,-0.0638965798853,-0.00266371153701,-0.108554767013,-0.00773621826428,0.0377850519654,-0.00625276140729,0.574082413639,0.818783135804,0.00207503606754,0.0,0.818741453576,-0.574023136237,-0.0118582529477,0.0,-0.00851838282768,0.0085066963002,-0.99992753401,0.0,0.65786820641,0.255835665648,0.303421791858,1.0,-0.0125,-0.0164285714286,0.626
0.462083831803,0.525458075354,-0.124088163217,-1.39085785538,0.0774052187817,1.9069700677,0.154758200387,-0.00970998707401,-0.0627563262019,0.000612619922587,-0.107111065777,-0.00479034522077,0.0363873976595,-0.0101508275913,0.574084085006,0.818781996401,0.00206218653156,0.0,0.818740070155,-0.574024782625,-0.011874062346,0.0,-0.00853868669372,0.0085052687155,-0.999927372979,0.0,0.657617314485,0.255530267483,0.303420037125,1.0,-0.01288,-0.016928,0.645
0.461924146741,0.524273994067,-0.124100696526,-1.39272555141,0.077285928331,1.9076412753,0.15448824086,-0.00819732268632,-0.0615606464478,-0.00244279321971,-0.113890879498,-0.00854657159218,0.0378583140384,-0.00844975724941,0.574070757852,0.818791381791,0.00204572371993,0.0,0.818749296155,-0.574011578412,-0.0118762281915,0.0,-0.00855004880483,0.00849289368864,-0.999927381074,0.0,0.657393738847,0.255238108268,0.303422357223,1.0,-0.01322,-0.0173748571429,0.662
0.461790311957,0.523287106999,-0.124093600231,-1.39430409797,0.0771895868746,1.90823080411,0.154278871471,-0.0128793127718,-0.0753879599293,0.00131964308201,-0.117949011653,-0.00585527656545,0.041336139348,-0.0167423871686,0.574062643824,0.818797074742,0.00204407938996,0.0,0.818754917571,-0.57400342228,-0.0118828896562,0.0,-0.00855653146451,0.00849528666536,-0.999927305295,0.0,0.657203820697,0.255004284291,0.303415698093,1.0,-0.0135,-0.0177428571429,0.676
0.461630398713,0.522056357502,-0.124096716512,-1.39625573496,0.0770715935157,1.90898471914,0.154007031512,-0.00999511398423,-0.0761158575082,3.97497568466e-05,-0.120511731065,-0.0091949489636,0.0500547043217,-0.0236986776242,0.574046069576,0.81880863076,0.00206956476763,0.0,0.818766825017,-0.573986766472,-0.0118669738504,0.0,-0.00852904203123,0.00850684445366,-0.999927441887,0.0,0.656974935362,0.254713958462,0.303417171308,1.0,-0.01384,-0.0181897142857,0.693
0.461473577374,0.520882528415,-0.124101809822,-1.39814630926,0.0769553350001,1.9097068938,0.153758976928,-0.00831983573303,-0.0757773317383,-0.000236828616204,-0.120648476199,-0.00917108329398,0.0410508031349,-0.0131461609256,0.574039608983,0.818813164577,0.00206778511751,0.0,0.818771365584,-0.57398034368,-0.0118643529182,0.0,-0.00852798453632,0.00850381547918,-0.999927476671,0.0,0.656737345545,0.254409714751,0.30340283518,1.0,-0.01418,-0.0186365714286,0.71
0.461295017355,0.519576923776,-0.124099995995,-1.40019328861,0.0768192085304,1.91044376204,0.153484579013,-0.00727072064701,-0.0818046886846,0.00158134290874,-0.122034324272,-0.00708848964133,0.0457813004851,-0.0177643397947,0.574036993219,0.818815017257,0.00206029878784,0.0,0.818773157264,-0.573977794728,-0.0118640213897,0.0,-0.00853203739237,0.00849746811205,-0.999927496058,0.0,0.65650197479,0.254115220423,0.303411015226,1.0,-0.0145,-0.0190571428571,0.726
0.461122489937,0.518231572747,-0.124101194629,-1.40229462118,0.0766874072666,1.9111886788,0.153207538814,-0.0129877795413,-0.0734013971898,0.00194076720684,-0.126191018582,-0.0135817381894,0.0398511399772,-0.017156301314,0.574027985797,0.818821359252,0.00204940370929,0.0,0.818779317301,-0.573968792517,-0.0118744127585,0.0,-0.00854689357701,0.00849441815212,-0.999927395099,0.0,0.656240391535,0.253798831136,0.303419752858,1.0,-0.01484,-0.019504,0.743
0.460941001063,0.516866089285,-0.124108966877,-1.40441379997,0.0765476648483,1.91196213624,0.152917638494,-0.0121628765049,-0.0778154085996,0.00117986269293,-0.127305511191,-0.00321689706523,0.0442484074322,-0.0161818370141,0.574019013398,0.81882762553,0.00205884148598,0.0,0.818785788892,-0.57395986514,-0.0118596803036,0.0,-0.00852950570027,0.0084935956654,-0.999927550558,0.0,0.655984244872,0.25347157429,0.303436374233,1.0,-0.01518,-0.0199508571429,0.76
0.460754277475,0.515509181199,-0.124117437474,-1.40659330486,0.0764083977412,1.91279875817,0.152605350603,-0.0151474355859,-0.0811905101966,-0.000184330232143,-0.127116243615,-0.00616851520936,0.0505253543301,-0.019464323971,0.573999876511,0.818841031093,0.00206263552832,0.0,0.81879934028,-0.573940811453,-0.0118461895714,0.0,-0.00851647934295,0.00848875939587,-0.999927702658,0.0,0.655726847091,0.253137574832,0.303423417174,1.0,-0.01552,-0.0203977142857,0.777
0.460575199175,0.514117746434,-0.124115263262,-1.40883337178,0.0762785861297,1.91358963677,0.152314168392,-0.00948124383028,-0.0847116155105,0.000887590131058,-0.135425955094,-0.0123702849351,0.0404894095904,-0.0141104333409,0.573989235524,0.818848602017,0.00201776572646,0.0,0.818806157899,-0.573930185421,-0.0118896993106,0.0,-0.00857797215387,0.00847688162614,-0.999927277792,0.0,0.655441120511,0.252806602028,0.303401130845,1.0,-0.01586,-0.0208445714286,0.794
0.460384246171,0.512781119069,-0.124113190623,-1.41096500941,0.0761509945667,1.91432927977,0.152009049284,-0.0103019403812,-0.0866858735687,0.000618282453739,-0.136646101552,-0.0024587076332,0.0414517999855,-0.0152841308719,0.573971387599,0.818861219765,0.00197379928832,0.0,0.818818057024,-0.573912377414,-0.0119297712853,0.0,-0.00863620549784,0.00846369282892,-0.999926888256,0.0,0.655171570489,0.252476905766,0.303387159342,1.0,-0.01618,-0.0212651428571,0.81
0.460183606585,0.511359848185,-0.124120989026,-1.41326516901,0.07600711478,1.91519007524,0.151671140853,-0.012648093718,-0.0892008048425,-0.000618267771988,-0.135476632228,-0.0090179801651,0.0533224361014,-0.0224372908823,0.573946120665,0.81887898009,0.00195280337001,0.0,0.818835574611,-0.57388723136,-0.0119370990533,0.0,-0.00865451720489,0.00845043926037,-0.999926842028,0.0,0.654893044287,0.252121815479,0.303362691556,1.0,-0.01652,-0.021712,0.827
0.459977695331,0.50989275744,-0.124124193965,-1.4155938211,0.0758712365237,1.91607057921,0.151352768069,-0.0153593727559,-0.0849113109978,0.000135591137791,-0.131180861942,-0.00593213774562,0.0503298633332,-0.0166433737217,0.573941279783,0.818882332049,0.00196990366991,0.0,0.818839086364,-0.573882258014,-0.0119353039599,0.0,-0.00864328318422,0.00846336069655,-0.999926829914,0.0,0.654611803369,0.251765849155,0.303357816996,1.0,-0.01686,-0.0221588571429,0.844
0.45976609882,0.508381854985,-0.124130182423,-1.41796984635,0.0757176866125,1.91690942815,0.151028320605,-0.0159055961373,-0.082125075524,3.97172110719e-05,-0.13604101046,-0.00426469937577,0.0465382483638,-0.014193554874,0.573934790302,0.818886945107,0.00194281112837,0.0,0.818843344626,-0.573875881102,-0.011949767837,0.0,-0.00867074336936,0.00844940813731,-0.99992671017,0.0,0.654314110671,0.251394001369,0.303356975373,1.0,-0.0172,-0.0226057142857,0.861
0.459544819805,0.50675962054,-0.124132026736,-1.42051818776,0.0755579363103,1.9178409951,0.150674217954,-0.0163370950707,-0.0882748606817,-0.000575558898656,-0.137982632367,-0.0047875284098,0.0557885913879,-0.0222316426436,0.573924298246,0.818894288972,0.00194686248211,0.0,0.818850748129,-0.573865379985,-0.0119467503895,0.0,-0.00866605553607,0.00845088283927,-0.999926738347,0.0,0.653982983305,0.250974211517,0.303361693325,1.0,-0.01758,-0.0231051428571,0.88
0.459334625203,0.505249882892,-0.124143335675,-1.42283673909,0.0754081255298,1.91872365287,0.150353668469,-0.0123281231348,-0.0917771814871,0.000871106987403,-0.144741198184,-0.00985449838735,0.0471039930421,-0.0223026751621,0.573913001606,0.818902077835,0.00200010162295,0.0,0.818859315902,-0.573853946812,-0.0119086267225,0.0,-0.0086043986182,0.00847248067553,-0.99992708804,0.0,0.653720903524,0.250641014285,0.303387892784,1.0,-0.01788,-0.0234994285714,0.895
0.459109543097,0.503588653362,-0.124148708925,-1.4253080677,0.0752530553707,1.91967246112,0.150004650499,-0.0116861905083,-0.0994047117589,-0.000888222830947,-0.141587309608,-0.00669603670702,0.0500801454218,-0.0236094323635,0.573900627421,0.818910460673,0.0021152178372,0.0,0.818869264522,-0.573841174998,-0.0118397803761,0.0,-0.00848208421935,0.00852710843426,-0.999927668719,0.0,0.653426593738,0.250258741179,0.303454460919,1.0,-0.01822,-0.0239462857143,0.912
0.458887683238,0.501996709692,-0.124152115788,-1.4276737131,0.0750971253339,1.92054449239,0.149675495798,-0.0137468130067,-0.101298433136,0.000801985482588,-0.150548782222,-0.0119700897877,0.0524081829603,-0.0152962746952,0.573894008991,0.818914891462,0.00219405743386,0.0,0.818874790971,-0.573834319318,-0.0117897237638,0.0,-0.00839591654972,0.00856287502013,-0.999928090293,0.0,0.653138274678,0.249886171136,0.303515592632,1.0,-0.01854,-0.0243668571429,0.928
0.458645092514,0.500190471479,-0.124155180552,-1.43040811266,0.074923413085,1.9215039701,0.149296524271,-0.0126042997242,-0.0919088341151,-0.000490787127814,-0.149082342397,-0.00923607852855,0.0568416939233,-0.0187445811754,0.57387668694,0.818926959582,0.00222035084735,0.0,0.818887144646,-0.573816840433,-0.0117823966375,0.0,-0.00837500879193,0.00858002470411,-0.999928118618,0.0,0.652789184678,0.249462585626,0.303557735772,1.0,-0.0189,-0.02484,0.946
0.458380239965,0.498420568174,-0.124156060532,-1.43317508976,0.074760313113,1.92253594708,0.148894525206,-0.0164297169844,-0.0936866133817,-0.000332446947746,-0.148995036838,-0.00942362683199,0.0569262923041,-0.024214084753,0.573861866388,0.81893725547,0.00225317754299,0.0,0.818897765133,-0.573801790877,-0.0117771791152,0.0,-0.00835205423541,0.00860376169134,-0.999928106653,0.0,0.652448965194,0.249028036453,0.303564647589,1.0,-0.01926,-0.0253131428571,0.964
0.458137730757,0.496846481677,-0.124153637698,-1.43569311378,0.0746052598743,1.92343826995,0.148523244286,-0.0100875073074,-0.0904378422473,0.000256189521965,-0.156153990437,-0.00532654356958,0.0561009219252,-0.0204253408949,0.573840255987,0.818952492714,0.00221860047667,0.0,0.818912442043,-0.573780202692,-0.0118083939471,0.0,-0.00839768630819,0.00859313678416,-0.999927815827,0.0,0.65212985232,0.248629668254,0.303541590907,1.0,-0.01958,-0.0257337142857,0.98
0.457873234766,0.495165460699,-0.124151129451,-1.43841274826,0.0744323351281,1.92437088101,0.148130990321,-0.0177222431857,-0.0927771769426,0.000592540245965,-0.166478300134,-0.0145735936781,0.0553439579852,-0.0190749130813,0.57382391692,0.818964182353,0.0021277439672,0.0,0.818922811147,-0.573764083936,-0.011872332107,0.0,-0.00850235538512,0.00855525089872,-0.999927256172,0.0,0.651775981577,0.248193925781,0.303499145716,1.0,-0.01992,-0.0261805714286,0.997
0.457571305541,0.493274834006,-0.124190943332,-1.44137841729,0.0742449349008,1.92544354738,0.147710841763,-0.0211542287995,-0.135986505767,-0.00430669681498,-0.201869444148,-0.010717760358,0.07776069675,-0.0320421679272,0.573854020533,0.81894312222,0.00211484952073,0.0,0.81890170733,-0.573794360352,-0.0118647655343,0.0,-0.00850324311686,0.00854066172201,-0.99992737334,0.0,0.651414121826,0.24768979734,0.303498212037,1.0,-0.02908,-0.0382194285714,1.014
0.457271279525,0.490616342017,-0.12425841136,-1.44544714216,0.074025099627,1.92701230397,0.147109644871,-0.0153231979561,-0.175734655196,-0.00338875778239,-0.286503833147,-0.0172735189395,0.104997997962,-0.0408105004233,0.573801155367,0.8189798031,0.00225013646983,0.0,0.818940185626,-0.573741008837,-0.0117887253808,0.0,-0.00836389345383,0.00860727713886,-0.99992797744,0.0,0.650908986653,0.247078349348,0.303549308817,1.0,-0.04028,-0.0529394285714,1.03
0.456731828898,0.486895564743,-0.12428660986,-1.45136665127,0.0737067453092,1.92923582055,0.146227603352,-0.036843782174,-0.247876923238,-0.00482341017241,-0.386617113301,-0.0235693834538,0.144759525643,-0.0560378072295,0.573750424612,0.819015239044,0.00228809351969,0.0,0.818975726891,-0.573689737594,-0.0118148484374,0.0,-0.00836404618018,0.00865283395506,-0.999927582976,0.0,0.650163018605,0.246157659522,0.303511693935,1.0,-0.05218,-0.0685794285714,1.047
0.456112412516,0.482749010555,-0.124415728618,-1.45789985292,0.073307142152,1.93160684612,0.145219562029,-0.0462464443573,-0.289295000843,-0.0134784220497,-0.462244864882,-0.0267730062216,0.163415325642,-0.0796073871133,0.57373933218,0.819023113013,0.00225076909392,0.0,0.81898341078,-0.573679095211,-0.0117989612008,0.0,-0.00837256395346,0.00861303649682,-0.999927855285,0.0,0.649347382466,0.245056545054,0.303489856252,1.0,-0.06268,-0.0823794285714,1.062
0.455234230294,0.477082739247,-0.124565910542,-1.46688346272,0.0727785002479,1.93471412241,0.143893897244,-0.0552523555545,-0.356137939564,-0.00913943619188,-0.554524084314,-0.0293089211556,0.194792240694,-0.0778733049798,0.573776105672,0.818997842694,0.00206424907164,0.0,0.818955552471,-0.573716444,-0.0119160337988,0.0,-0.00857507743456,0.00852782789414,-0.999926869425,0.0,0.648181156923,0.243535512724,0.303414715187,1.0,-0.07458,-0.0980194285714,1.079
0.453952708684,0.469126981342,-0.124721259096,-1.47915220779,0.0720781430563,1.93915860044,0.14207737332,-0.0734137271494,-0.431605828279,-0.00741196540448,-0.638520493537,-0.0401194164679,0.255234887662,-0.101652166473,0.57385138374,0.818944781021,0.00218675996465,0.0,0.818903748408,-0.573790876179,-0.0118923571156,0.0,-0.00848460423265,0.00861535739095,-0.999926890882,0.0,0.64661927577,0.241456386661,0.303465420417,1.0,-0.08858,-0.116419428571,1.099
0.452666139925,0.461364214671,-0.124787569568,-1.49109394878,0.0713230423656,1.94352055735,0.140139913472,-0.0856138440542,-0.467182980589,-0.00094803827748,-0.740026595438,-0.0422752617425,0.255268262445,-0.115848198128,0.573724341738,0.81903338174,0.00233370834306,0.0,0.818994204648,-0.573663214021,-0.0118218667756,0.0,-0.00834390154102,0.00869395372781,-0.999927394602,0.0,0.645075574138,0.239451949453,0.303513961536,1.0,-0.10048,-0.132059428571,1.116
0.451229905386,0.453219050239,-0.124908782981,-1.50378154098,0.0704832326473,1.94783801071,0.138215849088,-0.0934665531931,-0.526907792416,-0.0076176160943,-0.799518487401,-0.0586938975144,0.277726528091,-0.125353944752,0.57376881298,0.8190028183,0.00211654661333,0.0,0.818960719845,-0.57370844855,-0.0119458073937,0.0,-0.00856953423857,0.00858766560557,-0.999926404833,0.0,0.643370915757,0.237224567248,0.303453922534,1.0,-0.11168,-0.146779428571,1.132
0.449537821146,0.443520318592,-0.125048710051,-1.51832495593,0.069517861924,1.95310951425,0.135953050594,-0.104049095579,-0.581530215389,-0.0022303305052,-0.880457935435,-0.0579666544206,0.312445909581,-0.132304916628,0.573797342258,0.818981919303,0.00244392599256,0.0,0.818944531936,-0.573736167489,-0.0117222279733,0.0,-0.00819828187378,0.00872779112148,-0.999928304348,0.0,0.641467027681,0.234672326921,0.303640008573,1.0,-0.12358,-0.162419428571,1.149
0.447985033198,0.434971493715,-0.125136074121,-1.53137085427,0.0686683329145,1.95756283106,0.133848797684,-0.117446205098,-0.627537966574,-0.00762828393075,-0.921197778132,-0.057292718632,0.331402868962,-0.152232200118,0.573752820377,0.819013218396,0.0024075099308,0.0,0.818974912684,-0.573691314867,-0.0117946827439,0.0,-0.00827899293252,0.00873909097969,-0.999927540657,0.0,0.639666652899,0.23237211328,0.303660195266,1.0,-0.13338,-0.175299428571,1.163
0.445884378029,0.423770941293,-0.125252693169,-1.54819184767,0.0674963851442,1.96350392993,0.131050460004,-0.129821647786,-0.666193641542,-0.00455168840359,-1.01993922453,-0.0726983052934,0.350581352439,-0.176041764165,0.573667399759,0.819072348828,0.00263604650763,0.0,0.819037378422,-0.573605474687,-0.0116309526194,0.0,-0.0080146952805,0.00883148900044,-0.999928882202,0.0,0.637372455297,0.229353137778,0.3037974667,1.0,-0.14528,-0.190939428571,1.18
0.443393199885,0.411027715904,-0.125411964956,-1.56722263727,0.0661463273089,1.97023211099,0.127874939122,-0.140052782101,-0.734281753986,-0.00503948174984,-1.08242565843,-0.0730103133968,0.382019881288,-0.182351420184,0.573650705745,0.819082963334,0.00295192746005,0.0,0.819052688149,-0.573588454374,-0.0113897298659,0.0,-0.00763608919931,0.00895168304486,-0.99993077636,0.0,0.634596155091,0.225654385713,0.303970206946,1.0,-0.15858,-0.208419428571,1.199
0.440731694989,0.398261613147,-0.125548886878,-1.58641771321,0.0648806493078,1.97671696585,0.124647974571,-0.163409111844,-0.773886802056,-0.00937992265556,-1.13463828625,-0.0740760183484,0.394839421271,-0.200844369145,0.573705177452,0.819044580675,0.00301515068929,0.0,0.81901428856,-0.57364174612,-0.0114668716216,0.0,-0.0076624102779,0.00904822932164,-0.999929706037,0.0,0.632002553639,0.222266640911,0.304008530647,1.0,-0.16978,-0.223139428571,1.215
0.437817015981,0.384793614205,-0.125678823627,-1.60675169082,0.0633528590088,1.98352990995,0.121115638641,-0.170671232102,-0.833730746127,-0.0082372104842,-1.2271818615,-0.09269102008,0.388677189834,-0.221379358863,0.573651575925,0.819082537008,0.002900673689,0.0,0.819051001081,-0.573588785293,-0.0114939077897,0.0,-0.00775081448188,0.00896947069596,-0.999929734267,0.0,0.629030751661,0.218396615952,0.303968347392,1.0,-0.18168,-0.238779428571,1.232
0.434601208307,0.370488701498,-0.125828000233,-1.62799585797,0.0617731543962,1.99063053932,0.117280012355,-0.199334960884,-0.855162182476,-0.00866932067672,-1.27793050056,-0.0979591347292,0.421915161415,-0.231991969402,0.573596316877,0.819120921565,0.00298797952499,0.0,0.819090580755,-0.573533339387,-0.0114401062664,0.0,-0.00765727193895,0.00900960216626,-0.999930094184,0.0,0.62588674179,0.214266285391,0.304031118657,1.0,-0.19358,-0.254419428571,1.249
0.431264443164,0.356454930533,-0.12600649658,-1.64878978432,0.0601622463561,1.99747492603,0.113540457779,-0.21274884159,-0.875281428673,-0.00914173721666,-1.32455348053,-0.0974317903425,0.419592043119,-0.245465806689,0.573676540523,0.81906474839,0.00298524694802,0.0,0.819034716801,-0.573613966786,-0.0113972226297,0.0,-0.00762283070493,0.00898351309888,-0.999930592063,0.0,0.622757778822,0.210096283437,0.304055024518,1.0,-0.20478,-0.269139428571,1.265
0.427318298726,0.34082241661,-0.126215047074,-1.6717474231,0.0584572892507,2.00489836848,0.109201879645,-0.233351079705,-0.937916332387,-0.00171719601747,-1.3537775928,-0.104997391217,0.441480723542,-0.248358955365,0.573800821497,0.818977444761,0.00305108557304,0.0,0.818947757029,-0.573737434243,-0.0114313038586,0.0,-0.00761160456303,0.00905814562875,-0.999930004287,0.0,0.619239589455,0.205360187868,0.304101849395,1.0,-0.21668,-0.284779428571,1.282
0.4231432811,0.324587372466,-0.126376514732,-1.69553852771,0.0565283007764,2.01255916091,0.104577679075,-0.249824198182,-0.973530001781,-0.0158555872629,-1.4039839113,-0.122063602392,0.469080132876,-0.276107070753,0.573750649859,0.819012572414,0.00305694547331,0.0,0.818983240074,-0.573687584834,-0.0113909783023,0.0,-0.00757576863317,0.0090393423473,-0.999930446591,0.0,0.61549687952,0.200445920709,0.30410224499,1.0,-0.22858,-0.300419428571,1.299
0.418681725369,0.307672678878,-0.12653142063,-1.71997306959,0.0545439039586,2.0202837225,0.0996582733352,-0.273070547545,-1.03858233319,-0.0153007749333,-1.44731574931,-0.123569151078,0.483258162426,-0.294749123971,0.573641562612,0.81908853751,0.00317368315787,0.0,0.819060646845,-0.573578094994,-0.0113389873953,0.0,-0.00746742323373,0.00910412871075,-0.999930673812,0.0,0.611552035675,0.19533785973,0.304172356728,1.0,-0.24048,-0.316059428571,1.316
0.413487253994,0.289062801667,-0.126709459156,-1.74665160225,0.0523174420207,2.02849159716,0.0941327620072,-0.298540947616,-1.07152201795,-0.0180239896299,-1.50053943078,-0.122962602454,0.490851413056,-0.316465059134,0.57358685366,0.819126627738,0.00323047065506,0.0,0.819099297478,-0.573523021771,-0.0113327521178,0.0,-0.00743035279069,0.00914656997443,-0.999930562647,0.0,0.607140541157,0.189595401819,0.304233100546,1.0,-0.25308,-0.332619428571,1.334
0.408167470652,0.270985468647,-0.126897422468,-1.77247121215,0.0501525943827,2.03630455569,0.0885536015445,-0.326055958848,-1.09749825807,-0.0181590200952,-1.53216856614,-0.134076957991,0.481892228292,-0.34143526464,0.573533813448,0.819163674617,0.00325360126255,0.0,0.819136130921,-0.573469292025,-0.0113893381948,0.0,-0.00746403542038,0.00919748999748,-0.999929844716,0.0,0.602774904483,0.183905553251,0.304234863034,1.0,-0.26498,-0.348259428571,1.351
0.40267916734,0.253435028487,-0.127121524774,-1.79726295349,0.0479455931863,2.04367693972,0.0830959680209,-0.353083586295,-1.12436948792,-0.00796429164995,-1.55578328176,-0.141504912467,0.478850669721,-0.334987967678,0.573643237634,0.819086947107,0.00327961845659,0.0,0.819059930185,-0.573578863695,-0.011351862799,0.0,-0.00741718562015,0.00919830048909,-0.999930185876,0.0,0.598522020086,0.178227619155,0.304262939361,1.0,-0.27618,-0.362979428571,1.367
0.396844139431,0.235343770273,-0.12732818306,-1.82262752556,0.0456963998029,2.05095493844,0.0772464002591,-0.37019416907,-1.1470045679,-0.0115030015046,-1.59320396591,-0.129657133961,0.462977968315,-0.364729075226,0.573645381842,0.8190855709,0.0032481280208,0.0,0.81905754427,-0.573580354724,-0.0114482640453,0.0,-0.00751419014049,0.00922782522415,-0.999929189587,0.0,0.594029535633,0.172358991535,0.3042647478,1.0,-0.28738,-0.377699428571,1.383
0.391079763293,0.217994578573,-0.127498075808,-1.8468012439,0.0434699687907,2.05780504906,0.0714481869226,-0.39448454177,-1.1571444918,-0.0131735037962,-1.57509743317,-0.14549292362,0.456435125383,-0.390377061404,0.573523872766,0.819170769316,0.00321946690403,0.0,0.819141996255,-0.573458488738,-0.0115108021895,0.0,-0.00758322806031,0.00923909827826,-0.999928564306,0.0,0.58964823883,0.166716309686,0.304240145351,1.0,-0.29788,-0.391499428571,1.398
0.384010764795,0.197715297783,-0.127746812012,-1.87463240435,0.0407955042369,2.06540764731,0.0645405620102,-0.428156561403,-1.19005082849,-0.00769560059912,-1.5977475295,-0.153687023153,0.443803486866,-0.408912751409,0.57347943275,0.819202022171,0.00318339195788,0.0,0.819172630913,-0.573413983153,-0.0115477958538,0.0,-0.00763472324459,0.00923034869391,-0.999928253258,0.0,0.584493939653,0.159999417852,0.304268201712,1.0,-0.30978,-0.407139428571,1.415
0.375369503096,0.174370490292,-0.128193217271,-1.90619517718,0.0377541011652,2.07391416125,0.0562764108621,-0.465019644743,-1.24440217899,-0.0258787198013,-1.69877639528,-0.163689139157,0.463318353683,-0.436684631836,0.573629914435,0.819095956177,0.00335897927859,0.0,0.81906870713,-0.573563747035,-0.0114816370204,0.0,-0.00747811768937,0.00933762505477,-0.999928440697,0.0,0.578567423619,0.152049898087,0.304357980492,1.0,-0.32308,-0.424619428571,1.434
0.367127494364,0.153002114884,-0.128499411741,-1.9347668607,0.0348037523741,2.08127944762,0.0484415583929,-0.491522934977,-1.26515700445,-0.0190444694092,-1.71484228771,-0.186005523104,0.447582656208,-0.474725304899,0.573580402493,0.819130490567,0.00339237389014,0.0,0.819103907533,-0.573514436931,-0.0114335557392,0.0,-0.00742014158086,0.00933694997729,-0.999928878903,0.0,0.573015606078,0.14475736057,0.304412921172,1.0,-0.33498,-0.440259428571,1.451
0.358864178216,0.132434002492,-0.128817130644,-1.96193421798,0.0319448205913,2.08802042381,0.0406995338593,-0.531055413348,-1.30920960913,-0.023728996603,-1.73056714893,-0.17958062425,0.412234047079,-0.488478661756,0.573569066326,0.819138262536,0.0034321864434,0.0,0.819112186507,-0.573502977908,-0.0114152155597,0.0,-0.00738241282837,0.00935894046127,-0.999928952583,0.0,0.567596760342,0.137671579004,0.30446543794,1.0,-0.34618,-0.454979428571,1.467
0.349391587103,0.110159016226,-0.129263878683,-1.99103601834,0.028757532215,2.09501909205,0.0319229205116,-0.572946725203,-1.33036116492,-0.0237349476392,-1.71681229507,-0.192557425901,0.405602206812,-0.52798673426,0.573624405777,0.819099372574,0.00346494550431,0.0,0.819074087795,-0.573558686645,-0.0113498272537,0.0,-0.00730942751871,0.00934876498497,-0.999929583952,0.0,0.561679355886,0.129791063106,0.304504862008,1.0,-0.35808,-0.470619428571,1.484
0.339944440621,0.0888055596861,-0.129587310478,-2.01858800544,0.0256834104912,2.1012950036,0.023197926405,-0.596101380255,-1.34671442561,-0.0137342764598,-1.72543096276,-0.179703277836,0.376867295555,-0.549264464971,0.573545406837,0.819154695734,0.00346376297122,0.0,0.81912918017,-0.573479426169,-0.0113789655528,0.0,-0.00733487748321,0.00936380303253,-0.99992925688,0.0,0.555890923635,0.122248338852,0.304525694777,1.0,-0.36928,-0.485339428571,1.5
0.32863045295,0.0646120969956,-0.13001609403,-2.04960369614,0.0221819449805,2.10804519392,0.0128215762274,-0.646077554605,-1.31636002529,-0.0213290690949,-1.73254610588,-0.191325322075,0.353181346597,-0.584539518851,0.573502580963,0.819185049103,0.00337518229062,0.0,0.819157487069,-0.573435729175,-0.0115422175044,0.0,-0.00751990667672,0.0093844780527,-0.999927688673,0.0,0.549202845707,0.113517332568,0.304446405327,1.0,-0.36998,-0.486259428571,1.518
0.317929167654,0.0432251107807,-0.130482623079,-2.07652764861,0.0189616006563,2.1134595008,0.00341920375821,-0.6836879642,-1.33674452414,-0.0174473950044,-1.6947925075,-0.198739163477,0.315487185672,-0.593855194669,0.57380591052,0.818973297559,0.00320341053373,0.0,0.818942921703,-0.573738850136,-0.0117034071114,0.0,-0.0077470059924,0.00933907436175,-0.999926380084,0.0,0.542879614378,0.105044996172,0.304406032515,1.0,-0.36998,-0.486259428571,1.535
0.306262925612,0.0207343165199,-0.130839663242,-2.10423256186,0.0155865080897,2.11880013711,-0.00690297314937,-0.70422152841,-1.31120371688,-0.0227815197766,-1.6512265343,-0.205714572585,0.296963646266,-0.632031380385,0.573867919974,0.818929532375,0.00328303675354,0.0,0.818899970624,-0.573800318923,-0.0116952561639,0.0,-0.00769393125709,0.00940019201218,-0.999926217184,0.0,0.536964540043,0.0972283887515,0.304465273581,1.0,-0.36998,-0.486259428571,1.551
0.294833378117,-0.000221935243871,-0.131276614505,-2.12960359158,0.0124033059802,2.12341003694,-0.0169159147689,-0.728033878988,-1.28398199981,-0.0233142294336,-1.59058284058,-0.197228894209,0.263112626305,-0.625957295411,0.574085347175,0.818776724614,0.00338175847781,0.0,0.818748236583,-0.574017135274,-0.0116790584095,0.0,-0.00762150061495,0.0094737674913,-0.999926077497,0.0,0.530708463676,0.088826049898,0.304538099164,1.0,-0.36998,-0.486259428571,1.568
0.281714854861,-0.0234595929159,-0.131550804088,-2.15738541156,0.00881715250582,2.12814883019,-0.0285557990357,-0.74888368748,-1.28163737733,-0.0191534857202,-1.52988115059,-0.205657235106,0.237725413775,-0.65973010299,0.573956157786,0.818866669782,0.00352887522249,0.0,0.818840156991,-0.573887579085,-0.0116013263303,0.0,-0.00747490571392,0.00954842126365,-0.999926474015,0.0,0.524431155991,0.0806327597974,0.304612363572,1.0,-0.36998,-0.486259428571,1.585
0.269533962321,-0.0438414920719,-0.131952704007,-2.18148474646,0.00561410761018,2.1319259111,-0.0391762591254,-0.774258464457,-1.2395105601,-0.0292265040928,-1.50536493381,-0.200152181666,0.230223015352,-0.682833397686,0.574103855629,0.818763016044,0.00355435098348,0.0,0.818736589868,-0.574034864806,-0.0116239967174,0.0,-0.00747712118229,0.0095836430515,-0.999926120493,0.0,0.518519043769,0.0727677365974,0.304618142406,1.0,-0.36998,-0.486259428571,1.601
0.256332519202,-0.0653197030979,-0.132204600549,-2.20636894509,0.0022438979551,2.13550882823,-0.0508182871354,-0.785213586542,-1.24046786248,-0.01745380246,-1.47116385764,-0.203404439958,0.199796278348,-0.704798876532,0.573984508844,0.818846112439,0.00368437942129,0.0,0.818821295363,-0.573915034124,-0.0115744014017,0.0,-0.00736327461616,0.00966056142981,-0.999926225149,0.0,0.512232823786,0.0645969402228,0.304682313881,1.0,-0.36998,-0.486259428571,1.618
0.241775937801,-0.0876937083586,-0.13263064774,-2.23201681689,-0.00133532579746,2.13881223337,-0.06361802792,-0.821580486582,-1.23336179015,-0.0266004666659,-1.44089062462,-0.2032941471,0.18359990864,-0.72034253387,0.574000371526,0.818834875857,0.00371031921823,0.0,0.818809995919,-0.573930290826,-0.011617175059,0.0,-0.00738322565923,0.009706496144,-0.999925633191,0.0,0.505574909298,0.0558143403051,0.304681440528,1.0,-0.36998,-0.486259428571,1.636
0.228589694517,-0.107379479742,-0.132850767594,-2.25409226285,-0.0044843847317,2.14125791223,-0.0752703988288,-0.83958210589,-1.22709342134,-0.0110855732475,-1.37791516725,-0.20314295122,0.137533318605,-0.73821694794,0.573799688468,0.818975533881,0.00370665877209,0.0,0.818950329694,-0.573729284629,-0.011653855815,0.0,-0.00741774691684,0.00972273545237,-0.999925219927,0.0,0.499273886537,0.0476959462045,0.304700294687,1.0,-0.36998,-0.486259428571,1.653
0.214835797194,-0.12679064317,-0.133250880828,-2.27573557918,-0.00769652990428,2.14342613808,-0.0873048859757,-0.857745768438,-1.20393760999,-0.019459218665,-1.34336755415,-0.190024367189,0.117922938458,-0.764949947809,0.573862056972,0.818931813604,0.00371094833285,0.0,0.818906357498,-0.573791227567,-0.0116940889982,0.0,-0.00744749529976,0.00974990086484,-0.999924734291,0.0,0.493714660036,0.0403743314397,0.304698361336,1.0,-0.36998,-0.486259428571,1.668
0.200761949511,-0.145979123086,-0.133531607076,-2.29675915235,-0.0108522530926,2.14524155195,-0.0997827754374,-0.892112023071,-1.21210526272,-0.0155270580971,-1.30825054601,-0.209922709022,0.131788793435,-0.786956711286,0.573685086495,0.819055808688,0.00370819211455,0.0,0.819030047364,-0.573613939373,-0.011729321087,0.0,-0.00748004189546,0.00976624537601,-0.999924331849,0.0,0.487781660985,0.0326793602248,0.304686474997,1.0,-0.36998,-0.486259428571,1.684
0.185219778483,-0.166057950299,-0.134014643755,-2.31844591312,-0.0141403216825,2.14665204657,-0.113379084831,-0.919378427568,-1.18911594624,-0.0256223519682,-1.24350627674,-0.179051771457,0.0702017036497,-0.801266108529,0.573834600538,0.818951351879,0.00364436300339,0.0,0.818923414342,-0.573761911187,-0.0119355609456,0.0,-0.00768379502684,0.00983368137012,-0.99992212597,0.0,0.481463151568,0.024361171882,0.304645309718,1.0,-0.36998,-0.486259428571,1.701
0.170251128127,-0.184755786418,-0.134401651849,-2.33837731867,-0.0172492221391,2.14768876492,-0.126647356975,-0.948182622561,-1.1551552902,-0.031054872653,-1.24414645912,-0.195923066464,0.0469054161797,-0.840763539195,0.573765408083,0.819000185623,0.00356361319694,0.0,0.818970082033,-0.573691621643,-0.0121109410438,0.0,-0.00787459953954,0.00986752160287,-0.999920308174,0.0,0.475484683136,0.0166135390353,0.304586758104,1.0,-0.36998,-0.486259428571,1.717
0.153757713891,-0.204399878551,-0.134923568863,-2.35872717704,-0.0205327662823,2.14854759404,-0.141213044762,-0.971895877863,-1.14281934087,-0.0264759767244,-1.20189544877,-0.182932124087,0.0352223345403,-0.865652078839,0.573854205508,0.818937272748,0.00372035290523,0.0,0.818909470258,-0.573780136469,-0.0120158818618,0.0,-0.00770573728325,0.00994218798404,-0.999920884126,0.0,0.469230612584,0.00828264537005,0.304649753552,1.0,-0.36998,-0.486259428571,1.734
0.134785741992,-0.226000264198,-0.135515507461,-2.38073767807,-0.0241466212993,2.14900668331,-0.157955367124,-1.00343780744,-1.11484821575,-0.0228176951691,-1.15913502244,-0.190069721527,0.0147346853428,-0.886481481715,0.574004270764,0.818831539998,0.00384098300211,0.0,0.818805040842,-0.573929382348,-0.0120048352978,0.0,-0.00762563158934,0.0100360361995,-0.999920560705,0.0,0.462207894178,-0.00100040826351,0.304698697964,1.0,-0.36998,-0.486259428571,1.753
0.11631706923,-0.246107154687,-0.136031500539,-2.4007472495,-0.0275055067844,2.14914752172,-0.174462619552,-1.04672480027,-1.1125690895,-0.0382906486873,-1.09753275371,-0.181219356909,0.0128485629465,-0.9216058126,0.573983338638,0.818845059887,0.00407943194762,0.0,0.818822292236,-0.573908456651,-0.0118272576549,0.0,-0.00734361239694,0.010129173672,-0.999921732536,0.0,0.45560721456,-0.0097295300731,0.304801331339,1.0,-0.36998,-0.486259428571,1.771
0.0994208743269,-0.263530890026,-0.136459402563,-2.41810889734,-0.0305055100449,2.14896178542,-0.189628000772,-1.06487869148,-1.09191004998,-0.0278356963846,-1.05907989346,-0.188139451513,-0.0179588328321,-0.944202128241,0.573894763699,0.818907288581,0.00404966776382,0.0,0.818883726389,-0.573819438114,-0.0118929390376,0.0,-0.0074155791526,0.0101416977268,-0.999921074462,0.0,0.449667899597,-0.0174763224338,0.304748553344,1.0,-0.36998,-0.486259428571,1.787
0.0820587538726,-0.280671161317,-0.136979200423,-2.43470980949,-0.0334315970537,2.14859972371,-0.205223684146,-1.09067285086,-1.05594471882,-0.0310775220974,-1.02898546492,-0.170227669699,-0.0474352661691,-0.99457456103,0.573926252316,0.818884298961,0.00423186944314,0.0,0.818863774655,-0.573851243737,-0.0117309641549,0.0,-0.00717797701314,0.010198229227,-0.999922233359,0.0,0.443810954932,-0.0252655999207,0.304800250674,1.0,-0.36998,-0.486259428571,1.803
0.0631633003238,-0.298576114345,-0.137507475331,-2.45171630208,-0.0364410151275,2.14782858386,-0.222349154832,-1.13434308639,-1.05010851517,-0.0474361260859,-0.969645962319,-0.178009015287,-0.0390586971883,-1.01303448518,0.573879468566,0.818916052854,0.00442728321563,0.0,0.818898327344,-0.57380423801,-0.0116177801706,0.0,-0.00697372707407,0.0102928985004,-0.999922708699,0.0,0.437565837217,-0.033498534787,0.304871014108,1.0,-0.36998,-0.486259428571,1.82
0.0449051616936,-0.31498974219,-0.137986531552,-2.46733425261,-0.0393023716883,2.14677449147,-0.238864453636,-1.14046722465,-1.02938263181,-0.0273860030969,-0.966133962638,-0.167990590713,-0.0779782247692,-1.03354603547,0.573851456601,0.818936100351,0.00434927584508,0.0,0.818916425812,-0.573775110416,-0.0117795205384,0.0,-0.00715130607031,0.0103215871715,-0.999921158722,0.0,0.431592297266,-0.0412368379293,0.30480280781,1.0,-0.36998,-0.486259428571,1.836
0.026114632657,-0.331068605203,-0.138532096949,-2.48213938109,-0.0420573948424,2.1456376371,-0.255936695173,-1.16952202556,-0.977301802583,-0.0264126825641,-0.917574303678,-0.178845295738,-0.077069458724,-1.07041454323,0.573900405491,0.818900794021,0.00453442717703,0.0,0.818884094551,-0.5738243053,-0.0116298425703,0.0,-0.00692185605751,0.0103877416563,-0.999922088331,0.0,0.425720667064,-0.0490354184572,0.304865158346,1.0,-0.36998,-0.486259428571,1.852
0.0056520308725,-0.347640287332,-0.139137371554,-2.49734827068,-0.0449835981233,2.14407212478,-0.274613161075,-1.21129701361,-0.941760487093,-0.0340495970073,-0.876533037576,-0.172735971988,-0.0960511478549,-1.10419881148,0.573928825265,0.818880973025,0.0045169070991,0.0,0.818863351381,-0.573851737681,-0.0117363464309,0.0,-0.00701877093041,0.0104347581064,-0.999920923212,0.0,0.419401392788,-0.0573224001063,0.304830480134,1.0,-0.36998,-0.486259428571,1.869
-0.0178162069411,-0.365701927787,-0.139804238503,-2.51336548126,-0.048047868916,2.14216133717,-0.296162766931,-1.25520281009,-0.92323727693,-0.0477228546154,-0.837749507519,-0.160102760806,-0.106553451398,-1.14804069246,0.573984245178,0.818840692417,0.00477007660861,0.0,0.818826803506,-0.573907046739,-0.0115807799591,0.0,-0.00674536317045,0.0105532550082,-0.999921561366,0.0,0.412420447022,-0.0665673117485,0.304927886372,1.0,-0.36998,-0.486259428571,1.888
-0.0379366181279,-0.380327444924,-0.140245462299,-2.52626648374,-0.0506779786617,2.14028927077,-0.31480597144,-1.27087728738,-0.904947435941,-0.0279517048547,-0.767640266174,-0.152497380052,-0.115832503996,-1.14823366667,0.573802154637,0.818968547242,0.00472788151978,0.0,0.818954124546,-0.573725132587,-0.0115914204254,0.0,-0.00678063484271,0.0105233026926,-0.999921638476,0.0,0.406508285522,-0.0742558049798,0.304935905984,1.0,-0.36998,-0.486259428571,1.904
-0.0599222366073,-0.395349194529,-0.140828416136,-2.53925072252,-0.0532378729021,2.1383171447,-0.33521618004,-1.28907787851,-0.850693863762,-0.0327571060141,-0.738862619378,-0.131232930645,-0.122916310833,-1.22928416726,0.573812951987,0.818959754346,0.00493596946948,0.0,0.818948295867,-0.573735749089,-0.0114771867335,0.0,-0.00656753833225,0.0106282668126,-0.999921950647,0.0,0.400265446713,-0.0825016083761,0.304987149132,1.0,-0.36998,-0.486259428571,1.921
-0.079719469202,-0.408042418987,-0.141294981507,-2.55024161335,-0.0555830534525,2.1362599417,-0.353654650727,-1.33028991237,-0.82733541983,-0.0256073785931,-0.714957192346,-0.158524647647,-0.135095924326,-1.24582758944,0.573724946231,0.819022187282,0.00480517558889,0.0,0.819008033085,-0.573646556772,-0.0116711844463,0.0,-0.00680261755356,0.0106317317704,-0.999920342164,0.0,0.394672675734,-0.0897531746889,0.304932815511,1.0,-0.36998,-0.486259428571,1.936
-0.102621380103,-0.421939655486,-0.141912705647,-2.56179214325,-0.058042330972,2.13413677699,-0.375120549826,-1.35770744502,-0.786145834765,-0.0277590358081,-0.677894557046,-0.143867472944,-0.137304663985,-1.25978701161,0.573717475125,0.819026022856,0.00503780932353,0.0,0.819016301115,-0.573640696016,-0.0113752927206,0.0,-0.00642689204663,0.0106524572692,-0.999922607112,0.0,0.388474563256,-0.0980232859582,0.305042530941,1.0,-0.36998,-0.486259428571,1.953
-0.126038771518,-0.435026825268,-0.14252009803,-2.57295424687,-0.0603950207208,2.13168285236,-0.397133284943,-1.38374646764,-0.734996262754,-0.0309483551869,-0.633522410877,-0.140551650948,-0.139146432467,-1.29923952624,0.573725794411,0.819020565959,0.00497717442488,0.0,0.819007652481,-0.573645281849,-0.0117602164361,0.0,-0.006776856971,0.0108236918485,-0.999918457628,0.0,0.382105880116,-0.106253313116,0.304921644006,1.0,-0.36998,-0.486259428571,1.97
-0.149909626754,-0.447587658087,-0.143137022061,-2.58303450433,-0.0626789072501,2.12940082911,-0.419677215359,-1.41969016154,-0.719315541142,-0.0496957393863,-0.569529620479,-0.125404838204,-0.130436590185,-1.3353456293,0.573743041848,0.819007225171,0.00518014960695,0.0,0.818998487162,-0.573664434246,-0.0114604454054,0.0,-0.00641464349885,0.010818093781,-0.99992090747,0.0,0.375902792402,-0.114535347704,0.305047374228,1.0,-0.36998,-0.486259428571,1.987
-0.177147898145,-0.460577447232,-0.143767754771,-2.59373559701,-0.0651311189517,2.12665887744,-0.445547320071,-1.44083798641,-0.65665832266,-0.0400636956713,-0.548222229377,-0.126361623362,-0.137921194488,-1.37699797343,0.573683828335,0.819049071104,0.00512163367113,0.0,0.819037950515,-0.573602711314,-0.0117265549106,0.0,-0.00666696930647,0.0109223575488,-0.999918123461,0.0,0.36883041675,-0.123738458679,0.304967617898,1.0,-0.36648,-0.481659428572,2.006
-0.197337764993,-0.469355332955,-0.144024604817,-2.60093679428,-0.0666649790359,2.12478137909,-0.464789732575,-1.45398702709,-0.613257385259,-0.0222471584358,-0.489996552011,-0.0932992570757,-0.132391260524,-1.37631821182,0.573585222664,0.819118001991,0.00514179510065,0.0,0.819105934584,-0.573502082254,-0.0118985915406,0.0,-0.00679765120833,0.0110367436511,-0.999915987585,0.0,0.363729907176,-0.130367382608,0.304900075899,1.0,-0.35668,-0.468779428572,2.02
-0.221827618564,-0.479143356081,-0.144254479142,-2.60856000269,-0.0683470927415,2.12265777203,-0.48789227479,-1.44208239603,-0.552544551764,-0.00935195461545,-0.440776140888,-0.0930081490876,-0.130081823288,-1.35048921596,0.573730090619,0.819015623744,0.00528564877383,0.0,0.819006372424,-0.573647991803,-0.0117170956775,0.0,-0.00656450900743,0.0110516431714,-0.999917380789,0.0,0.357769457844,-0.13831831216,0.304980151034,1.0,-0.34478,-0.453139428572,2.037
-0.245901971917,-0.487959356928,-0.14431474843,-2.61551749485,-0.0697760418856,2.12056544293,-0.510780035504,-1.41092212094,-0.495089912174,0.0020572833377,-0.398186654434,-0.0828524274463,-0.129564305622,-1.33985780182,0.573729698326,0.819015377694,0.00536574879047,0.0,0.819006495393,-0.573646193235,-0.01179628727,0.0,-0.00658342605765,0.011162678365,-0.99991602303,0.0,0.35192537958,-0.145924968007,0.304974301298,1.0,-0.33288,-0.437499428572,2.054
-0.269643378491,-0.495666986745,-0.144256236587,-2.6215779474,-0.0709769404648,2.11868601694,-0.533325058809,-1.37095853997,-0.433370936417,0.00206711791773,-0.339945870336,-0.0613985145832,-0.105288158533,-1.31872143478,0.57379767436,0.818967211656,0.00544812190666,0.0,0.818958771001,-0.573712792523,-0.0118705517308,0.0,-0.0065960624134,0.0112732992434,-0.999914698704,0.0,0.346292922495,-0.153306018832,0.304958655249,1.0,-0.32098,-0.421859428572,2.071
-0.294163414111,-0.502774901298,-0.144030799207,-2.62704387763,-0.0719547818212,2.11693174694,-0.556678640948,-1.34039499169,-0.368294169718,0.00304941446986,-0.281712986855,-0.0461385127337,-0.0896383050516,-1.26568839195,0.573848734186,0.818930399776,0.00560156192235,0.0,0.818924004753,-0.573763374399,-0.0118241929622,0.0,-0.00646934455404,0.0113727706475,-0.999914400171,0.0,0.340609770003,-0.160799070219,0.304987036346,1.0,-0.30838,-0.405299428572,2.089
-0.31544869878,-0.508249500513,-0.143756675228,-2.63112977929,-0.0726911093499,2.11558713854,-0.577002898613,-1.31830222434,-0.333547331653,0.0261736796106,-0.244290372009,-0.0424219783559,-0.0718807785964,-1.27048981028,0.573880102943,0.818907513306,0.00573227687118,0.0,0.818903821309,-0.573796084024,-0.0116332413728,0.0,-0.00623751083444,0.0113704881083,-0.999915899193,0.0,0.335779055984,-0.167243269394,0.305058161399,1.0,-0.29718,-0.390579428572,2.105
-0.338755734479,-0.513528831879,-0.143390102492,-2.63514050817,-0.0734140052359,2.11414985022,-0.59925934047,-1.27572063336,-0.269795458267,0.0405583358905,-0.211184090036,-0.0445072863266,-0.0852957934301,-1.23485655082,0.573929197621,0.818872749575,0.00578299425557,0.0,0.818869698815,-0.573844970336,-0.0116238240029,0.0,-0.00620000992418,0.0114069903675,-0.999915716672,0.0,0.330491935406,-0.174201869024,0.305076890631,1.0,-0.28458,-0.374019428572,2.123
-0.358826726996,-0.517377232194,-0.143032738003,-2.6382631118,-0.0738483845938,2.11303407069,-0.618520006959,-1.24739788154,-0.225299225636,0.00997550583065,-0.184112509396,-0.0272320500603,-0.0595167959324,-1.19127561023,0.573966490055,0.818846129021,0.00585082739036,0.0,0.818842337402,-0.573879042437,-0.0118666773365,0.0,-0.00635943802001,0.0116022036939,-0.999912469378,0.0,0.325944111491,-0.180104138568,0.304991589628,1.0,-0.27338,-0.359299428572,2.139
-0.380585234481,-0.520967554537,-0.14243406783,-2.64110694293,-0.0742431135792,2.11200929649,-0.639420696984,-1.19893214254,-0.186331771353,0.0296471355246,-0.140755235098,-0.0191153225576,-0.0536362854325,-1.15476689764,0.573931574818,0.818870553337,0.00585757681723,0.0,0.818866138134,-0.573842814906,-0.0119757462519,0.0,-0.00644538168414,0.0116700548978,-0.999911129488,0.0,0.320839858264,-0.186785887182,0.30494436931,1.0,-0.26008,-0.341819428572,2.158
-0.396959496145,-0.523248442924,-0.141981441589,-2.64288395661,-0.0744566699848,2.11130831017,-0.655201227386,-1.15238546972,-0.160488895856,0.0331859059453,-0.122886340324,-0.00539556273677,-0.0478878767571,-1.12877096608,0.573872360931,0.818911981409,0.00586744970373,0.0,0.81890733557,-0.573782923459,-0.0120282749533,0.0,-0.00648358085974,0.0117078175606,-0.999910441083,0.0,0.317500585193,-0.191171511626,0.304929590015,1.0,-0.25098,-0.329859428572,2.171
-0.417304320316,-0.525638766037,-0.141338145978,-2.64472361419,-0.0746717921204,2.11057566061,-0.67475916457,-1.10810934262,-0.123516129813,0.0444567547055,-0.0952175461181,-0.0136021580967,-0.0367061855572,-1.071526255,0.57385914646,0.818921344406,0.00585308472251,0.0,0.818916445225,-0.573769651377,-0.012041171024,0.0,-0.00650257477723,0.0117033487865,-0.999910370057,0.0,0.313053622265,-0.197027753485,0.304923544399,1.0,-0.23838,-0.313299428572,2.189
-0.435687990879,-0.527349330071,-0.140773072011,-2.64605267354,-0.0747002937739,2.11003262112,-0.692470863275,-1.07192079359,-0.0883065117353,0.0226527633975,-0.0707705479556,-0.000101262522387,-0.0340237887519,-1.03166836379,0.573918216165,0.818879326413,0.00593943010243,0.0,0.818875300416,-0.573827893543,-0.0120639074071,0.0,-0.00647079828985,0.0117875757759,-0.999909586826,0.0,0.309052999259,-0.202294558203,0.304913769301,1.0,-0.22648,-0.297659428572,2.206
-0.452132960194,-0.528585100018,-0.140128045044,-2.64702229644,-0.0746944896971,2.10963281515,-0.708368455436,-1.01708081906,-0.0738576427464,0.0398632152198,-0.050867079468,-0.00387707122639,-0.013765356665,-0.978418350333,0.57385554508,0.8189232181,0.00594332727455,0.0,0.818919244668,-0.573765222213,-0.012061815435,0.0,-0.006467750742,0.0117890717297,-0.999909588907,0.0,0.305493180317,-0.206952183735,0.304907533485,1.0,-0.21528,-0.282939428572,2.222
-0.468052418625,-0.529463723199,-0.139562656232,-2.64767939296,-0.0747036137624,2.10929617107,-0.72359013963,-0.977672518406,-0.0471238850658,0.0399732614569,-0.0343069857323,-0.00101586919128,-0.0213367157572,-0.930378592902,0.573984747663,0.818832789432,0.00592615400029,0.0,0.818828702233,-0.573894670553,-0.0120503283033,0.0,-0.00646634023761,0.0117694362378,-0.999909829342,0.0,0.30204522615,-0.211481120659,0.304915818521,1.0,-0.20408,-0.268219428572,2.238
-0.485778481577,-0.530059126364,-0.138756432847,-2.64812934902,-0.0745546758381,2.10903797544,-0.740728099013,-0.92427269823,-0.0277272013435,0.035949467131,-0.0176229804974,0.00539108912305,-0.0148183799678,-0.878867269241,0.57393431617,0.818868218175,0.00591514040017,0.0,0.818864203892,-0.573844688989,-0.0120181282202,0.0,-0.00644701546326,0.0117415389974,-0.999910282102,0.0,0.29825591455,-0.216466129443,0.304927901522,1.0,-0.19078,-0.250739428572,2.257
-0.500707912724,-0.530260002939,-0.138003096829,-2.64828007527,-0.0743322617536,2.10889807829,-0.755206360713,-0.857314966357,-0.00641875562775,0.0461643952544,-0.00716043830415,0.0193233087268,-0.0078811598114,-0.842416328853,0.573858302457,0.818921463981,0.0059187357068,0.0,0.818917689515,-0.573769028094,-0.0119861212037,0.0,-0.00641982829114,0.0117255182894,-0.999910645021,0.0,0.295087075603,-0.220639589149,0.304940712175,1.0,-0.17888,-0.235099428572,2.274
-0.513222344294,-0.53028953393,-0.137378382372,-2.6483189755,-0.0740977551502,2.10882958477,-0.767226409065,-0.833162156709,0.000132289074601,0.0338728063495,-0.000466315809953,0.0188309053277,-0.00111177219138,-0.791605157812,0.573920297547,0.818877788822,0.00595028894448,0.0,0.818874524016,-0.573831064076,-0.0119653968056,0.0,-0.00638385995104,0.0117399501525,-0.999910705965,0.0,0.292415848495,-0.224122291525,0.304944504619,1.0,-0.16838,-0.221299428572,2.289
-0.526470795962,-0.530104218028,-0.136535913272,-2.64823906321,-0.0737516933286,2.10881946213,-0.780076374912,-0.755789742797,0.0141202109105,0.053002262388,0.0101513907801,0.0307831131384,-0.00184048417932,-0.742428338328,0.573804948198,0.81895858179,0.00595563917434,0.0,0.818955340623,-0.573715632074,-0.0119695647834,0.0,-0.00638585745392,0.0117458241527,-0.999910624226,0.0,0.289621421502,-0.22775252254,0.304934600436,1.0,-0.15648,-0.205659428572,2.306
-0.538926275792,-0.52978631979,-0.135820341264,-2.64806517271,-0.0734079451777,2.10882415796,-0.791977761352,-0.72486249096,0.015100591331,0.0388338577015,0.0123122656532,0.0177368593608,-0.00146078024729,-0.685323915503,0.573910946201,0.818883986928,0.00599905699966,0.0,0.818881011483,-0.573820878263,-0.0120098127731,0.0,-0.00639238228279,0.0118053041648,-0.999909882061,0.0,0.286963796773,-0.231172379347,0.304916870876,1.0,-0.14458,-0.190019428572,2.323
-0.550413129351,-0.529312017536,-0.134995325301,-2.64779395059,-0.0730046000417,2.10886104733,-0.803036270156,-0.653092929438,0.0285846433583,0.0543912517101,0.0191467933429,0.0281384999184,0.00847758535315,-0.633228263849,0.573867761706,0.818914136972,0.00601458582533,0.0,0.818910897518,-0.573776777502,-0.0120788420821,0.0,-0.00644062886849,0.0118572962358,-0.999908957268,0.0,0.284545028491,-0.234278330272,0.30489176238,1.0,-0.13268,-0.174379428572,2.34
-0.561027209437,-0.528746105626,-0.134215429912,-2.64747003862,-0.0725948031792,2.1089455626,-0.813204514843,-0.608245812895,0.0365060130412,0.0435848618525,0.0185283560365,0.0289947981182,0.00688488476374,-0.570082665447,0.573876379825,0.818907903224,0.00604099464315,0.0,0.818904538424,-0.573784414896,-0.012146977898,0.0,-0.00648115240654,0.011918091092,-0.99990797265,0.0,0.282310335368,-0.237139576745,0.304859856423,1.0,-0.12078,-0.158739428572,2.357
-0.570340409305,-0.528188404901,-0.133561544961,-2.64705018507,-0.0722171551949,2.10905721864,-0.821945544264,-0.559040626503,0.0336376070636,0.0463803322317,0.0298781132765,0.0254993784963,0.0115191099763,-0.532191144181,0.574068207108,0.818773144966,0.00608091858192,0.0,0.81877059757,-0.573976575558,-0.01209736197,0.0,-0.00641481378711,0.0119238178084,-0.999908332165,0.0,0.280359498425,-0.23967408731,0.30487342283,1.0,-0.10958,-0.144019428572,2.373
-0.580035852909,-0.527378140168,-0.13262233874,-2.64651397974,-0.0717000109014,2.10920699586,-0.831329418387,-0.496222440845,0.0401677911544,0.0493923976701,0.026490929592,0.0318391991767,0.00940359390914,-0.472611046404,0.573911406266,0.818883033354,0.00608459887141,0.0,0.818880281525,-0.573819323192,-0.0121332502393,0.0,-0.00644437642833,0.0119461987455,-0.99990787493,0.0,0.278391269138,-0.242247972191,0.304857897639,1.0,-0.0962800000001,-0.126539428572,2.392
-0.587090339529,-0.526803019641,-0.131925316199,-2.64608038377,-0.0713233215613,2.10930525607,-0.837908934941,-0.449803054214,0.0353418885494,0.0446403107453,0.0295405558725,0.0265248599529,0.00490827966516,-0.419026059155,0.573992922581,0.818825958918,0.00607624300719,0.0,0.818823236963,-0.57390111641,-0.0121145406415,0.0,-0.00643266156091,0.0119292592315,-0.999908152602,0.0,0.276956340563,-0.24411683242,0.304870804711,1.0,-0.0857800000001,-0.112739428572,2.407
-0.593811589617,-0.526155202262,-0.131195200976,-2.64560643532,-0.0708805567265,2.10943996737,-0.844197413036,-0.394860295004,0.0439505404199,0.0411172553479,0.0243942930971,0.0259848066199,0.0127563343207,-0.377926031684,0.574054475406,0.818782642605,0.00609838810212,0.0,0.818780322528,-0.57396276998,-0.0120941729071,0.0,-0.00640237439105,0.0119361840694,-0.999908264348,0.0,0.275538727986,-0.245987349417,0.304878645904,1.0,-0.0738800000001,-0.0970994285716,2.424
-0.600532802692,-0.525406162663,-0.130222533923,-2.64512109616,-0.0703275958135,2.10956341126,-0.850549918137,-0.334311950818,0.034041449109,0.0487474955914,0.0245112095209,0.0375530108633,0.00341589133673,-0.310567744116,0.573924214404,0.818874014086,0.00609032652786,0.0,0.818871148657,-0.573831754322,-0.0121616828654,0.0,-0.00646418776578,0.0119673073717,-0.999907494637,0.0,0.274325158774,-0.247577865709,0.304860601495,1.0,-0.0612800000001,-0.0805394285716,2.442
-0.605447915619,-0.524912388744,-0.129420968569,-2.64479366671,-0.0698915011867,2.10964158702,-0.855085329164,-0.294353322976,0.0297231272818,0.0458052372603,0.0234370814775,0.0231507346277,0.00738942245983,-0.255639505539,0.573872609243,0.818910323078,0.00607108043625,0.0,0.818906987598,-0.573779842558,-0.0121977390923,0.0,-0.00650551613534,0.0119718290461,-0.999907172476,0.0,0.273387860098,-0.248780744428,0.304855240342,1.0,-0.0500800000001,-0.0658194285716,2.458
-0.609616947999,-0.524483513306,-0.12864443026,-2.64446925312,-0.0694291236977,2.10976352657,-0.858777985447,-0.2404784256,0.0272775048949,0.0496256127194,0.016956717887,0.0267618476798,0.000810473297454,-0.213766280854,0.573928319492,0.818871253253,0.00607466721571,0.0,0.818868390418,-0.57383631095,-0.0121323662453,0.0,-0.00644910549214,0.0119376913734,-0.999907946045,0.0,0.27263681135,-0.249785715766,0.304875226163,1.0,-0.0388800000001,-0.0510994285716,2.474
-0.612892125776,-0.524100931099,-0.127882308757,-2.64422271485,-0.0689451850805,2.10984641224,-0.86169613513,-0.188074770455,0.0217817983888,0.0460568753751,0.0125731274222,0.0270860549052,0.00028528529568,-0.166403403569,0.573901514242,0.81888980542,0.00610617970778,0.0,0.818887263951,-0.573809205718,-0.0121404807638,0.0,-0.00643805775482,0.0119679435081,-0.999907655607,0.0,0.272081271526,-0.250522366565,0.304872943374,1.0,-0.0276800000001,-0.0363794285716,2.49
-0.615865688616,-0.523824935004,-0.127040791419,-2.64402259737,-0.0684475062946,2.1098674142,-0.86413815991,-0.138035865175,0.0143216046652,0.0328537303935,0.0084156396517,0.0249973263531,0.00271943662654,-0.105663562093,0.573964434081,0.818845646748,0.00611409139534,0.0,0.818843132965,-0.573871936516,-0.0121519947786,0.0,-0.00644202658364,0.0119815252409,-0.999907467392,0.0,0.271598762657,-0.251138466173,0.304885129434,1.0,-0.01982,-0.0260491428571,2.509
-0.617886212155,-0.523666009672,-0.126509054117,-2.64384726191,-0.0681181346573,2.10991804442,-0.865824853313,-0.106805918971,0.0118896676086,0.0327307980354,0.0112311741627,0.0198210095842,0.00458327128336,-0.105447745037,0.57401099318,0.818812928197,0.00612496751814,0.0,0.818811161783,-0.573919569679,-0.0120563584643,0.0,-0.00635678584308,0.0119359038688,-0.999908558556,0.0,0.271276872381,-0.251581624039,0.30492383339,1.0,-0.01948,-0.0256022857143,2.526
-0.619487475149,-0.523506902264,-0.126123208978,-2.64366879652,-0.0679409441736,2.10999951224,-0.867404159989,-0.100254368305,0.00988563511988,0.0171047179035,0.0115746655978,0.00980093344054,0.00282115937859,-0.0924161673795,0.57384062456,0.81893270538,0.00607524187397,0.0,0.818931081632,-0.573750929309,-0.011937401513,0.0,-0.00629037395444,0.0118255980183,-0.999910289189,0.0,0.271021870935,-0.251964118072,0.304962875443,1.0,-0.01916,-0.0251817142857,2.542
-0.62094232854,-0.523317341185,-0.125904891751,-2.64347990344,-0.0678034397916,2.11004595834,-0.868811912915,-0.0910656101321,0.0109225533558,0.0123064033785,0.00744614118419,0.00545608874483,0.0015088710413,-0.0797640801904,0.573793066281,0.818966028202,0.00607524818163,0.0,0.818964780378,-0.573704089142,-0.0118765948075,0.0,-0.00624125311721,0.0117903490452,-0.999911013255,0.0,0.270760704389,-0.252345569336,0.304988434687,1.0,-0.01884,-0.0247611428571,2.558
-0.622463202884,-0.523115323645,-0.125762612087,-2.643313991,-0.0677429698512,2.11005369442,-0.870301328314,-0.0866253799209,0.00913347764376,0.00196176740131,0.0108152996837,0.00113468000671,-0.000488667856325,-0.0821252245391,0.573752667111,0.818994482282,0.00605490502759,0.0,0.818992881147,-0.573663611631,-0.0118940414251,0.0,-0.00626779628746,0.0117833889707,-0.99991092927,0.0,0.270447646302,-0.252758346876,0.304993786016,1.0,-0.0185,-0.0243142857143,2.575
-0.623842106154,-0.522927213802,-0.125670711045,-2.64317648371,-0.06772203424,2.1100675889,-0.871578219828,-0.0872589455843,0.00980356801632,0.00207512725154,0.00771067640172,-0.000243722593961,-0.000203597957204,-0.07992483238,0.573787442653,0.818970328579,0.00602648016598,0.0,0.818968211547,-0.573698219574,-0.011923432167,0.0,-0.00630767766039,0.0117772380825,-0.99991075095,0.0,0.270150459549,-0.25314165298,0.304990616269,1.0,-0.01818,-0.0238937142857,2.591
-0.62523112087,-0.522693977547,-0.125600389344,-2.64300137295,-0.0676800613442,2.11011257916,-0.872999794638,-0.0788870239868,0.0178488638909,0.000377379875061,0.00925204321407,0.000303661059932,0.0042577996397,-0.0888317882628,0.573738188984,0.819004868711,0.0060218293823,0.0,0.819002667239,-0.573648950039,-0.0119272827887,0.0,-0.00631420814003,0.0117752586627,-0.999910733045,0.0,0.269860296955,-0.25354288941,0.304990110708,1.0,-0.01784,-0.0234468571429,2.608
-0.626575490898,-0.522490453686,-0.125597485892,-2.64286591532,-0.0676370781922,2.11017385901,-0.874337914052,-0.0764553220436,0.0123320780493,-0.00223866121078,0.00593590966985,0.00213265629018,4.51914378425e-05,-0.0827937468278,0.573766859147,0.818984548453,0.00605372946652,0.0,0.818982744251,-0.573677452883,-0.0119244108491,0.0,-0.00629314129647,0.0117999589173,-0.999910574673,0.0,0.269560677238,-0.253939400001,0.304982266247,1.0,-0.0175,-0.023,2.625
-0.627896216042,-0.522283149763,-0.125599500218,-2.64273454681,-0.067616407113,2.11017165069,-0.875696234983,-0.0737644545292,0.0151915913,-0.000532888673521,0.00652148387473,0.00026887184787,-0.000276496302721,-0.0734504703762,0.573753458376,0.818993773991,0.00607569478675,0.0,0.818991788511,-0.573663089962,-0.0119940180268,0.0,-0.00633774626528,0.0118577817616,-0.999909608907,0.0,0.269252217099,-0.25432282132,0.304965610759,1.0,-0.01716,-0.0225531428571,2.642
-0.62922214308,-0.522095228704,-0.125601981843,-2.64260067626,-0.0675832491583,2.11018887933,-0.8770169073,-0.0807897540048,0.00706991565753,-0.000365753477772,0.010585904868,0.000655907827669,0.00470991679131,-0.0712156945709,0.573780812621,0.818974386303,0.00610577996222,0.0,0.818972585924,-0.573689924976,-0.0120216631988,0.0,-0.00634273190938,0.0118984951669,-0.99990909365,0.0,0.268947040799,-0.254709697411,0.304958857405,1.0,-0.01682,-0.0221062857143,2.659
-0.630439115089,-0.521915521279,-0.125588558857,-2.6424693619,-0.0675578150307,2.11024713238,-0.878167648923,-0.0769354907074,0.00448749787164,0.0026165456336,0.00474501690409,0.00621548802989,0.00719037739267,-0.0719128993197,0.573843364144,0.818930483909,0.00611578725778,0.0,0.81892891817,-0.573752617108,-0.012004509473,0.0,-0.00632203152571,0.0118973322042,-0.999909238583,0.0,0.268678004652,-0.255069333749,0.304957823961,1.0,-0.0165,-0.0216857142857,2.675
-0.631686098414,-0.521731873934,-0.125557333998,-2.64232245263,-0.0675320284429,2.11028045564,-0.879464471533,-0.0634944900788,0.00813039548145,0.00193204686748,0.0100678346544,0.000682674702424,0.000532831316433,-0.0786693771006,0.573799161371,0.818961429369,0.00611935593332,0.0,0.818959930123,-0.573708446331,-0.011999931748,0.0,-0.0063168766911,0.0118972871407,-0.999909271698,0.0,0.268404205139,-0.255433213987,0.304960715179,1.0,-0.01616,-0.0212388571429,2.692
-0.63288716114,-0.521535893086,-0.125488005462,-2.64218184954,-0.0675021798691,2.11031052401,-0.880692021852,-0.071749573481,0.0109463264447,0.00311566239713,0.00478726908266,0.00049550581254,0.000140843718617,-0.0671795836574,0.573748586253,0.818996947166,0.00610796258734,0.0,0.818995194357,-0.573657732077,-0.0120176932456,0.0,-0.00633869615423,0.0118977555847,-0.999909128043,0.0,0.268147885012,-0.255773398941,0.304956826681,1.0,-0.01582,-0.020792,2.709
-0.634124407951,-0.521359340625,-0.125438935872,-2.64206599325,-0.0674722173759,2.11033431898,-0.881931257005,-0.0704649363631,0.0123192592006,-6.52364446219e-05,0.000408637438169,5.05009431574e-05,0.00298049215271,-0.0714757747228,0.573722295088,0.819015348403,0.00611016371804,0.0,0.819013395929,-0.573631009037,-0.0120527864437,0.0,-0.00636656028547,0.0119194877241,-0.999908692193,0.0,0.267855601091,-0.256138530328,0.304944378583,1.0,-0.01544,-0.0202925714286,2.728
-0.635132254243,-0.521193166402,-0.125385965179,-2.64195723043,-0.0674414414234,2.11035734707,-0.883007696329,-0.0681845600177,0.00879277577916,0.00342363049049,0.00815802910934,0.000356767284359,0.00245539024803,-0.0744498113356,0.573655184717,0.819062315103,0.0061155479312,0.0,0.819060276427,-0.573563597057,-0.0120752064854,0.0,-0.00638281379886,0.0119362369955,-0.999908388771,0.0,0.26763741195,-0.256424642461,0.304939266517,1.0,-0.01514,-0.0198982857143,2.743
-0.636230289019,-0.521004396113,-0.125367663412,-2.6418078971,-0.0674165067687,2.11039399545,-0.884107740536,-0.0582206387199,0.0113505975457,0.000120597695397,0.00989887183634,0.0062680192915,0.0013076095597,-0.0610827342542,0.573660363239,0.819058677716,0.0061169442714,0.0,0.819056691484,-0.573568832502,-0.0120696900993,0.0,-0.00637741861403,0.0119342567149,-0.999908446833,0.0,0.267413090122,-0.256730505662,0.304941435854,1.0,-0.01482,-0.0194777142857,2.759
-0.637467473078,-0.520785921774,-0.125345373983,-2.64164778153,-0.0673856869258,2.11046421586,-0.885351674575,-0.0612378443117,0.00997134992967,0.00209493343199,0.00955793414694,0.000895379701148,0.00243076945534,-0.0628586717795,0.573660652406,0.819058421007,0.00612419466584,0.0,0.819056646622,-0.573569310305,-0.0120500125512,0.0,-0.00635713653717,0.0119289100763,-0.999908639786,0.0,0.267146315441,-0.257099755567,0.304940409805,1.0,-0.01444,-0.0189782857143,2.778
-0.638508822319,-0.520624412531,-0.125329710046,-2.64151994694,-0.0673672650635,2.11047255751,-0.886412858928,-0.0668305875241,0.0126513054939,0.00446587020798,0.00652449584685,-5.49872708719e-06,-0.000288499656575,-0.0623334799178,0.573648608807,0.819066786018,0.00613355989805,0.0,0.819065066853,-0.573557103533,-0.0120586960135,0.0,-0.00635905296933,0.0119414687504,-0.999908477697,0.0,0.266896064503,-0.257425458281,0.30494514326,1.0,-0.0141,-0.0185314285714,2.795
-0.639519603937,-0.520469896781,-0.125317223259,-2.64139009925,-0.0673351245647,2.11049267606,-0.88741576672,-0.062724456014,0.0110370837386,0.00355005971587,0.00525294636297,0.00196567138046,0.0015899257656,-0.0637314681584,0.573665967951,0.819054513805,0.00614878298087,0.0,0.819052930069,-0.573574274814,-0.0120663133757,0.0,-0.00635630707469,0.0119584422962,-0.999908292304,0.0,0.266685917795,-0.257700205289,0.304944415234,1.0,-0.0138,-0.0181371428571,2.81
-0.640560448341,-0.520304908323,-0.125305556697,-2.64125533296,-0.0673176127493,2.11052110324,-0.888447262544,-0.0609868551837,0.00985750155493,-0.000588411555201,0.00629998554342,0.000108239117007,0.00391331598541,-0.0633940222964,0.573679871827,0.819044738768,0.00615365400154,0.0,0.819043241815,-0.573588198485,-0.0120620685232,0.0,-0.00634983270372,0.0119601049159,-0.999908313554,0.0,0.266453682758,-0.258008750052,0.304947682135,1.0,-0.01346,-0.0176902857143,2.827
-0.641622073326,-0.520129682684,-0.125266698756,-2.64112263842,-0.0672929375857,2.1105596047,-0.889572478594,-0.0600350347843,0.0100390156228,-0.000764894999642,0.00802663334894,0.00194969443405,0.00261106404023,-0.0557931201327,0.57361775596,0.81908825697,0.00615176737536,0.0,0.819086748033,-0.573526127723,-0.0120593083111,0.0,-0.00634956075211,0.0119564947056,-0.999908358457,0.0,0.266223128986,-0.25831661381,0.304947741106,1.0,-0.0131,-0.0172171428571,2.845
-0.642660267705,-0.519958196659,-0.125210927967,-2.64099594251,-0.0672729272682,2.11057951447,-0.890600529696,-0.0599365204295,0.00999028589278,0.00317428626358,0.00389991999683,0.000342891719972,6.60970006187e-05,-0.0535704861527,0.573601761985,0.819099552983,0.00613904315618,0.0,0.819097767927,-0.573509985069,-0.0120785141793,0.0,-0.00637282571278,0.0119569637704,-0.999908204842,0.0,0.265997262338,-0.258610750311,0.304945251001,1.0,-0.01274,-0.016744,2.863
-0.643561042198,-0.519800573999,-0.12517568702,-2.64088796531,-0.067255787202,2.11060979982,-0.891473951813,-0.0575225922751,0.0149550688519,0.000589551756433,0.0118025087625,0.000524847968011,0.0019895651421,-0.0535774590939,0.573612246112,0.819092253661,0.00613335170677,0.0,0.819090309619,-0.573520332869,-0.0120929472922,0.0,-0.0063877605227,0.0119606618867,-0.999908065315,0.0,0.265799593511,-0.258869870455,0.304939745404,1.0,-0.01242,-0.0163234285714,2.879
-0.644409880569,-0.519662098737,-0.12515285175,-2.64080292235,-0.0672446251132,2.11063410435,-0.892336877782,-0.0604399395229,0.0151371744642,0.00120643972431,0.00370614775453,3.56529218262e-05,0.000954305796253,-0.0687233684697,0.573593877772,0.81910512755,0.00613190879139,0.0,0.819103008648,-0.573501682917,-0.0121172528355,0.0,-0.00640876730666,0.0119732775043,-0.999907779911,0.0,0.265606098076,-0.259112012724,0.30493005054,1.0,-0.01212,-0.0159291428571,2.894
-0.645294931936,-0.519515685511,-0.125142834048,-2.6407068614,-0.067236355174,2.11066538659,-0.893212520216,-0.057274591633,0.00838574318656,-1.05920900851e-05,0.00634441404021,-0.000265798992448,8.57073785552e-05,-0.0562869866534,0.573603153256,0.819098627447,0.00613253535211,0.0,0.819096424783,-0.57351078198,-0.0121316430081,0.0,-0.00642006059737,0.0119821171583,-0.999907601576,0.0,0.26540343073,-0.259370381842,0.304922725227,1.0,-0.0118,-0.0155085714286,2.91
-0.646224906432,-0.519369977043,-0.125132018262,-2.64061143344,-0.0672246232329,2.11070121269,-0.894088187645,-0.0516625124406,0.00949451148752,0.00228275506444,0.00475362042812,-0.000199415737564,0.000143285953107,-0.0428623910662,0.573650076297,0.819065745198,0.00613530028925,0.0,0.819063519915,-0.573557573194,-0.0121411481264,0.0,-0.00642557430517,0.0119902020482,-0.999907469244,0.0,0.265189925226,-0.259640466104,0.304915774145,1.0,-0.01146,-0.0150617142857,2.927
-0.647125381306,-0.519229689701,-0.125128012553,-2.64049545804,-0.0672152847649,2.1107266565,-0.894957216848,-0.0497765172532,0.00405025424911,0.000837370637691,0.00932814073408,0.000188394095393,-0.000115090045465,-0.0520036959239,0.573683011505,0.819042662082,0.00613733675405,0.0,0.819040501832,-0.573590564115,-0.0121354034813,0.0,-0.00641921831172,0.0119888330121,-0.999907526484,0.0,0.264985330129,-0.259908192247,0.304919099618,1.0,-0.01112,-0.0146148571429,2.944
-0.64799331023,-0.519084848562,-0.125115180424,-2.64038262279,-0.0672086468085,2.11076879041,-0.895806519196,-0.0484569397472,0.00756586150995,-0.000429856577952,0.00803255107256,-0.000294311615481,0.00114649702902,-0.0450613688723,0.573697897494,0.819032280842,0.00613125199362,0.0,0.81903014011,-0.573605658612,-0.0121212582685,0.0,-0.00641090439815,0.0119758511352,-0.999907735391,0.0,0.264792437003,-0.260166941185,0.30492094652,1.0,-0.01078,-0.014168,2.961
-0.648820872716,-0.518959501045,-0.125114091203,-2.64027751877,-0.0671983749261,2.11079369871,-0.896632315175,-0.0459298728641,0.00767146669786,-0.00105256468918,0.00710781820527,0.00165224359469,6.35221631773e-05,-0.0432143819134,0.573708410781,0.819024880603,0.00613606168059,0.0,0.819022858007,-0.57361625202,-0.0121119932867,0.0,-0.00640040237969,0.0119745577418,-0.999907818159,0.0,0.264603506656,-0.260413004089,0.304924707266,1.0,-0.01044,-0.0137211428571,2.978
-0.649703904482,-0.518816885111,-0.1251091736,-2.64016825757,-0.0671809933942,2.11082146958,-0.897482796815,-0.0452637049471,0.00694914545851,-0.000127270752738,0.00699813712288,-0.000560200017535,0.0016670296273,-0.0512819825913,0.573744726161,0.818999374187,0.00614501307549,0.0,0.818997460964,-0.573652506404,-0.0121122967096,0.0,-0.00639498439575,0.0119823471626,-0.999907759511,0.0,0.26440238527,-0.260673216634,0.304924332437,1.0,-0.01006,-0.0132217142857,2.997
-0.650358870751,-0.51872439252,-0.125103469747,-2.64009166278,-0.0671759849562,2.11084582831,-0.898114284935,-0.0455271616448,0.0084734064172,0.00097044759191,0.00400019098567,-0.000101714012264,0.00386527138609,-0.0413447319191,0.573766020898,0.81898446584,0.00614368591382,0.0,0.818982613457,-0.573673948924,-0.0121006645069,0.0,-0.00638590664685,0.0119747526214,-0.999907908508,0.0,0.264252659618,-0.260866086598,0.304927288191,1.0,-0.00978,-0.0128537142857,3.011
-0.651134675101,-0.518622056759,-0.12509955283,-2.64000138631,-0.0671647189188,2.11086340069,-0.898894267729,-0.0458882302413,0.0055309748808,0.00235082709206,0.00364235457304,-0.000514627653106,-0.000655680675001,-0.0402823216374,0.573769286368,0.818982134782,0.00614945776725,0.0,0.818980416252,-0.57367729837,-0.0120905761284,0.0,-0.00637428425473,0.0119737172501,-0.999907995065,0.0,0.26407326417,-0.261092933287,0.304932215063,1.0,-0.00944,-0.0124068571429,3.028
-0.651950533227,-0.518469936062,-0.125086199253,-2.63990001017,-0.0671462729932,2.11089145038,-0.899696651791,-0.0420785508061,0.0108294064448,0.00132371225783,0.00379281469129,0.000164234860599,0.000757934023305,-0.0401777330284,0.573784123814,0.818971689939,0.0061560732625,0.0,0.818969939665,-0.57369188195,-0.012108237349,0.0,-0.00638473727451,0.0119893841394,-0.999907740643,0.0,0.263889004379,-0.26133092179,0.304924965858,1.0,-0.00906,-0.0119074285714,3.047
-0.65256854312,-0.518353411515,-0.125076924137,-2.63981012212,-0.0671356857236,2.11091345502,-0.900305853911,-0.0405889488516,0.0084835277165,-0.000216198008319,0.000960599638193,0.000633321933121,0.000496105281938,-0.0431899291821,0.573793978385,0.81896478097,0.00615668757152,0.0,0.818963030932,-0.573701717104,-0.0121095276617,0.0,-0.00638529737439,0.0119907044256,-0.999907721235,0.0,0.263751890613,-0.261515090072,0.30492498582,1.0,-0.00876,-0.0115131428571,3.062
-0.653231167437,-0.518203272083,-0.12504640666,-2.63971990106,-0.0671201417378,2.11094711792,-0.900971217467,-0.0337550788186,0.00617297494054,0.00132684682156,0.00494097237689,-0.000125119607587,0.000490707684206,-0.0434308277442,0.573781587137,0.818973500137,0.00615168567348,0.0,0.818971544192,-0.573689086869,-0.0121321190324,0.0,-0.00640685240306,0.0119994730562,-0.999907478164,0.0,0.263609237044,-0.261706972437,0.304914268285,1.0,-0.00842,-0.0110662857143,3.079
-0.653828482639,-0.518068963567,-0.125004068018,-2.63964072796,-0.0671063506902,2.11097165328,-0.901574478759,-0.0390043987078,0.00632812304567,0.00135797219251,0.00564348883673,-5.45054933498e-05,0.000149260063742,-0.0364733069127,0.573756848099,0.818990914587,0.00614068271572,0.0,0.818988646824,-0.573664087809,-0.012159672411,0.0,-0.00643609599509,0.0120060758985,-0.9999072111,0.0,0.263482369161,-0.261875312729,0.30490385646,1.0,-0.0081,-0.0106457142857,3.095
-0.654506806064,-0.517939063249,-0.124956951308,-2.63957220585,-0.0670891129713,2.11098464434,-0.902279962998,-0.0391051447433,0.00300097351316,0.00154698715937,0.00670651357481,0.000236700569274,-0.00057891472588,-0.0291224499362,0.573712304525,0.819022166414,0.00613428563711,0.0,0.819019530802,-0.573619053546,-0.0122039532999,0.0,-0.00647668984551,0.0120258894519,-0.999906710884,0.0,0.263331369041,-0.26205924053,0.304889354839,1.0,-0.00772,-0.0101462857143,3.114
-0.655022112108,-0.517858507233,-0.124947968251,-2.63953566008,-0.0670811987859,2.11100034285,-0.902786577199,-0.0319508566444,0.0052442318268,-0.000769624963717,0.00268542980764,-0.000501807032195,-0.000304891973948,-0.0319094697795,0.573718491396,0.819017798224,0.006138869871,0.0,0.819015055358,-0.573624907948,-0.0122291037771,0.0,-0.00649457002574,0.012044121704,-0.999906375464,0.0,0.263208005037,-0.262202402099,0.304877830941,1.0,-0.00742,-0.00975200000001,3.129
-0.655679958042,-0.517787696929,-0.124941163489,-2.63946770179,-0.0670660465539,2.1110158721,-0.903387235299,-0.0339273705479,0.00200823046164,-0.000217538382303,0.000952709503628,-3.28448751371e-05,0.000120795089156,-0.0308580297893,0.573770431597,0.818981353683,0.00614662873063,0.0,0.818978818721,-0.573676999203,-0.0122123696462,0.0,-0.0064756481754,0.0120412871717,-0.999906532324,0.0,0.263054704374,-0.262390990703,0.304884104818,1.0,-0.00704,-0.00925257142858,3.148
-0.656151863031,-0.517738169137,-0.124932307744,-2.63941232123,-0.0670578897537,2.11103252935,-0.903806365166,-0.0374157591368,0.00165396091335,0.00125129108733,0.00626274658251,0.00024273094224,0.000778006585596,-0.0318665110948,0.573813629491,0.818951092219,0.00614606101251,0.0,0.818948716116,-0.573720499887,-0.0121875052238,0.0,-0.00645497379631,0.0120268969373,-0.999906839192,0.0,0.262947690781,-0.262528140879,0.304892646324,1.0,-0.00676,-0.00888457142858,3.162
-0.656703478064,-0.517709787108,-0.124937282517,-2.63932241995,-0.0670448251084,2.11105598832,-0.90430537327,-0.0342058792369,0.00234911634764,0.000987538017818,0.00553986052149,-0.000268683974789,-0.000450410198355,-0.0274010193068,0.573860307524,0.818918362102,0.00614902931056,0.0,0.818916605914,-0.573768241765,-0.0120972807654,0.0,-0.00637869042373,0.011977922085,-0.999907916606,0.0,0.262821297405,-0.262706468866,0.304925719969,1.0,-0.0064,-0.00841142857143,3.18
-0.657195168971,-0.517649389185,-0.124936874549,-2.63921744032,-0.0670331476279,2.11108697973,-0.904824454655,-0.0304240077574,0.00526165670437,0.000113286853772,0.00370432027604,-0.000228764691395,0.000134068803992,-0.0283789735752,0.573857450385,0.818920362502,0.00614926154754,0.0,0.818919092115,-0.57376629359,-0.0120211401387,0.0,-0.0063162390408,0.0119343982886,-0.999908833475,0.0,0.262725892463,-0.262857327991,0.304953014367,1.0,-0.00608,-0.00799085714286,3.196
-0.657654048932,-0.517600301439,-0.124927381174,-2.63911857867,-0.0670144444684,2.11111568374,-0.905290600361,-0.0244875137366,0.00840586722109,0.000783675707378,0.00474059987867,0.00249326837042,0.00218385020024,-0.0250040468242,0.573857513321,0.818920316018,0.00614957878026,0.0,0.818919561211,-0.573767324811,-0.0119396878502,0.0,-0.00624934590126,0.0118879188152,-0.999909807464,0.0,0.262634966638,-0.263002668485,0.304982521768,1.0,-0.00574,-0.00754400000001,3.213
-0.658085893428,-0.517528378528,-0.124911465386,-2.63902769535,-0.0669989663083,2.11113153164,-0.905732934684,-0.0228053928469,0.00283068752559,0.000267926891846,0.00597011884731,0.00155226624225,0.000285709612514,-0.0272847451824,0.573848753102,0.81892647036,0.00614748796517,0.0,0.818925922937,-0.573759021811,-0.011902291109,0.0,-0.00622004432073,0.0118646805994,-0.999910266175,0.0,0.262547857734,-0.263135538408,0.304999038589,1.0,-0.0054,-0.00709714285715,3.23
-0.658508930731,-0.517432452378,-0.124868295461,-2.63897775667,-0.0669735170154,2.11114380972,-0.9061539107,-0.0181285452545,0.00165483388175,0.00283959445915,0.00139624897927,0.00401000652351,0.00114900943782,-0.0242460508015,0.573833410482,0.818937217478,0.00614798705059,0.0,0.818936485667,-0.573743316729,-0.0119325543782,0.0,-0.00624476662938,0.0118823380556,-0.999909902407,0.0,0.262459496977,-0.263247650998,0.304988444452,1.0,-0.00506,-0.00665028571429,3.247
-0.65894077989,-0.517336346906,-0.124829688061,-2.63896365934,-0.0669534498652,2.11115022338,-0.906547711417,-0.0223652373674,0.00620977015141,0.00185423440709,-0.000925203061875,0.000976951273714,0.0020792070653,-0.0205659071949,0.573846835658,0.818927778687,0.00615218677386,0.0,0.818926645414,-0.573755855954,-0.0120047528659,0.0,-0.00630129372912,0.0119273087593,-0.999909012362,0.0,0.262358196734,-0.263353477019,0.304960886372,1.0,-0.0047,-0.00617714285715,3.265
-0.659263213103,-0.517248258363,-0.124793161874,-2.63895903636,-0.0669303321561,2.11115667829,-0.906861305447,-0.0305963619328,0.00308499353365,0.0052268808849,0.00127640035264,-1.81722769796e-05,0.000115208928066,-0.0179470943059,0.573838644375,0.818933458481,0.00616017079935,0.0,0.818931953682,-0.573746734114,-0.0120783787034,0.0,-0.00635713296124,0.0119760317449,-0.999908076537,0.0,0.262283523319,-0.26342840453,0.304931934918,1.0,-0.00440000000001,-0.00578285714286,3.28
-0.659586189094,-0.517165530235,-0.124770773631,-2.63895909262,-0.0668992856105,2.11116481821,-0.907198182827,-0.0135604206843,0.00640710336981,0.000995674360948,0.000818995088252,0.00503669618643,0.0002873573622,-0.014942193415,0.573825009032,0.818942845024,0.00618243430255,0.0,0.818941159844,-0.573732117213,-0.0121483041379,0.0,-0.006401828886,0.0120342823473,-0.999907092002,0.0,0.262205602025,-0.263504843097,0.304902649598,1.0,-0.00406000000001,-0.00533600000001,3.297
-0.659928215429,-0.517083587724,-0.124736100937,-2.63895123269,-0.0668731659861,2.11117006059,-0.90755753114,-0.0182760344377,0.00436720700247,0.00318948837184,0.00234210482087,0.00264270865942,0.00134691821114,-0.0189330797218,0.573798111389,0.818961604864,0.00619387003249,0.0,0.818959637749,-0.57370436407,-0.0122131603897,0.0,-0.00644878332412,0.0120806505137,-0.999906231142,0.0,0.262126262779,-0.26358573246,0.304877287989,1.0,-0.00368000000001,-0.00483657142858,3.316
-0.660211702612,-0.517058915504,-0.124696684084,-2.63893959318,-0.0668567154095,2.11117161065,-0.90783248968,-0.0218954063184,0.00575683324653,0.00141410742701,0.00275992424238,0.0010241381604,-0.000286012538728,-0.0165453958791,0.573784784873,0.818970964565,0.00619086012843,0.0,0.818968900096,-0.573690945692,-0.0122223732784,0.0,-0.00645825277271,0.0120833663744,-0.999906137209,0.0,0.26206405673,-0.263652640872,0.304874547671,1.0,-0.00334000000001,-0.00438971428572,3.333
-0.660449304376,-0.51703465443,-0.124662796437,-2.63891675207,-0.0668336455421,2.1111798432,-0.90807138251,-0.013989834199,0.00381038997749,0.00120555010872,0.00270764837369,0.000362596124727,-0.000259584037709,-0.015797975066,0.573770673629,0.818980833706,0.00619314187376,0.0,0.818978856196,-0.573676933961,-0.0122129212623,0.0,-0.00644940996677,0.0120797008793,-0.999906238573,0.0,0.262016916483,-0.263711901935,0.304877490876,1.0,-0.00302000000001,-0.00396914285715,3.349
-0.660673491534,-0.517026095754,-0.124641860408,-2.63887310848,-0.0668161141867,2.11118589634,-0.908310250557,-0.0160320675186,-0.00105756676957,-0.000312935038506,0.00151688246374,0.000814549007488,0.000105271458389,-0.0185459535025,0.573753307323,0.818992998484,0.00619335704327,0.0,0.818991299638,-0.573660087988,-0.0121696946435,0.0,-0.00641413645234,0.0120549401798,-0.999906764289,0.0,0.261974675273,-0.263776351028,0.304895179431,1.0,-0.00270000000001,-0.00354857142858,3.365
-0.660874915667,-0.517001004498,-0.124629537289,-2.63883256007,-0.0667963392121,2.11119481498,-0.908515383233,-0.0131011861614,0.00268044626384,0.000739668947799,0.00192105820681,0.00134338627568,0.00169018651373,-0.0140909857979,0.573751936138,0.818993906936,0.00620024840386,0.0,0.818992462169,-0.573658994948,-0.0121429538177,0.0,-0.00638829991572,0.0120452318777,-0.999907046686,0.0,0.261936104699,-0.263835792829,0.304905409887,1.0,-0.00238000000001,-0.00312800000001,3.381
-0.661076158348,-0.516988395384,-0.124613926747,-2.63878109869,-0.0667734747294,2.11120434883,-0.908707975061,-0.0109611163036,0.000392355272142,0.000447751821749,0.00176610011195,-0.00021209321289,0.000215162682746,-0.0124104336502,0.573760109447,0.818988140873,0.00620554728598,0.0,0.818987083773,-0.573667745005,-0.0120922228929,0.0,-0.00634358696169,0.0120205296379,-0.99990762862,0.0,0.261901426766,-0.263897288251,0.304925332217,1.0,-0.00204000000001,-0.00268114285715,3.398
-0.661260983485,-0.516980566915,-0.124586374182,-2.6387603688,-0.0667498229986,2.11120710549,-0.908883600601,-0.00858971513228,-0.000118940833361,0.00165876506738,-0.000225121759646,0.000389126147517,-0.000784535223997,-0.0109198646655,0.573759159803,0.818988766098,0.00621083321143,0.0,0.818987887561,-0.573666980316,-0.0120740476064,0.0,-0.00632568120631,0.0120144238968,-0.999907815439,0.0,0.261865843162,-0.263942973307,0.304932759666,1.0,-0.00168000000001,-0.00220800000001,3.416
-0.661408052666,-0.516976975281,-0.124558520222,-2.63875631731,-0.0667316149517,2.11121106022,-0.909014220923,-0.0111164880598,-0.000364441832724,0.00195842611556,-0.000331231065571,-0.000388395112193,5.99301864479e-05,-0.0111330156857,0.573760823333,0.818987583524,0.00621309447345,0.0,0.818986772271,-0.57366870542,-0.0120677325143,0.0,-0.00631918689122,0.0120126656129,-0.999907877628,0.0,0.261836286627,-0.263975171408,0.304934278415,1.0,-0.00138000000001,-0.00181371428572,3.431
-0.661577581171,-0.516967049775,-0.12452011342,-2.63875047342,-0.0667107561083,2.11121126307,-0.909138617032,-0.010080946065,-0.000966179152376,0.000455840202893,0.000682910326783,0.000238832297005,-0.000562132812055,-0.0097890215285,0.573779732038,0.818974338432,0.00621280877401,0.0,0.818973513256,-0.573687591926,-0.0120697289643,0.0,-0.00632070868213,0.0120137229811,-0.999907855306,0.0,0.261803047877,-0.264010516085,0.304934204756,1.0,-0.00100000000001,-0.00131428571429,3.45
-0.661693705436,-0.516951897856,-0.124495918911,-2.63875068005,-0.066700028376,2.11121313699,-0.909195366196,-0.00640508403588,-0.000295596840348,0.00152459375662,0.000520504014613,6.81884447251e-05,0.000108195275353,-0.000151300794968,0.573815819713,0.818949066309,0.00621117863116,0.0,0.818948145726,-0.573723538137,-0.0120823549483,0.0,-0.00633145582358,0.012019911052,-0.999907712944,0.0,0.261778618577,-0.26403455088,0.304929257565,1.0,-0.000680000000005,-0.000893714285721,3.466
-0.661736533195,-0.516939139518,-0.124497029915,-2.63875452813,-0.0666856507391,2.11121395079,-0.909244406865,-0.00213700447879,0.00140558618003,-0.000999205972594,-0.000189059234327,-0.000155747165929,-4.59519926334e-05,-0.00095925513201,0.573817541671,0.818947750156,0.0062256152415,0.0,0.818946915303,-0.573725001233,-0.0120962712412,0.0,-0.00633454496581,0.0120397328271,-0.999907454904,0.0,0.261767339071,-0.264043459935,0.30492285704,1.0,-0.000360000000005,-0.00047314285715,3.482
-0.661738828335,-0.516918178841,-0.124471159674,-2.63874990518,-0.0666656923984,2.11121344097,-0.909276837163,0.000611189541204,0.00227703047874,0.00270433736251,-0.000388040877104,0.00347525873223,-0.000445859858377,-0.00300429373769,0.57378332487,0.818971686943,0.00623048852467,0.0,0.818970810062,-0.573690569521,-0.0121115486267,0.0,-0.00634476505656,0.0120522249171,-0.999907239613,0.0,0.261774764776,-0.264037219505,0.304917803373,1.0,-2.00000000055e-05,-2.62857142929e-05,3.499
-0.661731813029,-0.51691453906,-0.124435640697,-2.63875516936,-0.0666535478334,2.11121825858,-0.909285826621,0.00140614679017,0.000808694446972,0.00240086035682,-0.00127796792816,0.000432833123466,5.45898051437e-05,-0.000812516113024,0.57374995156,0.818995119026,0.00622374472417,0.0,0.818994134064,-0.573657195345,-0.0121151764162,0.0,-0.00635209670552,0.0120485242744,-0.999907237663,0.0,0.261785046325,-0.264025729212,0.30491532114,1.0,0.0,0.0,3.518
-0.661733817035,-0.516913826979,-0.124402215522,-2.63874987974,-0.0666482744228,2.11122059987,-0.909294101752,-0.000403663476085,-0.00210023476345,0.00298190400206,-0.000335525148798,0.00379771333736,0.000422108890417,-0.00633575183537,0.573723574249,0.819013696037,0.00621071292126,0.0,0.819012592978,-0.573630980114,-0.012108595994,0.0,-0.00635457096383,0.012033870756,-0.999907398404,0.0,0.261793934038,-0.264020174847,0.304918448016,1.0,0.0,0.0,3.533
-0.66172803802,-0.516904227501,-0.12438032,-2.6387443975,-0.066639160437,2.11122428825,-0.909293023271,0.00306967448946,-0.000762258466092,-0.00163226886795,0.000139224856604,5.20588984985e-05,-0.000403351877013,0.00101228378225,0.573708360605,0.819024383068,0.00620675545948,0.0,0.819023229761,-0.573615789924,-0.0121087391475,0.0,-0.00635718206973,0.0120305934143,-0.999907421244,0.0,0.26180273441,-0.264014783347,0.304918231926,1.0,0.0,0.0,3.553
-0.661730304468,-0.5168914226,-0.124373729244,-2.63874481756,-0.0666383893774,2.11122549182,-0.909294270302,6.92986217548e-05,0.0026398742887,-0.000520241987948,0.00141473610265,0.000276210874164,-9.0139151973e-05,0.00123104426817,0.573704886784,0.819026831697,0.00620473537716,0.0,0.819025576785,-0.573612183523,-0.0121208244868,0.0,-0.00636829127842,0.0120358449383,-0.999907287354,0.0,0.261803471863,-0.264013712772,0.304913576541,1.0,0.0,0.0,3.568
-0.661740934331,-0.516896433906,-0.124373537685,-2.6387520913,-0.06663435035,2.11122748095,-0.909299253985,-0.00141596160303,0.00213790811776,-0.000442645832166,-0.00138417193568,-0.000272181211727,-0.000179350760581,0.00392208129346,0.573710740042,0.819022701112,0.00620876197437,0.0,0.819021496935,-0.57361801416,-0.0121205730195,0.0,-0.0063656892986,0.012039044232,-0.999907265407,0.0,0.261799844712,-0.264014534174,0.304912297026,1.0,0.0,0.0,3.585
