nelsonifechukwu/NELSON_IML_WORK/CNN-GradCAM/train2dof/data_sample_2022-07-06-09-11-01/robot_state.csv
position_joint1,position_joint2,position_joint3,position_joint4,position_joint5,position_joint6,position_joint7,velocity_joint1,velocity_joint2,velocity_joint3,velocity_joint4,velocity_joint5,velocity_joint6,velocity_joint7,ee_T_00,ee_T_10,ee_T_20,ee_T_30,ee_T_01,ee_T_11,ee_T_21,ee_T_31,ee_T_02,ee_T_12,ee_T_22,ee_T_32,ee_T_03,ee_T_13,ee_T_23,ee_T_33,v_x,v_y,w_z,time
0.4650946243176817,0.5472899981548912,-0.12398216765230492,-1.3555597572181637,0.07946047232030572,1.8941816867192587,0.15912437073139507,-0.0008209733066162079,8.340935854505378e-05,-0.00022682892495542295,-0.0009327080174361988,7.316330397769774e-05,0.0030481605084127592,0.00012503271894860428,0.573729720760533,0.8190286599724332,0.002647368695471896,0.0,0.8189952746074132,-0.5736693425073729,-0.01144432344416568,0.0,-0.007854665862517984,0.008734299107973048,-0.9999310057415366,0.0,0.6617641728380352,0.2609461107542037,0.3036992134168158,1.0,5e-324,6.92216246970777e-310,6.92195027012877e-310,0.0
0.46510000218896286,0.5472925038086741,-0.12398195718437538,-1.3555588546788637,0.07945670904947581,1.8941806214297259,0.15912026249770866,0.0014199944282475053,0.0003327411670834956,-0.0009722296838955342,3.4139158186817635e-05,-0.00010828085381764427,-1.0759256115210525e-05,9.91357348367268e-05,0.5737207578925367,0.8190349522901846,0.002643064781022583,0.0,0.8190015404950939,-0.5736604269454458,-0.011442819785359368,0.0,-0.007855998938564812,0.008729825443161573,-0.9999310343360732,0.0,0.6617628610280603,0.26094918323748256,0.30369776122768544,1.0,-0.00012,-0.00015771428571428574,-6e-05,0.007
0.4650970503531188,0.5472893545514466,-0.12397966198644922,-1.3555596622819979,0.07946106705329237,1.8941816867191847,0.15912344739524537,8.382586574061394e-05,0.0003557984349821492,0.0005420334609762365,-0.006807194741134547,0.000310082406415533,2.2274300001357527e-05,-0.00019573300667155517,0.5737253772574132,0.8190316973986906,0.002648971171385241,0.0,0.8189983159448128,-0.573664975732284,-0.011445566777007393,0.0,-0.007854811231770897,0.008736283245938697,-0.9999309872664014,0.0,0.6617629695026975,0.2609492824506409,0.30369963282616874,1.0,-0.00040000000000000024,-0.0005257142857142861,-0.00020000000000000012,0.02100000000000001
0.46509392440845543,0.54727586983347,-0.12398253370685694,-1.3555716650514757,0.07945980851791486,1.8941801747466809,0.15912343818780472,0.0004983632543901068,-0.003100096652950114,0.00039561613724914304,-0.0021024379101293074,0.00023862006647160626,-6.61690745144138e-05,-0.00016125533076158486,0.5737302244032552,0.8190283040649718,0.002648329257253111,0.0,0.8189949254403035,-0.5736698367084928,-0.01144453822096808,0.0,-0.007854285336698963,0.008735213884228932,-0.9999310007396743,0.0,0.6617618174412645,0.2609439964582129,0.30370343270378825,1.0,-0.0007400000000000005,-0.0009725714285714294,-0.00037000000000000027,0.03800000000000003
0.4650908283340453,0.5472186862614971,-0.12398814799910343,-1.3556256606697734,0.07945643899600753,1.8941874357269444,0.1591227028112778,0.0006524104512370068,-0.00362137599519704,0.0005985444393974971,-0.009490245424417997,0.00010948846547330243,0.0011574119832354502,-0.0009408788936854968,0.5737284515835439,0.8190295330799664,0.002652298544569589,0.0,0.8189961882055947,-0.5736680319005443,-0.011444639848882568,0.0,-0.00785211032307842,0.00873850614073847,-0.9999309890556961,0.0,0.6617514049720371,0.2609370820090188,0.3037145083153202,1.0,-0.0010800000000000009,-0.0014194285714285728,-0.0005400000000000004,0.05500000000000004
0.4650875336041595,0.5470964240066986,-0.1239775773219166,-1.3557916850238754,0.07945313896827881,1.89421527614102,0.15912532986024663,-0.0016391048847091538,-0.0039044677033980898,0.0009381313782151125,-0.007281976565626987,0.00025342731002846294,-0.0008697023290173164,0.001318099818604608,0.5737437166410156,0.8190188436302195,0.002651093129317046,0.0,0.8189853684752636,-0.5736831713454853,-0.01146001918112306,0.0,-0.007865235573902174,0.008746488878145275,-0.9999308161076301,0.0,0.6617240185198299,0.260920169968383,0.30372868178757045,1.0,-0.001420000000000001,-0.0018662857142857157,-0.0007100000000000005,0.07200000000000005
0.4650703242147985,0.5469512335571621,-0.1239849841887149,-1.3559776790268343,0.0794480418812081,1.8942697859749662,0.1591158109297069,-0.003033512791427997,-0.006158646719351435,-0.0004722606536644281,-0.011632656691957186,-0.000246329532508304,0.003827659273079327,-0.0010545790895479191,0.5737641055623279,0.8190045138868721,0.0026653897273602022,0.0,0.8189711913204962,-0.5737034759749323,-0.011456716046751782,0.0,-0.00785411002115144,0.008756498425324957,-0.9999308159523352,0.0,0.661702556503793,0.26088719724713294,0.30374795877535626,1.0,-0.0017400000000000013,-0.002286857142857145,-0.0008700000000000007,0.08800000000000006
0.4650495250145103,0.5467759989774683,-0.12398846492961837,-1.3561963143719036,0.07944602687989219,1.8943915641117473,0.1591205316892332,-0.0007087052689705531,-0.013571674069750314,-0.001084011007063582,-0.01594992635225293,0.00017136726477695095,0.012441927087935546,-0.0002523733540110591,0.5737993209056711,0.8189796084695479,0.002736263961115347,0.0,0.81894717929012,-0.573738437352011,-0.011422343841635083,0.0,-0.007784916761765293,0.008795158126278207,-0.9999310177529978,0.0,0.661687675369939,0.2608557184418784,0.3037787027223267,1.0,-0.0020800000000000016,-0.002733714285714288,-0.0010400000000000008,0.10500000000000008
0.4650293317932946,0.5465851195877117,-0.12398346226147158,-1.3564266910305267,0.07943971637875114,1.8945009631244893,0.15911773204965157,-0.0005949486013494191,-0.013612012276857063,-0.0006386156156132243,-0.016692248866014062,-0.00020982427313841374,0.011577483053044915,0.0014147933326647806,0.5738213390229369,0.8189639626129988,0.0028010220182756295,0.0,0.8189323180477829,-0.5737601935670156,-0.011394982932585883,0.0,-0.007725114173373071,0.008832701875731097,-0.999931150624173,0.0,0.6616661678495515,0.26082682172872335,0.30381356587258496,1.0,-0.002400000000000002,-0.0031542857142857175,-0.001200000000000001,0.1210000000000001
0.4649969975391739,0.5463358892347977,-0.12397816427980177,-1.3567439293662813,0.07942977440218689,1.8946419286645861,0.1591093106507857,0.002977035364419335,-0.01287410041363707,0.0016930201238968478,-0.01893802462816328,-8.844445954130454e-05,0.009089042320998348,0.0005159431758940862,0.5738523700571108,0.8189419828035598,0.002869334908860768,0.0,0.8189111549513897,-0.5737909389728348,-0.01136774164299556,0.0,-0.007663270051225912,0.008873306686837681,-0.9999312669981688,0.0,0.6616358638708694,0.26078207264260994,0.3038511225719791,1.0,-0.002760000000000002,-0.003627428571428575,-0.001380000000000001,0.1390000000000001
0.46495904767297996,0.546093852965081,-0.12398612605502758,-1.357116127098977,0.0794170689347962,1.8947676506073907,0.15909972855430132,-0.003009795581241544,-0.014879224254568814,-7.573286137486446e-05,-0.027015473412760293,-0.00021100501948408392,0.011994803625632232,0.0010757364976000973,0.5738985399535204,0.8189096298866082,0.002868940467231352,0.0,0.8188787412969569,-0.5738370398768103,-0.01137565903760928,0.0,-0.007669480088163927,0.008877959399584745,-0.9999311780878104,0.0,0.6615943780860565,0.2607178287579776,0.3038565044157744,1.0,-0.0030800000000000024,-0.004048000000000004,-0.0015400000000000012,0.1550000000000001
0.46492139089196605,0.5458076964195632,-0.12398356778860731,-1.3575598705783805,0.07939555042240622,1.8949300329711345,0.15908925501816207,-0.006686340871913259,-0.013081519791063792,0.0003665977339955092,-0.0231603517556571,0.00017896731359634798,0.005495001169608512,0.001199370250744913,0.5739381079833453,0.8188818743799088,0.0028759203316132548,0.0,0.8188510210296555,-0.5738765184516309,-0.01137953556759112,0.0,-0.007668219904906792,0.00888627050157774,-0.999931113927386,0.0,0.661542927461059,0.2606530199460342,0.3038618782674913,1.0,-0.0034200000000000025,-0.004494857142857147,-0.0017100000000000012,0.17200000000000013
0.46487494854696676,0.5454997401011515,-0.12398429025088283,-1.3580646124868607,0.07935539166049245,1.8950998189785886,0.15907250504496387,-0.005191364304330284,-0.013467740898502044,-0.00013667108907780944,-0.02674517636569787,-0.008690517093605169,0.010036424405993146,-0.0006819878078654083,0.573980425770182,0.8188523146467312,0.0028468459001709297,0.0,0.8188211468485606,-0.5739189890995626,-0.011387287901529541,0.0,-0.00769079620622698,0.008867308706137209,-0.9999311088720186,0.0,0.6614835825177409,0.26057103015572175,0.3038543428063358,1.0,-0.003760000000000003,-0.004941714285714291,-0.0018800000000000015,0.18900000000000014
0.4648248319287024,0.545157858228296,-0.12398697442843018,-1.358643396643809,0.07930469232634006,1.8952891131414336,0.15901776793770914,-0.0014524911709549045,-0.02098530926208614,-2.5745643029101857e-05,-0.03509500193672641,-0.00035621638390418646,0.008718054334689319,-0.007237023675379019,0.5740043633300984,0.8188356930078389,0.0028010061743951277,0.0,0.8188040595360302,-0.5739432081419462,-0.011395297988904828,0.0,-0.007723406955535028,0.008834596086809476,-0.9999311470781287,0.0,0.66142081486323,0.26047726938647103,0.3038406991323162,1.0,-0.004080000000000003,-0.005362285714285719,-0.0020400000000000014,0.20500000000000015
0.4647609709185001,0.5447774882759812,-0.12398919735779815,-1.3592784591274503,0.07928194465308272,1.895499586585148,0.15891122385103135,-0.006386017610028958,-0.025731044044893882,-0.0002763566295384817,-0.04046551280820619,-0.006840019129291851,0.014178506003711205,-0.004510625688274081,0.5739932543111054,0.818843595148749,0.0027672351592534263,0.0,0.8188113495526831,-0.5739320045346273,-0.011435686065407572,0.0,-0.007775983180594137,0.00883002022049302,-0.9999307800185374,0.0,0.6613385205080057,0.2603734425172977,0.30382255183884205,1.0,-0.004440000000000004,-0.005835428571428577,-0.002220000000000002,0.22300000000000017
0.4647028597415577,0.5443714095754102,-0.12399063559796732,-1.3599970358874263,0.07925327972156126,1.8957264302463606,0.15890314579471745,-0.003115062485242419,-0.021919299204620844,9.302010907772384e-05,-0.040664835114483905,-0.0005159972584660299,0.017607991053516497,-0.0008626687507561596,0.5740675914350303,0.8187917030810435,0.002700801887625728,0.0,0.8187584320739595,-0.5740063559955041,-0.011492610050050315,0.0,-0.007859927633908415,0.008809008890307682,-0.999930309021564,0.0,0.6612463999640746,0.260264972352567,0.3037876005794419,1.0,-0.004780000000000004,-0.00628228571428572,-0.002390000000000002,0.24000000000000019
0.4646368586494068,0.5439443746780362,-0.1239924821450062,-1.3606957072887698,0.07921376627160867,1.8959517680171891,0.15887571529207514,-0.005735007699832228,-0.026211909636739347,0.0010055611441795477,-0.039018284225445336,-0.0040564330605535,0.007397415271152953,-0.0005737082554329203,0.5741287528257789,0.8187489451635838,0.0026621182248046686,0.0,0.818715117002495,-0.5740675727457393,-0.011520677697711458,0.0,-0.007904459150227916,0.00879403806467391,-0.9999300897663093,0.0,0.6611617639365185,0.26015183237141165,0.3037767840695089,1.0,-0.005100000000000004,-0.006702857142857149,-0.002550000000000002,0.25600000000000017
0.4645675001557493,0.543491755176051,-0.12399440802270827,-1.3614304895186948,0.07917914362952447,1.8962233956627421,0.15883056106096183,-0.0032119327844881253,-0.025370489772739282,-0.0004199149629111179,-0.04800483786886155,-0.004570436949144692,0.00968031115187663,-0.0004207690129927196,0.5741816889187933,0.8187118402810613,0.002656613477486162,0.0,0.8186778660193962,-0.5741204371892853,-0.011533524730982821,0.0,-0.007917569604042385,0.008797418739381266,-0.9999299563044849,0.0,0.6610792586753121,0.2600364178976557,0.30377087867781094,1.0,-0.005420000000000004,-0.007123428571428577,-0.002710000000000002,0.2720000000000002
0.4645064496443229,0.5429575165051536,-0.12400415911746691,-1.3623136128350388,0.07913125763061654,1.896532254716462,0.15875085348412285,-0.001874180326806771,-0.026436446589301908,0.0001885334149369517,-0.05183465044236918,-0.0028048586329775813,0.01819298031995247,-0.0026670956748640197,0.5742096210155019,0.818692361196012,0.0026221658491804526,0.0,0.8186579104433216,-0.5741484468217244,-0.011555673151508579,0.0,-0.007955182049907916,0.008782204600485441,-0.9999297915158384,0.0,0.6609724582067218,0.2599058091865673,0.30375552032809033,1.0,-0.005780000000000004,-0.007596571428571435,-0.002890000000000002,0.2900000000000002
0.4644310778404343,0.5424044840353432,-0.12399743865446715,-1.3632005055801295,0.0790781291990966,1.896831925671194,0.15868793368494938,-0.003772375808682017,-0.031233972566326602,-0.0038188675467638795,-0.04993761170350806,-0.006311484216354251,0.013950403544472748,-0.003053110169869927,0.5742411107833609,0.8186703763981269,0.002590057074529018,0.0,0.8186354711064874,-0.5741799985331928,-0.011577634986937735,0.0,-0.007991261681853101,0.008768835395797397,-0.9999296211546759,0.0,0.6608717745398242,0.2597769351628508,0.30374886467896733,1.0,-0.006100000000000005,-0.008017142857142865,-0.0030500000000000024,0.3060000000000002
0.46435099389861767,0.5418351968068185,-0.12400591553616883,-1.3641162681722192,0.07902448869049687,1.8971653789263192,0.1586440538365633,-0.000800561636071187,-0.034273651280401496,-0.001530947618577106,-0.049320098548664724,-0.004636696670659463,0.016294096273668155,-0.009384188415445305,0.5743223039558689,0.818613447933442,0.002580880189542871,0.0,0.8185784032402614,-0.5742611903559472,-0.011585762849409147,0.0,-0.00800231601266188,0.008766783585019838,-0.9999295507404543,0.0,0.6607597535388483,0.25962849735399224,0.30374609284735155,1.0,-0.006460000000000005,-0.008490285714285723,-0.0032300000000000024,0.32400000000000023
0.46427839300163176,0.5412590412906656,-0.12400662587452682,-1.3650083217292222,0.0789626435017427,1.8974920532803605,0.15856594598306298,-0.006088294773628103,-0.03396685243759854,-0.0005102374073002561,-0.05394443638102729,-0.0008144423612179969,0.019531870609277167,-0.011494500612158351,0.5743512800139151,0.8185931053801553,0.0025849316547696044,0.0,0.8185581758249364,-0.5742902176826531,-0.011576077287733206,0.0,-0.0079917499583253,0.008764820497664846,-0.999929652452735,0.0,0.6606568385190781,0.2594939536502448,0.30375714851725577,1.0,-0.006780000000000005,-0.008910857142857151,-0.0033900000000000024,0.34000000000000025
0.4641851468015576,0.540586338795501,-0.12400911187108923,-1.3660302578846537,0.07890891756461088,1.8978621622090497,0.1584781318895342,-0.007253507077473356,-0.04204934043811339,-0.000247022425611271,-0.06172394138906128,-0.0075923469417536445,0.01959742915211468,0.001558904726382131,0.5743997052222766,0.8185590584730147,0.002606402413688769,0.0,0.8185243389545348,-0.5743384892306691,-0.011573816504640483,0.0,-0.007977048699279232,0.008781569673704873,-0.9999296228875885,0.0,0.660540315907491,0.2593348585418977,0.30377839693999137,1.0,-0.007120000000000006,-0.009357714285714294,-0.003560000000000003,0.35700000000000026
0.46409402437904385,0.5398805696406542,-0.12401230784716422,-1.3670929745069718,0.07885129202375597,1.8982573949914785,0.1584193638282095,-0.004144936248420926,-0.04362423762991718,0.000423200831277458,-0.06124430962905131,-0.003583531681434415,0.03323747953643356,-0.009346082565229586,0.5744718550934218,0.8185083134255429,0.0026411096160651962,0.0,0.8184740070787506,-0.5744104730505755,-0.011560929351725013,0.0,-0.007945788742425575,0.008803277592257741,-0.9999296809000593,0.0,0.6604198990072392,0.2591734307819634,0.30380569958596626,1.0,-0.007460000000000006,-0.009804571428571437,-0.003730000000000003,0.3740000000000003
0.4639990146566968,0.5392020504582966,-0.12401620794590157,-1.368157014530927,0.07878187123998902,1.898644981320364,0.1583387855733965,-0.00420902627234512,-0.042088748882564496,-2.064526292849475e-05,-0.06696734081081158,-0.0006143358880548308,0.02539604653116602,-0.00352311101231771,0.5745263077101056,0.8184700943171072,0.00264071178797558,0.0,0.8184358338580092,-0.574464976750504,-0.011555225891190471,0.0,-0.007940763273433682,0.008800203851386523,-0.9999297478777243,0.0,0.6602899600129413,0.25900061882684833,0.30381315807865844,1.0,-0.007800000000000006,-0.010251428571428581,-0.003900000000000003,0.3910000000000003
0.4638947685445625,0.538398713986324,-0.12401588515672135,-1.36938965942905,0.07871937078035442,1.8991264780039632,0.15823001709216342,-0.007794794983463894,-0.040820759902994164,-0.001140193518187685,-0.06505162060388282,-4.334801225975302e-05,0.030437546636128812,-0.0038700691914048697,0.5745742719975327,0.818436271321871,0.002687497807592358,0.0,0.8184025418565718,-0.574512696368299,-0.011540714689180515,0.0,-0.00790149001484658,0.008830622794687687,-0.9999297908136365,0.0,0.6601610802071675,0.25882424020121514,0.3038348381413216,1.0,-0.008140000000000007,-0.010698285714285724,-0.004070000000000003,0.4080000000000003
0.4638054977533839,0.5376799556228884,-0.12403223472916952,-1.3705269413911911,0.07864924182999074,1.899562719433417,0.15818141973176617,-0.001527742915762385,-0.04299919378387534,0.0003372004488593408,-0.07549665106218668,-0.0015793507259484088,0.020699017730382442,-0.007738485531022532,0.5746631386452047,0.8183738505718489,0.002695307747907781,0.0,0.8183403262246373,-0.5746016425846109,-0.011524309733335986,0.0,-0.007882617237242262,0.008828444998700793,-0.999929958999327,0.0,0.6600345292305935,0.25864851443634546,0.30383945213545904,1.0,-0.008460000000000007,-0.011118857142857154,-0.004230000000000004,0.4240000000000003
0.4636894787293124,0.5368796613218834,-0.12403148205114285,-1.371799950593314,0.07857183732445085,1.9000261803349272,0.1580545081794449,-0.00423974514291087,-0.04509014526829644,-0.00032334842673732933,-0.08162168232320992,-0.0026161801399281134,0.022844556330264044,-0.0050252436966147125,0.574703094618978,0.8183458216067745,0.002686297696033635,0.0,0.818312161442988,-0.5746416016483669,-0.011531825124971539,0.0,-0.007893514470581453,0.008825775583375842,-0.999929896600084,0.0,0.6598872768559609,0.2584507029135657,0.30383870112405503,1.0,-0.008800000000000007,-0.011565714285714297,-0.004400000000000004,0.44100000000000034
0.46361843707327205,0.5362333575438507,-0.12404523208522278,-1.3728045009151904,0.07852079988987758,1.9003998408424763,0.1580007028592307,-0.00868771667838523,-0.04934426739344178,-0.00023333899223645541,-0.07571726115861373,-0.00396900264190119,0.02855622653361333,-0.00533648444565975,0.5747684779502318,0.8182998550667113,0.002700158103077119,0.0,0.8182663564244921,-0.5747069112719314,-0.011527488072909008,0.0,-0.007881294035311959,0.008835255413075643,-0.9999299092767027,0.0,0.6597702711896608,0.25830217599433064,0.303849615607537,1.0,-0.009060000000000007,-0.011907428571428583,-0.004530000000000004,0.45400000000000035
0.4634764876065896,0.5351519611130235,-0.12404756041113733,-1.3744862560266369,0.07843118625136122,1.9010173686885141,0.15786362346572233,-0.007716377097086676,-0.05369201783395212,0.0004183472501881921,-0.08631098748380185,-0.00033203200178924595,0.03254259074668563,-0.002942199042713317,0.5748424468515358,0.8182478303409849,0.0027196215212108724,0.0,0.8182144795647641,-0.5747806903125853,-0.011531278140716451,0.0,-0.007872408952616372,0.008854072317654824,-0.9999298128272187,0.0,0.6595738207185463,0.25804913890382514,0.30386586791199754,1.0,-0.009480000000000008,-0.012459428571428583,-0.004740000000000004,0.47500000000000037
0.4633553129783752,0.5343142616477725,-0.12405312389145932,-1.3758295212400018,0.07834892831985797,1.901511008491799,0.15776978216463255,-0.011880562170153687,-0.05252703446472,-0.0006245515210317147,-0.08486348292675218,-0.00453953649779082,0.029650010581989163,0.00025901456678177766,0.5749203558355843,0.8181931378979075,0.0027056318798585654,0.0,0.8181596265406516,-0.5748586584223627,-0.011536690899521435,0.0,-0.007884037207544659,0.008846487527797944,-0.9999297883430269,0.0,0.65941940493154,0.25783772468182464,0.3038604333834568,1.0,-0.009800000000000008,-0.012880000000000013,-0.004900000000000004,0.4910000000000004
0.46323996655631067,0.5333944827320509,-0.12405621716496129,-1.3772945039562094,0.07825845800338219,1.902040601675226,0.1576659100888062,-0.008021867859621444,-0.056309496571388326,0.00042086011525259973,-0.08848386750967181,-0.0027343537441396975,0.03157404847673653,-0.010958241033117516,0.5749878026426727,0.8181457955216029,0.0026890488435004217,0.0,0.8181120720592574,-0.5749261542882551,-0.011545629798083972,0.0,-0.007900156068149422,0.008838709801503794,-0.9999297299026285,0.0,0.6592440733318234,0.25761935052160073,0.3038578175232806,1.0,-0.010140000000000007,-0.013326857142857154,-0.005070000000000003,0.5080000000000003
0.4631139391220272,0.5324741564404454,-0.12405402793996075,-1.3787762182887564,0.07818193711871277,1.9026046580462392,0.15757138310902594,-0.007905912602012148,-0.04956410100139136,0.0004959755993691249,-0.0846632138705176,-0.003926773065669407,0.027018919843087214,-0.006342954951332875,0.575072653742177,0.818086133369917,0.0026959612379826867,0.0,0.8180523902734346,-0.5750108496850055,-0.011556661008105817,0.0,-0.007904289338681536,0.008851527668483072,-0.9999295838547756,0.0,0.6590721445704381,0.2573996212518835,0.30385029115556544,1.0,-0.010480000000000007,-0.013773714285714297,-0.005240000000000003,0.5250000000000004
0.4629895028662146,0.5314971356673756,-0.1240570489078553,-1.380322671441125,0.07809085900687626,1.9031878910662938,0.15744988701569043,-0.0017195237386148938,-0.062292458395263026,-0.0008041549123760634,-0.08931476305564376,-0.012615607299890285,0.03245903065165373,0.0006908765922417782,0.5751371797964265,0.8180407376468505,0.0027060796769214053,0.0,0.8180071211350167,-0.5750753291457512,-0.011552596310614411,0.0,-0.007894446739334149,0.008858090653188253,-0.9999296034924956,0.0,0.6588916393957104,0.25716994750907785,0.30385352246363884,1.0,-0.010820000000000008,-0.014220571428571442,-0.005410000000000004,0.5420000000000004
0.462851940727165,0.5304969151510566,-0.12405704890845114,-1.3819399791133131,0.0779909129429721,1.9037615506577565,0.15733046770622125,-0.006600667300244895,-0.05950488735545996,6.800441755987816e-05,-0.09450777461739936,-0.0032077588582601784,0.03613740456008424,-0.005329494230402122,0.5752131203852465,0.8179874712886902,0.0026664306873381612,0.0,0.8179533099441046,-0.5751513571971779,-0.011577822201780821,0.0,-0.007937065090268258,0.008840901257142014,-0.9999294182404648,0.0,0.658696053433313,0.2569232378008817,0.30383821953808565,1.0,-0.011160000000000008,-0.014667428571428585,-0.005580000000000004,0.5590000000000004
0.46272514991348007,0.5296064604200964,-0.12405712880374889,-1.3833941821101767,0.07789894698539407,1.904286331101896,0.15722272999378303,-0.012217178338414113,-0.058382418285514076,-0.0006376460616743347,-0.10003982893203914,-0.009547410872912129,0.038999710186058606,-0.010501899089160905,0.5752830389010037,0.817938420689465,0.0026290709497017294,0.0,0.8179037750622047,-0.5752213928199966,-0.011597882669958582,0.0,-0.007974209509141128,0.008822562103518228,-0.9999292846899894,0.0,0.658522291659557,0.2566994968857716,0.303818790338335,1.0,-0.011460000000000008,-0.0150617142857143,-0.005730000000000004,0.5740000000000004
0.46257494066422894,0.5284658120942284,-0.12406621330418392,-1.3851745064719994,0.07778586919130463,1.904939290005034,0.15710957711853765,-0.007340849723040686,-0.06643236173922289,-0.0019558616176308893,-0.10341102723866591,-0.00441203918910918,0.04444594084825639,-0.0028809725049253635,0.5753858056079426,0.8178661170964887,0.0026336498665896447,0.0,0.8178315978801687,-0.5753242053535546,-0.011588060419215514,0.0,-0.007962432764572869,0.008821657402635144,-0.9999293865194383,0.0,0.6583132602231195,0.25642497493210337,0.3038314982071506,1.0,-0.01182000000000001,-0.015534857142857158,-0.005910000000000005,0.5920000000000004
0.46243658259302906,0.5273763892300987,-0.12406734048175473,-1.3868933897874174,0.07767808637243068,1.9056007395340238,0.15698412247430665,-0.012619018315678486,-0.06014165896458125,0.00028816810946324733,-0.10061884859791151,-0.010497268232029244,0.04179925604743533,-0.013752777725800356,0.5754613073749644,0.8178129239827108,0.0026555568821007994,0.0,0.8177787435105812,-0.5753996849431753,-0.01157048532940912,0.0,-0.007934638612214606,0.008830194593598767,-0.9999295321039043,0.0,0.6581132787755398,0.2561709496651501,0.30383760274356936,1.0,-0.01216000000000001,-0.0159817142857143,-0.006080000000000005,0.6090000000000004
0.46228663541092035,0.5262332698501836,-0.12407301855086371,-1.3886643109682801,0.07756978574133429,1.9062799375071804,0.15685509949473678,-0.010570117361857992,-0.06467036856375892,-0.0025605659589040923,-0.10266849087166391,-0.004843701854428777,0.03938889145652935,-0.006222448276646033,0.5755489805694083,0.8177510959741413,0.0026949767742820794,0.0,0.8177174796337048,-0.57548727618552,-0.01154406129925076,0.0,-0.007889395831557455,0.0088480726807693,-0.9999297320528323,0.0,0.6579095665481873,0.25590232330549295,0.3038581292907239,1.0,-0.01250000000000001,-0.016428571428571445,-0.006250000000000005,0.6260000000000004
0.46213457717339573,0.5250618828631971,-0.12407693991436658,-1.3904963405576687,0.07745083002027206,1.906933448625758,0.15671659984988062,-0.00869599336629855,-0.07024513797375853,0.0002459879992890403,-0.10559820305322815,-0.009210151442163582,0.04309631319417199,-0.012712582259633254,0.5756292610621213,0.8176946267016817,0.0026829411998559524,0.0,0.817660890084701,-0.5755676260969153,-0.011546580284403701,0.0,-0.00789751460960686,0.008840455772593209,-0.9999297353338003,0.0,0.6576872930536154,0.255623057735186,0.30386684840927414,1.0,-0.01284000000000001,-0.016875428571428586,-0.006420000000000005,0.6430000000000005
0.46199569371525157,0.5239675060166505,-0.12409039510297677,-1.392253445343861,0.07733787284344848,1.907560888412434,0.1566010040580093,-0.0030450882752961687,-0.07175913172642528,-0.0016012609961878917,-0.10580269582180028,-0.0060412590824767826,0.03883250305809348,-0.005660672113463286,0.5757216704992948,0.8176296910683772,0.002644485231508349,0.0,0.8175955220756447,-0.5756602246594228,-0.011559192364739639,0.0,-0.007928966576880248,0.008817166579106236,-0.9999296920596661,0.0,0.6574733002803835,0.25535402689052117,0.3038548506143914,1.0,-0.01316000000000001,-0.017296000000000016,-0.006580000000000005,0.6590000000000005
0.4618392204724769,0.522763979719328,-0.12408828197883115,-1.3941729945870724,0.07722151937120618,1.9082795347978976,0.156451531399455,-0.00856626482367491,-0.07303888019047713,0.000856428382164825,-0.11450351466177237,-0.012719724929067663,0.04257412735358005,-0.00910399255396543,0.5757975233661167,0.817576274985768,0.0026445353184265715,0.0,0.8175420859709736,-0.5757360448601008,-0.011562491785317958,0.0,-0.007930817351480102,0.008819842863883445,-0.9999296537797018,0.0,0.6572427566357304,0.2550702906944482,0.3038493956814513,1.0,-0.01350000000000001,-0.01774285714285716,-0.006750000000000005,0.6760000000000005
0.46167699969253184,0.5215543390762988,-0.12409113823767517,-1.39611537128793,0.0771088165042582,1.9090442725579178,0.15630877921904424,-0.009865602851325693,-0.07068757467042507,0.0002848533016949962,-0.11739151544471495,-0.006703895880043467,0.04475820900570637,-0.014984231222712066,0.575889309224286,0.8175115445434501,0.00266926217628483,0.0,0.8174776842318763,-0.5758277465336875,-0.011549415830791509,0.0,-0.007904897744304529,0.008833417437874247,-0.9999297391957199,0.0,0.657017965447267,0.25478097470597866,0.30384123013638387,1.0,-0.01384000000000001,-0.018189714285714302,-0.006920000000000005,0.6930000000000005
0.4615173341562813,0.5203651474656341,-0.12409432182852642,-1.398028920583221,0.07699183643901977,1.9097574020448467,0.15617719189024082,-0.007357586870902153,-0.07751182656625846,-0.0003386262579790757,-0.11829768221054114,-0.010179580668507474,0.047571670574667775,-0.0010195513264916215,0.5759948830939166,0.817437184417113,0.002662908758569613,0.0,0.8174032703683387,-0.57593336003439,-0.01155012085869589,0.0,-0.007907992538983333,0.00882965083981238,-0.9999297479923528,0.0,0.6567754596116031,0.2544747535088103,0.30383266805333675,1.0,-0.01418000000000001,-0.018636571428571447,-0.007090000000000005,0.7100000000000005
0.46134177989404607,0.5189832057185907,-0.12410887378889723,-1.400189207218607,0.07685170168765353,1.9105441964950283,0.15602072752910262,-0.009699805408771692,-0.0763401282822546,-0.005446754464934561,-0.12159901844301148,-0.010754457705137388,0.04827115809962739,-0.004110536743598131,0.5760879543792166,0.8173716278988873,0.0026528524838870743,0.0,0.8173376615547363,-0.5760265398541885,-0.011546397232685936,0.0,-0.007909736352345875,0.008820186423778437,-0.9999298177283674,0.0,0.6565270035348499,0.25416091322021545,0.3038382345103404,1.0,-0.01452000000000001,-0.019083428571428588,-0.007260000000000005,0.7270000000000005
0.46118099192782747,0.517696062095067,-0.1241096801001901,-1.4021714470014934,0.07672304315232267,1.911254694303202,0.15587361676044154,-0.010104626752125511,-0.08012375952723554,-0.0004307584257595134,-0.12313602664303354,-0.005805776133150586,0.04379368607028287,-0.0016877098192054263,0.5761698438089089,0.8173138790470978,0.0026610342748808026,0.0,0.817280041385039,-0.5761084174072185,-0.011540028051411903,0.0,-0.00789893292517968,0.008823996251505623,-0.9999298695152562,0.0,0.6562819748057067,0.2538639677781822,0.303859583944572,1.0,-0.014840000000000011,-0.019504000000000018,-0.007420000000000006,0.7430000000000005
0.46099379753721115,0.5163648031234466,-0.12411390382530114,-1.4043006274421466,0.07657599348233665,1.9120422227085334,0.1557182374255384,-0.011970491835026463,-0.07213085135430432,-0.0017003104677776114,-0.1213004947102144,-0.006675476999646185,0.045302558145223326,-0.013362843170663514,0.5762716666676272,0.8172421612573311,0.0026387422704265842,0.0,0.8172081731610733,-0.5762104550518061,-0.011535168353353945,0.0,-0.007906707259771162,0.008803961946086264,-0.9999299846661065,0.0,0.6560264728531956,0.25353314952683687,0.30384838128225355,1.0,-0.015180000000000011,-0.019950857142857163,-0.007590000000000006,0.7600000000000006
0.4608241649105121,0.5150706599253917,-0.12412194616510237,-1.4063496502010138,0.07645418018819285,1.9128226399897332,0.15554579924464157,-0.009040449494952817,-0.08482152356638359,-0.00014872759795878083,-0.12865373591120688,-0.007019003919896372,0.04965861591113463,-0.011203957968797194,0.576350434535869,0.8171865533054451,0.0026571805152088143,0.0,0.8171528185346493,-0.5762891688769071,-0.011524404420650326,0.0,-0.007886435815071535,0.008813587731842432,-0.999930059954909,0.0,0.6557818591751321,0.25322424049071596,0.30384845003156874,1.0,-0.015500000000000012,-0.02037142857142859,-0.007750000000000006,0.7760000000000006
0.46062375979770953,0.5135759460286653,-0.12412107485028952,-1.4087163749547744,0.07631919088727115,1.9136708553629567,0.15536053672993252,-0.012700276695233432,-0.08016136804560617,0.0007810883816637842,-0.13501402899021342,-0.0015742862617160523,0.045118866027774436,-0.015544459483803803,0.5764500941054975,0.8171163086565777,0.0026408397187273032,0.0,0.8170822169150258,-0.5763887075638551,-0.011552293941205168,0.0,-0.007917570027150655,0.008817273861281796,-0.9999297814179355,0.0,0.6554862921837231,0.2528678570866774,0.30384305454047766,1.0,-0.015860000000000013,-0.02084457142857145,-0.007930000000000006,0.7940000000000006
0.46044347539779534,0.5122713740403212,-0.1241266355847134,-1.4108605011423898,0.0761827137067137,1.9144224909279326,0.15519520703234582,-0.016603266275937955,-0.08784360777738834,4.562081656273924e-05,-0.13683312328931505,-0.008548713272354978,0.048655745535870105,-0.011263836339196687,0.5765505480843485,0.8170456913926163,0.0025594104022617714,0.0,0.8170104959176807,-0.5764893691950312,-0.011601882031302902,0.0,-0.008003948938230088,0.008780305654058532,-0.9999294190261708,0.0,0.6551969701639729,0.2525177365355479,0.3038017210861253,1.0,-0.016200000000000013,-0.021291428571428593,-0.008100000000000007,0.8110000000000006
0.4602434235197723,0.5108244420511238,-0.12413195169138251,-1.4131715762193977,0.07604304916287026,1.9152828781440916,0.15502800025619484,-0.012716111033747918,-0.0867881570100347,-0.0019351978519777306,-0.13178063409218765,-0.008748046718805174,0.047151298028127474,-0.0033963346349401213,0.5766553417993301,0.8169717543532149,0.0025526975019257506,0.0,0.8169364933991057,-0.5765941963536569,-0.011603679815563204,0.0,-0.008008162273156094,0.008776884678333305,-0.9999294153250767,0.0,0.6549335156638579,0.25218456317473625,0.30378975777522227,1.0,-0.016520000000000014,-0.021712000000000023,-0.008260000000000007,0.8270000000000006
0.46003799741355894,0.5092612156634121,-0.12413539211946162,-1.4156493052033052,0.07590010722583777,1.91621454813649,0.15483347051671906,-0.010131587714897127,-0.08860533098143258,-0.0014736501102135104,-0.1389302485640832,-0.008068885462027844,0.050761039760100414,-0.003692224084436566,0.5767573188207631,0.8168997175770379,0.0025677831778918433,0.0,0.8168645838739956,-0.5766960340725394,-0.011605291835048763,0.0,-0.007999683266094237,0.008791137396639254,-0.9999293579903111,0.0,0.6546298009437482,0.25181464832263656,0.30378542218124316,1.0,-0.016880000000000013,-0.02218514285714288,-0.008440000000000007,0.8450000000000006
0.4598280992784112,0.5077555473705163,-0.12413270815093932,-1.4180363276466879,0.07574158128692031,1.9170622664562502,0.15464772128094326,-0.01630553372642453,-0.08868478836604615,0.0010118727458765804,-0.13848240622057018,-0.01297152478661947,0.04190359769216821,-0.013031748972036043,0.5768558342388901,0.816830266126579,0.0025317474882769544,0.0,0.816794678991668,-0.5767946760053092,-0.011623295747623462,0.0,-0.008034115968199862,0.008773052750527088,-0.9999292407595881,0.0,0.6543290024596198,0.2514473770178384,0.30377592796207586,1.0,-0.017220000000000013,-0.02263200000000002,-0.008610000000000007,0.8620000000000007
0.459626110525297,0.5062883836820283,-0.12414510724880025,-1.4203062954502548,0.07559501770491592,1.9178866382836424,0.15445817829180736,-0.011965442545050645,-0.09272181631208312,-0.0022650054559705405,-0.14410453337576706,-0.008010838551926518,0.05066835062553664,-0.016080518280488138,0.5769524078552601,0.8167620231772051,0.002542334892293419,0.0,0.8167266445963894,-0.5768912790103268,-0.011609785069529335,0.0,-0.008015935045942946,0.0087748550397211,-0.9999293708579478,0.0,0.6540503575777212,0.2510902358860262,0.30379313368398997,1.0,-0.017540000000000014,-0.02305257142857145,-0.008770000000000007,0.8780000000000007
0.45940492755953666,0.5046858690980494,-0.12414790672975967,-1.4227610661675891,0.07544097251378538,1.9188484791478737,0.1542719697883586,-0.010707240885572518,-0.09763951976626471,-0.002268380015559913,-0.14376578359914274,-0.015771705592083216,0.0553641648072625,-0.011206472084892173,0.5770680839574621,0.8166800230217185,0.002629329974966811,0.0,0.8166458608877728,-0.5770067456578644,-0.01155423132004844,0.0,-0.007919121235962667,0.008814979286093441,-0.9999297893647514,0.0,0.6537605655334594,0.2507140937935418,0.30382806766692716,1.0,-0.017880000000000014,-0.023499428571428595,-0.008940000000000007,0.8950000000000007
0.4591781284184201,0.5030336312680617,-0.12414548560205581,-1.4252348877884657,0.07528601364836796,1.9197939748022286,0.15407541971801478,-0.015116041499815516,-0.09571112669931045,0.00035237321978671504,-0.1483272561998189,-0.006479933337632302,0.05548357312682727,-0.005262113637308583,0.5771762027548656,0.8166032779545241,0.0027320886897726536,0.0,0.8165704817633447,-0.5771145567748553,-0.011497111487229227,0.0,-0.007812001179442807,0.00886697284518033,-0.9999301722771122,0.0,0.6534634509994415,0.25033458857767765,0.303886419729161,1.0,-0.018220000000000014,-0.023946285714285736,-0.009110000000000007,0.9120000000000007
0.4589597608637877,0.5014404944457658,-0.12415153766534374,-1.4276014399077355,0.07513119700330852,1.92066395800499,0.15389351543570515,-0.011964606774703623,-0.09597993141124242,-0.0011429949059081187,-0.1473846614447397,-0.013347508878342986,0.05922975343018739,-0.016712959736184523,0.5772941255855965,0.8165196350529801,0.002815144493238962,0.0,0.8164880316853372,-0.577232340451468,-0.011439674502893727,0.0,-0.007715874960189106,0.008902760081045721,-0.9999306006601348,0.0,0.6531571072021561,0.24993621615692652,0.30395438924909923,1.0,-0.018560000000000014,-0.02439314285714288,-0.009280000000000007,0.9290000000000007
0.45872945747996424,0.4997183617563426,-0.12415473017694002,-1.4301975816386094,0.07496338627838006,1.9215846268782102,0.15368961692825087,-0.02051062278758104,-0.0960024163165962,0.0015423760133404906,-0.15444657102993073,-0.011833480918046514,0.05560692692807985,-0.005090669121770564,0.5773995392699868,0.8164449967087245,0.0028436422605343037,0.0,0.8164137267188708,-0.5773376131635787,-0.011430404752029423,0.0,-0.007690703204630611,0.008921670782678276,-0.9999306260309581,0.0,0.6528452055370183,0.24956054991932425,0.3039932784304693,1.0,-0.018880000000000015,-0.02481371428571431,-0.009440000000000007,0.9450000000000007
0.45847225082801757,0.4980512388542402,-0.12415439587633578,-1.4328090387810384,0.07479412656675348,1.9225729747753184,0.1534908774431396,-0.016783754788132547,-0.09334541857706129,0.00010230611027368239,-0.15055565208495905,-0.006550298098751807,0.06228433984845653,-0.018257959612778818,0.5775339358412159,0.8163498305383383,0.002872983290690659,0.0,0.8163190056838796,-0.5774719807985547,-0.011407859268257079,0.0,-0.007653883989755195,0.008933868730579442,-0.9999307996303425,0.0,0.6525294183947425,0.24914480490662883,0.30399848923050665,1.0,-0.019220000000000015,-0.02526057142857145,-0.009610000000000007,0.9620000000000007
0.45821296375973514,0.49637515034897006,-0.1241554285929593,-1.4354746088609558,0.07463554383136874,1.9235251475730892,0.1532669525758951,-0.016436425139969738,-0.1003440006460686,-0.0006889796326517101,-0.15830044708951857,-0.005859006286845851,0.06406532263978201,-0.019066986078686385,0.5776554858550881,0.8162639318558556,0.002842554124312455,0.0,0.8162325914619436,-0.5775934653587023,-0.011440817779063396,0.0,-0.007697034408617354,0.008929208386934007,-0.9999305100350201,0.0,0.652192591024666,0.24872007283807077,0.303980512431691,1.0,-0.019560000000000015,-0.025707428571428596,-0.009780000000000007,0.9790000000000008
0.4579365688919409,0.4947160654674332,-0.12415292297957234,-1.4382110882903782,0.07446619092964381,1.9244622831819322,0.15305725371155168,-0.016947927228365366,-0.09667084063135302,0.00013311718555556061,-0.16322701263245684,-0.011985373875632943,0.056063486573298765,-0.013272082056658219,0.5777999889989437,0.8161620623792095,0.0027216809041918904,0.0,0.8161290054354037,-0.5777381547530399,-0.011524666189516765,0.0,-0.007833727245578126,0.008880365701528087,-0.9999298834530594,0.0,0.6518378975695627,0.24827513149038943,0.3039149852656011,1.0,-0.019900000000000015,-0.026154285714285738,-0.009950000000000007,0.9960000000000008
0.4576472625767948,0.49290028581966544,-0.12419500801141455,-1.4410915309111012,0.07428449980118743,1.9255044257016656,0.1528649136336037,-0.017731109073384557,-0.12832563543420072,-0.00880093171600094,-0.18207225164049243,-0.01769359233544487,0.06456941151136518,-0.011402362440754052,0.5780046281389475,0.8160172610283459,0.002688206644143953,0.0,0.8159839118914523,-0.5779430358803349,-0.011526044983125937,0.0,-0.007851972523432504,0.008855811219653939,-0.9999299581146338,0.0,0.6514858893218586,0.24778581567309974,0.3038997445695343,1.0,-0.025746857142856842,-0.03383872653061186,-0.035871594305141453,1.0129999999999992
0.4573785210650079,0.4904353829779222,-0.1243091565447965,-1.4449253898205923,0.07409771727195333,1.9269468992007563,0.15289273392676672,-0.014595587275631839,-0.15188445387159008,-0.010184524992989025,-0.24712575352122726,-0.008980634657535052,0.09804060868251088,0.005501158893248649,0.5784706419222895,0.8156867837695231,0.0027448349593193035,0.0,0.8156542452764132,-0.578408897878587,-0.011491123472134102,0.0,-0.007785670481487927,0.008886284947007592,-0.99993020620191,0.0,0.6510087982383446,0.24718936166576289,0.30391835045596294,1.0,-0.03391657142857023,-0.04457606530612088,-0.07253718623742314,1.0299999999999974
0.45702821450795683,0.48752341754173045,-0.12443716866673972,-1.4496268642396097,0.07389052341310177,1.9286806441180981,0.15332978839979816,-0.023012898833941756,-0.19684383943155867,-0.009454849894772448,-0.3157379874573852,-0.013032820974989683,0.11367475622691561,0.04442838781432416,0.5793839566915828,0.8150384607176825,0.0026991073644785455,0.0,0.8150051602252002,-0.5793220501109902,-0.011545473688998038,0.0,-0.007846503761390122,0.00888921980288919,-0.9999297046042878,0.0,0.6504116915828446,0.24645132312837711,0.3038591494561914,1.0,-0.041605714285712234,-0.05468179591836467,-0.10704597864427648,1.0459999999999956
0.4565267937611885,0.48370358972578503,-0.1246240491785988,-1.4556016983710836,0.07357553110018632,1.9309535024320774,0.1544118953278528,-0.028916951807013303,-0.23767861017897646,-0.012757863729088373,-0.3650862828649329,-0.015784095007453553,0.1321683290227302,0.06655601754039678,0.581019012327161,0.813873466982105,0.0027629618359796358,0.0,0.813841440131359,-0.5809572068967126,-0.01147087533252351,0.0,-0.00773082732758984,0.008913581109910154,-0.9999303887674521,0.0,0.649686394730868,0.24546088241015498,0.30387019062931103,1.0,-0.049775428571425626,-0.06541913469387368,-0.14371157057655815,1.0629999999999937
0.45589257903516106,0.47918232225756163,-0.12479389176177366,-1.4627492776879503,0.07319738062828718,1.9334747329143218,0.15595649382133173,-0.041090119201911954,-0.2758508445534023,-0.01036567453081004,-0.43862248590586445,-0.029532698552649457,0.15317804631973841,0.1048073736230705,0.5831603166612559,0.8123409304952033,0.002646623308940081,0.0,0.8123074518567804,-0.5830986683819891,-0.011545280001087475,0.0,-0.007835611831568168,0.008882791998758799,-0.9999298471360537,0.0,0.6487661758005512,0.2442721560239394,0.3038267035720059,1.0,-0.057945142857139004,-0.07615647346938272,-0.18037716250883984,1.0799999999999919
0.455133292964145,0.47394490917060395,-0.12497265676399363,-1.4708935145699569,0.07274278178810087,1.9364752138671306,0.15792480239834492,-0.04983696251776208,-0.31687468946922964,-0.014274901700967563,-0.5024742958373659,-0.03418787303257066,0.19163028830658393,0.11846210307373421,0.5856103132285057,0.8105764168946432,0.002679611139990888,0.0,0.8105437062124733,-0.5855486367320768,-0.011508311855451502,0.0,-0.0077594729322031375,0.00891149962900148,-0.999930185440052,0.0,0.64780550922052,0.2429904728116393,0.3038440682171537,1.0,-0.06563428571428102,-0.0862622040816265,-0.21488595491569318,1.09599999999999
0.4543092644622635,0.46844111169701347,-0.12512872120980156,-1.4793670638084546,0.07229742689819454,1.9396123215792906,0.1602665217104484,-0.05674122348918718,-0.3574444581942465,-0.008292390369592308,-0.5529593605335106,-0.026951584860820076,0.2082929654021405,0.16260381682076763,0.5887328016627279,0.8083109539745167,0.0027994342946925386,0.0,0.8082798676001938,-0.588670443104982,-0.011467865887163559,0.0,-0.007621804131952847,0.009014408749214012,-0.9999303218408151,0.0,0.646667698914505,0.24149431492993756,0.3038869509998731,1.0,-0.0738039999999944,-0.09699954285713552,-0.25155154684797487,1.1129999999999882
0.45330905528460974,0.4619195384475577,-0.12527644193668283,-1.4893738488336838,0.07172335322093312,1.9432658237419886,0.16320583139765601,-0.06314087549222122,-0.3891751780343076,-0.006204209858691032,-0.6129604442842269,-0.0364300139313903,0.21578983977744098,0.18236844426170265,0.5923330695744469,0.8056760423688276,0.002897644323423025,0.0,0.8056464408669755,-0.5922702122915242,-0.011426060201833482,0.0,-0.007489658743841665,0.00910268540345996,-0.9999305206514832,0.0,0.6453745988061876,0.23981869875244002,0.303941375754911,1.0,-0.0819737142857078,-0.10773688163264455,-0.28821713878025657,1.1299999999999863
0.4521544957526832,0.4547916846419934,-0.12546384730639243,-1.5005239082614534,0.07102412536281792,1.9470606880415962,0.1665209873409785,-0.07472069670181247,-0.4228298485394138,-0.0073775422564831585,-0.6715269021823467,-0.03875480371270208,0.22983803164642183,0.22327936651559252,0.5963848308824904,0.8026823722653741,0.002624814070247561,0.0,0.8026496315649705,-0.5963227173441087,-0.01155563192404277,0.0,-0.007710414236290042,0.008998582887776649,-0.9999297850440885,0.0,0.6438715527775493,0.2378864547881356,0.3038718167388666,1.0,-0.09014342857142117,-0.11847422040815357,-0.3248827307125382,1.1469999999999845
0.45087904693453335,0.4468583358519619,-0.12563468841861541,-1.5122791647666605,0.07025036948717417,1.9515100687656768,0.17036837581237,-0.07843962097311895,-0.4722430637252876,-0.00888840841993563,-0.7080212684754413,-0.041245387208747264,0.26894293320776297,0.227892256028271,0.6009308509236958,0.7992831157969346,0.0030594298938159447,0.0,0.7992571035157346,-0.6008683103397287,-0.01122955966751445,0.0,-0.007137420386638393,0.009193636927838658,-0.9999322648411058,0.0,0.6423738770435765,0.2358595829546753,0.3041086984595096,1.0,-0.09831314285713455,-0.1292115591836626,-0.3615483226448199,1.1639999999999826
0.44973442856816487,0.44005251843333953,-0.12576358217383354,-1.5228098842841415,0.06960898601132934,1.9552508311293404,0.17387296049687218,-0.08067122786488011,-0.49088237398964363,-0.004549738768462873,-0.783118109381771,-0.044891433010046305,0.2617447295363051,0.24679997093900732,0.6050242303140002,0.796189256409628,0.0030158932414167195,0.0,0.796162860858962,-0.6049614746638707,-0.011272092201379584,0.0,-0.007150357151773479,0.009221208636140496,-0.9999319185344023,0.0,0.6409469667362756,0.23404878755309808,0.3040815320876331,1.0,-0.10504114285713381,-0.1380540734693759,-0.3917435160008166,1.177999999999981
0.447923005396349,0.4295345989770393,-0.12594350810729665,-1.5387278487458529,0.06857219012011317,1.9609625078558395,0.17941512611017718,-0.09456630662341699,-0.5431696236514458,-0.005022248703879278,-0.7912117436044416,-0.052190135330759405,0.2970536574568342,0.28467644158845407,0.6113938444354161,0.791307940403501,0.003171331275618061,0.0,0.7912842521731076,-0.6113308006052534,-0.011163843217907725,0.0,-0.006895438054592251,0.009335109250272075,-0.9999326520667884,0.0,0.6387894178372975,0.2312711933787565,0.30417958737740197,1.0,-0.11465257142856143,-0.1506862367346808,-0.43487950650938373,1.197999999999979
0.44626338334938254,0.42060239650366604,-0.12610019230838737,-1.5524412883813308,0.06763697906468487,1.9656838849610234,0.18437164415759089,-0.11012586351844966,-0.5661136352203187,-0.0136193029223107,-0.8830401481352346,-0.06330418013550423,0.2934832963254349,0.31613890870124195,0.6170444216784454,0.78691034561801,0.00300608317674444,0.0,0.7868851879770469,-0.6169818379854564,-0.011218709356445457,0.0,-0.006973553996067472,0.009288063176431549,-0.9999325484386906,0.0,0.6368763226907379,0.22880063450964475,0.304138209444546,1.0,-0.12234171428570344,-0.16079196734692458,-0.46938829891623707,1.2139999999999773
0.44434661825860927,0.41050873650208036,-0.12628651648882508,-1.5676102432699872,0.06653458211314156,1.971151074894313,0.19003061440509897,-0.12175059761112159,-0.5894425633321031,-0.011877198757658126,-0.9120901639449125,-0.06752976607817476,0.3230195667994469,0.339084174284783,0.6234329007123727,0.7818580676413536,0.003182337928891202,0.0,0.7818365432580232,-0.623370963781352,-0.011000365533101089,0.0,-0.006617074876444362,0.009346237823040948,-0.9999344289295347,0.0,0.6348001308022293,0.22602470587487458,0.3042344986897604,1.0,-0.13051142857141684,-0.17152930612243358,-0.5060538908485188,1.2309999999999754
0.4421993141707606,0.39997792832838075,-0.12645175857569152,-1.5836972095179562,0.06553262421249535,1.9766215883860587,0.19615828041769431,-0.1317439912347064,-0.6386307316524331,-0.013630273905816524,-0.9388624511651253,-0.05909936992004816,0.3217367545623934,0.36227368481493577,0.630359013982301,0.7762854096406993,0.003036967474536173,0.0,0.77626187869691,-0.6302961703658374,-0.01117945460706642,0.0,-0.006764388765925611,0.009404733130551207,-0.9999328947681271,0.0,0.6324934234410541,0.2230410529837065,0.3041641319081525,1.0,-0.13868114285713024,-0.18226664489794261,-0.5427194827808005,1.2479999999999736
0.4399961266878697,0.3895100294018305,-0.1266441451673562,-1.5993381598791803,0.06442914843742072,1.982141577789986,0.20227204405425034,-0.13511410232896787,-0.6678724950871616,-0.009052149359989946,-0.9985993629512695,-0.07352177561769384,0.3353236237084934,0.3935454606830397,0.6376487809323597,0.7703082175961186,0.003166856576250628,0.0,0.7702872971228067,-0.6375859930614264,-0.011060209958388946,0.0,-0.006500752383861441,0.009492101541687073,-0.9999338179233495,0.0,0.630136128366115,0.21986707412226889,0.3042217444650838,1.0,-0.14685085714284363,-0.19300398367345165,-0.5793850747130822,1.2649999999999717
0.43749929646541935,0.37787844224066164,-0.1268106578361805,-1.616744276559718,0.06310868280269812,1.988008077617905,0.20921122270367878,-0.15388245958763716,-0.6977523822670735,-0.00965318650944055,-1.0323888181545577,-0.07255129638995872,0.35577546131216686,0.42168503594563533,0.6448511460562153,0.7642892817803668,0.003104848924648589,0.0,0.7642686629701362,-0.6447890092734643,-0.011013229462474072,0.0,-0.006415444291071659,0.00947501480041793,-0.9999345309414414,0.0,0.62773414071852,0.21671663957615425,0.3042546872231519,1.0,-0.15453999999998563,-0.20310971428569544,-0.6138938671199355,1.28099999999997
0.43478224776423713,0.36583332356849446,-0.1270034356853348,-1.6348069477332086,0.061800059617780526,1.9940999472964847,0.21665705423504672,-0.16013665398702953,-0.7257862286842086,-0.021672272965832493,-1.0693457629005056,-0.08455629997755196,0.3573506128560739,0.44600797871175446,0.6529931775106844,0.757345073341965,0.0030161084797260124,0.0,0.757324082283542,-0.6529310974800048,-0.011043696761299245,0.0,-0.006394701431684635,0.009495813049928165,-0.9999344665167414,0.0,0.6250513828086842,0.2131877641286573,0.3042186277058422,1.0,-0.162709714285699,-0.21384705306120444,-0.6505594590522172,1.297999999999968
0.431826641136953,0.3532758864469312,-0.12719197731773094,-1.653476727614879,0.06030100497401156,2.000401007914575,0.22451864006560615,-0.17281879994991198,-0.7342217608109307,-0.013008480435070625,-1.1044340629972602,-0.08127694894961977,0.3685280833073953,0.46604451078439507,0.6614864987178822,0.7499383871971629,0.002962148423719368,0.0,0.7499182681038371,-0.6614255629942546,-0.010934472236165737,0.0,-0.006241059944554872,0.009454557000131217,-0.9999358282023402,0.0,0.6222543887133717,0.2094549075336059,0.3042129193410861,1.0,-0.1708794285714124,-0.22458439183671347,-0.6872250509844989,1.3149999999999662
0.4287995181024093,0.34088126612154085,-0.1273819981092818,-1.6715095096936547,0.0589766677849696,2.0064030534400388,0.2323154070990065,-0.1891898502166079,-0.7670499618602163,-0.018250960881172864,-1.1321562762893886,-0.0912794736791991,0.3906211204027998,0.5026463830857574,0.6704532499201015,0.7419322156705997,0.0031263273815872713,0.0,0.7419147388738112,-0.6703916162150539,-0.010878789067752612,0.0,-0.005975575459035709,0.009613372935833253,-0.9999359357272495,0.0,0.6193338457648704,0.20553158411870134,0.3043260785061283,1.0,-0.17904914285712578,-0.2353217306122225,-0.7238906429167806,1.3319999999999643
0.42519367155257826,0.3266706934432356,-0.12757760154854553,-1.6924276964778804,0.05733224116428093,2.013318381759423,0.24155165394328773,-0.20169287404891162,-0.7988024525098124,-0.014513332105971471,-1.14408109852765,-0.09682704770709949,0.4009509027944085,0.5228172631263959,0.6797005235295415,0.73346996179207,0.0031241580649360693,0.0,0.7334534405663398,-0.6796390238011044,-0.010844111272429291,0.0,-0.005830642401138286,0.009662358621028308,-0.9999363191899115,0.0,0.6162620840984275,0.2014717307842435,0.30431352928300714,1.0,-0.18721885714283917,-0.24605906938773153,-0.7605562348490622,1.3489999999999625
0.42161016795750905,0.31276852768534713,-0.1277011092429893,-1.7127846230025905,0.055621150151490106,2.0198274023611504,0.25062279899958667,-0.2243697686889749,-0.8062014212385905,-0.013781789688651213,-1.1808318308882042,-0.09498564109561031,0.378989909052044,0.5508741150311472,0.6891161408427398,0.7246316394745179,0.0029459130485240325,0.0,0.7246141554372261,-0.6890554041864622,-0.01085000472970836,0.0,-0.005832471702399811,0.009611748739057874,-0.9999367962826539,0.0,0.6129833537051828,0.19728050578576928,0.3042684185507271,1.0,-0.19538857142855254,-0.2567964081632405,-0.7972218267813439,1.3659999999999606
0.41776407847434577,0.2983493313048821,-0.12785829591969805,-1.73363000891295,0.053870728089171156,2.026459539262886,0.26020080784437893,-0.2331914663485812,-0.8501260931874387,-0.01068062617872317,-1.243430263901254,-0.10323056822425322,0.3808970516391965,0.5695218910374746,0.698960463125468,0.7151409412354204,0.0029072422596199497,0.0,0.7151241232082586,-0.6989000654048949,-0.010813597174921932,0.0,-0.005701484027653414,0.009637501513069122,-0.9999373038568308,0.0,0.6095841680578427,0.19289729851677703,0.30428436509408674,1.0,-0.20355828571426604,-0.2675337469387497,-0.833887418713626,1.382999999999959
0.41383264499459554,0.28433861606385,-0.12802215528545616,-1.7535446016764618,0.052214973008964466,2.0327708781595404,0.26962955556757534,-0.2537703871717975,-0.8683562225008687,-0.008042333585854461,-1.253933033822392,-0.09906605637587909,0.3974535403141754,0.5904385124632604,0.7086049602769483,0.7055850581051134,0.0030794400329368626,0.0,0.7055711783785857,-0.7085441756218035,-0.010733607738373807,0.0,-0.005391657746363132,0.009778840090838486,-0.9999376502128638,0.0,0.6063123655011462,0.18858389100298928,0.3043949909748024,1.0,-0.21124742857140805,-0.2776394775509935,-0.8683962111204795,1.3989999999999572
0.4093573330705134,0.2691405099603362,-0.12818242803528998,-1.7751894801618484,0.05034276466524613,2.0394832503513305,0.27998561888575024,-0.2663487394691978,-0.9020358478663634,-0.007364335214617411,-1.2652366426742245,-0.10267673720470903,0.4049182266798971,0.6300283087024555,0.7190869640498537,0.6948993747158873,0.003089345277240743,0.0,0.6948866757675506,-0.719026250252588,-0.01070075649821611,0.0,-0.005214729048860833,0.009841708856731926,-0.9999379717601118,0.0,0.6026767498752502,0.18380685001906852,0.30442355599627136,1.0,-0.21941714285712144,-0.2883768163265025,-0.9050618030527611,1.4159999999999553
0.40481282194893836,0.2545124175999806,-0.12839398270667204,-1.7959361437589556,0.04846124612759859,2.045768364750986,0.29006736262894556,-0.3002061834527273,-0.9250517454733906,-0.016234237662075615,-1.2769791792125476,-0.12002539968973588,0.4165302297502661,0.6209063752700769,0.7292417149090284,0.6842355754510601,0.002990890319664148,0.0,0.6842230188627421,-0.7291817455159935,-0.01065783119649847,0.0,-0.005111663053210369,0.009818760144112537,-0.9999387295479972,0.0,0.5991381606039012,0.17906516636767572,0.3044182071157515,1.0,-0.22710628571426345,-0.2984825469387463,-0.9395705954596144,1.4319999999999535
0.39966965048637354,0.23856762015913524,-0.12859411938350465,-1.8184124531875092,0.04639903468502292,2.052387827489578,0.3011812891264042,-0.30696582310134773,-0.9555627192588715,-0.007197751747060603,-1.296277578422667,-0.12204022158505205,0.3925054116745682,0.6598669360464271,0.7409455290724951,0.6715447509320893,0.002849095338317986,0.0,0.6715318102011603,-0.7408860143373921,-0.010662483219916393,0.0,-0.005049576968566949,0.009813766365997262,-0.9999390940263073,0.0,0.5949793927932957,0.17355123242299472,0.3044073586605594,1.0,-0.2357565714285482,-0.30985149387752053,-0.9783929869173245,1.4499999999999515
0.3943019890990375,0.22222253022120222,-0.12871694215485877,-1.841230510252009,0.04430769548701605,2.059171185754323,0.3127152020245335,-0.3271388359444207,-0.9572395949821695,-0.006225985877367939,-1.3348197218323807,-0.12863550843440233,0.38042531957273495,0.686888634142647,0.7514561858303501,0.6597622725507507,0.0028445381311730323,0.0,0.6597502501522114,-0.7513965411693718,-0.010657966222841764,0.0,-0.004894442136141264,0.009885869723760723,-0.9999391551569428,0.0,0.5911436276407221,0.16858939803976958,0.30438989920768944,1.0,-0.24344571428569023,-0.3199572244897643,-1.0129017793241777,1.4659999999999498
0.3885742075238477,0.20543769795933725,-0.12889721679179095,-1.8642710326002745,0.04203155042338346,2.0657911654793355,0.3245445150059642,-0.3478242198894665,-0.9687945176764478,-0.012780841716537567,-1.3612234994833416,-0.13483119520583253,0.38778870663259346,0.7001006145210631,0.7627908714584775,0.646623946807932,0.0028817937743796196,0.0,0.6466138970892295,-0.7627320572520011,-0.010536784728668131,0.0,-0.004615389694362038,0.009900961732804622,-0.9999403327872791,0.0,0.5869628844367155,0.1630917400617146,0.30446559058835204,1.0,-0.2516154285714037,-0.3306945632652735,-1.04956737125646,1.4829999999999481
0.38245856674960854,0.18830183996481292,-0.1290583474145143,-1.8876080687655576,0.039745198434216096,2.072351057453802,0.3367128455973973,-0.3703361729184035,-1.0158701429296948,-0.014222220957406578,-1.3825273719523954,-0.1380768757588613,0.3843199619220656,0.7373502378730012,0.7743069761579254,0.6327881370796469,0.0029372003077318674,0.0,0.6327799381102671,-0.7742482858154698,-0.010482782940673356,0.0,-0.00435934231592916,0.00997568545231424,-0.9999407391612409,0.0,0.5826400907753069,0.15742010501569403,0.3045298044456983,1.0,-0.25978514285711707,-0.34143190204078255,-1.0862329631887415,1.4999999999999463
0.37582069967303766,0.17088277066516075,-0.1293053628110891,-1.911201015000977,0.037456612085673975,2.0788720219583645,0.349306490896026,-0.40209688757548495,-1.0065472506818842,-0.009478859862537907,-1.3914816355814392,-0.13900533542599788,0.36999080950743307,0.7396115850903258,0.7861746882901641,0.6179814935203982,0.002996674718722028,0.0,0.6179750228599068,-0.7861156405631118,-0.01047939332951594,0.0,-0.004120417605701754,0.010090698189317293,-0.9999405982201177,0.0,0.578219609321148,0.15145071231950935,0.3045583656371592,1.0,-0.26795485714283046,-0.3521692408162916,-1.1228985551210233,1.5169999999999444
0.3692812078347954,0.1541533812541274,-0.1294435462682081,-1.9336000390280663,0.03506317142997184,2.084888947706879,0.3613974976998564,-0.4119200345290747,-1.046575990073645,-0.006050047758402773,-1.3814212520811668,-0.14290572297313758,0.3835703957455482,0.7573363868385057,0.7972451476992699,0.6036322050700754,0.0030136976318326765,0.0,0.6036274389328542,-0.7971871243905085,-0.010361012236444762,0.0,-0.0038518338738781077,0.010079611377733166,-0.9999417807103982,0.0,0.5739128477325062,0.1457440984929297,0.30460152051826156,1.0,-0.27564399999997247,-0.3622749714285353,-1.1574073475278766,1.5329999999999426
0.36200258151232795,0.13607135526016678,-0.1295894370404706,-1.9577003744037795,0.032473140765951244,2.091189034482654,0.3744642183006558,-0.4365197047118594,-1.0850802530892802,-0.011641060390938209,-1.4206196701854694,-0.15708688185157538,0.3902782027048217,0.7623854929663515,0.8089943009490701,0.5877926577522787,0.002959632687719092,0.0,0.5877887285058498,-0.8089370519870775,-0.010295798421735393,0.0,-0.003657708598850562,0.010069074842155759,-0.9999426158033415,0.0,0.5691633957144704,0.13954843202210895,0.3045905826879956,1.0,-0.28381371428568586,-0.37301231020404435,-1.1940729394601584,1.5499999999999408
0.3542507409570796,0.11763660228609676,-0.1297631563063158,-1.9819380583741537,0.029851173250688638,2.0973049544357405,0.3879775643387479,-0.4647610337626231,-1.1074516537843297,-0.014425310262834288,-1.4096506812881258,-0.16670282312433513,0.3738953928100767,0.7991003688689163,0.820921479956572,0.5710166297649235,0.002946044641192839,0.0,0.5710138609409918,-0.8208645581630576,-0.0102613189326746,0.0,-0.0034411463738884818,0.010106164024564032,-0.9999430103562612,0.0,0.564288622098643,0.13314825592274562,0.30460880263175033,1.0,-0.29198342857139925,-0.3837496489795534,-1.23073853139244,1.5669999999999389
0.34589079411316276,0.09888366152050901,-0.1299687212561739,-2.006332332670819,0.027104050062382312,2.10317817501498,0.40168089825563585,-0.505728585523082,-1.1036565196220123,-0.008270901790601661,-1.4023349689852,-0.16092940295486735,0.3549160000254272,0.8086152217637678,0.8328861201753313,0.553419727332435,0.0028395633088592206,0.0,0.5534172211473647,-0.832829902230519,-0.010221555138115445,0.0,-0.003292000405763662,0.010085048805245064,-0.9999437256785625,0.0,0.5592817158363642,0.1264610112184031,0.30461542632010497,1.0,-0.30015314285711275,-0.3944869877550626,-1.2674041233247222,1.5839999999999372
0.3372537746447591,0.07982341933332161,-0.13005556945281274,-2.0308688478913743,0.02442514839786679,2.1088991469601033,0.415545849821797,-0.5157490734718344,-1.142507220806203,-0.009036256569076865,-1.398611731070363,-0.1588768755392114,0.3221304363065116,0.8178722803687682,0.8446252551664875,0.5353327353828641,0.0027906385747930485,0.0,0.5353306806523819,-0.8445682888125858,-0.010306055775445789,0.0,-0.0031603450299055313,0.010198865796565426,-0.9999429960531528,0.0,0.5540919651856948,0.11979914586021008,0.30461184247027534,1.0,-0.3083228571428261,-0.40522432653057155,-1.3040697152570038,1.6009999999999354
0.32806624762502107,0.060605344411803104,-0.13017879738151514,-2.05541645728407,0.021511371346135292,2.1144893819749515,0.4297348478986371,-0.5484541478833334,-1.1130892561577468,-0.006157529806173824,-1.3885066772108925,-0.16509984309443032,0.3094203207164961,0.8230474558420582,0.8563410844681102,0.5163849498242581,0.002697693123326074,0.0,0.5163834201998897,-0.8562850692773845,-0.010236717076150058,0.0,-0.0029761495908384172,0.010159361003237471,-0.9999439633887584,0.0,0.5488191600163779,0.11290327107171663,0.3045714977724187,1.0,-0.30998,-0.4074022857142858,-1.311506955,1.6179999999999335
0.3183849587996833,0.04143529482237774,-0.1303328917479544,-2.0795644257154575,0.018608306578446393,2.119659720716119,0.4436850104942735,-0.5727009713533153,-1.1109836173084788,-0.0024025670564728043,-1.406206601174338,-0.1636730084313346,0.2794448211228141,0.8087676714600722,0.8677364445872222,0.4969986617442057,0.0025573151553825936,0.0,0.4969970232362875,-0.8676810210341113,-0.010215259795015438,0.0,-0.0028580916494845843,0.010135326371203582,-0.9999445516984791,0.0,0.5435139223188414,0.10586770057473216,0.3045407473357027,1.0,-0.30998,-0.4074022857142858,-1.311506955,1.6349999999999316
0.3090649881338603,0.02345560058471992,-0.13034664667123322,-2.1017212396360603,0.015842356851969407,2.1242470224512484,0.4565163325699421,-0.5915924537649716,-1.0962057488093644,-0.0029267458678423107,-1.3749657940779976,-0.1870814471341984,0.2817409088776763,0.7944554390438293,0.8779116806139818,0.4787951850007069,0.002645517507154227,0.0,0.4787958715854791,-0.8778570788422884,-0.01010986549830432,0.0,-0.0025182171342196247,0.010142427144182023,-0.9999453933861039,0.0,0.5385394747462312,0.09935345146254497,0.3046129356174745,1.0,-0.30998,-0.4074022857142858,-1.311506955,1.6509999999999299
0.2988142946440207,0.004597701519506,-0.13039149861652896,-2.1246265168085983,0.012976453871370433,2.128826870763867,0.47009088497700874,-0.6105559958979918,-1.1028957339482381,-0.008363129035739127,-1.3433526045523092,-0.16433129120396664,0.25532432335981764,0.7908334449546973,0.8884358171558085,0.4589710191059728,0.002854700811643669,0.0,0.45897526983760517,-0.8883817492589925,-0.010015795636806645,0.0,-0.002060935509318129,0.01020882520790195,-0.9999457647456191,0.0,0.533311817496584,0.09240042729866522,0.3047155107723547,1.0,-0.30998,-0.4074022857142858,-1.311506955,1.667999999999928
0.2883364365071752,-0.014099841434170436,-0.13038112743175284,-2.1470212431213938,0.010201527273118778,2.1330546468862037,0.4833247911394438,-0.6169373885453059,-1.0765887723575451,0.0048816879252362375,-1.3084365551576778,-0.16541426021249703,0.22540209772125458,0.7654055947959404,0.898429234340536,0.439085509530611,0.0030940432657436704,0.0,0.43909346082703543,-0.8983750666362449,-0.009995959507107948,0.0,-0.0016095006362626396,0.01033943547814669,-0.999945251292137,0.0,0.5280686021726246,0.08552539691664696,0.3048266140765016,1.0,-0.30998,-0.4074022857142858,-1.311506955,1.6849999999999261
0.27817003779320043,-0.03149144599314198,-0.13040697675322702,-2.16766041270879,0.007415950006145951,2.136726462158905,0.49555049548074703,-0.6380330110699368,-1.0733903588491147,0.0010894291158215152,-1.2644244835598457,-0.16878162941084057,0.229411222559736,0.7544180306508428,0.9079688130110006,0.41900271210487117,0.0031794259490457322,0.0,0.41901293481966584,-0.9079162007419741,-0.009852907453049852,0.0,-0.001241766524601784,0.010278551176765606,-0.9999464032644975,0.0,0.5228201141928289,0.0785893483070217,0.30489015810406067,1.0,-0.30998,-0.4074022857142858,-1.311506955,1.7019999999999242
0.2663245980257838,-0.050849158397507914,-0.13051320560668975,-2.190404913031985,0.00448835382533645,2.1403962847418785,0.5091723132326865,-0.6553718136144272,-1.0745237849848022,-0.001963797845360636,-1.2219354583794586,-0.16355260267473737,0.20980820485995275,0.7481372721497015,0.9172001190405801,0.3983897510355249,0.0032085515434591145,0.0,0.39840141761639836,-0.9171472837545879,-0.009895314246355418,0.0,-0.0009994966895622848,0.010354474243826087,-0.9999458914708844,0.0,0.5175506608824431,0.07158764847022321,0.3049333683690887,1.0,-0.30998,-0.4074022857142858,-1.311506955,1.7189999999999224
0.25567231269521046,-0.06772277456742552,-0.13048378374343947,-2.2102396146383745,0.0018152709163440132,2.1433336765641693,0.520941648976669,-0.6760867381684083,-1.0313267568165696,0.0004959713084368438,-1.2116266031698708,-0.16232388058081412,0.1656845187709165,0.7319203232149738,0.9252979357616471,0.3792043217228958,0.0029256389254799144,0.0,0.37921415045238677,-0.9252454564491144,-0.009910616436586783,0.0,-0.0010512347002062383,0.010279914530765516,-0.9999466077060541,0.0,0.512532021574707,0.06514066407518439,0.304842733753265,1.0,-0.30998,-0.4074022857142858,-1.311506955,1.7349999999999206
0.24386987585033126,-0.08559084136665071,-0.13059170216118032,-2.230777943084426,-0.0010159380403254581,2.146375764483892,0.5331287188271718,-0.6983251418425388,-1.0251145127015788,-0.011132400613290535,-1.1947100773227364,-0.16625031484205371,0.1678149355898051,0.7213316315173045,0.9335540995725837,0.3583969425944157,0.0030202005572464406,0.0,0.3584089721720052,-0.9335025376474105,-0.009837061230887076,0.0,-0.00070622138182036,0.010266093471428983,-0.9999470528863995,0.0,0.5072946191077122,0.05813923307585872,0.3048550873909191,1.0,-0.30998,-0.4074022857142858,-1.311506955,1.7519999999999187
0.2319690819944362,-0.10333860388106958,-0.13054920396596453,-2.2508103025317845,-0.0038146734229726233,2.1489130333373394,0.5451528582537533,-0.7080339425940985,-1.028031784870555,0.002299782133964977,-1.1850020296188912,-0.16592770003825305,0.1407799451931702,0.7093075808663862,0.9412585182105299,0.33764491058013985,0.003010507707232937,0.0,0.3376579978219453,-0.9412076428284726,-0.00979777981760661,0.0,-0.00047466676636442884,0.01023896284948849,-0.9999474677857974,0.0,0.5020071144864915,0.05132617701087945,0.3048936216641506,1.0,-0.30998,-0.4074022857142858,-1.311506955,1.7689999999999169
0.22031078789348688,-0.1197985437180563,-0.1306465099364533,-2.269290569542319,-0.006445702266300525,2.151096186033753,0.5561444867045284,-0.7389435281076717,-1.0336210588908807,-0.010988812993877536,-1.1238161819960104,-0.14945672099814367,0.14470730852743902,0.6804194122644728,0.9481607870350228,0.31774716147403603,0.0029343151717679166,0.0,0.3177605478767315,-0.9481105474719266,-0.009765801901088743,0.0,-0.00032100685000535645,0.010192156243779456,-0.9999480071012218,0.0,0.49703980653385127,0.04476366521974845,0.304869445921248,1.0,-0.30998,-0.4074022857142858,-1.311506955,1.784999999999915
0.20767548597745905,-0.1370411055519259,-0.13069217684195392,-2.288555082552835,-0.009138927517385273,2.1530530761503996,0.5674710203659049,-0.7473873942255918,-1.0135791736646331,0.006098475754473727,-1.1159613395548493,-0.15205584536748673,0.10147003323909716,0.650480429201319,0.9549895325886786,0.29659527128686497,0.0026428389160646102,0.0,0.2966067869251174,-0.954939019949985,-0.009830006517209961,0.0,-0.0003917909885217119,0.010171633123926008,-0.9999481908476127,0.0,0.491708097993552,0.03786441421674358,0.30476656408163444,1.0,-0.30998,-0.4074022857142858,-1.311506955,1.8019999999999132
0.19468482565205653,-0.15425600627202407,-0.13079114546514048,-2.3072599687275157,-0.011870778618862822,2.1548346557817544,0.5786079243486266,-0.7721862777458346,-1.0045635062545264,-0.014024385771218329,-1.0911055766223252,-0.1538724377564932,0.09870293715588191,0.6401801388107617,0.9613891293207273,0.27514433121230725,0.002699245612121057,0.0,0.2751575536941236,-0.9613393213236612,-0.009786563402760145,0.0,-9.78283809764946e-05,0.01015160893820228,-0.9999484663049261,0.0,0.4864415793662359,0.030928455158859693,0.3047941650630121,1.0,-0.30998,-0.4074022857142858,-1.311506955,1.8189999999999114
0.18138602449817195,-0.17127282787573334,-0.1308602878519051,-2.3254351085910354,-0.014508228190706378,2.1563220736767095,0.5893992161697712,-0.7708796827194905,-0.9930599914454902,0.0004904236837525756,-1.079632878683411,-0.15264140210321767,0.072877609598406,0.6327274186069546,0.9672937313189192,0.25360535398073547,0.0028122383676878206,0.0,0.2536208333306112,-0.9672442866012858,-0.009783140552205164,0.0,0.00023906927374617304,0.01017660869834991,-0.9999481883984204,0.0,0.4811938521900254,0.024032589304311396,0.30484770389148874,1.0,-0.30998,-0.4074022857142858,-1.311506955,1.8359999999999095
0.16774618122329707,-0.18803017764454022,-0.13096455800289392,-2.3431982209639024,-0.017200823618854725,2.1574413464254194,0.5998142036989298,-0.815199185219623,-0.982962553703523,-0.01880247554986849,-1.0236472254190765,-0.15683111679152842,0.07415046315369178,0.6006564869114827,0.9723873686417165,0.23331622421685194,0.002663029184647254,0.0,0.23333121274002278,-0.9723384291625762,-0.009760698547355812,0.0,0.0003120422912069598,0.010112742507414708,-0.9999488162244042,0.0,0.47620286492858493,0.017532117428205006,0.30482224849937356,1.0,-0.30998,-0.4074022857142858,-1.311506955,1.8519999999999077
0.15462954549068414,-0.20368011531440744,-0.13104962855584756,-2.359540957435984,-0.01969124127012789,2.158386511180279,0.6092650856085954,-0.8174355015167465,-0.9735311667328246,-0.010241721705978308,-1.0108359422195414,-0.14677536873618727,0.04829555968823987,0.5868689896682736,0.9773296233358812,0.2116598515042611,0.0027679437398326428,0.0,0.21167694615837623,-0.9772816908090713,-0.00970124608671104,0.0,0.0006517089794258468,0.010067418890810443,-0.9999491098812396,0.0,0.470949449472287,0.010624768506851772,0.30485560590170685,1.0,-0.30998,-0.4074022857142858,-1.311506955,1.8689999999999058
0.14028553743691088,-0.22017654567265485,-0.1312067973748499,-2.3763556421609096,-0.022257044062196082,2.1590631281405255,0.6190874806971522,-0.8532273102948866,-0.9715784208905001,-0.011104523274782847,-0.9793414324279428,-0.15328371238485747,0.02905646314994225,0.5621845846392525,0.9818329758067571,0.18967377540278224,0.0029348669665604475,0.0,0.18969361499183612,-0.9817856639919977,-0.009694808524654644,0.0,0.00104257945169961,0.01007560221461019,-0.999948696318016,0.0,0.4657033732603259,0.003679190420586887,0.30494464647177283,1.0,-0.30998,-0.4074022857142858,-1.311506955,1.885999999999904
0.12570271631381072,-0.23627672317345033,-0.13128792551227164,-2.3928598046934684,-0.024854145450582742,2.159422917485647,0.6284963055702368,-0.8621459915590775,-0.9560020521170447,-0.0052304405388487255,-0.9540110408153988,-0.14603612596329016,0.013511205415426128,0.5424185653237342,0.9857930619664659,0.16788532148524837,0.002702722661045875,0.0,0.16790383856669183,-0.9857462875175588,-0.009659427577711608,0.0,0.0010425427972474144,0.009976186270546267,-0.9999496931406158,0.0,0.46038545808463865,-0.0031843653782874766,0.3048794761335972,1.0,-0.30998,-0.4074022857142858,-1.311506955,1.902999999999902
0.11062145309702225,-0.25220746577505054,-0.13150461468696673,-2.4087193676496135,-0.027331839373312225,2.159717410308724,0.6375086926137602,-0.8947973361941772,-0.9260404408407557,-0.010773861602306017,-0.9454868679639772,-0.15015022042527534,0.007959866220400957,0.5194887034960852,0.9891185234098528,0.1470262250783123,0.0029296224914527667,0.0,0.14704798859173496,-0.989072455392642,-0.0096599138662589,0.0,0.0014773766847362424,0.009985787091706989,-0.999949049409164,0.0,0.4554827772023257,-0.009754376905702284,0.3049558635242671,1.0,-0.30998,-0.4074022857142858,-1.311506955,1.9189999999999006
0.09624098042820231,-0.26704360317608056,-0.13159617533478485,-2.4233400414360537,-0.029662567478020322,2.1597560826349906,0.6456549505106829,-0.8997366136883435,-0.9193102110296639,-0.00563333289736944,-0.8884546545795179,-0.1455249144959046,0.014046497468547022,0.504529898092008,0.9921306434839614,0.12509426099728505,0.0029931633520923684,0.0,0.12511760084772866,-0.9920855766026379,-0.009619852198871626,0.0,0.0017661198915862042,0.00991883853822452,-0.9999492474433795,0.0,0.4502192517953292,-0.01661624228216257,0.30497052970285643,1.0,-0.30998,-0.4074022857142858,-1.311506955,1.9359999999998987
0.08051602471025926,-0.2825111572395099,-0.1317907476377024,-2.438484378274194,-0.032147502273854045,2.1596399223383966,0.654044227728241,-0.9074780993992626,-0.9244397894725314,0.0032148237603914637,-0.8995047075459796,-0.1405753374640816,-0.011556483975574378,0.47175821099895526,0.9946817964169429,0.10285742292361783,0.003036663874005671,0.0,0.10288208113818709,-0.9946379039085702,-0.009563701702255779,0.0,0.0020367224930308847,0.009825447458981005,-0.9999496549045441,0.0,0.44494554680619264,-0.023560453402120075,0.3049571173968946,1.0,-0.30998,-0.4074022857142858,-1.311506955,1.9529999999998968
0.06449662222066849,-0.29775326151281384,-0.13196170606897795,-2.452996317098287,-0.03445391797451373,2.159393903154202,0.6619926431756387,-0.9561188257550545,-0.8959312059324087,-0.019793236060762987,-0.8732053586828495,-0.1518961264740427,-0.013773685541019043,0.45132991040306286,0.9967274091253713,0.0806462074888844,0.0033775756235632096,0.0,0.0806752036930532,-0.9966848016944884,-0.009574156960856561,0.0,0.002594308790266342,0.009815500242369692,-0.9999484614303342,0.0,0.43975143972644026,-0.030451165793334744,0.30504448431450787,1.0,-0.30998,-0.4074022857142858,-1.311506955,1.969999999999895
0.049079345761221596,-0.31176261930154364,-0.13211257142087507,-2.4664062981598107,-0.03669163703835928,2.1588011220658303,0.6691417032881511,-0.9686581466653814,-0.8761516369629654,-0.009820541747025546,-0.8443162662433279,-0.14108939711597138,-0.041641430860090374,0.4308108035324336,0.9982751651569001,0.05845527184701155,0.0032284246102715175,0.0,0.058483653634671895,-0.9982331723106654,-0.00953639645428153,0.0,0.0026653192087552346,0.00970894473936458,-0.9999493149482945,0.0,0.4344456863994703,-0.03734715128580426,0.304983712525701,1.0,-0.30998,-0.4074022857142858,-1.311506955,1.986999999999893
0.031276372546308634,-0.3272869097734773,-0.13240514339430787,-2.480767603975821,-0.039114042737318576,2.158066681407893,0.6767267229184544,-1.0117213442311526,-0.8332357940269178,-0.013239374085095816,-0.7940037623840576,-0.13725958760057078,-0.048186289378474564,0.416988175197905,0.9993335386236988,0.03606542875292784,0.003536994757168069,0.0,0.036097658265502874,-0.9992933253562404,-0.009516084668735767,0.0,0.0031913550225044496,0.009637605347649462,-0.9999484645801919,0.0,0.42924616838564755,-0.04432222251171163,0.30508254962853404,1.0,-0.30998,-0.4074022857142858,-1.311506955,2.003999999999891
0.014206137391556432,-0.34154592795203415,-0.13256606784156924,-2.494074143340526,-0.04127680247200638,2.1570600875086234,0.6834089229228267,-1.0140098556323323,-0.8509008631721513,-0.017930926841727732,-0.7744081845385787,-0.13810105092801983,-0.0694870199642087,0.3805436139227328,0.999887413508679,0.013948771020923567,0.003367342444434345,0.0,0.013980403636847105,-0.9998469336858484,-0.009560565588160347,0.0,0.0032335311330125016,0.009606750963907791,-0.9999486259865201,0.0,0.42393833439843376,-0.05117183042112392,0.30501608825360327,1.0,-0.30998,-0.4074022857142858,-1.311506955,2.0209999999998893
-0.0022877506607870946,-0.35474455121104564,-0.1327880142184325,-2.505877140220456,-0.04336280783756698,2.156101504302647,0.6894623135051232,-1.0349147900131648,-0.813246164823139,-0.0032717314564926266,-0.7342775471605391,-0.11916322249564208,-0.056339054431551495,0.3667832192064945,0.999958251682311,-0.007114908615714066,0.0036905106766078723,0.0,-0.0070796138376650886,-0.9999202792733974,-0.009490050944462574,0.0,0.0037578096611242118,0.009463709566081932,-0.9999481571900612,0.0,0.41906355224833575,-0.05771650260283099,0.3051262818438392,1.0,-0.30998,-0.4074022857142858,-1.311506955,2.0369999999998876
-0.020145170331422126,-0.3683795780275134,-0.13307305994070567,-2.518245537381607,-0.04552608127366754,2.15484343118028,0.6954706527819733,-1.0774004364665424,-0.8175395548903684,-0.01502743717094868,-0.7216070008313079,-0.11578004635593162,-0.06970279159318685,0.3446413974470084,0.9995498503013053,-0.029461203252339474,0.0035890342393182562,0.0,-0.029426090350719414,-0.9995124481983956,-0.009471958843286062,0.0,0.0038664141443423006,0.009362264050663364,-0.9999486981108131,0.0,0.4137573574623397,-0.06465677932935399,0.3050776602635596,1.0,-0.30998,-0.4074022857142858,-1.311506955,2.0539999999998857
-0.038236649004573055,-0.3816567551056772,-0.13322959651844174,-2.5299123334196447,-0.04751795678333549,2.1534495587496503,0.7010640172796363,-1.089501730394347,-0.7873441995174767,-0.014749455160861255,-0.6598881371635842,-0.121672335461729,-0.08695222029040012,0.3063209964658881,0.9986513540799966,-0.05159900569537007,0.003709785256133897,0.0,-0.051561955735480225,-0.9986152436572246,-0.009471365126658082,0.0,0.004193441867334113,0.009267486253386623,-0.9999482630335674,0.0,0.40854388220808013,-0.07149544333119826,0.3051325598739388,1.0,-0.30998,-0.4074022857142858,-1.311506955,2.070999999999884
-0.05571181950111357,-0.393780770903906,-0.13344779528657183,-2.54057656322034,-0.04944788759894694,2.1520748374589806,0.705926100402719,-1.0926543262897217,-0.7652390812881423,-0.006928402102917305,-0.6579723697541142,-0.11009675995075283,-0.09211138567622654,0.3042110983073847,0.9973525107675477,-0.07249129693556683,0.003705136364126201,0.0,-0.07245381332758305,-0.9973177302838705,-0.009409394078731858,0.0,0.00437738164736895,0.00911620706598014,-0.9999488653419452,0.0,0.40358658887605087,-0.07801159310933027,0.305118476983469,1.0,-0.30998,-0.4074022857142858,-1.311506955,2.086999999999882
-0.07460313267170743,-0.40627360518065353,-0.1337479787067756,-2.5514274150318395,-0.05141509308726754,2.1503963343724624,0.7106998856046464,-1.1210738396894526,-0.7289044542071583,-0.010082062652468866,-0.6109518513211825,-0.12663438795019127,-0.10075573370202047,0.2734464131549764,0.9954896741226436,-0.0947007196146224,0.00358180413671861,0.0,-0.09466366020813705,-0.9954553368605352,-0.009392052655586399,0.0,0.004455045962068083,0.009010798233510559,-0.9999494777640874,0.0,0.39829187580153724,-0.08494188220728711,0.30509330611105046,1.0,-0.30998,-0.4074022857142858,-1.311506955,2.10399999999988
-0.09379504564813926,-0.4184318900862358,-0.13401058474809943,-2.561661800543194,-0.05311758928435111,2.1488302444258447,0.7150897627459247,-1.1391160115819257,-0.7077217138083634,-0.024496344410110723,-0.6061022585568268,-0.09043136390537287,-0.10403057961271855,0.24930213738344043,0.9931255952273075,-0.11690734252559037,0.0038694016616208303,0.0,-0.11686644727968692,-0.9930925339558416,-0.009497336605477224,0.0,0.004953077646742521,0.008980017737265575,-0.9999474117688709,0.0,0.3930923900907711,-0.09183090973167798,0.3051767733298024,1.0,-0.30998,-0.4074022857142858,-1.311506955,2.1209999999998788
-0.11335673572430824,-0.43008663237511846,-0.1342431000885625,-2.571644699670947,-0.054985905948038365,2.146953275661009,0.7190443403367835,-1.1465597026461938,-0.6833058803529334,-0.011018998745333604,-0.5794964697863948,-0.09546565257794042,-0.11602623344870429,0.22422581564591484,0.9902943473603232,-0.13887029399061412,0.003590812493082854,0.0,-0.13883148217312463,-0.990261403647462,-0.009429682125079329,0.0,0.004865439423368756,0.00883981327904862,-0.9999490913043569,0.0,0.3877525296519257,-0.09871262412849563,0.3051017479037976,1.0,-0.30998,-0.4074022857142858,-1.311506955,2.137999999999877
-0.13211803264757313,-0.4406823852633701,-0.1345333317899878,-2.5803087165722873,-0.05661102239788627,2.145362090618353,0.7224501845624509,-1.1525158176094263,-0.6661327110921479,-0.008463386727188561,-0.526564313182166,-0.10166493377762086,-0.09724074608737213,0.20933260042097845,0.987151708601608,-0.1596786967695274,0.0038684498342132704,0.0,-0.15963688481118488,-0.987121198242642,-0.009410201326190177,0.0,0.0053213399720792864,0.008671915998107002,-0.9999482392673249,0.0,0.38285493274158566,-0.10525835092583263,0.30519266468367107,1.0,-0.30998,-0.4074022857142858,-1.311506955,2.153999999999875
-0.15240924548562498,-0.45138543868448433,-0.13484794013026347,-2.5891023345791395,-0.058243067375919944,2.1435658862332794,0.7256880331896661,-1.1971905724388066,-0.6202556841331504,-0.0136686601576465,-0.5220550015200616,-0.0957553782507213,-0.12632623180166827,0.17924549094242567,0.983326461846048,-0.1817537612889235,0.003922574648104018,0.0,-0.18171075927903635,-0.9832971121404079,-0.009419985126254573,0.0,0.005569281277540972,0.008550311247193756,-0.9999479362864987,0.0,0.37760088901294653,-0.11221310890218462,0.3052127566950771,1.0,-0.30998,-0.4074022857142858,-1.311506955,2.1709999999998733
-0.17294505449794906,-0.46160807704866286,-0.1351339383577587,-2.5975012775433353,-0.05974286798007491,2.141659106056067,0.7284770241160982,-1.222632818435284,-0.58514704459015,-0.03551911317006508,-0.48284669947883735,-0.08486612033779724,-0.10476634589476375,0.15372188063706296,0.9790383547800646,-0.20359341559745153,0.0037905007737539334,0.0,-0.20355055267924616,-0.9790087166189214,-0.00947903947424663,0.0,0.00564091192603533,0.008508948507959191,-0.9999478875961144,0.0,0.3723017915450401,-0.11910193786513255,0.30518218049492235,1.0,-0.30998,-0.4074022857142858,-1.311506955,2.1879999999998714
-0.19372530216360784,-0.4713108128646657,-0.13538048316404055,-2.6052223953167046,-0.061264217077769224,2.139868682442228,0.7309714316894798,-1.2147659849156751,-0.5656248249128631,-0.0039926605852822535,-0.4387975581557888,-0.09252863391098494,-0.0962065504181054,0.13040917968099822,0.9742788952984168,-0.2252685385736296,0.0039327606342381485,0.0,-0.22522422768605288,-0.9742515978937488,-0.0094137222131612,0.0,0.005952228376378099,0.008285997433091594,-0.9999479552576196,0.0,0.3670870194240429,-0.12599294299138342,0.30523971847892817,1.0,-0.30998,-0.4074022857142858,-1.311506955,2.2049999999998695
-0.21484585189053113,-0.4803195884525979,-0.13567865130223622,-2.6124318878197124,-0.06262093518943156,2.138181979982379,0.7330708049697116,-1.2281842014226207,-0.5070925823608514,-0.012459781865924963,-0.4176122772395978,-0.0666623041272229,-0.10509759302680192,0.10761630749776607,0.9690141976169595,-0.2469335811841475,0.004004772345650059,0.0,-0.24688796876278274,-0.9689881849522528,-0.009432666872832462,0.0,0.006209938857950348,0.008151814959089704,-0.9999474909075242,0.0,0.3618736223076251,-0.13291027998051447,0.30524491776602614,1.0,-0.30320228571434904,-0.3984944326531445,-1.2810886444519984,2.221999999999868
-0.2346024127981065,-0.4881070806980508,-0.13583177250434098,-2.618792470418392,-0.06382536585684773,2.136416887060578,0.7345145860499478,-1.2047819662270072,-0.47258070993248624,-0.0026234633131236914,-0.37693241879667716,-0.0681703099767665,-0.106898404974473,0.08681137374545345,0.9638101539778823,-0.266528613404559,0.0036376128137145646,0.0,-0.2664856658664681,-0.9637830907725855,-0.009396314690117624,0.0,0.006010372164394762,0.008087047536204928,-0.9999492362558176,0.0,0.3569703649242093,-0.1392247390337025,0.30514597398919147,1.0,-0.29551314285720703,-0.3883887020409007,-1.2465798520451452,2.2379999999998663
-0.25537784482196574,-0.49566571264542214,-0.13602833972269193,-2.6248093807060346,-0.06484810338254682,2.1348514516108152,0.7357248615271853,-1.2309620890057746,-0.43089757022752556,-0.015298364127938727,-0.3372467630158607,-0.0678524332040133,-0.08204605231265719,0.061623601992383294,0.9579396245480516,-0.2869137846666665,0.003592045405618053,0.0,-0.28687010800546475,-0.9579125103942401,-0.009482112862981605,0.0,0.006161532748698906,0.00805299622754857,-0.9999485910615336,0.0,0.35195825020258675,-0.1458116079751659,0.30511579963865126,1.0,-0.28734342857149364,-0.3776513632653917,-1.2099142601128634,2.2549999999998644
-0.27590834439820405,-0.5025502281859935,-0.13601696208313585,-2.6300613949829144,-0.06569121756041012,2.1333491779084603,0.7364960993425625,-1.2143888171995727,-0.38343110726453966,-0.0030008081181744266,-0.2922682785943982,-0.05091216293479897,-0.08092031810457362,0.04618465715183426,0.9518601247584354,-0.3064788337257828,0.003711370925692217,0.0,-0.30643339351589816,-0.9518343367559138,-0.009524579359131792,0.0,0.0064518164746869,0.00792893196620914,-0.9999477516860829,0.0,0.34713281485663267,-0.15220457280961164,0.305175453760824,1.0,-0.27917371428578025,-0.3669140244898827,-1.1732486681805818,2.2719999999998626
-0.29598609989810154,-0.5086758524466201,-0.13599159122789276,-2.6346879221224446,-0.06644112936568872,2.1320945666923024,0.7369576806779822,-1.1634796276614516,-0.3453181601638194,0.006178435645977043,-0.26571724105914374,-0.031633276418410704,-0.07368427492361053,0.029563131751688638,0.9456035770253826,-0.3252676283194373,0.003948668821083008,0.0,-0.325219720219714,-0.9455801477427201,-0.009542781369960309,0.0,0.006837872361236563,0.007739652241261996,-0.9999466692202921,0.0,0.3424922024072576,-0.1584087849778337,0.30524543458874576,1.0,-0.27100400000006686,-0.35617668571437366,-1.1365830762483002,2.2889999999998607
-0.314564611461633,-0.5138292307817106,-0.13595029618397533,-2.638734866493565,-0.06708262094308665,2.130807461797449,0.7371325338470839,-1.1559653796160614,-0.3076615350177618,0.01239941900128686,-0.24165786392106164,-0.03638255005362101,-0.0773405379150422,0.011229613210851457,0.9391827060793196,-0.34336960648130177,0.003728920434996538,0.0,-0.3433227798653697,-0.9391585105552617,-0.00956596980685312,0.0,0.006786841317627967,0.0077041184079864045,-0.9999472912831382,0.0,0.3378692730156348,-0.16439830356525534,0.30519274820025266,1.0,-0.26283428571435347,-0.34543934693886463,-1.0999174843160184,2.305999999999859
-0.3338863232352763,-0.5186149733703931,-0.1358685785921318,-2.6425522684934624,-0.06763104983114472,2.1296128356444317,0.7371541385275768,-1.141372934432439,-0.27102227248432503,0.0038912850015511134,-0.21209411308962475,-0.033820864874283825,-0.06374050806694334,0.002880640926223476,0.9329929139558362,-0.3598505646138604,0.003541264815280391,0.0,-0.35980454650124244,-0.9329680345464699,-0.00959592271438991,0.0,0.006757115176690864,0.007678912557352924,-0.9999476864798605,0.0,0.33365973169225027,-0.1698624531186349,0.30513405960716256,1.0,-0.25514514285721146,-0.33533361632662084,-1.0654086919091652,2.321999999999857
-0.35266359304507805,-0.522805477548455,-0.13565660228970974,-2.6457389050340554,-0.06805896460037637,2.1286708703702475,0.7370019376076258,-1.099297088210377,-0.238518940698669,0.010277869519756597,-0.1758387819965218,-0.025236446824960672,-0.0538234626489112,-0.012739773630657867,0.926367663225262,-0.3765775709436358,0.0036100545656406846,0.0,-0.3765306975315919,-0.9263442044161878,-0.00958100527716562,0.0,0.00695227867188869,0.007516381819870799,-0.9999475835390605,0.0,0.32942036751205345,-0.17546385730872915,0.30515061370047764,1.0,-0.24697542857149807,-0.3245962775511118,-1.0287430999768834,2.338999999999855
-0.3710870954538583,-0.5264715871957981,-0.13547829580472479,-2.6484890310067,-0.06844384587547375,2.1277840641914376,0.7364878229001202,-1.0482847568052764,-0.20624140713603367,0.011315131532617722,-0.1511520821935049,-0.016642199217312727,-0.04625767036363337,-0.041712337915750436,0.9196918197696499,-0.3925995324131139,0.0036483830668710194,0.0,-0.39255213585827387,-0.9196696160522864,-0.009558495935837845,0.0,0.007108104942350257,0.007358831636474633,-0.9999476598507917,0.0,0.32527315234425247,-0.18093797001250145,0.305172300731887,1.0,-0.23880571428578468,-0.3138589387756028,-0.9920775080446018,2.3559999999998533
-0.38900692410991866,-0.5295111771133008,-0.13532990871074016,-2.6509005111179085,-0.06872539839730421,2.1269853638584153,0.7357994754803865,-1.0412481047891484,-0.1686341699142523,0.012993093361737016,-0.13004758793689863,-0.024060156204936123,-0.04330609760264564,-0.039461452937453595,0.9129738581990465,-0.40797953319214914,0.0034902210060765815,0.0,-0.40793274647862227,-0.9129511412277878,-0.009583057053776328,0.0,0.0070962290183864685,0.007325446168440358,-0.9999479893335212,0.0,0.3212287538094701,-0.1862210062265774,0.30512161928822645,1.0,-0.23063600000007128,-0.3031216000000938,-0.95541191611232,2.3729999999998515
-0.4043064754637769,-0.5317906938071095,-0.13511641005029634,-2.6526799786821877,-0.06889500796631721,2.1264471584980904,0.7350554253731252,-1.0167701457256832,-0.14415293603013862,0.012843471397505397,-0.113502045044748,-0.009737883001533831,-0.03213682269870501,-0.05107932789430293,0.9071074353190948,-0.42086200935088547,0.0034665220550249456,0.0,-0.42081511502356783,-0.9070852507654885,-0.00957777179830815,0.0,0.007175489462113938,0.007229442323885116,-0.9999481224116904,0.0,0.31782422916024544,-0.19069837286508462,0.3051031097065346,1.0,-0.22342742857150066,-0.2936474775511152,-0.9230599232308951,2.38799999999985
-0.4222822002105256,-0.5341059119337095,-0.13490178485248236,-2.6544424259582677,-0.06906674984500387,2.1259033892744825,0.7339794004636107,-0.9774670439887487,-0.11841728291810202,0.015759514516261838,-0.0901635302233895,-0.004630144849533026,-0.029035150596688857,-0.06714664438621532,0.9000404354249677,-0.4357703070355027,0.003492994048993298,0.0,-0.4357229398420658,-0.9000192935166943,-0.0095675437969176,0.0,0.0073131543350742345,0.0070893351407166905,-0.9999481282051255,0.0,0.3138394961289171,-0.19595955193127348,0.3051034570289569,1.0,-0.2147771428572159,-0.282278530612341,-0.884237531773185,2.405999999999848
-0.43870408434401037,-0.5359075358608063,-0.134741866304454,-2.65574461352384,-0.06914220357587418,2.1254630455198207,0.732882146799682,-0.9543354788724635,-0.09994538694737064,0.010434794220661849,-0.06868696020554632,-0.0029347871595897653,-0.027050026159557598,-0.06907303476764319,0.8933783003729775,-0.4492696458945846,0.0035699582144920325,0.0,-0.44922114451490003,-0.8933581824234753,-0.00960562954499675,0.0,0.007504913658945789,0.0069778946280316945,-0.9999474912501815,0.0,0.3102098090851776,-0.20076079521430049,0.3051326961595042,1.0,-0.20660742857150252,-0.27154119183683195,-0.8475719398409034,2.422999999999846
-0.45434975953114,-0.5372931607496099,-0.13442082534721367,-2.656796013050083,-0.06915706102422454,2.125107572544142,0.7317053665386496,-0.9152480613718711,-0.07713018903870733,0.021875767837683982,-0.061577751833311815,-0.003318083417521871,-0.016287938426182272,-0.07073291428775576,0.8869505912376101,-0.46182967375825074,0.0035704398622861564,0.0,-0.4617811311867617,-0.8869313809471653,-0.009573884908320843,0.0,0.007588385401388897,0.006842932869097679,-0.99994779397564,0.0,0.30677082966771857,-0.2052676456952588,0.30513532444427566,1.0,-0.19843771428578916,-0.2608038530613229,-0.8109063479086217,2.439999999999844
-0.46967852389971104,-0.5382876774827479,-0.13417983664686167,-2.657591049105969,-0.06915615954001744,2.124810489864681,0.7303214259035467,-0.8784020060863537,-0.04872295953342302,0.027854719399796793,-0.03740401206799221,-0.00014307186483654568,-0.020019205391295453,-0.08543266850421838,0.8805497671094621,-0.47392050313317163,0.0034944605709551564,0.0,-0.47387232864553275,-0.8805307420994393,-0.00955904090791839,0.0,0.0076073519014293045,0.006761413255296139,-0.9999482044025275,0.0,0.3033895482598114,-0.20969493038629466,0.3051149337821042,1.0,-0.19026800000007577,-0.2500665142858139,-0.77424075597634,2.456999999999842
-0.4833552388160705,-0.538923428718264,-0.1338884542081668,-2.6581218642108193,-0.06912811429573475,2.1246195760998963,0.7290159373078763,-0.8643182381645084,-0.029190643350371883,0.012927840998697978,-0.02759678275483729,0.001085478635025493,-0.009158707430096395,-0.07969882463997331,0.8743825808270962,-0.4852053120839886,0.0034138501481901563,0.0,-0.4851578524056846,-0.8743639253285622,-0.009504274529967976,0.0,0.007596618163940139,0.006654244000889015,-0.9999490049143747,0.0,0.3002006783085565,-0.21386537856245405,0.305090202320743,1.0,-0.18209828571436237,-0.2393291755103049,-0.7375751640440583,2.4739999999998403
-0.49820596876552586,-0.5393196439561003,-0.13355034771032911,-2.658455482087203,-0.06904509990318954,2.124465026266604,0.7274722884263732,-0.8019237750322996,-0.01294405881782306,0.019924874960887906,-0.013452959989272324,0.008885770992199896,-0.009506285343237343,-0.09345733614756058,0.868362108196847,-0.49589988432056176,0.0033616484035794455,0.0,-0.495853006937515,-0.8683440369981601,-0.009443295080150885,0.0,0.007602142648387933,0.0065334419439462554,-0.9999497595197064,0.0,0.2971454169587708,-0.2178802616923683,0.3050818907240479,1.0,-0.17392857142864898,-0.22859183673479586,-0.7009095721117766,2.4909999999998385
-0.5115759563726338,-0.5394771625302112,-0.13321821183438373,-2.658621557650561,-0.0688786151310984,2.1244298985591956,0.7260015285729675,-0.7895132176753091,-0.0032433055424270973,0.01446469302158219,-0.0035474716842569054,0.023950696676241726,-0.0012410996034984366,-0.08616566678288481,0.8625060233603202,-0.5060167241628951,0.0033438654021335757,0.0,-0.5059698526901969,-0.8624884485326868,-0.009430334964762133,0.0,0.007656099893063539,0.006441949651972534,-0.9999499414566255,0.0,0.2942338972812343,-0.22169604484451036,0.3050689279282645,1.0,-0.1657588571429356,-0.21785449795928682,-0.6642439801794949,2.5079999999998366
-0.5236364291011303,-0.5394912810209289,-0.13285491843256594,-2.6586726936397818,-0.06871176655898698,2.1244317704426443,0.7246315846691479,-0.7262776128618257,0.00584709049204438,0.02129635964092625,-0.000880695166764213,0.02163864454632488,0.006439207505325003,-0.0986482552204551,0.8568485564980856,-0.5155388029318833,0.0033227699162743356,0.0,-0.5154921645727789,-0.8568315788795171,-0.009392582185591684,0.0,0.0076894428156160655,0.0063352806047796695,-0.9999503671127103,0.0,0.29144830471501176,-0.22531522539943075,0.3050546866638489,1.0,-0.15758914285722223,-0.2071171591837778,-0.6275783882472132,2.5249999999998347
-0.5358064892581533,-0.5393342273330021,-0.13250745584736037,-2.6586157238104984,-0.06849180978017298,2.124447608689175,0.7230611933617695,-0.7096898019224943,0.011781116539569534,0.021296857509983457,0.007994003763723624,0.02027851835115463,0.0045558681748338065,-0.09175682925742085,0.8517515745102091,-0.5239172327419309,0.0032765006676861463,0.0,-0.5238708129289351,-0.8517347727947923,-0.009380568990646734,0.0,0.00770549965362427,0.0062735721249459475,-0.9999506325653689,0.0,0.2889411169139409,-0.22855184266460066,0.30503940930653833,1.0,-0.1499000000000802,-0.19701142857153403,-0.5930695958403599,2.540999999999833
-0.5474576249095984,-0.539063764856496,-0.13219706268687695,-2.6584246555345574,-0.06827312619946842,2.124503744211549,0.7215422213374812,-0.6603101764255357,0.015417429241535111,0.025441010203626747,0.01221336686186172,0.021749270335448663,0.011397400387083305,-0.08914306558166761,0.846473176929591,-0.5324031888677689,0.003279043056195459,0.0,-0.5323566241343387,-0.846456888744832,-0.009375880647587669,0.0,0.007767466886434038,0.006190930381083037,-0.9999506682027793,0.0,0.28638600569860445,-0.2318544991497453,0.3050411193848487,1.0,-0.14173028571436683,-0.186274089796025,-0.5564040039080783,2.557999999999831
-0.5583256505407449,-0.538623329246138,-0.13180681376347553,-2.6581351554673898,-0.06800280155922984,2.1246477369043517,0.7199292606490186,-0.6371704441414654,0.026898986337558016,0.019980258874343747,0.018286858965835776,0.013791701656719915,0.011251376472999081,-0.09119620667200855,0.8416026635723959,-0.5400692614517827,0.003300970157824901,0.0,-0.5400225705864878,-0.8415870905673196,-0.00935623582452617,0.0,0.007831220018146734,0.006091751885975605,-0.9999507800646925,0.0,0.28403195724560504,-0.2349140571203608,0.30503557209043114,1.0,-0.13356057142865344,-0.17553675102051597,-0.5197384119757966,2.574999999999829
-0.5688099489263053,-0.5380927082878757,-0.13152693102513965,-2.6577210717847923,-0.06771351082053234,2.1247803352936394,0.7184482737017753,-0.6054709241666751,0.03347229979216101,0.013790499032297258,0.024146835373118482,0.014714977148894179,0.009128510190056326,-0.09207648083483122,0.8367386364101594,-0.5475746692824625,0.003344069358926814,0.0,-0.547527258573552,-0.8367235770210427,-0.00939700363149165,0.0,0.007943775773867678,0.006031983010747366,-0.9999502545664021,0.0,0.2817429496104097,-0.23789195069823127,0.30505023291298194,1.0,-0.12539085714293982,-0.16479941224500666,-0.48307282004351393,2.5919999999998278
-0.5778053865728575,-0.5374568303876252,-0.13112949763911988,-2.6572719399494824,-0.06739212493420879,2.1249414207161705,0.7169009541264555,-0.5505833059125794,0.03881090487081349,0.020866274687820218,0.03076007428292087,0.018428726909934624,0.008730439627329943,-0.09131615948429533,0.8327152582681117,-0.5536739434666407,0.003348115108437397,0.0,-0.553626390059949,-0.8327005707294033,-0.009398225221999883,0.0,0.007991683646590697,0.0059725556522141066,-0.9999502295471878,0.0,0.27981781945845663,-0.24041157046977046,0.30504781969539574,1.0,-0.11770171428579781,-0.15469368163276287,-0.4485640276366606,2.607999999999826
-0.5859422907674215,-0.5368439235593669,-0.13084075153343497,-2.6568126051655603,-0.0671349375332833,2.125078498458551,0.7155762309047469,-0.5429762879397605,0.040345598692009196,0.01908132008968661,0.02443245688560701,0.014593051114292559,0.010021606370307953,-0.08807339932560133,0.8289696517137313,-0.5592663099199673,0.0033552983960983772,0.0,-0.5592185830904566,-0.8289553179115956,-0.009402347238633871,0.0,0.00803996328757045,0.0059180292411916136,-0.9999501667184394,0.0,0.27805069466187105,-0.24270807381764042,0.3050534167962727,1.0,-0.1104931428572272,-0.14521955918378432,-0.4162120347552356,2.6229999999998244
-0.5946294680994588,-0.5360974395778313,-0.13050909014724593,-2.656232483150171,-0.06680852943073289,2.125249813137347,0.7140129065480949,-0.5017497832779859,0.051023950983512346,0.01975515737147526,0.03933555091454912,0.013626825273385516,0.019006866458960568,-0.09609197771371236,0.8250059952121213,-0.5650967780239254,0.0033891344387494277,0.0,-0.5650485551234076,-0.8249921292593155,-0.009426765847232952,0.0,0.008123200641211692,0.005862225687704059,-0.999949822701784,0.0,0.2761758666744519,-0.24515874908831278,0.30506941981353813,1.0,-0.1023234285715138,-0.1344822204082753,-0.3795464428229539,2.6399999999998225
-0.6023808943094522,-0.5352539393663152,-0.13004903438936707,-2.655613539754293,-0.06645223445174032,2.125434288229786,0.7124736566241978,-0.4375950973284415,0.04631217722225665,0.023121087958952388,0.037353298213983574,0.01363175622325849,0.012863081483951454,-0.09124586235415737,0.8215742909129142,-0.5700745660576122,0.003379429889119743,0.0,-0.5700264867511446,-0.8215607589867938,-0.009405880947506075,0.0,0.008138617177787466,0.005801377117428563,-0.9999500522195971,0.0,0.2745490706881323,-0.24731613463700208,0.30507180667584594,1.0,-0.09415371428580041,-0.12374488163276631,-0.3428808508906722,2.6569999999998206
