nelsonifechukwu/NELSON_IML_WORK/CNN-GradCAM/train2dof/data_sample_2022-07-06-11-19-18/robot_state.csv
position_joint1,position_joint2,position_joint3,position_joint4,position_joint5,position_joint6,position_joint7,velocity_joint1,velocity_joint2,velocity_joint3,velocity_joint4,velocity_joint5,velocity_joint6,velocity_joint7,ee_T_00,ee_T_10,ee_T_20,ee_T_30,ee_T_01,ee_T_11,ee_T_21,ee_T_31,ee_T_02,ee_T_12,ee_T_22,ee_T_32,ee_T_03,ee_T_13,ee_T_23,ee_T_33,v_x,v_y,w_z,time
0.46511628397069965,0.5472938011153102,-0.12398285839358227,-1.3555759517102313,0.07944402106256584,1.8941867810860398,0.1591128176891536,0.00028750006032362776,0.002963232554343297,0.0004420094653793368,0.0016105183041122413,0.0001690951011024182,0.00010142815502611233,-0.0028439411902938805,0.5736995826611717,0.8190498406539108,0.0026256961759721998,0.0,0.8190163036495111,-0.5736394199771613,-0.011439279075443141,0.0,-0.007863288265182067,0.0087133653673621,-0.9999311206086313,0.0,0.6617568099666308,0.26095575161720125,0.30368924362495225,1.0,5e-324,6.91622088149306e-310,6.91600868191406e-310,0.0
0.4651169508760169,0.5472818694152325,-0.12398356691861769,-1.355581956679361,0.07944767156367474,1.8941883204094128,0.15911703406773492,0.0004687431285255873,-0.0008310963825747542,0.000855005509485722,3.2264578268941054e-05,-8.220020241604502e-05,0.00022362003776558867,-0.0008036855280376802,0.5737042639105538,0.8190465340695628,0.002634293205835259,0.0,0.8190130777375053,-0.5736440394335144,-0.011438593381542829,0.0,-0.00785774495407593,0.008720058270447667,-0.9999311058407959,0.0,0.6617558377709045,0.2609559229309187,0.3036950021667184,1.0,-0.00012,-0.00015771428571428574,-6e-05,0.007
0.46511804314122884,0.5472779270594641,-0.1239885484136193,-1.355586938128989,0.07944828386439204,1.894187206965229,0.15911566916137188,2.5991525234062026e-05,-0.0014455494415799494,-0.00048757249401641987,-0.0019044667535643538,7.451462584735416e-05,0.0003850182576200609,-0.0014256777029553703,0.573706152995878,0.8190452185973834,0.0026318830982455035,0.0,0.819011743145708,-0.5736459493291893,-0.011438370025933144,0.0,-0.00785892450852177,0.008717974276191184,-0.9999311147424552,0.0,0.6617554025299567,0.2609532462965295,0.30369549244503535,1.0,-0.00042000000000000023,-0.0005520000000000004,-0.00021000000000000012,0.022000000000000013
0.46511561640129295,0.5472690672101727,-0.12398821114951124,-1.355596138326902,0.07944899545442716,1.8941883465441949,0.1591214019315181,4.159870196648304e-05,-0.0026338567284563004,-0.0006969273906164243,-0.0004880984583954691,0.0003459071380253084,-3.0504945470967086e-05,0.00041886301309899796,0.5737132823864174,0.8190402197110782,0.002633440760677273,0.0,0.8190067502540527,-0.5736530571882343,-0.011439401999069298,0.0,-0.0078588002896528,0.008719910514111279,-0.9999310988356314,0.0,0.6617542702486644,0.2609510521346051,0.30369747827999793,1.0,-0.0007600000000000006,-0.0009988571428571438,-0.0003800000000000003,0.03900000000000003
0.4651149597763228,0.547201824829652,-0.1239860471180611,-1.3556512832739902,0.0794481595712097,1.8941930193542638,0.15912452916292033,-0.00026548934231669544,-0.006422133879123648,-0.000786553222236783,-0.0041068566979360534,6.930321503844628e-05,0.0003787757123583661,0.014662584871546556,0.5737175613801853,0.819037165584326,0.002651048240770216,0.0,0.8190038752231723,-0.5736572256730308,-0.011436201456609585,0.0,-0.00784603210757856,0.00873253652212129,-0.99993108891866,0.0,0.6617440519734589,0.26094638611587867,0.3037191950227225,1.0,-0.001100000000000001,-0.0014457142857142872,-0.0005500000000000005,0.05600000000000004
0.4651120158875309,0.5470705349108774,-0.12398575125945478,-1.355809826707763,0.07944552770670686,1.8942271880023356,0.1591221310595672,0.0005550530876921784,-0.006491251213117836,-0.000662855289999474,-0.00835663587904634,-0.00014471302372123893,0.002578597764169277,6.951996028271326e-05,0.5737257585809571,0.819031386706883,0.00266241073347421,0.0,0.8189981556423919,-0.5736652881733635,-0.011441376689038645,0.0,-0.007843665009662104,0.008744890366645205,-0.9999309995253131,0.0,0.6617188326171958,0.26092940261303116,0.3037396778261653,1.0,-0.001440000000000001,-0.00189257142857143,-0.0007200000000000005,0.07300000000000005
0.4650992450581304,0.546923251785851,-0.1239860737783221,-1.356009613822016,0.0794402832185546,1.8942864469918408,0.1591183125763855,-0.0035354517218500444,-0.0076535983257392205,-0.00016524766172313208,-0.012693608650801177,3.756989368907535e-05,0.008007094064325131,0.001664833564008784,0.573742976746012,0.8190192919014121,0.0026726445972449784,0.0,0.8189861215035339,-0.5736823917352141,-0.011445221656731019,0.0,-0.007840759151055421,0.008755642948964457,-0.9999309282207874,0.0,0.6616924357617222,0.260902155026939,0.30375404752012924,1.0,-0.0017800000000000014,-0.0023394285714285735,-0.0008900000000000007,0.09000000000000007
0.46508043549886985,0.5467493613853704,-0.12398387380685288,-1.356204204688762,0.07943462855227955,1.894396196123106,0.1591190057893622,-0.0013950558389708256,-0.013056617947628801,0.0016633431768563567,-0.010740897475154693,0.00046054728073450363,0.00636208493327039,-0.002141768207726656,0.57376692894909,0.8190022500640575,0.0027518240403462194,0.0,0.8189700919943733,-0.573706080340018,-0.011404766583695792,0.0,-0.007761940750941887,0.008797508864890322,-0.9999311756883824,0.0,0.6616790089441117,0.2608767090463701,0.30379404587997566,1.0,-0.0021000000000000016,-0.0027600000000000025,-0.0010500000000000008,0.10600000000000008
0.46506305508536616,0.5465448948155073,-0.12398395361119086,-1.3564424670574584,0.07943031736269268,1.894526755608062,0.15911534381522577,0.00025688957445290555,-0.00950323708721144,0.0005030385567319443,-0.014398405788579129,2.361763170151425e-05,0.010719292580646213,0.001256240386146103,0.5737905510266385,0.8189854029471451,0.002839051471406261,0.0,0.8189543446047308,-0.5737294035549283,-0.011362211525509789,0.0,-0.0076767858791555454,0.008844753438079805,-0.9999314162957305,0.0,0.6616605911875738,0.2608477367983955,0.30383679207720415,1.0,-0.002440000000000002,-0.0032068571428571463,-0.001220000000000001,0.1230000000000001
0.4650314235580799,0.546314279305701,-0.12398396541174249,-1.3567478530946309,0.07942028422205352,1.8946486735708539,0.1591100358965561,-0.0013672630224493298,-0.014187615075087565,0.003779633006364563,-0.013173915590852344,0.00023645999346783855,0.008317493649148966,-0.0007884701672589367,0.5738265159817496,0.8189600475674316,0.002883911546113023,0.0,0.8189295150136954,-0.5737651690800017,-0.011345796192395032,0.0,-0.007637212833560059,0.008872409805304293,-0.999931474314306,0.0,0.661629759490094,0.2608002300931652,0.30386532230386093,1.0,-0.002780000000000002,-0.003653714285714289,-0.001390000000000001,0.1400000000000001
0.46499735218624766,0.546058685287251,-0.12398771113841944,-1.3571566175410998,0.07940365237700439,1.8947868451926952,0.15909937144402372,-0.005165801629745766,-0.016840907431145264,-0.00013206966362140448,-0.01721375681099923,-0.00014666931510168348,0.003466141771489371,-0.002988095813129335,0.5738666998947662,0.8189319238795101,0.0028743180239857785,0.0,0.8189012043446083,-0.5738053031315957,-0.011359512411024644,0.0,-0.007653515781939346,0.008872799220119618,-0.9999313462084161,0.0,0.6615809709319276,0.2607370381395761,0.303863829827205,1.0,-0.003120000000000002,-0.004100571428571432,-0.001560000000000001,0.1570000000000001
0.4649575651563984,0.5457791460686893,-0.12398676798503698,-1.3575847609551441,0.07938207986366139,1.8949381705766115,0.15908533622562704,-0.0030869362575862095,-0.019683010769497782,-0.0006944933558107884,-0.030451999728444923,0.0003234374708373095,0.008170847835148818,-0.0009693027779145984,0.5739058957523375,0.8189044507305125,0.0028758121762546733,0.0,0.8188737137042017,-0.5738444470185164,-0.011363913564901719,0.0,-0.00765583794660718,0.008876914898522006,-0.9999312919032086,0.0,0.6615273565801598,0.26066827935553416,0.3038702970004907,1.0,-0.0034600000000000026,-0.0045474285714285755,-0.0017300000000000013,0.17400000000000013
0.4649092599260864,0.5454573317586713,-0.12399240464236404,-1.358124529806871,0.07934029826590148,1.8951166338829428,0.15906858525800543,-0.0021201904249960055,-0.02148837396383328,-0.002308799703926298,-0.03016402492878027,-0.000645425408835665,0.008443938880502185,0.00045810776291600915,0.5739540963295449,0.8188707998929953,0.002838184340339489,0.0,0.8188396418700798,-0.5738928292364897,-0.011375779279894405,0.0,-0.007686627828766224,0.008853363420121496,-0.9999312644921017,0.0,0.6614680651457806,0.2605811685108776,0.3038575450624554,1.0,-0.003800000000000003,-0.004994285714285719,-0.0019000000000000015,0.19100000000000014
0.4648557292502142,0.5451000871163167,-0.12399064436711735,-1.3587104963872203,0.07929526017219765,1.8953079509819855,0.15900062921780692,-0.005293001103223432,-0.01622760496607101,-0.0006341114718105747,-0.03449117440379572,-0.0032419645907605463,0.009231976561823221,-0.0050991568206512974,0.5739617224689837,0.8188655806769318,0.0028015753207113053,0.0,0.818833985449241,-0.5739006061733893,-0.011390584196488475,0.0,-0.007719680195275802,0.008831954453230359,-0.999931199192334,0.0,0.6613971614172441,0.26048760523549996,0.3038479902131197,1.0,-0.004140000000000003,-0.005441142857142862,-0.0020700000000000015,0.20800000000000016
0.4648014415558282,0.5447286925551639,-0.12399304126348928,-1.3593130311115336,0.07927291122353493,1.8955122411707745,0.15891673311620713,-0.004139511882812899,-0.023028506785659007,-0.0006462904808438615,-0.041586311322413035,-0.003589236608291853,0.016304774109619936,-0.0029842923931205226,0.573966779124424,0.8188620895381875,0.0027859791629395213,0.0,0.8188301609050718,-0.5739055594040514,-0.011415926528553368,0.0,-0.007749329719801523,0.008833776424152937,-0.9999309537577992,0.0,0.6613252297208562,0.2603939126935184,0.30384184455162183,1.0,-0.004460000000000004,-0.005861714285714292,-0.002230000000000002,0.22400000000000017
0.4647359724131535,0.544329860058211,-0.12399336639274278,-1.3600297781816792,0.07924109051321006,1.8957383793623521,0.15891237471123104,-0.010052140033689155,-0.0191145769799519,-0.0030250019974737904,-0.04683252542141746,8.027286800310957e-05,0.014951634927949509,0.0013496558431534906,0.5740484822405326,0.8188050615225991,0.0027125935046995696,0.0,0.818772040864629,-0.5739873210127259,-0.011473766435339955,0.0,-0.007837934657755785,0.008807663502483812,-0.9999304935063875,0.0,0.6612350369283739,0.2602807819912672,0.30380252643783356,1.0,-0.004800000000000004,-0.006308571428571435,-0.002400000000000002,0.2410000000000002
0.4646651842058031,0.5438653016348428,-0.1239963428578374,-1.360777085790394,0.07919435922126697,1.8959914545003864,0.15887358101792537,-0.005424770157574158,-0.03612163925986085,-7.830004232067122e-05,-0.046761366170288234,-0.0062476978585345715,0.015510392801633304,-0.002034526850239585,0.5741058871159949,0.818764903235842,0.0026852391266798427,0.0,0.81873152562466,-0.5740448032902203,-0.011489110714814317,0.0,-0.007865584493294109,0.008794625349746621,-0.9999303911500723,0.0,0.661147643733093,0.2601592540435982,0.30379754125635194,1.0,-0.005140000000000004,-0.006755428571428578,-0.002570000000000002,0.2580000000000002
0.46460224477062173,0.5434158109573235,-0.12399936142380147,-1.3615180440918728,0.0791615531696152,1.8962575708316474,0.15881728192743078,-0.00243109894185787,-0.025983432677774327,0.000744158188633232,-0.04293900785060562,-0.00548438176411976,0.01489963453060506,-0.0045424549962071415,0.5741459979124766,0.8187368320617774,0.0026682967863292384,0.0,0.8187031357189689,-0.5740848531501301,-0.011511031610138037,0.0,-0.007892828746918212,0.008793724983257187,-0.9999301843905358,0.0,0.6610610094184021,0.26004659301052796,0.3037860331119713,1.0,-0.005460000000000004,-0.007176000000000006,-0.002730000000000002,0.2740000000000002
0.4645188096001126,0.5428745955691477,-0.1239973415444529,-1.3624075812826082,0.07911202676862876,1.8965664557239226,0.15873745979721204,-0.006346790563516646,-0.028934843395401637,0.0010311860657879822,-0.05235791181187507,-0.0003201451800249809,0.01993581079146736,-0.005313586460061715,0.574183810864813,0.8187104164295065,0.0026367161001703545,0.0,0.8186762353649297,-0.5741226811816684,-0.011537569184471162,0.0,-0.007932282275672331,0.008783471362111508,-0.9999299623117262,0.0,0.6609561225119265,0.25990707190270285,0.30377215839403104,1.0,-0.005820000000000004,-0.007649142857142864,-0.002910000000000002,0.2920000000000002
0.46445559288919785,0.5423564823686114,-0.12401584128393484,-1.363235541874027,0.07906055085292456,1.8968514694003462,0.15870121368207962,-0.008472212366188876,-0.03239655179898821,-0.0011196653570536583,-0.04874325205044983,-0.005040202102876817,0.018012255728003343,0.00432633615331762,0.574251073944503,0.8186633259167633,0.002609554309904477,0.0,0.8186288632896972,-0.574190103867698,-0.011543643732759915,0.0,-0.007952130614363284,0.008765375049811688,-0.9999299634569053,0.0,0.6608594684877114,0.25977410125311295,0.30376978842465174,1.0,-0.006140000000000005,-0.008069714285714293,-0.0030700000000000024,0.3080000000000002
0.46436395451546886,0.5417706786287219,-0.12400632777565106,-1.3641575864117295,0.0790064414318955,1.8971876877994702,0.15863596613605713,-0.00966065735593348,-0.031036964562148966,-2.584897551540784e-05,-0.052504671634402596,-0.0026816691002336697,0.01972914577629474,-0.01199046269380658,0.5743027981036196,0.8186270345592936,0.0026117580704596932,0.0,0.8185925341987738,-0.5742417411692531,-0.01155130097186935,0.0,-0.007956579946829356,0.008772079017197246,-0.9999298692734735,0.0,0.6607541076077036,0.2596313585544284,0.30377396461971423,1.0,-0.006480000000000005,-0.008516571428571436,-0.0032400000000000024,0.32500000000000023
0.46429166654024867,0.5412355641261248,-0.12401230768880975,-1.3649942079249076,0.0789499421403661,1.897485068525299,0.15854967704529233,-0.010097192355505413,-0.035739048821147736,-0.0005749476298690058,-0.0598111287903951,-0.0006273613732334077,0.02061170039588454,-0.0035516082908179053,0.574330028904617,0.8186079936298656,0.0025918265597253375,0.0,0.8185733085452719,-0.5742691162568592,-0.011552815761584024,0.0,-0.007968974810880547,0.008756897649865703,-0.9999299036352565,0.0,0.6606519419657798,0.25948510774384453,0.3037715054992638,1.0,-0.006800000000000005,-0.008937142857142866,-0.0034000000000000024,0.34100000000000025
0.46420779607047247,0.5406146614081246,-0.12401547028876458,-1.3659455041129343,0.07889063779657413,1.8978291517480763,0.1585050952094078,-0.0047704362065877194,-0.04045851629579725,0.00017677783165826082,-0.06132316973288188,-0.004896891389118601,0.019103751868157614,-0.007122836824699214,0.5743980368150664,0.8185602096496707,0.002612543299761126,0.0,0.8185257976851722,-0.574337051693393,-0.011541944255699972,0.0,-0.00794744890652338,0.008768273026353801,-0.9999299752702755,0.0,0.660549144433195,0.2593506266711375,0.30379602352007534,1.0,-0.007100000000000006,-0.00933142857142858,-0.003550000000000003,0.35600000000000026
0.46411445289076253,0.5399485533185316,-0.12401589904175765,-1.3669406658528325,0.07884374900432856,1.898212149484813,0.15841870758202725,-0.005190791333368555,-0.04033241448906798,0.0006551225334602802,-0.06645759119920054,-0.005456575629472245,0.02158140938579364,-0.008581773453044844,0.5744466630416891,0.8185259166643859,0.0026649521952835722,0.0,0.8184920923421308,-0.5743853974779844,-0.01152635409254396,0.0,-0.007904062101138642,0.008802687422818811,-0.9999300167993946,0.0,0.660440207801783,0.2591977372350217,0.3038263249121209,1.0,-0.007420000000000006,-0.009752000000000009,-0.003710000000000003,0.3720000000000003
0.4640196760337681,0.5392337356450829,-0.12401911284666865,-1.3680646167011747,0.07877266948503513,1.89862297228671,0.15834074115597319,-0.004839398525496081,-0.04537328892495652,0.002203157873403569,-0.07139603608723867,-0.000917693298959201,0.02266514818894109,-0.004103127466486919,0.5745058408010488,0.8184843896005433,0.0026626616221498882,0.0,0.8184505662414809,-0.5744446094880443,-0.011524241855145886,0.0,-0.007903012602165749,0.008800170599497212,-0.999930047247921,0.0,0.6603105197060457,0.2590256289496171,0.30383210424816537,1.0,-0.007760000000000006,-0.010198857142857152,-0.003880000000000003,0.3890000000000003
0.4639152791933881,0.5384884274526585,-0.12402509336780065,-1.3692238240662236,0.07871132576528432,1.8990661985000987,0.1582485698062799,-0.010857347014461017,-0.04306953125687768,-8.919298369132059e-05,-0.06772491358105676,-0.002331790317875739,0.0274853933514336,-0.007762916823486295,0.5745677790549463,0.8184408236439047,0.0026893058884183974,0.0,0.818407314379508,-0.5745064183813131,-0.011514769211972396,0.0,-0.007879285404689407,0.008817132739266417,-0.9999300850718361,0.0,0.6601823030624114,0.2588455587442942,0.30384545128178436,1.0,-0.008100000000000007,-0.010645714285714297,-0.004050000000000003,0.4060000000000003
0.46382401673180007,0.5377734041723833,-0.12403373483170856,-1.370363545654449,0.07863541737708712,1.8995004659508186,0.15816941019627703,-0.00599545598282118,-0.04220634721857799,0.0018391895377247792,-0.07344316053712437,-0.0029573932533801845,0.03065804873567793,-0.012282666449906932,0.5746264389883714,0.818399639776519,0.002689262057844411,0.0,0.8183662379514477,-0.5745651920421886,-0.011501633619865798,0.0,-0.007867927922616091,0.008810113664664873,-0.999930236370228,0.0,0.6600538009528054,0.2586715838852449,0.30384584588481817,1.0,-0.008420000000000007,-0.011066285714285726,-0.004210000000000004,0.4220000000000003
0.46372568101973244,0.5369719713063248,-0.12404631104289666,-1.3716124333142865,0.07856727005109583,1.8999748673792851,0.1580655124583397,-0.004643514812991734,-0.04784178069687484,-0.0003613829003887899,-0.07509866913891251,-0.0009499284503726596,0.027945527766076735,-0.003895723187086376,0.5746813752709534,0.8183609907984859,0.002711559922725211,0.0,0.8183278832383512,-0.5746200559087884,-0.011489724245107325,0.0,-0.007844776439086765,0.008822045474213017,-0.9999303130700017,0.0,0.6599123506618556,0.25848281401420004,0.303858800254514,1.0,-0.008760000000000007,-0.01151314285714287,-0.004380000000000004,0.43900000000000033
0.4636113317754776,0.5361285806666423,-0.12404898329213566,-1.3729402243275417,0.07849578731998272,1.9004665141874988,0.15799658722065205,-0.00507668539074482,-0.04792463210340228,-4.954567308883186e-05,-0.07952881651584627,-0.0025781767255973077,0.029716262677187473,-0.0059527459785779745,0.5747743610243788,0.818295657061978,0.002720008038751124,0.0,0.8182625945390042,-0.5747129305468285,-0.011494378703605757,0.0,-0.00784272737952968,0.008832525063170282,-0.9999302366306657,0.0,0.6597589302421341,0.2582810542573118,0.3038648371343981,1.0,-0.009100000000000007,-0.011960000000000012,-0.004550000000000004,0.45600000000000035
0.4634931472314136,0.5352518922242988,-0.12405062567680158,-1.3743249813684217,0.07840864976196975,1.900955487816364,0.1578674776245822,-0.008531497857757824,-0.05217045301369856,0.0005921753833320905,-0.08501201923282328,-0.002135389416910727,0.027030911623695402,-0.007237256527989041,0.5748191588768565,0.8182642518110013,0.002701054885351252,0.0,0.8182309394205365,-0.5747577788321692,-0.01150531825313058,0.0,-0.007862089695426677,0.008823733921363333,-0.9999301621939934,0.0,0.6595939374395156,0.25806835310706255,0.3038667986592932,1.0,-0.009440000000000007,-0.012406857142857155,-0.004720000000000004,0.47300000000000036
0.4633703470888023,0.5343575359680506,-0.12404795117150481,-1.375743768508503,0.07834246528394131,1.9014671062512296,0.15778746621217532,-0.010157846948384569,-0.05840450070529541,-0.00027970296701300456,-0.08354225052189279,-0.005338964301038324,0.030605048928824496,-0.010843460957165004,0.5749244980862364,0.8181902217884821,0.002707281147522103,0.0,0.818156819377092,-0.5748628930776037,-0.011524754679212063,0.0,-0.007873277699196657,0.008841014549255774,-0.9999299215245092,0.0,0.6594166808121713,0.25784120145061,0.30387228211855144,1.0,-0.009800000000000008,-0.012880000000000013,-0.004900000000000004,0.4910000000000004
0.46324952739404707,0.5334333012147865,-0.1240560627205006,-1.3772072873418133,0.07825411886037152,1.9020117940545644,0.15767791615967516,-0.0035650630639542094,-0.05629399995536674,0.0002749890403480474,-0.08557700246428031,-0.010149903527512839,0.03678314624242629,-0.006583303697000113,0.5749837208392233,0.8181486253801084,0.002700825749589698,0.0,0.818115141039215,-0.5749221313453686,-0.011528477475047932,0.0,-0.007879395205363682,0.008838443480687616,-0.9999298960667374,0.0,0.6592553312364934,0.25763293363460804,0.3038694341996741,1.0,-0.010120000000000007,-0.013300571428571441,-0.005060000000000004,0.5070000000000003
0.4631150564371737,0.5325088002537717,-0.12405704793232857,-1.378692798657649,0.0781635361554547,1.9025677902985139,0.15755883961971345,-0.006314260503674368,-0.057688931864472125,-0.0006319117568948721,-0.08576936487081453,-0.00981880593233276,0.028842590014742826,-0.0005723621902716269,0.5750539716524197,0.818099273624024,0.002693526281815791,0.0,0.81806570113154,-0.5749924043826944,-0.011532147916950003,0.0,-0.00788583650792174,0.008835259033690146,-0.9999298734313211,0.0,0.6590847151021944,0.25740258955164746,0.3038624259961724,1.0,-0.010460000000000007,-0.013747428571428584,-0.005230000000000004,0.5240000000000004
0.46298468020966255,0.5315475608635076,-0.12405728989746449,-1.3802439804222042,0.07807873281476461,1.9031497118992928,0.15746438943747512,-0.010704482730315913,-0.057054253699947974,0.0001687599105595462,-0.09132161293637586,-0.00325779852400148,0.03038550228375329,-0.003742306093591624,0.5751455099964264,0.8180349384497534,0.002688625609301807,0.0,0.8180012269674004,-0.5750838627788832,-0.011545144102810007,0.0,-0.007898298111286117,0.0088396070300851,-0.9999297366487802,0.0,0.658903001023175,0.2571707741974153,0.3038521051379473,1.0,-0.010800000000000008,-0.014194285714285727,-0.005400000000000004,0.5410000000000004
0.4628597615672904,0.5306200151233348,-0.12405713173878198,-1.3817593888441402,0.07797737875573234,1.9036985839527187,0.15735274306911445,-0.009749706222381336,-0.05750932425515435,-0.00030985092434943025,-0.09383324142970599,-0.0048966160410675455,0.03533320649968411,-0.004861579147386878,0.5752115140907068,0.817988660869574,0.002647951564104159,0.0,0.8179544708221382,-0.5751500473175742,-0.011560866484648595,0.0,-0.007933840977904782,0.008816017070862298,-0.9999296635315622,0.0,0.6587211517132247,0.25694172071000865,0.30383195356668424,1.0,-0.011120000000000008,-0.014614857142857157,-0.005560000000000004,0.5570000000000004
0.46272153164149754,0.5296057746935855,-0.1240657089359682,-1.3834014948081406,0.07787615611093954,1.9042876157388349,0.15723981581090618,-0.006401967990965849,-0.0650223705683826,-0.0009584218516652094,-0.10297910674319294,-0.002377443833343451,0.035252963614684586,-0.007192652352074134,0.5753002200845884,0.8179263978063359,0.0026098742085263827,0.0,0.8178917291197468,-0.5752388862902672,-0.01157972530987949,0.0,-0.007970215328569286,0.008796582409959564,-0.9999295454208368,0.0,0.6585249982824958,0.25668768797668545,0.30381614236112126,1.0,-0.011460000000000008,-0.0150617142857143,-0.005730000000000004,0.5740000000000004
0.462583929505159,0.5285353621155495,-0.12407209111856067,-1.3850701296590024,0.07777752357267112,1.9049047544561661,0.15710662323589195,-0.0032252831217894594,-0.06878291641683394,-0.0010073218027494008,-0.10023180829020815,-0.0015471413230060257,0.0370700633482838,-0.0027643096045779645,0.5753722684079028,0.8178756704487005,0.0026243735331442962,0.0,0.8178411853371259,-0.575310871986042,-0.011573376440472315,0.0,-0.007955905565671995,0.008805490149779008,-0.9999295809755067,0.0,0.6583284471172736,0.25643526989705756,0.3038293844330559,1.0,-0.011800000000000008,-0.015508571428571443,-0.005900000000000004,0.5910000000000004
0.4624410100066187,0.5274318723314289,-0.12407373192162746,-1.38680591611405,0.0776645372475117,1.905565501630783,0.1570005919669166,-0.011805564196891948,-0.06891545626901767,-0.00029983725935617446,-0.10217524550456508,-0.005846706684699322,0.04383646726677454,-0.003710420453155026,0.5754672006460572,0.8178088243202013,0.002640974405277027,0.0,0.8177746390191575,-0.5754058307859566,-0.011554937291838496,0.0,-0.007930250291871499,0.0088093789157518,-0.9999297505192187,0.0,0.6581263361645808,0.2561752391462331,0.303837304937256,1.0,-0.012140000000000008,-0.015955428571428586,-0.006070000000000004,0.6080000000000004
0.4622911355550274,0.5262993779329872,-0.12407127022758667,-1.3885771110167253,0.0775628321443652,1.9062400624678801,0.15684923601501838,-0.00893259366501387,-0.06798769224370305,0.0009067368605538624,-0.10474320562667536,-0.005932185528407117,0.03809297732098028,-0.004805934257893846,0.5755326206198369,0.8177626826027405,0.002672909658179237,0.0,0.8177288623182118,-0.5754710825945372,-0.011545030551841182,0.0,-0.007903065098627537,0.008830427075584346,-0.9999297800944374,0.0,0.6579191457159853,0.2559119745513185,0.3038495913886913,1.0,-0.012480000000000008,-0.016402285714285727,-0.006240000000000004,0.6250000000000004
0.46213498771586,0.525132500770302,-0.12407839556772612,-1.3903866233596451,0.07743754682159655,1.9068972564955091,0.1567394361166876,-0.008041538346291453,-0.06759570752375185,-0.00017993483155751016,-0.1090411515612866,-0.0032912558547092286,0.03877492061932731,-0.0025423706586554145,0.575639083460427,0.8176877418815295,0.002673812022746397,0.0,0.8176540672231281,-0.5755776788644512,-0.011528609963717913,0.0,-0.007887968398328005,0.008822741613591964,-0.9999299671401825,0.0,0.6577049228470738,0.25562999401375025,0.30386628102413676,1.0,-0.01282000000000001,-0.016849142857142875,-0.006410000000000005,0.6420000000000005
0.46198276464468224,0.5239707062759955,-0.12408474269852081,-1.3922486590506962,0.07732692599438136,1.9075577493408264,0.15659264739796924,-0.008535921463946786,-0.06808517762155436,0.0007690239754761686,-0.11149835549459981,-0.003965638608837774,0.04188326157333789,-0.006187459602310012,0.5757181387788601,0.8176321972914518,0.0026384720135273557,0.0,0.8175980165883947,-0.575656786950719,-0.011553952116308188,0.0,-0.007928181576553728,0.008809198897401602,-0.9999297685096066,0.0,0.6574763277981641,0.2553473761887304,0.30385440332036956,1.0,-0.01316000000000001,-0.017296000000000016,-0.006580000000000005,0.6590000000000005
0.4618370857424753,0.5228293046963554,-0.12408407737972227,-1.3940476090694214,0.0772184063044935,1.9082294399738653,0.1564673893483158,-0.012094313184714149,-0.07274342566043658,0.0004041418214626808,-0.11329692723758358,-0.0038734071160392665,0.039966941393325635,-0.012904155716602233,0.5758015889653935,0.8175733981016599,0.0026487284951862795,0.0,0.8175393330848514,-0.5757401735468569,-0.011551550745238486,0.0,-0.007919413665885167,0.008817010756379279,-0.9999297691380682,0.0,0.6572603008111452,0.255081475170013,0.303858658136275,1.0,-0.01348000000000001,-0.017716571428571443,-0.006740000000000005,0.6750000000000005
0.46167508938717755,0.5216104300764793,-0.12408909213857569,-1.3959942373094343,0.07709735855343468,1.9089944178953822,0.15632439772671025,-0.009075868603918742,-0.0720770623370672,0.001101962423914891,-0.11158951715026585,-0.010685167981209248,0.046419350981548486,-0.008969229069066045,0.5758924373405248,0.8175093282021103,0.0026731662373373436,0.0,0.8174756636079465,-0.5758310237499132,-0.011529024116655738,0.0,-0.00788594453820285,0.008824896049095712,-0.9999299640917173,0.0,0.6570357238415702,0.25478934652759977,0.303855043022713,1.0,-0.013820000000000011,-0.018163428571428587,-0.0069100000000000055,0.6920000000000005
0.46151081580528314,0.5203590814189623,-0.1240953848676477,-1.3980204649093984,0.07696390284601994,1.9097618999929766,0.15617500382525726,-0.011203648914877157,-0.07808153740454483,0.0006080931502569497,-0.11480096053362876,-0.005929205440581826,0.038922529132364214,-0.005848819131795237,0.5759812543305758,0.8174468108482124,0.0026557475542540515,0.0,0.8174130333010741,-0.5759200124520948,-0.011524718995469429,0.0,-0.007891498560054167,0.00880903436803157,-0.9999300601361975,0.0,0.6567946043794574,0.25448419671318756,0.3038362617739304,1.0,-0.014160000000000011,-0.018610285714285732,-0.0070800000000000056,0.7090000000000005
0.46134675367450173,0.5190451453572004,-0.124104176593049,-1.4000758638317023,0.07683555660710037,1.9104987815475014,0.15601442898547888,-0.00875873825634762,-0.07787926826933708,0.000393484759168497,-0.12104796457098263,-0.012282090409463355,0.036209738271477075,-0.009975288275237942,0.5760648286367934,0.817387945253619,0.0026470857442290954,0.0,0.8173540709982484,-0.5760036219195981,-0.011528098685542392,0.0,-0.007898349988761433,0.008804708021035418,-0.999930044145149,0.0,0.6565416347121869,0.25417390416836333,0.3038445664219585,1.0,-0.014500000000000011,-0.019057142857142877,-0.007250000000000006,0.7260000000000005
0.46117840193167203,0.5177518585635562,-0.12410495947061295,-1.4020422691276042,0.07670948260135056,1.91121308309254,0.15587955328054898,-0.007022244005943877,-0.07550907881916231,0.0011722563534806642,-0.11999618045730814,-0.003995171864328932,0.04103211472776047,-0.014524938103023247,0.5761664272366109,0.8173162333585624,0.002677632383176011,0.0,0.8172828024380023,-0.5761051618505977,-0.011506964386422786,0.0,-0.007862382327439854,0.008818479239936963,-0.9999302062484321,0.0,0.6562889737812889,0.25385282223956557,0.3038787235309621,1.0,-0.014840000000000011,-0.019504000000000018,-0.007420000000000006,0.7430000000000005
0.4609919880008027,0.5164245766834236,-0.12411376581249454,-1.4041695761597093,0.07656765940368236,1.9119963498981318,0.15572134770349622,-0.013120283595508072,-0.07338480394540069,-0.0005157139131576308,-0.12476410631643346,-0.005292122677122098,0.05125274948763148,-0.014511695246902696,0.5762662514987215,0.8172459362020886,0.002652177594424994,0.0,0.8172122641016498,-0.5762051550394308,-0.011510065553636685,0.0,-0.00787850758282621,0.008800423823267775,-0.9999302383960583,0.0,0.6560476706480158,0.25354237411023356,0.30386480412929867,1.0,-0.015160000000000012,-0.019924571428571448,-0.007580000000000006,0.7590000000000006
0.4608088541728582,0.5150495540611272,-0.12412579435645416,-1.4063451133813318,0.07643997002015344,1.9128147229401262,0.15555568493001581,-0.012358714400973794,-0.07802987397173121,-0.003330397312451982,-0.12626124596765656,-0.00830534869124535,0.052314431624415965,-0.004643356119318839,0.5763694639494213,0.8171731088351243,0.0026642305836619843,0.0,0.817139598429914,-0.5763083218907662,-0.0115039861985303,0.0,-0.00786548134393833,0.00880776424454184,-0.9999302763154243,0.0,0.6557874221911602,0.2532099656139536,0.30386478801333916,1.0,-0.015500000000000012,-0.02037142857142859,-0.007750000000000006,0.7760000000000006
0.46062038679538336,0.5136411178077565,-0.12413192096370293,-1.4085745415841928,0.07631042383071764,1.9136183305690524,0.15537830394270158,-0.007451285957095554,-0.08335711518783914,-0.001965536558930126,-0.13385197227395884,-0.004531257243118942,0.04472128613869689,-0.015965566647548633,0.5764650513614878,0.8171057268283881,0.002650027218146338,0.0,0.8170719525035469,-0.5764038540140342,-0.011522517564221426,0.0,-0.007887781051652276,0.008807761169486825,-0.999930100683674,0.0,0.6555115779441296,0.2528703396403222,0.30386063047275,1.0,-0.015840000000000014,-0.020818285714285737,-0.007920000000000007,0.7930000000000006
0.46044126288319104,0.512339827119133,-0.12412916759679235,-1.4107211692116595,0.07617714598110656,1.9143697695066828,0.15521839413245228,-0.012678719611484984,-0.0755544307408366,-0.0004455607383804476,-0.13634475498024853,-0.010955306694066524,0.04733548485281172,-0.0071367305318569526,0.5765551694505104,0.8170424054275847,0.00256733601378158,0.0,0.8170074786889931,-0.5764941453853016,-0.011577003236283901,0.0,-0.007979002011148373,0.00877248268366769,-0.9999296870652812,0.0,0.6552371767642661,0.2525464153374246,0.3038156278281148,1.0,-0.01616000000000001,-0.02123885714285716,-0.008080000000000006,0.8090000000000006
0.46024434716883417,0.5109046352599169,-0.1241273600333517,-1.4130428073897559,0.07604215909510748,1.9152257026694475,0.15504187398037364,-0.00780994203496505,-0.07688960896866479,0.0018323976811144963,-0.1355203622134276,-0.0054690079177353666,0.05354043683754596,-0.004163636381480686,0.5766555392093192,0.8169716478528437,0.0025421654207535907,0.0,0.8169362932539767,-0.5765944767471665,-0.011603837741124943,0.0,-0.00801436220150692,0.008768373323532572,-0.9999294403245471,0.0,0.6549494558673096,0.2521980842471496,0.30378978361487774,1.0,-0.01650000000000001,-0.021685714285714305,-0.008250000000000006,0.8260000000000006
0.4600436964808332,0.5094220220908509,-0.12412753221250668,-1.4153868745021518,0.07588682924726116,1.916109789134195,0.15485550262093895,-0.011905577118175303,-0.09046614557444055,0.001783808575024986,-0.13865866744625413,-0.009229535112450319,0.05570604539737109,-0.0034981082490399542,0.57674744845969,0.8169067372012054,0.0025515312513000035,0.0,0.8168715981543992,-0.5766864456943418,-0.011588027541942467,0.0,-0.00799505821114116,0.00876780753595098,-0.9999295998195138,0.0,0.654664804691746,0.2518428199605341,0.3037884162879299,1.0,-0.016840000000000015,-0.022132571428571453,-0.008420000000000007,0.8430000000000006
0.4598390575577436,0.5079209409224071,-0.12413362706738737,-1.4177682850030433,0.07573299408095135,1.9169666506317258,0.1546668646033234,-0.012751230412428094,-0.09074518322778231,-0.001622166691142264,-0.14055256890076473,-0.010413160916417004,0.04337717550132715,-0.022872931393142913,0.576846693471044,0.8168367452661379,0.0025240276849694647,0.0,0.8168012813966817,-0.5767858067739123,-0.011599427318372657,0.0,-0.008019169506958523,0.00875288886235874,-0.9999295374460052,0.0,0.6543675685000104,0.25147581777173006,0.303779522978123,1.0,-0.017180000000000015,-0.022579428571428594,-0.008590000000000007,0.8600000000000007
0.4596176518910798,0.5063966467130876,-0.12413625083741626,-1.420159451171651,0.0755866943953019,1.9178342860071826,0.1544791194878652,-0.013528238287333032,-0.09275321051576592,-0.0016079516742276354,-0.14396259316054638,-0.010311886353753519,0.0543161401877762,-0.010633048920482049,0.5769601051039182,0.8167566469084172,0.0025226475384143125,0.0,0.8167211238201371,-0.5768991638758904,-0.011606357158002087,0.0,-0.008024410594296372,0.008756873175274738,-0.9999294605154937,0.0,0.6540727962639759,0.2511010256592951,0.30378251939394774,1.0,-0.017520000000000015,-0.02302628571428574,-0.008760000000000007,0.8770000000000007
0.45940789938511967,0.504900022665836,-0.12414887970141615,-1.4224680868703299,0.07544585013604171,1.9187157132212946,0.15430188355098864,-0.012107564243493454,-0.09429401058015542,0.0003859614597655844,-0.1472293945530312,-0.017599859721569418,0.05414392561717087,-0.019069910444134766,0.5770771616429353,0.8166737497761098,0.0025851185601038027,0.0,0.8166391273609297,-0.5770160940626512,-0.011563293521721613,0.0,-0.007951936365322654,0.008784190692698146,-0.9999297998869301,0.0,0.6537789679932738,0.25072167590336886,0.303809155880237,1.0,-0.017860000000000015,-0.02347314285714288,-0.008930000000000007,0.8940000000000007
0.4591940063647961,0.5032499272068168,-0.12414927224017093,-1.4249526911343846,0.0752810334177545,1.91967082327304,0.15411085499902497,-0.016542716440852954,-0.10035746104301971,-0.0009735281605695799,-0.14693634727211777,-0.0036332200727426014,0.051243997901846944,-0.015527980697226176,0.5771862667372827,0.8165963062976214,0.0026894111191728748,0.0,0.8165631509559179,-0.5771249743123177,-0.011494843502959751,0.0,-0.007834671264618176,0.008830909848270063,-0.9999303140506477,0.0,0.6534838672214597,0.25033816849481133,0.30387071454455045,1.0,-0.018200000000000015,-0.023920000000000025,-0.009100000000000007,0.9110000000000007
0.45896320945778724,0.5015561862372399,-0.12415438675924223,-1.4274590262627949,0.07512177478190624,1.9206104812397893,0.1539138201695048,-0.010378678148524596,-0.10311790216578766,0.00023909737840888899,-0.1577989334223012,-0.014648996657090907,0.05981436294607457,-0.011653018618095607,0.5772949885630636,0.8165191659252142,0.0027739426765730586,0.0,0.8164871478602838,-0.5772334660670706,-0.011445957032220698,0.0,-0.007744779854306716,0.008872753006322426,-0.9999306439144152,0.0,0.6531950636491823,0.2499735114537786,0.3039301324177732,1.0,-0.018520000000000016,-0.024340571428571454,-0.009260000000000008,0.9270000000000007
0.45872952341126,0.49983932128172187,-0.12415013891975589,-1.4300451359510558,0.07495852958448976,1.9215236425172741,0.15370827672943008,-0.014395681923608737,-0.1014259615453076,0.0007730489520366585,-0.14846769921394382,-0.004003228472435628,0.05269735160840614,-0.014453315561690945,0.5774021861534644,0.8164432366281762,0.0028113503012030605,0.0,0.8164116382539344,-0.5773404614020261,-0.011435709546451914,0.0,-0.007713649946850087,0.008898394119109351,-0.9999306566890518,0.0,0.6528658060616176,0.24957490376423128,0.30397604636297537,1.0,-0.018860000000000016,-0.024787428571428596,-0.009430000000000008,0.9440000000000007
0.4584977874172119,0.498265758547435,-0.12415551145165167,-1.432510687454204,0.07480491759841475,1.9224480647170588,0.1535191347644362,-0.012220084116686097,-0.09043917097713398,-0.0009712750479443228,-0.15352588077400836,-0.00853663543478193,0.05812987553500923,-0.022178274286503784,0.5775221168568809,0.8163583515495456,0.002827242059755827,0.0,0.8163270412684343,-0.5774604241070698,-0.011417845033794387,0.0,-0.0076885807801620465,0.008902183574070716,-0.9999308160333897,0.0,0.652546832666829,0.24916111988618173,0.30397504640878026,1.0,-0.019200000000000016,-0.02523428571428574,-0.009600000000000008,0.9610000000000007
0.45824411131043674,0.49658913924168613,-0.12415611926654602,-1.435172525333687,0.07464034073458929,1.9234114714776478,0.15329689078448608,-0.012341741941444374,-0.097072362968765,-0.00017069918639651054,-0.1568914139467063,-0.005386721661481579,0.05403567353622036,-0.006825050855925134,0.5776408552509229,0.8162743888243543,0.0028127203233520052,0.0,0.8162427750773107,-0.577579058042479,-0.011441623401509362,0.0,-0.007715084333607791,0.008905183221728313,-0.999930585183548,0.0,0.652229486276954,0.24876610021002998,0.3039653724459481,1.0,-0.019520000000000017,-0.02565485714285717,-0.009760000000000008,0.9770000000000008
0.45797463372918146,0.49491315710007905,-0.12415333814188835,-1.4378760701045352,0.07447058459142757,1.9243470427741212,0.15308039938166862,-0.016863649487107682,-0.09542745837862826,0.0014709679890394002,-0.16291655390406531,-0.014794449719855406,0.05820367321661411,-0.012965198033858824,0.5777721890970905,0.8161817068330426,0.0027323686181687096,0.0,0.8161489403817083,-0.5777104968232221,-0.011499385865738666,0.0,-0.007807220664714509,0.008874215953527137,-0.9999301453585158,0.0,0.6518812870062863,0.24832974451190395,0.30392715376538126,1.0,-0.019860000000000017,-0.02610171428571431,-0.009930000000000008,0.9940000000000008
0.45768474139384224,0.49312801404209383,-0.12419818994045718,-1.4407719466618645,0.07429791715375819,1.9253651117762203,0.15289122655145196,-0.01464443629021853,-0.121832826055603,-0.004650195021057571,-0.1937564508225712,-0.011462396495433375,0.07502701148041674,-0.008882405195794038,0.5779852323263904,0.816031143057219,0.002644177479930807,0.0,0.8159972614464607,-0.5779238283473732,-0.011544039215135561,0.0,-0.00789231429569981,0.008830095776853342,-0.9999298679325613,0.0,0.6515203716958227,0.24783603674970095,0.30388141367781574,1.0,-0.02738571428571398,-0.035992653061224095,-0.043226767954284276,1.0109999999999995
0.4574037898293847,0.49033495316568854,-0.12433232385828893,-1.4449423689881795,0.07410358797209686,1.9269715723478527,0.15298483989089862,-0.013977405218326754,-0.17203361210866547,-0.012920377391974106,-0.26953347271476197,-0.011217962154239664,0.10405365594003069,0.004937508502299258,0.5785442622403365,0.8156342563683303,0.002836083298092049,0.0,0.8156029822513886,-0.5784823230505554,-0.011433466748203319,0.0,-0.007685051055284775,0.008928056473279239,-0.9999306124916305,0.0,0.6510108610880413,0.247194060374389,0.30398279000252326,1.0,-0.03997542857142688,-0.05253913469387533,-0.09972927347656378,1.0279999999999976
0.4569947887116152,0.4866110771341399,-0.1244930801114014,-1.4509218826915526,0.07385989253556148,1.9292495056079377,0.15392112161267113,-0.029409073052555378,-0.23678772997576192,-0.012194655225144662,-0.3862391210449717,-0.010339365332544592,0.15010243949756125,0.07725120901677762,0.5798749834883133,0.8146886447357535,0.002857020171055688,0.0,0.814657360688141,-0.5798124840468784,-0.01147235465058287,0.0,-0.007690009156365307,0.008980196872181434,-0.999930107469173,0.0,0.6503026096035895,0.24635032405516816,0.30392954324678667,1.0,-0.05182457142856843,-0.0681122938775471,-0.15290810220341505,1.0439999999999958
0.4563795051344234,0.4817854581146829,-0.12473549926541948,-1.45858223214285,0.07346366906499079,1.9320754086135896,0.1556975554592817,-0.04335759877102125,-0.2985358399337977,-0.0130545419590293,-0.48262971352511225,-0.026329156501474157,0.17269971585854765,0.11544247016531883,0.5823820920642857,0.8128984901802423,0.0028089867775282417,0.0,0.8128670281787416,-0.5823199362765972,-0.011464432645740978,0.0,-0.007683838924913866,0.008960185513936361,-0.9999303344208195,0.0,0.6492967171376751,0.24502953672121425,0.3038827416722897,1.0,-0.06515485714285267,-0.08563209795917781,-0.21273428452112275,1.0619999999999938
0.4556392029984485,0.47620992062469963,-0.12495759647214785,-1.4674186998543062,0.07301392279697035,1.9352144194494996,0.1579447764634329,-0.04908193726354911,-0.3694473542484736,-0.016522017180687312,-0.5834969998729177,-0.03274190243372164,0.20871279807847495,0.14839998249221661,0.585276278143253,0.8108176565473998,0.002674504621892562,0.0,0.8107844628723033,-0.5852141827722747,-0.0115612260706878,0.0,-0.007809038541018609,0.008935130187679802,-0.9999295887039217,0.0,0.6481484968330211,0.243585572905094,0.30381839705174757,1.0,-0.07700399999999423,-0.10120525714284957,-0.26591311324797406,1.077999999999992
0.4546698515817351,0.4693117000407991,-0.1252270876718539,-1.47818328505492,0.0724552104711194,1.939112917593118,0.1610990790218633,-0.05365310697592597,-0.41703696596318157,-0.017071541805933208,-0.6402514287111933,-0.03078843101300256,0.24557979224497617,0.2029697388240657,0.5891736629639998,0.8079901516096959,0.00265643982287534,0.0,0.8079569195548938,-0.5891113464475688,-0.011583804699147986,0.0,-0.0077948113485434845,0.008971334307915677,-0.9999293755444812,0.0,0.6467659061518778,0.2417896243346849,0.30380954892060463,1.0,-0.08959371428570712,-0.11775173877550081,-0.32241561877025354,1.0949999999999902
0.453518308965993,0.4613521991193963,-0.12543307758123956,-1.4904097351201206,0.07178375771902218,1.9436350661030886,0.16496028011283084,-0.0760965413893388,-0.47608711982525376,-0.012808884168741512,-0.7497808194435249,-0.04133356591403758,0.26681269026842924,0.2385472180991451,0.593757953244692,0.8046267867372205,0.0028238138779930703,0.0,0.804595942332717,-0.5936947753656672,-0.011516517982675114,0.0,-0.007590161446960009,0.009110228734168724,-0.9999296941193517,0.0,0.6451852041492875,0.23978060677311128,0.30387626944691914,1.0,-0.10218342857142002,-0.13429822040815206,-0.378918124292533,1.1119999999999883
0.45210365461898855,0.4524406706500206,-0.12571038110050006,-1.504316536787405,0.07094940368904193,1.9484271949710852,0.16950153978653346,-0.08002162868233412,-0.5484649715631069,-0.02065640493874007,-0.822347776329342,-0.05083322688017309,0.29373847425367783,0.2850862358556384,0.5991493192656346,0.8006211953587182,0.00255766829591526,0.0,0.8005873471476362,-0.5990867775209178,-0.011648153841744096,0.0,-0.007793643646923254,0.009026794114651612,-0.999928885524724,0.0,0.6433192811433329,0.23737128077080555,0.3038075439193341,1.0,-0.11477314285713291,-0.1508447020408033,-0.43542062981481255,1.1289999999999865
0.4505988698926919,0.4430343814639207,-0.12598381432685374,-1.5184671374222343,0.07001886455783576,1.9537002955636695,0.17446980885780158,-0.10330154315324996,-0.5829060539805622,-0.014760562427903638,-0.9089505144202159,-0.060688162199908816,0.32096753500447317,0.3261724763428311,0.6048944735659137,0.7962883752895005,0.0028716074647632322,0.0,0.796260078329906,-0.6048320458285359,-0.011350369955565497,0.0,-0.00730146800900755,0.009152498657836128,-0.9999314578176004,0.0,0.6414917509714654,0.23490511877834783,0.30398248536631,1.0,-0.12662228571427447,-0.16641786122447505,-0.4885994585416638,1.1449999999999847
0.44877722047551455,0.432193336718348,-0.12622929754862572,-1.5349384038533274,0.06902205290101829,1.959543676879772,0.18041014630178104,-0.11110334402501795,-0.6690856274513282,-0.018265855461364437,-0.9898394288538943,-0.06597618048943031,0.36284368440437154,0.35437069765850365,0.6116780352424356,0.7910890820577239,0.002965190083272254,0.0,0.7910623292328398,-0.6116148810757813,-0.011330287577131594,0.0,-0.007149850075465258,0.00927631681564714,-0.9999314124429907,0.0,0.6392541097040464,0.23203328038962812,0.3040585055113432,1.0,-0.13921199999998737,-0.1829643428571263,-0.5451019640639434,1.1619999999999828
0.4466978387424685,0.4205295375434252,-0.12648811578650354,-1.5526614656608828,0.06784806278878949,1.965781317598065,0.1871308050589246,-0.12636813182523599,-0.6942714520833635,-0.01968631076582954,-1.0721110997406649,-0.07718254547252183,0.3694213126862384,0.4029711107587346,0.619224341178189,0.7851962244395714,0.002975116718449968,0.0,0.7851705376894513,-0.6191613513003629,-0.011278062846733656,0.0,-0.007013550111148847,0.009319804464665168,-0.9999319733659778,0.0,0.636813931216628,0.22886156198556887,0.3041029652543749,1.0,-0.15180171428570027,-0.19951082448977753,-0.6016044695862229,1.178999999999981
0.44437145063643485,0.4079664920420425,-0.1267341705033857,-1.5714748491505959,0.06653825352887269,1.9725558016841258,0.1944934333997707,-0.14898465596925597,-0.7420858956689564,-0.017645324493629686,-1.1169952565937549,-0.08116034010792983,0.3918017381747275,0.44755549944459655,0.6273804378943828,0.7786937400848964,0.0032545662163179067,0.0,0.7786729669554457,-0.6273175704882864,-0.011037354333596771,0.0,-0.006553198324231735,0.009459045042749331,-0.9999337888373423,0.0,0.6342218062091985,0.22545098236594133,0.30424787114796237,1.0,-0.16439142857141334,-0.216057306122429,-0.6581069751085031,1.1959999999999793
0.44169994541621416,0.39455216199686616,-0.12701317053159752,-1.5915645340948168,0.06522352988881085,1.9795433885653224,0.20253128336760046,-0.1640000835772694,-0.8335297892089563,-0.014603475258308764,-1.2011467277107637,-0.07797130885629198,0.430236248861912,0.4839929663325685,0.6357733366280057,0.7718558893121265,0.0033907916903293763,0.0,0.7718373154527723,-0.6357096966813626,-0.011003950252324183,0.0,-0.006338026677638886,0.00961334281017101,-0.999933704331366,0.0,0.6315486843266298,0.22192424934973767,0.30433290638742583,1.0,-0.1762405714285549,-0.23163046530610076,-0.7112858038353544,1.2119999999999775
0.43891439070768523,0.38132253070274946,-0.12725520621919909,-1.6115308158999795,0.06380703013136142,1.9862974377187286,0.2107282701738593,-0.18421230067280325,-0.8796718947546129,-0.015980794001564633,-1.2406531607153721,-0.09271006123731713,0.439881683176089,0.5123395585012772,0.6452603588302944,0.763943264768465,0.0032410551224654584,0.0,0.7639237040486228,-0.6451969300696023,-0.011056343093496863,0.0,-0.006355422385620313,0.009610323774553273,-0.9999336229386672,0.0,0.6284590961267847,0.2178899232384617,0.3042975156444372,1.0,-0.1888302857142678,-0.248176946938752,-0.7677883093576339,1.2289999999999757
0.43567831136031715,0.3664684145585752,-0.12751961816431243,-1.63375659802099,0.062165706260599786,1.9938099134706506,0.22014059728946478,-0.19617675599502815,-0.8737055979992011,-0.015547750795582536,-1.3061975826748977,-0.09434117951189244,0.4235660700129043,0.5624360909427605,0.6553900597499863,0.7552712525493912,0.0031546084688619733,0.0,0.7552517876668631,-0.65532704455021,-0.011043043434807066,0.0,-0.006273313783081824,0.009620209800906596,-0.9999340463738424,0.0,0.6251606210176499,0.2135889449585998,0.3042839843066979,1.0,-0.20141999999998086,-0.26472342857140346,-0.8242908148799142,1.245999999999974
0.43205087804187486,0.3508712769748574,-0.12782195290164572,-1.6569956260088479,0.060355000498256414,2.0016401823703784,0.23025473008065594,-0.22654348285021028,-0.909714619187136,-0.02003526234439863,-1.3859506826033208,-0.11258360160250623,0.4479369983865053,0.5969885585097077,0.6661927956891135,0.7457603657728953,0.0030631218403156073,0.0,0.7457414443510465,-0.6661308813291313,-0.010958741629318506,0.0,-0.006132273180044612,0.009585116171879168,-0.9999352582910638,0.0,0.6216725570336278,0.20894048729532552,0.30425143468546956,1.0,-0.21400971428569376,-0.2812699102040547,-0.8807933204021936,1.2629999999999721
0.4280519635175077,0.3344639736052353,-0.12817173372601853,-1.68096471725082,0.05853857851643968,2.0096274335068656,0.24101600880349547,-0.24339079467858657,-0.9720967932983987,-0.023290409944155877,-1.449758552558869,-0.11610876796302655,0.4756293194106917,0.6511179381969688,0.677622605439639,0.735389695295146,0.0032167611219527845,0.0,0.735373867392257,-0.677560564280199,-0.010849137756601322,0.0,-0.005798905274993493,0.00971733014884657,-0.9999359710463416,0.0,0.618018560365558,0.20400666741374537,0.3043531195067156,1.0,-0.22659942857140666,-0.29781639183670594,-0.9372958259244731,1.2799999999999703
0.42400507600392534,0.31844244501349345,-0.12838908365692883,-1.7043016649880092,0.056693821254874995,2.017243296871455,0.2516779058469261,-0.25199557605215617,-1.0135864270658803,-0.015479427733769296,-1.482124295378332,-0.12226678966311844,0.47115647685160794,0.6748624951737485,0.68869268130339,0.7250327491597334,0.003263474564747816,0.0,0.7250185120381929,-0.6886304765539114,-0.01081530694274881,0.0,-0.005594231387253179,0.009814691173747586,-0.9999361861700724,0.0,0.6143362556453439,0.19920075610664081,0.30439812089098095,1.0,-0.2384485714285482,-0.3133895510203777,-0.9904746546513244,1.2959999999999685
0.41910708897519017,0.2997521714165113,-0.12860649983745445,-1.7314198208791687,0.05440810268398448,2.025926972764383,0.2644698201323653,-0.2827484438132913,-1.0251655114201486,-0.01648654130366166,-1.5189577188746777,-0.12524066507988726,0.4626805706325887,0.7149678049748638,0.7016646282294223,0.7124867072375296,0.0031919277400764756,0.0,0.7124731610746491,-0.7016030603780239,-0.01076509719865874,0.0,-0.005430626941618055,0.009827839987018819,-0.9999369589390177,0.0,0.6099352747323618,0.19354102031938356,0.3043969661526039,1.0,-0.25177885714283244,-0.3309093551020084,-1.050300836969032,1.3139999999999665
0.41427813444116457,0.2824749225071701,-0.12881158083193406,-1.7561386741888185,0.05229459773696085,2.033714607221672,0.276443918394898,-0.31000673013229085,-1.064551831436803,-0.005543944739854357,-1.5390556922864203,-0.12128856675911176,0.4704435549171129,0.7675823004047189,0.7137120386001072,0.70041801701807,0.0032364015451900713,0.0,0.7004063040189379,-0.7136506625162802,-0.010699910364752268,0.0,-0.005184849717481066,0.009903641559642878,-0.9999375156564859,0.0,0.6058558295026097,0.18820186261512487,0.30445630984025174,1.0,-0.263627999999974,-0.34648251428568017,-1.1034796656958834,1.3299999999999648
0.4087153341406803,0.2634592274401109,-0.1290787771623001,-1.7831085272436253,0.04995895934977273,2.042061697332704,0.289690066752388,-0.33459533623149323,-1.1278424570320593,-0.018970531767639662,-1.5861825676577443,-0.13282087452056615,0.47026133908970386,0.7907062264718921,0.7269142027489967,0.6867063163936287,0.003305112417451305,0.0,0.6866967381316603,-0.726852834349766,-0.010643962526130844,0.0,-0.004907040445416455,0.010007050116719388,-0.9999378880220653,0.0,0.6013092787985754,0.1822278899630565,0.30452077373887954,1.0,-0.27621771428568687,-0.36302899591833143,-1.1599821712181628,1.346999999999963
0.4029400228372098,0.245099421258286,-0.12937770744159124,-1.8090360120750335,0.04755967547174881,2.0499505301165715,0.3027361089974424,-0.3692222335357423,-1.1503054471092342,-0.015437442811124153,-1.6148729250439744,-0.14281479309529896,0.4771213401206178,0.8153070559925649,0.7397851576150615,0.6728209030173606,0.003271075751273683,0.0,0.6728126698455809,-0.7397248992583383,-0.010532407783196623,0.0,-0.004666817785763944,0.009992732552506822,-0.9999391812044813,0.0,0.596869986337104,0.17624576128161773,0.304527979164667,1.0,-0.2880668571428284,-0.3786021551020032,-1.2131609999450141,1.3629999999999611
0.3963989465709745,0.22493267468239497,-0.1296455532013418,-1.8371127906283602,0.04498115250881792,2.0582980292822723,0.3172283573719924,-0.387613797325554,-1.1921668107604793,-0.012323151474341269,-1.6441765805712552,-0.14495501333795965,0.4809071909476936,0.8580252096079777,0.7537665812508909,0.6571190285581221,0.0033571114640754732,0.0,0.6571131773869965,-0.753706344990186,-0.010476856737998426,0.0,-0.004354349545425129,0.010103301186513258,-0.9999394796412284,0.0,0.5919201365850827,0.16971068753906451,0.3045881295345682,1.0,-0.30065657142854135,-0.3951486367346544,-1.2696635054672936,1.3799999999999593
0.3898093703899105,0.20547019996839963,-0.12983429319776063,-1.8639993834828292,0.04236830705436474,2.066014632604643,0.33125110565695676,-0.4252911958645261,-1.213035018000409,-0.014825533627803138,-1.7067235271489203,-0.1603383524617378,0.47438801808852693,0.894805968034869,0.7670049602755832,0.6416176920785552,0.0032977303782275127,0.0,0.6416126283380973,-0.7669452584612353,-0.010438035357088437,0.0,-0.004168129727797676,0.01012208523145064,-0.9999400832475611,0.0,0.5870297372046458,0.1633566817809652,0.30460586930623,1.0,-0.31250571428568286,-0.4107217959183262,-1.3228423341941449,1.3959999999999575
0.3822225655481559,0.18420530964882936,-0.13007033175322158,-1.893054989048555,0.039465352791228536,2.0741331465636836,0.3468381944861954,-0.45418547635338274,-1.2417015258589819,-0.014009280352211873,-1.7303630491388224,-0.17401393398550463,0.46308451205941076,0.9439281918436084,0.7814503834383022,0.6239435595832864,0.0032372179223769154,0.0,0.6239394281983373,-0.7813912955034533,-0.010391349872633524,0.0,-0.003954158052008827,0.010140347474963979,-0.9999407672393335,0.0,0.5816263569049689,0.15628639760506466,0.3046260455257532,1.0,-0.3250954285713958,-0.4272682775509774,-1.3793448397164243,1.4129999999999556
0.37386964250761123,0.16246636820796279,-0.1304210792543424,-1.9224730590919654,0.03648634522726797,2.082132167617297,0.3628528217085563,-0.5037056674198732,-1.2711440314518692,-0.024577956024832148,-1.7383068732750977,-0.17900646464112688,0.44198213655528856,0.937375007212455,0.7962024046637106,0.6050061308759861,0.0031716417518393163,0.0,0.6050028355380754,-0.796143713401697,-0.010368389607509722,0.0,-0.0037479287972084774,0.010174384879600415,-0.9999412157332315,0.0,0.576061652507952,0.14878447474434905,0.30462147148270946,1.0,-0.33768514285710866,-0.44381475918362867,-1.435847345238704,1.4299999999999538
0.3656022918767695,0.1414834314635573,-0.13061081213513892,-1.9503876770736681,0.03343758078781772,2.0894744802608205,0.37834926811063185,-0.5232447895616595,-1.302821498436085,-0.014922425978009423,-1.7401796942690788,-0.18615441064951815,0.4454308166449082,0.9716686985567088,0.810805296369959,0.5852907848677843,0.0031961583947210563,0.0,0.5852896836201462,-0.810747948262628,-0.010222403679009104,0.0,-0.003391865115594306,0.010159253177323552,-0.9999426407679176,0.0,0.5702757592521318,0.14119255595714955,0.30468964110594465,1.0,-0.3502748571428216,-0.4603612408162799,-1.4923498507609834,1.4469999999999519
0.35552453891128477,0.11726703830526138,-0.1308670181592521,-1.9821500166537191,0.030029032143452768,2.0976300894825157,0.39636049172636106,-0.5808330869871401,-1.3404985929207154,-0.009568349655671781,-1.751631752397548,-0.1825847376733251,0.4503860067922637,1.0028139856689322,0.8256320223246564,0.5641819748836914,0.00334810836799233,0.0,0.5641840807967554,-0.8255747667004216,-0.010167323358320983,0.0,-0.0029721640101529334,0.010283615179421945,-0.9999427051086169,0.0,0.5642695702454382,0.13326937014182608,0.30476173317985816,1.0,-0.3628645714285346,-0.47690772244893137,-1.5488523562832637,1.4639999999999502
0.34578265025735505,0.09522081960216133,-0.1312105611986014,-2.010738291501676,0.02669066736841053,2.10453228764338,0.4126372576285643,-0.6089150151692901,-1.3906231094565655,-0.012229032337694679,-1.793966652780875,-0.2117487966070988,0.4502062908045983,1.044698625163998,0.8395521732831474,0.5432514725074519,0.003276103667028732,0.0,0.5432546594990254,-0.8394966369487246,-0.010025885775715736,0.0,-0.0026963511131974927,0.010197209102080176,-0.9999443717613508,0.0,0.5584047633667775,0.1254015056587316,0.3047961965685542,1.0,-0.3747137142856762,-0.4924808816326031,-1.602031185010115,1.4799999999999485
0.3349208894585904,0.07144292001700751,-0.1313739882159226,-2.0411497549458484,0.02323552194288429,2.111639597862324,0.4304138635477534,-0.6464333774031054,-1.3999367010860282,-0.00934258128153603,-1.7936779592448946,-0.21636179357660404,0.42921668985587996,1.0375351616552566,0.854139241157479,0.5200150990197441,0.003346701005524071,0.0,0.5200205342691641,-0.8540836436928825,-0.010025987029251207,0.0,-0.0023553473963741633,0.010304140584587784,-0.9999441369523877,0.0,0.5519621579243623,0.11705415667352279,0.3048355169889696,1.0,-0.37998,-0.4994022857142858,-1.62566622,1.4969999999999466
0.32326739943656324,0.04795408236341636,-0.13160720927932298,-2.070944017963323,0.019624178415978966,2.118165365595362,0.44794517947714035,-0.7020000764692828,-1.3807333113504439,-0.010755348894478907,-1.7333383748139202,-0.21749271409482532,0.3572568932599698,1.0050074297996876,0.869104406195893,0.4945995726650779,0.0030888107120447014,0.0,0.4946040756251257,-0.8690499485673681,-0.009987100243718745,0.0,-0.002255328144325386,0.010207767725108341,-0.9999453559935323,0.0,0.5451005906274544,0.10790811130179451,0.30475474500632277,1.0,-0.37998,-0.4994022857142858,-1.62566622,1.5149999999999446
0.31117127710365433,0.024549698225906608,-0.13171049238544066,-2.1000188691295327,0.01608012734160376,2.124101060369178,0.4651896236750871,-0.7145508522042143,-1.3563054185044194,-0.00493331177129408,-1.679569224856668,-0.20774991414449978,0.33216530445984205,1.0163048910912065,0.8817355732114805,0.47171390381863954,0.0030197315790983555,0.0,0.47171906754046644,-0.8816811257841217,-0.010013024318604364,0.0,-0.0020608821305018177,0.010253502113549057,-0.9999453077340039,0.0,0.5389734815053264,0.09987555557569118,0.30478761266561755,1.0,-0.37998,-0.4994022857142858,-1.62566622,1.5309999999999429
0.2985495858322798,0.0014869392728372906,-0.13184894107685902,-2.1281565984885935,0.012486963782037862,2.1297117892428648,0.4820529927625116,-0.7530718948420264,-1.3640688381726227,-0.01710288860664481,-1.653646254476249,-0.20099377914171487,0.31652306202589153,0.9913707862071531,0.8945206845960829,0.446993929973339,0.003149332937846602,0.0,0.44700212636270886,-0.8944673153297069,-0.009902915494552956,0.0,-0.00160959872687233,0.010266318925978735,-0.9999460044860663,0.0,0.5325510399060668,0.09127054722282159,0.3048470538222951,1.0,-0.37998,-0.4994022857142858,-1.62566622,1.547999999999941
0.285592448258811,-0.02128746008694801,-0.13187530806025335,-2.1555497416103817,0.00893382898387495,2.1347797120830854,0.49855269272840175,-0.7650526883730998,-1.347530238507986,-0.002679130911060614,-1.6046274944018641,-0.21697635770360113,0.28515511601446386,0.9569883627377019,0.9065186085245198,0.4221307946775329,0.003217372358234648,0.0,0.42214123922935065,-0.9064660223399216,-0.00984232626756863,0.0,-0.0012383341266182235,0.010280635401177102,-0.999946386094944,0.0,0.5260903815738088,0.08278993922579951,0.30488376466952843,1.0,-0.37998,-0.4994022857142858,-1.62566622,1.564999999999939
0.271280286771692,-0.04507388397748387,-0.13199859150591667,-2.1837166360076936,0.0052394118590674285,2.139503039452737,0.515703282804911,-0.7940530092920236,-1.3011258841330267,-0.016730918660991606,-1.540421330465004,-0.19936313644651543,0.23789683545961263,0.9465705498216517,0.9185872060302762,0.39518114805627164,0.003186226549767257,0.0,0.39519280897773285,-0.9185348662701909,-0.009853429834328353,0.0,-0.0009672481589490523,0.01031060691270648,-0.9999463764703038,0.0,0.5192478889347045,0.07371870041631,0.3049033855277656,1.0,-0.37998,-0.4994022857142858,-1.62566622,1.5829999999999371
0.2574066195599568,-0.0672601134632227,-0.13201532034538216,-2.209559500221809,0.0017277774044329114,2.143418837993081,0.5312790990082165,-0.8145185936694275,-1.284567092623992,-0.001089489348634117,-1.506939533759208,-0.21190270965593316,0.19953653339435853,0.8987683659414216,0.9290764280236306,0.36984879692734074,0.0030992262677613414,0.0,0.3698610039469133,-0.929024668194006,-0.009836185622826286,0.0,-0.0007586583704157213,0.010285049161753275,-0.9999468196865358,0.0,0.5127602298939624,0.06526385831259517,0.30491596372093743,1.0,-0.37998,-0.4994022857142858,-1.62566622,1.5999999999999353
0.2438425121499935,-0.08795649392085106,-0.1321146667396379,-2.2332985372700223,-0.0015589027300909621,2.1468633816076896,0.5458730491727986,-0.8627956152094938,-1.2572174840438293,-0.007360413687944507,-1.4785941630703632,-0.20753845870638776,0.19847329547929202,0.8942270752948783,0.9384688814950846,0.3453212803417266,0.0031809919402560824,0.0,0.3453357052104152,-0.9384179154372775,-0.00978844187745617,0.0,-0.00039506506230246874,0.010284856210625602,-0.9999470314253268,0.0,0.5066791045991713,0.057231110111614664,0.3049380542593966,1.0,-0.37998,-0.4994022857142858,-1.62566622,1.6159999999999335
0.22912534099145068,-0.10961049303601282,-0.13207969885761708,-2.257747574499446,-0.005081161072943628,2.149989762315393,0.5607728682503774,-0.8824576390525793,-1.2578468056054686,-0.0008979907287307727,-1.4439358972262248,-0.21720226545285398,0.1862591550909497,0.8471260281275538,0.9475691824218073,0.31950476868765043,0.0031771388900294576,0.0,0.319520553715042,-0.9475196669709374,-0.00968727815876805,0.0,-8.473161567507104e-05,0.010194723702190892,-0.9999480288640952,0.0,0.5002108688517136,0.048844815930520126,0.3049525249927031,1.0,-0.37998,-0.4994022857142858,-1.62566622,1.6329999999999316
0.21473648588034816,-0.12974031291761082,-0.13217632192107606,-2.280144654257929,-0.008271415623200103,2.1524705042864336,0.5743786920622613,-0.9035881666289087,-1.2361733949465543,-0.00205371625392834,-1.390646001382182,-0.1984374440724991,0.14301414860716952,0.8508321241401542,0.9560393856204066,0.29318911087274957,0.0030960150855852417,0.0,0.2932054323748843,-0.9559903380110739,-0.009684779632899924,0.0,0.00012029089456006004,0.010166994958073196,-0.9999483075357563,0.0,0.4937256917061517,0.040359061352621364,0.30494241518333676,1.0,-0.37998,-0.4994022857142858,-1.62566622,1.6499999999999297
0.1981393477583936,-0.15208748859405802,-0.13220131224781367,-2.3046892211202192,-0.011890090318445607,2.1548088758961637,0.5893316611972267,-0.9282654042051168,-1.2268253212065767,-0.007055395825144307,-1.3547347844017783,-0.199736951918027,0.11244279769334846,0.821921471260375,0.963746493017045,0.2667673560735775,0.002936295637116718,0.0,0.26678339542958773,-0.963698123071262,-0.009658903312241833,0.0,0.0002530273666555005,0.010092283421348616,-0.9999490395977662,0.0,0.48721744031473396,0.031959893988027,0.30489649558293574,1.0,-0.37998,-0.4994022857142858,-1.62566622,1.6669999999999279
0.1827961796595616,-0.17174568868310267,-0.13233258641103085,-2.325848239339038,-0.01503456477674642,2.156534095434864,0.6020877058761526,-0.9501642414544106,-1.2158227528978804,0.0013087509955583155,-1.3126957839978846,-0.19052740163099705,0.09591657437747193,0.7851774071998235,0.9703710901009605,0.24156216054522806,0.0029012049571866105,0.0,0.24157909578961256,-0.9703232518157057,-0.009647505609015936,0.0,0.00048464366034722817,0.010062724743467002,-0.999949252057953,0.0,0.48110912243717757,0.023954937014751525,0.304888098618606,1.0,-0.37998,-0.4994022857142858,-1.62566622,1.682999999999926
0.1660321210930161,-0.19232314151930294,-0.13253892745673382,-2.3475911280013073,-0.01838366719003581,2.157935528227473,0.6151290241651494,-1.0017810934870581,-1.215500534070513,-0.02892893249341995,-1.2573684526695428,-0.20383321804077909,0.09888440594353902,0.7590082152900024,0.9766789649003975,0.2146409071527156,0.0028683442882143024,0.0,0.2146587922647915,-0.9766320827270476,-0.0095981661195855,0.0,0.000741172243128918,0.009990234614300507,-0.9999498216790967,0.0,0.47463532114474233,0.01543560174064922,0.30489467018731575,1.0,-0.37998,-0.4994022857142858,-1.62566622,1.6999999999999242
0.14882521809104254,-0.21260788000110434,-0.13265883921983448,-2.3687041269934017,-0.021523200500779157,2.1588475728634196,0.6277366540169272,-0.9968034369279132,-1.1873724155788,-0.010838918237221258,-1.197391262135742,-0.17254360299606725,0.04286023241614593,0.7198459943294097,0.9822386432832102,0.1875649285209724,0.0027188474192394205,0.0,0.1875826907704667,-0.9821912521958294,-0.009686337517784359,0.0,0.0008536273820512474,0.010024496739173092,-0.9999493891119783,0.0,0.46811821734371967,0.007018320917377389,0.3048738213436947,1.0,-0.37998,-0.4994022857142858,-1.62566622,1.7169999999999224
0.13097171007136274,-0.23257812229281405,-0.13289516717385416,-2.3891309037674637,-0.02485393618459603,2.1594983666841454,0.6397419428081963,-1.0415558779384868,-1.1567259013715487,-0.006006591318677616,-1.1857377528231061,-0.18719899137679902,0.01907454281296698,0.6941803912273515,0.9870492850522655,0.1603351589228717,0.002663192106678462,0.0,0.16035354694317927,-0.9870034556747584,-0.009574203362937104,0.0,0.0010935194482989963,0.009877453056408544,-0.9999506188489183,0.0,0.4616276162297162,-0.0015307064259124223,0.304863644805856,1.0,-0.37998,-0.4994022857142858,-1.62566622,1.7339999999999205
0.11265452121315937,-0.2522129968906817,-0.1331542548089709,-2.4086674079182795,-0.027935342768695134,2.159835819319775,0.6512367775350365,-1.0841901092358484,-1.1137673239853123,-0.022480014180443354,-1.1443899074056278,-0.17911283704180378,0.010295492464664161,0.6639374789091069,0.990896069781615,0.13452598862528448,0.0029127610522178445,0.0,0.13454804718409152,-0.9908509821505929,-0.009586504647738974,0.0,0.0015965088719051557,0.009891326528564356,-0.9999498051497022,0.0,0.4556001449257575,-0.009527326216564897,0.30496261121888074,1.0,-0.37998,-0.4994022857142858,-1.62566622,1.7499999999999187
0.09496953120623715,-0.2703429905621685,-0.13329396140401636,-2.426466414960436,-0.030850433550831682,2.159929485039188,0.6616072722444015,-1.109655017719797,-1.1276229795829698,-0.00661760886695884,-1.0913143029781849,-0.18356189226766323,0.014994126686178444,0.6368537808621714,0.9942311666573111,0.10712366977290355,0.0031070118821996217,0.0,0.10714871848218294,-0.9941878482376122,-0.009509019166068838,0.0,0.002070352289299582,0.009787263995894583,-0.9999499603004507,0.0,0.4491878777085232,-0.017967847570400132,0.30501140164118645,1.0,-0.37998,-0.4994022857142858,-1.62566622,1.7669999999999169
0.0756748780042386,-0.28917486156423783,-0.13353653447697292,-2.4448579092344596,-0.03380344845641696,2.1596510108651708,0.6720266093234779,-1.141089746542808,-1.1019044904624586,-0.0032339052827721204,-1.0649386868625825,-0.1603191005254911,-0.015229955029134802,0.5944262447454286,0.9969360976469281,0.07803433888942529,0.003131463525811671,0.0,0.07806094997392798,-0.9968933011935761,-0.009538397441391127,0.0,0.002377458246848596,0.009753805531640975,-0.9999496042151002,0.0,0.4423480599509713,-0.026908610393171817,0.3049911491645598,1.0,-0.37998,-0.4994022857142858,-1.62566622,1.7849999999999149
0.05579312487836821,-0.3075977602451256,-0.13382615924205496,-2.462379770081151,-0.03678756826083683,2.1591298910651457,0.6818342398471376,-1.1767570144675636,-1.0794760587434162,-0.01775417686735578,-1.0141672071996553,-0.17628713652322972,-0.051062776906506645,0.5531642622314112,0.9986293936119299,0.05205156480139733,0.0032734870098125564,0.0,0.05208048515454111,-0.998588289203924,-0.009476214014907745,0.0,0.002775667465191145,0.009633896129416224,-0.9999497405947413,0.0,0.43630958799110775,-0.03491281602338831,0.3050150802248589,1.0,-0.37998,-0.4994022857142858,-1.62566622,1.8009999999999131
0.03545055869833637,-0.3257346231122418,-0.13409858406817735,-2.479271376629367,-0.03962980805232687,2.1582589194864257,0.6910968182907093,-1.1965506458880315,-1.0796227731129924,-0.02880818176199753,-0.9880195760117843,-0.1660005296698326,-0.049701102180041125,0.5353575021078321,0.9996843599598237,0.024491075915826388,0.0034805967033508475,0.0,0.024523089507577034,-0.9996447450642354,-0.009473576287314264,0.0,0.003247404650748187,0.009556125016829387,-0.9999490661217187,0.0,0.42987470919291093,-0.04335041419198414,0.305082023075385,1.0,-0.37998,-0.4994022857142858,-1.62566622,1.8179999999999112
0.0158732791831166,-0.34223833016392824,-0.13426577558379288,-2.4946683428334175,-0.04221763469400724,2.1570874099390727,0.6992921885774424,-1.2195114946536625,-1.0428401094831923,-0.0036872691605717243,-0.9463246186792985,-0.17501003100680929,-0.07825978081875211,0.4920785291856167,0.9999841444775641,-0.001322059386983876,0.0032725912760797177,0.0,-0.001291002296729682,-0.9999446606198357,-0.009473959687470843,0.0,0.0032849985566455464,0.009469766872393905,-0.9999497648881495,0.0,0.42374885566128434,-0.05121169158639353,0.3050078201206817,1.0,-0.37998,-0.4994022857142858,-1.62566622,1.8339999999999095
-0.00557690754837828,-0.3593210761123304,-0.13462153691990822,-2.51006110393925,-0.04497687988765271,2.1557631188063633,0.7073963567083391,-1.2597125663684878,-0.9781390009234509,-0.0218687323494336,-0.893100373939055,-0.1548620609088059,-0.08638532383558999,0.4599691085911789,0.9995647205351847,-0.02896452388183418,0.003488942379096298,0.0,-0.02893060195586261,-0.9995275027195223,-0.009409488772244947,0.0,0.0037599076154429256,0.009304634954847416,-0.9999496421635843,0.0,0.41735336256671796,-0.0597107914335174,0.3050732651971316,1.0,-0.37998,-0.4994022857142858,-1.62566622,1.8509999999999076
-0.028834987297945754,-0.3768588214674092,-0.13496465645987532,-2.525753725023229,-0.04774869578160451,2.1540173640990417,0.7152942302078122,-1.2859371182078538,-0.9686674806327862,-0.017024781067952362,-0.847207661535226,-0.1527412635714804,-0.09500558619842053,0.4227404477114485,0.9982943929168774,-0.05811332027995875,0.0034487647020833203,0.0,-0.05807874442910543,-0.9982581302482024,-0.009397432633962253,0.0,0.003988950215287057,0.009181281150683215,-0.9999498949210466,0.0,0.41050109387532324,-0.0686511527987309,0.3050604035609755,1.0,-0.37998,-0.4994022857142858,-1.62566622,1.8689999999999056
-0.05005697594857316,-0.39193308919970843,-0.13535557159869668,-2.5389182107310617,-0.05013845555923241,2.152322030210236,0.7216880345790038,-1.3167396494178885,-0.9155484484459305,-0.016876758046895445,-0.8324081756772992,-0.1475772295831767,-0.10911165854051696,0.39137090452669515,0.9964468968548834,-0.08403415274147735,0.0035482139878395733,0.0,-0.08399776952849486,-0.9964120230871134,-0.009391584684822077,0.0,0.0043247802052786,0.009060347794723672,-0.9999496019170241,0.0,0.4044419564654445,-0.07665172194445075,0.30509936257965775,1.0,-0.37998,-0.4994022857142858,-1.62566622,1.8849999999999039
-0.07313875983693043,-0.4073461790704112,-0.13578186184531937,-2.5522446720656298,-0.05258605046530714,2.1503420716858095,0.7280036123829601,-1.3672726163643463,-0.8998394063289064,-0.03745317912608212,-0.7306744985661898,-0.14962680105012205,-0.1136850049131874,0.3552923755458378,0.9937334536797723,-0.11163342280050664,0.0035424359871748102,0.0,-0.11159614379199845,-0.9936995868263059,-0.009390353198494742,0.0,0.004568482403111085,0.00893635797199721,-0.9999496339689959,0.0,0.3979755331185877,-0.08515224894709458,0.30510348606220583,1.0,-0.37998,-0.4994022857142858,-1.62566622,1.901999999999902
-0.0952674811340208,-0.4213094903153374,-0.13617448921082723,-2.564027130675882,-0.05464126958330897,2.148465335584548,0.7333956282684164,-1.4115227867586073,-0.8431964495194055,-0.031915755477528354,-0.7269715345679484,-0.13799229073784647,-0.11960911802294528,0.33025003913632467,0.9904808300938974,-0.1375295052544641,0.003755968873033135,0.0,-0.1374889139834497,-0.990448005202841,-0.009502337742522259,0.0,0.005027040472496136,0.008895650562576171,-0.9999477967699895,0.0,0.3919485384228693,-0.09310796846960649,0.30516753067889335,1.0,-0.37998,-0.4994022857142858,-1.62566622,1.9179999999999002
-0.11931529197953089,-0.4353753008353091,-0.1365696019306415,-2.5759898787320066,-0.05693587215924618,2.1461786298412053,0.7384676127797217,-1.4088653120629198,-0.8012284704349764,-0.03033743732373598,-0.6668151367834486,-0.12839545180933493,-0.13598697672593668,0.2850799762311509,0.9863197206554009,-0.16474843495574698,0.0034797596314053024,0.0,-0.1647096504616516,-0.9862870838337564,-0.009448079630983456,0.0,0.004988694359668477,0.008745845654412637,-0.9999493102714632,0.0,0.38543543192456087,-0.10156486949544898,0.3050922389117757,1.0,-0.37998,-0.4994022857142858,-1.62566622,1.9349999999998984
-0.14384266928403855,-0.44885085078983805,-0.13696097127645504,-2.58690798200029,-0.05905741338874384,2.1441507992879645,0.7429791512467417,-1.444591038152514,-0.782727306112909,-0.015291416688617,-0.6383525320522023,-0.1230336269738967,-0.1184260124908758,0.24933368951421359,0.981398039748663,-0.19189375437152284,0.003927023286379701,0.0,-0.1918504722044947,-0.9813692480015046,-0.00940969144455467,0.0,0.0056596298736251716,0.008481414759992034,-0.9999480157455,0.0,0.379090118542649,-0.11004888646164117,0.305223502617437,1.0,-0.37998,-0.4994022857142858,-1.62566622,1.9519999999998965
-0.1688307216692097,-0.4614141578473036,-0.13736081524588586,-2.5973446912011133,-0.06099088420626932,2.141766027399936,0.7469538840155933,-1.4863984095883962,-0.7148070358567568,-0.020486757644926037,-0.5954155352058351,-0.11593216018133813,-0.13387464349147857,0.21512073712603924,0.9757232141583327,-0.2189337865856193,0.003599075578947471,0.0,-0.2188921806069712,-0.9756933179950049,-0.0094609402403589,0.0,0.005583020955274021,0.00844361208433543,-0.9999487663335469,0.0,0.37258392339914836,-0.11846592696365124,0.30513310542742683,1.0,-0.37998,-0.4994022857142858,-1.62566622,1.9689999999998946
-0.19412684435580796,-0.4732083710660075,-0.1377133333609342,-2.606719613866347,-0.06283207202810889,2.1396051122951514,0.7502142196913172,-1.4797518088781798,-0.6609934851096175,-0.012766334165578723,-0.5244939486496124,-0.09040978564435151,-0.11096196566533793,0.1817309571035659,0.9693869435240499,-0.2454695240005471,0.0037965001321733976,0.0,-0.2454256318645176,-0.9693595591168038,-0.009436698256611427,0.0,0.005996710978766306,0.008216211823660849,-0.9999482653221146,0.0,0.36624110807114496,-0.12686166980514074,0.30520395275576395,1.0,-0.3705171428572222,-0.4869653877552064,-1.5831970165032132,1.9859999999998927
-0.21797810520613545,-0.4831766504940655,-0.13800602613690655,-2.6148273324510436,-0.06438841160015982,2.137654776261756,0.7527395041299791,-1.4603238220175514,-0.6079890094345692,-0.014877403852879705,-0.4875517133068581,-0.07739431218676515,-0.13037416681083325,0.13713190170429695,0.9628749392316187,-0.26988738586058364,0.003660225984228793,0.0,-0.2698439838261067,-0.9628479256458753,-0.009425676288680273,0.0,0.006068228962041566,0.008088213245560472,-0.9999488773951191,0.0,0.3603296175678557,-0.13461995217430067,0.3051355841389378,1.0,-0.35866800000008064,-0.4713922285715346,-1.530018187776362,2.001999999999891
-0.24291542405335007,-0.4928137094675424,-0.1381953358685134,-2.6225435729055664,-0.06565316361119453,2.1355443815944812,0.7546308639226306,-1.446761792079603,-0.547006967746126,-0.018774659866673656,-0.4335098474039893,-0.05702568583066802,-0.11147522639502529,0.10015402708133493,0.955591898447916,-0.29464052627788145,0.003439592506217311,0.0,-0.29459734310643804,-0.9555635194888337,-0.009566219626863338,0.0,0.0061054626552730085,0.008128263654766793,-0.9999483259927603,0.0,0.3542171604450628,-0.142530582596679,0.3050788740928107,1.0,-0.3460782857143677,-0.4548457469388834,-1.4735156822540825,2.018999999999889
-0.2675208941773191,-0.5013441233318962,-0.13826461361519796,-2.629091446484778,-0.06679439259646223,2.1337858020017655,0.7559696814784531,-1.4483425617736256,-0.477506358987591,-0.011802322405821509,-0.3618001850233778,-0.053569345388286574,-0.09849948662873774,0.06694650223601716,0.9479429145691609,-0.3183892584950633,0.0036411116841374557,0.0,-0.31834357724058515,-0.9479166643185318,-0.00959745998187449,0.0,0.006507323895253603,0.007938872516915052,-0.9999473131314882,0.0,0.3484118506126145,-0.15025730606647406,0.3051460654743151,1.0,-0.33348857142865485,-0.43829926530623214,-1.417013176731803,2.0359999999998872
-0.2900943498452029,-0.508437988151055,-0.13817115400580193,-2.6343446369258032,-0.06775187803496112,2.1323543287774696,0.7567649049152383,-1.4109069433152523,-0.4142955553825297,0.011915966146483506,-0.3127978079179245,-0.04586747522953617,-0.08362826488060729,0.04109668217411708,0.9405672239193024,-0.33955519952058305,0.0040386468627386625,0.0,-0.33950638649438963,-0.9405452931355422,-0.009524284293705283,0.0,0.0070326859520229434,0.007587229312928739,-0.9999464862079637,0.0,0.3432149489032338,-0.15724856413488192,0.305279499158358,1.0,-0.3216394285715133,-0.4227261061225604,-1.3638343480049517,2.0519999999998855
-0.3147768628178146,-0.5152675593318173,-0.13801288085596644,-2.6396733391880494,-0.06859202565236693,2.1306965879800304,0.7572357838402884,-1.3689482153218648,-0.3520356600570048,0.022280923191524686,-0.28145256292086135,-0.04493761565208613,-0.09231835474600912,0.022835508113498933,0.9325468385406469,-0.3610012231978906,0.003906107868482417,0.0,-0.360952988025144,-0.9325251687895166,-0.00951298644023037,0.0,0.00707687989242245,0.007461527780771082,-0.9999471202889507,0.0,0.3377911486136748,-0.1643306517890361,0.305255023560862,1.0,-0.3090497142858004,-0.4061796244899092,-1.307331842482672,2.0689999999998836
-0.33615867130977223,-0.5205010209808687,-0.1378991592106333,-2.643692075781075,-0.06914551597421821,2.1294646098794896,0.7573237159791854,-1.3177863876503908,-0.3150684479981628,0.013123962525858582,-0.2353027138498835,-0.04530087827586601,-0.06290983655838894,0.004018466217593126,0.9243448162955686,-0.3815134072566687,0.0038636216335190252,0.0,-0.3814646338196187,-0.9243235215501496,-0.009565958143483986,0.0,0.0072209166642489,0.007368550678616054,-0.999946779995528,0.0,0.3325853899957558,-0.17116376325659485,0.3052451211633354,1.0,-0.2964600000000875,-0.3896331428572579,-1.2508293369603927,2.0859999999998817
-0.35814842010145154,-0.5252064144657732,-0.13764718853534247,-2.6472599091813658,-0.06960710149268455,2.1283797181131443,0.7572449292420185,-1.2881811373755099,-0.25375310467077017,-0.0007317302885193038,-0.19456458297637846,-0.02740305847848149,-0.05035203703341401,-0.008886847299264793,0.9160516302880366,-0.40101715145006606,0.003924511525487958,0.0,-0.40096749669727666,-0.9160318223853046,-0.00956628825542951,0.0,0.007431366187634791,0.007189750815039725,-0.9999465397109002,0.0,0.32763600390365344,-0.17770813123833865,0.30526330870266466,1.0,-0.28387028571437456,-0.37308666122460665,-1.1943268314381132,2.10299999999988
-0.3793306830120101,-0.5290814057673379,-0.13727738529162445,-2.6502973731125863,-0.06995793178676755,2.127391650489372,0.75675943995172,-1.2475711115159016,-0.21266361337046788,0.028656445059807415,-0.1670703245126753,-0.016379602475917795,-0.055119587111644844,-0.035650980198728796,0.9078601280959122,-0.4192330706676191,0.0037904054508456062,0.0,-0.4191843661174435,-0.9078406772009342,-0.009514143328483032,0.0,0.0074298708217703235,0.0070487683853127925,-0.9999475545666494,0.0,0.3228823075367896,-0.18391633935539692,0.30522376536863327,1.0,-0.2712805714286617,-0.35654017959195544,-1.1378243259158336,2.119999999999878
-0.3997441867296655,-0.5321682769805705,-0.13697600274279398,-2.652770978513734,-0.07018162712874718,2.1266248744860716,0.7559856019358809,-1.1748587927996292,-0.1700108780355864,0.018902770633249494,-0.1327133128910816,-0.0017258732182832866,-0.042663160192972956,-0.05288038772355531,0.8996951804438196,-0.4364813493366275,0.0036552522003967317,0.0,-0.43643320931078194,-0.8996756387272691,-0.00951555529540359,0.0,0.007442047055593315,0.0069659599061761,-0.9999480443194075,0.0,0.3183357822560048,-0.18988718677142225,0.3051664474368163,1.0,-0.2586908571429488,-0.33999369795930423,-1.0813218203935542,2.136999999999876
-0.41832860684324924,-0.5346110761370483,-0.1366601970694141,-2.6546396751592196,-0.07036528092264244,2.1260572254123415,0.7551172427188853,-1.1111251254065224,-0.14271171371954153,0.024995311804455113,-0.10711091593283112,-0.00975780231699481,-0.03145823078784601,-0.05464543283960609,0.8920492129744535,-0.45190198605102694,0.0036801543450572472,0.0,-0.4518537513932516,-0.8920310548648229,-0.009462103878392445,0.0,0.007558901029621701,0.006777901266884878,-0.9999484602066451,0.0,0.3142309887234151,-0.1953027815618986,0.3051651614412363,1.0,-0.24684171428580723,-0.3244205387756325,-1.0281429916667029,2.1529999999998743
-0.4372506092931559,-0.5366381759051861,-0.13635249515523232,-2.656175407326283,-0.07038881197231642,2.1255576535270437,0.753987976527852,-1.1068374543165742,-0.10374391140626703,0.010360108244220546,-0.0776836511914603,-0.0004518534662174326,-0.03348585849604455,-0.07587700956000278,0.8840493075827633,-0.4673584449044251,0.003694947924193528,0.0,-0.467309502937701,-0.8840318456573135,-0.009501117252791019,0.0,0.007707027401311517,0.00667290032476614,-0.9999480357148021,0.0,0.31006938884747565,-0.20079163362419555,0.3051684103656022,1.0,-0.23425200000009433,-0.3078740571429812,-0.9716404861444234,2.1699999999998725
-0.45513114705487634,-0.5381581859430024,-0.13588079872311484,-2.6573318236398986,-0.0703860879363423,2.1251850878369876,0.7527046289856146,-1.0242641107541863,-0.07575293899868496,0.032277751112776205,-0.05691058195412098,-0.00040779775770577367,-0.023895402302279684,-0.07791201497937893,0.8764060541199296,-0.48153855816749414,0.0037137852810803897,0.0,-0.4814898352317597,-0.8763900441517468,-0.009422100689375781,0.0,0.007791979247073366,0.006469560782715933,-0.9999487136061989,0.0,0.3061694749472643,-0.2059187375829271,0.3051742575410864,1.0,-0.22166228571438143,-0.29132757551032995,-0.9151379806221439,2.1869999999998706
-0.47132825460831684,-0.5391461728301029,-0.13550117062049732,-2.658118255729302,-0.07036692921224595,2.124920663792882,0.7514471095040363,-0.9917384572700199,-0.05619174807098132,0.03333106995185258,-0.03777551841791422,0.00376069499002417,-0.01764661186823389,-0.09039885090348072,0.868875047126093,-0.4949983448893017,0.0036793939297493972,0.0,-0.4949502340016084,-0.8688600319718539,-0.009341177914496365,0.0,0.007820896510924547,0.00629532071858932,-0.9999495999873271,0.0,0.30241985004010524,-0.21084650552593925,0.30516542610574177,1.0,-0.20907257142866853,-0.2747810938776787,-0.8586354750998645,2.2039999999998687
-0.48755590740816734,-0.539832523147338,-0.1350283805957804,-2.6586399949673556,-0.07022742510026046,2.124717250757309,0.7499267543878899,-0.9444099046155751,-0.03539952642355709,0.0230289563429282,-0.02221064515908352,0.00963125232720697,-0.008194663962868222,-0.08298027715166885,0.8621242332553534,-0.5066646896601674,0.003666822417776482,0.0,-0.5066168263721584,-0.8621100567565303,-0.009294524036362958,0.0,0.007870563151858079,0.006155478984203655,-0.999950080911116,0.0,0.2991108320153525,-0.21519132978516878,0.30516782944614046,1.0,-0.197223428571527,-0.25920793469400694,-0.8054566463730132,2.219999999999867
-0.5027408408505922,-0.5401521631059607,-0.13447661443938674,-2.6589152354899994,-0.0699792760311872,2.1245980124656567,0.748403156209248,-0.8640286508175353,-0.014666541341033788,0.025158894141116515,-0.0151199675947696,0.016000679178393484,-0.007680589763445303,-0.08320184722243006,0.855310864816941,-0.5180838971458263,0.0036258716879680516,0.0,-0.5180364106938546,-0.855297240732699,-0.009254949576715991,0.0,0.00789619042069728,0.006037641614737105,-0.999950597309973,0.0,0.29584250460477984,-0.2194766380124136,0.30516241503552266,1.0,-0.1846337142858141,-0.24266145306135573,-0.7489541408507336,2.236999999999865
-0.5171593557810037,-0.5402731427634141,-0.13400392819626433,-2.659016087374431,-0.06971593193448981,2.124589479636212,0.7468090859545231,-0.8211529656716899,-0.006448695223066856,0.02746826052269239,-0.004980247330644057,0.014366678213522404,-0.0025085821693349992,-0.08745392389341043,0.8487416772273639,-0.5287767440658719,0.0036697647860253575,0.0,-0.5287289234830621,-0.8487290696854535,-0.00924330268440346,0.0,0.008002433622327165,0.005904979127875992,-0.9999505449159071,0.0,0.29272984151204673,-0.223555354306493,0.3051720587429819,1.0,-0.1720440000001012,-0.22611497142870446,-0.6924516353284541,2.2539999999998632
-0.5304458606755762,-0.5401591709417954,-0.1334017808656676,-2.6589528960060447,-0.06937105036016913,2.124625884501323,0.7452481107451907,-0.7608777271646419,0.003681177873625555,0.027662966675706065,0.013999376419897628,0.017973826312559428,0.002705559902355475,-0.09025492601417422,0.8426616764382058,-0.5384128702905047,0.0036914860288429783,0.0,-0.5383650422839616,-0.8426499758086117,-0.009211211513295355,0.0,0.008070220819387353,0.005774679084278533,-0.9999507610964653,0.0,0.2898925738893699,-0.22726245109489537,0.3051783642956439,1.0,-0.1594542857143883,-0.20956848979605325,-0.6359491298061747,2.2709999999998614
-0.5429740593762555,-0.5399153557737761,-0.13292290296139844,-2.6588118811302963,-0.0689845572408762,2.124646711910663,0.7435884288099627,-0.7193067203783007,0.01628176084193075,0.030879430949905164,0.008609275565667924,0.01766704763406211,0.0003818571939638391,-0.09512655804966978,0.8368690476982746,-0.5473734172652075,0.003644993443111771,0.0,-0.5473252759132309,-0.8368571580387149,-0.009267485477686337,0.0,0.00812327044737754,0.0057607856172904315,-0.9999504116836546,0.0,0.28717692258547245,-0.23075454316749908,0.3051683633345176,1.0,-0.1468645714286754,-0.19302200816340198,-0.5794466242838952,2.2879999999998595
-0.5543032863359516,-0.5395043873707404,-0.13229972493082487,-2.6585744232633735,-0.06855812554617831,2.1247560280202387,0.7418692751563324,-0.6435070207526428,0.02639871047361997,0.03340252611753583,0.01816118329134888,0.022772016302758755,0.007838324939123543,-0.09850212820635809,0.8320299936582396,-0.5547014706117139,0.0036214714523423617,0.0,-0.5546533637558382,-0.8320183373398267,-0.009267108816261905,0.0,0.00815376653047345,0.005701960947254614,-0.9999505006412679,0.0,0.28490126694781276,-0.2336906209902924,0.3051535761282093,1.0,-0.13501542857153384,-0.17744884897973023,-0.5262677955570438,2.3039999999998577
-0.5643173465672212,-0.5390249588297863,-0.13180779676953833,-2.658288325955892,-0.06817724650857739,2.124871938527949,0.740297101716642,-0.6178677862659638,0.03328738311988197,0.02816411936070231,0.017264331153655086,0.02573134073208733,0.004197374274068525,-0.10399013866632932,0.8271313449830042,-0.5619801514046777,0.0035769365370844635,0.0,-0.5619320181583838,-0.8271196238016721,-0.00928879926762292,0.0,0.008178832689576088,0.005673171090521123,-0.9999504596856854,0.0,0.28261463125574177,-0.23662831462792006,0.30513183703381774,1.0,-0.12242571428582094,-0.16090236734707902,-0.4697652900347644,2.320999999999856
-0.5739552541815716,-0.5383838820906015,-0.1312294575994535,-2.6578685799342496,-0.06775379876664257,2.1250213669869065,0.7386190816051112,-0.533871817390451,0.037550352520072085,0.03968319295571509,0.023780903333371947,0.027571237800799633,0.010402380056305248,-0.09036658949424607,0.8227712723002714,-0.5683446427011378,0.003542243853396861,0.0,-0.5682966417116666,-0.8227596561004686,-0.009285591736050336,0.0,0.008191989373319553,0.005626981177546342,-0.9999506129769282,0.0,0.2805817042931363,-0.23927445818287835,0.30511788684063246,1.0,-0.10983600000010807,-0.14435588571442776,-0.41326278451248477,2.337999999999854
-0.582547328224375,-0.5376678220500459,-0.1306275869007778,-2.657426128612986,-0.06728550996806416,2.1251612044462984,0.7369112398376582,-0.49328039047194083,0.042419368928651745,0.037670316081081366,0.024722935684702046,0.019719693760425927,0.009188654648377665,-0.09887040575916282,0.818977487537902,-0.5737985139991457,0.0034477731488277655,0.0,-0.573750803663495,-0.8189653046723508,-0.009305479011066474,0.0,0.0081632337834176,0.005642923849600856,-0.9999507582999398,0.0,0.27878746413048305,-0.24160475627215694,0.30508649105346286,1.0,-0.09724628571439514,-0.12780940408177655,-0.35676027899020535,2.354999999999852
-0.5903185602339099,-0.5370073760646222,-0.13006034872064984,-2.6570098082523144,-0.06685551600459552,2.125292413595053,0.7352413684846073,-0.43953359898313926,0.03780747615884122,0.028123460519214362,0.026420062883837424,0.033894052006998715,0.005997677194274735,-0.08525250412896948,0.8155963347799422,-0.5785948452985652,0.003372030347183289,0.0,-0.5785474066876339,-0.8155837560534418,-0.009315684514936686,0.0,0.008140336943563309,0.0056470674572613455,-0.9999509215674429,0.0,0.2771575789455483,-0.2436993465185903,0.3050615844121652,1.0,-0.08465657142868227,-0.11126292244912528,-0.3002577734679259,2.3719999999998502
-0.5966965211592044,-0.5363957549591672,-0.12952589980347948,-2.65661851704411,-0.06642068199287998,2.125415993217617,0.7336455758382848,-0.3769416713924839,0.037736269652357234,0.034449747148744235,0.02080754538153964,0.02396135878620948,0.01165329872256898,-0.09836997992132092,0.8127978854068203,-0.582519811758543,0.0033186274575536844,0.0,-0.5824722926509507,-0.8127848775707492,-0.00935510488749753,0.0,0.00814702100523751,0.005670910109253968,-0.9999507321999785,0.0,0.2757703815116567,-0.24549418820000773,0.30504399102589763,1.0,-0.07206685714296934,-0.09471644081647401,-0.24375526794564628,2.3889999999998484
-0.6023905552184422,-0.5357860526541552,-0.1288639660428795,-2.6562400815472387,-0.0659844345575934,2.1255243134345183,0.7320311849749597,-0.32524269886145096,0.03599951979874459,0.03649741254105594,0.020827906081853795,0.02887526241394366,0.010735193830964088,-0.09411464518280406,0.8107410337114398,-0.5853796287801122,0.0032269748949738295,0.0,-0.5853328177526123,-0.8107276127794686,-0.009326158903863263,0.0,0.008075696572373114,0.005672354612587027,-0.9999513025732903,0.0,0.2747054073905469,-0.24687051346573094,0.3050176572533254,1.0,-0.060217714285827784,-0.07914328163280226,-0.1905764392187952,2.4049999999998466
-0.6073243736859174,-0.5352925858793516,-0.12822508485471346,-2.655884865171044,-0.06559557514798453,2.1256381253461467,0.7303128800826539,-0.273601486758305,0.030366016527825838,0.040961601044004495,0.01761447772424405,0.020101077443143416,0.010217732696493382,-0.10787274465804371,0.8090433765840297,-0.5877236319184082,0.0032394739319200477,0.0,-0.5876771096349334,-0.8090304690104694,-0.009276956669012227,0.0,0.008073275216715248,0.005601803522949478,-0.9999517198467962,0.0,0.2737392749381222,-0.24813522965071616,0.305025517874403,1.0,-0.04762800000011491,-0.06259680000015105,-0.13407393369651555,2.4219999999998447
-0.6112032041658423,-0.5348184616238351,-0.12758489942897286,-2.6555656743710028,-0.06518184058781427,2.1257556245842366,0.7286544329322897,-0.2030107997662091,0.027400887821986016,0.037315871514281236,0.017190229959038343,0.021789980297633772,0.005215712482332436,-0.09453195958386441,0.80792020255575,-0.5892666620224379,0.0032394802697934106,0.0,-0.5892203141858926,-0.8079075212658094,-0.00925231506283685,0.0,0.008069436649677242,0.005566471849142496,-0.9999519481371639,0.0,0.27302524726432575,-0.2490972705071307,0.30502420995721136,1.0,-0.035038285714401984,-0.04605031836749979,-0.07757142817423612,2.438999999999843
-0.6141306349282771,-0.5344410930076502,-0.12698073359191425,-2.6553461489751338,-0.06479360462990241,2.125806151840087,0.726946845445797,-0.16133764761080388,0.017163110612510597,0.029500067218198974,0.010110469009768423,0.019835202635004323,0.0001571419123339178,-0.10544981732820524,0.8073788716458629,-0.5900085260723069,0.00316917702967836,0.0,-0.5899626625206115,-0.8073657396071097,-0.009239385340166367,0.0,0.008010155303189104,0.0055900960188876025,-0.9999522929812793,0.0,0.27250393217490326,-0.24977649058152718,0.3050057960888699,1.0,-0.022448571428689112,-0.029503836734848576,-0.0210689226519567,2.455999999999841
-0.6162955833281081,-0.5341907016404824,-0.126495640229885,-2.6552084576597057,-0.06446901837431192,2.1258077840176934,0.7254086808474378,-0.12173118199516725,0.00944966615177009,0.024756150709498506,0.012475271623543092,0.021125857343995847,0.00010132039226818507,-0.08891433977909638,0.8071497325088441,-0.5903223754401717,0.003090188794029656,0.0,-0.5902768927047246,-0.8071359473541105,-0.009246584712520576,0.0,0.007952821428432899,0.005639419914429233,-0.9999524736578015,0.0,0.27211751212878044,-0.2502552569107463,0.3049891387224094,1.0,-0.019706666666669898,-0.025900190476194726,-0.009853333333334949,2.472999999999839
-0.6179478811850085,-0.5340130529864527,-0.12614819258223572,-2.65507813836019,-0.06423643285524785,2.125807521643371,0.7239654316232466,-0.10160095251196266,0.005820642470773716,0.01611276765405704,0.0056844703977902864,0.015353836664864978,-0.0006468768260363228,-0.0877069971167734,0.8071258897604163,-0.59035508738124,0.003068514747104028,0.0,-0.5903097139391456,-0.8071119253504133,-0.009248161300560852,0.0,0.007936486720172498,0.005653165196730037,-0.999952525824001,0.0,0.2718220620960292,-0.25063314699749084,0.30499216149331376,1.0,-0.01938666666666993,-0.02547961904762334,-0.009693333333334966,2.4889999999998373
-0.6193920211720868,-0.5338364744155241,-0.12593969868558738,-2.654917326490086,-0.06409074325605474,2.12584383171031,0.7227249646566277,-0.0923923406423137,0.012586204903029299,0.014719426982322743,0.013443682858909614,0.005988423319243246,0.002960439854960411,-0.0855839268735651,0.807049546976314,-0.5904592455986113,0.003107235693223594,0.0,-0.5904137077638957,-0.8070359357967507,-0.009241153518923573,0.0,0.007964328738674364,0.005623622486612689,-0.9999524710394341,0.0,0.271519751229127,-0.2510572135750597,0.30500823102494334,1.0,-0.01904666666666997,-0.02503276190476625,-0.009523333333334985,2.5059999999998355
-0.6211137005095978,-0.5336085956643829,-0.12577180796928708,-2.6547061202863564,-0.06395533652931948,2.125936134665197,0.7212352313807878,-0.09452204233912516,0.007549663032562587,0.009350796342535855,0.006546076449790305,0.0023411502579117655,0.004662367291899893,-0.07941117069411298,0.8069577294839938,-0.5905842103856124,0.003203150082038541,0.0,-0.5905381571589328,-0.806944909162716,-0.00923825832696444,0.0,0.00804088996340252,0.005563408730221153,-0.9999521951432961,0.0,0.2712284657399712,-0.25148409576982933,0.30503466861987893,1.0,-0.018706666666670008,-0.024585904761909156,-0.009353333333335004,2.5229999999998336
-0.6225799425871053,-0.5334312503620532,-0.12569870516726867,-2.6545492664520105,-0.06389079448234963,2.125941241671348,0.7198979968424681,-0.08254321221041068,0.013081284096794947,0.001141205979573485,0.00841170084056393,0.00657858086954133,0.00014266294909895443,-0.07389762680853258,0.8068927376667204,-0.590673005851025,0.003202649033043543,0.0,-0.5906269869588504,-0.8068799411809469,-0.009234159244352464,0.0,0.008038676630209407,0.005559512121888932,-0.9999522346107346,0.0,0.27091382337924963,-0.2518957649889321,0.3050436195177196,1.0,-0.018366666666670042,-0.02413904761905206,-0.009183333333335021,2.5399999999998317
-0.6239747659954521,-0.5332742470412533,-0.12563380844292196,-2.6543824382662957,-0.06383757238403742,2.1259549595552785,0.7186996359688786,-0.08086002322103178,0.008903729962243053,0.0105632334472926,0.008022983804881038,0.003448566984791159,0.0004912390627567028,-0.07657019662234373,0.8067867247685058,-0.5908175996154625,0.003239077513574444,0.0,-0.5907714607943947,-0.8067742878639648,-0.009223689807104224,0.0,0.008062877961166948,0.0055281023685347375,-0.9999522138998376,0.0,0.2706180892669189,-0.25229467995776533,0.30506514239124466,1.0,-0.01802666666667008,-0.023692190476194967,-0.00901333333333504,2.55699999999983
-0.6253142328312231,-0.5330672510305893,-0.1255730063986656,-2.6542378602822065,-0.06377538099227166,2.1259848724482286,0.7174082975115852,-0.07268719009945081,0.010761432620392957,0.001160013689463497,0.006874308246653849,0.004379112061502781,0.001130866720614302,-0.08033650494658431,0.806764347058975,-0.5908482556125744,0.0032208780311574624,0.0,-0.5908022195969823,-0.8067517670671897,-0.009223370016126909,0.0,0.008048216081141368,0.005538290828145387,-0.9999522756374997,0.0,0.2703319221770318,-0.2526740960112229,0.30505947393183563,1.0,-0.01768666666667012,-0.023245333333337875,-0.00884333333333506,2.573999999999828
-0.6265686579078005,-0.5328788797038725,-0.12558593066611182,-2.6541095558246286,-0.0637132260882867,2.126000023255995,0.716310575037277,-0.07927177794982977,0.010520624101551567,0.0001352803939733951,0.0057064745464768234,0.004227246983245987,0.0007359797038899091,-0.06741084291998448,0.8066409552752282,-0.5910168780372456,0.003188424216329014,0.0,-0.590970693263929,-0.8066278979348227,-0.0092639558293809,0.0,0.008047181109070434,0.005588528506787316,-0.9999520044608775,0.0,0.2700455427737375,-0.25304074240490754,0.3050501317042529,1.0,-0.017366666666670152,-0.02282476190476649,-0.008683333333335076,2.589999999999826
-0.627893147187319,-0.5326767506346982,-0.12559130921550932,-2.6539633660371424,-0.06366819090450151,2.12600601127765,0.715135076386218,-0.07999211042876314,0.010924252161746896,0.0006024700291468492,0.01204410399559928,0.00020777660561519868,-0.00018927509318134283,-0.06906073193821018,0.8065306680620126,-0.5911675746582491,0.003150722034011686,0.0,-0.5911214318303166,-0.806517199786661,-0.009284728341116082,0.0,0.008030096451195734,0.0056260671509171245,-0.9999519313043992,0.0,0.269743438486912,-0.2534290492968302,0.30504325617126954,1.0,-0.01702666666667019,-0.022377904761909397,-0.008513333333335095,2.6069999999998243
-0.6291900765817804,-0.532487584787109,-0.12558785532085068,-2.6538232440401432,-0.0636121595318786,2.1260627834547217,0.7139683069913225,-0.07621284831174827,0.013287344601691991,0.00010166358079706928,0.01139546308328062,0.0023929625005366007,0.004721621964379896,-0.06597095383840548,0.8064323642056271,-0.5913015578130675,0.003171212823312438,0.0,-0.5912551139412204,-0.80641894012782,-0.009307531503390629,0.0,0.008061039161227634,0.005631007250357145,-0.9999516545338518,0.0,0.2694575606197601,-0.25381214636519084,0.30504307190619806,1.0,-0.01668666666667023,-0.021931047619052305,-0.008343333333335114,2.6239999999998225
-0.6304523709776342,-0.5323020811372442,-0.12557110228260426,-2.6536758616106537,-0.06357024271645706,2.126114105778556,0.7128636199227677,-0.06938480073990747,0.01250517672997989,0.0016094745275729537,0.00955134021668523,0.0012223364299918395,0.0015579226071832657,-0.0611024235006429,0.8063368578870246,-0.5914316344535728,0.003200044009698658,0.0,-0.5913850023390846,-0.8063236574063579,-0.009310500332618201,0.0,0.00808695131793502,0.0056150496565045005,-0.999951535043442,0.0,0.2691994574641117,-0.25416294202331646,0.30504787793620936,1.0,-0.016366666666670263,-0.02151047619048092,-0.008183333333335131,2.6399999999998207
-0.6315980612494876,-0.5321377143006688,-0.12554873578824577,-2.6535418740490297,-0.06351904022871442,2.126129465709406,0.7118378232170391,-0.07378201544937509,0.011269091595506897,0.0005266113072677858,0.0037392469945224435,0.000483502962230804,0.0006533374439203981,-0.059135664968896766,0.8062481615439558,-0.5915525830186692,0.0031922456265244654,0.0,-0.591505878633718,-0.8062348256541236,-0.009324609666157748,0.0,0.008089852284527854,0.005629825737913818,-0.9999514284964921,0.0,0.2689301117116721,-0.2545165559177411,0.3050502310420922,1.0,-0.0160266666666703,-0.021063619047623827,-0.00801333333333515,2.656999999999819
