nelsonifechukwu/NELSON_IML_WORK/CNN-GradCAM/train2dof/data_sample_2022-02-22-11-32-31/robot_state.csv
position_joint1,position_joint2,position_joint3,position_joint4,position_joint5,position_joint6,position_joint7,velocity_joint1,velocity_joint2,velocity_joint3,velocity_joint4,velocity_joint5,velocity_joint6,velocity_joint7,ee_T_00,ee_T_10,ee_T_20,ee_T_30,ee_T_01,ee_T_11,ee_T_21,ee_T_31,ee_T_02,ee_T_12,ee_T_22,ee_T_32,ee_T_03,ee_T_13,ee_T_23,ee_T_33,v_x,v_y,time
0.465080114949,0.547763846065,-0.124004946135,-1.35584724637,0.0794496062928,1.89409779664,0.159147765018,0.000328668412417,0.00222416304718,-0.000201651758694,-0.000869454456762,0.000379106165373,-0.000209305479248,0.000448741926179,0.573789980449,0.818988487533,0.0019137727653,0.0,0.818945392816,-0.573732069837,-0.0118618096275,0.0,-0.00861685861766,0.00837362412154,-0.999927813478,0.0,0.66167864665,0.260875405701,0.303220095,1.0,0.0,0.0,0.0
0.465077374993,0.547758322352,-0.1240119252,-1.35584474072,0.0794496062928,1.89409837448,0.159146991207,-0.000567260630192,6.01124467139e-05,-0.00184549308011,5.26461425897e-05,0.000152471964267,0.000370422420922,0.0016697448114,0.573796325001,0.818984029167,0.00191944952269,0.0,0.818941047664,-0.57373842859,-0.0118542359716,0.0,-0.00860733370364,0.00837399426458,-0.999927892414,0.0,0.661681801386,0.260869964826,0.303225481878,1.0,-0.00018,-0.000236571428571,0.01
0.465070905296,0.547758337117,-0.124005188555,-1.35584834123,0.0794489959412,1.8940955747,0.15914694977,-0.00149349894455,0.000418962660834,0.000832527648875,0.000198154458988,-0.000140406130842,-0.000434231697884,-0.000651886580862,0.573796897825,0.818983637005,0.00191553286486,0.0,0.81894056852,-0.573738982379,-0.0118605325412,0.0,-0.00861473206112,0.00837440558533,-0.999927825257,0.0,0.661680591155,0.260868864634,0.30322329036,1.0,-0.00056,-0.000736,0.029
0.465078611658,0.547734596822,-0.124007344645,-1.3558716739,0.0794482838644,1.89409698803,0.159149290909,0.000729242717556,-0.00501908298056,-0.00126770178029,-0.000993883387364,-0.000246312530364,7.47248787324e-05,0.000984791028462,0.573795063364,0.818984917871,0.0019174100736,0.0,0.818941869023,-0.573737135777,-0.0118600629193,0.0,-0.00861328912464,0.00837565420091,-0.999927827229,0.0,0.66167467704,0.260870239161,0.303229195717,1.0,-0.00088,-0.00115657142857,0.045
0.465074840892,0.547665843717,-0.124009824105,-1.35594548044,0.0794481730269,1.89411522449,0.159144929939,0.000471994074703,-0.006825607716,-0.000569983316576,-0.00363174940616,6.51361492782e-06,0.00205249778781,-0.00124997237299,0.573800318225,0.818981203531,0.0019313126936,0.0,0.818938296781,-0.573742295232,-0.0118571341044,0.0,-0.00860285981334,0.00838541469542,-0.999927835208,0.0,0.661664772764,0.260859674581,0.303244437587,1.0,-0.00118,-0.00155085714286,0.06
0.465069065606,0.547526720521,-0.124004535594,-1.35612085936,0.0794429443472,1.89414460875,0.159144611852,-0.000468967590791,-0.00688053774574,0.000972557630752,-0.00493496262159,9.59558009163e-06,0.000738356538014,-8.49927628966e-05,0.573809237311,0.818974953808,0.00193160881778,0.0,0.818931929211,-0.573751093412,-0.0118711847851,0.0,-0.00861410618804,0.00839381323006,-0.999927667921,0.0,0.661634685761,0.260841069841,0.303261884159,1.0,-0.00152,-0.00199771428571,0.077
0.465051076485,0.547371297827,-0.124012566413,-1.3563344537,0.0794381539668,1.89422327173,0.159134945876,0.000231282690762,-0.00922212565699,-0.00202721238249,-0.0116995778101,-0.000231850855274,0.00713535486091,-0.00266516429838,0.573832325126,0.818958729189,0.00195177543631,0.0,0.818915934133,-0.573774063574,-0.0118643876235,0.0,-0.0085967312012,0.00840667099532,-0.999927709435,0.0,0.661612311873,0.260805776422,0.303277405125,1.0,-0.00186,-0.00244457142857,0.094
0.465036491752,0.547188859743,-0.124010140671,-1.35653321611,0.0794379054937,1.89434640796,0.159134708278,0.000792046370985,-0.0183816379313,-0.00155463576809,-0.0132984809746,0.000343057586047,0.00322492697982,0.0012837875857,0.573853689193,0.818943521951,0.00204894004378,0.0,0.818901939015,-0.573794981594,-0.0118186410704,0.0,-0.00850329174287,0.00846021463962,-0.999928056811,0.0,0.66159938169,0.260784675208,0.303322640521,1.0,-0.00218,-0.00286514285714,0.11
0.465010375183,0.546985295854,-0.124007730107,-1.35677993153,0.0794337333093,1.89447446682,0.159112451001,-0.00118593976779,-0.01824486883,0.000280901185729,-0.0199226139959,7.94851999894e-05,0.00964601152967,-0.00361451653386,0.573868040049,0.818933265969,0.00212729912757,0.0,0.818892642417,-0.573808962514,-0.011783956728,0.0,-0.00842977316323,0.0085046294958,-0.999928302531,0.0,0.661580211196,0.260750213812,0.303360429305,1.0,-0.00252,-0.003312,0.127
0.464974994154,0.546775063792,-0.124012756204,-1.35709251412,0.0794263045717,1.89460146019,0.159099739236,-0.000910412172956,-0.0151882196874,-0.002542541851,-0.0206550616699,0.000707809696126,0.00771732334607,0.0018551066336,0.5738991917,0.8189113959,0.00214250630081,0.0,0.81887088348,-0.573839963714,-0.0117863961736,0.0,-0.00842272056871,0.00851880327785,-0.99992824131,0.0,0.661544086512,0.260696303567,0.303366366138,1.0,-0.00286,-0.00375885714286,0.144
0.464934518101,0.546487507348,-0.124005590839,-1.35751634699,0.0794117677916,1.89475399385,0.158995668372,-0.00208139664992,-0.0102036083688,0.000244966136715,-0.0279503922334,-0.000165518179232,0.0153874857158,-0.0155990076325,0.573868418267,0.818932874543,0.00217541014319,0.0,0.818892669021,-0.573808943825,-0.0117830179029,0.0,-0.00840139267824,0.00854349375349,-0.999928210081,0.0,0.661500663013,0.260635818161,0.303386623449,1.0,-0.0032,-0.00420571428571,0.161
0.464893095592,0.546222159564,-0.124007810586,-1.35793983185,0.0793888435281,1.89490246305,0.158940348315,-0.000880745011284,-0.0146127230837,-0.00021356559431,-0.0262985520025,-0.000128404059098,0.0129152082358,-0.00371624862979,0.573876150414,0.818927475672,0.00216805815404,0.0,0.818887148021,-0.57381667654,-0.0117901412968,0.0,-0.00841136467037,0.00854164031182,-0.999928142081,0.0,0.661452665841,0.260566713286,0.30338588259,1.0,-0.00352,-0.00462628571429,0.177
0.464848350195,0.545912543446,-0.124010829353,-1.35846143982,0.0793552404873,1.89508260957,0.158912026299,-0.00204594442535,-0.0183271948387,-0.00104214318075,-0.0344227376695,-0.00225697661776,0.0137144387078,0.000648274876748,0.573911911372,0.818902493102,0.00213814824859,0.0,0.818861791611,-0.573852564999,-0.0118045239011,0.0,-0.00843993469059,0.00852576892796,-0.999928036794,0.0,0.661391235248,0.260484301392,0.303372524392,1.0,-0.00386,-0.00507314285714,0.194
0.464792926066,0.545573064601,-0.124002964844,-1.35905428422,0.0792791382162,1.89528508222,0.158792425039,-0.00237379779078,-0.0234984240215,0.000121162492495,-0.03894207971,-0.0026996268425,0.00985906513109,-0.0139625365305,0.573875281803,0.818928331218,0.00207271913545,0.0,0.818887087648,-0.573816507353,-0.0118025621636,0.0,-0.00847625527587,0.0084706847109,-0.999928197721,0.0,0.661326588575,0.260388002793,0.303348524536,1.0,-0.00418,-0.00549371428571,0.21
0.464738534812,0.545225251843,-0.124010846934,-1.35969541943,0.0792609203977,1.89548595283,0.158748856592,-0.00498624645315,-0.02511590181,-0.00162130599775,-0.0391291601959,-0.00241750677995,0.0139654516386,-0.00148653253592,0.573913860545,0.818901483965,0.00199678113073,0.0,0.818859059683,-0.573855194408,-0.0118660493667,0.0,-0.00857142723774,0.00844533511942,-0.999927600854,0.0,0.661235439578,0.260274026493,0.303306410035,1.0,-0.00454,-0.00596685714286,0.228
0.464667227244,0.544765438046,-0.1240158509,-1.36044881272,0.0792375766017,1.89573236607,0.158652135309,-0.000788336420377,-0.0248661057775,0.00104603225942,-0.0471037943655,-0.000252222152572,0.0155750461371,-0.00345058949995,0.573930264782,0.818890039806,0.00197503771997,0.0,0.818847081362,-0.573871438996,-0.0119069622806,0.0,-0.00861724098609,0.00845118259849,-0.999927157682,0.0,0.661149262274,0.260165802459,0.303295024314,1.0,-0.00488,-0.00641371428571,0.245
0.464598749642,0.544346128728,-0.124011280941,-1.36114969818,0.0792064523132,1.89599413386,0.158566313935,-0.00313093453184,-0.0292041977073,-0.000239001809257,-0.0510674272812,-0.000168406971565,0.0170306412653,-0.00138911113007,0.573943737355,0.81888062338,0.00196415509183,0.0,0.818837393592,-0.573884828121,-0.0119278585192,0.0,-0.00864045976814,0.00845440610667,-0.999926930067,0.0,0.66106982129,0.260058212363,0.303280713562,1.0,-0.0052,-0.00683428571429,0.261
0.464530684206,0.543847594669,-0.124011617521,-1.36196233504,0.0791685921131,1.89627661047,0.158450692294,-0.00713512343769,-0.0282862562575,0.000736180402644,-0.0511755018441,-0.00466441888934,0.0149955427741,-0.0100143258073,0.573940146168,0.818883190314,0.00194322908404,0.0,0.818839551829,-0.573881192208,-0.0119546012714,0.0,-0.00867440641376,0.00845258117173,-0.999926651582,0.0,0.660972181559,0.259936148168,0.30327117933,1.0,-0.00554,-0.00728114285714,0.278
0.464449949244,0.543314354104,-0.124022255025,-1.36280774452,0.0791162741891,1.89656535449,0.1583723561,-0.00170980142345,-0.0289796827398,-0.00124873646913,-0.0548885407776,-0.000440026405597,0.0161959438448,-0.00855863731358,0.573982533915,0.818853534673,0.00192000393786,0.0,0.818809621539,-0.573923700098,-0.0119639894383,0.0,-0.00869498668158,0.00843940115587,-0.999926584162,0.0,0.660875505883,0.25979440182,0.303271399675,1.0,-0.00588,-0.007728,0.295
0.46437231264,0.542761947149,-0.124018081145,-1.36368963423,0.0790593064792,1.89688425235,0.15823914143,-0.00557308644336,-0.0314446398809,-0.00372662945865,-0.0568246739224,-0.00492880945424,0.0202352597333,-0.0092927321379,0.573967933932,0.818863792376,0.00190977894031,0.0,0.818819737311,-0.573909136905,-0.0119702659935,0.0,-0.00870614544416,0.00843447592094,-0.999926528625,0.0,0.660772875319,0.259660509489,0.303269873649,1.0,-0.00622,-0.00817485714286,0.312
0.464302601365,0.542207010225,-0.124023428417,-1.36455836083,0.079016441202,1.89719739426,0.158146177253,0.000121175948504,-0.0341031440356,0.00077680282325,-0.0549098861989,-1.32600839851e-05,0.0228566462214,-0.00165994246381,0.573989430362,0.818848717066,0.00191292793653,0.0,0.818804623775,-0.573930540471,-0.0119778837645,0.0,-0.00871035469056,0.00844165544633,-0.999926431381,0.0,0.660671402382,0.259529831296,0.303276171568,1.0,-0.00654,-0.00859542857143,0.328
0.464212761433,0.541576847159,-0.124029664941,-1.36551330209,0.0789553270082,1.8975541929,0.158005060288,-0.00480185646492,-0.0397066744954,-0.000942163333216,-0.0584022596663,-0.0019200966829,0.0249259814553,-0.0123928536542,0.573988509005,0.818849306393,0.00193696969675,0.0,0.81880558596,-0.573929575101,-0.0119583496307,0.0,-0.00868056923355,0.00845011957323,-0.999926618906,0.0,0.660567043315,0.259376114682,0.303298337286,1.0,-0.00688,-0.00904228571429,0.345
0.46412742768,0.540907405518,-0.124028297468,-1.36653105881,0.0789035472243,1.89793923208,0.157868366189,-0.00847060671239,-0.039910167233,-0.00382233291269,-0.0618995214487,-0.000584480124203,0.0240346192691,-0.0103889591297,0.573988141849,0.818849475992,0.00197372380353,0.0,0.818806141581,-0.573928962676,-0.0119496950461,0.0,-0.00865239085695,0.00847524360201,-0.999926650499,0.0,0.660451254387,0.259226275595,0.303320502593,1.0,-0.00722,-0.00948914285714,0.362
0.464040168911,0.540239241883,-0.124032967657,-1.36755060391,0.0788307487874,1.8983123888,0.157729104306,-0.00317940218508,-0.0438257671493,-0.00223836328304,-0.0640719712716,-0.00718650929811,0.033562158762,-0.0132842140553,0.573987206614,0.818850106451,0.00198411462035,0.0,0.818807027444,-0.573928101869,-0.011930322497,0.0,-0.00863057287398,0.00847262260268,-0.999926861264,0.0,0.660327154788,0.259058386091,0.303339654526,1.0,-0.00756,-0.009936,0.379
0.463940172814,0.539447412962,-0.124034327472,-1.36877365636,0.0787626297564,1.89877546172,0.157588689213,-0.00271896572636,-0.0431440438137,0.00069598957528,-0.0720973461348,-0.0104697852665,0.0250243056555,-0.00823140861144,0.57400316072,0.818838849191,0.00201430909777,0.0,0.81879611276,-0.573943878889,-0.0119204243183,0.0,-0.00860497182622,0.00849183318911,-0.999926918944,0.0,0.660196004879,0.258886045645,0.303357510149,1.0,-0.0079,-0.0103828571429,0.396
0.46383007179,0.538698558209,-0.124036489819,-1.36993519417,0.0787045432075,1.89922662683,0.15744433953,-0.00629599590181,-0.040754403659,0.000365210352993,-0.0705816252363,-0.00696391696316,0.0200812438599,-0.0091446237983,0.574029101857,0.818820575721,0.00204985326438,0.0,0.818778216277,-0.573969585404,-0.0119119470462,0.0,-0.00857735905078,0.00851634342975,-0.999926947735,0.0,0.660076818402,0.258712854687,0.303374099525,1.0,-0.00822,-0.0108034285714,0.412
0.46372714601,0.537946966768,-0.124039682223,-1.37109501996,0.0786294417809,1.89966861322,0.157309723352,-0.00314553269972,-0.0478080603223,0.000477632241905,-0.0731089746591,-0.00745543946143,0.0289690377805,-0.0118475880246,0.574045666169,0.818808896688,0.00207623665211,0.0,0.818766956486,-0.573986115339,-0.0118893762038,0.0,-0.0085435604913,0.00852516298366,-0.999927161932,0.0,0.65994013158,0.258525526973,0.303390060252,1.0,-0.00856,-0.0112502857143,0.429
0.463614385165,0.537139325991,-0.12405132896,-1.37236432583,0.0785578134341,1.9001350601,0.157151272267,-0.00643552604361,-0.0484167565733,-0.000699759439507,-0.0719392401477,-0.00300266773402,0.0256589308687,-0.00782036500063,0.574067184197,0.818793801641,0.00207974125854,0.0,0.818751901175,-0.574007610601,-0.0118884059238,0.0,-0.00854053020298,0.00852770000729,-0.999927166186,0.0,0.659796067595,0.25832435504,0.303397000652,1.0,-0.0089,-0.0116971428571,0.446
0.463503436085,0.536299133721,-0.124051348356,-1.37367990892,0.0784872389715,1.9006355838,0.156995345187,-0.00450962237262,-0.0469051456244,-0.000567164073863,-0.0771068300013,-0.00137304156016,0.0329855777899,-0.00395587867855,0.574083947219,0.818781984585,0.00210479587199,0.0,0.818740335193,-0.574024194997,-0.0118841906523,0.0,-0.00852252153636,0.00854596889329,-0.999927163869,0.0,0.659645454388,0.258128554044,0.303407326594,1.0,-0.00924,-0.012144,0.463
0.463391980557,0.535418707326,-0.124057755335,-1.37506537729,0.0784038803762,1.9011363685,0.156812450961,-0.00676215341671,-0.0560165605918,-0.000799632710837,-0.0804717826209,-0.00092746983672,0.0295538438789,-0.0119730250458,0.574083642958,0.81878221095,0.00209971921795,0.0,0.818740489576,-0.574023905387,-0.0118875428193,0.0,-0.00852818376063,0.00854373352136,-0.999927134695,0.0,0.659481709926,0.257918918416,0.303412833775,1.0,-0.00958,-0.0125908571429,0.48
0.463276200008,0.534578455761,-0.124058185283,-1.3764182844,0.0783310068584,1.90163582857,0.15665659027,-0.00555360830576,-0.0486866446634,0.0011760555843,-0.0895077422935,-0.00724407000914,0.0330825150062,-0.00918318360971,0.574103155642,0.818768546454,0.00209306511664,0.0,0.818726612351,-0.574043316437,-0.0119059641779,0.0,-0.00854688349702,0.00854906431387,-0.999926929471,0.0,0.65931156221,0.257705785156,0.303404570347,1.0,-0.00992,-0.0130377142857,0.497
0.463146585669,0.533662864364,-0.124060957434,-1.37790518875,0.0782431092585,1.90216829184,0.156462147095,-0.00831244130557,-0.0527291837629,-0.00030359606574,-0.0894553241365,-0.0012449139718,0.0307099709564,-0.0164414413295,0.574112464716,0.818762106422,0.00205860292732,0.0,0.818719699836,-0.574052741901,-0.0119268402092,0.0,-0.00858366341981,0.00853293068485,-0.999926752225,0.0,0.659146371877,0.257485228554,0.303389373135,1.0,-0.01024,-0.0134582857143,0.513
0.463010654541,0.5326048862,-0.124064310497,-1.37960158444,0.0781545317008,1.90281403087,0.156253861732,-0.00377982092186,-0.0638779337596,-0.00253514369769,-0.0942351280312,-0.00162028565145,0.0397588091771,-0.0144545498363,0.57412471233,0.818753490698,0.00206955619736,0.0,0.818711117748,-0.57406483438,-0.0119339224629,0.0,-0.0085830464888,0.00854609300735,-0.999926645113,0.0,0.658948651193,0.257235684817,0.303384053574,1.0,-0.01062,-0.0139577142857,0.532
0.462883225146,0.53174291847,-0.124061228622,-1.3809819339,0.0780708215198,1.9033246788,0.156081801376,-0.0104028126648,-0.0638488136271,0.00165428341921,-0.0960077063204,-0.00795633527231,0.0361473213659,-0.0132673885074,0.574138831618,0.818743607597,0.00206251005684,0.0,0.818701109447,-0.574078947758,-0.0119416093099,0.0,-0.00859323813024,0.00854488540416,-0.9999265679,0.0,0.658788113743,0.257022088259,0.303378818024,1.0,-0.01092,-0.014352,0.547
0.462755728853,0.530743235122,-0.124067076643,-1.38261456569,0.0779696386449,1.90389306963,0.155869813543,-0.012405643238,-0.0614763814733,0.000481877846506,-0.0957866561215,-0.0105037036593,0.0340265938111,-0.0107619664111,0.574135288296,0.818746236097,0.00200462249528,0.0,0.81870295367,-0.574075616768,-0.0119752572465,0.0,-0.00865405851892,0.00851677210376,-0.999926283215,0.0,0.658586486604,0.256776250662,0.303355671521,1.0,-0.01126,-0.0147988571429,0.564
0.462599851299,0.529648076574,-0.124068060108,-1.38435464199,0.0778576552722,1.904531725,0.15564406214,-0.00841794957199,-0.067333250266,-0.00538787828792,-0.0949637663842,-0.00665159768093,0.031535463657,-0.0113298885064,0.574143160976,0.818740739896,0.00199460276511,0.0,0.818697358439,-0.574083561715,-0.0119769092836,0.0,-0.00866108166155,0.0085096004059,-0.999926283466,0.0,0.65838259326,0.256506094124,0.303354323313,1.0,-0.01162,-0.015272,0.582
0.462454640657,0.528488478743,-0.124065173583,-1.38612935034,0.0777451808784,1.9052022109,0.155400734596,-0.00703428526912,-0.0677742664512,0.00122498208258,-0.0986976270254,-0.00430303502585,0.0359258228453,-0.0100402720357,0.57412675793,0.818752131932,0.00203940859175,0.0,0.81870936235,-0.5740670007,-0.0119501300423,0.0,-0.00861360311411,0.00853073656888,-0.999926513487,0.0,0.658174533806,0.256244054946,0.303384203407,1.0,-0.01198,-0.0157451428571,0.6
0.462327812036,0.527509889789,-0.12407088173,-1.38765353412,0.0776564757706,1.9057967783,0.155177426445,-0.00689853426496,-0.0689055924232,-0.000881782402524,-0.104354436854,-0.0068284383806,0.0402035982293,-0.0148084653407,0.574110593587,0.818763363391,0.00208038493916,0.0,0.818721143251,-0.574050684554,-0.011926779051,0.0,-0.00857112835256,0.00855070996402,-0.999926707873,0.0,0.658000667441,0.256015174554,0.303399355247,1.0,-0.01228,-0.0161394285714,0.615
0.462180016594,0.526354434911,-0.124073742511,-1.38944667534,0.077549396434,1.90647128614,0.154936284271,-0.00720444962293,-0.0624365252274,-0.000680273313266,-0.103457498294,-0.00398826290343,0.0355660390686,-0.0201288701308,0.574104218673,0.818767754297,0.00211128550619,0.0,0.818725926519,-0.574044173965,-0.0119117791936,0.0,-0.00854117399966,0.00856733181681,-0.999926821909,0.0,0.657789632148,0.255747045628,0.303417545856,1.0,-0.01262,-0.0165862857143,0.632
0.462026420219,0.525163470253,-0.12407661239,-1.39128864135,0.0774223271451,1.90713247491,0.154699222663,-0.00477598324715,-0.0688523135747,-0.000469107730702,-0.113206682117,-0.00940789045191,0.0339966223332,-0.0219065695662,0.574102633382,0.818768865354,0.00211148564336,0.0,0.818727137715,-0.574042685908,-0.0119002363931,0.0,-0.00853162441923,0.00856085247117,-0.999926958927,0.0,0.657567415817,0.255465707258,0.303435975736,1.0,-0.01296,-0.0170331428571,0.649
0.46187508739,0.524066498868,-0.124080124265,-1.39306166499,0.0773206518764,1.90776965423,0.154453228695,-0.00839699781402,-0.0636516762487,0.000255523266926,-0.109141631262,-0.00682283313719,0.0346393714291,-0.0155591192342,0.574095452689,0.818773980013,0.00208032605835,0.0,0.818731749963,-0.574035536664,-0.0119277471451,0.0,-0.00857211295698,0.00855105902546,-0.999926696448,0.0,0.657351728652,0.255194919803,0.303418838688,1.0,-0.01328,-0.0174537142857,0.665
0.461720561983,0.522861527714,-0.124083929781,-1.3949903051,0.0772006824926,1.90850073447,0.154196830712,-0.0099624349579,-0.0684079694035,-0.000876483952291,-0.109927054847,-0.00426366350857,0.0371084195076,-0.0137691520034,0.574085527656,0.818780933481,0.00208249982698,0.0,0.818738767967,-0.574025640086,-0.0119223006062,0.0,-0.00856650905525,0.00854960818346,-0.999926756879,0.0,0.657108296272,0.254890829287,0.303411977039,1.0,-0.01364,-0.0179268571429,0.683
0.461548408694,0.521563886397,-0.124081229112,-1.39706528033,0.0770772232158,1.90930797624,0.153912211173,-0.00765088170941,-0.0652217392812,0.000594641698765,-0.117041403034,-0.00802908554004,0.0462609495924,-0.00757387229221,0.574069921834,0.818791813221,0.00210673895494,0.0,0.818749944078,-0.574009917813,-0.0119117683654,0.0,-0.00854413386524,0.00856324520498,-0.999926831627,0.0,0.656878625553,0.254602246576,0.3034054966,1.0,-0.01398,-0.0183737142857,0.7
0.461395853822,0.520439225362,-0.124088987319,-1.39885422755,0.0769583260752,1.90996932784,0.153671462084,-0.00870054125983,-0.0789109784523,0.000511020783784,-0.118884335596,-0.0107541487762,0.047677391314,-0.0210992721504,0.574066503558,0.818794237661,0.00209589315894,0.0,0.81875232317,-0.57400664017,-0.0119061851872,0.0,-0.0085458237671,0.00855112412978,-0.999926920916,0.0,0.656665175911,0.254325638641,0.303401532385,1.0,-0.01428,-0.018768,0.715
0.4612233564,0.519119483321,-0.124098335347,-1.40090946553,0.0768276179727,1.91070595738,0.153381189832,-0.0107723627421,-0.0801346462663,-0.00295325723461,-0.122756053286,-0.0119508709479,0.0511202845711,-0.0135536245084,0.574049175065,0.818806392223,0.00209369594829,0.0,0.818764434212,-0.573989307872,-0.0119089302539,0.0,-0.00854951373283,0.00855071999453,-0.999926892829,0.0,0.656426367604,0.254033289554,0.303413850223,1.0,-0.0146,-0.0191885714286,0.731
0.461061756777,0.517830309209,-0.124089105894,-1.40290638568,0.07669789593,1.91142029789,0.153120965463,-0.00796819722806,-0.0832462451662,0.00113775331625,-0.123732111482,-0.0109235102964,0.0404623020054,-0.0175972164949,0.57403389637,0.818817096183,0.00209659692569,0.0,0.818775180575,-0.573974023882,-0.0119067411356,0.0,-0.0085462155689,0.0085516791799,-0.99992691282,0.0,0.656164487494,0.253716019612,0.303429909377,1.0,-0.01494,-0.0196354285714,0.748
0.460877316301,0.516507393409,-0.124100051748,-1.40503833891,0.0765656234436,1.91220789109,0.152825627969,-0.00780458131191,-0.0721386913608,0.00114122884818,-0.121861223396,-0.00533329241878,0.0506556749047,-0.0145452846861,0.574027998322,0.818821290999,0.0020730291602,0.0,0.818779098035,-0.573968252359,-0.0119155698902,0.0,-0.00856703433824,0.00853738805009,-0.999926856789,0.0,0.655907849052,0.253385057335,0.303411875441,1.0,-0.01528,-0.0200822857143,0.765
0.460694300401,0.515121068508,-0.124106140673,-1.40723215986,0.0764370100959,1.91302768922,0.152528967747,-0.00818168460956,-0.0803637038201,0.000509994227774,-0.130396142145,-0.00430887066507,0.0386000760725,-0.0110195328374,0.574020407559,0.81882658546,0.00208363897901,0.0,0.818784485033,-0.573960573584,-0.0119152818707,0.0,-0.00856078776715,0.00854583075776,-0.999926838168,0.0,0.655642174363,0.253054164894,0.303411077307,1.0,-0.01562,-0.0205291428571,0.782
0.460517410676,0.513802553392,-0.124112089675,-1.40936724107,0.0763119613918,1.91377258256,0.152232165891,-0.00827315071262,-0.0836670286943,0.000312565578603,-0.138403514643,-0.00881229385488,0.0463166431496,-0.0191920536442,0.574004509773,0.818837872902,0.00202671211107,0.0,0.818794852895,-0.573944736703,-0.0119655750284,0.0,-0.0086348115022,0.00852791966204,-0.999926354596,0.0,0.655352369325,0.252712217778,0.303385294592,1.0,-0.01596,-0.020976,0.799
0.460308167772,0.512319808716,-0.124118502786,-1.41177683832,0.0761593126902,1.91461651768,0.151895969894,-0.0108179166634,-0.0784121892744,-0.00170883563643,-0.136686613763,-0.0113660939897,0.0448469404105,-0.0190086068555,0.573990265884,0.818848044791,0.00194964445564,0.0,0.818804024058,-0.573930824555,-0.012005236909,0.0,-0.00871167144686,0.00848742926048,-0.999926032427,0.0,0.65506770573,0.252354421317,0.303349142035,1.0,-0.0163,-0.0214228571429,0.816
0.460119988021,0.510951882134,-0.124120614113,-1.41394847275,0.0760402160721,1.91544459507,0.151590045595,-0.0107498235057,-0.0820900413628,-0.000993935705251,-0.130987506669,-0.00256756956792,0.0512688719379,-0.0255766847536,0.573977065661,0.818857235726,0.00197547348279,0.0,0.818813430392,-0.573917397144,-0.0120055972911,0.0,-0.0086972790612,0.0085086455415,-0.999925977404,0.0,0.654805827694,0.252027112191,0.30334533052,1.0,-0.01662,-0.0218434285714,0.832
0.459913078073,0.50945924873,-0.124124077635,-1.41630792951,0.0758904041482,1.91632660076,0.151268005827,-0.0133806119111,-0.0883230413872,-0.00115758015395,-0.133842428809,-0.0103884434553,0.0493307624697,-0.0172525967109,0.57396777496,0.818863729119,0.00198326559837,0.0,0.818820059184,-0.573908107517,-0.0119975708277,0.0,-0.00868633062082,0.00851032053754,-0.999926058319,0.0,0.654518985179,0.251664928202,0.303343640125,1.0,-0.01696,-0.0222902857143,0.849
0.45970258371,0.507944557515,-0.124122745388,-1.41868333956,0.0757293858906,1.91717401866,0.150940858817,-0.0139795897647,-0.0896980558319,0.00156467410896,-0.142424688617,-0.00785539390187,0.0524958467981,-0.0185746176615,0.573950764044,0.818875697491,0.00196453912779,0.0,0.818831826134,-0.573891220275,-0.0120022790525,0.0,-0.0087011103966,0.00849750799733,-0.999926038783,0.0,0.654221434341,0.251297604233,0.303346086003,1.0,-0.0173,-0.0227371428571,0.866
0.459490187807,0.506398985597,-0.124130884921,-1.42110604273,0.0755811832954,1.9180603966,0.150591609014,-0.0137294177233,-0.0975124015513,0.00036559362893,-0.145483656373,-0.00710974936968,0.0568400417118,-0.0206976553152,0.573929820334,0.818890361559,0.00197078119429,0.0,0.818846545141,-0.573870226712,-0.012001887591,0.0,-0.00869742487041,0.00850217225412,-0.999926031198,0.0,0.653922098887,0.250923030972,0.303350795891,1.0,-0.01764,-0.023184,0.883
0.459261916976,0.504787106219,-0.124135146453,-1.42356387986,0.0754311408501,1.91902149624,0.150269945551,-0.0154699392691,-0.0969010102742,0.000644841038427,-0.150041485967,-0.00427066680473,0.0581683163565,-0.0212417859834,0.573942935113,0.818880934497,0.00206621672058,0.0,0.818838416641,-0.57388299272,-0.0119459198609,0.0,-0.00859668489674,0.00854833851752,-0.999926508758,0.0,0.65363321815,0.25054181702,0.30339085717,1.0,-0.01798,-0.0236308571429,0.9
0.459039321901,0.503122999914,-0.124141290894,-1.42603751975,0.075275516451,1.91995597453,0.149913303493,-0.0156710811596,-0.0993195579637,0.000609066587624,-0.146698455067,-0.0161330251303,0.0529473791204,-0.0237218946266,0.573922596117,0.81889492088,0.00217005162501,0.0,0.818853814237,-0.573862292212,-0.0118847544834,0.0,-0.00848721768788,0.00859804973668,-0.999927017675,0.0,0.653334833704,0.250159466449,0.303456934544,1.0,-0.01832,-0.0240777142857,0.917
0.458774333074,0.501205107721,-0.124147478173,-1.42887319305,0.0750908462364,1.92097656843,0.149515352308,-0.0162697838165,-0.109369361258,0.000119646727507,-0.159908775401,-0.00825505443675,0.0517743512197,-0.0201933244995,0.573912904023,0.818901486822,0.0022539690904,0.0,0.818861517619,-0.573852315603,-0.0118356132322,0.0,-0.00839891759663,0.00863846602823,-0.99992741491,0.0,0.652984183977,0.249711147977,0.303534576828,1.0,-0.0187,-0.0245771428571,0.936
0.458577028602,0.499806075277,-0.124150300766,-1.43101162371,0.0749551901405,1.92173521102,0.149218137171,-0.0146859852552,-0.104310204873,0.00050526119182,-0.153485089057,-0.0110807052414,0.0597585226649,-0.0225963398269,0.573905220487,0.818906829103,0.00226937160301,0.0,0.818867027425,-0.573844539173,-0.0118314478847,0.0,-0.00838674844013,0.00864860979818,-0.999927429366,0.0,0.652714127265,0.249375112988,0.303558660852,1.0,-0.01898,-0.0249451428571,0.95
0.458322033845,0.498130435925,-0.124147635101,-1.43363601317,0.0747913609076,1.92272610214,0.148833467324,-0.0154012694135,-0.101774786827,0.000285182760876,-0.153285171927,-0.00940088878947,0.0573573980324,-0.0258456445051,0.573886391511,0.81891992961,0.00230335104338,0.0,0.818880555628,-0.573825566211,-0.0118153323795,0.0,-0.0083542502891,0.00866699471249,-0.999927542227,0.0,0.652394181688,0.2489618652,0.303563886455,1.0,-0.01932,-0.025392,0.967
0.458078422735,0.496550467634,-0.12415112945,-1.43614890722,0.0746462036398,1.92361056532,0.148461181209,-0.0173223155429,-0.100163397278,-0.000624376407201,-0.155777531538,-0.00410734015511,0.057495019932,-0.0261043951782,0.573871526518,0.818930445455,0.00226791975194,0.0,0.818890419222,-0.573810643127,-0.0118563924603,0.0,-0.00840836615467,0.00866139055521,-0.999927137192,0.0,0.652073769027,0.248560402794,0.303545898238,1.0,-0.01964,-0.0258125714286,0.983
0.457760001837,0.494574547813,-0.124156403827,-1.4393720878,0.0744358556863,1.92472086581,0.14800786672,-0.0165088750418,-0.0999015411979,-0.00179490252427,-0.161068177146,-0.00533976283862,0.0590817498835,-0.0247816926749,0.573870028811,0.818931826265,0.00214496244763,0.0,0.818890118263,-0.573809555532,-0.0119295889961,0.0,-0.00853888455446,0.00860268776171,-0.999926537909,0.0,0.651657916736,0.248035225114,0.303484724887,1.0,-0.0214611428571,-0.0282060734694,1.003
0.457470441703,0.492477440596,-0.124219337716,-1.44252628377,0.0742517364882,1.92588433075,0.147551846734,-0.0205368180217,-0.152372892574,-0.00348909234435,-0.226310027458,-0.0138733759932,0.0813643798486,-0.0302189938643,0.573887750156,0.81891918334,0.00222896381898,0.0,0.818878710485,-0.573827080335,-0.0118695530087,0.0,-0.00844132737775,0.00863720838232,-0.999927068652,0.0,0.651275277896,0.247512607825,0.303545917693,1.0,-0.0333102857143,-0.0437792326531,1.019
0.457078298288,0.489344197682,-0.124263872108,-1.44748633785,0.0739958103457,1.92779536953,0.146806711596,-0.0295714379341,-0.198944971849,0.000416478122459,-0.327304920358,-0.0183250908615,0.129882183242,-0.0481293877384,0.573810990899,0.818972734115,0.00231395774413,0.0,0.818933120194,-0.573749741801,-0.0118543381598,0.0,-0.00838090843406,0.00869729361116,-0.999927056068,0.0,0.650652455834,0.246772648461,0.303531546263,1.0,-0.0459,-0.0603257142857,1.036
0.456499204309,0.485387944101,-0.124320744311,-1.45375166094,0.0736430540107,1.93017257982,0.145873650122,-0.0423224274161,-0.266673570515,-0.00807969178077,-0.433915955591,-0.0195032779421,0.161051370789,-0.0693398409051,0.573771839971,0.819000005528,0.00236928329057,0.0,0.818960999517,-0.573710264429,-0.0118389467535,0.0,-0.00833697582604,0.00873337301836,-0.999927108858,0.0,0.649817811676,0.245703431728,0.303503010677,1.0,-0.0584897142857,-0.0768721959184,1.053
0.455704029342,0.480160228957,-0.124481835435,-1.4620896349,0.073146537553,1.93307922719,0.144599886214,-0.0477048918966,-0.330637668703,-0.0075091789446,-0.528060461283,-0.0263491970627,0.177230907164,-0.0803377307697,0.573777764002,0.81899637153,0.00218354257585,0.0,0.818954974859,-0.573716951857,-0.0119312701435,0.0,-0.00851909558337,0.00863428679671,-0.999926434345,0.0,0.648802853613,0.244364361671,0.303420618141,1.0,-0.0703388571429,-0.092445355102,1.069
0.454834269048,0.474587125485,-0.124622143731,-1.47081435173,0.0726303546833,1.93612859912,0.143340461832,-0.0543782596955,-0.391583708682,-0.00740603243336,-0.60249083343,-0.0343769311033,0.220655855514,-0.0894126726319,0.573843400076,0.818950629538,0.00208937079845,0.0,0.818907889489,-0.573782852052,-0.0119939203847,0.0,-0.00862374954787,0.008593799742,-0.999925886028,0.0,0.647675230262,0.242882722976,0.303395318325,1.0,-0.0814474285714,-0.107045191837,1.084
0.453667556912,0.467315407058,-0.124746000864,-1.48190571357,0.0719874286363,1.94022761189,0.141609034684,-0.0689480989115,-0.455806576886,-0.00665693349087,-0.678722096313,-0.0456680236504,0.257501644681,-0.112873799393,0.573828236493,0.818960592519,0.00233448185619,0.0,0.818920895197,-0.573766540571,-0.0118857574962,0.0,-0.00839468104658,0.00873230735889,-0.999926635378,0.0,0.646273896481,0.241013142878,0.303498660616,1.0,-0.0940371428571,-0.123591673469,1.101
0.452290573178,0.459122819188,-0.124821632629,-1.4945977122,0.0711897955494,1.94476226654,0.139632458292,-0.0859043499539,-0.503177065969,-0.00217664077061,-0.755140188025,-0.0432566151543,0.263606009448,-0.11252892039,0.573770868191,0.819000712173,0.00236033389036,0.0,0.81896109383,-0.573708809192,-0.0119027707141,0.0,-0.00839439496428,0.0087626534194,-0.999926372309,0.0,0.644607536867,0.238868016451,0.303497993526,1.0,-0.106626857143,-0.140138155102,1.118
0.450767137766,0.450426116638,-0.124972846521,-1.50793261383,0.0702852153204,1.94937680541,0.137541890928,-0.0946649477654,-0.576317430175,-0.0114907854069,-0.84950713671,-0.0598683806247,0.307876320235,-0.133653939388,0.573780769214,0.818993956394,0.00229677421563,0.0,0.818953833,-0.573719295599,-0.0118968976054,0.0,-0.00842594577912,0.00870733074984,-0.99992659022,0.0,0.642835508019,0.236508685049,0.303529964509,1.0,-0.118476,-0.155711314286,1.134
0.448977885616,0.440277086418,-0.125100379727,-1.52340924892,0.0692729096798,1.95484775021,0.135139970212,-0.110141503095,-0.608658083351,-0.00716406659075,-0.93685298691,-0.0671924780974,0.323357885204,-0.14675145499,0.573790256139,0.818987018232,0.00239850526784,0.0,0.818948190321,-0.573728353362,-0.0118484184391,0.0,-0.00832777074572,0.00876292731307,-0.999926927,0.0,0.640756197597,0.233806071789,0.303590821434,1.0,-0.131065714286,-0.172257795918,1.151
0.446928745942,0.429128268243,-0.12522152403,-1.54013284556,0.0681534377834,1.96070191031,0.132407009889,-0.123816808731,-0.672284452293,-0.0080503032536,-1.01660217737,-0.0658531283219,0.355241223951,-0.166116867187,0.573741765324,0.819020320132,0.00261702813106,0.0,0.818984321612,-0.573679040122,-0.0117382613689,0.0,-0.00811269659253,0.00887820674119,-0.999927678184,0.0,0.638479051416,0.230825386654,0.30374623842,1.0,-0.143655428571,-0.188804277551,1.168
0.444330936581,0.415751018016,-0.125381330468,-1.56023017543,0.0667258056478,1.96772742137,0.12906280638,-0.140794829152,-0.7355956328,-0.0100597904959,-1.0823501461,-0.0713606937682,0.389367660534,-0.175419535553,0.573701873727,0.819047616291,0.00281233570741,0.0,0.819014707047,-0.57363909844,-0.0115689793246,0.0,-0.00786243059519,0.0089406615566,-0.999929120866,0.0,0.635711474883,0.227149394037,0.303878518042,1.0,-0.157726285714,-0.207297404082,1.187
0.442047705337,0.404484320116,-0.12549607341,-1.57725089229,0.0655514421018,1.97360184966,0.126222812093,-0.160547769405,-0.773927549859,-0.00729362326986,-1.16354805436,-0.0718492440508,0.39311073487,-0.200022997489,0.573701147136,0.819047845283,0.00289271719347,0.0,0.819015832306,-0.57363794347,-0.0115465642044,0.0,-0.00779796632514,0.00899363146464,-0.999929150647,0.0,0.633306273308,0.224008764042,0.303907304729,1.0,-0.168834857143,-0.221897240816,1.202
0.439351896408,0.391666089296,-0.125645314306,-1.59628123506,0.0642268723662,1.98012855973,0.122944599073,-0.171206686448,-0.787298445454,-0.00727442894447,-1.22100726695,-0.0956027938538,0.416091397121,-0.214437780676,0.57371823173,0.819034969796,0.00313938407255,0.0,0.819006062772,-0.573654158375,-0.0114333994652,0.0,-0.00756357888002,0.00913090011075,-0.999929706998,0.0,0.630589068009,0.220408840667,0.304046505982,1.0,-0.180684,-0.2374704,1.218
0.435830304849,0.375673646719,-0.125811408964,-1.62022127127,0.0624048323183,1.98809703029,0.118678563978,-0.191320602285,-0.872075398277,-0.00667297736157,-1.28182449819,-0.0977002360326,0.435767472918,-0.23211584384,0.573620897011,0.819103395574,0.003072584072,0.0,0.819073982229,-0.573557464278,-0.0114190064328,0.0,-0.00759118956803,0.00906702895298,-0.999930078969,0.0,0.627055551114,0.215797636828,0.304053887645,1.0,-0.194754857143,-0.255963526531,1.237
0.432067401337,0.35959303392,-0.125992689815,-1.64402884753,0.0605829933506,1.99600410566,0.114413459999,-0.213378745399,-0.905147419154,-0.012434815117,-1.34742391241,-0.105435450714,0.447775836716,-0.250147711293,0.573681933283,0.819060356541,0.00314939188389,0.0,0.8190322645,-0.573618665786,-0.0113367928,0.0,-0.00747911157839,0.00908334165967,-0.999930775501,0.0,0.623497687607,0.211071233139,0.304112203981,1.0,-0.208085142857,-0.273483330612,1.255
0.428816647236,0.346645854626,-0.126171356531,-1.66332917834,0.0591433324713,2.00213940243,0.110767955892,-0.240909600188,-0.949815453695,-0.00786526956678,-1.37747179861,-0.104203345578,0.454254732081,-0.261629418022,0.573744067577,0.819017586944,0.00294687926723,0.0,0.818986277747,-0.573680687745,-0.0115192131751,0.0,-0.00774401954985,0.00902270761951,-0.999929307956,0.0,0.620524604657,0.207110811325,0.304030294713,1.0,-0.218453142857,-0.287109844898,1.269
0.424618181532,0.33018256953,-0.126343055753,-1.68748788008,0.0573055014437,2.00991390473,0.106161453767,-0.250963488567,-0.974200498453,-0.00636078332001,-1.42293791575,-0.0934574813741,0.448427362509,-0.281410054101,0.573797832324,0.818979758866,0.00299150280505,0.0,0.818948471216,-0.573733652732,-0.0115691018456,0.0,-0.007758683787,0.00908838718937,-0.999928599473,0.0,0.616748181686,0.202143981277,0.304040361218,1.0,-0.231042857143,-0.303656326531,1.286
0.41931767764,0.309890354893,-0.1265274718,-1.71685374939,0.0548822190855,2.01923254438,0.100303088839,-0.276537042412,-1.03512235578,-0.00333617523479,-1.4701200441,-0.113219880794,0.477924473337,-0.304914172101,0.573660336348,0.819075660079,0.00310297722775,0.0,0.819046131273,-0.573596198699,-0.0114709452822,0.0,-0.00761586276521,0.009122083451,-0.999929390621,0.0,0.612033639878,0.196026608973,0.304125127931,1.0,-0.245854285714,-0.32312277551,1.306
0.415248911321,0.295147985167,-0.126678979648,-1.73819847025,0.0530231482997,2.0257959577,0.095884774578,-0.299068117419,-1.05205258548,-0.0126030723888,-1.52490871257,-0.127598064272,0.455578259664,-0.315854344424,0.573537304627,0.819162299566,0.0029722166553,0.0,0.819131477028,-0.573474057068,-0.0114837325188,0.0,-0.00770269989476,0.00902115890007,-0.999929641078,0.0,0.608511396176,0.191455836207,0.30409646179,1.0,-0.256222285714,-0.336749289796,1.32
0.409588949626,0.275599677572,-0.126867139908,-1.76604575573,0.0507578945876,2.0343010015,0.0899907145506,-0.31962005333,-1.07901834024,-0.00538318066554,-1.56206376749,-0.124662293705,0.460763302513,-0.335198413113,0.573549914455,0.819152855455,0.00313718494117,0.0,0.819123307331,-0.573485131761,-0.0115133808032,0.0,-0.00763223678575,0.00917341649618,-0.999928796161,0.0,0.603840536348,0.185369771906,0.304165372056,1.0,-0.269552571429,-0.354269093878,1.338
0.404425969251,0.258718378406,-0.127128103282,-1.78990551591,0.048624231773,2.04144946209,0.0847306066784,-0.362114100822,-1.11189786118,-0.0210376062914,-1.62983484819,-0.156283364701,0.462609490285,-0.355541555799,0.573598686242,0.819118540654,0.00317968542022,0.0,0.81909005055,-0.573534382752,-0.0114257513079,0.0,-0.00753553090467,0.00915842095909,-0.999929667076,0.0,0.599777541426,0.179934177535,0.304214625385,1.0,-0.280661142857,-0.368868930612,1.353
0.39813241581,0.239103408356,-0.127370825492,-1.81746424513,0.0461516726491,2.04944811143,0.0784464518185,-0.378905722939,-1.15652007948,-0.0125890992531,-1.59608457591,-0.147829906438,0.455335626555,-0.380262943438,0.573641319467,0.819088774606,0.00315639284333,0.0,0.819059775471,-0.573576828137,-0.0114653098586,0.0,-0.0075808187614,0.00916242629406,-0.999929288066,0.0,0.594944285919,0.173555413865,0.304223488354,1.0,-0.293250857143,-0.385415412245,1.37
0.391482421635,0.218905694403,-0.127569728952,-1.84548352198,0.0436296474224,2.05744795822,0.0717506467609,-0.409380008883,-1.18168975222,-0.0187354437407,-1.66014976809,-0.154027859892,0.459273670417,-0.403431994235,0.573527771711,0.819167820474,0.0032747333017,0.0,0.819139729115,-0.573462177847,-0.0114883273277,0.0,-0.00753307740192,0.00927151742804,-0.999928643309,0.0,0.589891553508,0.167033757904,0.304267418111,1.0,-0.305840571429,-0.401961893878,1.387
0.38468455132,0.199330449242,-0.1278164199,-1.87238126944,0.041034810253,2.06480746298,0.0650962070775,-0.437298493459,-1.21338685315,-0.014144054566,-1.64673872413,-0.158602053887,0.441925840803,-0.420797800442,0.573480629839,0.819201036383,0.00322119389926,0.0,0.81917220175,-0.573415143986,-0.0115205654492,0.0,-0.00759072393715,0.00924571163725,-0.999928446303,0.0,0.584917494492,0.160550830292,0.304287937285,1.0,-0.317689714286,-0.417535053061,1.403
0.376820700333,0.177969529035,-0.128207258063,-1.90133698711,0.0382542674513,2.07262031762,0.0575394924854,-0.478018936936,-1.25126348606,-0.0280499495904,-1.69229772283,-0.159862574283,0.460589690605,-0.450820824447,0.57358564629,0.819127005042,0.00334707065614,0.0,0.819099572917,-0.573519484296,-0.0114907650242,0.0,-0.00749292996542,0.00933270171116,-0.999928375775,0.0,0.579489204186,0.153291658396,0.304353268185,1.0,-0.330279428571,-0.434081534694,1.42
0.368426185989,0.156044578325,-0.128573529771,-1.93070770632,0.035275078587,2.08025315804,0.0495682392721,-0.501224739188,-1.31066059409,-0.025111387039,-1.73177598652,-0.182405081157,0.474920998515,-0.4810771282,0.573614965372,0.819106192197,0.00341530469837,0.0,0.819079723713,-0.573548699179,-0.0114473915774,0.0,-0.00741792857661,0.00936398223768,-0.99992864254,0.0,0.573815569823,0.145799660052,0.304412307516,1.0,-0.342869142857,-0.450628016326,1.437
0.358365059866,0.130955147951,-0.128955828984,-1.96386487811,0.0317843894143,2.08852634757,0.0401111409156,-0.5432692471,-1.35437458801,-0.0231567182323,-1.74888738249,-0.1788174525,0.429619520049,-0.517803265858,0.573573996784,0.819134580046,0.00348667291382,0.0,0.819109114149,-0.573507632949,-0.0114017967661,0.0,-0.007340113796,0.00939592060397,-0.999928917176,0.0,0.567214317644,0.13716430139,0.304477901479,1.0,-0.35694,-0.469121142857,1.456
0.349149608916,0.109320437236,-0.129417654588,-1.99207619731,0.028676411335,2.09528478072,0.0315894042088,-0.589333844687,-1.38127755243,-0.0329325988713,-1.78688580982,-0.207661293882,0.409613906626,-0.546014217606,0.573655238201,0.819077529152,0.00352360956799,0.0,0.81905300194,-0.573589355576,-0.0113215760837,0.0,-0.00725228325223,0.00938088503052,-0.999929699221,0.0,0.561473221868,0.129494767255,0.304530276511,1.0,-0.368789142857,-0.484694302041,1.472
0.338797745531,0.0859497105193,-0.129791089476,-2.02229517228,0.0253265472536,2.10214951103,0.0219908657735,-0.619185671536,-1.37874347045,-0.0237619830268,-1.81733531375,-0.192137327538,0.393289715077,-0.58534249662,0.573554734159,0.81914807583,0.00348477971851,0.0,0.819122513405,-0.573488286085,-0.0114123029262,0.0,-0.00735002714541,0.00940022287608,-0.999928803921,0.0,0.555103902951,0.12123305902,0.304510338472,1.0,-0.37998,-0.499402285714,1.489
0.329114730486,0.0652549825006,-0.130143803002,-2.04874386658,0.0222937370342,2.10789946022,0.0131081228982,-0.654549893704,-1.37648836509,-0.0337131952375,-1.77973716741,-0.212478813926,0.372751684497,-0.59621267508,0.573484836973,0.819197232615,0.0034325994668,0.0,0.819170572303,-0.57341801272,-0.0114936096155,0.0,-0.00744736220987,0.00940347635236,-0.999928053126,0.0,0.549396648102,0.113777317642,0.304470700841,1.0,-0.37998,-0.499402285714,1.504
0.317428999992,0.0419377871299,-0.130643013035,-2.07809190189,0.018776482718,2.11379071138,0.00284864938993,-0.698020864904,-1.37275396077,-0.0219981352936,-1.73680161717,-0.203722237601,0.335654623589,-0.600962662973,0.573785881169,0.818987128068,0.0032547704683,0.0,0.818957639396,-0.573718921007,-0.0116503843346,0.0,-0.00767433916066,0.00935052520744,-0.999926833422,0.0,0.542904256988,0.105081253754,0.304428072371,1.0,-0.37998,-0.499402285714,1.521
0.30544488472,0.0188667685672,-0.131015932955,-2.10642980233,0.0153179009986,2.11923840074,-0.00777452330252,-0.722446326084,-1.32540308244,-0.0268956258608,-1.6404397996,-0.207400964957,0.311457663413,-0.62910978358,0.573860834295,0.818934166362,0.00336465863935,0.0,0.818905850082,-0.573793197603,-0.0116327978931,0.0,-0.00759602365251,0.00943112732583,-0.999926674443,0.0,0.536467548126,0.0965565546812,0.304509980883,1.0,-0.37998,-0.499402285714,1.538
0.292184539088,-0.00524689244015,-0.131487586242,-2.13551598916,0.0116726468583,2.12448946922,-0.019401689201,-0.734628167392,-1.3215649798,-0.0163492737079,-1.54359337831,-0.192185686624,0.280970859959,-0.661221931956,0.574073320674,0.818784388148,0.0035630205826,0.0,0.818758536648,-0.574004901268,-0.0115576333292,0.0,-0.00741816127879,0.00955236637536,-0.999926858915,0.0,0.529698250293,0.0874510274701,0.304625547813,1.0,-0.37998,-0.499402285714,1.556
0.279408998988,-0.0278122574407,-0.131781811002,-2.16232030531,0.00818218930617,2.12898456452,-0.030732897564,-0.766246816589,-1.32528332864,-0.0206748584702,-1.50747447638,-0.20130125279,0.253110718365,-0.678030238079,0.573965821657,0.818859007074,0.00372947785638,0.0,0.818835444692,-0.57389710261,-0.0114619821333,0.0,-0.00724555027201,0.00963280011318,-0.999927352943,0.0,0.523247422369,0.0790337783829,0.30472318812,1.0,-0.37998,-0.499402285714,1.573
0.26754308175,-0.0473836408836,-0.132209729024,-2.18549772444,0.0050784504127,2.13251470509,-0.0410360678209,-0.795448388332,-1.29587683585,-0.0243558157145,-1.50355786979,-0.201502147707,0.219791544838,-0.705567689967,0.574170745387,0.818715675055,0.00365314413258,0.0,0.818690606858,-0.574101540278,-0.0115697274581,0.0,-0.00737518354785,0.00963397930936,-0.999926393846,0.0,0.517526271868,0.0713975523086,0.304679163766,1.0,-0.37998,-0.499402285714,1.588
0.252310889631,-0.0719230516837,-0.132513713713,-2.21388466217,0.0011805033111,2.13650500871,-0.0544971903264,-0.817768175516,-1.28426407626,-0.0162140672685,-1.4502633803,-0.205707414652,0.199132279936,-0.711658896083,0.573999688195,0.818835207981,0.0037425960112,0.0,0.818811237824,-0.57393015898,-0.011535871354,0.0,-0.00729812940732,0.00968625272326,-0.999926454203,0.0,0.51030466633,0.0620280602964,0.30472390212,1.0,-0.37998,-0.499402285714,1.607
0.23974436478,-0.0910447097802,-0.13293235141,-2.23577496505,-0.00185578637892,2.1392262814,-0.0655385535428,-0.833507954824,-1.26473841932,-0.0249760674608,-1.4546307053,-0.202411899116,0.160367211248,-0.742285621496,0.574073115581,0.81878373339,0.00374203202697,0.0,0.818758940975,-0.574002499104,-0.0116479396491,0.0,-0.00738935004491,0.00975077891669,-0.999925157107,0.0,0.504578530897,0.0544791887844,0.304697026618,1.0,-0.37998,-0.499402285714,1.622
0.225235349158,-0.11237220131,-0.133189469613,-2.25981901871,-0.00543438646911,2.14189038331,-0.0783177182464,-0.863524009043,-1.22545357307,-0.0145614616435,-1.41658912766,-0.22341833266,0.159399181898,-0.761977746394,0.573861224331,0.818932742012,0.00363402965186,0.0,0.818906777449,-0.573791278999,-0.0116621136126,0.0,-0.00746545588972,0.00966855245698,-0.999925390248,0.0,0.498103110629,0.0461125664047,0.304668047823,1.0,-0.37998,-0.499402285714,1.639
0.210147595843,-0.133482263571,-0.13360168838,-2.28317733503,-0.00885737549692,2.14406579815,-0.0915937170897,-0.894771779262,-1.21873851904,-0.0218002157599,-1.37431450988,-0.20747621852,0.117853579682,-0.787097161877,0.573854236352,0.818937673081,0.00362628336964,0.0,0.818910761029,-0.573783224431,-0.0117781039456,0.0,-0.00756497812325,0.00972870462703,-0.999924058823,0.0,0.491625364172,0.0376440154127,0.304655912407,1.0,-0.37998,-0.499402285714,1.656
0.195529544973,-0.153121018944,-0.133960871786,-2.30456006777,-0.0120719080971,2.14580409092,-0.104538504128,-0.923132659837,-1.21799397371,-0.0317445080266,-1.33077258968,-0.201370461082,0.0864485761586,-0.823258618254,0.573752946024,0.819008487859,0.00366068920488,0.0,0.818981553174,-0.573681226734,-0.0118242358918,0.0,-0.00758422690394,0.0097824154499,-0.99992338899,0.0,0.485533306514,0.0297081625569,0.304649864354,1.0,-0.37998,-0.499402285714,1.672
0.182302368472,-0.170154910176,-0.134318157429,-2.32274596339,-0.0148682508955,2.14697199146,-0.116149476709,-0.944291367116,-1.23330809962,-0.016624293407,-1.30007211691,-0.19746098029,0.0980659429975,-0.839223812099,0.573733318587,0.819022297105,0.00364731256396,0.0,0.818994217893,-0.573660403154,-0.0119565802652,0.0,-0.00770053529762,0.00984720596446,-0.999921864093,0.0,0.479041663335,0.021250780757,0.304635762711,1.0,-0.37998,-0.499402285714,1.689
0.162786620943,-0.19407823381,-0.134957943796,-2.34791514275,-0.0188879779269,2.14818104709,-0.133358274221,-1.00074667196,-1.2205999471,-0.0399396807945,-1.24184413989,-0.192864822281,0.0747888272283,-0.866557939459,0.573895646899,0.818908112558,0.00374653938328,0.0,0.81888143165,-0.573822488572,-0.0119037561128,0.0,-0.00759838019064,0.00989967594826,-0.999922127485,0.0,0.472595588653,0.0126503223881,0.304689595674,1.0,-0.37998,-0.499402285714,1.706
0.143683784822,-0.216385754621,-0.135498647557,-2.37091816962,-0.0225607011296,2.1488352855,-0.150369153356,-1.02224489527,-1.17113609,-0.0353125208246,-1.17452039694,-0.202208049059,0.04254679157,-0.906138266644,0.573870609207,0.818925226406,0.00383983654667,0.0,0.818898815081,-0.573795880661,-0.0119902000509,0.0,-0.00761594152893,0.010025454027,-0.999920740712,0.0,0.465371344883,0.00319157681576,0.304705086273,1.0,-0.37998,-0.499402285714,1.725
0.124977580386,-0.237163714747,-0.136047997434,-2.39201066307,-0.0261296593069,2.14903221661,-0.166960851092,-1.04158967558,-1.15146312696,-0.029483491843,-1.15144843711,-0.18638065558,-0.00208570341288,-0.937638886839,0.573902534789,0.818902990375,0.00381048795386,0.0,0.818875705955,-0.573827267595,-0.0120661535674,0.0,-0.00769459549271,0.010045305534,-0.999919939314,0.0,0.458495809847,-0.00579630625923,0.304689539744,1.0,-0.37998,-0.499402285714,1.743
0.107757818026,-0.255300906403,-0.136605501743,-2.40994648827,-0.0291703747881,2.14906861769,-0.182295948663,-1.08120609173,-1.12981982988,-0.0300180036235,-1.12732840837,-0.19965212974,-0.00866204403256,-0.963291355382,0.574025653607,0.818815491107,0.00406047105469,0.0,0.818792018469,-0.573950200189,-0.0118972725991,0.0,-0.00741130562193,0.0101542164708,-0.999920979096,0.0,0.452480062146,-0.0138427815563,0.304764437573,1.0,-0.37998,-0.499402285714,1.759
0.091327254284,-0.272028942331,-0.137036455546,-2.42617279451,-0.0320332596727,2.14890493371,-0.197089999857,-1.10775606074,-1.11613610774,-0.0358630814352,-1.06597825627,-0.199944570642,0.00083307551234,-0.993469754337,0.573936493975,0.818876729805,0.00430687459876,0.0,0.818857961348,-0.573862374485,-0.0115914273696,0.0,-0.00702053202136,0.0101796577284,-0.999923540426,0.0,0.446869467919,-0.0212863329122,0.304866514377,1.0,-0.37998,-0.499402285714,1.774
0.0733461496274,-0.289398273931,-0.137540344694,-2.44312359301,-0.034977102025,2.14819039697,-0.213338781456,-1.13387946147,-1.08761077257,-0.0316864347128,-1.05669379728,-0.186019430804,-0.0573475781707,-1.02544554633,0.57388989179,0.818909673023,0.00425281460969,0.0,0.818888641474,-0.573813713827,-0.0118305363715,0.0,-0.00724795687188,0.010272204588,-0.999920971344,0.0,0.44074000722,-0.0292209127528,0.304783028565,1.0,-0.37998,-0.499402285714,1.79
0.0524283410469,-0.308582388233,-0.138157818373,-2.46126285879,-0.0383454782665,2.14723721485,-0.232241886331,-1.17393948629,-1.05609172068,-0.0292996781932,-1.01637922962,-0.178809401332,-0.0718107269827,-1.05925413124,0.573892309851,0.818907398456,0.00436306655166,0.0,0.818888498075,-0.573816774888,-0.0116911709902,0.0,-0.00707052177263,0.0102825361106,-0.999922135555,0.0,0.433942385286,-0.0382359415262,0.304825862794,1.0,-0.37998,-0.499402285714,1.808
0.0345522452557,-0.324204001561,-0.138704842791,-2.47578337519,-0.0409457408501,2.14614051604,-0.248428907942,-1.21137934302,-1.04245613734,-0.0448970919055,-0.948361080012,-0.167861610516,-0.0715448189289,-1.0685998003,0.574009181264,0.818824541546,0.00453617552143,0.0,0.818807385415,-0.573932340189,-0.0116996314385,0.0,-0.00697662183794,0.0104301506943,-0.999921266253,0.0,0.428260557465,-0.0457266930724,0.304858195361,1.0,-0.37998,-0.499402285714,1.823
0.0138580781206,-0.341470315886,-0.139220637667,-2.49169233136,-0.0440046371624,2.14469319642,-0.267400693556,-1.23603997655,-1.01890616124,-0.0427344586833,-0.924825223284,-0.180114302324,-0.0989575796243,-1.12588837782,0.573856942318,0.818931193677,0.00454496178285,0.0,0.818914219413,-0.57378019958,-0.0116846358242,0.0,-0.00696123770976,0.0104274439775,-0.999921401702,0.0,0.421403290283,-0.0546567649046,0.304850371604,1.0,-0.37998,-0.499402285714,1.841
-0.0100128814575,-0.360182877489,-0.139905174023,-2.5084366341,-0.047257528508,2.14277039757,-0.289254866238,-1.26198756395,-0.972451465177,-0.0269352498598,-0.869590220438,-0.172079875614,-0.100364152848,-1.1574851213,0.573887044104,0.818909234102,0.00469827770501,0.0,0.818894586102,-0.573810341927,-0.0115799504115,0.0,-0.00678713865951,0.0104931797154,-0.999921910915,0.0,0.414611073534,-0.0636505566132,0.304920348738,1.0,-0.37998,-0.499402285714,1.859
-0.0306069654603,-0.37534167228,-0.140500506698,-2.522028831,-0.0500131004815,2.14094532214,-0.308270500125,-1.29782058731,-0.923215819557,-0.0370462000877,-0.838074572427,-0.169336330189,-0.127091436303,-1.21524384278,0.573827899224,0.81895106132,0.00463121325679,0.0,0.818934824017,-0.573750311762,-0.0117081452689,0.0,-0.00693137139451,0.0105113245925,-0.999920730931,0.0,0.408490176186,-0.0716347493971,0.304860819677,1.0,-0.37998,-0.499402285714,1.875
-0.0516536983295,-0.390111029857,-0.141066173729,-2.53469571499,-0.0526152788979,2.13904834484,-0.327721463696,-1.32361080481,-0.920541445049,-0.0253178398027,-0.809586280399,-0.161735203647,-0.115992363418,-1.23653318378,0.573842720714,0.818939530547,0.00482950221333,0.0,0.818927170145,-0.573766573733,-0.0114435906102,0.0,-0.0066007288688,0.010522034333,-0.99992285561,0.0,0.402488796958,-0.0796102289049,0.304983338775,1.0,-0.37998,-0.499402285714,1.891
-0.0745587721172,-0.405105661228,-0.141680946335,-2.54773495459,-0.0552288508002,2.13674730836,-0.349049147154,-1.35378306121,-0.8590568279,-0.0283456413928,-0.762929154317,-0.162036917401,-0.151664810345,-1.26224643259,0.573835979879,0.818944158438,0.0048456637472,0.0,0.818930371643,-0.573757196552,-0.011682153322,0.0,-0.00678692744342,0.0106721065831,-0.99992001868,0.0,0.395974857142,-0.0880584664149,0.304922923284,1.0,-0.37998,-0.499402285714,1.908
-0.0965543114342,-0.41868355695,-0.142280152331,-2.55901123043,-0.0576386606581,2.13468500318,-0.369656748211,-1.38175095194,-0.864459263558,-0.0539753516175,-0.70223308616,-0.152199402744,-0.132582253074,-1.31553620994,0.573812382117,0.818959293718,0.00507663895801,0.0,0.818949996581,-0.573735355161,-0.0113750710008,0.0,-0.00640319613862,0.010684875762,-0.999922413245,0.0,0.389995382768,-0.0960428500092,0.30504816982,1.0,-0.37998,-0.499402285714,1.924
-0.120466217138,-0.432326566928,-0.142870777272,-2.57060703564,-0.0600743445653,2.13215845494,-0.39215662461,-1.42146821982,-0.805392614168,-0.0498383431496,-0.67348101592,-0.135418670251,-0.163846130373,-1.33050750637,0.573757828593,0.818997772347,0.00503487041241,0.0,0.818985827487,-0.573677473908,-0.01170970571,0.0,-0.00670196018519,0.0108422315792,-0.999918761572,0.0,0.383469772517,-0.104476553192,0.304956655284,1.0,-0.37998,-0.499402285714,1.941
-0.144838489239,-0.445325206005,-0.143451325895,-2.58118561189,-0.0624945034506,2.1297616031,-0.415159853506,-1.46131718794,-0.754273824066,-0.0427362909032,-0.598005611937,-0.145209922842,-0.13268841945,-1.3660447569,0.573699136213,0.819038373733,0.00511765192347,0.0,0.819028409407,-0.573620020065,-0.0115448718856,0.0,-0.00652023102981,0.0108149935654,-0.999920258071,0.0,0.377070531386,-0.11294065769,0.30502832692,1.0,-0.37998,-0.499402285714,1.958
-0.169739337574,-0.457481340833,-0.144055290729,-2.59117344411,-0.0648030339342,2.12732019949,-0.438788713765,-1.4865399547,-0.6986291957,-0.03958891327,-0.573203698919,-0.135467722531,-0.151843251421,-1.39928969034,0.573643976929,0.819077086198,0.0051050464755,0.0,0.819066255618,-0.573563749126,-0.0116551060968,0.0,-0.00661848817158,0.0108674619467,-0.999919043666,0.0,0.370596323778,-0.12140786839,0.304985977557,1.0,-0.378663428572,-0.497671934694,1.975
-0.194864867495,-0.468591515705,-0.144466701558,-2.60028854645,-0.0667522846208,2.12491654382,-0.462709088932,-1.48869325301,-0.631131862301,-0.0178111474305,-0.516974864683,-0.108256380508,-0.139562759679,-1.40524643,0.573584110748,0.819118745588,0.00514737076637,0.0,0.819106619088,-0.57350073671,-0.0119163107167,0.0,-0.0068089836537,0.0110514647264,-0.999915747885,0.0,0.364211360921,-0.129710464402,0.304902142995,1.0,-0.366073714286,-0.481125453061,1.992
-0.218476364473,-0.478113711709,-0.144735471666,-2.60771410553,-0.0683859367852,2.12288837086,-0.484994459019,-1.46523101773,-0.576340937789,-0.00738266694587,-0.444243004713,-0.102134402848,-0.130639280712,-1.3911993154,0.573763803474,0.818991805002,0.00531677200941,0.0,0.818982912833,-0.573681519531,-0.0117153547803,0.0,-0.00654477171956,0.0110764052001,-0.999917236181,0.0,0.358100055936,-0.137875757823,0.304985140159,1.0,-0.353484,-0.464578971429,2.009
-0.24320673363,-0.487206388169,-0.144812703608,-2.61488441477,-0.0698704313313,2.12075586364,-0.508442292229,-1.44013386688,-0.511890923862,0.000110484879635,-0.406512352182,-0.0756302345912,-0.121868506066,-1.38136655686,0.573792080848,0.818971380527,0.00541042839318,0.0,0.818963135086,-0.573708505283,-0.0117762998074,0.0,-0.00654056965059,0.0111883043797,-0.99991601787,0.0,0.352465347305,-0.145242187088,0.30498092686,1.0,-0.341634857143,-0.449005812245,2.025
-0.26756079175,-0.495178828326,-0.144721718946,-2.6211811911,-0.0711190022188,2.11879882286,-0.531554702539,-1.42159044704,-0.446758003348,0.00226520684298,-0.351470957951,-0.0639799301635,-0.101557370326,-1.35059111296,0.573838634538,0.818938380776,0.00546780627637,0.0,0.818930053562,-0.573753429118,-0.0118876764145,0.0,-0.00659822890964,0.0112995764402,-0.999914387809,0.0,0.346674610668,-0.152807129234,0.304953061745,1.0,-0.329045142857,-0.432459330612,2.042
-0.294018645899,-0.502877598764,-0.144467583634,-2.6271078102,-0.0721731576926,2.11690502858,-0.556770244835,-1.371881828,-0.377004014736,0.0108192849714,-0.287643100142,-0.0415139842738,-0.0900503785647,-1.30710681517,0.573870293184,0.818915055161,0.00563612751874,0.0,0.818908970517,-0.573784558909,-0.0118374348753,0.0,-0.00646005506764,0.0114088472622,-0.999914049253,0.0,0.340540523032,-0.160889508802,0.304982114437,1.0,-0.314974285714,-0.413966204082,2.061
-0.314406231145,-0.508109871151,-0.144196674712,-2.63103425713,-0.0728461933996,2.11559275274,-0.576209284767,-1.34178004936,-0.334708675142,0.0313949706893,-0.246575232384,-0.0489244963159,-0.0845580285917,-1.28063068586,0.573929824004,0.818872363337,0.00577551575823,0.0,0.818868711553,-0.573844698462,-0.0117065019462,0.0,-0.00627200257184,0.0114483201648,-0.999914795345,0.0,0.335908535605,-0.167051763488,0.305038294965,1.0,-0.303865714286,-0.399366367347,2.076
-0.335681526885,-0.5129734484,-0.143920193145,-2.634712957,-0.0735153683323,2.11431808781,-0.596496375532,-1.30892787248,-0.28182551595,0.0283404414053,-0.222715521415,-0.0502840161231,-0.0853831926339,-1.25774588825,0.574034150522,0.818798625687,0.00586101604166,0.0,0.818796369609,-0.573949238471,-0.0116414636361,0.0,-0.00616820748959,0.0114817974065,-0.999915057165,0.0,0.331085834452,-0.173430657814,0.305065968284,1.0,-0.292016571429,-0.383793208163,2.092
-0.357515382916,-0.517239045341,-0.143440793742,-2.63814964953,-0.0739964235239,2.11305874144,-0.617458398245,-1.28044557535,-0.236245650702,0.0136711229555,-0.187035497573,-0.0271309609917,-0.0643854559229,-1.22883478295,0.573995393512,0.818825562769,0.00589346123276,0.0,0.818822063933,-0.57390729771,-0.0118990820518,0.0,-0.00636109461802,0.011655938788,-0.999911833896,0.0,0.326143561124,-0.179827155071,0.304983242586,1.0,-0.279426857143,-0.367246726531,2.109
-0.378532501937,-0.520737763511,-0.142842911121,-2.64093038326,-0.0743810625907,2.1120601721,-0.637643100558,-1.22337858812,-0.1934388415,0.0328212231016,-0.145373095307,-0.0171507218572,-0.0636494554742,-1.16867370152,0.573921174773,0.818877674816,0.00588096379423,0.0,0.818873372192,-0.573831974827,-0.0120004951058,0.0,-0.00645237668918,0.0117033282282,-0.999910695484,0.0,0.321472870125,-0.185931321365,0.304937124232,1.0,-0.266837142857,-0.350700244898,2.126
-0.398791891805,-0.523550012924,-0.142270497937,-2.64310927994,-0.0746230014458,2.11120572872,-0.657162261703,-1.17736272293,-0.147711903729,0.0325210902541,-0.118366085852,-0.00789791923225,-0.0495800852444,-1.12480227025,0.573887077429,0.818901273422,0.00592230103335,0.0,0.818897072367,-0.573796920713,-0.0120592516237,0.0,-0.00647726312209,0.0117706302693,-0.99990974459,0.0,0.317018190679,-0.191796877408,0.30492107384,1.0,-0.254247428572,-0.334153763265,2.143
-0.417206905267,-0.525688219884,-0.141667827845,-2.64473588015,-0.0748104630658,2.11055140132,-0.674844101178,-1.11511720294,-0.120225794007,0.0427334041384,-0.0913211016985,-0.00551357762656,-0.0306084221764,-1.09108775472,0.573851801679,0.818926125529,0.00590402717521,0.0,0.818921781943,-0.573761901948,-0.012047482443,0.0,-0.00647861699164,0.0117486321581,-0.999909994532,0.0,0.312764450072,-0.197404641313,0.304924115319,1.0,-0.241657714286,-0.317607281633,2.16
-0.438075998581,-0.527585264962,-0.140986259995,-2.64621878724,-0.0748410299538,2.10995698699,-0.694914323007,-1.08621031894,-0.0965865735252,0.0349471177929,-0.0745926008483,-0.0024484704356,-0.0304156849112,-1.0360720911,0.573953348685,0.818854403208,0.0059805334542,0.0,0.818850859928,-0.573862748693,-0.0120648977905,0.0,-0.00644751344798,0.0118220810619,-0.999909329874,0.0,0.308470241115,-0.203062700689,0.30491221132,1.0,-0.228327428572,-0.300087477551,2.178
-0.455715222175,-0.52882552086,-0.140249460529,-2.64721053309,-0.0748350219158,2.1095304781,-0.711951643496,-1.02450149424,-0.0685278795357,0.0435703069916,-0.0524606670491,-0.00605148926652,-0.0214119094166,-0.983216291264,0.573869404101,0.818913451362,0.00595089207914,0.0,0.818909367777,-0.57377866607,-0.0120928339117,0.0,-0.0064886143622,0.0118131761013,-0.999909169252,0.0,0.304655872742,-0.208043581615,0.304897652555,1.0,-0.215737714286,-0.283540995918,2.195
-0.470706886298,-0.529563519007,-0.139671194183,-2.64777736369,-0.0748102624679,2.10923239856,-0.726265333421,-0.968396439924,-0.0392928474513,0.0460703773864,-0.0310412350603,0.0136116701212,-0.00909533934591,-0.936359412247,0.573993257906,0.818826794617,0.00593019375887,0.0,0.818822440748,-0.573902581712,-0.012098931098,0.0,-0.0065037006774,0.0118007078061,-0.999909218466,0.0,0.301420980634,-0.212294181915,0.304899276815,1.0,-0.204629142857,-0.268941159184,2.21
-0.486728632717,-0.530063534772,-0.138918255637,-2.64816269106,-0.0746902066413,2.1090191455,-0.741711739628,-0.932678842576,-0.0213288865323,0.0379796584544,-0.0200640728552,0.0106445756723,-0.0107551043039,-0.88449549113,0.573961577743,0.818849274881,0.00589230028608,0.0,0.818844694069,-0.573871551598,-0.0120646658923,0.0,-0.00649784451355,0.0117497597149,-0.999909856519,0.0,0.29799902981,-0.216795018121,0.304908353969,1.0,-0.192039428572,-0.252394677551,2.227
-0.501751889091,-0.530247281059,-0.138109976794,-2.64829759908,-0.074455084204,2.10887768281,-0.756299264723,-0.855029169652,-0.00803629545641,0.0467775489849,0.000205475496779,0.0167976492349,-0.00476178545857,-0.841977132982,0.573840512047,0.818934215837,0.00587909578408,0.0,0.818929674811,-0.573750948425,-0.0120326139058,0.0,-0.00648090722895,0.0117195929621,-0.99991032047,0.0,0.294819312875,-0.220980803701,0.304923450764,1.0,-0.179449714286,-0.235848195918,2.244
-0.516004833323,-0.530268514257,-0.137371250162,-2.64833090449,-0.0741935918978,2.10881568074,-0.769942368508,-0.817638260742,0.00422748000991,0.0438082302894,-0.00050326276549,0.0209116295085,-0.00424686379991,-0.79520076776,0.573928503312,0.818872433618,0.00589554471933,0.0,0.818868344337,-0.573839285327,-0.0119940051275,0.0,-0.00643858896197,0.0117116018394,-0.999910687489,0.0,0.291779135939,-0.224939443411,0.304930332338,1.0,-0.16686,-0.219301714286,2.261
-0.528381520574,-0.530057706733,-0.136520169838,-2.64822627558,-0.0738335499395,2.108817657,-0.78191299608,-0.758570217134,0.0165858548456,0.0503048980025,0.00998522553475,0.023724548426,0.000105461253258,-0.727195587825,0.573820637742,0.818948023113,0.00589559518915,0.0,0.81894393005,-0.57373143339,-0.0119928593495,0.0,-0.00643916415105,0.0117101375509,-0.999910700935,0.0,0.289184183085,-0.228312947507,0.304923632483,1.0,-0.155010857143,-0.203728555102,2.277
-0.540774210197,-0.529714205503,-0.135762998016,-2.64804323388,-0.0734419104522,2.10881449692,-0.793755650153,-0.717761778384,0.0247814774937,0.0384501417524,0.0101102619752,0.0267606582919,-0.00301757410383,-0.673112202316,0.573914934823,0.818881502058,0.00595651535442,0.0,0.818877722125,-0.573824583783,-0.0120569545877,0.0,-0.00645534642439,0.011797551171,-0.999909569056,0.0,0.286546611776,-0.231695441804,0.304901155395,1.0,-0.142421142857,-0.18718207347,2.294
-0.553344438358,-0.529149017036,-0.134767969655,-2.6477176919,-0.0729489820253,2.10888802473,-0.805871320333,-0.640764604856,0.0381088663281,0.0519027532203,0.0170157081639,0.0312918485231,0.000736514992699,-0.610965660765,0.573814606111,0.818951730957,0.00596716652705,0.0,0.81894769565,-0.573723511149,-0.0121141011031,0.0,-0.00649748543261,0.0118382733532,-0.999908814826,0.0,0.283925650609,-0.235071386137,0.30487509766,1.0,-0.128350285714,-0.168688946939,2.313
-0.562569535096,-0.528641121705,-0.134070686776,-2.64741420401,-0.072574450848,2.10895925096,-0.814629622194,-0.604626460165,0.0328310255066,0.0492899775505,0.0175617762702,0.0287029157123,0.00783203270859,-0.569553603865,0.573882273914,0.818904122004,0.0059934591569,0.0,0.818900042498,-0.573790344648,-0.0121699501412,0.0,-0.00652715900801,0.0118923915842,-0.999907979375,0.0,0.281988118254,-0.237552488194,0.304851767315,1.0,-0.117241714286,-0.154089110204,2.328
-0.572672012975,-0.528004065305,-0.133243396595,-2.64693447674,-0.0720873365538,2.10910064894,-0.824153513003,-0.52537873209,0.0387202977367,0.0529514203363,0.0268783313661,0.0247524950398,0.00653544239934,-0.520391644204,0.574006907349,0.818816421283,0.00604031908186,0.0,0.818813370012,-0.573915511862,-0.0120994725488,0.0,-0.0064407379983,0.0118913037861,-0.999908552713,0.0,0.279905455474,-0.240270658243,0.304870525409,1.0,-0.103911428572,-0.136569306123,2.346
-0.581034897302,-0.527319421975,-0.132375935054,-2.64646950287,-0.0716085650933,2.10922065339,-0.832158360635,-0.485126634384,0.0371885949179,0.0510303415912,0.023923376233,0.0230533634673,0.00676024067084,-0.455835791443,0.573918164289,0.818878609425,0.00604240231041,0.0,0.818875428399,-0.573826488918,-0.0121218926503,0.0,-0.00645919245414,0.0119051783696,-0.999908268573,0.0,0.278218141583,-0.242471518001,0.304864077695,1.0,-0.0913217142858,-0.12002282449,2.363
-0.587806445614,-0.526772229633,-0.131634013958,-2.64605685983,-0.0711928819782,2.10932621605,-0.838399315998,-0.440434418713,0.0385639204387,0.0466056436774,0.0285884362083,0.0303527899545,0.0116938383807,-0.402403180742,0.574028865551,0.818801009281,0.00604281518566,0.0,0.818798057242,-0.573937577891,-0.012089046385,0.0,-0.00643044847608,0.0118875357882,-0.999908663741,0.0,0.276860040714,-0.244242912877,0.304879406851,1.0,-0.0802131428573,-0.105422987755,2.378
-0.59450756288,-0.526115125704,-0.130799819781,-2.64558252248,-0.0706992167778,2.10945184702,-0.84464005605,-0.372551129343,0.0365211425592,0.0513775916501,0.0249672758694,0.0332118593441,0.00664366671063,-0.356833346444,0.574053355619,0.818783751888,0.00605470467702,0.0,0.818780996468,-0.573962088704,-0.0120808714369,0.0,-0.00641657383723,0.0118927708886,-0.999908690622,0.0,0.275549210206,-0.245974128581,0.304886392161,1.0,-0.0676234285715,-0.0888765061226,2.395
-0.600375893469,-0.525473354226,-0.129814375807,-2.64517634696,-0.0701434899861,2.10957200864,-0.850131951067,-0.302688126669,0.032187284214,0.0523734070536,0.0215861215276,0.0250622723799,0.00774679865185,-0.286142844744,0.573924886715,0.818873894683,0.00604284013862,0.0,0.818870658088,-0.573833095106,-0.0121314131416,0.0,-0.00646664037014,0.0119110537187,-0.999908150463,0.0,0.274453462377,-0.24741181627,0.304871031762,1.0,-0.0542931428573,-0.071356702041,2.413
-0.605099969326,-0.525029224019,-0.128906597865,-2.64487250276,-0.0696360116116,2.10962755659,-0.854424796949,-0.260092036855,0.0241283933079,0.0589629167872,0.0203034068936,0.0333131841983,0.00533948186677,-0.230046618446,0.573869371963,0.818912877653,0.00603238245182,0.0,0.818909317052,-0.573777293321,-0.0121612094751,0.0,-0.0064978520753,0.0119191493182,-0.999907851653,0.0,0.273584263113,-0.248523423414,0.304873800383,1.0,-0.0417034285715,-0.0548102204083,2.43
-0.609078746551,-0.524600312924,-0.127959570749,-2.64458554084,-0.069078306361,2.10977310818,-0.857851321422,-0.20019109624,0.0182268206514,0.0526398449833,0.0141463420394,0.0347046314713,0.00429440779137,-0.168562501732,0.573905415675,0.818887630423,0.00603071314773,0.0,0.818884414825,-0.573814010968,-0.0121054894821,0.0,-0.00645265213038,0.0118860918242,-0.999908537868,0.0,0.272920166091,-0.249422624843,0.304882908884,1.0,-0.0283731428573,-0.0372904163267,2.448
-0.611633814489,-0.52430954857,-0.127173025226,-2.64441420326,-0.0685917558264,2.10981375915,-0.85998760463,-0.148322493694,0.0123722950698,0.0454627238942,0.00961609986695,0.0313291017309,-0.000585734246755,-0.119695362429,0.573908976603,0.818884961665,0.00605417499807,0.0,0.818881781248,-0.573816969586,-0.0121433379675,0.0,-0.00647013306539,0.0119270539046,-0.999907937144,0.0,0.27252830908,-0.249935084663,0.304877009487,1.0,-0.0198866666667,-0.0261367619048,2.464
-0.613558537972,-0.52414793188,-0.126677466471,-2.64430344954,-0.0682720963648,2.10981566232,-0.861601352432,-0.120296120858,0.00922664194201,0.029706601045,0.00864930862198,0.0195550468472,-0.000807802406288,-0.0991033768089,0.573955365808,0.818852219227,0.00608506603417,0.0,0.818849278863,-0.573862910946,-0.0121640801743,0.0,-0.0064687148807,0.0119646213761,-0.999907497503,0.0,0.272200556454,-0.250339845475,0.304880385496,1.0,-0.0195866666667,-0.0257424761905,2.479
-0.615374271387,-0.523981083061,-0.126198088497,-2.64410649361,-0.0680503639465,2.10986518729,-0.863280819642,-0.108563445331,0.0143181045946,0.0278508713575,0.0108771713129,0.0133150763301,0.00419475838246,-0.101472507471,0.573832435015,0.818938789596,0.00602845916331,0.0,0.818935813253,-0.573741550774,-0.0120629013486,0.0,-0.00642012392762,0.0118592334888,-0.99990906616,0.0,0.271915864807,-0.250756162399,0.304924570773,1.0,-0.0192466666667,-0.0252956190476,2.496
-0.617131866596,-0.523753397577,-0.125917575329,-2.64388005038,-0.0678664759944,2.10999007231,-0.864928109454,-0.0890899260539,0.0102719373567,0.00924970261917,0.0121227173844,0.00987125812235,0.003998786463,-0.0837727365458,0.573814360876,0.818951445407,0.00602961184368,0.0,0.818949386474,-0.573725152126,-0.0119205332627,0.0,-0.00630311932782,0.0117783468652,-0.999910766635,0.0,0.271618140096,-0.251221326226,0.304961455155,1.0,-0.0188666666667,-0.0247961904762,2.515
-0.618474109806,-0.52359265899,-0.125798808939,-2.64374386232,-0.0677756418897,2.10998521037,-0.86626065578,-0.0975121816533,0.0133594085238,0.00269089261946,0.00547451362399,0.00716313352252,-0.000246967996515,-0.09291411869,0.573784148211,0.818972470635,0.00604900862353,0.0,0.818970530184,-0.573694617244,-0.0119374928744,0.0,-0.00630631576167,0.0118037312386,-0.999910447145,0.0,0.27134125441,-0.251580341559,0.304966856744,1.0,-0.0185666666667,-0.0244019047619,2.53
-0.619986938499,-0.523433724498,-0.12569912727,-2.64360240059,-0.0677613100636,2.10998205525,-0.867716125781,-0.0897717782329,0.0137244763581,0.00383504537939,0.0119360059218,1.81211920748e-05,0.000368063454017,-0.0802260898985,0.573774638337,0.818979391218,0.00601398896179,0.0,0.818976985637,-0.573685233315,-0.0119455838902,0.0,-0.00633317229463,0.0117796184221,-0.99991056176,0.0,0.270994007495,-0.252023089118,0.304976879498,1.0,-0.0182066666667,-0.0239287619048,2.548
-0.621312110994,-0.523255162949,-0.125610109664,-2.6434295657,-0.0677160725605,2.11000484876,-0.86900479864,-0.0765613185051,0.0160391712732,2.63239820328e-05,0.00972328724045,0.00120153036688,0.00301564208461,-0.0758667370112,0.573769239473,0.818983257948,0.00600249420136,0.0,0.81898085192,-0.573680159079,-0.0119241841936,0.0,-0.0063223171151,0.0117578842864,-0.999910886261,0.0,0.270740801729,-0.252376812077,0.30499206279,1.0,-0.0179066666667,-0.0235344761905,2.563
-0.622659152535,-0.523040136422,-0.125589555303,-2.64327436125,-0.0676761457456,2.11009530939,-0.870403326502,-0.0765686748123,0.0118565512696,0.000992921639598,0.00778165791917,0.00553286698874,0.0062309831169,-0.0776623602542,0.573737800008,0.819005162195,0.00601897335792,0.0,0.819003198301,-0.573649085599,-0.0118842191835,0.0,-0.00628057921756,0.0117482103893,-0.999911263002,0.0,0.270454781368,-0.252780166029,0.304991914679,1.0,-0.0175666666667,-0.0230876190476,2.58
-0.623918700735,-0.522849091797,-0.125591260411,-2.6431575445,-0.0676547611736,2.11010024865,-0.87159327235,-0.0832405932387,0.00973813780518,0.000229586384924,0.00626497581408,0.00278655434891,-0.000640388023091,-0.0766645692489,0.573811516038,0.818953362372,0.00603996874931,0.0,0.818951265131,-0.573721942809,-0.0119459022587,0.0,-0.00631799585698,0.0118013635469,-0.999910401359,0.0,0.270161665947,-0.253145583506,0.304975265892,1.0,-0.0172466666667,-0.0226670476191,2.596
-0.625240284642,-0.522658779419,-0.125592401533,-2.64303685398,-0.0676316020003,2.11010645519,-0.872947934811,-0.0719664849257,0.0111586450312,-0.001033124207,0.00742925846573,0.00155031022753,0.000170007409761,-0.0813921392338,0.573806916348,0.818956414787,0.00606302993912,0.0,0.818954289159,-0.573716635723,-0.0119933758406,0.0,-0.00634371307678,0.0118474544819,-0.999909693486,0.0,0.269836491744,-0.253553648244,0.304964579761,1.0,-0.0168866666667,-0.0221939047619,2.614
-0.626532487771,-0.522476152269,-0.125586956234,-2.64289984777,-0.0676041792999,2.11012798921,-0.874211180972,-0.0691431867014,0.00775401251381,0.00278575711803,0.0114531880529,0.000921817496618,0.00291567050058,-0.0741301029657,0.573840502518,0.818932730614,0.00608336267562,0.0,0.818930703482,-0.573749819087,-0.0120164426411,0.0,-0.00635045221568,0.0118776026398,-0.999909293042,0.0,0.269560987312,-0.253907041481,0.304957948834,1.0,-0.0165666666667,-0.0217733333333,2.63
-0.62775392449,-0.522288043039,-0.125566534803,-2.64275966609,-0.0675757739944,2.11017514981,-0.875467370083,-0.0675750411367,0.00795008518674,0.00129995965338,0.00852327220987,0.000423117870943,0.00221727499791,-0.0752583426052,0.57381713219,0.818949029113,0.00609371975535,0.0,0.818947168602,-0.573726469537,-0.0120091670263,0.0,-0.00633888939829,0.011881729083,-0.999909317386,0.0,0.269293721199,-0.254267228126,0.30495710151,1.0,-0.0162266666667,-0.0213264761905,2.647
-0.628838251729,-0.522124059516,-0.12549890895,-2.64265611173,-0.0675494123638,2.11019248643,-0.876591182126,-0.0740371428702,0.0132781113954,0.00377892100719,0.00262841666199,0.00012805883947,0.00389594083506,-0.0796270840827,0.573753776092,0.818993488882,0.00608411785484,0.0,0.818991278749,-0.573662747428,-0.0120451005503,0.0,-0.00637474989303,0.0118939903823,-0.999908943633,0.0,0.269057888276,-0.254567083564,0.304947033947,1.0,-0.0159266666667,-0.0209321904762,2.662
-0.630085967524,-0.521925950001,-0.125401968951,-2.64252301718,-0.0675147698862,2.11022506321,-0.87782371909,-0.0686148669554,0.00965068816436,0.00492563124681,0.00902093679876,0.00253856228022,0.000177472927414,-0.0656264147661,0.573719483317,0.819017662423,0.00606382737536,0.0,0.819015049527,-0.573628291104,-0.0120697636383,0.0,-0.00640709002247,0.0118912533799,-0.999908769484,0.0,0.268795644231,-0.254912253677,0.304939846578,1.0,-0.0155666666667,-0.0204590476191,2.68
-0.631310070517,-0.5217602375,-0.125371299036,-2.64239492848,-0.067490937569,2.11027093346,-0.879091244623,-0.0629854980455,0.0114257394569,0.00102392738446,0.00517816943018,0.00355199120086,0.0013033747361,-0.0724209485786,0.57367910876,0.819045922261,0.00606665476755,0.0,0.819043440808,-0.573588088634,-0.0120537773322,0.0,-0.0063929593435,0.0118840828375,-0.999908945177,0.0,0.268525629339,-0.255267706697,0.304941830187,1.0,-0.0152066666667,-0.0199859047619,2.698
-0.632377458111,-0.52159432305,-0.125362055436,-2.64227133299,-0.067465387679,2.11030022569,-0.880217671714,-0.06490245094,0.0118908771468,0.000884863027096,0.00704241034804,0.000478753619734,-0.000115717080168,-0.0700057332923,0.573641647229,0.819072045792,0.00608204459278,0.0,0.819069706964,-0.573550461438,-0.0120594452329,0.0,-0.00638931800951,0.0118996476155,-0.999908783341,0.0,0.268287068981,-0.255581983701,0.304939767331,1.0,-0.0148866666667,-0.0195653333333,2.714
-0.633513132982,-0.52141444277,-0.125360214079,-2.64213616109,-0.0674379478784,2.11032218135,-0.881293846613,-0.068445163723,0.0116981448568,0.000974581665069,0.00780782392598,0.000976617425428,0.00323538604509,-0.062920646493,0.57370793448,0.819025471401,0.00610164014446,0.0,0.81902327415,-0.573616438247,-0.0120749772133,0.0,-0.00638983584128,0.0119251251204,-0.999908476506,0.0,0.268030465518,-0.255917472011,0.304937023749,1.0,-0.0145466666667,-0.0191184761905,2.731
-0.634639498349,-0.521240990875,-0.125360318193,-2.64201101164,-0.0674169297391,2.11034660824,-0.882412786323,-0.0656207510867,0.0168499306026,0.00127237165235,0.00961850095052,-6.14860040659e-06,0.0036934908597,-0.0663293774533,0.573729710046,0.81901009382,0.00611824584558,0.0,0.819007990087,-0.57363790751,-0.0120917386044,0.0,-0.00639372132329,0.0119485119622,-0.999908172479,0.0,0.267773056074,-0.256249216895,0.304932239525,1.0,-0.0142066666667,-0.0186716190476,2.748
-0.635815389875,-0.521063395333,-0.125335857737,-2.64188596122,-0.0673879936432,2.1103743335,-0.883619544776,-0.0579240569403,0.00775354972231,0.00210337365137,0.00668625601574,0.000197152785198,0.000948027646252,-0.0605254012598,0.573706106877,0.819026538059,0.00613023559098,0.0,0.819024467438,-0.573614026528,-0.012108559324,0.0,-0.00640096554152,0.011967797787,-0.999907895487,0.0,0.267508905255,-0.256588081525,0.304926746943,1.0,-0.0138266666667,-0.0181721904762,2.767
-0.636651007224,-0.520929917397,-0.125292678781,-2.64176904098,-0.0673689108004,2.11040197726,-0.884444084291,-0.0610570815019,0.00502524062371,0.00563025149654,0.00778027336774,0.00145522522855,0.0045298514407,-0.0614590047811,0.573698793743,0.819031737598,0.00611994813316,0.0,0.819029644075,-0.573606967943,-0.0120927810834,0.0,-0.00639404971575,0.0119502629414,-0.999908149454,0.0,0.267333976942,-0.256831271318,0.304934200032,1.0,-0.0135466666667,-0.0178041904762,2.781
-0.637770323738,-0.520741449223,-0.125232074204,-2.64161993123,-0.0673415987535,2.11046771404,-0.885614635284,-0.0575378119816,0.0142634495208,0.00595744915874,0.00965687063332,0.00669755422484,0.00492558163648,-0.0622736305011,0.573633337268,0.819077691509,0.00610545235482,0.0,0.819075628882,-0.573541998998,-0.0120597038893,0.0,-0.00637622383562,0.0119189048915,-0.999908637564,0.0,0.267102699518,-0.257157959577,0.304939722954,1.0,-0.0131666666667,-0.0173047619048,2.8
-0.638767778146,-0.52059007648,-0.125186060871,-2.64148117924,-0.0673226458517,2.11048291492,-0.886627851119,-0.0542080795304,0.00674535830712,0.00521410544796,0.00710479854003,0.00433550451071,-0.000187633421348,-0.0598050441374,0.573603070584,0.819098967996,0.00609466532877,0.0,0.819096825396,-0.573511898134,-0.0120515653234,0.0,-0.00637618439921,0.0119051651088,-0.9999088015,0.0,0.26688888607,-0.257446982631,0.30494950643,1.0,-0.0128266666667,-0.0168579047619,2.817
-0.63961846481,-0.520435425334,-0.12516476177,-2.64136764184,-0.067302676035,2.11049551731,-0.887474353036,-0.0544513559609,0.0113126894503,0.0010558079394,0.00988203844713,0.000831991143356,-0.000174030481803,-0.0551493722557,0.573605933818,0.819096931965,0.00609882245818,0.0,0.819094690709,-0.573514457708,-0.0120748231249,0.0,-0.00639281080229,0.0119219328235,-0.999908495557,0.0,0.266701020683,-0.25769520425,0.304945813316,1.0,-0.0125266666667,-0.0164636190476,2.832
-0.640573582621,-0.520288711159,-0.12517636812,-2.64126211309,-0.0672915718117,2.11052523391,-0.888413762053,-0.0584661535727,0.00833806604653,-0.00299864161917,0.00704452048986,0.00391104831263,0.0010657080573,-0.0551061859331,0.573637357777,0.819074826192,0.0061120996796,0.0,0.819072708988,-0.57354572607,-0.01208074495,0.0,-0.00638958844103,0.0119364504689,-0.999908342954,0.0,0.266479166121,-0.257979740565,0.304942069839,1.0,-0.0121866666667,-0.0160167619048,2.849
-0.641571265715,-0.520140196739,-0.125166366892,-2.64115859474,-0.067280901687,2.11055885037,-0.889436463539,-0.0531728609166,0.00760136291012,-0.000181731655477,0.00495189596704,9.54735625529e-05,0.000437254397953,-0.0544926922592,0.573619832522,0.819087076376,0.00611522304162,0.0,0.819084958248,-0.57352811317,-0.0120864170728,0.0,-0.00639269877061,0.0119421256697,-0.99990825531,0.0,0.266250757347,-0.258270716352,0.304937587697,1.0,-0.0118266666667,-0.0155436190476,2.867
-0.64248185079,-0.519986549529,-0.125166335657,-2.64105971234,-0.0672729932365,2.11058251533,-0.890330217416,-0.0556529383037,0.0117589308176,0.0022930518919,0.00704277545115,0.00217044041755,2.56433364779e-05,-0.0528785053014,0.573642290856,0.81907130282,0.00612126943395,0.0,0.819069092024,-0.573550220078,-0.0121125736664,0.0,-0.00641032948113,0.011962257414,-0.999907901796,0.0,0.26603938177,-0.258538142252,0.304928017496,1.0,-0.0114866666667,-0.0150967619048,2.884
-0.643320752264,-0.519851589018,-0.125154243487,-2.64096096286,-0.0672630755422,2.11062255322,-0.891108088865,-0.0500753834718,0.00819801485957,8.96104211942e-05,0.00316791594249,-0.000365251764839,0.00315543136429,-0.0535981983733,0.573693144888,0.819035698757,0.00611936036056,0.0,0.819033521723,-0.573601181175,-0.0121046333905,0.0,-0.0064041778366,0.0119565366647,-0.999908009637,0.0,0.265852074132,-0.258786049182,0.304926939153,1.0,-0.0111666666667,-0.0146761904762,2.9
-0.644146013493,-0.519707592557,-0.125133701191,-2.64085386126,-0.0672555560191,2.11065930023,-0.891903504335,-0.0487555113605,0.00818013580084,0.00059220625032,0.0106839565013,-0.000262910382276,0.00400826515789,-0.043451563828,0.573711873055,0.819022643455,0.00611090206477,0.0,0.81902039072,-0.573620006943,-0.0121009966727,0.0,-0.0064057779296,0.0119476688933,-0.999908105386,0.0,0.265670892336,-0.259030109897,0.304926242419,1.0,-0.0108466666667,-0.0142556190476,2.916
-0.64499727059,-0.519566726331,-0.125108154729,-2.64076235764,-0.0672478436665,2.11067859418,-0.892761398153,-0.0482758845818,0.002478784099,-0.000113800773373,0.000300483425653,0.000105351854079,0.00385289994267,-0.0425586421482,0.573696525569,0.819033438967,0.00610485919493,0.0,0.819030947309,-0.573604391067,-0.0121266978429,0.0,-0.00643052080396,0.0119573432446,-0.999907830925,0.0,0.265477547679,-0.259273465447,0.304918233508,1.0,-0.0105066666667,-0.0138087619048,2.933
-0.645924664325,-0.519430783267,-0.125086447154,-2.64066535303,-0.0672375754631,2.11069692255,-0.893641714777,-0.0515567120323,0.00550457302161,0.0014452063235,0.000289078835427,0.000132002142141,-0.00022857210563,-0.0533262075616,0.573729211269,0.819010561762,0.0061023569555,0.0,0.819007941522,-0.57363690264,-0.0121425925779,0.0,-0.00644449850224,0.011964669228,-0.999907653301,0.0,0.265264845166,-0.259538810576,0.304914358597,1.0,-0.0101266666667,-0.0133093333333,2.952
-0.64666790157,-0.519339682996,-0.125087007808,-2.64059756288,-0.0672287124706,2.11071720915,-0.894355709566,-0.0448568756432,0.0096901304385,-0.00109525594754,0.00130201202478,0.000446217041226,0.000218230289126,-0.0427062278007,0.57376090748,0.818988299379,0.00611010880796,0.0,0.818985783532,-0.57366856376,-0.0121413437439,0.0,-0.00643856508305,0.0119705511243,-0.999907621126,0.0,0.26508934394,-0.259753747897,0.304913350917,1.0,-0.00980666666667,-0.0128887619048,2.968
-0.647398125226,-0.51926696601,-0.125078342537,-2.64051643923,-0.0672152993521,2.11074031646,-0.895063093064,-0.0471339389601,0.00291186986122,0.00238256285675,0.00757220622196,6.7099486153e-05,0.000466538518526,-0.0440983873481,0.573783281918,0.818972593776,0.00611415865037,0.0,0.818970358841,-0.5736913404,-0.012105543782,0.0,-0.00640659206545,0.0119535034865,-0.999908030437,0.0,0.264923394007,-0.259966757306,0.304925627118,1.0,-0.00948666666667,-0.0124681904762,2.984
-0.648180549998,-0.519145383169,-0.125067975856,-2.64042565084,-0.0672034116131,2.11076049672,-0.895827892764,-0.0417556546717,0.00560609745416,0.000185084484486,0.00471282030293,9.60457467476e-06,0.000189377206838,-0.0409211280229,0.573800213898,0.818960706157,0.00611745067281,0.0,0.818958472666,-0.573708176935,-0.0121117574277,0.0,-0.00640954534644,0.0119598973274,-0.999907935054,0.0,0.264744593437,-0.260194502631,0.304924093113,1.0,-0.00912666666667,-0.0119950476191,3.002
-0.648878718194,-0.519043744257,-0.125064046541,-2.64033062554,-0.0671941560985,2.11079947295,-0.896529603441,-0.0386354072086,0.00804322151319,0.000785408065675,0.00908788834996,0.000199835955753,0.00274699907962,-0.0348280394478,0.573803337008,0.818958517572,0.00611750241452,0.0,0.818956515705,-0.573711730722,-0.0120756911692,0.0,-0.00637993007408,0.0119392702197,-0.999908370961,0.0,0.264590302874,-0.260405567151,0.304933272469,1.0,-0.00878666666667,-0.0115481904762,3.019
-0.649494818813,-0.518919717369,-0.125049187127,-2.64023993824,-0.067178621565,2.11082389242,-0.897122714226,-0.0423812767849,0.0125560823465,0.00118621866607,0.00575105524441,-0.000263555008188,0.000164417003862,-0.038229747355,0.573823031402,0.81894470559,0.00611920918115,0.0,0.818942692178,-0.573731350307,-0.0120810390477,0.0,-0.00638304371321,0.0119438900465,-0.999908295917,0.0,0.264456375922,-0.26058828166,0.304931254294,1.0,-0.00846666666667,-0.0111276190476,3.035
-0.65012310519,-0.518806250651,-0.125025853888,-2.64015240103,-0.0671629101757,2.11084542523,-0.897728041812,-0.0416115373367,0.00561024855492,0.00406565844807,0.00448625227448,0.000488474272562,0.000251050498016,-0.0431571549137,0.573836567732,0.818935234221,0.00611740027651,0.0,0.8189331953,-0.573744888014,-0.0120818878665,0.0,-0.00638457945614,0.0119430011602,-0.999908296729,0.0,0.264320067544,-0.260771247335,0.304931642668,1.0,-0.00814666666667,-0.0107070476191,3.051
-0.650752015517,-0.518676394574,-0.124985254183,-2.64007568751,-0.0671525071824,2.11086395792,-0.89835880801,-0.0317851998901,0.00616606075203,0.000740866977533,0.00162688562422,0.00257520320044,0.000157750090988,-0.0427809392441,0.573814848576,0.818950541853,0.00610544449805,0.0,0.818948155526,-0.573722868196,-0.0121134623886,0.0,-0.00641761701681,0.0119511571934,-0.999907987784,0.0,0.264183440373,-0.260947596998,0.304921221579,1.0,-0.00780666666667,-0.0102601904762,3.068
-0.651320611326,-0.518567462862,-0.124970994645,-2.64000919329,-0.0671407436253,2.11088861213,-0.898949675668,-0.0361101375224,0.00625790669605,-0.00113528631842,0.0024001913992,0.00136742555437,0.00140390122974,-0.0352400432508,0.573795094415,0.818964369371,0.00610722743696,0.0,0.81896191039,-0.573702931858,-0.0121277454085,0.0,-0.00642858085439,0.0119606577504,-0.999907803757,0.0,0.264055909136,-0.261112152382,0.304913760924,1.0,-0.00748666666667,-0.00983961904763,3.084
-0.65183340821,-0.518477930013,-0.124952226959,-2.63995990678,-0.0671276597263,2.11090543157,-0.899435187583,-0.0304667471197,0.00499997082346,0.0020327861093,0.00291894865192,0.000530809948091,-0.00068665370487,-0.0268077906287,0.573809072986,0.818954548632,0.00611080484704,0.0,0.81895198749,-0.573716614848,-0.0121505117258,0.0,-0.00644497066088,0.0119767602341,-0.999907505506,0.0,0.263931768491,-0.261262299923,0.30490364387,1.0,-0.00716666666667,-0.00941904761905,3.1
-0.652435602401,-0.518399762603,-0.124941293993,-2.63991772745,-0.0671160849276,2.11091937043,-0.900008101518,-0.0366363891816,0.00727019100302,-0.00108484099662,0.00140025494046,0.000148616296558,-1.47233827838e-05,-0.0264375874308,0.573835883341,0.818935724461,0.00611597030032,0.0,0.818933126589,-0.573743202913,-0.0121662725426,0.0,-0.00645452309925,0.011990245281,-0.999907282277,0.0,0.263795384203,-0.261422421559,0.304896888491,1.0,-0.00682666666667,-0.0089721904762,3.117
-0.652963032028,-0.518326186091,-0.124939359658,-2.63986918439,-0.0671015451303,2.11094091145,-0.900541475915,-0.0321442468355,0.00533115156068,-0.00193477942815,0.00237004464321,0.000323275249328,0.00322768632517,-0.0318074030787,0.573838428687,0.818933857468,0.0061271327416,0.0,0.818931396356,-0.573745681026,-0.0121658731101,0.0,-0.00644775358716,0.0119991779022,-0.999907218797,0.0,0.263672069353,-0.261573889356,0.304893732779,1.0,-0.00648666666667,-0.00852533333334,3.134
-0.65348122484,-0.518283195748,-0.124930481089,-2.63980223144,-0.067085897833,2.11095416331,-0.901057790436,-0.0273029061878,0.00527383496189,-0.000614691758571,0.00408264825709,0.00272076336933,0.000963442513927,-0.0276593175662,0.573841766237,0.818931463959,0.00613445686449,0.0,0.818929296073,-0.57374935367,-0.0121340058704,0.0,-0.00641740208493,0.0119869165873,-0.999907561118,0.0,0.263549151157,-0.261732227966,0.304906441,1.0,-0.00610666666667,-0.00802590476191,3.153
-0.653926301733,-0.518230993425,-0.12492133916,-2.63972458799,-0.067069468594,2.11096718207,-0.90150455246,-0.029917659203,0.000922504750039,0.000177389002462,0.00233456693279,0.000465860130716,0.0035493666163,-0.0300016957614,0.573846600348,0.818928062707,0.00613630846548,0.0,0.818926239888,-0.573754779347,-0.0120836128851,0.0,-0.0063749961193,0.0119595544509,-0.999908160024,0.0,0.263461910401,-0.261859889065,0.30492704387,1.0,-0.00580666666667,-0.00763161904763,3.168
-0.654384022836,-0.518187707669,-0.124897199634,-2.63962712025,-0.0670544408659,2.1109825042,-0.901956363167,-0.0237745468807,-0.00182042377047,0.00188287417225,0.00571576706086,0.00519508179816,0.00276535033548,-0.0281674210766,0.573849247711,0.818926265599,0.00612856550991,0.0,0.81892474011,-0.573758207922,-0.0120223034287,0.0,-0.0063291871431,0.0119180531552,-0.999908946554,0.0,0.263376746999,-0.261991221676,0.30495296865,1.0,-0.00548666666667,-0.00721104761905,3.184
-0.654841411505,-0.518119870911,-0.124876574107,-2.63954073528,-0.0670357924876,2.11099554519,-0.902398054408,-0.0272736479823,0.00291324953496,0.00430953417069,0.00666163826691,0.000754709029216,0.00268184829425,-0.0226876506783,0.573855894222,0.818921618874,0.00612712891114,0.0,0.818920361024,-0.573765399201,-0.0119773069519,0.0,-0.00629306219408,0.0118911077519,-0.999909495367,0.0,0.263279025956,-0.262137196583,0.304973129881,1.0,-0.00510666666667,-0.00671161904763,3.203
-0.655233646283,-0.518051918191,-0.124849643098,-2.6394769793,-0.0670106260837,2.11100797563,-0.902772069932,-0.0243137833605,-0.00022792874537,-0.000436558922664,0.00277778584158,0.00583610951202,-0.000345644567348,-0.0219369876775,0.573865698271,0.818914716511,0.00613142157431,0.0,0.818913583119,-0.573775313043,-0.0119658024307,0.0,-0.00628103430155,0.011888096861,-0.999909606795,0.0,0.263199370999,-0.26224906513,0.30497876958,1.0,-0.00476666666667,-0.00626476190477,3.22
-0.655559374852,-0.517995916529,-0.124814226081,-2.63945510824,-0.0669875240916,2.11102651126,-0.903084576072,-0.0221872535881,-0.000909075124665,0.00296491446266,0.00210791891184,0.000267676310728,0.00174731316258,-0.0107067808311,0.57386251411,0.818916927399,0.00613415198619,0.0,0.818915747101,-0.573771962193,-0.0119783743902,0.0,-0.00628981022769,0.0118975227633,-0.999909439519,0.0,0.263130456854,-0.262332043348,0.304970500672,1.0,-0.00446666666667,-0.00587047619048,3.235
-0.655894318256,-0.517921737659,-0.124767689392,-2.63943553418,-0.0669643610375,2.11104676785,-0.903408656659,-0.0160300130461,0.00608392864124,0.00638448339273,0.00207203644689,0.00246535550357,0.000269659492452,-0.0148428822933,0.573849392876,0.818926136047,0.00613228316859,0.0,0.818924756792,-0.573758521686,-0.0120061820421,0.0,-0.00631384810422,0.011911848118,-0.999909117468,0.0,0.263063573107,-0.262411272624,0.304956675998,1.0,-0.00414666666667,-0.00544990476191,3.251
-0.656191999688,-0.51787023212,-0.124723954221,-2.63943171529,-0.0669436300836,2.1110507548,-0.903695110009,-0.0186886520568,0.00545248889001,0.000172281216991,-0.000576287947783,-2.73469386798e-05,-2.50243351508e-05,-0.0196727019435,0.573836937427,0.818934857438,0.00613314101999,0.0,0.818933204873,-0.573745529446,-0.0120507385223,0.0,-0.00635002984983,0.0119380215627,-0.999908576202,0.0,0.262994586401,-0.262481703942,0.304939033649,1.0,-0.00380666666667,-0.00500304761905,3.268
-0.656482227075,-0.517807389734,-0.124682110605,-2.6394261759,-0.0669192884095,2.11106064074,-0.903995650042,-0.0143634553571,0.00301264816846,0.00195737396041,-0.00103426677592,0.00193333348005,0.000371585369276,-0.0118976299265,0.573809733482,0.818953886402,0.00613747576366,0.0,0.818952001173,-0.573717769653,-0.0120949352672,0.0,-0.00638413825086,0.0119667200374,-0.999908015965,0.0,0.262931203083,-0.262548219137,0.304920234445,1.0,-0.00344666666667,-0.00452990476191,3.286
-0.65672019254,-0.517767943624,-0.124665297345,-2.63940577263,-0.0668998895421,2.1110661403,-0.904252932481,-0.0146405584778,0.00368778584298,0.00150710921128,0.000281896253137,0.000215023573289,0.000970728702399,-0.026128156517,0.57379138398,0.81896667378,0.00614669092714,0.0,0.818964828435,-0.573699233102,-0.01210564439,0.0,-0.0063878904357,0.0119802687864,-0.99990782976,0.0,0.262878804317,-0.262610535678,0.304915843518,1.0,-0.00312666666667,-0.00410933333334,3.302
-0.656958888238,-0.517724934272,-0.124646823629,-2.63938612709,-0.0668783069561,2.11107174858,-0.904493757647,-0.0170622530959,0.00137815883847,0.00103443909608,0.000719304815829,4.67191014518e-06,0.000215959768762,-0.0183022497384,0.573786845804,0.818969775864,0.0061570045197,0.0,0.818967958889,-0.573694451241,-0.0121204715252,0.0,-0.00639418362698,0.0119971875335,-0.999907586683,0.0,0.262826525919,-0.262672211611,0.304909844358,1.0,-0.00278666666667,-0.00366247619048,3.319
-0.657175445925,-0.517692643098,-0.124627454125,-2.63936056522,-0.0668578141805,2.11107651673,-0.904711398557,-0.017212442996,0.00180530678888,0.00274380714018,-0.000587634398461,0.00105880512768,0.00274614125965,-0.017835195725,0.573782283577,0.818972916757,0.00616437937966,0.0,0.81897119168,-0.573689849225,-0.012119859539,0.0,-0.00638951785844,0.0120028409013,-0.999907548662,0.0,0.262781603908,-0.262729566824,0.304910431223,1.0,-0.00244666666667,-0.00321561904763,3.336
-0.657363496346,-0.517674369573,-0.124602110049,-2.63932952822,-0.0668369576478,2.11107647857,-0.904909942113,-0.0148406087979,0.00236021429753,0.00419777727377,0.00241058019528,0.000108682009289,0.000106980534403,-0.0114789757611,0.573766115385,0.818984217183,0.00616796103823,0.0,0.818982629168,-0.573673838518,-0.012104834686,0.0,-0.00637539342089,0.0119970279028,-0.999907708581,0.0,0.262746311768,-0.262779063377,0.304918401897,1.0,-0.00212666666667,-0.00279504761905,3.352
-0.657547032224,-0.517661280898,-0.12457984271,-2.63930377712,-0.0668156280993,2.11108124198,-0.905085912401,-0.0102378629289,0.000363402787369,0.00204651490575,0.00359199468946,0.00283391108996,-0.000359228709232,-0.00634127851991,0.573766850088,0.818983663099,0.00617318538556,0.0,0.818982263483,-0.573674776703,-0.0120850972678,0.0,-0.0063562188586,0.0119899883768,-0.99990791509,0.0,0.262711228261,-0.262827393825,0.304926219626,1.0,-0.00178666666667,-0.0023481904762,3.369
-0.657713931565,-0.517652053948,-0.124544988712,-2.63929352828,-0.0667956013658,2.11108285888,-0.905250454368,-0.00794628356703,-0.00140450668472,0.00106169095583,-0.00122736151001,0.00222952894711,7.56717802282e-05,-0.0130505676199,0.573753100396,0.818993293159,0.00617352798463,0.0,0.818991925946,-0.573661081157,-0.0120804015506,0.0,-0.00635237741335,0.0119874682136,-0.999907969719,0.0,0.262679217193,-0.262864364919,0.304928444094,1.0,-0.00144666666667,-0.00190133333334,3.386
-0.657867952156,-0.517645640438,-0.124519395088,-2.63928099612,-0.0667786022999,2.1110862538,-0.905369559861,-0.00990861897877,0.000502407435022,0.00120003825024,0.000509192643926,0.00190684916672,0.000273093065791,-0.000648822220662,0.573771385765,0.818980474466,0.00617464338716,0.0,0.818979193485,-0.573679493116,-0.0120692468323,0.0,-0.00634233331822,0.0119821236344,-0.999908097538,0.0,0.262649139147,-0.262901155327,0.304932675001,1.0,-0.00110666666667,-0.00145447619048,3.403
-0.657996506471,-0.517639639777,-0.124491795449,-2.6392746411,-0.0667566504078,2.11109102007,-0.905449437565,-0.00638341125612,-0.000119187446706,0.00312218955947,0.000806564265335,0.000718141031882,9.6003324789e-07,-0.00385882491155,0.57380134351,0.818959450764,0.00617924690366,0.0,0.818958272937,-0.573709506017,-0.0120622051869,0.0,-0.0063334861854,0.0119820856065,-0.999908154071,0.0,0.262625457171,-0.262928926395,0.304934418822,1.0,-0.000766666666672,-0.00100761904763,3.42
-0.658075751533,-0.51763289611,-0.124486335523,-2.63927495682,-0.0667452631428,2.11109183598,-0.905508479781,-0.000850643925163,0.00433012699784,-0.000388986723657,-0.000135006367299,-0.000163110266291,0.000159335223994,-0.00682782458645,0.573818889639,0.818947097169,0.00618715070016,0.0,0.81894598524,-0.573726943738,-0.0120670704617,0.0,-0.00633267918795,0.0119914860727,-0.99990804649,0.0,0.262606756137,-0.26294732397,0.30493199475,1.0,-0.000426666666672,-0.000560761904769,3.437
-0.658100186563,-0.517632812535,-0.124477467306,-2.63927965275,-0.0667303302474,2.11108903572,-0.905526143707,-0.0011156380488,0.00276121930873,-0.00317161936456,0.00138773970079,9.4946224984e-05,0.000205839949084,-0.00129080746592,0.57381790413,0.818947736406,0.00619393553579,0.0,0.818946612081,-0.573725737821,-0.0120818551585,0.0,-0.00634090978049,0.012005518471,-0.999907825947,0.0,0.262602179163,-0.262949194555,0.304926468034,1.0,-8.6666666672e-05,-0.000113904761912,3.454
-0.658096656539,-0.517623309712,-0.124455146243,-2.63927642933,-0.0667190059794,2.11109142795,-0.905539682443,-0.000429213650172,0.000545230505571,0.000469547848619,-0.000514711408721,-2.7504855539e-05,0.000127993575815,0.000322327002355,0.57379950087,0.818960622585,0.00619502681034,0.0,0.818959543746,-0.573707392924,-0.0120764196839,0.0,-0.00633610149206,0.0120031510149,-0.999907884849,0.0,0.262609878504,-0.262942794859,0.304928506091,1.0,0.0,0.0,3.472
-0.658095994487,-0.517617575441,-0.124422966145,-2.63927366854,-0.0667129746947,2.11109506339,-0.905548676156,-0.000133782457985,0.00225754358195,0.00260224708151,0.00073473817994,0.000195725117479,5.234312635e-05,-0.000828661590526,0.573771476533,0.818980342282,0.00618373460747,0.0,0.818979128044,-0.573679446354,-0.0120759083018,0.0,-0.00634257218258,0.0119933922237,-0.999907960925,0.0,0.262618749805,-0.262936152979,0.304928715644,1.0,0.0,0.0,3.487
-0.658095924807,-0.517620081057,-0.124392705486,-2.63927082529,-0.0667061369052,2.11109519618,-0.905554699579,0.000378449497569,0.000551050527059,0.00109149808019,0.000274837058753,0.000312019705082,0.00171043431348,0.00117743969878,0.573748041952,0.818996832886,0.00617405703186,0.0,0.818995534585,-0.573656138564,-0.0120704564304,0.0,-0.00634400201349,0.0119821565754,-0.999908086557,0.0,0.262626767051,-0.26292966915,0.304931656278,1.0,0.0,0.0,3.504
-0.658093145537,-0.517614416834,-0.124372482111,-2.63926829111,-0.0667019565575,2.11109990156,-0.905559622628,-0.000957989355443,0.000378601009555,0.00415608447549,0.00159998507195,-6.74151723942e-05,8.96397648169e-05,-0.00128540577577,0.573729302188,0.819010014136,0.00616696488642,0.0,0.819008638219,-0.573637461665,-0.0120689683565,0.0,-0.00634712606247,0.0119753488694,-0.999908148287,0.0,0.262633515431,-0.262925348416,0.304931598113,1.0,0.0,0.0,3.521
-0.658095214118,-0.517613712204,-0.124376587883,-2.63927082321,-0.0666987627149,2.11110088233,-0.905559127606,-0.000335223968491,-0.000564698975205,-0.000997662744106,0.000887609485673,-0.000105808740858,0.000139018176614,-0.00213156559854,0.573735565727,0.819005588514,0.00617199352023,0.0,0.819004262007,-0.573643671521,-0.0120707845215,0.0,-0.00634563713051,0.0119805580472,-0.999908095336,0.0,0.262631917915,-0.262925935274,0.304930177449,1.0,0.0,0.0,3.54
-0.658092717073,-0.517620562705,-0.124376500188,-2.63926859797,-0.0667018249111,2.11110055405,-0.905566525311,0.00190445661109,-0.00297159354818,-0.00111680809073,-0.000913181799378,-7.73042072628e-05,-0.000389722882205,4.50748254007e-05,0.573726161778,0.819012200021,0.00616882562169,0.0,0.819010888117,-0.573634388886,-0.0120623353725,0.0,-0.00634067139275,0.0119730432446,-0.999908216849,0.0,0.262632925112,-0.262926214156,0.304933685558,1.0,0.0,0.0,3.555
-0.658098772323,-0.517617121769,-0.124379093424,-2.63926748652,-0.066697877939,2.11109900744,-0.905567256226,-9.54818982761e-05,-0.00027074165877,0.00305170199259,-0.000608260589903,-2.93227447336e-05,-0.0092580140972,-0.000203719289331,0.573734116337,0.819006591535,0.00617362724367,0.0,0.819005316354,-0.573642272046,-0.0120657534905,0.0,-0.00634060015797,0.0119789985834,-0.999908145973,0.0,0.262631052652,-0.262927979712,0.304932731942,1.0,0.0,0.0,3.571
