nelsonifechukwu/NELSON_IML_WORK/CNN-GradCAM/train2dof/data_sample_2022-02-21-10-17-58/robot_state.csv
position_joint1,position_joint2,position_joint3,position_joint4,position_joint5,position_joint6,position_joint7,velocity_joint1,velocity_joint2,velocity_joint3,velocity_joint4,velocity_joint5,velocity_joint6,velocity_joint7,ee_T_00,ee_T_10,ee_T_20,ee_T_30,ee_T_01,ee_T_11,ee_T_21,ee_T_31,ee_T_02,ee_T_12,ee_T_22,ee_T_32,ee_T_03,ee_T_13,ee_T_23,ee_T_33,v_x,v_y,time
0.465085432289,0.547653205435,-0.123944541887,-1.35574939897,0.0794128107561,1.89408726383,0.15917233427,-0.000431947544425,0.00171044038545,-0.00144007314766,0.000777240442588,0.000165349947024,-0.000339238377363,0.00142350392768,0.573748179739,0.819017372901,0.00207750672326,0.0,0.818976523059,-0.573689733562,-0.0117597272748,0.0,-0.00843973915126,0.00844871401494,-0.999928692475,0.0,0.661688731468,0.260920308802,0.303342064102,1.0,0.0,0.0,0.0
0.465087980461,0.547650379633,-0.12394518777,-1.35575213421,0.0794114883277,1.89409090143,0.159172096081,0.000424313532703,9.82447712403e-05,-0.00205417466683,9.43413028011e-05,-0.000121394949695,7.96575072762e-05,0.000828786932705,0.573746167844,0.819018776469,0.00207980229377,0.0,0.818977973251,-0.573687729805,-0.0117564833747,0.0,-0.00843578598777,0.00844871221474,-0.999928725848,0.0,0.661688462725,0.260921367036,0.30334309906,1.0,-8e-05,-0.000105142857143,0.005
0.465085027825,0.547645044196,-0.123942416733,-1.35575500118,0.0794122004045,1.89409229295,0.159168515972,0.000169291432337,-0.000317384704659,0.00238505010396,-0.000724849143074,2.55245287135e-05,4.30412687085e-05,-0.00147336651077,0.57374406272,0.819020239514,0.00208438529332,0.0,0.818979474214,-0.573685585467,-0.0117565617993,0.0,-0.00843324262946,0.00845248903855,-0.999928715383,0.0,0.661688318321,0.260920957324,0.303345544702,1.0,-0.00038,-0.000499428571429,0.02
0.465076670731,0.547641943389,-0.12395021214,-1.3557642685,0.0794122004045,1.89409162013,0.159173148066,0.000738754814722,0.000394317791817,0.000897697259675,-5.89039961253e-05,-3.60438326442e-05,0.000640329164676,-0.00117341447973,0.57376064414,0.819008642433,0.00207695851473,0.0,0.818967810618,-0.573702223759,-0.0117571479192,0.0,-0.00843781249169,0.00844691356019,-0.999928723946,0.0,0.661690112035,0.260909809854,0.303343529722,1.0,-0.00072,-0.000946285714286,0.037
0.465078759837,0.547587190655,-0.123947418223,-1.35580684839,0.0794078190969,1.89409956303,0.159174775505,0.000176671338532,-0.00574997660278,-0.000185299081991,-0.00322228430609,-1.9618258962e-05,6.49409229288e-05,0.00136897917405,0.573757377167,0.81901089938,0.00208943666803,0.0,0.818970192655,-0.573698871624,-0.0117547922717,0.0,-0.00842875781142,0.00845574793287,-0.999928725644,0.0,0.66167904887,0.260908275324,0.303359462623,1.0,-0.00106,-0.00139314285714,0.054
0.465085682827,0.547458240988,-0.123945528751,-1.35595737304,0.0794094970022,1.89412660506,0.159167659628,0.00160947838855,-0.00121918883124,-0.00147400691418,-0.00704409876349,0.000350504022776,-1.47970193335e-05,0.000831721524799,0.573755231521,0.819012355614,0.00210773684102,0.0,0.818971773241,-0.573696541368,-0.0117583994609,0.0,-0.00842123523983,0.00847278331058,-0.999928644824,0.0,0.661654400273,0.26089991491,0.303384628927,1.0,-0.00138,-0.00181371428571,0.07
0.465066336924,0.547300219844,-0.123944887875,-1.35617396186,0.0794046465635,1.89418413374,0.159155977039,-0.00281522384173,-0.0114538493665,-0.000164330917622,-0.015358587246,0.000264391413839,-0.000244559146294,-0.000976558705473,0.573771710655,0.819000798118,0.00211273171338,0.0,0.818960175373,-0.573712893171,-0.0117683585584,0.0,-0.00842635586151,0.0084827576755,-0.99992851712,0.0,0.661625561133,0.260866971669,0.303398439558,1.0,-0.00174,-0.00228685714286,0.088
0.465049312228,0.547151963052,-0.123940594274,-1.3563562185,0.0793996399636,1.89430466776,0.159152522254,-0.000890205343913,-0.00890296398676,0.00182257833383,-0.0133650241562,0.000301071896018,0.00289750765201,0.000876551840144,0.573788999176,0.818988485203,0.00218916191338,0.0,0.818948850121,-0.573729880904,-0.0117282370863,0.0,-0.00834946427465,0.00852250913626,-0.999928824109,0.0,0.661615467137,0.260845896222,0.303427025263,1.0,-0.00204,-0.00268114285714,0.103
0.465030103999,0.546940347613,-0.123943099927,-1.35660221502,0.0793943982236,1.89442428786,0.159137992257,-0.000608330365273,-0.0114600575804,-0.00155258995079,-0.0203881330104,0.00017375152782,0.00324305576373,0.00070646836388,0.573807045029,0.818975631583,0.00226646190503,0.0,0.818936966065,-0.573747599771,-0.0116912048494,0.0,-0.0082745941091,0.00856475004165,-0.99992908556,0.0,0.661594380325,0.260812603742,0.303470287641,1.0,-0.0024,-0.00315428571429,0.121
0.464997846892,0.546712499369,-0.123943108696,-1.35690156947,0.0793804241801,1.89456520543,0.159116524183,-0.00406724669424,-0.0156125853706,0.000484027450171,-0.018788938587,-0.000395572211679,0.0153492504583,-0.00211013319094,0.573829059423,0.818960036481,0.00232725365662,0.0,0.818922163873,-0.573769392688,-0.0116584918609,0.0,-0.00821269012226,0.00859598651856,-0.999929327871,0.0,0.661569037317,0.260766031788,0.303501390553,1.0,-0.00274,-0.00360114285714,0.138
0.464962331661,0.546476996254,-0.123945578364,-1.35726416817,0.0793695580154,1.89468801386,0.159035958661,-0.00300629636603,-0.0125911966246,-0.00125617318926,-0.0204024992838,-0.000392996102645,0.00559112034607,-0.0108953861666,0.573811211581,0.818972534455,0.00232984396035,0.0,0.818934591911,-0.573751429234,-0.0116695554316,0.0,-0.00822045235485,0.00860427721273,-0.999929192782,0.0,0.661526993759,0.260707736892,0.303506308908,1.0,-0.00306,-0.00402171428571,0.154
0.4649236937,0.546186996922,-0.123940595248,-1.35769930792,0.0793417053428,1.89485472285,0.15894526704,-0.00230053697332,-0.0190304949813,0.000409616345781,-0.0276992558084,-0.00261413294493,0.0145845736881,-0.00286715261904,0.573782055078,0.818992907898,0.00234882617756,0.0,0.818955202974,-0.573722198229,-0.0116602608507,0.0,-0.00820225514199,0.00861419770267,-0.999929256802,0.0,0.661478528027,0.260644030031,0.303518812975,1.0,-0.0034,-0.00446857142857,0.171
0.46486805013,0.545861467173,-0.123942815753,-1.35825786052,0.0792561802945,1.89504355258,0.158913401483,-0.00446178010734,-0.013978757951,0.00120410827926,-0.0320812420316,-0.00989620962499,0.0171692328714,-0.000707849758329,0.573811542281,0.818972439936,0.00228111209149,0.0,0.818934295593,-0.573752386103,-0.0116432746206,0.0,-0.00822688591244,0.00854929089138,-0.999929611509,0.0,0.661416358776,0.260542877708,0.303499762529,1.0,-0.00378,-0.004968,0.19
0.46481567497,0.545589182813,-0.123948775425,-1.35873083053,0.0792117592107,1.89519842883,0.15883124934,-0.0062978750126,-0.0194540806433,-0.000579276170603,-0.0337314822118,-0.00141288084227,0.0190654966565,-0.00897265791765,0.573805869459,0.818976550311,0.00223184131893,0.0,0.818937905163,-0.573747036988,-0.0116529796767,0.0,-0.00826316384422,0.00851445151914,-0.999929609642,0.0,0.661363314885,0.260455538126,0.303480980102,1.0,-0.00406,-0.005336,0.204
0.464752528441,0.545219359705,-0.123951248322,-1.35937706758,0.0792065782036,1.89541009795,0.158767701902,-0.00258185583009,-0.0196342643119,-0.000576242021775,-0.0423735489756,0.00020301365862,0.0151749989701,-7.05460191827e-05,0.573841868346,0.818951428927,0.0021941039965,0.0,0.818911969954,-0.573782839276,-0.0117126307997,0.0,-0.00833329695094,0.00851813996801,-0.999928996206,0.0,0.661284121619,0.26035402083,0.303453648133,1.0,-0.0044,-0.00578285714286,0.221
0.464683542144,0.544801839799,-0.123957046856,-1.36006646258,0.0791865128229,1.89563451228,0.158686537855,-0.0041503634682,-0.0227215535469,-0.00218846033281,-0.03903062464,-0.000463498312223,0.013861271099,-0.0130137322159,0.573858382962,0.818939927903,0.00216741599497,0.0,0.818899878322,-0.573799204727,-0.011756225627,0.0,-0.00838414241386,0.00852146938728,-0.999928542805,0.0,0.661194217383,0.260243015336,0.303440180558,1.0,-0.00476,-0.006256,0.239
0.464624093105,0.544401052742,-0.123958925548,-1.36075624009,0.0791525045379,1.8958774867,0.158582885614,-0.00629223336312,-0.0247783397197,-0.000492329273893,-0.0408656234275,-0.000515633504856,0.0143999631109,-0.00787207089823,0.573863439855,0.818936487522,0.00212807510197,0.0,0.818895880343,-0.573804366202,-0.0117827579632,0.0,-0.00842839390726,0.00850452968833,-0.999928315006,0.0,0.661120063418,0.260134659337,0.303417135888,1.0,-0.00506,-0.00665028571429,0.254
0.464556093294,0.543892371333,-0.123963536947,-1.36157871937,0.0791117674122,1.89617198384,0.158501399616,-0.00605655821975,-0.0268881123074,-0.0111865059978,-0.0434131776572,-0.00733939146736,0.0185706032843,-0.00108040757961,0.57389056938,0.81891751083,0.00211464761802,0.0,0.818876653776,-0.573831468984,-0.0117990680174,0.0,-0.00844917473469,0.00850317314045,-0.999928151165,0.0,0.661024006379,0.260009483194,0.303411277866,1.0,-0.00542,-0.00712342857143,0.272
0.464486358682,0.543379240628,-0.123961251555,-1.36241759489,0.0790614614378,1.89645603616,0.158385086218,-0.00180826934543,-0.0336349021633,-0.000728998598111,-0.0459625431445,-0.00436665571279,0.025723997233,-0.0057038485137,0.573883984486,0.818922214116,0.00208001896225,0.0,0.818880847909,-0.573824962573,-0.0118243882799,0.0,-0.00848985088351,0.00848927819656,-0.999927924696,0.0,0.660921490321,0.259883014457,0.303399554703,1.0,-0.00576,-0.00757028571429,0.289
0.464428958242,0.542904047971,-0.123964774465,-1.36319153948,0.0790104530854,1.89672802315,0.158283302831,0.0010952776825,-0.0316018890068,-0.00191771858495,-0.052119491934,-0.00784547269398,0.016430344313,-0.0112752828758,0.573879492129,0.81892542869,0.00205369422479,0.0,0.818883748426,-0.573820604012,-0.0118350274935,0.0,-0.00851371681859,0.00847377953873,-0.999927853241,0.0,0.660828573098,0.259767615908,0.303390985551,1.0,-0.00606,-0.00796457142857,0.304
0.464358288511,0.542286077508,-0.123966911758,-1.36414491456,0.0789554997514,1.89707535355,0.158159786398,-0.000459752038852,-0.0339440970212,-0.000215562272321,-0.0518926747457,-0.00463449432019,0.0191689526157,-0.000859546713917,0.573875980033,0.818927861959,0.00206478828911,0.0,0.818886296886,-0.573817019,-0.0118325136133,0.0,-0.00850532816794,0.00848138547497,-0.999927860145,0.0,0.660716332363,0.259629312311,0.303404427096,1.0,-0.00642,-0.00843771428571,0.322
0.464275565484,0.541667438129,-0.123962959216,-1.36509925708,0.0789049719336,1.89742579007,0.158020724962,-0.00796406508886,-0.0315302906836,0.000789668301339,-0.0623007330718,-0.000444901723482,0.0242272268962,-0.0125943712164,0.573866531908,0.818934438402,0.00208231984842,0.0,0.818893004104,-0.573807404965,-0.0118345569305,0.0,-0.00849703927939,0.00849681688858,-0.999927799607,0.0,0.660605834482,0.259487402237,0.303417873428,1.0,-0.00676,-0.00888457142857,0.339
0.464198909274,0.541058966125,-0.123965473913,-1.36603810901,0.0788509167744,1.89777855598,0.157909580811,-0.00192999910205,-0.0411614407963,0.000268525931467,-0.0614914129593,-0.000658090511028,0.0198600262659,-0.00628563768653,0.573877701711,0.818926561612,0.00210168189734,0.0,0.818885367462,-0.573818484706,-0.0118257544312,0.0,-0.00847860373256,0.00850773712709,-0.999927863242,0.0,0.660499056054,0.259347051846,0.303431828278,1.0,-0.00708,-0.00930514285714,0.355
0.464108113724,0.540360956576,-0.123966264353,-1.36708883454,0.0787895225536,1.89817729578,0.157780391442,-0.00487700567369,-0.0411999879742,-0.000443167087448,-0.0651620368482,-0.000711956862824,0.0259849436458,-0.00158890711811,0.573888630412,0.818918799625,0.00214158963527,0.0,0.818878115537,-0.57382924579,-0.0118057389217,0.0,-0.00843919726191,0.00852904443607,-0.999928015084,0.0,0.660381491369,0.259188200672,0.303459655698,1.0,-0.00742,-0.009752,0.372
0.464006232659,0.539634961043,-0.123973000771,-1.36819564713,0.0787255116714,1.8985968762,0.157630791869,-0.00695734648623,-0.0400753218907,-0.00137118358382,-0.0624706426319,-0.00936484666179,0.0250879374338,-0.00941479395707,0.573898436208,0.818911841816,0.00217420169082,0.0,0.818871593337,-0.573838935051,-0.0117871602676,0.0,-0.00840516536714,0.00854518936908,-0.999928163887,0.0,0.66026003843,0.259013290815,0.303482456042,1.0,-0.00776,-0.0101988571429,0.389
0.463907107505,0.538935680122,-0.123971540705,-1.36929835885,0.0786490431772,1.89901644016,0.157505112027,-0.00699213013635,-0.0422098573155,-0.000519237334706,-0.0716619504006,-0.00384460540943,0.0267450587999,-0.00821080055356,0.573916216179,0.818899361738,0.00218152541927,0.0,0.818859294254,-0.573856771826,-0.0117732129837,0.0,-0.00838935498429,0.00854336469934,-0.999928312252,0.0,0.660136711068,0.258843087299,0.30348793035,1.0,-0.00808,-0.0106194285714,0.405
0.463791053552,0.538116253308,-0.123979365745,-1.37055936877,0.0785947213965,1.89950154995,0.157343691316,-0.00542830577048,-0.0485442325414,0.000929967564168,-0.0696458855097,-0.00503150767922,0.0306748794336,-0.00961859653035,0.573939727573,0.818882759002,0.00222778450791,0.0,0.818843150852,-0.573879957751,-0.0117658529618,0.0,-0.00835653414528,0.0085772616683,-0.999928296889,0.0,0.659998029505,0.258647144704,0.303508842874,1.0,-0.00844,-0.0110925714286,0.423
0.463666054578,0.537279715499,-0.123983950454,-1.37189337722,0.0784976195916,1.90000845576,0.157175747516,-0.00652648152891,-0.0512960300377,-3.7391188097e-05,-0.0791037087053,-0.000633329804276,0.0248997606018,-0.00970301576423,0.57395537569,0.818871801707,0.00222395751574,0.0,0.818832314953,-0.573895794167,-0.011747524258,0.0,-0.00834355712937,0.00856376785897,-0.999928520913,0.0,0.659850889158,0.258433325274,0.303508659165,1.0,-0.0088,-0.0115657142857,0.441
0.463560641002,0.536547358035,-0.123992099581,-1.37304457269,0.0784390982819,1.90043857016,0.157041828975,-0.00686520336019,-0.0476893835444,-0.00133564727324,-0.0764970863767,-0.0023412844725,0.0248060135652,-0.00583250058092,0.573985467525,0.818850674359,0.00223675500939,0.0,0.818811290599,-0.573925768707,-0.0117485872599,0.0,-0.008336767771,0.00857516370562,-0.999928479878,0.0,0.659721393414,0.258251730159,0.303515302383,1.0,-0.0091,-0.01196,0.456
0.463443370468,0.535689944743,-0.124001643845,-1.37440723572,0.0783598911978,1.90093701796,0.156872816192,-0.00817119041995,-0.0512570951157,-0.000207102001766,-0.082022371626,-0.00252505965579,0.0281519297991,-0.00916954013188,0.574003430785,0.818838101911,0.00222962008929,0.0,0.818798620681,-0.573943751955,-0.011753095892,0.0,-0.00834436686721,0.00857209225744,-0.999928442828,0.0,0.659564014827,0.258039354275,0.30351537883,1.0,-0.00944,-0.0124068571429,0.473
0.463295134923,0.534594668537,-0.124003157711,-1.37617213597,0.0782713008072,1.90158376244,0.156668736744,-0.00463414088636,-0.0472347997126,-0.000106333099377,-0.0868327146228,0.000350264890544,0.0280079974368,-0.0148216594293,0.574031846012,0.818818213318,0.00221815333252,0.0,0.81877840081,-0.573972020552,-0.0117812092656,0.0,-0.00837367199055,0.00857913051618,-0.999928137486,0.0,0.659355330698,0.257775155265,0.303504267284,1.0,-0.00986,-0.0129588571429,0.494
0.463211882436,0.533948207766,-0.124006152337,-1.37720749322,0.0782098931876,1.90195164104,0.156536979153,-0.00378977129973,-0.0527037273263,-0.00059897305737,-0.0865196206912,-0.00227874265647,0.0252311067522,-0.0109352043875,0.574034369355,0.8188164933,0.00220000013013,0.0,0.818776414216,-0.573974582356,-0.0117944577281,0.0,-0.00839491398955,0.00857189735725,-0.999928021407,0.0,0.65923050554,0.257619153161,0.303499445224,1.0,-0.0101,-0.0132742857143,0.506
0.463057746647,0.532801399579,-0.124003822047,-1.37904884903,0.0780999291191,1.90265020966,0.156298138711,-0.00583844796832,-0.0553759538338,0.000508506496862,-0.0888727149847,-0.00544352880293,0.0339869557182,-0.00893030803911,0.574034655379,0.818816286029,0.00220251183608,0.0,0.818776213361,-0.573974831819,-0.0117962610319,0.0,-0.00839494591522,0.00857499203242,-0.999927994605,0.0,0.659016676624,0.257345009577,0.303492192608,1.0,-0.01052,-0.0138262857143,0.527
0.462949773144,0.532005260066,-0.124008458571,-1.38032680154,0.0780259561144,1.90313274419,0.156128545142,-0.012315116484,-0.0572657870111,-0.00298336332311,-0.0888533286019,-0.00133447581422,0.0362289604937,-0.0152095962544,0.574037421594,0.818814346927,0.00220244819567,0.0,0.818774260965,-0.573977585206,-0.0117978033591,0.0,-0.00839621640895,0.00857585362622,-0.999927976549,0.0,0.658869029863,0.257150699192,0.303487153105,1.0,-0.0108,-0.0141942857143,0.541
0.462807159172,0.530878757213,-0.124004611405,-1.38212401015,0.0779155985427,1.90377026567,0.155910260618,-0.00816914038737,-0.0586732665429,0.000244929017981,-0.0965370201244,-0.011317260197,0.0299689310599,-0.0170922070665,0.57404078543,0.818812064679,0.00217400570856,0.0,0.818771541831,-0.573980991225,-0.0118207826376,0.0,-0.00843132381521,0.00856579027365,-0.999927767399,0.0,0.658648495379,0.25688587402,0.303480750841,1.0,-0.01118,-0.0146937142857,0.56
0.462696310565,0.530028717699,-0.124006355108,-1.38349085476,0.0778226333687,1.90425040416,0.155730738383,-0.00702040956878,-0.0644750283306,-0.000302656842591,-0.103247671816,-0.0126401932388,0.03563671174,-0.0123368727046,0.574034889638,0.818816296095,0.00213673309585,0.0,0.81877533139,-0.573975286492,-0.0118352906247,0.0,-0.00846465981261,0.00854353858582,-0.999927676126,0.0,0.658481450755,0.256678342324,0.303470696435,1.0,-0.01146,-0.0150617142857,0.574
0.462556909816,0.528985467944,-0.124007254617,-1.38514540165,0.0777214530016,1.90486220446,0.155508603943,-0.00892352132503,-0.0649451931875,-0.000125292565707,-0.101571191223,-0.0121718651668,0.0309399522185,-0.00690088885152,0.574030313664,0.818819507142,0.00213556088568,0.0,0.818778514956,-0.573970703381,-0.0118373142431,0.0,-0.00846703744744,0.00854369307103,-0.999927654676,0.0,0.658285739809,0.256428498753,0.30347100396,1.0,-0.0118,-0.0155085714286,0.591
0.46242541889,0.5279620889,-0.124007835963,-1.38675701168,0.0776271056594,1.90549268333,0.155279374182,-0.00964474412684,-0.0589735541532,0.000398714701333,-0.0987613036563,-0.00421215001288,0.0458954580674,-0.014472943219,0.574012786854,0.818831700118,0.00217124636019,0.0,0.818791167595,-0.573953033551,-0.0118188852074,0.0,-0.00843164676819,0.00856215342578,-0.999927795824,0.0,0.658100346861,0.256191260034,0.303479135762,1.0,-0.01212,-0.0159291428571,0.607
0.462275655519,0.5267914615,-0.124012712959,-1.3885181088,0.0775154784454,1.906158167,0.155029264091,-0.0144456860542,-0.0721498897447,-0.000288239783618,-0.104143075149,-0.00777834454288,0.0432901882762,-0.0223347623202,0.573999109216,0.818841126027,0.00223155703474,0.0,0.818801442057,-0.573939189447,-0.0117793125495,0.0,-0.00836476856386,0.00858868238743,-0.999928130008,0.0,0.657896922993,0.255923317243,0.303522617505,1.0,-0.01246,-0.016376,0.624
0.462131441303,0.52562949888,-0.124015160522,-1.39033546842,0.0773988216055,1.90682452444,0.154783890117,-0.00807485115563,-0.0713003724246,0.000519715183152,-0.106568355128,-0.00301833258559,0.0433033522847,-0.0240497545477,0.573990406569,0.818847235209,0.00222833078574,0.0,0.818807522933,-0.573930514249,-0.0117793083157,0.0,-0.00836670809828,0.00858594928632,-0.999928137253,0.0,0.65766269139,0.255635638513,0.303531310379,1.0,-0.01282,-0.0168491428571,0.642
0.461982446443,0.524533364904,-0.124018725038,-1.39207647753,0.077288132439,1.90744130728,0.154556360869,-0.00884725319086,-0.0698712246619,0.00108894027127,-0.109547225313,-0.00681228841669,0.0356493834013,-0.00922962209368,0.573986246679,0.818850203078,0.00220917273059,0.0,0.818810258294,-0.573926445545,-0.0117874050007,0.0,-0.00838437775099,0.00857486674135,-0.999928084349,0.0,0.65746594677,0.255384615348,0.303528752228,1.0,-0.01312,-0.0172434285714,0.657
0.461814843314,0.523272847534,-0.12402013948,-1.39410303584,0.0771608656395,1.90818299436,0.154283027257,-0.012027809431,-0.0712051184379,0.00227796396197,-0.115317424879,-0.00986690640508,0.0463129071627,-0.0130173144894,0.573975038333,0.818858125444,0.00218464333533,0.0,0.818817859738,-0.573915331551,-0.0118004951049,0.0,-0.00840929290174,0.00856217945879,-0.999927983845,0.0,0.657220601061,0.255079398166,0.30351471208,1.0,-0.01348,-0.0177165714286,0.675
0.461654225568,0.522044970769,-0.124023236163,-1.39604533725,0.0770603185275,1.9089475898,0.154019493478,-0.0112704731644,-0.0717320638925,0.000224110432887,-0.112908610228,-0.000290234060938,0.048209777055,-0.0107286279477,0.573970199025,0.818861386027,0.00223338435005,0.0,0.818821646528,-0.573910194406,-0.0117875712089,0.0,-0.00837078601504,0.00859462351675,-0.999928028604,0.0,0.656995275685,0.254793209948,0.30351955971,1.0,-0.01382,-0.0181634285714,0.692
0.461504356412,0.520944972413,-0.124036905218,-1.39781729261,0.0769435181873,1.90961769619,0.153782433598,-0.00885421930702,-0.0770681559396,-0.000386795214192,-0.120830727798,-0.00790354903911,0.0425021316684,-0.0202022829744,0.57396658187,0.818863951228,0.00222242593224,0.0,0.818824195427,-0.573906749247,-0.0117782449483,0.0,-0.008369476093,0.00858026031584,-0.999928162921,0.0,0.656771294293,0.254502074185,0.303509607897,1.0,-0.01414,-0.018584,0.708
0.461329560179,0.519566865731,-0.124041063024,-1.39999009387,0.076790823573,1.91040182065,0.153485329603,-0.00974100626393,-0.0775467885308,-0.0022295712627,-0.123605457732,-0.0124033718005,0.0439302692335,-0.0171872658957,0.573948651336,0.818876578817,0.0022002718708,0.0,0.818836679324,-0.573889053672,-0.0117725770543,0.0,-0.00837773697772,0.00855868281652,-0.999928278664,0.0,0.656521290193,0.254189106495,0.303509050404,1.0,-0.01448,-0.0190308571429,0.725
0.46115699353,0.518225457208,-0.124044303641,-1.40206783022,0.0766593839804,1.91114793664,0.153206593617,-0.0119376376114,-0.081301851319,0.00104085762512,-0.123295674424,-0.00601640119732,0.0439392016286,-0.0140236931889,0.573938598702,0.818883609398,0.00220591964567,0.0,0.81884377895,-0.573878976131,-0.0117700182783,0.0,-0.0083725053394,0.00856173621602,-0.999928296343,0.0,0.656265967482,0.253874382527,0.303526401707,1.0,-0.01482,-0.0194777142857,0.742
0.460986436478,0.516929351114,-0.124053137923,-1.40406906506,0.0765345148003,1.91186699309,0.152925835805,-0.0084820133152,-0.0808518159251,0.00438226853996,-0.12088864844,-0.0118501967809,0.0454685163919,-0.0223484288282,0.573926656493,0.81889195457,0.0022150866487,0.0,0.818852249683,-0.573867006845,-0.0117642910951,0.0,-0.00836267919153,0.00856583385862,-0.999928343476,0.0,0.656021831684,0.253565473559,0.303545812409,1.0,-0.01514,-0.0198982857143,0.758
0.460799817065,0.515581067754,-0.124057048782,-1.4062373939,0.0764061377764,1.91270069407,0.15262778954,-0.00732123863097,-0.0779944506512,3.80720435171e-05,-0.13051822573,-0.010947232868,0.0611530669803,-0.00771957111991,0.573918305885,0.818897780253,0.00222498731109,0.0,0.818858191516,-0.573858606612,-0.0117604721943,0.0,-0.00835395729616,0.00857166439499,-0.999928366418,0.0,0.655764769149,0.253236956968,0.303531762054,1.0,-0.01548,-0.0203451428571,0.775
0.460598426143,0.514099718032,-0.124060245207,-1.40859544199,0.0762638408997,1.91354844465,0.152309727513,-0.0114834773415,-0.0850131845342,-0.000131952554559,-0.129128942845,-0.00192663364532,0.0463065413312,-0.0137061059449,0.57391060336,0.818903245202,0.00220028381843,0.0,0.818863259754,-0.573850922384,-0.0117825126625,0.0,-0.00838626441884,0.00856400541483,-0.99992816161,0.0,0.655472419283,0.25287723799,0.303521424685,1.0,-0.01584,-0.0208182857143,0.793
0.460426831207,0.512848655535,-0.124058151643,-1.41060299809,0.076143598669,1.91424522433,0.152028446312,-0.0133039166317,-0.0869422972653,0.00161505128345,-0.130752784946,-0.00958467571219,0.0374989684853,-0.0188873262153,0.573891920033,0.818916466791,0.0021520781564,0.0,0.818875720274,-0.573832292748,-0.0118237661699,0.0,-0.00844790752175,0.00854801299541,-0.999927779558,0.0,0.655216397023,0.252572114767,0.30350284854,1.0,-0.01614,-0.0212125714286,0.808
0.460217422239,0.511342294437,-0.124065908615,-1.41303276724,0.0759918004877,1.9151478308,0.151683174945,-0.0103880999504,-0.088254694085,-0.000264559539866,-0.133944571492,-0.0117789471651,0.0563978252545,-0.0187223732097,0.573872369543,0.818930227872,0.00212890902295,0.0,0.818889201178,-0.573812857562,-0.0118333254194,0.0,-0.00846923557128,0.00853432341936,-0.999927716074,0.0,0.65492035175,0.252198606739,0.303479902221,1.0,-0.0165,-0.0216857142857,0.826
0.460019280946,0.509892342097,-0.124069825529,-1.41537201687,0.0758546337809,1.91603258254,0.151368355624,-0.0085197284231,-0.0825074349487,-0.000397078109234,-0.140042246057,-0.00668170054219,0.0543625912348,-0.0130116103649,0.573864811522,0.818935535043,0.00212472155844,0.0,0.818894399553,-0.573805262377,-0.0118418812034,0.0,-0.00847872414959,0.00853572584882,-0.999927623691,0.0,0.654635354412,0.251845909266,0.303458400676,1.0,-0.01684,-0.0221325714286,0.843
0.459824819848,0.508463486664,-0.1240733209,-1.417605617,0.0757089040702,1.9168188531,0.151055501536,-0.0112552441822,-0.0855236400285,0.00206328832082,-0.137322584359,-0.00671775413458,0.0489943815157,-0.0235132661222,0.573846686277,0.818948287751,0.0021046472304,0.0,0.8189068896,-0.573787217919,-0.0118524942387,0.0,-0.00849912381776,0.00852518879643,-0.9999275404,0.0,0.654353873444,0.251500243084,0.303463294556,1.0,-0.01716,-0.0225531428571,0.859
0.459607960912,0.506938172635,-0.124076603379,-1.42001050419,0.0755581683594,1.91768507404,0.150711647038,-0.0131109005064,-0.0910488866623,0.00107484893327,-0.145671381424,-0.0016947917853,0.0492496664824,-0.0226734144212,0.573828707811,0.818960920032,0.0020910414687,0.0,0.818919310031,-0.573769261365,-0.0118636112658,0.0,-0.00851622264181,0.0085202390004,-0.999927437107,0.0,0.654054862208,0.25112565744,0.303460598645,1.0,-0.0175,-0.023,0.876
0.459384465949,0.505335941714,-0.124087958653,-1.42246414457,0.0753997761346,1.91861899222,0.150377767865,-0.0145553261807,-0.0976629987201,0.000272583141276,-0.144670894555,-0.0109992352391,0.051896750616,-0.017942235805,0.573830323279,0.81895962663,0.00215335482312,0.0,0.818918947956,-0.573770750427,-0.0118164941393,0.0,-0.00844186214757,0.00854425022158,-0.999927862774,0.0,0.653762616114,0.250740624596,0.303493969066,1.0,-0.01784,-0.0234468571429,0.893
0.459174475434,0.503780369533,-0.124092161269,-1.4247883659,0.0752528857535,1.91951112922,0.150049402141,-0.0141409898077,-0.0998847706476,0.000937131657631,-0.147199279035,-0.0172395685269,0.0521395853933,-0.019888060774,0.573816306652,0.818969173885,0.00225507148692,0.0,0.818929885287,-0.573756412102,-0.0117545504669,0.0,-0.00833291319427,0.00859186358934,-0.999928368653,0.0,0.653485232897,0.250382429053,0.303551858932,1.0,-0.01816,-0.0238674285714,0.909
0.458942339626,0.502109333283,-0.124092612511,-1.42727390686,0.0750927441927,1.9204399759,0.149700668185,-0.00921147200118,-0.100507844139,0.00174191922771,-0.148401377821,-0.0114607749676,0.0587497715056,-0.01634498021,0.573805096529,0.818976763071,0.00234939314617,0.0,0.818938744682,-0.57374489803,-0.0116992027566,0.0,-0.00823358139497,0.00863723753453,-0.999928800598,0.0,0.653183847421,0.249994824114,0.303616043545,1.0,-0.0185,-0.0243142857143,0.926
0.458695222954,0.500293864114,-0.124096459622,-1.4300031976,0.0749207835072,1.92140803285,0.149320468041,-0.0144448560506,-0.10414295758,0.00588708243964,-0.151023309587,-0.009092379502,0.0571579925585,-0.0222677777317,0.573791326387,0.81898627695,0.00239558565003,0.0,0.818948812667,-0.573730912968,-0.0116802670136,0.0,-0.00819171456904,0.0086640647361,-0.999928912371,0.0,0.652839364609,0.249569378198,0.303667850875,1.0,-0.01886,-0.0247874285714,0.944
0.458462564665,0.498705425435,-0.124095432027,-1.43248410077,0.0747625929033,1.92231779663,0.148975297663,-0.0140405761779,-0.0987423017221,0.00161547438513,-0.155160286578,-0.00879690217898,0.0681018996641,-0.0192262530789,0.573781800606,0.818992916064,0.00240741180365,0.0,0.818955591016,-0.573721330439,-0.0116756945642,0.0,-0.00818128515038,0.00867103135106,-0.999928937369,0.0,0.652530530692,0.249181040544,0.30367374418,1.0,-0.01918,-0.025208,0.96
0.458208340602,0.497033650827,-0.124095802161,-1.43513016972,0.0746023653842,1.92328710936,0.148578394881,-0.0193203088857,-0.102884883141,0.000699944297509,-0.158748190396,-0.014261714605,0.0545448483042,-0.0239167424439,0.573756099299,0.819010930684,0.00240433757054,0.0,0.81897347534,-0.573695547706,-0.0116881192761,0.0,-0.00819349743707,0.00867538544807,-0.999928799609,0.0,0.652200549059,0.248763138312,0.303663789107,1.0,-0.01952,-0.0256548571429,0.977
0.457945636495,0.495357481338,-0.124098054975,-1.43782605221,0.0744299122289,1.92421391326,0.14817851303,-0.0186834530015,-0.0949588320504,-0.000238959686896,-0.162488539205,-0.00693453849674,0.0468125960757,-0.0200720328748,0.573734447446,0.819026332727,0.00232314767328,0.0,0.81898772537,-0.573674095578,-0.0117424297777,0.0,-0.00828478906565,0.00863983223237,-0.999928355218,0.0,0.65185203975,0.248328180609,0.303628947597,1.0,-0.01986,-0.0261017142857,0.994
0.457711794763,0.493981363809,-0.12409886709,-1.44010220169,0.0742879084721,1.92502394606,0.147874467961,-0.0119178132763,-0.0972622769351,0.000976842809823,-0.16624819462,-0.0109243007701,0.0607466926093,-0.021002472568,0.573753618008,0.819013122825,0.00224440728453,0.0,0.818973407037,-0.573693474912,-0.0117941642465,0.0,-0.008372134666,0.00860521996556,-0.999927926178,0.0,0.651563826029,0.24795572947,0.30357427596,1.0,-0.02088,-0.0274422857143,1.008
0.457388476027,0.491892363689,-0.124124461022,-1.44341399463,0.0740785939332,1.92626559438,0.147399763248,-0.0179367525917,-0.109646971693,-2.89992853701e-05,-0.178210469427,-0.00735532501054,0.0720569474768,-0.0249415537439,0.573757576647,0.81901033423,0.00225001455419,0.0,0.818970800129,-0.57369752342,-0.0117782451712,0.0,-0.00835583761268,0.00860071921683,-0.999928101219,0.0,0.651159183412,0.247415562779,0.303560366197,1.0,-0.0233228571429,-0.0306528979592,1.027
0.457046277653,0.489733055165,-0.124132039099,-1.44691734669,0.0738682101279,1.92749106714,0.146899482883,-0.0233025968361,-0.125292783515,7.64324956613e-05,-0.202814756966,-0.0116044637894,0.0720375162877,-0.0227796952095,0.573751241199,0.819015036641,0.0021517154856,0.0,0.818974012805,-0.573691357103,-0.0118549583194,0.0,-0.00847513171789,0.00856416100243,-0.99992741101,0.0,0.650705160759,0.246851001151,0.303501329948,1.0,-0.0256371428571,-0.0336945306122,1.045
0.456700264139,0.487578907316,-0.124156132656,-1.45028565005,0.0736617841488,1.92873596917,0.14640370564,-0.025316408234,-0.14186722965,-0.000758280400887,-0.217289375125,-0.0108268951023,0.0841579804244,-0.0290314400026,0.573757384656,0.819010675585,0.00217341490374,0.0,0.818969950433,-0.57369743029,-0.0118416919095,0.0,-0.00845175226809,0.00857438475938,-0.999927521278,0.0,0.650290201235,0.246292252387,0.303503927105,1.0,-0.0276942857143,-0.0363982040816,1.061
0.456300438695,0.485110896312,-0.124175972989,-1.45405747777,0.0734296461475,1.93018196148,0.145847910138,-0.0249629098575,-0.147458164465,-0.00701563309813,-0.223026465102,-0.0162870345369,0.0832530957605,-0.0313651228078,0.573767714037,0.819003122847,0.00228954094158,0.0,0.818963985876,-0.573707388293,-0.0117715486156,0.0,-0.00832756885443,0.00862935225695,-0.999928090353,0.0,0.649836522881,0.24566697471,0.303548443075,1.0,-0.02988,-0.0392708571429,1.078
0.455857955544,0.482456315076,-0.124211367882,-1.45816825808,0.0731722238037,1.93158167741,0.145210639026,-0.0257253123583,-0.15791807799,-0.00144537571233,-0.245479127223,-0.0129019716905,0.0880605730801,-0.0496439401953,0.573765081332,0.819005107094,0.00223895041329,0.0,0.818965222662,-0.57370485756,-0.0118087841472,0.0,-0.00838711927522,0.00860925627525,-0.999927765859,0.0,0.649307885557,0.244960725029,0.303556113328,1.0,-0.0320657142857,-0.0421435102041,1.095
0.455451723172,0.479972915106,-0.124245210566,-1.46207296094,0.0729277565107,1.93299205346,0.144637002689,-0.0294447632252,-0.169899382858,-0.000158180745093,-0.258866652147,-0.0215108725748,0.0940114332096,-0.0371732145687,0.573776709038,0.818997006508,0.00222225060536,0.0,0.818956927786,-0.573716572145,-0.0118149133842,0.0,-0.00840159845087,0.00859921520924,-0.999927730709,0.0,0.648814750676,0.244304044604,0.303542611813,1.0,-0.0339942857143,-0.0446782040816,1.11
0.454923712817,0.476778702472,-0.124269401962,-1.46691765632,0.0726410488129,1.93477364444,0.143940672773,-0.0316589202203,-0.180612246031,-0.00344399367881,-0.270664801128,-0.0192609931998,0.0987343053258,-0.0364527247614,0.573813864896,0.818970648817,0.00233917307506,0.0,0.818931962624,-0.573753143214,-0.0117693732138,0.0,-0.0082968230523,0.00866922003784,-0.999928001084,0.0,0.648209505256,0.243490810491,0.303603985815,1.0,-0.0363085714286,-0.0477198367347,1.128
0.454384182815,0.473595277333,-0.124292090505,-1.47181197615,0.0723399943164,1.9365545306,0.143240390769,-0.0340708673495,-0.192760146237,-0.00267813373836,-0.29034506556,-0.017343916057,0.0964701519918,-0.0376854664163,0.573839711634,0.818952343325,0.00240657755141,0.0,0.818914424232,-0.573778619943,-0.011747679877,0.0,-0.00824010586522,0.00871223404035,-0.999928096232,0.0,0.647552497069,0.242619147429,0.303636459214,1.0,-0.0386228571429,-0.0507614693878,1.146
0.453861243759,0.470442213044,-0.124291419591,-1.47666603016,0.0720292170815,1.93824084109,0.14250653303,-0.0331038300587,-0.199686573347,-0.00010078597334,-0.302380263995,-0.0196616900318,0.1072088729,-0.0455864859723,0.573826145249,0.818961901777,0.00238859121409,0.0,0.818923569576,-0.573764933266,-0.0117786012773,0.0,-0.00827589516044,0.0087151108036,-0.999927775593,0.0,0.646948874529,0.241857582676,0.303646676266,1.0,-0.0405514285714,-0.0532961632653,1.161
0.453246910049,0.4666832921,-0.124291861338,-1.48229211049,0.0716684242228,1.94040776202,0.141587635901,-0.0308500823826,-0.212433349178,-0.00224768695864,-0.318658553988,-0.021358993709,0.115785441678,-0.0506066904757,0.573745877431,0.819017368829,0.00263905066405,0.0,0.818982397858,-0.573683888511,-0.0116350746439,0.0,-0.0080155016973,0.00883708229267,-0.999928826322,0.0,0.646247591752,0.240933441649,0.303751057337,1.0,-0.0428657142857,-0.0563377959184,1.179
0.452616059649,0.46298364387,-0.124293090576,-1.48802256779,0.0712920879492,1.94236424038,0.140731345224,-0.0363887983325,-0.228203321595,-0.000197238828297,-0.34524211057,-0.017484950503,0.120039501925,-0.0536578399084,0.573727660142,0.819030333379,0.00257524637843,0.0,0.81899430669,-0.573665648278,-0.0116960034513,0.0,-0.00810220721533,0.00881960262005,-0.999928281852,0.0,0.645475700232,0.239970044622,0.303743721409,1.0,-0.0450514285714,-0.0592104489796,1.196
0.451985566638,0.459382457538,-0.124299601348,-1.49361682245,0.0708997249158,1.94430878682,0.139911146468,-0.0370949048679,-0.22852298232,0.00200445952364,-0.354230593069,-0.0327727897537,0.120708510765,-0.0499435256926,0.573728908527,0.819029640893,0.00251669627523,0.0,0.818992901854,-0.573667159187,-0.0117202425248,0.0,-0.00815563704484,0.00878556748638,-0.999928147113,0.0,0.644729139821,0.23901610403,0.303729378861,1.0,-0.0471085714286,-0.061914122449,1.212
0.451262261117,0.455469533427,-0.124315227754,-1.49981152929,0.0704941613337,1.94651881413,0.138934049837,-0.0435001681342,-0.230230369733,1.45313175939e-05,-0.371221616985,-0.0233059683148,0.127551397507,-0.0662581146273,0.573707174731,0.819045074598,0.0024475170761,0.0,0.819007330359,-0.573645568689,-0.0117686551132,0.0,-0.00823521023341,0.00875646489096,-0.999927750207,0.0,0.643911749508,0.237946913583,0.3036640797,1.0,-0.0492942857143,-0.0647867755102,1.229
0.450505890365,0.451270916953,-0.124376376263,-1.50616467527,0.0700529968028,1.94881965629,0.137911499574,-0.0465844975097,-0.251072576116,-0.00627833699636,-0.370950241426,-0.0259054594496,0.149847538369,-0.0590553693589,0.573702369057,0.819048149029,0.00254326784626,0.0,0.819012029042,-0.573640823774,-0.0116725527022,0.0,-0.00810161640401,0.00877970713393,-0.999928637731,0.0,0.643092697442,0.236816267686,0.303724247816,1.0,-0.05148,-0.0676594285714,1.246
0.449761790344,0.447177394097,-0.124422727401,-1.5123845881,0.0696407473598,1.95100805591,0.136994558826,-0.0482204596967,-0.256286625255,-0.00101220803218,-0.394962431814,-0.0249958699124,0.131191249471,-0.0584880930698,0.573762356616,0.819005998656,0.00258441433299,0.0,0.818970452528,-0.573700702235,-0.0116468469033,0.0,-0.00805631227049,0.00879925071503,-0.999928831977,0.0,0.642267323832,0.235714984754,0.303761521537,1.0,-0.0535371428571,-0.0703631020408,1.262
0.4489277568,0.442696022308,-0.124440799885,-1.51931723278,0.069163481371,1.95333833899,0.135923608705,-0.0538009411377,-0.266911724461,6.96946943844e-05,-0.411974639879,-0.0278332691362,0.139827282052,-0.0691458906171,0.573758742967,0.819008879582,0.00247122146182,0.0,0.818971708106,-0.573697325265,-0.0117246410298,0.0,-0.00818500955731,0.00875114424732,-0.999928208969,0.0,0.641309811851,0.234495180737,0.303732679466,1.0,-0.0557228571429,-0.073235755102,1.279
0.448005646535,0.437848408638,-0.12444841175,-1.52685538551,0.0686593226277,1.95597587765,0.134698872089,-0.0541170926269,-0.267209704393,-0.000742773175737,-0.421721454146,-0.0262490543052,0.154561267207,-0.0638696763289,0.573710167159,0.819043056642,0.00242123233725,0.0,0.819005022096,-0.573648713436,-0.0117760033781,0.0,-0.00825627594549,0.00873918256671,-0.999927727686,0.0,0.640279307792,0.233176673361,0.303687539473,1.0,-0.0580371428571,-0.0762773877551,1.297
0.447122756683,0.433285125484,-0.124470358674,-1.53361556861,0.0681959417735,1.95846209745,0.13360549534,-0.0528100236178,-0.290770476534,-0.00236504688958,-0.422977614948,-0.0307684971061,0.165723572339,-0.0771797247944,0.57372077228,0.819034913089,0.00265207417561,0.0,0.819000091453,-0.573658719948,-0.0116305687238,0.0,-0.00800461048061,0.0088449181547,-0.999928844285,0.0,0.639393337153,0.231959898488,0.303799399557,1.0,-0.0600942857143,-0.0789810612245,1.313
0.446141999731,0.428415036413,-0.124512148335,-1.54119202458,0.0676275781891,1.96103195598,0.132401916663,-0.0564217502349,-0.298059997952,-0.000827196029178,-0.454340045514,-0.0361291871264,0.150206327929,-0.0654573027907,0.573735674705,0.819024965768,0.00249558028607,0.0,0.818988384828,-0.57367446582,-0.0116781712345,0.0,-0.00813321969776,0.00874420307326,-0.999928692283,0.0,0.638344577731,0.230569461865,0.30373539914,1.0,-0.06228,-0.0818537142857,1.33
0.445116594697,0.423305008755,-0.124572180606,-1.54899245359,0.0670628353356,1.96361631717,0.131103339877,-0.0572838084004,-0.302824410473,-0.00220003890672,-0.467762839926,-0.0371668728867,0.149830515515,-0.0740089830109,0.573728995378,0.819029991199,0.00237913423625,0.0,0.818991981772,-0.573668300124,-0.0117286882004,0.0,-0.00824147217433,0.00867774743488,-0.999928384854,0.0,0.637250297526,0.229120826872,0.303723421475,1.0,-0.0644657142857,-0.0847263673469,1.347
0.44410613711,0.418372742421,-0.12460970075,-1.55645470768,0.0665464506836,1.96620887057,0.129925704329,-0.0638834227526,-0.310121568921,-0.00041013321349,-0.467692856936,-0.0305134992848,0.174142517115,-0.0754833989155,0.573788775502,0.818987995426,0.00241895786899,0.0,0.818950495827,-0.573727918486,-0.0117093055364,0.0,-0.0082021149221,0.00869984233081,-0.999928516472,0.0,0.636219771466,0.227742113154,0.303745418428,1.0,-0.0665228571429,-0.0874300408163,1.363
0.442985991297,0.413003162488,-0.124627327128,-1.56445246856,0.0660040385964,1.96914797214,0.128562776725,-0.068181739464,-0.317096065739,-0.00133896409392,-0.474017179896,-0.0437478027244,0.167303439119,-0.0837936592859,0.573783477241,0.818990914017,0.00267411746905,0.0,0.818956797634,-0.573721807093,-0.0115671334769,0.0,-0.0079393305688,0.00882718669774,-0.999929521419,0.0,0.635141669018,0.226269570859,0.303831695868,1.0,-0.0687085714286,-0.0903026938775,1.38
0.441825173024,0.407514858608,-0.124662746191,-1.57287305465,0.0653988756611,1.97187047313,0.127168707275,-0.0651445247509,-0.332032212243,-0.00142068950143,-0.507979960033,-0.033629621323,0.15967853962,-0.0801769336252,0.573790516632,0.818986584043,0.0024829583628,0.0,0.818949737804,-0.573729237347,-0.0116976948539,0.0,-0.00815586636742,0.00874561285395,-0.999928495493,0.0,0.633915637573,0.224693789668,0.303772439741,1.0,-0.0708942857143,-0.0931753469388,1.397
0.440686723795,0.402244773057,-0.12471448868,-1.58098623605,0.0648449026564,1.97457632887,0.125827387919,-0.0711674588402,-0.331498401986,-0.00288948638141,-0.507879039424,-0.0356693365088,0.175365932328,-0.0899650991896,0.573833266522,0.818956986152,0.0023630418093,0.0,0.818918257411,-0.573772082723,-0.0117996469377,0.0,-0.00830771582254,0.00870633565066,-0.999927588167,0.0,0.632745151374,0.22316490904,0.303704217342,1.0,-0.0729514285714,-0.0958790204082,1.413
0.439331008447,0.396033714667,-0.124737510445,-1.59004606594,0.0641649418786,1.97783327169,0.124256886117,-0.078931210846,-0.343676689859,-0.000868171893699,-0.508107476907,-0.0357982418656,0.179063413212,-0.0866699144831,0.573839115933,0.818951935009,0.00267283963953,0.0,0.818917733044,-0.573777366367,-0.0115770139425,0.0,-0.00794755609579,0.00883234927439,-0.999929410488,0.0,0.631494304478,0.221437839493,0.303856522799,1.0,-0.0752657142857,-0.0989206530612,1.431
0.438019031936,0.390109439047,-0.124755118003,-1.59900803576,0.0635035275472,1.98075985964,0.122764923668,-0.0825584403845,-0.351951557233,0.00396351464203,-0.535704798366,-0.0380958274787,0.169967297999,-0.0881014266911,0.573863387997,0.818935276617,0.00256349967773,0.0,0.818899450878,-0.573801785347,-0.0116596477323,0.0,-0.0080777116701,0.00879046267259,-0.999928736631,0.0,0.630168697235,0.219735944653,0.303826089486,1.0,-0.0774514285714,-0.101793306122,1.448
0.436752617278,0.384441314301,-0.124775025512,-1.60760941961,0.0628632994704,1.98354898343,0.121195982537,-0.0847127757432,-0.360545642051,-0.00242600237439,-0.523840027253,-0.0396810474939,0.172163980199,-0.101574684193,0.57377469623,0.818997834862,0.0024272119736,0.0,0.818960009839,-0.573713351705,-0.0117575193404,0.0,-0.00823701755461,0.00873412478872,-0.999927930706,0.0,0.628880612496,0.218097986159,0.303775327421,1.0,-0.0795085714286,-0.104496979592,1.464
0.435363484545,0.378197815985,-0.124773893724,-1.61671945752,0.0622248652479,1.98674275602,0.119607645113,-0.0897050882956,-0.355607493406,-0.0001292517891,-0.536656173263,-0.037719162159,0.191602943572,-0.0898305008835,0.573770892711,0.818999624079,0.00270653599728,0.0,0.818965279044,-0.573708391853,-0.0116318415616,0.0,-0.00797386497341,0.00889074229926,-0.999928683546,0.0,0.627560406755,0.216374077244,0.303891831233,1.0,-0.0816942857143,-0.107369632653,1.481
0.433888145949,0.371913974265,-0.124802007739,-1.62621759529,0.0614677719557,1.98982521788,0.117899035939,-0.0842997446827,-0.367858821775,-0.00875467308173,-0.562077785601,-0.0476738589593,0.180260281246,-0.0987340900815,0.573729343063,0.819029223012,0.00255336303557,0.0,0.818993021347,-0.573667527772,-0.0116938217621,0.0,-0.00811295649126,0.00880044462037,-0.99992836349,0.0,0.62612779605,0.214516021571,0.303833395734,1.0,-0.08388,-0.110242285714,1.498
0.432448625898,0.365820688697,-0.124857235112,-1.63522348213,0.0607750107394,1.99275081942,0.116376908267,-0.0929869435151,-0.38574300677,-0.000249260455557,-0.555974728897,-0.0439034446149,0.194192931911,-0.100490677533,0.573826568749,0.818961159388,0.00253679179342,0.0,0.818924805176,-0.57376486836,-0.0116955634359,0.0,-0.00812284657176,0.00878883597356,-0.999928385299,0.0,0.624771543635,0.212722479296,0.303858598851,1.0,-0.0859371428571,-0.112945959184,1.514
0.430764657963,0.358857241116,-0.124875056152,-1.64544234435,0.0599898552824,1.99625201495,0.114418651482,-0.0994149787974,-0.378254439952,-0.00154853177679,-0.576434139788,-0.0399876576346,0.184523105956,-0.106761039549,0.573748066499,0.819015583106,0.00271619582658,0.0,0.818981757114,-0.573685975715,-0.0115771189559,0.0,-0.00792374993607,0.00886703516519,-0.999929292437,0.0,0.623253981419,0.210700001789,0.303922889892,1.0,-0.0882514285714,-0.115987591837,1.532
0.429200898071,0.352592385929,-0.124913342372,-1.65485685749,0.059289334236,1.99920902361,0.11270616392,-0.0928539020785,-0.394311238349,-0.00175968386285,-0.592179471642,-0.045453320518,0.189245180998,-0.108126932067,0.573776617649,0.818996112765,0.00255092477845,0.0,0.818959648643,-0.573714554975,-0.0117239159909,0.0,-0.00813849564013,0.00881618306196,-0.999928017312,0.0,0.621786322854,0.20880770127,0.303850284606,1.0,-0.0903085714286,-0.118691265306,1.548
0.427471659372,0.345764408953,-0.124992881362,-1.66482249586,0.0585485268313,2.00251336754,0.110802347795,-0.101798651032,-0.40698963144,-0.00247813107283,-0.580467568847,-0.0407104395334,0.199393224286,-0.104573096728,0.573815958508,0.818968142386,0.00267851089294,0.0,0.818933297285,-0.573753396957,-0.0116636606459,0.0,-0.0080155160925,0.00888648746303,-0.999928388357,0.0,0.62027829534,0.206754770381,0.303906382717,1.0,-0.0924942857143,-0.121563918367,1.565
0.425679586203,0.338827965463,-0.12498448253,-1.67496192932,0.0577410172598,2.00577772291,0.108917505969,-0.107488352676,-0.410896496709,0.0015578603318,-0.603071039026,-0.0444293003462,0.186661680795,-0.118685365418,0.573829059671,0.8189588611,0.00270942862215,0.0,0.818924321966,-0.573766283243,-0.0116599317041,0.0,-0.00799457951906,0.00890979618406,-0.999928348548,0.0,0.618696055935,0.204692050285,0.303933659065,1.0,-0.09468,-0.124436571429,1.582
0.423865268996,0.331811001379,-0.124993471293,-1.6854330786,0.0568742980687,2.00898035814,0.106921277049,-0.111590555311,-0.417343743741,0.00164941171389,-0.611897689184,-0.0578306190998,0.195105022777,-0.118983714341,0.573764307853,0.819004998565,0.0024654130547,0.0,0.818967062696,-0.573702175921,-0.0118114547887,0.0,-0.00825938669704,0.00879625262443,-0.999927201586,0.0,0.617001290126,0.202565357178,0.303840051544,1.0,-0.0968657142857,-0.12730922449,1.599
0.422114839177,0.32499127537,-0.124986005866,-1.69509708054,0.0561281660637,2.01221870368,0.104978381336,-0.108467064494,-0.413647806032,0.000877244365282,-0.599589439524,-0.042484440502,0.208710130698,-0.123594423794,0.573683864381,0.819060301683,0.00279156878803,0.0,0.819026616649,-0.573620586846,-0.0116434731855,0.0,-0.00793555811761,0.00896621445887,-0.999928314388,0.0,0.615495492204,0.200600548393,0.30398800526,1.0,-0.0989228571428,-0.130012897959,1.615
0.420140058525,0.317736038435,-0.125016061091,-1.70572049144,0.0552629525627,2.01554980321,0.102953247444,-0.114851329006,-0.426917030557,-0.00160215804433,-0.628561944771,-0.0582395827629,0.190186052527,-0.120912315856,0.573731274765,0.819027287427,0.00273380814343,0.0,0.818992738835,-0.57366806239,-0.0116873791504,0.0,-0.00800413812652,0.00894455616786,-0.999927961749,0.0,0.613786572046,0.198372626003,0.30396261317,1.0,-0.101108571429,-0.13288555102,1.632
0.418110743656,0.310304006897,-0.125077741456,-1.7164270101,0.0543418005137,2.01888591248,0.10072666823,-0.120483501705,-0.447775797114,-0.0025961124455,-0.625064494434,-0.0579317972027,0.197243465639,-0.123404383607,0.573655762449,0.819080177505,0.00273421440289,0.0,0.819045972962,-0.573592937206,-0.0116440312674,0.0,-0.00796922255929,0.00891928465445,-0.999928466368,0.0,0.612057297717,0.196087019158,0.303998674797,1.0,-0.103294285714,-0.135758204082,1.649
0.416128242104,0.303244257235,-0.125102131034,-1.72661570682,0.0535003363872,2.02209325006,0.0986296277808,-0.127623267868,-0.447728832233,-0.00126429442591,-0.651222724302,-0.0549096811052,0.197140958938,-0.13670272398,0.573620844172,0.819104490932,0.00277614279139,0.0,0.819070800666,-0.573557847107,-0.0116261094268,0.0,-0.00793087265472,0.00894300838335,-0.999928559378,0.0,0.610399721799,0.193916545382,0.30401353774,1.0,-0.105351428571,-0.138461877551,1.665
0.413756833983,0.295254916924,-0.125168910377,-1.73832775767,0.052560865013,2.0255444238,0.0963054627614,-0.133634173191,-0.441750065146,-0.00670209429404,-0.636415390887,-0.0564995660882,0.194102106986,-0.135812813796,0.573755601726,0.819010850037,0.00254635240915,0.0,0.818973436998,-0.573692597362,-0.0118347000426,0.0,-0.00823208270752,0.008875791315,-0.999926723887,0.0,0.608442484401,0.19134290085,0.303914957511,1.0,-0.107665714286,-0.141503510204,1.683
0.41150472642,0.287447750532,-0.125266149299,-1.74923205912,0.0516334933622,2.02910479685,0.0939555536357,-0.138368336567,-0.449279338153,-0.00265552226542,-0.660325566208,-0.0614434224671,0.198859646939,-0.138009484795,0.57376410705,0.819003766593,0.00288559683114,0.0,0.818971469955,-0.573700697955,-0.011575295527,0.0,-0.00782489237341,0.0090048839523,-0.99992883903,0.0,0.606693810469,0.188926337389,0.304071861525,1.0,-0.109851428571,-0.144376163265,1.7
0.40943167542,0.28058194753,-0.125285933618,-1.75922041118,0.0507711430571,2.03198577629,0.0918434800018,-0.143281688724,-0.46151270838,0.000375005241636,-0.682369392684,-0.0598539615467,0.189009612029,-0.14227237016,0.573731940435,0.819027143079,0.00263558846489,0.0,0.818991222479,-0.57366897053,-0.0117489001413,0.0,-0.008110868955,0.00889941443614,-0.999927504486,0.0,0.604861360676,0.186581378762,0.303974839277,1.0,-0.111908571429,-0.147079836735,1.716
0.406855781516,0.272142775391,-0.125363107644,-1.77111935397,0.0497324249585,2.03564347449,0.0892655046081,-0.142326796689,-0.474405446684,-0.00657416605793,-0.656276444757,-0.0553474668781,0.208903933606,-0.148326871907,0.57378289338,0.818990949894,0.00278606481425,0.0,0.818957239695,-0.573719674116,-0.0116413910171,0.0,-0.00793592648105,0.00896147150674,-0.999928353983,0.0,0.602988103326,0.184046696651,0.304053402945,1.0,-0.114094285714,-0.149952489796,1.733
0.404163079353,0.263643410188,-0.125462113605,-1.78319008438,0.0486844748467,2.03922898911,0.0866319921334,-0.154953501425,-0.470734343664,-0.00455327025835,-0.680642440932,-0.0557978299855,0.20069471957,-0.144947524667,0.57387835489,0.818924132331,0.0027651718,0.0,0.818890111935,-0.57381515077,-0.0116577966748,0.0,-0.00796030681402,0.00895470142792,-0.999928220843,0.0,0.60093354288,0.181271449716,0.304052142094,1.0,-0.116408571429,-0.152994122449,1.751
0.401714882652,0.25598224778,-0.125556506834,-1.79400125809,0.0476942332769,2.04235246545,0.0842314116355,-0.152934746813,-0.489676796493,-0.0041526852285,-0.659650442078,-0.0611092759206,0.198362902319,-0.151521639563,0.573933219568,0.818885918074,0.00269435652078,0.0,0.818851157711,-0.573870453675,-0.0116717956977,0.0,-0.00801181178872,0.00890527969346,-0.999928250859,0.0,0.599061714021,0.178762218726,0.304057098685,1.0,-0.118465714286,-0.155697795918,1.767
0.39906586466,0.247737765014,-0.125549333466,-1.80558803268,0.0466518021044,2.04580650526,0.0815999984666,-0.155317692419,-0.480291306796,0.0011334866541,-0.686201113112,-0.057806454535,0.19467254649,-0.159178633606,0.573874961003,0.818926536499,0.00275750842422,0.0,0.818892582857,-0.57381197046,-0.011640755981,0.0,-0.00795078571257,0.00893861367643,-0.999928440536,0.0,0.597037406334,0.176144263822,0.304072987051,1.0,-0.120651428571,-0.15857044898,1.784
0.396341911972,0.239437582011,-0.125564033892,-1.81733499989,0.045628839854,2.04911982599,0.0788705026384,-0.161356259676,-0.49273284189,-0.000162726998107,-0.692044220447,-0.0575699094139,0.192319680244,-0.166938232363,0.573813796456,0.818969753353,0.00264896024071,0.0,0.818933667479,-0.573750395105,-0.0117847056263,0.0,-0.00813163203447,0.00893172136377,-0.999927047796,0.0,0.594927627711,0.173463901608,0.304018438538,1.0,-0.122837142857,-0.161443102041,1.801
0.393724267362,0.23142788411,-0.125561244462,-1.82824686367,0.0446497372824,2.0524216912,0.0763413367925,-0.164511615637,-0.491459906249,2.38653048467e-05,-0.691038279512,-0.0755926253686,0.203420763033,-0.164238755784,0.573799143063,0.818978954999,0.00295999826363,0.0,0.818947141608,-0.573734928735,-0.011599900923,0.0,-0.00780197055527,0.00908027014973,-0.999928336407,0.0,0.593010820759,0.170956786463,0.304153866881,1.0,-0.124894285714,-0.16414677551,1.817
0.390841272063,0.22290123507,-0.125561143468,-1.84026747311,0.043514860405,2.05563994467,0.0734491527517,-0.174386293968,-0.496744348147,-0.00272450291295,-0.716220371864,-0.0698478732263,0.179918473559,-0.176544728861,0.57366211809,0.819075820714,0.00270575153368,0.0,0.819040160876,-0.573598184097,-0.011793429222,0.0,-0.00810785465406,0.00898173568473,-0.999926792879,0.0,0.590781003785,0.168177134035,0.304064881797,1.0,-0.12708,-0.167019428571,1.834
0.387997001061,0.214707028338,-0.125646334667,-1.851360236,0.0425017110651,2.05889651922,0.0707535340455,-0.178237849392,-0.511376768808,-0.00569335848158,-0.698945542863,-0.0533057111367,0.208724260485,-0.162972243269,0.573734962571,0.819023861398,0.002975581571,0.0,0.818992024588,-0.573670442655,-0.0116204038743,0.0,-0.00781053523213,0.0091041848408,-0.999928052091,0.0,0.588808965466,0.165492698949,0.304189266484,1.0,-0.129137142857,-0.169723102041,1.85
0.38488819192,0.206018556183,-0.125680114557,-1.86342741803,0.0413572678644,2.06217035086,0.0677864178959,-0.183683918118,-0.51593906631,-0.00161896936719,-0.716053544927,-0.0743629193631,0.190702027434,-0.17371763729,0.573720666531,0.819034277544,0.0028628489591,0.0,0.819000654599,-0.573656158949,-0.0117169094497,0.0,-0.00795441267577,0.00906708284014,-0.999927255018,0.0,0.586568544324,0.162594231215,0.30414257449,1.0,-0.131322857143,-0.172595755102,1.867
0.381493575325,0.196619905984,-0.125748448759,-1.87620591318,0.0401225388091,2.0656501974,0.0645271928025,-0.194088631469,-0.521831910575,-0.000958367401016,-0.704364558096,-0.0710266944055,0.213390533472,-0.177025853392,0.57369574029,0.819051576573,0.00290850265873,0.0,0.819018601247,-0.573631140929,-0.0116872524088,0.0,-0.00790420699322,0.00908721965906,-0.999927470345,0.0,0.584194518258,0.159466804944,0.304190965397,1.0,-0.133637142857,-0.175637387755,1.885
0.378142019135,0.187760588506,-0.125881401326,-1.88839854832,0.0389908958126,2.0689673825,0.0613878562633,-0.196564184097,-0.528796504091,-0.00537472487949,-0.737511014172,-0.06801295781,0.1904952491,-0.181591078783,0.573799211902,0.818979180384,0.00288330014454,0.0,0.818945521623,-0.573734278324,-0.0117455263969,0.0,-0.00796524680982,0.00910101475354,-0.999926860512,0.0,0.581921463286,0.156404335547,0.304149751166,1.0,-0.135822857143,-0.178510040816,1.902
0.375089113616,0.179772057222,-0.126014748107,-1.89913913796,0.0379618219315,2.07178463237,0.0585481174242,-0.202108230836,-0.540597021249,-0.0125538092393,-0.706613055487,-0.062908710197,0.198890899767,-0.184788174722,0.573900021049,0.818908406891,0.00292127777142,0.0,0.818875097461,-0.573834775608,-0.0117461466986,0.0,-0.00794284042988,0.00913345130459,-0.999926742993,0.0,0.579895899082,0.153649272941,0.304195982746,1.0,-0.137751428571,-0.181044734694,1.917
0.371588014396,0.170707815196,-0.126030507788,-1.91140917019,0.0366791565184,2.07507222016,0.0553202290074,-0.20779890764,-0.528732475882,0.000838586714991,-0.739542859846,-0.0715596818122,0.187689113701,-0.189502245582,0.573874338885,0.818926408561,0.00292017674417,0.0,0.818893531747,-0.573809615071,-0.0116900049437,0.0,-0.00789778032784,0.00910008291079,-0.999927404143,0.0,0.577549576799,0.150581734424,0.30419407405,1.0,-0.139937142857,-0.183917387755,1.934
0.367135312955,0.159295318366,-0.126051486765,-1.92663055878,0.0351717504187,2.07900031682,0.0510774876792,-0.210083033921,-0.554701521989,-0.00293990373846,-0.714763432501,-0.0778887223627,0.199829674358,-0.193267434483,0.573750443023,0.819012917872,0.00300273059358,0.0,0.818980809425,-0.573685102283,-0.0116869206007,0.0,-0.00784926825711,0.00916473105368,-0.999927195696,0.0,0.57458325159,0.146750631614,0.304245375167,1.0,-0.142637142857,-0.187465959184,1.955
0.36428361099,0.152224052327,-0.126080174834,-1.93606439652,0.0341553643483,2.08149096898,0.0484699191413,-0.220375350317,-0.538354076136,-0.00122365992251,-0.730610343791,-0.0722372485195,0.180387807206,-0.199813254475,0.573735912161,0.819022931983,0.00304743880694,0.0,0.818991939868,-0.573671054623,-0.0115961381587,0.0,-0.00774942484063,0.00914912487318,-0.999928117381,0.0,0.572750480964,0.144324085309,0.304262261261,1.0,-0.144308571429,-0.189662693878,1.968
0.360213922797,0.142318416566,-0.126149942286,-1.94936708981,0.032838527879,2.08462531888,0.0447481456167,-0.229527622805,-0.555411967906,-0.00331739803977,-0.712040670934,-0.0736081879991,0.183158112751,-0.207868841448,0.57377297671,0.818997688476,0.00284681738229,0.0,0.818962973455,-0.57370751582,-0.0118355946826,0.0,-0.00806023934297,0.00912255805796,-0.999925902993,0.0,0.570062245866,0.140881053382,0.304191100005,1.0,-0.146622857143,-0.192704326531,1.986
0.356260718895,0.132834754312,-0.126249393248,-1.96175350374,0.0315660775061,2.08784978915,0.0410779919607,-0.23553778253,-0.550538721245,-0.00590825495192,-0.735389556747,-0.0818009160725,0.187042863289,-0.215776620789,0.573769306558,0.818999422123,0.00307836237825,0.0,0.818968096928,-0.57370347503,-0.0116758663044,0.0,-0.00779661067118,0.00922051181493,-0.999927094854,0.0,0.56762462765,0.137599559684,0.304277248724,1.0,-0.148808571429,-0.195576979592,2.003
0.352402079242,0.123871412653,-0.126364552977,-1.97366587131,0.0302760853866,2.09058408864,0.037624452776,-0.245494813518,-0.568844206661,-0.00779958803768,-0.750484103113,-0.0840283407144,0.171949361853,-0.208552740547,0.57384791016,0.81894512217,0.00286527143692,0.0,0.818910700855,-0.573782432851,-0.011820773142,0.0,-0.00803667681996,0.00912990318347,-0.999926025611,0.0,0.565181475571,0.134399507688,0.304212802822,1.0,-0.150865714286,-0.198280653061,2.019
0.34790657457,0.113595656067,-0.126496004542,-1.98687524678,0.0288579739184,2.09390355091,0.0335447913989,-0.251044673778,-0.555917950232,-0.00474847570521,-0.74119858454,-0.0809038538285,0.175736041779,-0.230383285539,0.573900749988,0.818907120665,0.00313110012449,0.0,0.818876829439,-0.573835143548,-0.0116065988894,0.0,-0.0077081395934,0.0092251987637,-0.999927737535,0.0,0.562533358021,0.130774892334,0.304331928122,1.0,-0.15318,-0.201322285714,2.037
0.343591409131,0.103909442086,-0.126525024514,-1.9995882745,0.0274465034562,2.09673330518,0.029621940292,-0.257883829253,-0.566123453951,-0.000279685391898,-0.762381456939,-0.0836768234675,0.17036432615,-0.23265944355,0.573829086957,0.818958055841,0.00293745422357,0.0,0.818924850661,-0.573763672242,-0.0117509270301,0.0,-0.00793826466872,0.0091487541318,-0.999926639435,0.0,0.559854694464,0.127355364426,0.304268735824,1.0,-0.155365714286,-0.204194938775,2.054
0.339732507501,0.0952063430103,-0.126520332745,-2.0106232653,0.0262603342508,2.09937839967,0.0260523240648,-0.26177109849,-0.571188272949,-0.00152760381404,-0.739076580245,-0.0702944690722,0.176793065813,-0.240972639649,0.573704247946,0.819044616904,0.00317778374579,0.0,0.819014748876,-0.573638298438,-0.0116056275299,0.0,-0.00768277621064,0.00926102787398,-0.999927601535,0.0,0.55755778742,0.124381953137,0.304375404845,1.0,-0.157294285714,-0.206729632653,2.069
0.334905048105,0.0847871741715,-0.126561129057,-2.02421674509,0.0248334957393,2.10226375751,0.0216907868967,-0.275923524305,-0.576613877532,-0.00618394246159,-0.773948491437,-0.090914446556,0.156393169697,-0.250970538295,0.573675138097,0.819065750934,0.00297967748385,0.0,0.819031887366,-0.573608199753,-0.0118805536496,0.0,-0.00802194160639,0.00925620733961,-0.999924982725,0.0,0.554620621599,0.1206720485,0.304273874165,1.0,-0.159608571429,-0.209771265306,2.087
0.330471810425,0.07532708117,-0.126696225061,-2.03596287799,0.0234274015862,2.10501367013,0.0177142312291,-0.279933605242,-0.583949058602,-0.00983235811012,-0.725227010093,-0.0832523450564,0.166847850309,-0.246120946185,0.573688655751,0.819055199163,0.0032640292414,0.0,0.819026464707,-0.573622453868,-0.0115618955798,0.0,-0.00759765650231,0.0093064338411,-0.999927830348,0.0,0.552162918093,0.117288520069,0.304438902141,1.0,-0.161665714286,-0.212474938775,2.103
0.326181439706,0.0665338678503,-0.126813440336,-2.04734358409,0.0221670641108,2.10738141066,0.0139091642789,-0.289610220332,-0.589108131758,-0.0083922796046,-0.766573925361,-0.0890597757587,0.148428823052,-0.266573700329,0.573774661142,0.818995722458,0.00306459278558,0.0,0.81896348777,-0.573708014793,-0.0117756682402,0.0,-0.0078861923083,0.0092665480603,-0.999925966789,0.0,0.549502089234,0.113824896856,0.304333018228,1.0,-0.163722857143,-0.215178612245,2.119
0.320840194062,0.055750806173,-0.126975987942,-2.06072616728,0.0206038912619,2.11019987116,0.00917007371476,-0.296203998722,-0.598954794936,-0.00511281168851,-0.736667561031,-0.0840456489978,0.163572258284,-0.266202905978,0.573827633938,0.818957989758,0.00322559173307,0.0,0.818928374827,-0.573761069731,-0.0116317954691,0.0,-0.00767538064622,0.00931635363698,-0.999927144389,0.0,0.546768276521,0.110093934488,0.304442016663,1.0,-0.165908571429,-0.218051265306,2.136
0.315740017551,0.0456290067941,-0.127015171488,-2.07359381166,0.0191729991948,2.1128145217,0.00467279997065,-0.306666777949,-0.591716055947,-0.00696162242996,-0.765019467142,-0.0778176392776,0.150284623148,-0.262963973462,0.573835393969,0.818952876242,0.00314229621542,0.0,0.818921263593,-0.573768008738,-0.0117891087547,0.0,-0.00785192665456,0.00933848084883,-0.999925567242,0.0,0.543888993458,0.106418997634,0.304363030786,1.0,-0.168094285714,-0.220923918367,2.153
0.310812323439,0.0358865969185,-0.127049532294,-2.08554049254,0.017776782779,2.11521587316,0.000232383640342,-0.310193258985,-0.6217099754,-0.00368136978374,-0.75180235156,-0.090065853733,0.157397072956,-0.283376610927,0.57373681832,0.819021361841,0.00328923286546,0.0,0.818991755339,-0.573669061659,-0.0117072320737,0.0,-0.00770169030629,0.0094109058686,-0.999926056675,0.0,0.541207549495,0.102932041947,0.304448460121,1.0,-0.16998,-0.223402285714,2.169
0.305392174935,0.0256499293674,-0.127134514233,-2.09828347052,0.0161820658664,2.11770242886,-0.0045188422371,-0.323845005795,-0.608336364158,-0.00610635520253,-0.739997838078,-0.088349911785,0.134871481764,-0.293462137858,0.573732380778,0.819024786753,0.00320949093785,0.0,0.818994452919,-0.57366526546,-0.0117045373062,0.0,-0.00774528182107,0.00934400723046,-0.999926347357,0.0,0.538314739585,0.0991191101742,0.304416979322,1.0,-0.16998,-0.223402285714,2.186
0.299530654995,0.0147418763842,-0.127308587505,-2.11153419383,0.0145824756422,2.12017201365,-0.00965421266435,-0.328355705925,-0.61806649612,-0.00949614251193,-0.726907035223,-0.0897079017296,0.145421673458,-0.284660027724,0.573829370304,0.818956494251,0.00329563386846,0.0,0.818927304692,-0.57376198848,-0.011661779705,0.0,-0.00765972825577,0.00939093707053,-0.999926566736,0.0,0.535277166703,0.0950380721462,0.304482732835,1.0,-0.16998,-0.223402285714,2.204
0.294545790205,0.00580716519837,-0.127415692156,-2.12252206738,0.0132865369289,2.12210819382,-0.0140107904715,-0.336405119696,-0.606393461163,-0.00267749378489,-0.732135997906,-0.0824271174714,0.132185055552,-0.298722995329,0.573900268494,0.818907088471,0.00322632553233,0.0,0.818876214383,-0.573832157415,-0.0117960813428,0.0,-0.00780867562826,0.00941191669666,-0.999925217408,0.0,0.53270656815,0.0916432205986,0.304440554204,1.0,-0.16998,-0.223402285714,2.219
0.288560838696,-0.00496304493384,-0.127426215081,-2.13544800731,0.0117315358076,2.12443196619,-0.0193115720003,-0.325770213063,-0.607085849913,0.00032983208937,-0.705286109328,-0.0958696725442,0.141543513921,-0.300915704938,0.573814811259,0.818966393631,0.00336977504224,0.0,0.818937262141,-0.573746071985,-0.0117453164949,0.0,-0.00768577227286,0.00949945380874,-0.999925341854,0.0,0.529662311049,0.0876895890222,0.304501874498,1.0,-0.16998,-0.223402285714,2.237
0.28212375673,-0.0161914583541,-0.127441911108,-2.14899859767,0.00995455703328,2.12675692605,-0.024922186004,-0.33795312505,-0.596321559398,0.000971954012984,-0.708310722337,-0.0938432338139,0.106241444542,-0.299461099399,0.573735859871,0.819021951102,0.00330962425876,0.0,0.818992392605,-0.573667769862,-0.0117259361254,0.0,-0.00770532266763,0.00943832885307,-0.99992577022,0.0,0.526419634493,0.083484139608,0.304485080997,1.0,-0.16998,-0.223402285714,2.256
0.27728483641,-0.0244410653,-0.127501256189,-2.158874642,0.00873149514077,2.12824754362,-0.0291981748514,-0.347347048145,-0.590750038452,-0.00670629682827,-0.682162097562,-0.0805691939593,0.115046740753,-0.306601828092,0.57370357139,0.819044899552,0.00322670008233,0.0,0.819013488853,-0.573634834676,-0.0118629011909,0.0,-0.00786545258036,0.00944868158857,-0.99992442568,0.0,0.524001446322,0.080354486954,0.304465483045,1.0,-0.16998,-0.223402285714,2.27
0.271248283946,-0.0344395751189,-0.127684886181,-2.17060768602,0.00717740532501,2.13026879921,-0.0343291782733,-0.356309738441,-0.575665334101,-0.00899887649469,-0.707267833322,-0.0868059304859,0.108920660395,-0.302476314318,0.573895120973,0.818910002383,0.00339779650467,0.0,0.818881761471,-0.573826931743,-0.0116644776219,0.0,-0.00760255662699,0.00947676283985,-0.999926193326,0.0,0.521186871871,0.0764621126922,0.304539449621,1.0,-0.16998,-0.223402285714,2.287
0.265225150506,-0.0443093004435,-0.127731682687,-2.1824348813,0.00577801242524,2.13192756174,-0.0396639933111,-0.358799882471,-0.572432048699,-0.00222711704314,-0.686491972014,-0.0829655295625,0.0985441320187,-0.311716180473,0.573849006903,0.8189428908,0.00325665255005,0.0,0.818910932979,-0.573779014084,-0.0119697011822,0.0,-0.00793405555396,0.00953589310998,-0.999923055792,0.0,0.518209780842,0.0726969845232,0.304441664536,1.0,-0.16998,-0.223402285714,2.304
0.259103310049,-0.0542583073839,-0.127753880486,-2.19374609813,0.00421278781032,2.13375840534,-0.0449644933755,-0.364270356597,-0.577024063585,-0.000468183165345,-0.672242764317,-0.0923051516222,0.0980066425934,-0.31755022148,0.573806196942,0.818971693885,0.00354399038167,0.0,0.818945141083,-0.573737290291,-0.0116243076462,0.0,-0.007486803629,0.0095726177682,-0.999926153654,0.0,0.515422062298,0.0689444323357,0.304603862489,1.0,-0.16998,-0.223402285714,2.321
0.252894083605,-0.0639870561483,-0.12780401592,-2.2053185782,0.00272421625016,2.13523631063,-0.0504096278014,-0.362426498338,-0.571868656519,-0.0028624778497,-0.677625965242,-0.0943657063068,0.0869259989413,-0.318925823025,0.573757935718,0.819006521431,0.00330090223434,0.0,0.818975374003,-0.573688074918,-0.0119195794675,0.0,-0.00786867656468,0.00954249467441,-0.999923509437,0.0,0.512435846278,0.0651649518815,0.304472875015,1.0,-0.16998,-0.223402285714,2.338
0.245777668262,-0.074958449205,-0.127968220078,-2.21772625595,0.00103992475142,2.13695135991,-0.0566033611692,-0.38216521249,-0.573668559883,-0.0169832358822,-0.644667360348,-0.0913162331095,0.0887260970969,-0.328477081323,0.573825506767,0.818958363453,0.0034976585919,0.0,0.818930455719,-0.573755790559,-0.0117451435091,0.0,-0.00761212819333,0.00960418698116,-0.999924904729,0.0,0.509273846531,0.0608699694766,0.304585355348,1.0,-0.16998,-0.223402285714,2.357
0.240443811237,-0.0828913345097,-0.128044451262,-2.22691380777,-0.000143167471926,2.13810281829,-0.0612393959304,-0.378233367526,-0.574618989727,-0.000148139743776,-0.648719028451,-0.0814097022422,0.0781878594635,-0.329142183108,0.573868578076,0.818928338759,0.00346092113676,0.0,0.818899169791,-0.573797998857,-0.0118639422242,0.0,-0.00772999770073,0.00964267475155,-0.999923630063,0.0,0.506874335358,0.0577208534856,0.304537479857,1.0,-0.16998,-0.223402285714,2.371
0.23327728276,-0.093702728458,-0.128053644703,-2.23917495198,-0.00178336653089,2.13950320186,-0.0675751126603,-0.381086816157,-0.569196600334,-0.00131419243174,-0.630020604107,-0.0877388771402,0.0809037530286,-0.338338278504,0.573725919596,0.819028322771,0.00345290938542,0.0,0.818998495136,-0.573654699797,-0.0119372219407,0.0,-0.00779629527057,0.00967680753439,-0.999922785607,0.0,0.503611658593,0.0535802622452,0.304544301101,1.0,-0.16998,-0.223402285714,2.39
0.227424397951,-0.102176445556,-0.128118708405,-2.24865193509,-0.003157324217,2.14064909028,-0.0726460843478,-0.388219295481,-0.561016936181,-0.00370933519675,-0.628984336035,-0.0889664153209,0.0683262463675,-0.34114206823,0.573719170463,0.819032778693,0.00351678408772,0.0,0.81900452942,-0.573648660178,-0.0118128051633,0.0,-0.00765782359385,0.00965768081626,-0.999924040585,0.0,0.501098611602,0.0502213331414,0.304587927236,1.0,-0.16998,-0.223402285714,2.405
0.22028772422,-0.112244433422,-0.128292351639,-2.26012525387,-0.00474770259661,2.1417516328,-0.0788148823503,-0.403951789188,-0.562154690951,-0.00811445337419,-0.633541644594,-0.0925099754265,0.0581156486313,-0.343162593155,0.573824758918,0.818959614331,0.00332310838715,0.0,0.81892761207,-0.573753419249,-0.0120551644428,0.0,-0.00796620139715,0.00963912262921,-0.999921810418,0.0,0.497961723865,0.0461338830113,0.304490492984,1.0,-0.16998,-0.223402285714,2.423
0.213866546791,-0.121256334425,-0.128385932273,-2.26985219825,-0.00612601666095,2.14286991048,-0.0843859001383,-0.396168401326,-0.553347713532,-0.00148208083858,-0.608963888841,-0.081704119281,0.0653481848709,-0.344174275262,0.573869818049,0.818926809816,0.00361372359779,0.0,0.818899770894,-0.573798892857,-0.0117789085734,0.0,-0.00757265921881,0.00971902466751,-0.999924094815,0.0,0.49533776716,0.0425566250738,0.304633871725,1.0,-0.16998,-0.223402285714,2.439
0.206601174437,-0.131208909215,-0.128427130562,-2.28089675524,-0.00764399644233,2.14383420198,-0.0907921754553,-0.405905602876,-0.560119708701,-0.00413999023403,-0.605843976822,-0.0917270072377,0.0459787875869,-0.355225215041,0.573789546032,0.818983257134,0.00356767430871,0.0,0.818954783362,-0.57371772687,-0.0119071233076,0.0,-0.00770504498096,0.00975413461513,-0.999922741585,0.0,0.492246916212,0.0385878688309,0.304602309365,1.0,-0.16998,-0.223402285714,2.457
0.200833951372,-0.138922393682,-0.128497133132,-2.28941030458,-0.00890456468484,2.14453226238,-0.0958412677512,-0.409333719064,-0.548429658847,-0.00243744563119,-0.595462213673,-0.081042741882,0.0516969174049,-0.351970415686,0.573754760474,0.819007991588,0.00348302301774,0.0,0.818978221488,-0.573683010026,-0.0119676078605,0.0,-0.00780356559196,0.00971917910224,-0.999922317944,0.0,0.489839494828,0.0354528113458,0.304572471445,1.0,-0.16998,-0.223402285714,2.471
0.193317595725,-0.148860220947,-0.128663123511,-2.30001706535,-0.0103912989472,2.14554816983,-0.102392103542,-0.424819915015,-0.545494345323,-0.00412002572787,-0.600267994805,-0.0810701966638,0.0474103880102,-0.3701760458,0.573859698522,0.818933176937,0.00377425818144,0.0,0.818907878546,-0.573787790109,-0.0117560740785,0.0,-0.00746195949801,0.00983729628537,-0.999923770476,0.0,0.486860908279,0.0314089964759,0.304679464511,1.0,-0.16998,-0.223402285714,2.489
0.186108602314,-0.158116126743,-0.12876780912,-2.31012639947,-0.0119316313223,2.14612650557,-0.108724901939,-0.416019955605,-0.538362127414,0.000997830706395,-0.598344183662,-0.0921632124809,0.029481004362,-0.372149461398,0.573812438216,0.818967213886,0.00356864530162,0.0,0.818938533407,-0.573740334693,-0.0119353990023,0.0,-0.00772737349366,0.00977136968128,-0.999922401006,0.0,0.483900493253,0.0275863145984,0.304614857289,1.0,-0.16998,-0.223402285714,2.506
0.17929752956,-0.166836246521,-0.128788373895,-2.31927594363,-0.01321171968,2.146790648,-0.114696987434,-0.431213814228,-0.554123617063,-0.0022625604753,-0.562570919869,-0.085741667861,0.0495096005457,-0.384624644532,0.573788790742,0.818982805817,0.00378606614038,0.0,0.818957296119,-0.573716372614,-0.0117990604911,0.0,-0.00749124376409,0.00987098518737,-0.999923219512,0.0,0.481236424502,0.0240847410022,0.304709796022,1.0,-0.16998,-0.223402285714,2.522
0.171935345407,-0.17593219449,-0.128866833656,-2.32903846017,-0.0146355278495,2.1473617175,-0.121182916441,-0.4339191912,-0.530474727131,-0.0113939556675,-0.576494903386,-0.0844202136694,0.031326679858,-0.379046285812,0.573757944137,0.819004557689,0.0037553861299,0.0,0.818978115371,-0.573684936163,-0.0118822331287,0.0,-0.00757734052301,0.00989329518343,-0.999922350296,0.0,0.478332255934,0.0203131224374,0.304672800995,1.0,-0.16998,-0.223402285714,2.539
0.163885507201,-0.185578663285,-0.12906853929,-2.33926696023,-0.0161873773068,2.14780682259,-0.128181991718,-0.446284208821,-0.53562128264,-0.00581947637278,-0.564744483107,-0.0753361749609,0.0240443633879,-0.388731936097,0.573891337205,0.818911378146,0.00369252287635,0.0,0.81888348904,-0.573817721205,-0.0119917100559,0.0,-0.00770146102279,0.00990587525449,-0.999921277468,0.0,0.475234141443,0.0161908680277,0.304645860314,1.0,-0.16998,-0.223402285714,2.557
0.157238046837,-0.193611673752,-0.129106139743,-2.34745221601,-0.0174245085708,2.14828660883,-0.134077989813,-0.44125394099,-0.535720659186,-0.0025002235329,-0.551323522413,-0.0890523233195,0.0269537623111,-0.395886222957,0.573818590747,0.818961258629,0.00392793568191,0.0,0.81893758186,-0.573745683845,-0.0117419840191,0.0,-0.00736273562268,0.00995469453019,-0.999923344152,0.0,0.472763880328,0.0128962950314,0.304761944054,1.0,-0.16998,-0.223402285714,2.572
0.148657745042,-0.203582222062,-0.129181642929,-2.35794877106,-0.0190056290974,2.1485758394,-0.141701716351,-0.456716171911,-0.528277523318,-0.0107908939577,-0.552973413509,-0.0794822413629,0.00950577220138,-0.406163165087,0.5737332152,0.819021626281,0.00381055925731,0.0,0.818995418341,-0.573659382285,-0.0119232861923,0.0,-0.00757961210918,0.0099618076916,-0.999921652865,0.0,0.469483791438,0.00868447359397,0.304698023238,1.0,-0.16998,-0.223402285714,2.591
0.141272248912,-0.211985608153,-0.129356289819,-2.36664469473,-0.0202778431639,2.14878588422,-0.148194227279,-0.47115417829,-0.530217735932,-0.0158681165263,-0.531758737602,-0.0741023410453,0.0134054892374,-0.408071199528,0.573842066842,0.818945221472,0.00384102226313,0.0,0.818918531953,-0.573766952072,-0.0120278691381,0.0,-0.00764646153648,0.0100477750496,-0.999920283744,0.0,0.466736428614,0.00506841601169,0.30468333295,1.0,-0.16998,-0.223402285714,2.607
0.133375343278,-0.22084834853,-0.129444442033,-2.37551021941,-0.0216816666586,2.14907765401,-0.155120284422,-0.462547013317,-0.524417245857,-0.00156844190941,-0.52742796253,-0.0859689385242,0.0141218240257,-0.409197423533,0.573872947554,0.818922629076,0.00403912794937,0.0,0.818899737848,-0.57379876849,-0.0117872614555,0.0,-0.00733534972582,0.0100722252155,-0.999922368448,0.0,0.463931412825,0.0012865334061,0.304788626776,1.0,-0.16998,-0.223402285714,2.624
0.125882617791,-0.229024846104,-0.129483741444,-2.38400684587,-0.0230257469171,2.14915240247,-0.161816300283,-0.478571585613,-0.519175220881,-0.00587313943976,-0.525317732379,-0.0822264090729,0.00350938742882,-0.429714529113,0.573749986334,0.819009517325,0.0038872373593,0.0,0.818983888653,-0.573675322724,-0.0119482687122,0.0,-0.00755587911835,0.0100390970627,-0.999921059495,0.0,0.461162045169,-0.0022384011962,0.304703624958,1.0,-0.16998,-0.223402285714,2.64
0.117729104184,-0.237749412467,-0.1296174129,-2.39281933729,-0.0244339542735,2.14916479344,-0.169028853351,-0.482147434052,-0.519133888064,-0.0137547529342,-0.507697114684,-0.0873396282269,0.00199793020883,-0.425013021737,0.573774609142,0.818992362781,0.00386710622939,0.0,0.818966185588,-0.573699635499,-0.0119942483495,0.0,-0.00760478677703,0.0100492178752,-0.999920587066,0.0,0.458251390955,-0.00606355523723,0.304696840091,1.0,-0.16998,-0.223402285714,2.657
0.109937864863,-0.245924343567,-0.129773845198,-2.40078348209,-0.0256931832443,2.14925995139,-0.175907996798,-0.478874577823,-0.505788866242,-0.00346024554764,-0.502523822886,-0.0779608751861,0.00168065560767,-0.433979458489,0.573873700593,0.818921748588,0.00411003147449,0.0,0.818899773456,-0.573799280509,-0.0117598308863,0.0,-0.00727218818172,0.010114556249,-0.999922402505,0.0,0.455615078743,-0.00968133708532,0.304807552625,1.0,-0.16998,-0.223402285714,2.673
0.100683318818,-0.25544778168,-0.129837081589,-2.41042196675,-0.0271741976237,2.1491788543,-0.184240450904,-0.496194221787,-0.499563817123,-0.00789554116481,-0.505477105422,-0.0856826434782,-0.00393354841487,-0.447782640738,0.573755504852,0.819004845864,0.00405339423154,0.0,0.818981158578,-0.57367995045,-0.0119131543619,0.0,-0.00743172323369,0.0101550869161,-0.999920818715,0.0,0.452339095582,-0.0138614527946,0.304731691974,1.0,-0.16998,-0.223402285714,2.692
0.0932093657465,-0.262933602473,-0.129938109506,-2.41785185526,-0.0283843342953,2.14905851041,-0.19082421108,-0.500416718156,-0.495633819891,-0.0056212146726,-0.493792440709,-0.067564718334,-0.00825602200915,-0.442839018213,0.57381411741,0.818963858053,0.00403791593062,0.0,0.818939784201,-0.573738356461,-0.0119446674262,0.0,-0.00746568740655,0.010161024429,-0.999920505387,0.0,0.449772963981,-0.0172230905645,0.30471203887,1.0,-0.16998,-0.223402285714,2.707
0.0851250526895,-0.270913371226,-0.130115694734,-2.42537336158,-0.02962258893,2.14896757905,-0.198033366908,-0.507015920485,-0.49547052551,-0.00934995230178,-0.466882783163,-0.0717022763201,-0.00986188682713,-0.448175415628,0.57390099754,0.818901562911,0.00431534302512,0.0,0.818882559361,-0.5738263582,-0.0116366451459,0.0,-0.00705314511942,0.0102122380154,-0.999922978703,0.0,0.446988911969,-0.021076866893,0.304855625698,1.0,-0.16998,-0.223402285714,2.724
0.076073743389,-0.27968157865,-0.130158299489,-2.43406060378,-0.0310342015905,2.14867819276,-0.206256416154,-0.507230738432,-0.483895336594,4.97004187548e-06,-0.476204335359,-0.0832814600802,-0.0191064035187,-0.463322888609,0.573718960043,0.819029642055,0.00421274547734,0.0,0.819008553475,-0.573643598683,-0.0117795554282,0.0,-0.00723132981551,0.0102086254173,-0.999921742856,0.0,0.444057215775,-0.0247834625423,0.304780515917,1.0,-0.16998,-0.223402285714,2.741
0.067271671046,-0.287932398526,-0.130274704779,-2.44206405799,-0.0323512866282,2.14834654951,-0.214103709664,-0.520355561084,-0.483113991131,-0.00647890460231,-0.465719443012,-0.0709833379392,-0.0192963775465,-0.464735904671,0.573756178248,0.819003605274,0.00420587352959,0.0,0.818982105692,-0.573680380737,-0.0118270121018,0.0,-0.00727367846405,0.010230553393,-0.999921211586,0.0,0.441148742022,-0.0285943416662,0.304760302985,1.0,-0.16998,-0.223402285714,2.758
0.0588564191755,-0.295681633249,-0.13045269678,-2.44926614072,-0.0334858112136,2.14807992987,-0.221620517844,-0.524425593367,-0.489082802589,-0.00564307399657,-0.446364739992,-0.0724511371402,-0.012246932687,-0.469038641194,0.573894880264,0.81890498416,0.00447663101765,0.0,0.818887739215,-0.573819261603,-0.011622068602,0.0,-0.00694872658397,0.0103359029203,-0.999922439147,0.0,0.438502625134,-0.0322187654675,0.304866491052,1.0,-0.16998,-0.223402285714,2.774
0.049442045795,-0.304227981074,-0.130534582373,-2.4573703739,-0.0349007434119,2.14763707861,-0.230188432985,-0.528774778018,-0.47637444345,-0.00573146788751,-0.452319548,-0.0767097244251,-0.0253062206337,-0.478358813001,0.573754331664,0.819003488959,0.00447200974072,0.0,0.818986606322,-0.573679377834,-0.0115610126813,0.0,-0.00690314286306,0.0102958954132,-0.999923167627,0.0,0.43546113213,-0.036186311919,0.304877287611,1.0,-0.16998,-0.223402285714,2.792
0.0413802166452,-0.311255644755,-0.130644653474,-2.46415187154,-0.0360316624936,2.14711096784,-0.237373655183,-0.535682380555,-0.471580752445,-0.00484187379256,-0.452794919927,-0.0720170990023,-0.0264681812268,-0.489827774512,0.573825542602,0.818954209593,0.00435845712441,0.0,0.818934687998,-0.573749218951,-0.01177104278,0.0,-0.00713942112097,0.0103240155048,-0.999921218582,0.0,0.432845197433,-0.0395495612131,0.304800943126,1.0,-0.16998,-0.223402285714,2.807
0.0316122458449,-0.319639292048,-0.130831283501,-2.47195513204,-0.0373515533892,2.14657855623,-0.24620380985,-0.543570009981,-0.460985313275,-0.00522397884919,-0.425116329241,-0.0766519792916,-0.026814430007,-0.495966856801,0.573880435208,0.818915221215,0.00445572099185,0.0,0.818897111757,-0.573804005584,-0.0117145394072,0.0,-0.0070366395543,0.0103717217121,-0.999921453461,0.0,0.429804474789,-0.0436056516711,0.304825991295,1.0,-0.16998,-0.223402285714,2.825
0.0218744902275,-0.327915309098,-0.130907081762,-2.47944839038,-0.0386108881801,2.1460651591,-0.255157870158,-0.556457074428,-0.449465775174,-0.00915475164919,-0.415094656546,-0.0679626786057,-0.0309667828364,-0.497969446916,0.573753351644,0.819003097428,0.00466527396144,0.0,0.818988901693,-0.573678127277,-0.0114600213639,0.0,-0.00670955654398,0.010396233425,-0.999923447161,0.0,0.426844495091,-0.0475554094046,0.304926550453,1.0,-0.16998,-0.223402285714,2.843
0.0117921039744,-0.336014949556,-0.131053184509,-2.48711889124,-0.0398906770431,2.14525252066,-0.264218545964,-0.563989856171,-0.444625120783,-0.0114060354442,-0.419274937068,-0.0657830054929,-0.0457780285205,-0.506984664024,0.573854730154,0.818932785329,0.00453747658175,0.0,0.818915184849,-0.573777221743,-0.0117629389622,0.0,-0.0070296910045,0.010466228145,-0.999920517598,0.0,0.423699309541,-0.0516088895988,0.304823398782,1.0,-0.16998,-0.223402285714,2.861
0.00338601995784,-0.342798407946,-0.131176776418,-2.49327226512,-0.0409414272296,2.14464454364,-0.271833939386,-0.559572651813,-0.452785916753,-0.00652768056175,-0.410656190142,-0.0619439253635,-0.0405588124316,-0.515598592321,0.573900575165,0.81890023197,0.00461376262541,0.0,0.818883700257,-0.573822928947,-0.0117251255911,0.0,-0.00695435917625,0.0105073936313,-0.999920612633,0.0,0.421149411523,-0.0549563937162,0.304849487924,1.0,-0.16998,-0.223402285714,2.876
-0.00676934914963,-0.350742588646,-0.131276724443,-2.50039212693,-0.0422212466146,2.14388165115,-0.2811676204,-0.575113801137,-0.438258330039,-0.00100703767192,-0.390183753358,-0.0727050022103,-0.0349617429213,-0.518834215516,0.573809533322,0.818963689285,0.00467354279651,0.0,0.818948529684,-0.5737326238,-0.011615895043,0.0,-0.0068317638203,0.0104929043363,-0.999921609908,0.0,0.418134754359,-0.0589479158105,0.304896875489,1.0,-0.16998,-0.223402285714,2.894
-0.0166123569249,-0.358154295897,-0.131437294101,-2.50698169166,-0.0433861448615,2.14313177214,-0.290107561817,-0.580318251787,-0.427156682857,-0.0136403382816,-0.400853253687,-0.0669423123402,-0.0527457490722,-0.524386104016,0.573897812158,0.818901238584,0.00477593412172,0.0,0.818887797267,-0.573821193624,-0.0115221584941,0.0,-0.00669510654512,0.0105236983377,-0.999922210635,0.0,0.415274229179,-0.0627971949197,0.30494243686,1.0,-0.16998,-0.223402285714,2.911
-0.0274927813391,-0.366303746089,-0.131505543351,-2.5143977165,-0.0447088463443,2.14214555146,-0.300249825374,-0.568169949525,-0.423872282522,-0.00359348583257,-0.386374521658,-0.0587637587518,-0.0442036997341,-0.530572455069,0.57367271427,0.819059524459,0.00467538185489,0.0,0.819043982033,-0.573595197972,-0.0116726715356,0.0,-0.00687896865791,0.0105258391896,-0.999920940125,0.0,0.412000437644,-0.0669399926176,0.304883417957,1.0,-0.16998,-0.223402285714,2.93
-0.0351427382153,-0.371795424893,-0.131597576357,-2.51930838005,-0.0455707487889,2.1414867005,-0.307256001447,-0.588088879611,-0.422786002095,-0.00863174166022,-0.381362000737,-0.0651634360498,-0.0538525380905,-0.544056084675,0.573689012064,0.819048043653,0.0046868460996,0.0,0.819032357511,-0.573611009369,-0.011711284368,0.0,-0.0069038109481,0.0105575170343,-0.999920434949,0.0,0.409779296298,-0.0698450247537,0.304870628329,1.0,-0.16998,-0.223402285714,2.943
-0.047133508478,-0.380113754439,-0.131783776657,-2.52648100678,-0.0468643443023,2.14045793948,-0.31808444504,-0.594352105898,-0.41965498007,-0.0015320695784,-0.345934797332,-0.061459410997,-0.0445085058642,-0.546723594615,0.573912163392,0.818890863341,0.00483006714223,0.0,0.818877679321,-0.573834684364,-0.0115692796697,0.0,-0.00670244640582,0.0105951884867,-0.999921406508,0.0,0.406430769663,-0.0743860085174,0.304949589887,1.0,-0.16998,-0.223402285714,2.963
-0.0547760879632,-0.385412675235,-0.131847231834,-2.5310894265,-0.0477267375011,2.13980947487,-0.32531664218,-0.590134128999,-0.398156725051,-0.00838059583504,-0.35733483628,-0.065065815642,-0.0571220224925,-0.568685993296,0.573720623386,0.819024871977,0.00486336167126,0.0,0.819012620772,-0.573643877044,-0.0114793835486,0.0,-0.00661219030182,0.0105693171658,-0.999922281217,0.0,0.404264123522,-0.0772241890447,0.304972378638,1.0,-0.16998,-0.223402285714,2.976
-0.0669807632408,-0.393482700253,-0.132046877811,-2.53825648029,-0.0490480101408,2.13860007606,-0.336513260018,-0.619874343709,-0.406420353653,-0.0145569377699,-0.357375339985,-0.0559536588106,-0.0670733528728,-0.558451806357,0.573806721601,0.818965027755,0.00478293432244,0.0,0.818950498904,-0.573728254587,-0.0116926102566,0.0,-0.00683186585726,0.0106264894007,-0.999920198482,0.0,0.400778562184,-0.081733561253,0.304901535471,1.0,-0.16998,-0.223402285714,2.996
-0.0755588234896,-0.399027670757,-0.132142375775,-2.54301531588,-0.0499292986183,2.13779854589,-0.344445166367,-0.603680473454,-0.388171154326,-0.00251134922039,-0.341807392458,-0.0639302982163,-0.0576338619282,-0.563850453989,0.573811056937,0.818961782476,0.00481836929349,0.0,0.818947838299,-0.57373267255,-0.0116621394159,0.0,-0.00678652125299,0.0106380624771,-0.999920384209,0.0,0.398406734338,-0.0848624421194,0.30491935458,1.0,-0.16998,-0.223402285714,3.01
-0.0852984307751,-0.405215125118,-0.132220572059,-2.54836198287,-0.0509194902898,2.13684010419,-0.353622817179,-0.622449900078,-0.379694219299,-0.00683865437434,-0.329558178881,-0.0637734041752,-0.0622239637973,-0.573825475169,0.573656815595,0.819069912997,0.00480441944848,0.0,0.819055485362,-0.573578028492,-0.0117091430347,0.0,-0.00683502892691,0.0106523209001,-0.999919902012,0.0,0.395695165083,-0.0883631154349,0.304906413879,1.0,-0.16998,-0.223402285714,3.026
-0.0966753002686,-0.412040086218,-0.132419176205,-2.55405316158,-0.0519768634487,2.13585656278,-0.364047236891,-0.631485128848,-0.378033140138,-0.0139257501021,-0.312594584662,-0.0593547250192,-0.0528178553746,-0.580679895042,0.573863566572,0.818924099711,0.0049671697603,0.0,0.818912591043,-0.573785530092,-0.0115360560916,0.0,-0.00659719123146,0.0106880059287,-0.999921118687,0.0,0.392689244915,-0.0924784791671,0.304975564224,1.0,-0.16998,-0.223402285714,3.044
-0.106614293243,-0.418025410541,-0.132487413251,-2.55910164109,-0.0528728223221,2.13488059572,-0.373462356734,-0.614627662823,-0.376077089052,-0.00331663987696,-0.316760912136,-0.0487305206378,-0.0653838891796,-0.59859302079,0.573718725121,0.819025199129,0.0050293676548,0.0,0.819014400859,-0.57364037607,-0.011527229919,0.0,-0.0065561696535,0.0107327188279,-0.999920909565,0.0,0.389991333568,-0.0959730676059,0.304990742283,1.0,-0.16998,-0.223402285714,3.06
-0.117457375352,-0.424258334919,-0.132635901827,-2.5644662845,-0.0539326544869,2.13370512784,-0.383556796418,-0.648065616027,-0.367655053346,-0.0062978927439,-0.31169677962,-0.0633461623545,-0.0696470932271,-0.59151012975,0.573728424362,0.81901903921,0.00492497642787,0.0,0.819005740215,-0.573648548628,-0.0117340126141,0.0,-0.00678530479558,0.0107659278109,-0.99991902394,0.0,0.387023203707,-0.0997791310691,0.304930476984,1.0,-0.16998,-0.223402285714,3.077
-0.128412866269,-0.430314969949,-0.132768293503,-2.5695475316,-0.0549323274482,2.13267746331,-0.393696859636,-0.63124409923,-0.355868022444,-0.00157800920711,-0.303198957041,-0.053078307494,-0.0602397665399,-0.605717614979,0.573816969819,0.818956912868,0.00494033561304,0.0,0.818943922632,-0.573737202886,-0.0117141158497,0.0,-0.00675903194958,0.010767823601,-0.999919181465,0.0,0.38413226618,-0.103598635966,0.304930057292,1.0,-0.16998,-0.223402285714,3.094
-0.139285352411,-0.43613616646,-0.132854196503,-2.5744374525,-0.0557958383339,2.13161693813,-0.404052512923,-0.647574817933,-0.336881311766,-0.00738153215855,-0.285885633119,-0.0565193439537,-0.0688959363944,-0.607156348163,0.573692642926,0.819043695761,0.00499227281482,0.0,0.81903075345,-0.5736117262,-0.0117881028881,0.0,-0.00679147588549,0.0108517817964,-0.999918053986,0.0,0.381273907541,-0.107320621631,0.304910830002,1.0,-0.16998,-0.223402285714,3.111
-0.149902450954,-0.441581755304,-0.133030978997,-2.57880106119,-0.0567218439539,2.13060111059,-0.413876768457,-0.67308400254,-0.337490736203,-0.00981146672346,-0.267843587559,-0.0571786257155,-0.0591514707585,-0.605894698421,0.573855419732,0.81892930752,0.00504910188356,0.0,0.818917850738,-0.573775494875,-0.0116611373632,0.0,-0.00665272429941,0.0108268149885,-0.999919257409,0.0,0.378571705085,-0.110996223701,0.304974421467,1.0,-0.16998,-0.223402285714,3.127
-0.16095371039,-0.447308979374,-0.133103250754,-2.5834075562,-0.0576248410839,2.12955427573,-0.424432219248,-0.650204003395,-0.335551355505,-0.00870066884695,-0.280305037841,-0.0552211390146,-0.0676314873527,-0.622034630951,0.573693984132,0.819041954857,0.00512207534055,0.0,0.819032187805,-0.57361508827,-0.0115218379226,0.0,-0.00649889408096,0.0108053617113,-0.999920501107,0.0,0.375719829574,-0.114721819385,0.305028104189,1.0,-0.16998,-0.223402285714,3.144
-0.172289846442,-0.452782967659,-0.133279831744,-2.58800342328,-0.0584998180937,2.12839636543,-0.435078864835,-0.676009709375,-0.313434045413,-0.00958304819426,-0.270395335242,-0.047746626272,-0.0679162473784,-0.637093465523,0.573779622878,0.818982019689,0.00511299297341,0.0,0.81897077999,-0.573698506151,-0.0117316863458,0.0,-0.00667485225867,0.0109190046354,-0.999918107489,0.0,0.372764063271,-0.118527904672,0.304966374654,1.0,-0.16998,-0.223402285714,3.161
-0.183006494767,-0.457780435827,-0.133344010184,-2.59204874925,-0.0592777479243,2.12736365313,-0.445232154424,-0.658474363696,-0.309486149244,0.00228967998172,-0.242806500034,-0.0450253431355,-0.0619767056649,-0.630602801839,0.573745917626,0.819005431608,0.0051450856619,0.0,0.8189944589,-0.573664455099,-0.0117437706091,0.0,-0.00666678751003,0.0109519479511,-0.999917801012,0.0,0.370054408405,-0.122079381922,0.304974477065,1.0,-0.16998,-0.223402285714,3.177
-0.195101364854,-0.463120697963,-0.133455151881,-2.59639869588,-0.0601565743746,2.12630382463,-0.45678184838,-0.674670462727,-0.29573805341,-0.0141951187757,-0.241749014896,-0.0489612585234,-0.0616016971832,-0.64427509934,0.573670859479,0.819057834513,0.00517258241889,0.0,0.819047236106,-0.573589347387,-0.011731687549,0.0,-0.00664212030648,0.0109669277604,-0.999917800988,0.0,0.367036628833,-0.126079670822,0.304965018759,1.0,-0.16998,-0.223402285714,3.195
-0.206780399766,-0.468107524614,-0.133604313853,-2.60046714849,-0.0610397067442,2.12521296716,-0.467729923799,-0.684359594866,-0.293639397565,-0.00254898453611,-0.23586612926,-0.0576269894176,-0.0569140117903,-0.64687718802,0.573786067253,0.818977368516,0.0051347625271,0.0,0.818965822241,-0.573703912942,-0.0118130934862,0.0,-0.00672895241668,0.0109835949368,-0.999917037479,0.0,0.364102002957,-0.129920142704,0.304935486738,1.0,-0.16998,-0.223402285714,3.212
-0.216939739201,-0.472447010593,-0.133677481841,-2.6037914698,-0.061689362656,2.12429175178,-0.477507876333,-0.686489798412,-0.282801325332,-0.00542585002615,-0.21751165708,-0.0506655042814,-0.0676523896654,-0.660910976759,0.573696525271,0.819039397191,0.00524496354249,0.0,0.819029997982,-0.573615204407,-0.01167075751,0.0,-0.0065503454757,0.0109914671302,-0.999918136961,0.0,0.361603767544,-0.133218172944,0.305005410738,1.0,-0.16998,-0.223402285714,3.227
-0.229491916461,-0.47742947729,-0.133869621066,-2.60763256896,-0.062529998206,2.12322823053,-0.489366884971,-0.703216017455,-0.266210878388,-0.0060236651994,-0.213561132314,-0.0519737868648,-0.0667911001631,-0.650051030207,0.573837651194,0.818939937886,0.00533620732623,0.0,0.818932494173,-0.573757335245,-0.0115254995968,0.0,-0.00637712660751,0.010983970668,-0.999919339069,0.0,0.358553344923,-0.137318123837,0.305064412535,1.0,-0.16998,-0.223402285714,3.245
-0.241164856661,-0.4818756342,-0.13390731761,-2.61121725301,-0.0632600246136,2.12221223758,-0.500699597689,-0.685001304704,-0.254847608932,-0.0130539171836,-0.20501562945,-0.0452059451951,-0.057080872054,-0.671317022707,0.573638571537,0.819079476816,0.00532417176442,0.0,0.819071471421,-0.57355763148,-0.0115894338005,0.0,-0.00643907199918,0.0110092354133,-0.999918664236,0.0,0.355682009358,-0.141026391229,0.305036840185,1.0,-0.16998,-0.223402285714,3.262
-0.251037863905,-0.485397250717,-0.134012457396,-2.61406424257,-0.063887151491,2.12134420622,-0.510069354148,-0.712093725355,-0.248180417976,-0.0113631019042,-0.196830647087,-0.0417591825965,-0.0626167130979,-0.677806576013,0.573704357136,0.819033597265,0.00529377526968,0.0,0.81902449298,-0.573622306071,-0.0117079792515,0.0,-0.00655272694536,0.0110528631179,-0.999917444586,0.0,0.353265100601,-0.144174132997,0.304999890005,1.0,-0.16998,-0.223402285714,3.276
-0.264380444656,-0.489935110685,-0.134106738989,-2.61771303122,-0.0646310984884,2.12023009382,-0.522930485763,-0.70238835511,-0.232840667396,-0.00349288518379,-0.191629313802,-0.027467671277,-0.0595377713602,-0.684416238452,0.573650024556,0.819071566736,0.00530705128307,0.0,0.819061714251,-0.57356639102,-0.0118427295001,0.0,-0.00665622490764,0.0111405990811,-0.999915787315,0.0,0.350034940413,-0.1483802705,0.30495709147,1.0,-0.16998,-0.223402285714,3.295
-0.277187574412,-0.494076157495,-0.134282507413,-2.62096312266,-0.0653103335859,2.11924609268,-0.5352029861,-0.714978648953,-0.231577795803,-0.0151745931105,-0.179584898234,-0.0317876555652,-0.0557174110497,-0.691731471658,0.573745599323,0.819004056586,0.00539346404082,0.0,0.818995010938,-0.573661105474,-0.0118682360369,0.0,-0.00662624049042,0.0112267844894,-0.999915022513,0.0,0.34696871324,-0.152426317966,0.304949298594,1.0,-0.16998,-0.223402285714,3.313
-0.287856687155,-0.497423606837,-0.134330318272,-2.62351475898,-0.0658895624232,2.11841067372,-0.54550528695,-0.700677979614,-0.220280916867,-6.6668922358e-05,-0.17098056741,-0.0250865112173,-0.0572256591867,-0.691423977936,0.573691039894,0.819042185446,0.00540704221237,0.0,0.819033534241,-0.573606877569,-0.0118307521041,0.0,-0.00658849530743,0.0112159613123,-0.999915393392,0.0,0.34443443256,-0.155751790796,0.304972341385,1.0,-0.16998,-0.223402285714,3.328
-0.300713091759,-0.501200534638,-0.134400431484,-2.62638729459,-0.0665047004577,2.11744725864,-0.557925921861,-0.725969926248,-0.20502405924,-0.0058976797485,-0.151872568438,-0.0329020175646,-0.0550981372421,-0.682353192838,0.573675207441,0.819052882207,0.00546620691775,0.0,0.819045038931,-0.573590905005,-0.0118086747352,0.0,-0.0065366883555,0.0112516302148,-0.999915332677,0.0,0.341405230903,-0.159738690353,0.304995056973,1.0,-0.16848,-0.221430857143,3.346
-0.31366698165,-0.504679375313,-0.134462951443,-2.62905283832,-0.067142730483,2.11659647013,-0.570363155256,-0.701359746261,-0.187025299872,0.00049933476585,-0.144954760452,-0.0275006394008,-0.052023955401,-0.689460378805,0.573721223487,0.819020584421,0.0054760311702,0.0,0.819013219801,-0.573637484208,-0.0117528466246,0.0,-0.00648469141757,0.0112280156394,-0.999915936688,0.0,0.33839163743,-0.163749242933,0.305006312084,1.0,-0.166165714286,-0.21838922449,3.364
-0.324293904739,-0.507419992877,-0.134470260547,-2.63113090218,-0.0675750424221,2.11594600317,-0.580678232485,-0.717115722637,-0.178755287488,-0.000354907047836,-0.132199621762,-0.0281775194089,-0.0441169902062,-0.688109911186,0.573680450383,0.81904874499,0.00553543862625,0.0,0.819042559147,-0.573597229216,-0.0116726964491,0.0,-0.0063855180598,0.0112303737941,-0.99991654845,0.0,0.335934954003,-0.166999508068,0.305025335393,1.0,-0.164237142857,-0.215854530612,3.379
-0.337132591939,-0.51051941695,-0.134491872937,-2.63347206394,-0.0680820295933,2.11514221486,-0.592978392081,-0.700798076813,-0.167980387275,0.00571585671409,-0.12332139554,-0.0277960845272,-0.0405506969791,-0.676929822384,0.57378827483,0.818972858653,0.00558742865827,0.0,0.818967507564,-0.573705145939,-0.0116350323433,0.0,-0.00632336086918,0.0112521842972,-0.999916698258,0.0,0.332966607862,-0.170909727248,0.305041991428,1.0,-0.161922857143,-0.212812897959,3.397
-0.348247407944,-0.513001508837,-0.134442975282,-2.63536716976,-0.0684529601208,2.11443978116,-0.603876229908,-0.700899528379,-0.151945727227,0.0048641774338,-0.11078230229,-0.0276329603747,-0.0417821256366,-0.679402638237,0.573665629376,0.819058515843,0.00562496210942,0.0,0.819053329325,-0.573581824898,-0.011673935506,0.0,-0.00633538223362,0.0113042971451,-0.999916034374,0.0,0.330406895832,-0.174250217287,0.305040694502,1.0,-0.159865714286,-0.21010922449,3.413
-0.359547341037,-0.515242598096,-0.13447474796,-2.63714858988,-0.0688326247579,2.11378700358,-0.614645308212,-0.70176397778,-0.132846391413,0.000879826584514,-0.100111772032,-0.0296296212712,-0.0438899966453,-0.674186039605,0.573860457355,0.818921806944,0.00565654464836,0.0,0.818916230246,-0.57377508095,-0.0117945420642,0.0,-0.00641334681254,0.0114008770251,-0.999914440833,0.0,0.327805295303,-0.177661993155,0.305002432081,1.0,-0.157808571429,-0.20740555102,3.429
-0.371845677097,-0.517529225419,-0.134382154856,-2.63895266085,-0.0691706764092,2.1131528168,-0.626657395555,-0.683874470171,-0.117231579691,0.00941788157605,-0.096532293114,-0.0333080502369,-0.0289716505059,-0.666513762551,0.573777596165,0.818979645479,0.00568835056141,0.0,0.818973962898,-0.573691196646,-0.0118661656826,0.0,-0.00645491580054,0.0114673718051,-0.999913412974,0.0,0.324849930632,-0.181525772194,0.304969899061,1.0,-0.155365714286,-0.204194938776,3.448
-0.383555105352,-0.51957774544,-0.134379388093,-2.64051765872,-0.0695234285686,2.11253638772,-0.637944234329,-0.692488212877,-0.122958995378,0.000117155273454,-0.0847876192441,-0.0184008437291,-0.0306941482579,-0.665617213999,0.573887264481,0.818902533858,0.00572665777596,0.0,0.818896988337,-0.573800056217,-0.0119149015852,0.0,-0.00647131113779,0.0115275750248,-0.999912614755,0.0,0.322330122469,-0.184819837681,0.304964103174,1.0,-0.153308571429,-0.201491265306,3.464
-0.394934608997,-0.521393423712,-0.134264259601,-2.64186746948,-0.0697967499221,2.11201993834,-0.649112475343,-0.659752227648,-0.104975193634,0.00619926489145,-0.0773293321528,-0.014602661896,-0.0348940454259,-0.655855786316,0.573784830744,0.81897408507,0.00575872329617,0.0,0.818969099715,-0.573697776174,-0.0118836958081,0.0,-0.00642879592727,0.0115351229081,-0.999912801959,0.0,0.319773902778,-0.188185060301,0.304976760387,1.0,-0.151122857143,-0.198618612245,3.481
-0.406997904024,-0.523130752283,-0.134202507159,-2.64313380547,-0.070089694917,2.11149612958,-0.66081995154,-0.675842619056,-0.0986937516411,-0.000547014325668,-0.0638490032456,-0.0167938685025,-0.0291905128998,-0.651119057349,0.5738348172,0.818938794642,0.00579655933985,0.0,0.818934439582,-0.573747859184,-0.0118543093221,0.0,-0.006382313155,0.0115496398637,-0.999912932159,0.0,0.317062265231,-0.191764385263,0.304995630983,1.0,-0.148808571429,-0.195576979592,3.499
-0.41757033275,-0.524467125936,-0.134141469075,-2.64411721644,-0.0703283270627,2.11108925637,-0.671126169616,-0.644830466102,-0.0794256573617,0.00564714673354,-0.0593194572526,-0.0118274431783,-0.0217081173975,-0.635665896332,0.5738514212,0.818926981465,0.0058217107579,0.0,0.818923041016,-0.573764524755,-0.0118351141222,0.0,-0.00635192547139,0.0115593526902,-0.999913013421,0.0,0.314695669291,-0.194894851231,0.305005286364,1.0,-0.146751428571,-0.192873306122,3.515
-0.427292530319,-0.525538814664,-0.134038105997,-2.64495722481,-0.0705325176608,2.1107725792,-0.68070526312,-0.654507268518,-0.0670520778051,0.00560268017191,-0.0544440489063,-0.0156124191417,-0.0243824517381,-0.626218864948,0.573760610758,0.818990640338,0.00581717126417,0.0,0.818986556278,-0.573673595485,-0.0118479272308,0.0,-0.00636630652591,0.0115622816348,-0.999912888098,0.0,0.312525574885,-0.197751655761,0.304991477514,1.0,-0.144822857143,-0.190338612245,3.53
-0.438400585377,-0.526656523063,-0.134017419204,-2.6458072109,-0.0707253982753,2.110403507,-0.691433585022,-0.648774485866,-0.0579346808434,0.00200743783083,-0.046925718593,-0.0113182445062,-0.0131641799268,-0.63524587256,0.573926129014,0.818874211652,0.00587969617167,0.0,0.818870666203,-0.573838342867,-0.0118800332293,0.0,-0.00635438007882,0.0116331961801,-0.999912141441,0.0,0.310027134992,-0.201027473874,0.304983067566,1.0,-0.142637142857,-0.187465959184,3.547
-0.449048822166,-0.527583777705,-0.133878381538,-2.64652419579,-0.0708623533678,2.11013428239,-0.702031403368,-0.626052533769,-0.0503794871905,0.00213725074215,-0.038198807548,-0.0133921665466,-0.0100543078992,-0.623360955665,0.573769908839,0.818983431134,0.00591423202703,0.0,0.818980376773,-0.573682098633,-0.0118633499131,0.0,-0.00632311971518,0.011650697484,-0.999912135843,0.0,0.307662107201,-0.204130550995,0.304976703215,1.0,-0.140451428571,-0.184593306122,3.564
-0.459853031744,-0.528364714944,-0.133797734953,-2.64709164271,-0.0710002129592,2.10987048267,-0.712452496333,-0.63516511526,-0.046190112946,-0.000539481252792,-0.0287068416666,-0.00632005436262,-0.00350063442604,-0.610686308083,0.573935321377,0.818867198038,0.00595867057955,0.0,0.818864809266,-0.573847470357,-0.0118427957547,0.0,-0.00627842981707,0.0116765692452,-0.999912115663,0.0,0.305261435443,-0.207299044947,0.304983580304,1.0,-0.138265714286,-0.181720653061,3.581
