nelsonifechukwu/NELSON_IML_WORK/CNN-GradCAM/train2dof/data_sample_2022-02-21-14-44-24/robot_state.csv
position_joint1,position_joint2,position_joint3,position_joint4,position_joint5,position_joint6,position_joint7,velocity_joint1,velocity_joint2,velocity_joint3,velocity_joint4,velocity_joint5,velocity_joint6,velocity_joint7,ee_T_00,ee_T_10,ee_T_20,ee_T_30,ee_T_01,ee_T_11,ee_T_21,ee_T_31,ee_T_02,ee_T_12,ee_T_22,ee_T_32,ee_T_03,ee_T_13,ee_T_23,ee_T_33,v_x,v_y,time
0.465082926959,0.547847032468,-0.123981100915,-1.35583842069,0.0794898644137,1.89409314601,0.159180999913,-0.0013773628373,-0.000792149514337,-0.000946348581594,0.00195272007772,2.23528160253e-05,4.03487158235e-05,0.00104849653949,0.573808528986,0.818975589036,0.00187177126173,0.0,0.81893145789,-0.573750317704,-0.0119409846315,0.0,-0.0087056131762,0.00838485262866,-0.999926950605,0.0,0.661669056997,0.260897212211,0.303164246877,1.0,0.0,0.0,0.0
0.465085382141,0.547845943969,-0.123981715941,-1.35584792714,0.0794897198016,1.89409632492,0.159175146943,0.000775804505409,-0.00134055146418,-0.00040443546293,-0.00113880787373,9.59225525536e-05,0.00945916336463,0.00598878500558,0.573802655124,0.818979714647,0.00186731614876,0.0,0.818935523292,-0.573744461348,-0.0119435615772,0.0,-0.00871034005549,0.00838262026351,-0.999926928157,0.0,0.661667048102,0.26089755782,0.303160789794,1.0,-0.00022,-0.000289142857143,0.012
0.465081536464,0.547839659692,-0.123981992152,-1.3558508194,0.0794886906636,1.89409080633,0.159178896093,-0.00092564872592,-0.00117585269141,-0.00442530507307,-0.000785093309348,-7.08417055474e-05,-0.000486232818964,0.00549853231438,0.573808903379,0.818975341453,0.00186531405702,0.0,0.818931125296,-0.573750718563,-0.011944533114,0.0,-0.00871222054221,0.00838160455912,-0.999926920289,0.0,0.661666575251,0.260894050725,0.303163393089,1.0,-0.00058,-0.000762285714286,0.03
0.465078660386,0.547814881515,-0.123981767418,-1.35587167957,0.0794901028078,1.89409805736,0.159180285921,5.66152024147e-06,-0.00126719295321,-0.000754923302608,-0.00237908174531,0.000380889094497,-0.000263221079754,0.0016720223882,0.573813760734,0.818971912283,0.00187664167385,0.0,0.818927818067,-0.573755502641,-0.0119414775551,0.0,-0.00870316878488,0.00838917973357,-0.999926935589,0.0,0.661664516294,0.260890851169,0.303171642872,1.0,-0.00092,-0.00120914285714,0.047
0.465083880186,0.547726315189,-0.123977256021,-1.35597714827,0.0794850883188,1.89411868719,0.159177475674,0.000496375316575,-0.00744856094282,0.000108187401454,-0.00806560934538,-0.000123153984966,0.000245722301401,0.00164634426234,0.573808448018,0.818975620353,0.00188285716841,0.0,0.818931546986,-0.573750106281,-0.0119450322343,0.0,-0.00870256823513,0.00839625319546,-0.999926881446,0.0,0.66164467825,0.260886149212,0.303185819688,1.0,-0.00124,-0.00162971428571,0.063
0.465074779296,0.547600006285,-0.123977203366,-1.35615870175,0.0794826876905,1.89415363004,0.159172742958,-0.000690823443862,-0.00304063308277,-2.59440873503e-05,-0.0101245565472,0.000212695588665,0.00598892416207,0.000468033174961,0.57382127957,0.818966655662,0.00187161115318,0.0,0.818922313436,-0.573762866172,-0.0119651518724,0.0,-0.0087253674242,0.00839872459457,-0.999926662005,0.0,0.661615854484,0.260862246005,0.303191914553,1.0,-0.00158,-0.00207657142857,0.08
0.465054301327,0.547438912478,-0.123980035439,-1.35637709183,0.0794788600072,1.89425201285,0.159163606717,-0.00200172085988,-0.00951115973169,0.000152403748268,-0.0148003930508,8.97955069924e-05,0.00348027278461,-0.00292023927242,0.573843853984,0.818950748053,0.00191060455289,0.0,0.818906867955,-0.573785227853,-0.0119499294977,0.0,-0.0086902943477,0.00842216294085,-0.999926770296,0.0,0.66159586879,0.26082932036,0.303210714933,1.0,-0.00192,-0.00252342857143,0.097
0.465038917607,0.547258002017,-0.123974679254,-1.35657511757,0.0794775532612,1.89436758638,0.15915165159,0.000641400635807,-0.0135263538099,0.000533550392896,-0.0081624633159,3.66291004864e-05,0.0107616772695,6.99483413102e-05,0.573853864834,0.818943516972,0.00200118114007,0.0,0.818900753029,-0.573794797054,-0.0119094274764,0.0,-0.00860504677032,0.00847320286325,-0.999927076343,0.0,0.661581155602,0.260808769244,0.303254464546,1.0,-0.00224,-0.002944,0.113
0.465013459028,0.547054656648,-0.123974682176,-1.35684055642,0.0794707516105,1.89449246319,0.159137097535,-0.00148018944786,-0.00924467775562,0.00618145533101,-0.0217722870071,-0.000273533327999,0.0105843644709,0.00045887302564,0.573875981062,0.81892787527,0.00205921495523,0.0,0.818885822417,-0.573816628883,-0.0118841559732,0.0,-0.00855081944657,0.00850645737606,-0.999927259189,0.0,0.661557579478,0.260770476366,0.303282987735,1.0,-0.00258,-0.00339085714286,0.13
0.464973998231,0.546809810984,-0.123977147526,-1.35721309889,0.079466391694,1.89463033896,0.159101210721,-0.00452229287077,-0.0160776886508,-0.00155269323952,-0.0233260108832,-5.44665204673e-05,0.00749886559698,-0.00339329595837,0.573903910031,0.818908270932,0.00207189584373,0.0,0.818866280572,-0.573844400711,-0.0118897105177,0.0,-0.00854780102477,0.00852032104109,-0.999927166961,0.0,0.661521581952,0.260707989651,0.303289074716,1.0,-0.00292,-0.00383771428571,0.147
0.464937106538,0.546567859107,-0.123980451196,-1.35757451102,0.0794518412094,1.89477182702,0.158969103923,-0.00368076645026,-0.0229751861639,-0.000510428777736,-0.0209835430815,-0.00418585740887,0.0133830507459,-0.0123558146483,0.573841056966,0.818952244458,0.00209989013534,0.0,0.81891052208,-0.573781345549,-0.0118857573635,0.0,-0.00852915409518,0.008540322123,-0.999927155561,0.0,0.661480043884,0.260651807556,0.303302832213,1.0,-0.00324,-0.00425828571429,0.163
0.464894480118,0.546261846937,-0.123974609036,-1.35807768992,0.0794389609654,1.89494054497,0.158934949345,0.000155861438657,-0.0195003689512,0.000950211663594,-0.0267751073144,-0.00183006627564,0.00570866123197,-0.000876543013901,0.573868550131,0.818933013732,0.00208640648383,0.0,0.818890901693,-0.573808676144,-0.0119181042025,0.0,-0.00856309571626,0.00854812904381,-0.999926798762,0.0,0.661416757626,0.260580646648,0.303294472256,1.0,-0.0036,-0.00473142857143,0.181
0.464841934675,0.54594538722,-0.123975436245,-1.3586172344,0.0794053052443,1.89512439075,0.158887384251,-0.000146775897206,-0.0214654712567,0.00153358677055,-0.0298156700124,-5.51022200582e-05,0.00750959402532,-0.00787641580332,0.573894380934,0.81891500037,0.00205148795833,0.0,0.81887242043,-0.573834634495,-0.0119380992654,0.0,-0.0085992392836,0.00853127925093,-0.999926632488,0.0,0.661353645535,0.260492547045,0.303277677236,1.0,-0.00394,-0.00517828571429,0.198
0.464792620712,0.545633141558,-0.123980351657,-1.35915149691,0.0793083673319,1.89530574719,0.1588034487,-0.0087334495689,-0.0218865107629,0.00101649696579,-0.0374847870894,-0.0100550775845,0.0119305686263,-0.0115025563068,0.573873494642,0.818929830918,0.00197258219056,0.0,0.818886793267,-0.573814639698,-0.0119132691345,0.0,-0.00862440098547,0.00845219362622,-0.999927087407,0.0,0.661291021247,0.260387606675,0.303253538465,1.0,-0.00426,-0.00559885714286,0.214
0.464726996267,0.545229073386,-0.123983423375,-1.35987721812,0.0792922897242,1.89554124946,0.158714640473,-0.000721093707729,-0.0203065803176,0.00120793211283,-0.0429752029876,-2.99601634605e-05,0.0137405464316,-0.0036861133001,0.573892785374,0.818916437068,0.00192012911076,0.0,0.818872434884,-0.57383387411,-0.0119736047983,0.0,-0.00870371422732,0.00844406878337,-0.999926468827,0.0,0.661204255281,0.260281730965,0.303221356865,1.0,-0.0046,-0.00604571428571,0.231
0.464660449917,0.544799241008,-0.123982888287,-1.36058298643,0.0792703343799,1.89577718944,0.158624838903,-0.0018016391507,-0.0251499841978,-0.00251050309721,-0.0389823590163,-0.00406584513974,0.0129829871471,-0.00652896926467,0.573915603732,0.81890050372,0.00189517871188,0.0,0.818855985438,-0.573856611769,-0.0120087943957,0.0,-0.00874661534484,0.00844407549201,-0.999926094424,0.0,0.661115833447,0.260161658585,0.303210206137,1.0,-0.00496,-0.00651885714286,0.249
0.464591837266,0.54437497814,-0.123989480034,-1.36129291487,0.0792431110736,1.8960456002,0.158540569247,-0.00324589176316,-0.0261533059089,0.00327434235075,-0.0406447668537,0.000327061315028,0.014579747106,-0.0114019250256,0.573931005513,0.818889724839,0.00188848220773,0.0,0.818844963301,-0.573871890199,-0.0120302376093,0.0,-0.00876785991994,0.00845106322091,-0.999925849332,0.0,0.661041093924,0.260058294836,0.303195971217,1.0,-0.00526,-0.00691314285714,0.264
0.464520142113,0.543843879854,-0.123989816792,-1.36216697928,0.0792016892621,1.89634422233,0.158433537082,-0.00465253332475,-0.0281165142319,0.000961459795259,-0.0496316521882,-0.00243357080278,0.00729652520471,-0.00734575047114,0.573939852782,0.81888359678,0.00185666754718,0.0,0.818838270371,-0.573880731492,-0.0120639918646,0.0,-0.00881366900995,0.00844447874011,-0.999925502234,0.0,0.660934512328,0.259927485303,0.303181645608,1.0,-0.00562,-0.00738628571429,0.282
0.464441192601,0.543301414307,-0.123992302646,-1.36301561765,0.0791506082658,1.89663457121,0.158325990988,-0.000629632614071,-0.0321849584289,0.000844557999413,-0.0502531980492,-0.00553285335057,0.0196378736525,-0.00719364816698,0.573951642616,0.818875363719,0.00184323995101,0.0,0.818829832288,-0.573892550594,-0.0120744784368,0.0,-0.00882984124659,0.00843962908147,-0.9999254005,0.0,0.660835229176,0.259791692801,0.303186729814,1.0,-0.00596,-0.00783314285714,0.299
0.464372405767,0.542769950898,-0.124000636076,-1.36385874547,0.0790980031741,1.89694807484,0.158207945737,-0.00519215575635,-0.0347618703521,-0.00222270585495,-0.0541550605904,-3.01723685963e-05,0.0228551003595,-0.0115948053534,0.573950039031,0.818876492096,0.00184127418681,0.0,0.818830986395,-0.573891005006,-0.0120696724727,0.0,-0.00882705030968,0.00843524374997,-0.999925462145,0.0,0.660740205299,0.259661068446,0.303188791071,1.0,-0.00628,-0.00825371428571,0.315
0.464298094133,0.542171218877,-0.123993786279,-1.36477931154,0.0790522386961,1.89728571835,0.158095817949,-0.0030678315,-0.0374066159359,0.000976497934807,-0.0576061383976,0.000671137331423,0.0209102311591,-0.0112776966766,0.573953185513,0.818874240393,0.00186176277472,0.0,0.818828864052,-0.573893928521,-0.0120746471442,0.0,-0.00881933295496,0.00845491007354,-0.999925364146,0.0,0.660631361559,0.259530038185,0.303203109095,1.0,-0.00662,-0.00870057142857,0.332
0.464224571316,0.541561241564,-0.124002398178,-1.36568662544,0.0789863487464,1.8976245968,0.157964555406,0.000780594259861,-0.0385420216546,-0.000506070292148,-0.0598300235239,-0.00173808680623,0.0240127178924,-0.0142853013818,0.573944686708,0.818880133914,0.00188938657987,0.0,0.818835263843,-0.573885449784,-0.0120435922407,0.0,-0.00877813596596,0.00845961500784,-0.99992568686,0.0,0.660530439053,0.259389127797,0.303232178087,1.0,-0.00694,-0.00912114285714,0.348
0.46413714995,0.540890942939,-0.12400202867,-1.36672140212,0.0789298335897,1.89801389313,0.157844810128,-0.00465658076878,-0.0361016135479,-0.00124506449454,-0.0626031803824,-0.000300369298479,0.0180410107353,-0.00728495447672,0.573960279804,0.818869149183,0.00191327596176,0.0,0.81882453523,-0.573900883435,-0.0120375827869,0.0,-0.00875934305471,0.00847589487193,-0.999925713798,0.0,0.660412599901,0.259234844132,0.303247245219,1.0,-0.00728,-0.009568,0.365
0.46403778723,0.540089041378,-0.124002853905,-1.36796253592,0.0788583198193,1.89846997876,0.157675470093,-0.00408839345568,-0.0403472228818,-6.08928382577e-05,-0.0644535436914,-0.000101994591999,0.024515766417,-0.0101514331137,0.573953147296,0.818874110877,0.00192928605792,0.0,0.818829661132,-0.573893639206,-0.0120342772882,0.0,-0.00874752153445,0.00848703137567,-0.999925722824,0.0,0.660267868602,0.259051330576,0.303262815882,1.0,-0.00766,-0.0100674285714,0.384
0.463942673905,0.539376315867,-0.124005224912,-1.36904109823,0.0787947775321,1.89887675853,0.157547668755,-0.00505655921088,-0.0473904729814,0.000267230677892,-0.0661594119752,-0.00216837771551,0.0230025374489,-0.00698639419293,0.573970721728,0.818861709572,0.00196420366768,0.0,0.818817717455,-0.573911063262,-0.0120159872236,0.0,-0.00871232136389,0.00850531337641,-0.999925874803,0.0,0.660147108657,0.258885811324,0.303288389978,1.0,-0.00798,-0.010488,0.4
0.463835412105,0.538665165234,-0.124005823969,-1.37015778585,0.0787312454431,1.89931449698,0.157406283587,-0.00548504984679,-0.0448448015439,0.000793505101266,-0.0726065393447,-0.00243090664797,0.0298295033626,-0.0108462421224,0.573988068804,0.818849482836,0.0019920419738,0.0,0.818805845263,-0.573928281055,-0.0120026192567,0.0,-0.00868521656253,0.00852061990824,-0.999925980285,0.0,0.660026186507,0.258710861184,0.303297231562,1.0,-0.0083,-0.0109085714286,0.416
0.463721099976,0.537832247933,-0.124013876186,-1.37145520588,0.0786585031543,1.89980851985,0.157247832047,-0.00181823627546,-0.0472038943175,-0.001001289641,-0.072254828171,-0.0017303781698,0.0259748088776,-0.00319125507057,0.57400977799,0.818834203318,0.00201721326577,0.0,0.818790891199,-0.57394987817,-0.0119900266687,0.0,-0.00866023136323,0.00853423270426,-0.9999260809,0.0,0.659881641987,0.258509422637,0.303311048153,1.0,-0.00866,-0.0113817142857,0.434
0.463611017643,0.537056031249,-0.124014359943,-1.3726750397,0.0785907803547,1.90026187262,0.15710259859,-0.0058269838905,-0.0474528530073,-0.000913260030313,-0.0800103758795,-0.00657555229824,0.0226305179809,-0.00588521556509,0.574030417125,0.818819708363,0.00202788361514,0.0,0.818776473862,-0.573970409028,-0.0119917601847,0.0,-0.00865531103068,0.00854418299867,-0.999926038529,0.0,0.659742080097,0.258321700908,0.303317836517,1.0,-0.00898,-0.0118022857143,0.45
0.463510568022,0.536312767071,-0.124017677615,-1.37382738735,0.0785218386199,1.90069818382,0.15694672975,-0.00590769470644,-0.0488088958521,0.00360793708804,-0.0767527604933,-0.00803748658314,0.0254801541635,-0.0113694176661,0.574038917419,0.818813706288,0.00204513696253,0.0,0.818770723565,-0.573978862215,-0.0119797689093,0.0,-0.00863549985436,0.00855151648939,-0.999926147127,0.0,0.659603162588,0.258129058294,0.303330595274,1.0,-0.0093,-0.0122228571429,0.466
0.463381993078,0.535364444352,-0.124024762324,-1.37532498202,0.0784257482817,1.90123689346,0.156769771059,-0.00526389109126,-0.0547282344986,-0.000120098268391,-0.0854463816108,-0.00764035459653,0.0320507643319,-0.00439742945346,0.574054087388,0.818803093971,0.00203591690407,0.0,0.818760023335,-0.573994100933,-0.0119809508285,0.0,-0.00864160169177,0.00854480567977,-0.999926151781,0.0,0.659436692408,0.257911711589,0.303335310687,1.0,-0.00964,-0.0126697142857,0.483
0.463246088374,0.534425109263,-0.124029145445,-1.37687400705,0.0783468395275,1.90179847226,0.156581084941,-0.0125561648581,-0.052092692311,-5.04559599114e-05,-0.0947146752359,-0.00529732357824,0.0393870634254,-0.0121284720285,0.57407775059,0.818786590966,0.0020004084711,0.0,0.818742902658,-0.574017759079,-0.0120174252757,0.0,-0.00869160402613,0.00853692107044,-0.999925785745,0.0,0.659253783586,0.257673342199,0.303309597463,1.0,-0.01,-0.0131428571429,0.501
0.463141006971,0.533615575361,-0.124030764629,-1.37816906384,0.0782751368608,1.90227026466,0.156420468551,-0.00582047598676,-0.0556844910938,0.000562159349499,-0.0866764657577,-0.00659234263775,0.0406491615428,-0.0153872514383,0.574085050145,0.818781495285,0.00199125068504,0.0,0.818737605695,-0.574025016596,-0.0120316351411,0.0,-0.00870842016808,0.00853765805787,-0.999925633141,0.0,0.659099289784,0.257480442845,0.303305131046,1.0,-0.0103,-0.0135371428571,0.516
0.463000703753,0.532614424048,-0.124022999958,-1.37978367068,0.0781835063632,1.9028882646,0.156219772459,-0.00737778683979,-0.0564291860002,0.0028038281109,-0.0900053708039,-0.00868104789647,0.0366387166283,-0.0129083141661,0.574093952249,0.818775237253,0.0019979374006,0.0,0.818731346355,-0.574033802036,-0.0120384183621,0.0,-0.00871004294359,0.00854712171283,-0.999925538159,0.0,0.658912284593,0.257241072054,0.303295895026,1.0,-0.01066,-0.0140102857143,0.534
0.462869995835,0.531633720531,-0.12403044186,-1.38134812461,0.0780923823946,1.90345308336,0.156024006006,-0.00800761562466,-0.0575516445139,0.00118500698425,-0.0908039706543,-0.0100463715433,0.0297850371866,-0.0105160645829,0.57410670128,0.818766338059,0.00198144069037,0.0,0.818722192953,-0.574046582346,-0.0120515129727,0.0,-0.0087301019698,0.00854126827128,-0.999925413246,0.0,0.65872634607,0.25700138845,0.303291765363,1.0,-0.011,-0.0144571428571,0.551
0.462749321302,0.530736223934,-0.124031159667,-1.38280540291,0.0779998126668,1.90396512912,0.155829534042,-0.00563763567698,-0.0631598980668,0.000597946048376,-0.090940747203,-0.00688939245213,0.0346721880578,-0.0160821137081,0.574101068883,0.818770391265,0.00193803903584,0.0,0.818725656141,-0.574041116359,-0.012076572598,0.0,-0.0087755949369,0.00852005955574,-0.999925195962,0.0,0.658548249566,0.256780072102,0.30327500873,1.0,-0.0113,-0.0148514285714,0.566
0.462603001215,0.529634187007,-0.124031478503,-1.38453865505,0.0778933758231,1.90460537841,0.155600323043,-0.00803077529691,-0.0673847107069,0.000262048875439,-0.0963452435574,-0.00664710021638,0.0448743266625,-0.0102043215043,0.574098946483,0.818771864766,0.00194422638888,0.0,0.818727199094,-0.574038956188,-0.0120746487701,0.0,-0.00877048986212,0.00852399827722,-0.999925207183,0.0,0.658343497753,0.256518499253,0.303281877173,1.0,-0.01166,-0.0153245714286,0.584
0.462453435798,0.528418177633,-0.124035007262,-1.38641966772,0.0777744732263,1.90532200581,0.15534322347,-0.00946337902894,-0.0635105527578,0.00111724580752,-0.10153232772,-0.0070694818172,0.0380345674574,-0.0119965185383,0.57408344452,0.818782639501,0.0019836533215,0.0,0.818738557484,-0.574023352444,-0.0120462541108,0.0,-0.00872476838606,0.00853981293033,-0.999925472229,0.0,0.658124133679,0.256240073388,0.303305095547,1.0,-0.01204,-0.015824,0.603
0.462318910629,0.527373221765,-0.124031890743,-1.38806197432,0.077669490435,1.9059551655,0.155111473987,-0.00526342228857,-0.0648358767705,0.000950110017415,-0.106317986641,-0.0112846357672,0.0380522489461,-0.012218993033,0.574062345638,0.818797367295,0.00201035647658,0.0,0.818753680063,-0.574002187105,-0.012026948218,0.0,-0.0086938519067,0.00855036948946,-0.999925651296,0.0,0.657932816483,0.255998114377,0.30331377348,1.0,-0.01236,-0.0162445714286,0.619
0.46216692466,0.526193882835,-0.124037180457,-1.38988000613,0.0775578237149,1.9066316953,0.154874905442,-0.0110044162821,-0.0732480511148,-0.000471762565254,-0.110674387318,-0.00324447159259,0.034551852304,-0.00622080162785,0.574064840964,0.818795543805,0.00204027337428,0.0,0.81875226932,-0.574004577058,-0.012008909229,0.0,-0.00866188187544,0.00856453591578,-0.999925807511,0.0,0.657718736454,0.25572258583,0.303337132149,1.0,-0.0127,-0.0166914285714,0.636
0.462026708248,0.525081484225,-0.124045665998,-1.39160774874,0.0774431249552,1.90725072417,0.154628359928,-0.0114483575556,-0.0673933330879,-0.00184180790475,-0.103797914219,-0.00892111935634,0.0380302105779,-0.00999151187765,0.574045685664,0.818808982136,0.002036773452,0.0,0.818765737593,-0.573985513692,-0.0120018297008,0.0,-0.00865829420393,0.00855740363407,-0.999925899647,0.0,0.657509932549,0.25545844299,0.303351179078,1.0,-0.01302,-0.017112,0.652
0.461882397484,0.523984654303,-0.124048455102,-1.39339780779,0.0773278792299,1.90789575289,0.154391321366,-0.0099565760076,-0.0701506504118,0.000216619677053,-0.114622728244,-0.0114665619712,0.0441614321507,-0.00619333052025,0.574036748336,0.818815361796,0.00199041408468,0.0,0.818771524256,-0.573976786157,-0.0120244302236,0.0,-0.00870350427392,0.00853232347385,-0.999925721476,0.0,0.657290496948,0.255189022692,0.303326466819,1.0,-0.01334,-0.0175325714286,0.668
0.461713137003,0.522689595224,-0.124049972098,-1.39544950478,0.0772108668674,1.90867035865,0.154122233116,-0.00454291563137,-0.0722097924463,0.00107231082197,-0.117460317669,-0.0123946927306,0.0424113082907,-0.0133797211534,0.57403465128,0.818816789376,0.00200785109827,0.0,0.818773106227,-0.573974543079,-0.0120237813524,0.0,-0.00869298599334,0.00854620615721,-0.999925694417,0.0,0.657046147811,0.254883998032,0.303327462366,1.0,-0.0137,-0.0180057142857,0.686
0.461554294934,0.521518759701,-0.124056085338,-1.39730771082,0.0770907998004,1.90940126726,0.153856973953,-0.00927405573424,-0.0703911386519,-0.00176167316373,-0.124105378125,-0.0082248836027,0.0474634489678,-0.0197892576026,0.574019066061,0.818827643536,0.00203688042454,0.0,0.818784464824,-0.573958960665,-0.0119941042304,0.0,-0.00865218491323,0.00855277522433,-0.999925992128,0.0,0.65683328555,0.254601056803,0.303329249315,1.0,-0.01402,-0.0184262857143,0.702
0.461394107355,0.520311475148,-0.124055667618,-1.39922137909,0.0769728530994,1.9100996189,0.153611084005,-0.0136361993125,-0.0703769526752,0.000293138297833,-0.122456026315,-0.000860350677833,0.041114893951,-0.0118125080908,0.574018745384,0.818827888703,0.00202867726838,0.0,0.81878456829,-0.573958640379,-0.012002364972,0.0,-0.00866366112505,0.00855079675358,-0.999925909681,0.0,0.656599909059,0.254313145685,0.303326894271,1.0,-0.01434,-0.0188468571429,0.718
0.461225300699,0.518983293963,-0.124058839883,-1.40129412357,0.0768371271317,1.91083614296,0.153332251458,-0.0118930240929,-0.076978760215,0.00115775108259,-0.123866198711,-0.00733232830739,0.043480068243,-0.0140523688546,0.574004195692,0.818838117717,0.00201673067986,0.0,0.818794665318,-0.573944166611,-0.0120056886765,0.0,-0.00867339169807,0.00854276846929,-0.999925893946,0.0,0.656343050068,0.25399998759,0.303336743637,1.0,-0.01468,-0.0192937142857,0.735
0.461045605148,0.517620117131,-0.124064455247,-1.40341222055,0.076698114798,1.91159856296,0.153032110118,-0.0146105174325,-0.0779874329351,-1.9759785939e-05,-0.125585811717,-0.00283147890435,0.0493177368099,-0.0177576232426,0.573989007166,0.818848779038,0.00201087592428,0.0,0.818805298832,-0.573929052618,-0.0120030023737,0.0,-0.00867471073941,0.00853627162728,-0.999925937988,0.0,0.656068861661,0.253655990902,0.303347092238,1.0,-0.01504,-0.0197668571429,0.753
0.460871330122,0.516352733117,-0.124071472923,-1.40543396188,0.0765759213451,1.9123492707,0.152753255922,-0.01282995055,-0.0834324163273,-0.000830123797327,-0.126679894678,-0.00316343740372,0.0562248963043,-0.0137638648247,0.573977433199,0.818856889789,0.00201174675093,0.0,0.818813414365,-0.573917469935,-0.0120032104461,0.0,-0.008674501979,0.00853698151133,-0.999925933738,0.0,0.655840788156,0.253364082158,0.303343566454,1.0,-0.01534,-0.0201611428571,0.768
0.460682726331,0.514896290156,-0.124069018892,-1.40776901333,0.0764316475837,1.91322548766,0.152428901397,-0.0104583634361,-0.0794789303427,0.0027669128973,-0.132786448326,-0.00480081106471,0.0484117444957,-0.0184303097646,0.573948803046,0.818876968214,0.00200731470093,0.0,0.818833410104,-0.573888837706,-0.0120081370628,0.0,-0.00868137851466,0.00853587657777,-0.999925883492,0.0,0.655554865212,0.253019983765,0.303329291873,1.0,-0.0157,-0.0206342857143,0.786
0.460486510007,0.513484693,-0.124072588823,-1.41002569698,0.0762962406003,1.9139994054,0.15213202739,-0.0117849264791,-0.0799099435801,-5.11910825063e-05,-0.13007719036,-0.00703788312769,0.0501333707237,-0.0195283020041,0.573950601136,0.818875849973,0.00194850921306,0.0,0.818831384113,-0.573890750746,-0.0120547708887,0.0,-0.00875329787068,0.00851450742465,-0.99992543869,0.0,0.655267823704,0.252670727227,0.303311733466,1.0,-0.01604,-0.0210811428571,0.803
0.460311435995,0.512225498261,-0.124074837924,-1.41204612449,0.0761624675443,1.91471907774,0.151849656287,-0.0130586245495,-0.0867161261309,-0.000403582914245,-0.133802863573,-0.0133365438574,0.0529902581023,-0.0130916349712,0.573933831341,0.818887701528,0.00190694225123,0.0,0.818842713249,-0.573874183958,-0.0120738911222,0.0,-0.00879298531349,0.00849126384111,-0.999925288133,0.0,0.655015624719,0.252358768106,0.30329467669,1.0,-0.01634,-0.0214754285714,0.818
0.460113041384,0.510780368035,-0.124077949392,-1.41435375196,0.0760375327864,1.91561125283,0.151512997822,-0.01303406203,-0.0846876678606,-0.000863675819212,-0.143536984472,-0.00886723979076,0.0523232298602,-0.0168923357481,0.573910151288,0.818904225566,0.00193765311318,0.0,0.818859514321,-0.57385025251,-0.0120718847115,0.0,-0.00877396359852,0.00851500680857,-0.999925253317,0.0,0.654739167512,0.252012453415,0.303285772874,1.0,-0.01668,-0.0219222857143,0.835
0.459914053751,0.509291502375,-0.124082264632,-1.41669526249,0.0758826463758,1.91647741696,0.151191103585,-0.0133998415991,-0.0883789489474,-0.000711565133463,-0.137804635583,-0.0165787081563,0.0510653061737,-0.018435929561,0.573892562416,0.818916543955,0.00194106722103,0.0,0.818871959607,-0.57383273089,-0.0120605816686,0.0,-0.00876293066746,0.00851112750263,-0.999925383094,0.0,0.654451673251,0.251655179095,0.303288567135,1.0,-0.01702,-0.0223691428571,0.852
0.459715666287,0.507851480547,-0.124090464151,-1.41893490754,0.0757330800579,1.91727982573,0.150868142601,-0.0106193047426,-0.0949398320425,-0.000800709226688,-0.140052388504,-0.00640108269894,0.0468587186038,-0.0147948533507,0.573871910437,0.818931028776,0.00193582567855,0.0,0.818886448041,-0.573812174231,-0.0120549085926,0.0,-0.00876150704013,0.00850335855411,-0.999925461666,0.0,0.654174023447,0.251304121417,0.30329974563,1.0,-0.01734,-0.0227897142857,0.868
0.45948429679,0.506204085051,-0.124094015393,-1.4215198335,0.0755741238628,1.91823563081,0.150523219363,-0.0133729364561,-0.092468413175,-0.000231788236815,-0.149368030674,-0.0111634514037,0.0520019663466,-0.0183892788453,0.573872242542,0.818930763532,0.00194953376499,0.0,0.818886334472,-0.57381242032,-0.0120509087775,0.0,-0.00875036170979,0.00851229249155,-0.999925483247,0.0,0.653856567194,0.250904882148,0.303304272391,1.0,-0.0177,-0.0232628571429,0.886
0.459244415372,0.504472826764,-0.12410031664,-1.42413681683,0.0754057789748,1.91925167231,0.150157300643,-0.0135752605245,-0.0974159462319,-0.00011430254267,-0.143776889691,-0.00554862974893,0.0575348084068,-0.027576908557,0.573863068927,0.818936937688,0.00205356114004,0.0,0.818894002431,-0.573802938623,-0.0119811231284,0.0,-0.00863361109181,0.00855733774415,-0.999926113636,0.0,0.653547782483,0.250498389177,0.303356703056,1.0,-0.01806,-0.023736,0.904
0.459035285101,0.502896787311,-0.124114503977,-1.42647027293,0.0752520421849,1.92013028945,0.149830432269,-0.0120563875381,-0.10112311258,-0.00244457854982,-0.153643545764,-0.0116531335849,0.0580864415036,-0.0192029126913,0.573854927497,0.818942398439,0.00214875038297,0.0,0.818900860328,-0.573794562208,-0.0119133637862,0.0,-0.00852358153257,0.00859632155482,-0.999926723222,0.0,0.653267758993,0.250132155136,0.303423288646,1.0,-0.01838,-0.0241565714286,0.92
0.458779671799,0.501085914128,-0.124115296646,-1.42919364709,0.0750818122386,1.92108838507,0.149444906524,-0.0116248688365,-0.0998290812255,-0.00314714476236,-0.153055126048,-0.0142371991987,0.0573356386545,-0.0157881760992,0.57384196574,0.818951373001,0.00218950145863,0.0,0.818910283658,-0.573781354483,-0.011901742232,0.0,-0.00849081650397,0.00862289043606,-0.999926773217,0.0,0.652924337956,0.24970315112,0.303474092484,1.0,-0.01874,-0.0246297142857,0.938
0.45854648208,0.499473626467,-0.124116807174,-1.43164840536,0.0749285222625,1.92197326842,0.14911342225,-0.0174240181707,-0.10040754249,-0.000143300216551,-0.155159107747,-0.0112230420033,0.0550506688971,-0.018298614346,0.573846010754,0.818948441262,0.0022256230109,0.0,0.818907778881,-0.57378521011,-0.0118881978642,0.0,-0.00845895440442,0.00864474135395,-0.999926854594,0.0,0.652618274973,0.24931546033,0.303507217093,1.0,-0.01906,-0.0250502857143,0.954
0.458320631823,0.497992238373,-0.124117081813,-1.43397605057,0.0747852032868,1.92285109906,0.148764470694,-0.0151543867624,-0.104553971987,-0.000308363769363,-0.159187033991,-0.00913712304685,0.0601819403627,-0.0273916105397,0.573825063202,0.818963048755,0.00225133659483,0.0,0.818922700322,-0.57376414167,-0.0118771853473,0.0,-0.00843540212134,0.00865926399382,-0.999926927899,0.0,0.65233440515,0.248947799117,0.303508449848,1.0,-0.01936,-0.0254445714286,0.969
0.45802919628,0.496140130009,-0.124120234249,-1.4369700382,0.0746003516477,1.92389752952,0.14832200761,-0.0194074153976,-0.100542444019,3.3774187925e-05,-0.161252767395,-0.0125054522591,0.0566827285672,-0.0237583910219,0.573804936784,0.818977369331,0.00217024152365,0.0,0.818935814987,-0.573744191206,-0.0119365358871,0.0,-0.00853075353549,0.00862669782168,-0.999926400456,0.0,0.651950785035,0.248466555323,0.303465133571,1.0,-0.01974,-0.025944,0.988
0.457761351682,0.494461633286,-0.124120506118,-1.43970420015,0.0744352057002,1.92483879128,0.147942006788,-0.0131903708619,-0.0977594127925,-2.492533675e-05,-0.16333601696,-0.0110678385166,0.0568639513328,-0.0185248892384,0.573806183105,0.818976740852,0.00207583096178,0.0,0.8189337458,-0.573745618686,-0.0120096598414,0.0,-0.0086447995954,0.0085913505093,-0.99992572531,0.0,0.651595501299,0.248027117136,0.303414639297,1.0,-0.0208942857143,-0.0274610612245,1.005
0.457523286832,0.492794412571,-0.124171432475,-1.44234793504,0.0742684912514,1.92582197288,0.147578258372,-0.0131136338609,-0.1188944531,0.00112662163367,-0.182576536515,-0.00731999063357,0.0680727467947,-0.0235043845835,0.57382767281,0.81896170713,0.00206665766546,0.0,0.81891880878,-0.573767359206,-0.0119895386402,0.0,-0.00863335854029,0.00857251893708,-0.999925985781,0.0,0.651273081485,0.2475905524,0.303403801019,1.0,-0.0243228571429,-0.0319671836735,1.02
0.457197128161,0.490611283053,-0.124190979755,-1.44581929312,0.0740638552867,1.92708670715,0.147065379066,-0.0214420394956,-0.135265811711,-0.00157898673778,-0.214899107601,-0.0102022642231,0.0768967764174,-0.029334552908,0.573807248471,0.818976065574,0.00204756436453,0.0,0.81893280463,-0.573746905392,-0.0120123667385,0.0,-0.00866322392592,0.00856976572812,-0.999925751077,0.0,0.650834445009,0.247036860002,0.303380711562,1.0,-0.0282085714286,-0.037074122449,1.037
0.456769114702,0.487924906428,-0.124207641231,-1.45008980086,0.0738089311147,1.92863379849,0.146452344314,-0.0269390468976,-0.162099470641,-0.00563469721896,-0.250826334452,-0.0189471152501,0.0968962136778,-0.0336273445038,0.573811241931,0.818973342054,0.00201755771403,0.0,0.818929526739,-0.57375086575,-0.0120466255462,0.0,-0.00870845736372,0.00856489165038,-0.999925399918,0.0,0.650295305733,0.24634186088,0.303350272402,1.0,-0.0323228571429,-0.0424814693878,1.055
0.456341376877,0.48518742147,-0.124247257505,-1.45428647715,0.0735461814689,1.93024530141,0.145817637855,-0.0294430435972,-0.180283660149,-0.00593009597242,-0.275455332947,-0.0162826145454,0.104921594876,-0.0466356877112,0.573813159569,0.818971726202,0.00212520330631,0.0,0.818929556683,-0.573752569488,-0.0119631558678,0.0,-0.00857831071322,0.00860517374465,-0.99992617906,0.0,0.649755232673,0.245595514415,0.303390165003,1.0,-0.0362085714286,-0.0475884081633,1.072
0.455820413089,0.481981594604,-0.124288840955,-1.45928680581,0.0732449332673,1.93196804749,0.145063864148,-0.0262618577723,-0.196361719577,-0.00470821891623,-0.309339245385,-0.0161905124928,0.107746949954,-0.0431034222918,0.573809820119,0.81897419085,0.00207652544226,0.0,0.818931155807,-0.573749203563,-0.0120150056138,0.0,-0.00864874119699,0.00859502507133,-0.999925659647,0.0,0.649145473314,0.244802156347,0.303389727762,1.0,-0.0398657142857,-0.0523949387755,1.088
0.455216217103,0.478197193869,-0.12435064978,-1.46514617972,0.072884565694,1.93407730209,0.144194508708,-0.0345248733495,-0.213378223822,-0.00319400361585,-0.335791399756,-0.0183167038029,0.126567722926,-0.0392729907238,0.573825074955,0.818963447638,0.0020980195968,0.0,0.818920714508,-0.573764387387,-0.0120015839437,0.0,-0.00862525569783,0.00860508718791,-0.999925775965,0.0,0.648404273137,0.24381522591,0.303408156871,1.0,-0.04398,-0.0578022857143,1.106
0.454644566322,0.474776488002,-0.124380538319,-1.47038615973,0.0725622396147,1.93601539638,0.143453974918,-0.0395004967025,-0.229784421141,-0.000872090713925,-0.358217921521,-0.0223619728614,0.130019994716,-0.054409101292,0.573874400728,0.818928626745,0.00219622124325,0.0,0.818887167734,-0.573813293899,-0.0119522870389,0.0,-0.00852801325621,0.00865773564364,-0.999926155575,0.0,0.647749601696,0.242931747822,0.303450567072,1.0,-0.0474085714286,-0.0623084081633,1.121
0.453942144139,0.470617004858,-0.124414176106,-1.47678346144,0.0721730892062,1.9382694001,0.142494088073,-0.0424238231201,-0.25658404676,-0.00433508418241,-0.380653642735,-0.0229532546621,0.132709798856,-0.0647244214452,0.573889955204,0.818917643377,0.00222701223255,0.0,0.818876313631,-0.573828443616,-0.0119685911115,0.0,-0.00852353156868,0.00869246914123,-0.999925892449,0.0,0.646871495577,0.241780670309,0.303484682912,1.0,-0.0515228571429,-0.067715755102,1.139
0.453197709161,0.466083836124,-0.124432201965,-1.48354248732,0.0717430431456,1.94082918896,0.141388175116,-0.0461809118292,-0.272344763766,-0.000731995750483,-0.414053638847,-0.0253023362808,0.145662996963,-0.0683919697555,0.573809336106,0.818973359942,0.0024956768838,0.0,0.818935670577,-0.573746927237,-0.0118143067198,0.0,-0.0082438742464,0.0088231281904,-0.999927092815,0.0,0.646074730498,0.24071924831,0.303611110487,1.0,-0.05518,-0.0725222857143,1.155
0.452426751178,0.461604126023,-0.124441971272,-1.49050328292,0.0712859108145,1.94320227513,0.140340117893,-0.0489836968898,-0.291655407048,-0.00122768662374,-0.445321089697,-0.0243197122859,0.150809609888,-0.0668101462235,0.573795770623,0.81898313906,0.00240384126566,0.0,0.818943948,-0.573733391345,-0.0118975876112,0.0,-0.00836492069812,0.0087955660503,-0.999926330346,0.0,0.645076948508,0.23946433684,0.303593208066,1.0,-0.0590657142857,-0.0776292244898,1.172
0.451508102462,0.456270217532,-0.124465348753,-1.49876486521,0.0707266216041,1.94608260526,0.13909034847,-0.0506136743437,-0.304033609058,-0.000477598748521,-0.467405935875,-0.0365820030822,0.163515118922,-0.0730378797216,0.573764705616,0.819005071783,0.00234560969462,0.0,0.818965101602,-0.573702539041,-0.0119292060707,0.0,-0.00842456023574,0.00876569865813,-0.999926091925,0.0,0.644029851583,0.238136685206,0.303579315798,1.0,-0.0629514285714,-0.0827361632653,1.189
0.450559740236,0.450868087962,-0.12449801378,-1.50686837155,0.0701750136471,1.94910207254,0.137778314715,-0.0567129817052,-0.329220361332,-0.00210089494294,-0.48171364786,-0.040809049029,0.184351672761,-0.0698504124152,0.573710023955,0.819042632886,0.00259245624079,0.0,0.819006247263,-0.573647317982,-0.0117587591658,0.0,-0.00814392629294,0.00886952662553,-0.999927501353,0.0,0.642989404543,0.236739284857,0.303694267856,1.0,-0.0668371428571,-0.0878431020408,1.206
0.449609384103,0.445559929166,-0.124535612994,-1.51493080415,0.0696382903835,1.95195196329,0.136579494602,-0.0564784321415,-0.332834250893,0.00173740969537,-0.515874597075,-0.036027017261,0.172732205087,-0.0713832090576,0.573751961674,0.819012992297,0.00267428969818,0.0,0.818977706593,-0.573688995991,-0.0117131927525,0.0,-0.00805920163821,0.00891082252391,-0.999927820651,0.0,0.641985202052,0.235424588449,0.303747540696,1.0,-0.0702657142857,-0.0923492244898,1.221
0.448464433266,0.439330194047,-0.124570907598,-1.52467285277,0.0689587954138,1.9551944508,0.135038714818,-0.0680377470188,-0.355222450708,-0.00428963433548,-0.553507878429,-0.0388635070539,0.185843521675,-0.0855416048327,0.573695791161,0.819053150868,0.00241291484049,0.0,0.819014203159,-0.573633521005,-0.0118771000103,0.0,-0.00834400799881,0.00879022305153,-0.999926552057,0.0,0.640547733163,0.233628954,0.303650377945,1.0,-0.0746085714286,-0.0980569795918,1.24
0.447365147093,0.433455496708,-0.124595760432,-1.53349163497,0.0683869352823,1.95837163583,0.133605563895,-0.0725785286968,-0.371667414641,-0.00114626869398,-0.55376300832,-0.0329158300466,0.203168390329,-0.0881364569199,0.573669668412,0.819070835041,0.00261259081739,0.0,0.819034359387,-0.573606510254,-0.0117913713946,0.0,-0.00815952640913,0.00890432520037,-0.999927064901,0.0,0.639364075733,0.232076595902,0.303738679201,1.0,-0.0782657142857,-0.102863510204,1.256
0.446177275267,0.427464102893,-0.124635526586,-1.54269681438,0.0677133811258,1.9616053655,0.132111833062,-0.0727608099288,-0.374202659257,-0.00437549685512,-0.586878650448,-0.0398199461312,0.198889231358,-0.0920310248179,0.573656917616,0.819079842384,0.00258835332744,0.0,0.819043389506,-0.573594218253,-0.0117620488656,0.0,-0.00814954953162,0.00886752510697,-0.99992747329,0.0,0.638109362544,0.230406548341,0.303720029686,1.0,-0.0819228571429,-0.107670040816,1.272
0.444819923478,0.420785358569,-0.124743875462,-1.55299535012,0.0669695889299,1.96497928478,0.130402558177,-0.0827589688926,-0.394837456109,-0.000699740596258,-0.619459070514,-0.0440846345494,0.198435827805,-0.0958110522944,0.573676058399,0.819067179462,0.0023414629306,0.0,0.819027598902,-0.573614381273,-0.0118777411517,0.0,-0.00838573258465,0.00873186660407,-0.999926714312,0.0,0.636657334901,0.22847225964,0.303653179344,1.0,-0.0858085714286,-0.112776979592,1.289
0.443306272586,0.413332804333,-0.124835241464,-1.56406610925,0.0662004014516,1.9689903004,0.128610195914,-0.0865526515063,-0.411731841255,-0.0097289596127,-0.621918078941,-0.0340085599375,0.218485530725,-0.114547617448,0.573762127877,0.819005974941,0.00264206845743,0.0,0.818970754145,-0.573699807915,-0.0116696681196,0.0,-0.00804192858107,0.00885956098302,-0.99992841522,0.0,0.635164969312,0.226410160733,0.303785183295,1.0,-0.0899228571428,-0.118184326531,1.307
0.441857675708,0.406549292637,-0.124864155209,-1.57440082593,0.0654950985536,1.97241483734,0.126880677988,-0.0923033948606,-0.429711266099,-0.00608025480706,-0.662169032965,-0.0452741378617,0.211120238828,-0.0993475679094,0.573777230498,0.818995719182,0.00253941434495,0.0,0.818958622615,-0.573714687965,-0.0117888998259,0.0,-0.00819831702579,0.00884404784226,-0.999927282564,0.0,0.633678037576,0.22448084597,0.303750691758,1.0,-0.09358,-0.122990857143,1.323
0.440236040926,0.399071642956,-0.124966010734,-1.58562853931,0.0647054333378,1.97628145306,0.124987845111,-0.0973102140648,-0.456244046588,-0.00289046549953,-0.663131484418,-0.0398049689938,0.242578696227,-0.109883261572,0.573858281341,0.818938698358,0.00261307661831,0.0,0.818902670256,-0.573795579328,-0.0117386835999,0.0,-0.00811404667626,0.00887636711374,-0.999927683562,0.0,0.632099427399,0.222325352232,0.303787020178,1.0,-0.0974657142857,-0.128097795918,1.34
0.438531007624,0.391376722085,-0.125001262644,-1.59716823629,0.0638119001633,1.98026676598,0.123007640025,-0.100326047063,-0.450702758119,-6.58727657822e-05,-0.69655567928,-0.0527229078143,0.223367106722,-0.114255629128,0.573854983399,0.818940805178,0.00267629295168,0.0,0.818906101692,-0.573792613533,-0.0116438897381,0.0,-0.00800017333829,0.00887370762675,-0.999928624723,0.0,0.630453029629,0.220121870362,0.303815271098,1.0,-0.101351428571,-0.133204734694,1.357
0.436835961193,0.383937070869,-0.125056181883,-1.60852172488,0.0629545229397,1.9838684085,0.12099094254,-0.108748329823,-0.469905171645,-0.00401227430924,-0.715992497659,-0.0513873432192,0.226043725905,-0.131444560613,0.573820250451,0.818966043117,0.00238480489338,0.0,0.818927282527,-0.573758654756,-0.0118261966192,0.0,-0.00831711113303,0.00873926115446,-0.99992722284,0.0,0.628748351524,0.217920085433,0.303714785366,1.0,-0.105008571429,-0.138011265306,1.373
0.434975603132,0.375726775093,-0.125109408686,-1.62064825408,0.0620965492849,1.98802285229,0.118844313569,-0.112924814427,-0.47464984506,-0.000533180805008,-0.720403408295,-0.0525352318569,0.246893430542,-0.132117985046,0.573835309316,0.818954897835,0.0025806966008,0.0,0.818918503862,-0.573772787448,-0.0117481623051,0.0,-0.00814063831067,0.00885506103687,-0.999927656334,0.0,0.626977588845,0.215578695869,0.303793216256,1.0,-0.108894285714,-0.143118204082,1.39
0.432957466746,0.367330661824,-0.125186338243,-1.63326343064,0.0611203267078,1.99207635234,0.116664643032,-0.125661815528,-0.499404780492,-0.00383583703616,-0.759378797657,-0.0608062667127,0.24215028366,-0.122774217518,0.573936998338,0.818884185827,0.00239980050214,0.0,0.8188454153,-0.573875114607,-0.0118442213277,0.0,-0.00832201997518,0.00876307119156,-0.999926973617,0.0,0.625074472257,0.213056951284,0.303738647156,1.0,-0.11278,-0.148225142857,1.407
0.431025183318,0.359160971085,-0.125290724767,-1.6452060096,0.0601715722467,1.99610597746,0.114438740282,-0.127356144723,-0.504899711945,-0.00458032492636,-0.751401361804,-0.0560652271994,0.253586591745,-0.139702190156,0.573922678992,0.818893748321,0.00255624736052,0.0,0.818857676037,-0.573860928845,-0.0116827925547,0.0,-0.00810019125506,0.00879839177039,-0.999928485045,0.0,0.623302290189,0.210656915242,0.303832874444,1.0,-0.116437142857,-0.153031673469,1.423
0.428819517831,0.350375233468,-0.125311797164,-1.65841574355,0.0592139676373,2.00023862652,0.111989628049,-0.132271707813,-0.518211468775,-0.0009339950735,-0.782123153842,-0.0482190406381,0.237353471418,-0.144477806472,0.573917599368,0.818897982306,0.00233036735098,0.0,0.818857859267,-0.573855521677,-0.0119328730738,0.0,-0.00843467390498,0.00875689408576,-0.999926083809,0.0,0.621230058164,0.208017754303,0.303723577518,1.0,-0.120322857143,-0.158138612245,1.44
0.426534868057,0.341211759224,-0.125399297489,-1.67156588001,0.0582041432857,2.00465853159,0.109503916473,-0.136416187096,-0.532467542055,-0.0042437362223,-0.794666225511,-0.0611416605598,0.257871633445,-0.139915914893,0.573965000679,0.818863737352,0.00266543570052,0.0,0.818828289569,-0.573901987206,-0.0117255355616,0.0,-0.00807207243952,0.00891275278028,-0.999927699629,0.0,0.619242020599,0.205322208553,0.303894230097,1.0,-0.124208571429,-0.16324555102,1.457
0.424324249695,0.332555558308,-0.125382374167,-1.68447585129,0.0571602223011,2.00869134498,0.107018913112,-0.139235152911,-0.549370548805,-0.000305685146678,-0.783704395712,-0.069826319047,0.241353474119,-0.156041044469,0.573832806405,0.81895708819,0.00243821611669,0.0,0.818918219617,-0.573770155947,-0.011895571646,0.0,-0.00834314770747,0.00882293873162,-0.999926271101,0.0,0.617030248134,0.202573670998,0.303789796195,1.0,-0.128094285714,-0.168352489796,1.474
0.421710443557,0.322440930494,-0.125382397383,-1.69902622566,0.0559563507285,2.01340084148,0.104151315068,-0.150868210095,-0.559916772763,0.000355865732531,-0.803146972699,-0.0634707029405,0.258735261769,-0.157398563048,0.573723428576,0.819033095171,0.00263882907494,0.0,0.818997128622,-0.573660351389,-0.0117580378153,0.0,-0.00811658676008,0.00890722669575,-0.99992738853,0.0,0.614855390573,0.199765293036,0.303899043256,1.0,-0.13198,-0.173459428571,1.491
0.419085427171,0.312770700584,-0.125409597977,-1.71315094941,0.0548380701177,2.01778989027,0.101337412575,-0.155967811324,-0.571604767387,-0.00316832137947,-0.806451941168,-0.0574727421977,0.254908270436,-0.173420582472,0.573682510036,0.81906195415,0.00257678950887,0.0,0.819024590202,-0.573619025012,-0.0118609312473,0.0,-0.00823690062554,0.00891503442287,-0.999926335101,0.0,0.612556846339,0.196819536338,0.303867292418,1.0,-0.135865714286,-0.178566367347,1.508
0.416509620451,0.303396745836,-0.125474449982,-1.72652015159,0.0536713304314,2.02204414774,0.0985549363615,-0.167913906315,-0.584934674551,-0.00132855999975,-0.865947532851,-0.0642500299413,0.264712344175,-0.178212223016,0.573596966756,0.819121390338,0.00272296168253,0.0,0.819086624179,-0.573533724006,-0.0117011290147,0.0,-0.00802308918225,0.0089422457687,-0.999927830536,0.0,0.610402462633,0.193959963497,0.303964869081,1.0,-0.139522857143,-0.183372897959,1.524
0.413414598362,0.292713608714,-0.125580014371,-1.74194513378,0.0524614751855,2.02667317642,0.0954505578399,-0.169262619332,-0.613595460251,-0.0108967197067,-0.853001918085,-0.0713842006979,0.269427979281,-0.175318857525,0.573739062747,0.819022143654,0.00263874679082,0.0,0.81898536412,-0.57367509444,-0.0118577518165,0.0,-0.00819813583675,0.00896452300963,-0.999926211226,0.0,0.607837919257,0.190589414102,0.303941420666,1.0,-0.143637142857,-0.188780244898,1.542
0.410579882127,0.283053653554,-0.125689048093,-1.75574898336,0.0512851169039,2.03098475863,0.0925073766731,-0.178245377992,-0.603692298502,-0.00637673100347,-0.849150439978,-0.0747974879481,0.255206614057,-0.187967007752,0.573745397716,0.819017404028,0.00273082397528,0.0,0.818982106896,-0.573681402496,-0.0117772626423,0.0,-0.00807931569963,0.00899381937045,-0.999926915265,0.0,0.605559750807,0.187540484545,0.303972415611,1.0,-0.147294285714,-0.19358677551,1.558
0.407390237674,0.272525951667,-0.125762755818,-1.77072868472,0.0499800259229,2.03544917863,0.0892773234781,-0.184877804074,-0.624051679259,-0.00257911308235,-0.887253360706,-0.0781753498748,0.277186172553,-0.191180979987,0.573749971841,0.819014301649,0.00270007573339,0.0,0.818978526352,-0.57368600108,-0.0118022218609,0.0,-0.00811734912931,0.00898300145612,-0.999926704478,0.0,0.60301733245,0.184194853376,0.30398648098,1.0,-0.15118,-0.198693714286,1.575
0.404044173833,0.26186460952,-0.125929682367,-1.78585696855,0.0486534282776,2.04001381769,0.0859580481631,-0.197961371363,-0.63847623095,-0.00980950950501,-0.904358149147,-0.0833603939203,0.269057081347,-0.1979263418,0.573860309696,0.818936910217,0.00272560834057,0.0,0.818901730564,-0.573796524625,-0.011758014713,0.0,-0.00806528292772,0.00897963623737,-0.999927156019,0.0,0.600457042145,0.180711743071,0.303995252079,1.0,-0.155065714286,-0.203800653061,1.592
0.400555175084,0.250996591271,-0.126065158842,-1.80108013994,0.0472738655995,2.04448947025,0.0825839933955,-0.20503456348,-0.650447766546,-0.00626216740047,-0.920376530597,-0.080960567503,0.268833789021,-0.200931417728,0.573979853976,0.818852993102,0.00276583061305,0.0,0.818818638106,-0.573916248739,-0.0117014625154,0.0,-0.00799457639467,0.00898129031936,-0.999927708973,0.0,0.597832313549,0.177166411083,0.304048789008,1.0,-0.158951428571,-0.208907591837,1.609
0.397181866847,0.24071654893,-0.126089231153,-1.81573065949,0.045977151516,2.04868083696,0.0791848877415,-0.211992916802,-0.646269698853,8.78634973651e-05,-0.925144417483,-0.0768450322883,0.251001697781,-0.218318570464,0.573891001983,0.818915799046,0.00260361621514,0.0,0.818878630366,-0.573827221053,-0.0118682774642,0.0,-0.00822525242711,0.00894331551255,-0.99992617844,0.0,0.59521765298,0.173828073023,0.303947692476,1.0,-0.162608571429,-0.213714122449,1.625
0.393487905946,0.229439887821,-0.126108336069,-1.83118125629,0.0445928592211,2.05325916295,0.0755692512939,-0.219532898859,-0.649455220885,-0.000762354082874,-0.929163146737,-0.0868016605738,0.260667207655,-0.220031790612,0.573851430167,0.818942469848,0.00291788901124,0.0,0.818909443681,-0.573786579435,-0.0117060331053,0.0,-0.00791247444813,0.00910718604755,-0.999927223307,0.0,0.592481804927,0.170267244459,0.30409024762,1.0,-0.166494285714,-0.218821061224,1.642
0.38938204837,0.217367562873,-0.126145499678,-1.84790961201,0.0429885582615,2.05792128382,0.0714845526596,-0.231800162534,-0.68939464197,-0.00772026308154,-0.917653229024,-0.0912013914913,0.266721830609,-0.234050547277,0.573703101002,0.819046575948,0.002864477147,0.0,0.819012873098,-0.573638474857,-0.0117286301647,0.0,-0.00796327339278,0.00907496987538,-0.999927112943,0.0,0.58942721392,0.166340144757,0.304096153715,1.0,-0.170608571429,-0.224228408163,1.66
0.385803925499,0.207157940948,-0.126247703122,-1.86187930614,0.0417265202342,2.06182962783,0.0680760612913,-0.238626101916,-0.67579529921,-0.0116397793526,-0.933484308406,-0.0825339659851,0.259177681813,-0.230201320504,0.573771079819,0.818998540244,0.00298092990696,0.0,0.818966015512,-0.57370565565,-0.0117146494842,0.0,-0.00788425627667,0.00916298378851,-0.999926936446,0.0,0.586873754381,0.162971522491,0.304150196862,1.0,-0.174037142857,-0.228734530612,1.675
0.381611174762,0.195408156118,-0.126363732339,-1.8779146892,0.0401630339176,2.06617589229,0.0639983133074,-0.250427529516,-0.69567729598,-0.0115434356017,-0.946491178387,-0.0899460599153,0.271682484702,-0.237101420231,0.573737146522,0.819022330971,0.00297573070601,0.0,0.818989783425,-0.573671796664,-0.0117111596052,0.0,-0.00788476026376,0.00915639662979,-0.999926992813,0.0,0.583704833688,0.158825720991,0.304180600436,1.0,-0.178151428571,-0.234141877551,1.693
0.376844582843,0.18284687536,-0.126541793829,-1.89510060398,0.0385620680862,2.07070840952,0.059538881214,-0.26815233032,-0.71042284361,-0.012143571448,-0.960712894889,-0.0909212710005,0.248898262072,-0.259649589296,0.573852235782,0.81894196624,0.00290074489908,0.0,0.818907649266,-0.573786221883,-0.0118482256641,0.0,-0.00803875653653,0.00917474961621,-0.999925598414,0.0,0.580642908247,0.154731557116,0.304144476361,1.0,-0.182037142857,-0.239248816327,1.71
0.372746971204,0.172178905222,-0.126653747016,-1.90942014978,0.0371284364178,2.07454784574,0.0557641862339,-0.27182880914,-0.710927197917,-0.00406997879072,-0.954030763438,-0.102308695345,0.247713573566,-0.255498857451,0.573931578306,0.818885983311,0.00300610398271,0.0,0.818853325138,-0.573865509559,-0.0117624721551,0.0,-0.00790717642069,0.00921258982159,-0.999926299659,0.0,0.577930865205,0.151093761149,0.304203500582,1.0,-0.185465714286,-0.243754938775,1.725
0.367463822141,0.158543762224,-0.126711573007,-1.92771456352,0.0352701939394,2.07925832988,0.0507051865428,-0.279680034882,-0.731386833995,-0.00138967774686,-0.95648016978,-0.0930633981833,0.25858904252,-0.271552986026,0.573770144719,0.818999110991,0.00300401840052,0.0,0.818966258778,-0.573703910605,-0.0117829045904,0.0,-0.00792692389835,0.00922104611652,-0.99992606536,0.0,0.574359358488,0.146500311089,0.304217228598,1.0,-0.189808571429,-0.249462693878,1.744
0.362511846147,0.146231203448,-0.126788612406,-1.94429766237,0.0335131582513,2.08343257755,0.0461219420672,-0.294666900381,-0.724650772872,-0.00371259042527,-0.994473359866,-0.1090583545,0.236376891837,-0.274396344542,0.573722069996,0.819033317703,0.00285618496255,0.0,0.818998557843,-0.573656392723,-0.0118512547533,0.0,-0.00806825907597,0.00913871372293,-0.999925690793,0.0,0.571070777058,0.142260053582,0.304148058103,1.0,-0.193694285714,-0.254569632653,1.761
0.3576528429,0.134351901316,-0.126930733105,-1.9598104646,0.0319504781672,2.08734720783,0.041610248176,-0.305226945335,-0.747621933023,-0.00613134106162,-0.980153846781,-0.0974404244991,0.245469421389,-0.287459186654,0.573744226489,0.819017003677,0.00307524941479,0.0,0.818985014883,-0.57367767344,-0.0117566702411,0.0,-0.00786486232755,0.00926408322363,-0.999926157625,0.0,0.567993258049,0.138181255485,0.304255386339,1.0,-0.197351428571,-0.259376163265,1.777
0.352200850097,0.121726511803,-0.127125795325,-1.97645857389,0.0301742933842,2.09134395562,0.0366810565568,-0.332279508555,-0.752316366857,-0.0190254288558,-0.960399104072,-0.106012188142,0.245082535739,-0.28450726426,0.573878359042,0.818923156601,0.00303965577266,0.0,0.818890722702,-0.573811932587,-0.0117727309969,0.0,-0.00789692331672,0.00924543946174,-0.999926077493,0.0,0.564440355064,0.133397585701,0.304255956496,1.0,-0.201465714286,-0.264783510204,1.795
0.346843423498,0.10963025723,-0.12727509156,-1.99217412833,0.0284348817338,2.09511979853,0.0318289296532,-0.337456205339,-0.743758826944,-0.00343953112748,-0.979014673382,-0.10563736762,0.221992234082,-0.309460383655,0.573906086822,0.818903672025,0.00305390814914,0.0,0.818871675007,-0.573839902382,-0.011734274862,0.0,-0.00785693768923,0.00923530845744,-0.999926486102,0.0,0.561214077049,0.129082497676,0.30427170105,1.0,-0.205122857143,-0.269590040816,1.811
0.341437424401,0.0973709548729,-0.127356959909,-2.00794086558,0.026691546479,2.09878595057,0.0268660303738,-0.338089246048,-0.77005492057,-0.00544258988808,-0.998041741162,-0.10704082739,0.231656226283,-0.315521473125,0.57380435269,0.818974582739,0.00315350019139,0.0,0.818944093463,-0.573738100858,-0.0116580575603,0.0,-0.0077385186056,0.00927216304536,-0.999927068502,0.0,0.558132613411,0.12508511968,0.304333863387,1.0,-0.208551428571,-0.274096163265,1.826
0.335111319016,0.0835363738204,-0.127487785464,-2.02592158434,0.0248179268059,2.1026650553,0.021077156991,-0.354946955173,-0.784890241195,-0.00568016148587,-1.00534823975,-0.11342469014,0.206784213075,-0.320557363864,0.573771948266,0.818997896144,0.00299071824647,0.0,0.818963501068,-0.573704176689,-0.0119602871521,0.0,-0.00807981802713,0.00931194563074,-0.999923999217,0.0,0.554265262391,0.120171231469,0.304236323536,1.0,-0.212665714286,-0.279503510204,1.844
0.32880110435,0.0702006099034,-0.127649562531,-2.04270966445,0.0228761217345,2.10644985391,0.0154028787137,-0.38597328927,-0.767064042684,-0.012781010851,-0.989579228573,-0.0984535417073,0.215271450635,-0.33900118796,0.573774554589,0.818995304396,0.0031935536093,0.0,0.81896431368,-0.573706946531,-0.0117702728443,0.0,-0.0078077846252,0.00936906988208,-0.999925626749,0.0,0.550692520465,0.115384045026,0.304342032426,1.0,-0.216551428571,-0.28461044898,1.861
0.322547148707,0.0575433350236,-0.127897370017,-2.05864973511,0.0209972100642,2.10974172131,0.00987844459829,-0.397668370735,-0.810371280971,-0.0163429120315,-0.988337858194,-0.119543774863,0.21853376557,-0.355669827035,0.573914482796,0.81889742049,0.00315088137151,0.0,0.818865935737,-0.573847076186,-0.0117838594261,0.0,-0.00784179900393,0.00934325689719,-0.999925602102,0.0,0.547218656647,0.110684845299,0.304364401488,1.0,-0.21998,-0.289116571429,1.877
0.315840496426,0.0441550786376,-0.127981411975,-2.07560702584,0.0190886898598,2.11320283023,0.00392910721739,-0.389992178799,-0.793006555497,0.000588726705594,-1.00624369735,-0.107903827224,0.19486175092,-0.34070273564,0.573911903853,0.818899476014,0.00308572534368,0.0,0.818866097867,-0.573843498237,-0.0119457187364,0.0,-0.00801177363953,0.00938276670152,-0.999923884689,0.0,0.543431289768,0.105830167091,0.304288901953,1.0,-0.21998,-0.289116571429,1.894
0.308965518701,0.030706862458,-0.128075997159,-2.09216675613,0.0170797171207,2.11651478679,-0.0022042330554,-0.410783475148,-0.777902688931,-0.0100419658242,-0.982296354037,-0.123798907301,0.198384350939,-0.364422563378,0.573829997324,0.818956442028,0.0031979889182,0.0,0.818924920217,-0.573761660405,-0.0118439435028,0.0,-0.00786494182347,0.00941550416584,-0.999924742654,0.0,0.53970374183,0.100954275593,0.304360736347,1.0,-0.21998,-0.289116571429,1.911
0.302320398053,0.0182187427738,-0.128198911277,-2.10753293956,0.0152184706968,2.11937075595,-0.00808150852058,-0.421203945556,-0.778704708076,-0.00945002285039,-0.943324016716,-0.121095495498,0.171685686941,-0.369758856778,0.573823173031,0.818961345521,0.00316662861364,0.0,0.818929053262,-0.573754518238,-0.0119040088751,0.0,-0.0079322083704,0.00942422176259,-0.999924129179,0.0,0.536171793393,0.0963229498719,0.304364350845,1.0,-0.21998,-0.289116571429,1.927
0.295042567478,0.00501182820551,-0.128391014175,-2.12355898737,0.0132458339163,2.12228357312,-0.0144308837628,-0.430783654807,-0.776621411222,-0.0054209911933,-0.940651094503,-0.104807365512,0.170510496575,-0.376853616064,0.57393286278,0.818884255098,0.00322376729133,0.0,0.818852634566,-0.573863898551,-0.0118884694007,0.0,-0.00788542856256,0.00946315581203,-0.999924131471,0.0,0.532457730922,0.0913356062853,0.304409475865,1.0,-0.21998,-0.289116571429,1.944
0.287314516526,-0.00894056680677,-0.128454856233,-2.14023667999,0.0111765056243,2.12530500953,-0.0212740941203,-0.43102866967,-0.778085465217,-0.00464120461548,-0.912578782246,-0.126759238144,0.175373552067,-0.378753812314,0.573833233401,0.818953190316,0.00344081617875,0.0,0.818924737475,-0.573763949117,-0.0117452946789,0.0,-0.00764477745521,0.00955779392585,-0.999925100171,0.0,0.528530548132,0.0862116730783,0.304509359851,1.0,-0.21998,-0.289116571429,1.962
0.28026125748,-0.0211020600008,-0.12854076717,-2.15502271184,0.00927602398205,2.12765814557,-0.0274849483629,-0.444669113299,-0.757394317499,-0.00633808035505,-0.913805864545,-0.114554938216,0.133786689269,-0.390650517989,0.57376262941,0.819003581027,0.00321344961285,0.0,0.818971373345,-0.573693184756,-0.011948485608,0.0,-0.00794247127556,0.00948750042632,-0.999923449313,0.0,0.524938894116,0.0815938288356,0.3044095321,1.0,-0.21998,-0.289116571429,1.978
0.272539334019,-0.0341047973856,-0.128756177874,-2.17021983105,0.00728962632673,2.13018481626,-0.0341498761649,-0.464489831741,-0.742176680868,-0.0175169904016,-0.911021676683,-0.118374953993,0.142082125502,-0.390101746832,0.573911548554,0.81889832353,0.00343759463764,0.0,0.818869810699,-0.573842241405,-0.0117499790272,0.0,-0.00764954839247,0.00955857516134,-0.999925056217,0.0,0.521274275347,0.0766061838757,0.304531438501,1.0,-0.21998,-0.289116571429,1.995
0.264673652836,-0.0468765259189,-0.128887657202,-2.18537213172,0.00545033408708,2.13238633649,-0.0409904062288,-0.462213023479,-0.761167811107,-0.00328049218589,-0.879720168406,-0.105737424637,0.132807132671,-0.410417386854,0.574005572204,0.818832618722,0.00339005870399,0.0,0.818801796225,-0.573934326564,-0.01198975364,0.0,-0.00787208187359,0.00965815750433,-0.999922372147,0.0,0.517491443161,0.0716722631954,0.304473429141,1.0,-0.21998,-0.289116571429,2.012
0.257231948421,-0.0588552093519,-0.128959031452,-2.19922616477,0.00352606021021,2.13448831182,-0.0475183701628,-0.472007912775,-0.727712085695,0.00120261841781,-0.868916207841,-0.108006953272,0.107698685908,-0.407943691012,0.573903930914,0.818903412873,0.00349647929064,0.0,0.818874994868,-0.573833584072,-0.0118113281219,0.0,-0.00766608726256,0.00964193273674,-0.999924129241,0.0,0.514024969439,0.0670971669528,0.304538391314,1.0,-0.21998,-0.289116571429,2.028
0.249142556139,-0.0715132875222,-0.129115885814,-2.21391862898,0.00155352351499,2.13640946835,-0.0546088062032,-0.482525398017,-0.758006324812,-0.021575217877,-0.846215418337,-0.113471220864,0.116572995991,-0.415190798911,0.573893583825,0.818910987104,0.00342002126724,0.0,0.818880954276,-0.573822735783,-0.011924660331,0.0,-0.00780289963251,0.00964426201412,-0.999923048523,0.0,0.51024378025,0.0621758456452,0.304508016252,1.0,-0.21998,-0.289116571429,2.045
0.24080874762,-0.0840620217976,-0.129288851862,-2.22828765714,-0.000351651746106,2.13827353472,-0.0618595021236,-0.485493864644,-0.727306056997,-0.00395042452532,-0.857369272969,-0.100947534575,0.111236380011,-0.422910961537,0.573974380717,0.818854060639,0.00349063831065,0.0,0.818824492725,-0.573902698795,-0.0119536325029,0.0,-0.00778514365555,0.00971948608741,-0.999922458558,0.0,0.506516296806,0.0572178349952,0.304513869076,1.0,-0.21998,-0.289116571429,2.062
0.232953131477,-0.0958432115109,-0.129344904603,-2.24159187438,-0.00216074312946,2.13982054444,-0.0687874953486,-0.500256638092,-0.7438701889,-0.0031426641089,-0.806886102528,-0.120696573988,0.111252221183,-0.438744843974,0.573861738959,0.818932821648,0.00353342440268,0.0,0.818903481561,-0.57378950381,-0.0119766483749,0.0,-0.00778077841688,0.00976666184701,-0.999922032862,0.0,0.502982833901,0.0526700646521,0.304541526727,1.0,-0.21998,-0.289116571429,2.078
0.223885265285,-0.108934595796,-0.129497358709,-2.25635863384,-0.00426417422452,2.14143755226,-0.0766595832406,-0.509295180809,-0.728160196604,-0.00403789013039,-0.788816681043,-0.111544748781,0.0816679709191,-0.438957962053,0.573881238748,0.818919386453,0.00347982836288,0.0,0.818889165456,-0.573808972696,-0.0120226642031,0.0,-0.00784898717201,0.00974936287539,-0.999921668594,0.0,0.499005405009,0.0474694990301,0.304519027259,1.0,-0.21998,-0.289116571429,2.096
0.215042709599,-0.121299376658,-0.129696313669,-2.26995018633,-0.0062283870945,2.14283856481,-0.084308735505,-0.516964345092,-0.726159615112,-0.00778690943685,-0.781756927646,-0.1076117263,0.090398844123,-0.448816117769,0.573988069088,0.818843976028,0.00360366054223,0.0,0.818815850403,-0.573915939601,-0.0119098405088,0.0,-0.00768425087565,0.0097870291589,-0.999922580177,0.0,0.495303475209,0.0424835388678,0.304597718042,1.0,-0.21998,-0.289116571429,2.113
0.207255459784,-0.13205549309,-0.129774452215,-2.28184863962,-0.00786495456666,2.14390026097,-0.0912137220081,-0.526809674728,-0.722755284468,-0.00396194735564,-0.811069248967,-0.117990505098,0.0724419197345,-0.458610085959,0.573899218154,0.818906349324,0.00358124849118,0.0,0.818876972249,-0.573825968239,-0.0120419847035,0.0,-0.00780639464645,0.00984367704894,-0.999921077998,0.0,0.491746965578,0.0379211988402,0.304564723953,1.0,-0.21998,-0.289116571429,2.129
0.197655355687,-0.144930621092,-0.129923057135,-2.29577625661,-0.00993485340305,2.14514243353,-0.0996232065708,-0.537411147825,-0.71716381287,-0.00661812835725,-0.779431194318,-0.115735804251,0.07788834458,-0.467715992986,0.573863224728,0.818930902032,0.00373147471964,0.0,0.818904281762,-0.573790458465,-0.0118757731212,0.0,-0.00758449902943,0.00987098013161,-0.999922516561,0.0,0.488057185906,0.0330170665727,0.304649464623,1.0,-0.21998,-0.289116571429,2.146
0.188386628931,-0.156932348814,-0.130124271868,-2.30883252288,-0.011862058861,2.14607930961,-0.107734804657,-0.542765261765,-0.703013237096,-0.0099673530803,-0.778545891802,-0.117645347618,0.0502176360896,-0.4807211815,0.573907037772,0.818900445902,0.00367676470902,0.0,0.818872511947,-0.573833683528,-0.0119774674936,0.0,-0.00769865025771,0.00988494475819,-0.999921506245,0.0,0.484286801165,0.028063862476,0.304613775631,1.0,-0.21998,-0.289116571429,2.163
0.179625331151,-0.168186342716,-0.130202023352,-2.32074037287,-0.0135832541724,2.14685260734,-0.115472359954,-0.551322900711,-0.7176080383,-0.00760299588149,-0.725246229049,-0.102196896903,0.0570699019977,-0.491451801099,0.573834439917,0.818950680791,0.00381639870499,0.0,0.818924526644,-0.573760541722,-0.0119250712493,0.0,-0.00757649210063,0.00996855100976,-0.999921609307,0.0,0.480796270248,0.0235258493888,0.304682176168,1.0,-0.21998,-0.289116571429,2.179
0.170037316808,-0.179964810277,-0.130376895644,-2.33332659395,-0.0155074052607,2.14754542384,-0.12386361776,-0.572545292153,-0.688931643513,-0.0174233852402,-0.741933141652,-0.122068154144,0.0302981843648,-0.502389177558,0.573862341271,0.818931427596,0.00375194188548,0.0,0.818904028457,-0.573788143135,-0.0120044106431,0.0,-0.00767811720532,0.0099615513125,-0.999920903878,0.0,0.477035943828,0.0185920005039,0.304643318471,1.0,-0.21998,-0.289116571429,2.196
0.160233305652,-0.191751516631,-0.130563502885,-2.34557904525,-0.0173607311797,2.14813466835,-0.132489030111,-0.584075657937,-0.695248969332,-0.00553459844081,-0.714517271545,-0.102765987606,0.0336454508144,-0.513304043402,0.573909535696,0.818897628186,0.00390720991938,0.0,0.818872509707,-0.573835110001,-0.011909083831,0.0,-0.00751037086707,0.0100344367586,-0.999921449119,0.0,0.473108146259,0.01335677541,0.304715120552,1.0,-0.21998,-0.289116571429,2.214
0.150960820841,-0.202673544509,-0.130712615966,-2.35696063972,-0.0190855199143,2.14858080818,-0.140742773777,-0.590272916991,-0.687993269901,-0.00775159414019,-0.707648855992,-0.112041491067,0.0177959003666,-0.517440566852,0.573837564515,0.818948056809,0.00390854200372,0.0,0.818922449418,-0.573762469786,-0.0119748488807,0.0,-0.00756435014529,0.0100726048373,-0.999920658472,0.0,0.46957417324,0.00876544470019,0.304693081495,1.0,-0.21998,-0.289116571429,2.23
0.140203278266,-0.21487693405,-0.130944370465,-2.3694962662,-0.0209997646852,2.14886971929,-0.150159082453,-0.607241724505,-0.688511803831,-0.0187043202701,-0.67771577977,-0.110321652436,0.0223276640426,-0.531617372681,0.57398907357,0.818841498405,0.00398632827859,0.0,0.818816334483,-0.573912907371,-0.0120221477789,0.0,-0.00755657373673,0.0101648478799,-0.999919783813,0.0,0.465836399615,0.00379684461289,0.304717225584,1.0,-0.21998,-0.289116571429,2.247
0.130064717105,-0.226257877045,-0.131024453931,-2.38110265184,-0.0228647703457,2.14913130504,-0.15921976545,-0.592619900873,-0.660927576324,-0.00321413300319,-0.692729245022,-0.113277792314,0.00862653034575,-0.533731071801,0.573822697416,0.818957966971,0.00401337352811,0.0,0.818933542886,-0.573746981523,-0.0119582787641,0.0,-0.00749081093893,0.0101488133753,-0.999920441504,0.0,0.462112836975,-0.00101775084618,0.304726694954,1.0,-0.21998,-0.289116571429,2.264
0.120249038984,-0.236842960275,-0.131199195003,-2.39189891278,-0.024601459578,2.14915554649,-0.167938353244,-0.617598240145,-0.659720190131,-0.00986952293159,-0.658311998314,-0.116921367557,0.00164700340151,-0.5460529229,0.573810282466,0.818967070932,0.00392980486819,0.0,0.818940797559,-0.57373385859,-0.0120903474811,0.0,-0.00764708158259,0.0101560387714,-0.999919185244,0.0,0.458554998189,-0.00564249446639,0.304677218357,1.0,-0.21998,-0.289116571429,2.28
0.109532896624,-0.248094328569,-0.131396052084,-2.40288552674,-0.026345088601,2.14922214247,-0.177402606271,-0.623640140905,-0.650798615209,-0.00237037221023,-0.648040954357,-0.0947934478149,0.000265588138293,-0.557000701996,0.57391939946,0.818889181399,0.00421644540987,0.0,0.818867684938,-0.57384335147,-0.0118435400157,0.0,-0.00727910776841,0.0102501456118,-0.99992097143,0.0,0.454901486528,-0.0106045556387,0.304809626058,1.0,-0.21998,-0.289116571429,2.297
0.0982519015953,-0.259751857333,-0.131553441135,-2.41463839177,-0.0282094719932,2.14911621368,-0.187602358057,-0.639337166485,-0.649279240103,-0.0164670340052,-0.651800513833,-0.107084994871,-0.0142499629811,-0.577568747886,0.573768998881,0.818994836754,0.00416415595963,0.0,0.818971654767,-0.573691756229,-0.0119976841049,0.0,-0.0074372425792,0.0102944230943,-0.999919352886,0.0,0.450890111917,-0.0157134971109,0.304722439743,1.0,-0.21998,-0.289116571429,2.315
0.0884466236214,-0.269413177789,-0.131766977063,-2.42395028206,-0.029804829516,2.14901019622,-0.196252193601,-0.663668878392,-0.64256883425,-0.0190460602949,-0.611815337435,-0.10356249721,0.0013624649474,-0.588871438945,0.573910812241,0.818894497449,0.00435069450998,0.0,0.818875125753,-0.573834863094,-0.0117398986959,0.0,-0.00711729528416,0.0103005286273,-0.999921618537,0.0,0.44744817267,-0.0204280048148,0.304822257326,1.0,-0.21998,-0.289116571429,2.331
0.076760554243,-0.280802392925,-0.131875126504,-2.43508233064,-0.0316628284648,2.14866778796,-0.206823205533,-0.642981027777,-0.626592503938,-0.0031346331325,-0.623672259444,-0.1100514736,-0.0209839620848,-0.600425302888,0.573728558359,0.819022404026,0.0043116038851,0.0,0.819002213692,-0.573652318549,-0.0117956895753,0.0,-0.00718771085344,0.0102989353877,-0.999921131261,0.0,0.443697817304,-0.0252409954159,0.304783322557,1.0,-0.21998,-0.289116571429,2.348
0.0654177525838,-0.291460597262,-0.132112749497,-2.44535573515,-0.0333119249567,2.14819783584,-0.217044916167,-0.677049608823,-0.625016211065,-0.0192964298251,-0.593984756996,-0.0972072851583,-0.0263465722572,-0.60722638121,0.573771784795,0.818991728472,0.00438572320164,0.0,0.81897166982,-0.573694090084,-0.0118845250825,0.0,-0.00721740321521,0.0104109886656,-0.999919756983,0.0,0.439942890979,-0.0301625230322,0.304772899038,1.0,-0.21998,-0.289116571429,2.365
0.054457510939,-0.301404184431,-0.132283373708,-2.45461038686,-0.0349551786192,2.14780459249,-0.226791799315,-0.679743771759,-0.608305480643,-0.00502963066144,-0.575315021068,-0.107150222446,-0.0296360595362,-0.607730637377,0.573860328496,0.818928693382,0.00456786998558,0.0,0.818912629725,-0.573784438592,-0.0115874849606,0.0,-0.00686848344272,0.0103904843971,-0.999922427876,0.0,0.436506273494,-0.0348463806283,0.304883973523,1.0,-0.21998,-0.289116571429,2.381
0.0429051736749,-0.311739861971,-0.132462171186,-2.46451993085,-0.0366229026873,2.14709542854,-0.23731499735,-0.695967433386,-0.606433053487,-0.00858834424831,-0.581473468834,-0.101545744789,-0.0382739683895,-0.63010835163,0.573762090599,0.818998000263,0.00448172486476,0.0,0.818979570915,-0.573684626466,-0.0117965538389,0.0,-0.00709039386114,0.0104390574834,-0.999920373027,0.0,0.432712645978,-0.0396801396479,0.304808954629,1.0,-0.21998,-0.289116571429,2.398
0.0301949287688,-0.322561046124,-0.132718853393,-2.47455020342,-0.0383971348318,2.14636732512,-0.248695985306,-0.699424139861,-0.611193965827,-0.00635995926632,-0.537056957891,-0.0944995220352,-0.0312518614081,-0.625303919131,0.57390527875,0.818897150223,0.00457550882689,0.0,0.818880367239,-0.573828123764,-0.0117036502597,0.0,-0.00695866417536,0.0104637824734,-0.999921040007,0.0,0.428780008158,-0.0449594725384,0.304849468892,1.0,-0.21998,-0.289116571429,2.416
0.0197037609546,-0.33143266371,-0.132850527061,-2.48271595658,-0.0397524351696,2.14575966969,-0.258398446805,-0.704196163321,-0.583845148443,-0.0137130789632,-0.553038154231,-0.0921626967157,-0.046902911519,-0.644311193853,0.573752875331,0.819003067513,0.00472867366868,0.0,0.81898852376,-0.573675655275,-0.0116097973841,0.0,-0.00679586554681,0.0105340869122,-0.999921421525,0.0,0.425529787738,-0.0492026989533,0.304881365823,1.0,-0.21998,-0.289116571429,2.431
0.00661330576851,-0.341918063281,-0.133136486688,-2.49241164082,-0.0415063444494,2.14473263399,-0.270156421669,-0.729891418964,-0.581271031699,-0.0108221343064,-0.538367860909,-0.105626452569,-0.054188973728,-0.653020724463,0.57392071105,0.818885847005,0.00466196360868,0.0,0.818869568024,-0.57384233959,-0.0117620899082,0.0,-0.00695671079099,0.0105682506015,-0.999919954923,0.0,0.421511476901,-0.05448373867,0.304837220744,1.0,-0.21998,-0.289116571429,2.449
-0.00501624409709,-0.351107870992,-0.133264361972,-2.50064750859,-0.0429758186375,2.14382541332,-0.28084040958,-0.728867756767,-0.580661352384,-0.0100674177061,-0.505486335258,-0.0897973556438,-0.0420715687285,-0.680421517166,0.573788374929,0.818977975515,0.00476689822464,0.0,0.818963610186,-0.573710539331,-0.0116434166742,0.0,-0.00680101300513,0.0105849771052,-0.999920849108,0.0,0.417816094651,-0.0593394162071,0.304902196038,1.0,-0.21998,-0.289116571429,2.466
-0.0176671115632,-0.360654728599,-0.133541895718,-2.5091826006,-0.0445743313652,2.14284329362,-0.29240776416,-0.7585554156,-0.555734327692,-0.018593399419,-0.50303817625,-0.0934828978916,-0.0668609571625,-0.680748047096,0.573872260936,0.818918938562,0.00481114268961,0.0,0.818905406229,-0.573794682486,-0.0115907247542,0.0,-0.00673138552094,0.0105916701017,-0.999921249386,0.0,0.41431241844,-0.0640223470637,0.304919123863,1.0,-0.21998,-0.289116571429,2.482
-0.0311410579512,-0.37057910742,-0.133686901186,-2.51815463878,-0.0461228395336,2.14163740658,-0.30487004247,-0.743199474293,-0.544476220981,-0.0118840222694,-0.48810558263,-0.0817552392539,-0.0643962887636,-0.692586685194,0.57375924936,0.818998213069,0.00479558810196,0.0,0.818983280772,-0.573679867607,-0.0117703959316,0.0,-0.00688893352101,0.0106810856554,-0.99991922524,0.0,0.410308391316,-0.0691435186011,0.304860958216,1.0,-0.21998,-0.289116571429,2.5
-0.0441685529307,-0.379737763526,-0.133943204879,-2.52616764607,-0.0476740616551,2.14045181501,-0.316767588834,-0.774239803063,-0.538056185507,-0.010228464857,-0.455155664416,-0.0896563076893,-0.0639034029885,-0.710706854532,0.573855765785,0.818930462769,0.00481706595563,0.0,0.818916011546,-0.573776611659,-0.0117351117376,0.0,-0.00684645251921,0.010679239581,-0.999919536728,0.0,0.406583764376,-0.0741022131376,0.304891276748,1.0,-0.21998,-0.289116571429,2.517
-0.0557298240091,-0.387652503213,-0.134071218997,-2.53302318667,-0.0489550033842,2.13949786503,-0.327493781935,-0.767009304906,-0.518630190026,-0.00899123273644,-0.460832656883,-0.0787400319913,-0.072749681303,-0.724052933703,0.573775787257,0.81898592052,0.00491475831399,0.0,0.818973555723,-0.573697635666,-0.0115794973878,0.0,-0.00666398840515,0.0106692977387,-0.999920875542,0.0,0.403342989914,-0.0784047096645,0.304935494205,1.0,-0.21998,-0.289116571429,2.532
-0.0691054390827,-0.396451517627,-0.134327763615,-2.54074939035,-0.0504309492482,2.13816249714,-0.339832115957,-0.792502453482,-0.517925702452,-0.0172620565932,-0.450522314356,-0.0854754777996,-0.0820982462937,-0.727256925833,0.573828486656,0.818949322342,0.00486027143417,0.0,0.818935240134,-0.573748895615,-0.0117483679466,0.0,-0.00683287415478,0.0107220021853,-0.999919171983,0.0,0.39954485639,-0.0833463552404,0.304887885114,1.0,-0.21998,-0.289116571429,2.549
-0.0825039523658,-0.405033774531,-0.134469445112,-2.54819103487,-0.0518131500837,2.13682336133,-0.352354287776,-0.782987710691,-0.501342762914,-0.0117529234708,-0.426989764223,-0.0637953839003,-0.0773589176094,-0.753957236802,0.573709559222,0.819032729321,0.00484529252984,0.0,0.819017722081,-0.573628898562,-0.0118576790489,0.0,-0.00693256089099,0.010771451655,-0.999917954349,0.0,0.39579010193,-0.088180195233,0.304859811883,1.0,-0.21998,-0.289116571429,2.566
-0.0954354375051,-0.412905923239,-0.134733559486,-2.55475112079,-0.0530203636107,2.13569434185,-0.364352570339,-0.828388968346,-0.495914726921,-0.0173673361627,-0.40598420334,-0.0790151766923,-0.0695912418224,-0.755696620948,0.573839366867,0.818940403131,0.00507385983987,0.0,0.818929174761,-0.573759215083,-0.0116669076357,0.0,-0.00664345611047,0.0108502716439,-0.999919064773,0.0,0.392339851612,-0.092858178604,0.304939699835,1.0,-0.21998,-0.289116571429,2.582
-0.109236612392,-0.421099888699,-0.134881858262,-2.56165078867,-0.0544180042386,2.13432634563,-0.377300114493,-0.819695426112,-0.478797154018,-0.0164905985625,-0.403148807694,-0.0740492339166,-0.0901414559773,-0.766879329692,0.573708199211,0.819032393333,0.00505843160719,0.0,0.819021156112,-0.573628431011,-0.0116411287096,0.0,-0.00663292902639,0.0108217818447,-0.9999194434,0.0,0.38838135163,-0.0980248104124,0.304954463483,1.0,-0.21998,-0.289116571429,2.6
-0.124097239499,-0.429458788117,-0.135167278667,-2.56878817522,-0.0557987737062,2.1327670601,-0.391137736363,-0.840233843568,-0.464665487446,-0.0115279271389,-0.388648529365,-0.0754119523081,-0.0873940090203,-0.760435187433,0.573816458763,0.818956741672,0.00502730780271,0.0,0.818943595931,-0.573734346748,-0.011875729293,0.0,-0.00684150112877,0.0109317809286,-0.999916841556,0.0,0.384578873234,-0.102946066453,0.304888978281,1.0,-0.21998,-0.289116571429,2.617
-0.137338144004,-0.436620347838,-0.135303565245,-2.57480802633,-0.0569990710603,2.13149588252,-0.40367151477,-0.828455346293,-0.446401068131,-0.0129703687842,-0.369077401313,-0.0750980640072,-0.0860842351084,-0.789898102301,0.573678631187,0.819053343086,0.00501958173629,0.0,0.819039882083,-0.573596228436,-0.0119073583724,0.0,-0.0068736808696,0.0109424453615,-0.999916504215,0.0,0.38107867227,-0.107503169229,0.304865367168,1.0,-0.21998,-0.289116571429,2.633
-0.151848498443,-0.444090854559,-0.135558433424,-2.58071635393,-0.0582225839446,2.13014857078,-0.417190694728,-0.855453415582,-0.438190285359,-0.0108008119905,-0.340415457809,-0.0741927946437,-0.0773748792816,-0.802887991969,0.573850026507,0.818932161646,0.00519698007239,0.0,0.818922460838,-0.573769368471,-0.0116388075428,0.0,-0.006549651947,0.0109350642606,-0.999918759915,0.0,0.37740329993,-0.112516450285,0.304987487144,1.0,-0.21998,-0.289116571429,2.65
-0.166219548324,-0.451254362719,-0.135709372802,-2.58662579734,-0.059362064366,2.12873141247,-0.430880852805,-0.852162042188,-0.411399419683,-0.0126712388744,-0.351530644365,-0.0675383606014,-0.092012142759,-0.81707026456,0.573724705635,0.819019705995,0.00523738847504,0.0,0.819009938951,-0.57364295316,-0.0117144821186,0.0,-0.00659012758935,0.011010573008,-0.999917665361,0.0,0.373673278523,-0.117342239197,0.304969237592,1.0,-0.21998,-0.289116571429,2.667
-0.180063826767,-0.457778194043,-0.135959747833,-2.59200800044,-0.0604898654703,2.12730321626,-0.443964809602,-0.861806858241,-0.402094600871,-0.00966456696955,-0.32488233205,-0.0731438031048,-0.0849372185605,-0.823200565068,0.573765187935,0.818991521464,0.00520996976149,0.0,0.818980185812,-0.573681515667,-0.0119046516842,0.0,-0.00676107561768,0.0110975503765,-0.999915562551,0.0,0.370091099128,-0.121983007152,0.304923954328,1.0,-0.21998,-0.289116571429,2.683
-0.195702714863,-0.464751443122,-0.136143720678,-2.59768913348,-0.0617055839862,2.12590365936,-0.458887562087,-0.884178484495,-0.379037429433,-0.0167952228417,-0.312547293108,-0.0638530619286,-0.0811200048273,-0.832668515047,0.573663245187,0.819062886771,0.00521685123241,0.0,0.819051661447,-0.573579600693,-0.0118980859902,0.0,-0.00675313123014,0.0110985789721,-0.99991560482,0.0,0.366153963963,-0.127157424466,0.304906434983,1.0,-0.21998,-0.289116571429,2.701
-0.210731176822,-0.471094793345,-0.136320280769,-2.60271737644,-0.0627713497662,2.12454825464,-0.47307142569,-0.875397860371,-0.365037186258,-0.00628904959492,-0.28518610211,-0.0597993751632,-0.0785213298428,-0.832326912723,0.573756047055,0.818997484709,0.00527876975764,0.0,0.818987304913,-0.573672561768,-0.0118462300955,0.0,-0.00667387577447,0.0111203056695,-0.999915895555,0.0,0.362436397442,-0.132085612328,0.304933564685,1.0,-0.21998,-0.289116571429,2.718
-0.224925874321,-0.476895121994,-0.136563485803,-2.60714596895,-0.0637717083467,2.12331444782,-0.486647208469,-0.892709851667,-0.355044359419,-0.0220556502237,-0.272123486419,-0.0667661935804,-0.0756392369481,-0.851082104613,0.573768817527,0.818987744203,0.00540053518396,0.0,0.818980306664,-0.573686887976,-0.0116343784429,0.0,-0.00643032093666,0.0110985892052,-0.999917732761,0.0,0.358964510023,-0.136734377544,0.305022758952,1.0,-0.21998,-0.289116571429,2.734
-0.240118170612,-0.482689509787,-0.136715432468,-2.61180161898,-0.0647638289079,2.12195542322,-0.501282568918,-0.895001495962,-0.337906222445,-0.0107471207492,-0.270768176701,-0.0404550387728,-0.0799374699241,-0.862713019287,0.57365496018,0.819067483605,0.00540285692702,0.0,0.819059332543,-0.573571765621,-0.0117467594614,0.0,-0.0065225881056,0.0111640621624,-0.999916406286,0.0,0.355210308087,-0.141593796264,0.30498782982,1.0,-0.21998,-0.289116571429,2.751
-0.255536982131,-0.488084689727,-0.136907652117,-2.61617219483,-0.0656684116017,2.12061109979,-0.515942566682,-0.904923928225,-0.304629793983,-0.013736531259,-0.247036385709,-0.0585926765087,-0.0807498037643,-0.857940396576,0.573786762482,0.818974986158,0.00542864157024,0.0,0.818965660704,-0.573700881831,-0.0119704500547,0.0,-0.00668921149994,0.0113145746533,-0.999913613694,0.0,0.351440430363,-0.146493176734,0.304921839864,1.0,-0.216094285714,-0.284009632653,2.768
-0.269867620532,-0.492773825687,-0.136948174524,-2.6199086209,-0.0664110056618,2.11951655466,-0.529742871461,-0.893886274226,-0.285871931715,-0.00169515053666,-0.22605464241,-0.0457349655462,-0.0623125226601,-0.865145733702,0.573724395967,0.819018327948,0.00548113662404,0.0,0.819009277433,-0.573637631732,-0.0120173974267,0.0,-0.00669841147967,0.0113839950029,-0.999912764166,0.0,0.348023806271,-0.150980267055,0.30489500643,1.0,-0.212437142857,-0.279203102041,2.784
-0.286059048794,-0.497753404161,-0.137023401477,-2.62377410618,-0.0672761686321,2.11828665056,-0.545144465552,-0.890781478077,-0.274612564075,0.00063739894007,-0.211604254026,-0.0524147501306,-0.0747266018533,-0.849715587264,0.573834660114,0.818940889421,0.00550902783694,0.0,0.818932194326,-0.573747752272,-0.0120135241084,0.0,-0.00667770234624,0.0114055163702,-0.999912657429,0.0,0.344401969826,-0.155765308221,0.304899579974,1.0,-0.208551428571,-0.274096163265,2.801
-0.301051042394,-0.502103611662,-0.136991197536,-2.62707801603,-0.0678916194059,2.11718409624,-0.559574261796,-0.891052844656,-0.243981796383,0.00266988000973,-0.186789492748,-0.0374514363536,-0.0599393643896,-0.851509816672,0.573823976552,0.81894767692,0.00561188943705,0.0,0.818940362096,-0.573736739199,-0.0119826677273,0.0,-0.00659355769861,0.0114719656835,-0.999912455668,0.0,0.340691598156,-0.160638354071,0.304929627928,1.0,-0.204437142857,-0.268688816327,2.819
-0.31424422847,-0.505569971749,-0.136961081836,-2.62971045833,-0.0684585702019,2.11632880593,-0.572196253712,-0.870545501007,-0.21772430092,0.00622993868182,-0.171650496045,-0.0262308524213,-0.0587435064193,-0.848614609133,0.573870885052,0.818914551814,0.00564898385852,0.0,0.81890809479,-0.573784151748,-0.0119174826167,0.0,-0.0065182280204,0.0114653156488,-0.999913025838,0.0,0.337455423771,-0.164944898347,0.304949044363,1.0,-0.20078,-0.263882285714,2.835
-0.329844520723,-0.509441243449,-0.136929998992,-2.6326102138,-0.0689930679349,2.11538082964,-0.587176943212,-0.868686216938,-0.208030069725,-0.00203457900522,-0.156631363064,-0.0230162595492,-0.0543682152856,-0.837114792365,0.573968203942,0.81884534532,0.00579208193997,0.0,0.818841335794,-0.573881968442,-0.0117940660383,0.0,-0.00633366663547,0.011512436664,-0.999913670508,0.0,0.334078930771,-0.169432621053,0.304991826725,1.0,-0.196894285714,-0.258775346939,2.852
-0.347683021984,-0.513430508734,-0.136764388859,-2.63570630595,-0.0696142539099,2.11424348494,-0.604491597241,-0.842018167748,-0.176036333325,0.00787992884743,-0.14351717516,-0.0334727376683,-0.0499261255373,-0.813061931636,0.573836142538,0.818937915066,0.00578961881932,0.0,0.818933200666,-0.573748724756,-0.0118979237076,0.0,-0.00642199806368,0.0115689924539,-0.999912454345,0.0,0.329972391755,-0.174768823679,0.304968572782,1.0,-0.192094285714,-0.25246677551,2.873
-0.35787491028,-0.515429388436,-0.13672151992,-2.63732463571,-0.0699379294742,2.1136764118,-0.614244944689,-0.847971831642,-0.164525944024,0.00112106215365,-0.129674231685,-0.0250717892752,-0.0463519910827,-0.804897506475,0.573933968992,0.818869267105,0.00580254508909,0.0,0.818863979979,-0.573845150302,-0.0120113558554,0.0,-0.00650609306988,0.0116454445156,-0.999911023229,0.0,0.32763505683,-0.177819492541,0.304923895831,1.0,-0.189351428571,-0.248861877551,2.885
-0.37273108743,-0.518162511724,-0.136546746995,-2.6394877722,-0.0703472083596,2.11292838164,-0.62867095245,-0.827746803429,-0.149682545371,0.00323951027369,-0.116857926578,-0.0178381996551,-0.0387520352096,-0.803695582845,0.573863020928,0.818918869643,0.00581936897606,0.0,0.818913348989,-0.573773338193,-0.0120760146005,0.0,-0.00655040357846,0.0116957623363,-0.999910146641,0.0,0.324266169623,-0.182218545711,0.304888775124,1.0,-0.185237142857,-0.243454530612,2.903
-0.385905351021,-0.520320516657,-0.1364575175,-2.64112321967,-0.0706687764571,2.11230591909,-0.641308118106,-0.827069519538,-0.133787328,0.00676270786142,-0.0969282439187,-0.0150133133776,-0.0418737425587,-0.774964282125,0.574007604083,0.818817121367,0.00587699853003,0.0,0.818812225997,-0.573917424962,-0.012086140159,0.0,-0.00652355222915,0.0117499208262,-0.999909687235,0.0,0.321303903277,-0.186137363213,0.304888446373,1.0,-0.18158,-0.238648,2.919
-0.398629107577,-0.522252998891,-0.136254834834,-2.64255976738,-0.0709129517848,2.11174515577,-0.6538039639,-0.789467154126,-0.114484617186,0.00504126997497,-0.0855882800404,-0.0144879426229,-0.0342539631937,-0.772992210797,0.573862942682,0.818918185314,0.00592247237026,0.0,0.818914004003,-0.573772822024,-0.0120561045357,0.0,-0.00647493422568,0.0117687737739,-0.999909781526,0.0,0.318465357182,-0.18987020022,0.304902598725,1.0,-0.177922857143,-0.233841469388,2.935
-0.413002154254,-0.524177438981,-0.136140424205,-2.64394239051,-0.0711989151101,2.11113937312,-0.667646157743,-0.797829471606,-0.103498267385,0.00647931778605,-0.0742048168655,-0.0112939146482,-0.0278035889456,-0.76975843535,0.574013869388,0.818811919729,0.00598871944408,0.0,0.81880875608,-0.573923724281,-0.0120219206454,0.0,-0.00640674710524,0.0118045923807,-0.999909798527,0.0,0.315253776578,-0.194115710396,0.304931049146,1.0,-0.173808571429,-0.228434122449,2.953
-0.426063020811,-0.525676889893,-0.135945507239,-2.64504758067,-0.0713960437644,2.11070269247,-0.680489132574,-0.76191706414,-0.0828858311655,0.00747519659882,-0.0596997220143,-0.00675123852941,-0.0322190052209,-0.755715328851,0.57390600959,0.818887175074,0.00603602167826,0.0,0.818884899701,-0.573816196359,-0.0119683223322,0.0,-0.00633726067634,0.0118117265301,-0.999910157086,0.0,0.3123624361,-0.197936721712,0.304945540252,1.0,-0.169922857143,-0.223327183674,2.97
-0.43838892497,-0.526867327152,-0.135829510584,-2.64594641229,-0.0715816235531,2.11030779983,-0.69236172731,-0.760492790824,-0.0699104009138,0.00767815437083,-0.0567482267646,-0.0131496121079,-0.0226358676835,-0.731562032663,0.574063897502,0.818776161118,0.00608165027345,0.0,0.818774329339,-0.573973582119,-0.0119863066241,0.0,-0.00632351727831,0.0118606333751,-0.999909665172,0.0,0.309617224135,-0.201550376722,0.304941692217,1.0,-0.166265714286,-0.218520653061,2.986
-0.451633861629,-0.527958670427,-0.135585879888,-2.64679330907,-0.0717121229536,2.1099509234,-0.70542245077,-0.730698176245,-0.0499220620727,0.00834734722863,-0.0417839679166,-0.00555680151352,-0.0218654627873,-0.715342479353,0.573938053235,0.818864129283,0.00611520422766,0.0,0.818862599131,-0.573847370004,-0.0119994410803,0.0,-0.00631683962777,0.011894676891,-0.999909302986,0.0,0.30668595308,-0.205383719983,0.304931396393,1.0,-0.162151428571,-0.213113306123,3.004
-0.464172301149,-0.528746487416,-0.135429573836,-2.64741856889,-0.0718336988935,2.10965108206,-0.717519871929,-0.733450985687,-0.0367376678104,0.0102406065216,-0.0371667627575,-0.00437665276885,-0.00949202036212,-0.706100191667,0.574100977089,0.818749612939,0.00615518635773,0.0,0.818748264702,-0.574009450373,-0.0120489348174,0.0,-0.00633204749146,0.0119570836118,-0.999908462473,0.0,0.303902851868,-0.209031056148,0.304913283717,1.0,-0.158265714286,-0.208006367347,3.021
-0.476150518642,-0.529287463803,-0.135160563811,-2.64785443819,-0.0718969364336,2.10943045176,-0.729383683624,-0.702119035684,-0.0289498336556,0.0115447000184,-0.0274143395449,-0.00401101602523,-0.00855763939272,-0.69311107005,0.573952860782,0.818853399477,0.00616203420613,0.0,0.818851966923,-0.573861008432,-0.0120725377949,0.0,-0.00634960969983,0.0119750919919,-0.999908135595,0.0,0.301278186399,-0.212484530165,0.304900682196,1.0,-0.15438,-0.202899428571,3.038
-0.487371698164,-0.529657856803,-0.135022169126,-2.6481509534,-0.0719294378359,2.10922631493,-0.740291128169,-0.704017722122,-0.0216799131184,0.00224466961914,-0.0208923839775,-0.000472275315598,-0.0157392299402,-0.668019384791,0.574081234419,0.81876288406,0.00623080049662,0.0,0.818761947983,-0.573988293032,-0.0121267843182,0.0,-0.00635267667019,0.0120635339234,-0.999907053005,0.0,0.298791979383,-0.215737935901,0.304887170553,1.0,-0.150722857143,-0.198092897959,3.054
-0.498889628292,-0.52987515286,-0.134734245825,-2.64831835615,-0.0719533519238,2.10908710296,-0.751680205232,-0.659641369458,-0.0124440279295,0.0163557488977,-0.00863467061958,0.00053909754829,-0.00912154114963,-0.667246441029,0.573943977749,0.818859141888,0.00622599813261,0.0,0.818858154285,-0.573851108734,-0.0121233273576,0.0,-0.0063546238517,0.0120565521926,-0.99990712484,0.0,0.296134440714,-0.219231682541,0.304887283287,1.0,-0.146608571429,-0.19268555102,3.072
-0.509527271733,-0.530005412843,-0.134543788638,-2.64842199515,-0.0719694817165,2.10899935122,-0.762088186221,-0.669393836283,-0.00552124579375,0.0077055012582,-0.00325507787005,-0.000671561698917,-0.00792954292032,-0.642840531253,0.574004857443,0.818816261539,0.00625302903104,0.0,0.818815665707,-0.573911928604,-0.012114070379,0.0,-0.00633063175326,0.0120738458287,-0.999907068356,0.0,0.293923066699,-0.222110351927,0.30488360245,1.0,-0.14318,-0.188179428571,3.087
-0.521269336158,-0.52999203024,-0.134302488369,-2.64840382129,-0.0719666359327,2.1089029776,-0.773562074643,-0.629058598925,0.00630646846459,0.0123990804968,0.00430897521881,0.000924154863881,-0.000994457063652,-0.620561089488,0.574056540079,0.818779900901,0.00626973486311,0.0,0.818779461763,-0.573963408015,-0.0121221349369,0.0,-0.00632688386511,0.012092553796,-0.999906866005,0.0,0.291327837929,-0.225480649822,0.304884906059,1.0,-0.139065714286,-0.182772081633,3.105
-0.531238212855,-0.529854516744,-0.134081007433,-2.64830263015,-0.0719732170097,2.10891266357,-0.783478873668,-0.629820956528,0.00845544081145,0.00991790313307,0.00767519371674,-0.00120479618202,-0.000347647857254,-0.61962772325,0.573946103414,0.818857409331,0.00625783195428,0.0,0.81885709976,-0.573853593221,-0.0120768630725,0.0,-0.00629827071692,0.0120559707416,-0.999907488399,0.0,0.289131235642,-0.228344392455,0.304887189686,1.0,-0.135408571429,-0.17796555102,3.121
-0.541198160375,-0.52965513168,-0.133911615049,-2.64814309874,-0.0719697999873,2.10890333474,-0.793152573022,-0.618629250749,0.0205563910084,0.0110827175926,0.0126267525684,-0.000968029543746,0.000159899564321,-0.604732954898,0.574071625825,0.818769316354,0.00627071935995,0.0,0.818769288924,-0.573979250517,-0.0120589548414,0.0,-0.00627436021386,0.0120572083816,-0.999907623798,0.0,0.286909287558,-0.231205696416,0.304890454801,1.0,-0.131751428571,-0.173159020408,3.137
-0.551201039605,-0.529265173285,-0.133584103345,-2.64785226426,-0.0719398346562,2.10893142567,-0.803162619625,-0.583802688882,0.0254989759662,0.0203142787686,0.0197642302313,0.00661271916565,-0.00104377021482,-0.587476333759,0.573864261585,0.818915119683,0.00621151601309,0.0,0.818914370609,-0.573772285741,-0.0120567253998,0.0,-0.0063095604616,0.012005854695,-0.99990802022,0.0,0.284716521123,-0.234050559373,0.30489104633,1.0,-0.127865714286,-0.168052081633,3.154
-0.562228201359,-0.52873276676,-0.133341909299,-2.64746273097,-0.0719128172468,2.10899387582,-0.814001088958,-0.578256935152,0.0309379088263,0.0109810700896,0.0206087581354,0.00288497697695,0.00932568335979,-0.568839715249,0.57388178527,0.818903009166,0.00618910452325,0.0,0.818901949285,-0.573789867752,-0.0120636654153,0.0,-0.00632784827493,0.0119916184797,-0.999908075486,0.0,0.282262617513,-0.237209659996,0.304885177243,1.0,-0.123522857143,-0.162344326531,3.173
-0.570739844233,-0.528194130158,-0.133151398829,-2.64702467041,-0.0718751297582,2.10909607219,-0.822300802386,-0.552971341257,0.0413364163376,0.0159625092194,0.0328923912495,0.000318678278982,0.00418305603063,-0.557330160769,0.573961676672,0.81884718345,0.00616690929304,0.0,0.818846223752,-0.573870575858,-0.012007119274,0.0,-0.00629310917342,0.0119416066102,-0.999908893254,0.0,0.280386456566,-0.239665889063,0.304901087082,1.0,-0.120094285714,-0.157838204082,3.188
-0.579832748201,-0.52742466796,-0.132855507069,-2.64649040012,-0.0717810867929,2.10922136187,-0.83145931908,-0.534297758004,0.0474146721543,0.0109213485493,0.0317680252616,0.00234518921306,0.0061967944633,-0.538027249479,0.573769750047,0.818981931335,0.00613326828145,0.0,0.81898024718,-0.573678293263,-0.0120547695652,0.0,-0.00635423791926,0.0119399175739,-0.999908526831,0.0,0.278395999894,-0.242261755826,0.30488091307,1.0,-0.116208571429,-0.152731265306,3.205
-0.58889075078,-0.526627014801,-0.132621724413,-2.64589685635,-0.0716843635081,2.1093418901,-0.840271825331,-0.53240156552,0.0551328224622,0.012323765611,0.0353683155741,0.00329066186187,0.00323246460835,-0.509825512526,0.573880503333,0.818904390747,0.00612483560217,0.0,0.818902452589,-0.573788789193,-0.0120807880997,0.0,-0.00637877122549,0.0119488017031,-0.9999082645,0.0,0.276390616105,-0.244858715856,0.304875197373,1.0,-0.112322857143,-0.147624326531,3.222
-0.597073487961,-0.525752396997,-0.132385217809,-2.64523625706,-0.0715390750262,2.1094964051,-0.848356597994,-0.498698412179,0.0610547863311,0.017554167542,0.0385405915925,0.0156339382417,0.0102307930357,-0.491682198082,0.573892709456,0.818895732216,0.00613878589922,0.0,0.818893926976,-0.573800840234,-0.0120863149469,0.0,-0.00637511396194,0.0119634928584,-0.999908112159,0.0,0.274602171701,-0.247212938704,0.304874578418,1.0,-0.108665714286,-0.142817795918,3.238
-0.605247680419,-0.524771996732,-0.132059177699,-2.6445400589,-0.0713638048514,2.10964695281,-0.856641705259,-0.485972485726,0.0566607495661,0.0170573432048,0.0390961190037,0.0054747691347,0.00931735963152,-0.477006163926,0.573685420697,0.819041011839,0.00613236542567,0.0,0.819038610928,-0.573592667184,-0.0121635875732,0.0,-0.00644512132146,0.0120009479695,-0.999907214525,0.0,0.272822526929,-0.249535202673,0.304853061545,1.0,-0.10478,-0.137710857143,3.255
-0.61339762704,-0.523820918508,-0.13179603683,-2.64380666683,-0.0711882914424,2.10980366828,-0.864581850458,-0.475367720115,0.0584720974465,0.012749639774,0.048295277917,0.011096384954,0.0102626802425,-0.460729723842,0.573786806263,0.818969851174,0.00615066897787,0.0,0.81896763076,-0.573693839729,-0.0121714799724,0.0,-0.00643959822095,0.0120212648678,-0.999907006059,0.0,0.271026831507,-0.251862760691,0.304857832008,1.0,-0.100894285714,-0.132603918367,3.272
-0.620788770766,-0.522835194751,-0.131593323424,-2.64301620981,-0.0710208124167,2.10998843695,-0.87180608561,-0.458733105214,0.0670856057212,0.00928928354426,0.0554133078383,0.0102355609729,0.0153227450636,-0.445099525946,0.573895127519,0.818893762734,0.00617534345669,0.0,0.818892087155,-0.573802444383,-0.0121347153023,0.0,-0.00639373860254,0.0120212253238,-0.999907300828,0.0,0.269407904837,-0.254005005349,0.30487640531,1.0,-0.0972371428572,-0.127797387755,3.288
-0.628096079502,-0.52174940729,-0.131264483155,-2.64218574693,-0.0708041715339,2.11019826116,-0.879194832062,-0.427378740029,0.062967177616,0.020577774078,0.0450194141517,0.0108278527082,0.0196489292666,-0.428441461886,0.573733930793,0.819006711018,0.00617501948668,0.0,0.819005043539,-0.573641306893,-0.0121299870084,0.0,-0.00639241758982,0.0120169885946,-0.9999073602,0.0,0.267836094177,-0.256093531596,0.30488140696,1.0,-0.0933514285715,-0.12269044898,3.305
-0.635767401773,-0.520644664722,-0.130990510458,-2.64131314687,-0.0706036624852,2.11040288983,-0.886698549461,-0.420533276466,0.0627189642589,0.0179795860267,0.0526143384233,0.0109423933017,0.0167413383772,-0.406797076001,0.573810524383,0.818952969736,0.00618565837413,0.0,0.818951576892,-0.573718092632,-0.0121083357282,0.0,-0.00636745597233,0.0120138764575,-0.999907556866,0.0,0.266149607441,-0.258292763116,0.304896381159,1.0,-0.0892371428572,-0.117283102041,3.323
-0.642263637016,-0.519607549544,-0.130755717767,-2.64050415515,-0.0703947079697,2.11060905247,-0.893111689892,-0.392622988052,0.0693662744887,0.00649769669762,0.0520058824077,0.0123871676891,0.0161691249249,-0.395219149555,0.573845569511,0.818928176303,0.00621701785976,0.0,0.81892730457,-0.573753203996,-0.0120862580945,0.0,-0.00633086527209,0.012027162898,-0.999907629483,0.0,0.264730683062,-0.260162814343,0.304906108092,1.0,-0.0855800000001,-0.112476571429,3.339
-0.648843804254,-0.518490618316,-0.130520829723,-2.63966536976,-0.0701806541279,2.11083289016,-0.899567937609,-0.382590736848,0.0693153954976,0.0171321607479,0.0529890091993,0.0117960756107,0.0195894958979,-0.38154108184,0.573917743777,0.818877346378,0.00624994937061,0.0,0.818876815916,-0.573825048941,-0.0120962995949,0.0,-0.00631912987264,0.0120604518129,-0.999907302753,0.0,0.263285170025,-0.26205558563,0.304901153243,1.0,-0.0816942857143,-0.107369632653,3.356
-0.654996622798,-0.517388505553,-0.130188525067,-2.63885149484,-0.0699595985405,2.11105551353,-0.905804178692,-0.361222709951,0.0585702664222,0.0134108177283,0.0458420469544,0.0145869864709,0.0141163517292,-0.35187158154,0.573752441985,0.818993234703,0.00624209323086,0.0,0.818992439786,-0.573659509478,-0.0121201344695,0.0,-0.0063455941656,0.0120664162295,-0.999907063198,0.0,0.261955825814,-0.263800355401,0.304892239715,1.0,-0.0778085714286,-0.102262693878,3.373
-0.660351295235,-0.516450061438,-0.129939367638,-2.6381220489,-0.0697689377788,2.11124643595,-0.911037061629,-0.35297091355,0.0632014248415,0.0182510517226,0.049730448455,0.00984533762085,0.015693630843,-0.34330509227,0.573796141664,0.818962574057,0.00624796022254,0.0,0.8189619633,-0.573703378366,-0.0121030252428,0.0,-0.00632757064448,0.0120617431832,-0.999907233798,0.0,0.260785497131,-0.265327670341,0.304900171148,1.0,-0.0743800000001,-0.0977565714287,3.388
-0.666691926371,-0.515202330929,-0.129643985967,-2.63717295241,-0.0695152316743,2.11150790636,-0.917313059581,-0.323400220647,0.0643413136771,0.0112990859243,0.0434326213198,0.0134146672024,0.0124482393734,-0.328024680016,0.573798832118,0.818960533596,0.0062682990728,0.0,0.818960208188,-0.573706015873,-0.0120967622315,0.0,-0.00631073146569,0.0120748280324,-0.999907182291,0.0,0.259412697748,-0.267151828444,0.304900618377,1.0,-0.0700371428572,-0.0920488163266,3.407
-0.672130594503,-0.514123581856,-0.129455292934,-2.63637333943,-0.0692990594297,2.11171298532,-0.922651566765,-0.317201586998,0.0613919579829,0.0112446858497,0.0473624473123,0.0203802450178,0.0150428679706,-0.313257334574,0.57388224136,0.81890167531,0.00632187689205,0.0,0.818901787243,-0.573788663239,-0.012131763702,0.0,-0.00630742176641,0.0121394337523,-0.999906420911,0.0,0.258204243326,-0.268718231483,0.304887673358,1.0,-0.0661514285715,-0.0869418775511,3.424
-0.677172497861,-0.513090354025,-0.129144512356,-2.63559973685,-0.0690767925631,2.11192682582,-0.92761262839,-0.287718153329,0.0625484649366,0.0196285163044,0.0505126022517,0.0167769241158,0.0217981753147,-0.284588231374,0.573863914781,0.818914553156,0.00631734462776,0.0,0.818914533297,-0.573770221693,-0.0121435890568,0.0,-0.0063199792578,0.0121423666613,-0.999906306008,0.0,0.257118639361,-0.270145878591,0.30488309378,1.0,-0.0622657142858,-0.0818349387756,3.441
-0.681921636825,-0.512094955265,-0.128821523432,-2.63485131484,-0.0688748050233,2.11212960383,-0.932351634746,-0.270321684465,0.054556610316,0.015416670099,0.0451402432715,0.0128914048007,0.0120040110267,-0.276197925549,0.573768686889,0.818981477339,0.00629131334198,0.0,0.818981039786,-0.573674984594,-0.0121579366584,0.0,-0.00634807806153,0.0121285432062,-0.999906295782,0.0,0.25609940649,-0.271486036023,0.304880061155,1.0,-0.0583800000001,-0.0767280000001,3.458
-0.686725623524,-0.511055545516,-0.128560681431,-2.63406878637,-0.0686489857322,2.11235030632,-0.937001993028,-0.260581156601,0.0583660344142,0.0119799917587,0.0443869743558,0.010653544428,0.0136929855873,-0.247745649044,0.573846956659,0.818926496702,0.00630953516429,0.0,0.818926271492,-0.573753104701,-0.0121607404213,0.0,-0.00633875920157,0.0121456818304,-0.999906146868,0.0,0.255055742263,-0.272858176161,0.304875930569,1.0,-0.0542657142858,-0.0713206530613,3.476
-0.690184299388,-0.510288020103,-0.128354743983,-2.63351146922,-0.0684759096535,2.11251252277,-0.940391471402,-0.242592518088,0.0562069540897,0.0142177215505,0.0376654272888,0.0113865121997,0.00935880585675,-0.239273865492,0.57385925879,0.818917759664,0.00632462710363,0.0,0.818917633762,-0.573765147082,-0.0121742354131,0.0,-0.00634096907305,0.0121658806035,-0.999905887302,0.0,0.25425111099,-0.273906524977,0.304866326883,1.0,-0.0508371428572,-0.0668145306123,3.491
-0.694393879623,-0.509395058605,-0.128108484511,-2.63283881178,-0.0682686814705,2.11270557283,-0.94444946955,-0.226981268568,0.0498055735098,0.012145359929,0.0378959311997,0.016780416001,0.00827978818251,-0.219327537924,0.573933432432,0.818865638537,0.00634255957764,0.0,0.818865695931,-0.573839123331,-0.0121811109562,0.0,-0.00633520634591,0.0121850858851,-0.999905689974,0.0,0.253381593745,-0.275026149128,0.304860553132,1.0,-0.0469514285715,-0.0617075918368,3.508
-0.69785005035,-0.508645691421,-0.127874599803,-2.63224411476,-0.0680720336726,2.11287726121,-0.94783299669,-0.210258854434,0.0440738679975,0.0111397077451,0.0367215234525,0.0162145844347,0.0148726168626,-0.209179970714,0.573941421878,0.818859940998,0.00635516971955,0.0,0.818860424584,-0.573847557202,-0.0121380823752,0.0,-0.00629261195073,0.0121707795574,-0.999906133174,0.0,0.252641077346,-0.276003786268,0.304872997716,1.0,-0.0432942857143,-0.0569010612246,3.524
-0.701003143473,-0.507898228349,-0.127581501773,-2.63168919503,-0.0678751203595,2.11302286733,-0.950873650042,-0.189449272514,0.0439723171409,0.017065315421,0.0334313309268,0.0143124002415,0.0102915690987,-0.178162379724,0.573937888422,0.818862478966,0.00634725734798,0.0,0.818862711674,-0.573843775997,-0.0121625277356,0.0,-0.00631722511444,0.0121783023202,-0.999905886381,0.0,0.251982241546,-0.276876141331,0.304867093165,1.0,-0.0396371428572,-0.0520945306123,3.54
-0.704211477974,-0.507153304978,-0.127243429622,-2.63111239586,-0.0676673977076,2.11319107881,-0.954057104121,-0.170489041663,0.0425348423933,0.0163339139202,0.0241803404204,0.00909411925852,0.0100283739935,-0.173703694015,0.573835977608,0.818934105787,0.00632044958072,0.0,0.818934139843,-0.573742302201,-0.012140517512,0.0,-0.00631609616355,0.0121429314651,-0.999906323685,0.0,0.25132492665,-0.277759712683,0.304874871404,1.0,-0.0355228571429,-0.0466871836736,3.558
-0.706836268949,-0.506538536772,-0.126974859898,-2.63062536656,-0.0674801310271,2.11332982728,-0.956622281763,-0.159367575677,0.040337280753,0.0122257507144,0.0293060110939,0.0153419381828,0.0194548521935,-0.158048670854,0.573798457775,0.818960445933,0.00631385408154,0.0,0.818960591197,-0.573705200081,-0.012109515558,0.0,-0.0062950445414,0.0121194523599,-0.999906741296,0.0,0.250788079698,-0.278485625396,0.304885891873,1.0,-0.0318657142858,-0.0418806530613,3.574
-0.709232025934,-0.505983436427,-0.126762720215,-2.63019719629,-0.0672996762912,2.11344814963,-0.958897732678,-0.144724051565,0.0320343092778,0.00913233239233,0.0254281440327,0.00563654487485,0.0103315705038,-0.142098262299,0.57384493868,0.818927712061,0.00633527200148,0.0,0.818928201324,-0.573751698877,-0.0120969423151,0.0,-0.00627176897034,0.0121301355688,-0.999906758015,0.0,0.250284881884,-0.279147725475,0.304889159674,1.0,-0.0282085714286,-0.0370741224491,3.59
