nelsonifechukwu/NELSON_IML_WORK/CNN-GradCAM/train2dof/data_sample_2022-02-21-10-17-18/robot_state.csv
position_joint1,position_joint2,position_joint3,position_joint4,position_joint5,position_joint6,position_joint7,velocity_joint1,velocity_joint2,velocity_joint3,velocity_joint4,velocity_joint5,velocity_joint6,velocity_joint7,ee_T_00,ee_T_10,ee_T_20,ee_T_30,ee_T_01,ee_T_11,ee_T_21,ee_T_31,ee_T_02,ee_T_12,ee_T_22,ee_T_32,ee_T_03,ee_T_13,ee_T_23,ee_T_33,v_x,v_y,time
0.465084370036,0.547639748258,-0.123946982007,-1.3557524984,0.079408020033,1.89408685175,0.159187527686,-9.91926073314e-05,-0.000832593424415,-0.00217650711836,0.00110380844903,0.000247666509008,-0.000133593301469,0.000637786675637,0.573762070441,0.819007627786,0.00208303942472,0.0,0.818966903013,-0.573703654371,-0.0117505587599,0.0,-0.00842891220758,0.00844812792205,-0.999928788751,0.0,0.661689401765,0.260917199712,0.303350158352,1.0,0.0,0.0,0.0
0.465085762708,0.547642251059,-0.123941996718,-1.35576001336,0.0794063421841,1.89408685176,0.159187883107,0.000255375263616,-0.000699290269466,-0.000505543769917,-0.000957458476352,-0.00546537009832,-0.000215230541312,0.000764279279309,0.573752313607,0.819014474754,0.00207838283136,0.0,0.818973664158,-0.573693891417,-0.0117559885973,0.0,-0.00843613171355,0.00844732909664,-0.999928734617,0.0,0.661686499472,0.260923026081,0.303344979132,1.0,-4e-05,-5.25714285714e-05,0.003
0.465087521814,0.547644385988,-0.123939212947,-1.35575070802,0.0794060872528,1.89408756383,0.159189155291,0.000999207831991,0.000624590391247,0.000295188796017,0.00140272244227,-0.000690769342321,0.000232330388363,0.000974980666947,0.573754797156,0.819012726136,0.00208184276173,0.0,0.818971966691,-0.573696367441,-0.011753410591,0.0,-0.00843200956182,0.00844870923425,-0.999928757726,0.0,0.661687333221,0.260923667715,0.303347526268,1.0,-0.00034,-0.000446857142857,0.018
0.46507831317,0.547635835575,-0.123942023411,-1.35576409147,0.0794066849275,1.89408685176,0.159189272306,-0.00150187569186,-0.000732322492468,-0.000565129369889,-0.000528970093776,0.000692685944368,0.000210786166811,0.00156539811798,0.573765267846,0.819005402116,0.00207740684428,0.0,0.818964579983,-0.573706849023,-0.0117564883764,0.0,-0.00843696739321,0.00844694995588,-0.999928730769,0.0,0.661687363356,0.260914519044,0.303347245382,1.0,-0.00068,-0.000893714285714,0.035
0.465080752441,0.547591724933,-0.123934001168,-1.35580313762,0.0794072912078,1.89409328479,0.159180542516,0.00095506159574,0.00143508562078,0.00277871094365,-0.00268781885393,4.31476735043e-05,-4.75625441765e-05,-0.000219552538812,0.57375277171,0.819014119891,0.0020917160727,0.0,0.818973405725,-0.573694220702,-0.0117579228561,0.0,-0.00843006172225,0.00845936353304,-0.999928684071,0.0,0.661678348779,0.260917257077,0.303360203186,1.0,-0.001,-0.00131428571429,0.051
0.465080121843,0.547457877123,-0.123937298853,-1.35595192704,0.0794046591973,1.89412508154,0.159178065052,0.000877439084622,-0.00526793487402,0.00143670655927,-0.00555627043306,0.000574574368218,0.00046823357132,-0.00105388443043,0.573760966241,0.819008330916,0.00211054732774,0.0,0.818967791955,-0.57370227145,-0.0117561207518,0.0,-0.0084176971058,0.00847383663423,-0.99992866569,0.0,0.661655187009,0.260900762656,0.303387065367,1.0,-0.00136,-0.00178742857143,0.069
0.465068350895,0.547319559163,-0.123939242443,-1.35614393066,0.0793984464694,1.89417809833,0.159176392924,0.000537803906023,-0.0117921325363,-0.000886343769734,-0.0129886433265,-0.000199693033508,0.0025615226418,0.000538795650423,0.573779546683,0.818995306928,0.00211327702139,0.0,0.818954742924,-0.573720778137,-0.0117620013834,0.0,-0.00842075512157,0.00847963732091,-0.999928590767,0.0,0.661629258913,0.260873468365,0.303398312593,1.0,-0.00168,-0.002208,0.085
0.465045979919,0.547152779393,-0.123941617757,-1.35634898743,0.0793956749445,1.89428409265,0.159165209542,-0.00303467750859,-0.0133382262858,0.00388298345376,-0.0144815292102,-1.02045896939e-05,0.00666294896447,-0.000642434041352,0.573801249839,0.818979939536,0.00217513724157,0.0,0.818940145108,-0.5737422066,-0.0117331153784,0.0,-0.00836137906503,0.00851394739677,-0.999928797485,0.0,0.66161432531,0.260841903717,0.303428127254,1.0,-0.002,-0.00262857142857,0.101
0.465024688839,0.546968121696,-0.123939911079,-1.35656414576,0.0793887826814,1.89440294947,0.159149266238,-0.00536080155089,-0.0087578379526,0.000401165509583,-0.0115783839466,-0.000211523579394,0.00630345786165,-0.0017322764429,0.573814823413,0.818970217102,0.00225362651889,0.0,0.818931430789,-0.573755472174,-0.0116925923991,0.0,-0.00828301386184,0.00855511314478,-0.999929098347,0.0,0.661599116769,0.260812659966,0.303466766375,1.0,-0.00234,-0.00307542857143,0.118
0.465000486692,0.54674741175,-0.12394014729,-1.35684979903,0.0793793199279,1.8945403835,0.159115373854,-0.000435499400497,-0.0171446304,5.71632759276e-05,-0.0250321705009,-0.00022426166485,0.0135506372668,-0.00277731786316,0.573820662503,0.818965942899,0.00231917172075,0.0,0.818927980294,-0.573761041712,-0.0116609178806,0.0,-0.00821940247369,0.00859067563399,-0.99992931836,0.0,0.661573733902,0.26077331325,0.303499050115,1.0,-0.00268,-0.00352228571429,0.135
0.464965776505,0.546521636113,-0.123942425485,-1.35719372179,0.079367784171,1.89466832913,0.15899688541,-0.00075874991666,-0.0142857715662,-0.00257299977681,-0.0249428739735,0.00036984700031,0.00877156527203,-0.00922299426605,0.573769818234,0.819001526473,0.00233285646433,0.0,0.81896366449,-0.573710073424,-0.011662538252,0.0,-0.00821341151113,0.00860230275274,-0.999929267628,0.0,0.661536531236,0.260717993676,0.303506410835,1.0,-0.003,-0.00394285714286,0.151
0.464931378736,0.546239974271,-0.123934899775,-1.35761113837,0.0793471929809,1.89482202836,0.158964620889,-0.00604294061044,-0.0211001176695,0.00161319339255,-0.026654312642,-0.00437653639026,0.00487074744894,-0.00099491650291,0.573784147654,0.818991431288,0.00235250474536,0.0,0.818953746325,-0.57372424805,-0.0116617100868,0.0,-0.00820130951985,0.00861806288124,-0.999929231253,0.0,0.661487226657,0.260660849936,0.303520248804,1.0,-0.00334,-0.00438971428571,0.168
0.464875705448,0.545938810864,-0.123942152011,-1.35813481346,0.0792884036213,1.89500169296,0.158929349762,-0.00256572756167,-0.0207445132218,-0.000763137109197,-0.0331589660012,-0.00102233363749,0.0112713634562,-0.00157891754524,0.573819571271,0.81896676664,0.00229818776395,0.0,0.818928629556,-0.573760129059,-0.0116602271094,0.0,-0.00823088845616,0.00857308333528,-0.999929374865,0.0,0.66143026811,0.260564292684,0.303499970589,1.0,-0.0037,-0.00486285714286,0.186
0.464825981768,0.545626086422,-0.123945602521,-1.35865805967,0.0792262968205,1.89517511303,0.158841513205,-0.00190240741347,-0.0235264092996,-0.00012541512006,-0.030500222649,-0.000789314838896,0.00977347564829,-0.00817952258797,0.573803417655,0.818978221015,0.00224906467505,0.0,0.818939699514,-0.573744419353,-0.0116557591978,0.0,-0.00825558357187,0.0085301270436,-0.999929538654,0.0,0.661370178055,0.260473117659,0.30348738792,1.0,-0.00402,-0.00528342857143,0.202
0.464762419891,0.545268008829,-0.123951584515,-1.35928814098,0.079217043109,1.89539008696,0.158758298455,-0.00406381399005,-0.021802778916,-0.00104746740727,-0.0404624616708,0.000230181059444,0.0116717954874,-0.00514585430853,0.573824191985,0.81896376076,0.00221408122931,0.0,0.818924533027,-0.573765061176,-0.0117051562248,0.0,-0.00831589641694,0.00853003147909,-0.999929039697,0.0,0.661296198208,0.260370622205,0.303459829948,1.0,-0.00436,-0.00573028571429,0.219
0.46470380864,0.544856036195,-0.12394629915,-1.35998013784,0.0791949969538,1.89561059099,0.158683003113,-0.00409019642808,-0.0230652650201,-0.000789783398315,-0.036315588736,9.33076129551e-05,0.0116440123938,-0.00371959629546,0.573839398942,0.818953208409,0.00217567451103,0.0,0.818913229775,-0.573780154363,-0.011755996767,0.0,-0.00837941374328,0.00852790694815,-0.99992852756,0.0,0.661207278768,0.26026959127,0.303441005338,1.0,-0.0047,-0.00617714285714,0.236
0.464640998581,0.544450628501,-0.123951971818,-1.36066210833,0.0791564305324,1.89584453649,0.158614333372,-0.00622583510265,-0.0239107056956,-0.000593614316927,-0.0428623540284,-0.00429015517748,0.0192093948925,-0.00748029712613,0.573866270732,0.81893447601,0.00213874252382,0.0,0.818893993507,-0.573807141131,-0.0117787557334,0.0,-0.00841896551256,0.00851099789609,-0.9999283394,0.0,0.661127622308,0.260158786158,0.303423770332,1.0,-0.00502,-0.00659771428571,0.252
0.464565985498,0.543978849226,-0.123946999001,-1.36143084015,0.0791190887159,1.89611206001,0.158485208547,-0.00765220910953,-0.028518680988,0.000896200059814,-0.0438584486936,-0.00241428795604,0.00985691175078,-0.00554284379456,0.573851292031,0.818945020771,0.00212002117968,0.0,0.818904156932,-0.573792098194,-0.0118049443397,0.0,-0.00845131170049,0.00851054057278,-0.999928070428,0.0,0.661037029658,0.260039138101,0.303414735739,1.0,-0.00536,-0.00704457142857,0.269
0.464505616994,0.543471537465,-0.123954925243,-1.36226334014,0.0790753169511,1.89640701257,0.158420480083,-0.00145081954855,-0.0334855859092,-0.000929098418774,-0.046948363595,-0.00192708257793,0.0176890150036,-0.000447122744552,0.573887918987,0.818919419131,0.00209482979254,0.0,0.818878186524,-0.573828778706,-0.0118235047986,0.0,-0.00848058733788,0.00850094065504,-0.999927904224,0.0,0.660937568454,0.259915422037,0.303403236178,1.0,-0.0057,-0.00749142857143,0.286
0.464435113798,0.542961571536,-0.123955885014,-1.36307329701,0.0790163141914,1.89669366691,0.158293754657,-0.00221948696522,-0.0330176123405,6.24358390673e-06,-0.0494853275732,-0.00242755807805,0.0148183341175,-0.00723779416054,0.573871801504,0.818930757067,0.00207785230942,0.0,0.818889372195,-0.573812799207,-0.0118243170333,0.0,-0.00849116213103,0.00848733669814,-0.999927930044,0.0,0.660843483713,0.259788734258,0.303403306488,1.0,-0.00602,-0.007912,0.302
0.464361971009,0.542347199405,-0.12395930975,-1.36403591253,0.0789645323495,1.89703120269,0.158162515006,-0.00166218484965,-0.0314431734193,-0.000215847562782,-0.0556829573901,0.000453690550702,0.0142643934725,-0.00480502687539,0.573866185193,0.81893470812,0.00207176985639,0.0,0.818893169347,-0.573807133118,-0.0118363035088,0.0,-0.0085045271759,0.00848917596816,-0.999927800848,0.0,0.660727840767,0.259646753041,0.303409011653,1.0,-0.00638,-0.00838514285714,0.32
0.464281268124,0.541740251902,-0.123958737184,-1.36497548185,0.0789101375124,1.89738664543,0.158041258386,-0.00467818317896,-0.0375997532889,0.000737755839239,-0.0603840500401,-0.00859626100964,0.0237968878335,-0.00771981410521,0.573870260851,0.818931800556,0.00209204473817,0.0,0.818890503584,-0.573811105591,-0.0118281503647,0.0,-0.00848617335641,0.00850114297769,-0.999927855112,0.0,0.660621926588,0.25950553304,0.303421770347,1.0,-0.00672,-0.008832,0.337
0.464200068431,0.541138341006,-0.12396192499,-1.36589879019,0.0788565188513,1.89773312798,0.157917590914,-0.00964150622098,-0.0410236266291,-0.00182521299619,-0.0593188280194,-0.0013990106951,0.0242625643891,-0.0111250338487,0.573874619459,0.818928690985,0.00211355694417,0.0,0.818887668688,-0.573815373343,-0.0118173722344,0.0,-0.00846495668447,0.008512619607,-0.999927937311,0.0,0.660518637991,0.259363194692,0.303437971315,1.0,-0.00704,-0.00925257142857,0.353
0.464124447401,0.540423361961,-0.123962270267,-1.36696704776,0.0787994717627,1.8981300916,0.157775600369,0.000310083732347,-0.0454938075806,-0.000375324670018,-0.0615637725191,-0.000587897130884,0.0212324834502,-0.00590362371005,0.573864403129,0.818935741601,0.00215519138913,0.0,0.818895188693,-0.573804922041,-0.0118037400034,0.0,-0.00843000745006,0.00853878646909,-0.999928009459,0.0,0.66039286173,0.25921334735,0.303469297986,1.0,-0.00738,-0.00969942857143,0.37
0.4640124725,0.539714712413,-0.123959870092,-1.36807214739,0.0787342568711,1.89855000765,0.157634127284,-0.00403827282733,-0.0396962317272,3.37271861754e-05,-0.0695846817377,-0.00410398961163,0.0283763572253,-0.00999270389343,0.573882344915,0.818923114495,0.002175693278,0.0,0.818882807804,-0.573822761053,-0.0117954602598,0.0,-0.00841127467193,0.00855100884705,-0.999928062766,0.0,0.660272028439,0.25903687265,0.303480397531,1.0,-0.00772,-0.0101462857143,0.387
0.463914768244,0.539013431112,-0.12396362832,-1.36915480526,0.0786644008178,1.89894861637,0.157500581536,-0.00914471117082,-0.0432701947624,0.00248930677833,-0.070004869706,-0.00271007778373,0.0200510966389,-0.0143645636447,0.573896738551,0.818912998053,0.00218677897931,0.0,0.818872881673,-0.573837156952,-0.0117842209733,0.0,-0.00839555833514,0.0085537846742,-0.999928171104,0.0,0.660149694404,0.258866635863,0.303495201181,1.0,-0.00804,-0.0105668571429,0.403
0.463790265956,0.53816569561,-0.123977067668,-1.37049088929,0.0785919650191,1.89947036462,0.15734402676,-0.00475389178388,-0.0429920995553,-0.0014431651205,-0.0719262860712,-0.00361577878775,0.0265974271286,-0.00773374586414,0.573934481888,0.818886471853,0.00221441107233,0.0,0.818846731571,-0.573874806603,-0.0117678988798,0.0,-0.00836593953916,0.008567431165,-0.999928302519,0.0,0.660006192907,0.258652878337,0.30350372858,1.0,-0.00842,-0.0110662857143,0.422
0.463691028851,0.537466589256,-0.123973610007,-1.37160037458,0.0785281384626,1.89988990195,0.157198600456,-0.00332428586557,-0.0501983462898,0.00121535693635,-0.0758162899535,-0.00489243980256,0.0289184695409,-0.00850240319361,0.573938361911,0.818883727231,0.00222371417309,0.0,0.818844062009,-0.573878603542,-0.0117684922707,0.0,-0.00836104580624,0.00857542942584,-0.999928274889,0.0,0.659879706285,0.258485020167,0.303505583616,1.0,-0.00872,-0.0114605714286,0.437
0.463584790357,0.53662985193,-0.123983914259,-1.37289470282,0.0784528761905,1.90037862172,0.157045914591,-0.00514562136094,-0.0522744521145,0.00107709309156,-0.0717617814719,-0.00435536795609,0.0288928820143,-0.00653120765772,0.573958685283,0.818869414995,0.00224848284735,0.0,0.818830096891,-0.573898855998,-0.0117525491187,0.0,-0.0083335617346,0.00858676839055,-0.999928407016,0.0,0.659733150764,0.258287280182,0.303522945236,1.0,-0.00906,-0.0119074285714,0.454
0.463471130567,0.535774971347,-0.123997770385,-1.3742418791,0.0783627734698,1.90087512036,0.156876223641,-0.00652036291363,-0.0525713041814,-0.000274018516459,-0.081856283604,-0.00558278610429,0.0340593383019,-0.0127823350662,0.573972400597,0.818859815994,0.00224321313683,0.0,0.818820555282,-0.573912719226,-0.0117403517774,0.0,-0.00832645405503,0.00857559202656,-0.99992856214,0.0,0.659579609785,0.258074695158,0.303528569809,1.0,-0.0094,-0.0123542857143,0.471
0.463354202221,0.534881675775,-0.123993559788,-1.37564508125,0.0782999039255,1.90137884746,0.1567063924,-0.00425955172568,-0.0520023983762,-0.00199080199442,-0.0805659664124,-0.000763494164073,0.0299548825298,-0.00565090357722,0.573986177323,0.818850137852,0.00225097396587,0.0,0.8188107281,-0.573926207382,-0.011766347335,0.0,-0.00834314281749,0.00859700787884,-0.999928239137,0.0,0.659410386396,0.257869199201,0.303534554615,1.0,-0.00974,-0.0128011428571,0.488
0.463234270201,0.534033891797,-0.123999521663,-1.37702813463,0.0782197091899,1.90189221218,0.156532988584,-0.00807015431486,-0.0556479019481,-0.000284881285343,-0.0816018710529,-0.00182489406707,0.0336725143543,-0.0143222988901,0.574000908717,0.818839865848,0.00223109648274,0.0,0.818800179362,-0.573940994057,-0.0117791561338,0.0,-0.00836488594526,0.0085882338751,-0.999928132879,0.0,0.659250292311,0.257655483498,0.303519002304,1.0,-0.01006,-0.0132217142857,0.504
0.463098986157,0.533060821703,-0.123997429555,-1.37860303405,0.0781221765994,1.9024784358,0.156333116414,-0.00782559070634,-0.0551104239292,0.000799283516712,-0.0873428909433,-0.00200424927238,0.026270152406,-0.010898640574,0.57400654607,0.818835956871,0.00221533420268,0.0,0.818796058099,-0.573946683778,-0.0117883978383,0.0,-0.0083814416735,0.00858068964422,-0.999928059013,0.0,0.659066098315,0.257417363671,0.303506359625,1.0,-0.01042,-0.0136948571429,0.522
0.462983893058,0.532162168894,-0.123999639349,-1.38005097845,0.0780504601999,1.90302534924,0.156152860399,-0.00631836415671,-0.0551268525991,5.36368471355e-05,-0.0972347211311,-0.00153127215914,0.0350971352323,-0.00641879125577,0.574014672016,0.818830248653,0.00221970766452,0.0,0.818790271752,-0.573954653593,-0.0118022626988,0.0,-0.00839019969398,0.00859231242257,-0.999927885758,0.0,0.658895627989,0.257205658876,0.303498243863,1.0,-0.01074,-0.0141154285714,0.538
0.462848717564,0.531170449574,-0.123994950335,-1.38163284633,0.0779377788378,1.90360520634,0.155949166077,-0.0102960751906,-0.0604857926699,-0.000444674085119,-0.0959716395616,-0.00473962482499,0.0406181600385,-0.0104942224076,0.574011086177,0.818832810652,0.00220182793217,0.0,0.818792698878,-0.573951237325,-0.0118000143177,0.0,-0.00839865872362,0.00857634479164,-0.999927951825,0.0,0.658708411614,0.256965721477,0.303494350129,1.0,-0.01108,-0.0145622857143,0.555
0.462713336593,0.530140530325,-0.123997508448,-1.38327736084,0.077847944974,1.90417688692,0.155737469053,-0.00909590896909,-0.0655129488162,-0.000114882802806,-0.095353437681,-0.00781726574551,0.0395843410734,-0.013035252656,0.574015466447,0.818829823778,0.00217045420346,0.0,0.81878915562,-0.573955588693,-0.0118341771397,0.0,-0.00844459544641,0.00857031008045,-0.999927616677,0.0,0.65850593649,0.256717663875,0.303486899369,1.0,-0.01142,-0.0150091428571,0.572
0.462558965961,0.529033133947,-0.123999936627,-1.3850347885,0.0777324650349,1.90482739533,0.155495880971,-0.0130483739748,-0.0629127099304,-0.000510071718631,-0.100688174792,-0.00470500848424,0.0431963792693,-0.0136462700881,0.574010028799,0.818833651699,0.00216439019221,0.0,0.818792970941,-0.573950242841,-0.0118294709322,0.0,-0.00844427918322,0.00856258728256,-0.999927685509,0.0,0.658300613514,0.256446024822,0.303486826926,1.0,-0.01178,-0.0154822857143,0.59
0.462434326346,0.528081588082,-0.123998356965,-1.38653375719,0.0776430600159,1.90540983913,0.155288920023,-0.0136015095408,-0.0621078629435,0.00141163600878,-0.104265977464,-0.000308773862137,0.0448973325703,-0.0162223678605,0.573998796317,0.81884144787,0.00219362217267,0.0,0.818801143133,-0.57393889291,-0.0118144873265,0.0,-0.0084153488486,0.00857780699647,-0.999927798959,0.0,0.658127626506,0.256224524388,0.303493776288,1.0,-0.01208,-0.0158765714286,0.605
0.462289762737,0.526919822816,-0.12400357614,-1.38829935172,0.0775338100877,1.90607402465,0.155045251229,-0.00661020776265,-0.0684867789122,9.87339536037e-05,-0.108775741167,-0.00932357966615,0.0400226236937,-0.0125838286831,0.573987300053,0.818849373976,0.00224254748302,0.0,0.818809743462,-0.57392724769,-0.0117841109898,0.0,-0.00836251380644,0.00860031536256,-0.999928048881,0.0,0.657921337564,0.255959447067,0.303528823293,1.0,-0.01242,-0.0163234285714,0.622
0.462119752884,0.52568529767,-0.124005979332,-1.39021661841,0.0774049759895,1.90678639775,0.154794860601,-0.0148621299583,-0.0699028767992,0.000634898757592,-0.100412945225,-0.010997281147,0.0365732394178,-0.0155592519948,0.573991748355,0.818846208523,0.00225975844832,0.0,0.81880690236,-0.573931733389,-0.0117630335221,0.0,-0.00833532879789,0.00860235561444,-0.999928258312,0.0,0.657697373797,0.255662376347,0.303546637535,1.0,-0.01278,-0.0167965714286,0.64
0.461978480748,0.524583799396,-0.124009524108,-1.39196036625,0.0773037750677,1.9074034435,0.15454489879,-0.00960188952228,-0.0703021360685,-0.00106932738611,-0.109469555758,-0.00445934332491,0.0417606051482,-0.0147200277118,0.57397160804,0.818860378735,0.00224058069958,0.0,0.81882073229,-0.573911575078,-0.0117838561159,0.0,-0.0083635987088,0.00859839831873,-0.999928056294,0.0,0.657482415026,0.255400430412,0.303544972281,1.0,-0.0131,-0.0172171428571,0.656
0.461825399335,0.523388359575,-0.12401870205,-1.39387269074,0.0771797891448,1.90809593679,0.154284578037,-0.00299324858906,-0.0706576658228,-0.000956046057969,-0.107226702174,-0.0114732182772,0.0402490276305,-0.00718217763477,0.573959364492,0.818869036353,0.00221271692353,0.0,0.818829087596,-0.573899501799,-0.0117912697687,0.0,-0.00838579002531,0.00857971186866,-0.999928030945,0.0,0.657250338591,0.255110143062,0.30353554451,1.0,-0.01344,-0.017664,0.673
0.461656717172,0.522174839152,-0.124022307851,-1.39581849747,0.077069911254,1.90885018113,0.15402871582,-0.00968264631891,-0.0746057525734,-0.00674187333094,-0.117546269456,-0.00634537168649,0.0418397380266,-0.0143768923917,0.573965369665,0.818864774219,0.00223223436151,0.0,0.818825037941,-0.573905388724,-0.0117859634783,0.0,-0.00837018014554,0.00859270970672,-0.999928050124,0.0,0.657024493799,0.254815563542,0.303527781507,1.0,-0.01378,-0.0181108571429,0.69
0.4615044573,0.521009085632,-0.124024703244,-1.39769296451,0.0769487442044,1.90957410001,0.15376412455,-0.0124258341041,-0.0731212044919,-0.000388988958872,-0.119598970764,-0.00797922852891,0.0435918672462,-0.0225754977663,0.57394267851,0.818880662773,0.00223803989494,0.0,0.818841084411,-0.573882762804,-0.0117728474768,0.0,-0.00835634551192,0.00858970400748,-0.999928191659,0.0,0.656803669084,0.254536500352,0.303517399424,1.0,-0.0141,-0.0185314285714,0.706
0.4613211604,0.519638671049,-0.124031477094,-1.39986574847,0.0768070990601,1.91036003301,0.153479901592,-0.00732156023299,-0.0776667080695,0.000297386496486,-0.122657989465,-0.00689523425929,0.0448756728088,-0.0168660097712,0.573942138516,0.818881098942,0.00221682951428,0.0,0.818841300045,-0.573882360787,-0.0117774453936,0.0,-0.00837228926406,0.00857496885164,-0.999928184762,0.0,0.656539512793,0.254202772723,0.303513902359,1.0,-0.01446,-0.0190045714286,0.724
0.461152966624,0.518301137834,-0.124038817715,-1.40193138471,0.0766809550545,1.91109956202,0.153196684735,-0.00898783547967,-0.0747642021346,-0.00133946583249,-0.119556067724,-0.0106798729009,0.0463785900499,-0.0179207833749,0.573928571578,0.818890583622,0.002225687127,0.0,0.818850872117,-0.573868733086,-0.011775963637,0.0,-0.00836613455758,0.00858123304945,-0.999928182537,0.0,0.656285209318,0.253890318336,0.303533879386,1.0,-0.0148,-0.0194514285714,0.741
0.460996746374,0.517100209954,-0.124041467471,-1.4038222631,0.0765536911529,1.91177269046,0.152937164415,-0.0138720210746,-0.0784302418802,-0.000684281723386,-0.124915173349,-0.00503098280002,0.042521752423,-0.0168612975859,0.573911359558,0.818902703617,0.0022046045692,0.0,0.818862767932,-0.573851655292,-0.0117809980215,0.0,-0.00838253653959,0.00856668212636,-0.999928169939,0.0,0.656050675565,0.253602787086,0.303534902905,1.0,-0.0151,-0.0198457142857,0.756
0.460809227403,0.515745626954,-0.12404217759,-1.40596786844,0.0764249273412,1.91259886812,0.152641860601,-0.0154262009216,-0.0796485601434,0.00103976251567,-0.132918763984,-0.00914730543437,0.0512422005422,-0.0200986978053,0.573902393365,0.818908910101,0.00223310269161,0.0,0.818869337318,-0.573842573176,-0.0117667545166,0.0,-0.00835461157407,0.00858175312581,-0.999928274417,0.0,0.655797283557,0.253277754214,0.303535356893,1.0,-0.01544,-0.0202925714286,0.773
0.46062121857,0.514261508058,-0.124045286848,-1.40831690243,0.0762839640218,1.91344850093,0.152316862391,-0.0120129066408,-0.0829784038977,0.000307073068082,-0.132531077649,-0.0104835541213,0.0434681067102,-0.0207385743676,0.573877940838,0.818926080318,0.0022205621128,0.0,0.818886268746,-0.573818093997,-0.0117822222901,0.0,-0.00837473163781,0.0085801104831,-0.999928120204,0.0,0.655504158124,0.252928297933,0.303531458461,1.0,-0.0158,-0.0207657142857,0.791
0.460431827274,0.512933273371,-0.124050795357,-1.41045410807,0.0761565532576,1.91420108951,0.15202072097,-0.0117869727456,-0.0872563448076,0.0002785047552,-0.132757026992,-0.00564964682699,0.0484073022154,-0.0213396342342,0.573872048572,0.818930336362,0.00217323585997,0.0,0.818889813255,-0.573812288153,-0.0118185707014,0.0,-0.00843171897502,0.0085621529351,-0.999927795219,0.0,0.65523716652,0.252595316937,0.303510372475,1.0,-0.01612,-0.0211862857143,0.807
0.460234679757,0.511528036644,-0.124061684436,-1.41274977971,0.0760211550701,1.91504082116,0.15169919809,-0.0128204242025,-0.0823187874281,-0.00114255781166,-0.135146201929,-0.01069793207,0.0613311069241,-0.0237739849354,0.573861618901,0.818937762265,0.00212856533322,0.0,0.818896603313,-0.573801980879,-0.0118484903667,0.0,-0.00848196448657,0.00854263325682,-0.999927537222,0.0,0.654954652253,0.252240973907,0.303475153959,1.0,-0.01646,-0.0216331428571,0.824
0.460037217111,0.510051446907,-0.124060592627,-1.41507111274,0.0758781470994,1.91591946303,0.151370281884,-0.00536055669623,-0.0853346854198,7.53517824002e-05,-0.139223085898,-0.00445964736013,0.0539888504406,-0.0179877630634,0.573835775721,0.818955800231,0.00215561432427,0.0,0.818914981972,-0.573776022286,-0.0118353476062,0.0,-0.00845594956051,0.00855697548832,-0.999927634925,0.0,0.654672541871,0.251892770731,0.303480128535,1.0,-0.0168,-0.02208,0.841
0.459841655205,0.508629339757,-0.124072270521,-1.41730746841,0.0757276806174,1.91672431872,0.151060938296,-0.0131115311871,-0.0837553326526,-0.00319874705936,-0.132311340627,-0.00548737485576,0.0441129148066,-0.0243632510625,0.573826267084,0.818962509627,0.00213773983691,0.0,0.818921560838,-0.573766688556,-0.0118326328514,0.0,-0.00846408174804,0.00854068121737,-0.999927705429,0.0,0.65439643892,0.251541662315,0.303480918065,1.0,-0.01712,-0.0225005714286,0.857
0.459631336022,0.507089444663,-0.124081809139,-1.41971729339,0.0755781684509,1.91758522272,0.150727441624,-0.0103322889784,-0.0918951954694,-0.000856745916629,-0.141376619639,-0.0140126734392,0.053560375081,-0.0183080961665,0.573808696645,0.818974848125,0.00212713293768,0.0,0.818933706544,-0.573749107123,-0.0118445456521,0.0,-0.00848010762117,0.00853864855941,-0.999927587006,0.0,0.654077243272,0.251149385139,0.303483959807,1.0,-0.01748,-0.0229737142857,0.875
0.459413756859,0.505522670805,-0.124088040491,-1.42215539465,0.0754194393065,1.91850923905,0.150400862734,-0.0131506184456,-0.0926783412812,-0.00061603869939,-0.136605534609,-0.0101049959518,0.0508776756267,-0.0176753854418,0.573814725045,0.818970526307,0.00216454674622,0.0,0.818929998767,-0.573755115905,-0.0118097838086,0.0,-0.00843010739776,0.00854940471574,-0.999927917886,0.0,0.653801458738,0.250789617138,0.303500902289,1.0,-0.0178,-0.0233942857143,0.891
0.459207479672,0.503972699725,-0.124088976716,-1.42448894757,0.0752844088172,1.91940888037,0.150062528006,-0.0131695993322,-0.101770879841,-0.000901020193402,-0.14655403095,-0.00525431639703,0.0579597554077,-0.028004516049,0.573791125059,0.81898678353,0.00226718078434,0.0,0.818947537441,-0.573731069131,-0.0117617232816,0.0,-0.00833210428269,0.00860564023989,-0.999928256924,0.0,0.653521010887,0.250436953967,0.303551095356,1.0,-0.01812,-0.0238148571429,0.907
0.458956736125,0.502187015361,-0.124097211676,-1.42709720239,0.0751091443106,1.92038994485,0.149695388388,-0.021015486355,-0.10279366569,-0.00185835267455,-0.147044269837,-0.00678831108407,0.0523494548447,-0.028288301538,0.573787777294,0.818988769018,0.00239369021047,0.0,0.818951325759,-0.573727419438,-0.0116756637752,0.0,-0.00818906946032,0.00865983566601,-0.999928970671,0.0,0.653210899084,0.250020681565,0.30364168025,1.0,-0.01848,-0.024288,0.925
0.458727409963,0.500477270729,-0.124095447518,-1.42967954574,0.0749535545355,1.92129758518,0.149329884409,-0.00952178521109,-0.106954071698,0.00026501453331,-0.152290024661,-0.00826094622087,0.0514249935395,-0.0232936868675,0.573764513377,0.819004963489,0.00242896483017,0.0,0.818967837112,-0.573703881484,-0.011674118668,0.0,-0.00816781183809,0.00868760635339,-0.999928903645,0.0,0.652880488174,0.249624696657,0.303684316299,1.0,-0.01882,-0.0247348571429,0.942
0.458471461735,0.498695844068,-0.124095683839,-1.43245679202,0.0747737132695,1.92231396743,0.148947138079,-0.0177648771663,-0.0940731360267,-0.00153952913314,-0.153503550579,-0.008345993051,0.0562365158667,-0.0257912028826,0.573753387484,0.819012720479,0.0024415047574,0.0,0.818975768728,-0.57369272454,-0.0116659738819,0.0,-0.00815406448082,0.00869309263756,-0.999928968164,0.0,0.652533863023,0.249191555311,0.303693067444,1.0,-0.01918,-0.025208,0.96
0.458243530446,0.497218410671,-0.124098582834,-1.43480532951,0.0746234561588,1.92317949208,0.148601925415,-0.0149912886348,-0.0995942116472,-0.00139449400146,-0.158873987489,-0.0102360272468,0.0559118335827,-0.0221989515318,0.573737859409,0.819023625896,0.00243224311323,0.0,0.818986561236,-0.573677239417,-0.0116698067766,0.0,-0.00816268210184,0.00868755164543,-0.999928946009,0.0,0.652243511459,0.248816616919,0.303680354499,1.0,-0.01948,-0.0256022857143,0.975
0.457942426331,0.495368117449,-0.124093275769,-1.43781451065,0.074432642399,1.92421091846,0.148146265792,-0.0118926417701,-0.0932238912025,0.00117923848844,-0.156510466718,-0.011987818727,0.053019358075,-0.0202465408157,0.57370743219,0.81904525451,0.00232383649569,0.0,0.819006615774,-0.573647039035,-0.011746694216,0.0,-0.00828817180182,0.00864256963556,-0.999928303529,0.0,0.651853537823,0.248330346381,0.303626634921,1.0,-0.01986,-0.0261017142857,0.994
0.457688871158,0.49386790589,-0.124093530131,-1.44024701209,0.0742811161564,1.92508690547,0.147807242301,-0.0137556950997,-0.102465661852,-0.000911427764058,-0.163831096661,-0.013347233031,0.0647744857615,-0.0195474631224,0.573723474374,0.819034180715,0.00226554062395,0.0,0.818994710511,-0.573663223758,-0.011786295549,0.0,-0.00835388241883,0.00861770613736,-0.999927971301,0.0,0.651567196768,0.247957105245,0.303586097524,1.0,-0.02088,-0.0274422857143,1.008
0.457399217156,0.492012691964,-0.124109411947,-1.44322877757,0.0741014074968,1.92619567122,0.147399253601,-0.0185539557587,-0.110742978431,-0.000896343261789,-0.178760237624,-0.0126787047803,0.0706385613647,-0.0239927694323,0.573734625161,0.819026396454,0.00225581559567,0.0,0.818986770116,-0.57367437991,-0.0117950460573,0.0,-0.00836651153651,0.00861487532014,-0.999927890104,0.0,0.65117985347,0.247450651057,0.30355830111,1.0,-0.0231942857143,-0.0304839183673,1.026
0.457081434999,0.489977326723,-0.124119829432,-1.44651433019,0.0739083607924,1.92734705822,0.146919874304,-0.0227960270726,-0.123520162518,-7.94663136175e-05,-0.195148998682,-0.00792200224253,0.0708171713338,-0.0237694428743,0.573721446383,0.819035843956,0.00217604605177,0.0,0.818994962399,-0.573661292664,-0.011862536195,0.0,-0.00846769198233,0.008588127526,-0.999927268484,0.0,0.65075466299,0.246922219945,0.30351045139,1.0,-0.02538,-0.0333565714286,1.043
0.456771601376,0.488020555284,-0.12414002165,-1.44964116644,0.0737141301416,1.92848503834,0.146471481901,-0.0196793344759,-0.129010640189,-0.0022316840693,-0.210155610969,-0.011683392323,0.0801313246569,-0.0350305154193,0.573725286271,0.819033240655,0.00214324460815,0.0,0.818991926897,-0.573665257915,-0.0118803383676,0.0,-0.00850105073395,0.00857151559062,-0.999927127973,0.0,0.650361910399,0.246410039548,0.303481665959,1.0,-0.0273085714286,-0.0358912653061,1.058
0.456379026744,0.485554227268,-0.124162651182,-1.45337456337,0.0734754383491,1.92992783602,0.145918045071,-0.0281084412306,-0.144006530798,-0.00244634939508,-0.223772526938,-0.0200816433878,0.0868599525189,-0.0294182253041,0.573729970717,0.819029583299,0.0022823854156,0.0,0.818990272356,-0.573669593116,-0.0117846774098,0.0,-0.00834282494077,0.00863064024494,-0.999927952065,0.0,0.649916590895,0.245791044976,0.303543297729,1.0,-0.0294942857143,-0.0387639183673,1.075
0.455924188453,0.482790837027,-0.124193668447,-1.4576666792,0.073211328729,1.93141150591,0.145261267958,-0.0292681572249,-0.161555903596,-0.00235193013208,-0.245453390789,-0.0202203351293,0.0789297946259,-0.0380481940592,0.573725806483,0.819032606715,0.00224388375762,0.0,0.818992666747,-0.573665445551,-0.011820122503,0.0,-0.00839398878006,0.00861939960845,-0.999927620832,0.0,0.649366006741,0.245063800845,0.303547584219,1.0,-0.0318085714286,-0.0418055510204,1.093
0.455490426355,0.480144308912,-0.124232766002,-1.46180820054,0.0729561589894,1.93289232773,0.144648561312,-0.026945022693,-0.168285651495,-0.00230571652699,-0.263813437363,-0.0186961954702,0.0984678354236,-0.0373318186283,0.573740523885,0.819022344238,0.00222660998552,0.0,0.818982162621,-0.573680211116,-0.0118312968228,0.0,-0.00841289634695,0.00861181410271,-0.99992752729,0.0,0.648841771935,0.244363318775,0.303540854128,1.0,-0.0338657142857,-0.0445092244898,1.109
0.454986785757,0.477140657693,-0.124245929587,-1.4663607462,0.0726863343713,1.93456764525,0.143987821606,-0.030130891408,-0.178613722952,0.00119753772236,-0.273001752306,-0.0180857859682,0.0934695990802,-0.0377281649381,0.573769378017,0.8190018112,0.00234115396972,0.0,0.818962965518,-0.573708460878,-0.0117902471655,0.0,-0.00831325399829,0.00868236834307,-0.999927750534,0.0,0.648273373017,0.243599897857,0.303599946254,1.0,-0.0360514285714,-0.047381877551,1.126
0.45444893536,0.473975539363,-0.124272082647,-1.4712091841,0.0723846122721,1.93635309979,0.14328832299,-0.0348748950815,-0.191621576029,-0.00080011768528,-0.288746616369,-0.013686633331,0.0970851211179,-0.0443837338218,0.573807759208,0.818974679547,0.00242417719778,0.0,0.818936916291,-0.573746529106,-0.0117471007047,0.0,-0.00822987323265,0.00872599373388,-0.999928060522,0.0,0.647667118387,0.242776718995,0.303637760244,1.0,-0.0382371428571,-0.0502545306122,1.143
0.453923696232,0.470837117021,-0.124277571568,-1.47605094562,0.0720877173945,1.93802980734,0.142567800418,-0.0328737299559,-0.199626078714,0.00130131740887,-0.309455147559,-0.0157965116227,0.111773365403,-0.0428234021978,0.573802296929,0.818978548345,0.00241003955299,0.0,0.818940301614,-0.573740803182,-0.0117906766884,0.0,-0.00827373254443,0.00873936414441,-0.99992758181,0.0,0.647027924154,0.241968605124,0.30364796566,1.0,-0.0402942857143,-0.0529582040816,1.159
0.453347493368,0.467310929532,-0.124287836349,-1.48133219101,0.071748259957,1.94005965466,0.141704483782,-0.0368734484134,-0.210739476621,-0.00107666867807,-0.317582679546,-0.020248697755,0.124237216025,-0.0505280949273,0.573733214422,0.819026245912,0.00263705851101,0.0,0.818991096377,-0.573671065738,-0.0116550113883,0.0,-0.00803311071926,0.00884676491671,-0.999928599392,0.0,0.646371551694,0.241095080092,0.303744690629,1.0,-0.04248,-0.0558308571429,1.176
0.45273313104,0.463658195866,-0.124288949671,-1.48697890299,0.0713724086285,1.94199339555,0.140848103673,-0.0402022531604,-0.212250634359,-0.00105612322887,-0.344559996738,-0.0167628861509,0.119951750408,-0.054571894712,0.573699118473,0.819050329804,0.00257402653438,0.0,0.819014214295,-0.573637035161,-0.0117053652633,0.0,-0.00811088248937,0.00882369193598,-0.999928175444,0.0,0.645566632521,0.24008640162,0.303740750788,1.0,-0.0447942857143,-0.0588724897959,1.194
0.452104436646,0.460085766887,-0.124301028168,-1.49255551941,0.0709884037665,1.94394354974,0.140033589439,-0.0428577467066,-0.226356355025,-0.000246457332838,-0.354226014172,-0.0267743189959,0.125240856005,-0.0447102079005,0.573708649584,0.819043819117,0.00252084527254,0.0,0.81900701398,-0.573646758442,-0.0117326246825,0.0,-0.00816361618397,0.00879586756972,-0.99992799145,0.0,0.644871449355,0.239197155492,0.303718984666,1.0,-0.0467228571429,-0.0614071836735,1.209
0.451352456702,0.455943278137,-0.124313845494,-1.49904944913,0.0705531247454,1.94626590338,0.139014048609,-0.0470087857996,-0.224672235392,-0.00236404940973,-0.367098155125,-0.0211623921228,0.139226391125,-0.05994851445,0.5736793517,0.81906445538,0.00248319680584,0.0,0.819027142895,-0.573617582791,-0.0117539276201,0.0,-0.00820297690809,0.00877696014583,-0.999927835466,0.0,0.644016060505,0.238081569795,0.303679198751,1.0,-0.0490371428571,-0.0644488163265,1.227
0.450594990267,0.451789302634,-0.124355864183,-1.50539336023,0.0701220274884,1.9485248017,0.137992554745,-0.0417316583942,-0.253291075412,-0.00644320311221,-0.369339742326,-0.0218722082824,0.135686093716,-0.0595224613104,0.573665080252,0.81907432761,0.00252357908261,0.0,0.819037694489,-0.573603331835,-0.0117140776244,0.0,-0.00814732374507,0.00878703285178,-0.999928202007,0.0,0.643186187758,0.236960736826,0.303709567086,1.0,-0.0512228571429,-0.0673214693878,1.244
0.449854073329,0.44769351174,-0.124410699316,-1.51156861317,0.0697027710951,1.9507386748,0.137077034206,-0.044963062442,-0.265308278419,-0.00407655601621,-0.392098671467,-0.0294626343639,0.131429111307,-0.0625768373962,0.573726171108,0.819031242648,0.00261745162543,0.0,0.818996061787,-0.573664336835,-0.0116372815555,0.0,-0.00802991312324,0.00882046538337,-0.999928857412,0.0,0.642379674002,0.23586209662,0.303772476242,1.0,-0.05328,-0.0700251428571,1.26
0.449025816395,0.443229840586,-0.124428591426,-1.5184770341,0.0692379772304,1.95304706749,0.136029357552,-0.0526968102548,-0.261234229205,-0.00198847365123,-0.411265465183,-0.0357703754669,0.142473842777,-0.0720282302517,0.573739838539,0.819022042776,0.00249760331178,0.0,0.818985041422,-0.573678141947,-0.0117319341831,0.0,-0.00817604968739,0.00877674675527,-0.999928057876,0.0,0.641422486167,0.23464903523,0.303741721038,1.0,-0.0554657142857,-0.0728977959184,1.277
0.448064350936,0.438108163583,-0.124441682376,-1.52641731564,0.0686991151768,1.95582640202,0.134736733182,-0.051443280909,-0.269841236234,-0.00140280232941,-0.415069448948,-0.0272231510835,0.145245451277,-0.0631373135516,0.573680227547,0.819063930457,0.00245382279992,0.0,0.819026229126,-0.573618559868,-0.0117699057021,0.0,-0.00823290543377,0.00876207611328,-0.999927720033,0.0,0.640337744499,0.233262371543,0.30370537614,1.0,-0.0579085714286,-0.0761084081633,1.296
0.447238275447,0.433858386723,-0.124453220152,-1.53273938525,0.0682784169194,1.95813803246,0.133709359692,-0.0587563129938,-0.285106408479,-0.000133691108006,-0.427605894694,-0.0302699822998,0.159199738663,-0.0600501223657,0.573684075059,0.819060616625,0.00265239867443,0.0,0.819025533341,-0.573621732661,-0.011663209463,0.0,-0.00803155664359,0.00886355042274,-0.999928463227,0.0,0.639504309853,0.232130221454,0.303796972227,1.0,-0.0598371428571,-0.0786431020408,1.311
0.44619939409,0.428702504579,-0.124494039409,-1.54071707252,0.0676800620203,1.96087837466,0.132455498623,-0.0590761410947,-0.295487155697,-0.00306426092568,-0.452682862308,-0.0297779041131,0.144650617593,-0.0686840922662,0.573714114984,0.819039932641,0.0025396669346,0.0,0.819003723659,-0.57365253526,-0.0116797398574,0.0,-0.00810944310223,0.00878099735323,-0.999928562957,0.0,0.638409405201,0.230666397058,0.303751867616,1.0,-0.0621514285714,-0.0816847346939,1.329
0.44518813965,0.423598694574,-0.124563228241,-1.54854011601,0.0671168923763,1.96345622398,0.131134854923,-0.0579680807523,-0.302836510251,-0.00575429927598,-0.459336417933,-0.0319569881794,0.156075195621,-0.0811817622939,0.573686372866,0.819059804582,0.00239353462866,0.0,0.819021757003,-0.573625392126,-0.01174810474,0.0,-0.00824956696232,0.00870025204014,-0.999928122547,0.0,0.637307095972,0.229218359589,0.303725062779,1.0,-0.0643371428571,-0.0845573877551,1.346
0.444242115677,0.419013637697,-0.124589690454,-1.55552336021,0.0666225024724,1.96586414978,0.130046510499,-0.0618462332084,-0.309170062284,-0.00284645640662,-0.466929484178,-0.0376644317719,0.172705431099,-0.0746969274181,0.573744200035,0.819019323093,0.00238500039731,0.0,0.818981182939,-0.573683263167,-0.011750849124,0.0,-0.00825609664014,0.00869541939084,-0.999928110691,0.0,0.636337938647,0.227929548368,0.303723734596,1.0,-0.0662657142857,-0.0870920816326,1.361
0.443131158541,0.413625507641,-0.124615559561,-1.56346991647,0.0660881845276,1.9688168206,0.128694548473,-0.0634207968148,-0.309949180909,-0.00122477829092,-0.469650504586,-0.0373966637561,0.171183735387,-0.0872873546482,0.573747536664,0.819015971545,0.00271098282241,0.0,0.818982204163,-0.573685604493,-0.0115638817964,0.0,-0.00791590447077,0.0088551658717,-0.999929459759,0.0,0.635277175306,0.226465807126,0.303848893382,1.0,-0.0684514285714,-0.0899647346939,1.378
0.441902343769,0.407855854065,-0.124658776142,-1.57236125278,0.0654539531391,1.97170024891,0.127215771347,-0.067738921646,-0.3209079985,-0.00149927336772,-0.49563355789,-0.0410240944816,0.161555518705,-0.0847578437098,0.573758533461,0.819008953214,0.00249534311087,0.0,0.818972111574,-0.573697045746,-0.0117101267282,0.0,-0.00815928475433,0.00876257026144,-0.999928319148,0.0,0.633986634146,0.224797139237,0.303770855574,1.0,-0.0707657142857,-0.0930063673469,1.396
0.440826746377,0.402935657804,-0.124704835127,-1.57996415108,0.0649259904226,1.97422690201,0.125968379205,-0.0775483273773,-0.326341496712,-0.00155654923392,-0.502766699115,-0.0343310238528,0.176378159627,-0.084688574939,0.573809346246,0.818973769029,0.00235514415987,0.0,0.8189348463,-0.573748100025,-0.011814488315,0.0,-0.0083246568129,0.00870814109552,-0.999927431551,0.0,0.632890399623,0.223357902153,0.303694370582,1.0,-0.0726942857143,-0.0955410612245,1.411
0.439565164072,0.397065464275,-0.124721080562,-1.58849104631,0.0643046274698,1.97730886666,0.124484917349,-0.0762996323188,-0.346866702189,0.00129492827613,-0.50891188116,-0.0380033792938,0.176739219811,-0.0850988343457,0.573798413011,0.818980364236,0.0027002080773,0.0,0.81894629259,-0.573736326595,-0.0115906988303,0.0,-0.00794350022346,0.00886222061384,-0.999929178417,0.0,0.631642202464,0.221652899499,0.303862665748,1.0,-0.0750085714286,-0.0985826938775,1.429
0.438179404943,0.390825821422,-0.124742976739,-1.59793154975,0.0636012316862,1.98040993786,0.122909675439,-0.0754832175534,-0.345348136883,-0.000769333599859,-0.523273489779,-0.0366386754336,0.162314474652,-0.0876693071313,0.573828788898,0.818959449261,0.00258619375605,0.0,0.818923758074,-0.573766936283,-0.0116673986739,0.0,-0.00807140932386,0.00881315444096,-0.99992858778,0.0,0.630325359285,0.219950641117,0.30382694051,1.0,-0.0771942857143,-0.101455346939,1.446
0.43692392615,0.385163215076,-0.124764061094,-1.6065460936,0.0629590863333,1.98319748962,0.121361372781,-0.0750506840641,-0.355069110595,0.00583990305519,-0.537280525552,-0.0335443442413,0.188139428353,-0.0974212614058,0.573749601283,0.819015402373,0.0024315848179,0.0,0.818977472138,-0.573688071775,-0.0117746904408,0.0,-0.00824884043942,0.00874730554586,-0.999927718026,0.0,0.629032924626,0.218316417559,0.303767223778,1.0,-0.0792514285714,-0.104159020408,1.462
0.435544553822,0.378916165738,-0.124765140429,-1.6156437806,0.0623207199795,1.98638496711,0.119764409829,-0.0761884645821,-0.360599697868,0.00116827923695,-0.543436635813,-0.0371913276819,0.18762693759,-0.0981516700928,0.573732698446,0.819026341099,0.0027184959456,0.0,0.818992012618,-0.573670006781,-0.0116427440467,0.0,-0.00797634803879,0.00890642090121,-0.999928524215,0.0,0.627715029778,0.21659783411,0.303892528544,1.0,-0.0814371428571,-0.107031673469,1.479
0.434061680939,0.372658584653,-0.124785328243,-1.62508466595,0.0615717711652,1.98946529918,0.118058948227,-0.0858160555798,-0.372781274705,-0.0019142009303,-0.562811592326,-0.0437310425366,0.17597254218,-0.0987803122237,0.573695249123,0.819052981788,0.00259250047704,0.0,0.8190171301,-0.573633126432,-0.011692893747,0.0,-0.00809011109497,0.00883162992786,-0.999928273635,0.0,0.626298432726,0.214746315961,0.303844485919,1.0,-0.0836228571429,-0.109904326531,1.496
0.432716730105,0.366987078432,-0.124846207504,-1.63357380733,0.0609262664784,1.99217244234,0.116636566188,-0.0958304911266,-0.388064842974,-0.00750597678341,-0.565789760469,-0.0420830770261,0.190566465918,-0.0992643827849,0.573794941498,0.818983438784,0.00249780095264,0.0,0.81894631428,-0.573733102299,-0.0117477042334,0.0,-0.00818826177084,0.00878650731482,-0.999927872228,0.0,0.624928502038,0.212943822657,0.303832727147,1.0,-0.08568,-0.112608,1.512
0.430963806282,0.359629431966,-0.124871636113,-1.64427844282,0.0600910458882,1.99587865857,0.114600014814,-0.0962820182922,-0.383414528144,-0.00144594351919,-0.576807537906,-0.039572878098,0.19470558584,-0.109493946485,0.573720359006,0.819034909807,0.0027410000501,0.0,0.819001335814,-0.573658111093,-0.0115728308189,0.0,-0.00790630775568,0.00888462241116,-0.99992927439,0.0,0.623431152356,0.210938942218,0.303932080872,1.0,-0.0879942857143,-0.115649632653,1.53
0.429297775459,0.352983539382,-0.124901630986,-1.65424460605,0.0593503103619,1.9990167362,0.112780622337,-0.0980674362156,-0.391686702483,-0.0032135299011,-0.59217635999,-0.0506223997578,0.187284286385,-0.101948858639,0.573746890368,0.819016827334,0.00258635605315,0.0,0.818980708346,-0.573684578606,-0.0117196641659,0.0,-0.00811500581914,0.0088424668287,-0.999927976137,0.0,0.621881189217,0.208935541023,0.303865726926,1.0,-0.09018,-0.118522285714,1.547
0.427772826426,0.346999114654,-0.124975118215,-1.66306410768,0.0586932731113,2.0019007716,0.111102363615,-0.0982043451565,-0.408944562312,-0.00166340684275,-0.576923584046,-0.0493429427902,0.198238726287,-0.113345494543,0.57378530145,0.818989823969,0.00261590849022,0.0,0.818953977733,-0.57372275735,-0.0117186584429,0.0,-0.00809681167201,0.00886647333777,-0.999927911047,0.0,0.620538428921,0.207116253454,0.303875242438,1.0,-0.0921085714286,-0.121056979592,1.562
0.425902380543,0.339640226304,-0.124978169964,-1.67374265849,0.0578359770446,2.00541169964,0.109124729119,-0.102878534288,-0.405897801686,0.00509769088691,-0.603086321111,-0.0517452731695,0.187883281119,-0.11344757427,0.573799768842,0.818979264181,0.00274536309586,0.0,0.818945257646,-0.573736946906,-0.0116330406615,0.0,-0.00795225594595,0.00892350993559,-0.999928563746,0.0,0.618890445451,0.204950041128,0.303947327115,1.0,-0.0944228571428,-0.124098612245,1.58
0.424085844139,0.332654205519,-0.124995190662,-1.68420276696,0.0569776147004,2.00859422107,0.107107585283,-0.101885109468,-0.405928491219,-0.000705339299946,-0.617276463222,-0.0579166534268,0.187866278335,-0.119986704055,0.57372948648,0.819029374877,0.00247109955903,0.0,0.818991504137,-0.573667328109,-0.0118093062317,0.0,-0.00825473854847,0.00879932615902,-0.999927212926,0.0,0.617197959772,0.202817165609,0.303838801222,1.0,-0.0966085714286,-0.126971265306,1.597
0.422338065962,0.325812851407,-0.124982696142,-1.69386742536,0.0562201252301,2.01180974852,0.10518655626,-0.113886087495,-0.419164766436,0.00189171068028,-0.613502691634,-0.0447434489099,0.20866509571,-0.124938064708,0.573657699086,0.819078627744,0.00279155058974,0.0,0.819044982789,-0.573594470527,-0.0116381463132,0.0,-0.00793149163505,0.00896289030382,-0.999928376454,0.0,0.615689107242,0.200853285839,0.303999752373,1.0,-0.0986657142857,-0.129674938775,1.613
0.420372586999,0.31858318044,-0.125004399856,-1.70444926274,0.0553685441496,2.01516473106,0.103161791832,-0.118063826644,-0.426349179234,-0.00115536216251,-0.627442712037,-0.0478382978199,0.190607274453,-0.116348782433,0.573696021363,0.819051853063,0.00277199704598,0.0,0.819017813691,-0.573632696168,-0.0116660895315,0.0,-0.00796517746387,0.0089632766801,-0.999928105225,0.0,0.613994611385,0.198642521127,0.303980874059,1.0,-0.100851428571,-0.132547591837,1.63
0.418363780341,0.311210984174,-0.125073780278,-1.71516746577,0.0544671775111,2.01847152299,0.100939577792,-0.115661031925,-0.441542837681,-0.00773762835661,-0.62298411919,-0.0569317577988,0.20758633163,-0.128690399094,0.573621904026,0.819104007428,0.00269872902857,0.0,0.819069112171,-0.573558949681,-0.0116904931218,0.0,-0.00802800414177,0.00891654018401,-0.99992802064,0.0,0.612253669312,0.196363079148,0.30397250458,1.0,-0.103037142857,-0.135420244898,1.647
0.416382682914,0.30413316278,-0.12509069441,-1.72530524388,0.0536090335277,2.02169413629,0.0988680499202,-0.123056070985,-0.444113643052,0.000248565944133,-0.635729686681,-0.057191084875,0.195467239565,-0.135850849215,0.573594364702,0.819122955201,0.00279927588766,0.0,0.819089579948,-0.573531309888,-0.0116122133835,0.0,-0.00790651040137,0.00895373025654,-0.999928656359,0.0,0.610615778306,0.194200825368,0.304025527781,1.0,-0.105094285714,-0.138123918367,1.663
0.414170299591,0.296585977937,-0.125150126823,-1.73639897284,0.0527016488983,2.02495362862,0.0966721141717,-0.130233379795,-0.448815782404,-0.00555854100172,-0.658338687377,-0.0582744811195,0.191641518076,-0.124719256032,0.573690957332,0.819056130808,0.00254695170439,0.0,0.819018885202,-0.573628131193,-0.0118143847715,0.0,-0.00821579931196,0.00886397791447,-0.999926962601,0.0,0.608756374368,0.191780986348,0.30392047366,1.0,-0.10728,-0.140996571429,1.68
0.411774990249,0.288352297639,-0.125247048272,-1.74791764423,0.0517478295624,2.02871987955,0.0941979176235,-0.135360715814,-0.447747604199,-0.00223475600413,-0.645234277349,-0.0522422335029,0.209193713207,-0.139168517168,0.573726430761,0.819030063311,0.00291289206054,0.0,0.818998109004,-0.573662924412,-0.0115625906803,0.0,-0.00779924135851,0.00901959062573,-0.999928906882,0.0,0.606914567908,0.189223898164,0.304080606606,1.0,-0.109594285714,-0.144038204082,1.698
0.409715477261,0.281505703775,-0.125272823029,-1.75784773078,0.0508954081895,2.03159721799,0.0920947215542,-0.134386699135,-0.460262095821,-0.00407488015488,-0.66675167147,-0.0621762578495,0.192903654507,-0.142524473972,0.57371007287,0.819042227073,0.00270729757879,0.0,0.819007238318,-0.573646849499,-0.0117124951932,0.0,-0.00804015021866,0.00893704484988,-0.999927739996,0.0,0.605097016425,0.186888887977,0.304010696021,1.0,-0.111651428571,-0.146741877551,1.714
0.407145684248,0.273075611636,-0.12535107613,-1.76978533464,0.0498410102506,2.03521473839,0.0895364157815,-0.142330591219,-0.481526837863,-0.00808893264911,-0.663952972791,-0.0547597295188,0.218840255622,-0.150520326383,0.573757619953,0.819008725508,0.00276549966534,0.0,0.818974740306,-0.573694465001,-0.0116525734961,0.0,-0.00795716071694,0.0089507995363,-0.999928280819,0.0,0.603208440718,0.184347627666,0.304053562245,1.0,-0.113837142857,-0.149614530612,1.731
0.404637284693,0.265072970573,-0.125442741635,-1.78113441269,0.0488607893461,2.0386485189,0.0870506705296,-0.148662757804,-0.478694314066,-0.00895096851482,-0.675317762774,-0.0588017020719,0.193747421289,-0.142593819658,0.573823113159,0.818962701737,0.00280621979248,0.0,0.818929306986,-0.573759881516,-0.0116247762736,0.0,-0.00791031414657,0.00896883361886,-0.99992849092,0.0,0.601288901744,0.181755382426,0.304067477021,1.0,-0.116022857143,-0.152487183673,1.748
0.402177008134,0.257447909388,-0.125539404784,-1.79202359636,0.047871344886,2.04174348916,0.0846577761507,-0.1508541236,-0.485628339238,-0.00878102390264,-0.676444518789,-0.0608988924411,0.187705729398,-0.152899855184,0.573900340682,0.818909196949,0.00262164410949,0.0,0.818873365113,-0.573837695503,-0.0117242495887,0.0,-0.00809685349084,0.00887551624847,-0.999927830483,0.0,0.599394098658,0.179225437406,0.304014182974,1.0,-0.11808,-0.155190857143,1.764
0.399388254293,0.248718087464,-0.125545966131,-1.804195238,0.046753956438,2.04542943313,0.0818944068473,-0.157888676956,-0.48131197725,0.00366755726852,-0.697593287634,-0.0599928085692,0.206341628143,-0.162715600505,0.573849500224,0.818944317058,0.0027755274535,0.0,0.818910853227,-0.573786740581,-0.0115990388665,0.0,-0.00790655833782,0.00892918412616,-0.999928875474,0.0,0.597289618728,0.176461856161,0.304081881496,1.0,-0.120394285714,-0.158232489796,1.782
0.396833138552,0.24091712445,-0.125547921176,-1.8152842797,0.045821041691,2.04852480805,0.0793408240631,-0.1614440235,-0.489024868633,-0.00105673821858,-0.683496692605,-0.0613751365475,0.19409922776,-0.159360923424,0.573801834025,0.818978167727,0.00263874169573,0.0,0.818941879558,-0.573738395581,-0.0117982305282,0.0,-0.00814870268134,0.00893099434863,-0.999926915322,0.0,0.595288119299,0.173948679075,0.304008840159,1.0,-0.122451428571,-0.160936163265,1.798
0.394214750043,0.232896369932,-0.125557634827,-1.82615674133,0.0448502900597,2.05181510316,0.0768116812425,-0.165603583462,-0.492577333965,0.00318803913045,-0.691004868131,-0.0608223446082,0.203905871827,-0.159820953617,0.573801836488,0.818976982431,0.00298355356221,0.0,0.818945439851,-0.573737504432,-0.0115926466601,0.0,-0.00778248404193,0.00909542464279,-0.99992835053,0.0,0.593387526845,0.171435785217,0.304171841741,1.0,-0.124508571429,-0.163639836735,1.814
0.39119177981,0.223905462008,-0.125552381628,-1.83885347783,0.0436429261815,2.05527971828,0.0737657036562,-0.171009803442,-0.501279889717,-0.00127681641075,-0.711937641263,-0.0659680064442,0.18656343102,-0.156714640381,0.57364124463,0.819090303998,0.0027464991438,0.0,0.819055303325,-0.573577309833,-0.0117569826338,0.0,-0.0080548559702,0.00899399800279,-0.999927110991,0.0,0.591045300906,0.168515185171,0.304077075892,1.0,-0.126822857143,-0.166681469388,1.832
0.388178734199,0.215205573383,-0.125626791889,-1.85065625116,0.0425544504864,2.05869049496,0.0708887942033,-0.176025628201,-0.512071270688,-0.00350450734234,-0.697943326342,-0.0605760492916,0.201814970617,-0.168212394381,0.573684478002,0.819059235728,0.00297236757292,0.0,0.81902741612,-0.573620043914,-0.0116139470425,0.0,-0.00780765129222,0.00909736683214,-0.999928136667,0.0,0.588933451418,0.165670176891,0.304194819828,1.0,-0.129008571429,-0.169554122449,1.849
0.385258863273,0.207036368784,-0.125672687058,-1.86197049635,0.0414944258731,2.06181158912,0.0680992482909,-0.185526043284,-0.507693831731,-0.00131475944402,-0.713329977977,-0.073324551355,0.185671901914,-0.174294732892,0.573686790803,0.819057767597,0.00293023858232,0.0,0.81902517408,-0.573622233437,-0.0116638085846,0.0,-0.00787263459353,0.00909148711975,-0.999927680628,0.0,0.586849163315,0.162944370023,0.30417131014,1.0,-0.131065714286,-0.172257795918,1.865
0.382058707062,0.198201219986,-0.125727813106,-1.87407251953,0.0403362506885,2.06501525048,0.0650265177722,-0.187922283115,-0.527818178471,0.00010187310373,-0.690676352376,-0.0561897674091,0.200165270035,-0.177197004455,0.573660835498,0.819076210027,0.00285567582937,0.0,0.819042329296,-0.573596173467,-0.0117405071177,0.0,-0.00797851895659,0.00907416321107,-0.999926998734,0.0,0.584580319628,0.159990048448,0.304172470237,1.0,-0.133251428571,-0.17513044898,1.882
0.378748206373,0.189334457982,-0.125853017376,-1.88621503009,0.0391864120485,2.06841265472,0.0619159411755,-0.19490457078,-0.529978873354,-0.00817967242304,-0.720775577994,-0.0634280495084,0.193821296019,-0.188582526414,0.573742509601,0.819018759289,0.00292429650248,0.0,0.818985850013,-0.573677689928,-0.0116975407176,0.0,-0.0079030537813,0.00910650915274,-0.999927303974,0.0,0.582337813241,0.156958371642,0.3041697095,1.0,-0.135437142857,-0.178003102041,1.899
0.375483378628,0.180846230897,-0.1259985371,-1.89773379165,0.0380893004188,2.07137921038,0.0588909336781,-0.205837494445,-0.527326306596,-0.0142371220501,-0.693464842378,-0.0679766112344,0.190898147502,-0.184361526441,0.573866132765,0.818932369539,0.00286053973993,0.0,0.818898223915,-0.573801053349,-0.011781211539,0.0,-0.00800678892126,0.00910350448832,-0.999926506068,0.0,0.580155216249,0.154001986626,0.304170536521,1.0,-0.137494285714,-0.18070677551,1.915
0.371795238246,0.171229487413,-0.126030125137,-1.9106905779,0.0367439171375,2.07489584154,0.0554802913065,-0.19763115642,-0.530057083719,0.00159998982098,-0.730540471837,-0.0766474205274,0.182143331303,-0.191882726185,0.573847083039,0.818945457976,0.00293411800114,0.0,0.818912860689,-0.573782429021,-0.0116703746982,0.0,-0.00787400659726,0.00909997264712,-0.999927592638,0.0,0.577691497594,0.15076113763,0.304201660547,1.0,-0.139808571429,-0.183748408163,1.933
0.368193597135,0.162091621502,-0.12604932431,-1.92309080178,0.0355179332074,2.07800741892,0.0520429684163,-0.21594249992,-0.542571485402,-0.00249440740716,-0.707062275516,-0.0619529431181,0.189452149563,-0.19975659451,0.573745526098,0.819017068963,0.00280337841671,0.0,0.818982111612,-0.573680591722,-0.0118163633451,0.0,-0.00806971485083,0.00907567711429,-0.999926253174,0.0,0.5752543552,0.147644132614,0.304145955549,1.0,-0.141994285714,-0.186621061224,1.95
0.364721844555,0.153314356548,-0.12607440299,-1.93459723278,0.0343038230091,2.08113624134,0.048848867048,-0.221226606345,-0.542545290717,0.00284123607081,-0.725200502681,-0.0815059614436,0.195708016097,-0.20179503494,0.573716488698,0.819036464365,0.00306717114881,0.0,0.819005801264,-0.573651656651,-0.0115767534021,0.0,-0.00772244404552,0.00915398151924,-0.999928281668,0.0,0.573044586359,0.14469851711,0.304268915694,1.0,-0.144051428571,-0.189324734694,1.966
0.360899875972,0.144003331585,-0.126115026908,-1.94720152266,0.0330472765155,2.08407473164,0.0453610002418,-0.230195708851,-0.548497210909,-0.00115954894968,-0.738568961881,-0.0725788334409,0.175617815065,-0.209943619407,0.573733158258,0.819025785299,0.00278801569175,0.0,0.818990307482,-0.573667922363,-0.0118633049025,0.0,-0.00811711372421,0.00908990422656,-0.999925740296,0.0,0.570485670574,0.141462951424,0.304158626056,1.0,-0.146237142857,-0.192197387755,1.983
0.357203491924,0.135040037032,-0.126216021999,-1.95879293742,0.031872521398,2.08711996714,0.0419105193504,-0.228958533827,-0.549421483968,0.000113302395472,-0.739781556656,-0.0770765112619,0.185000949223,-0.22191909398,0.573729829089,0.819026973069,0.00310604257013,0.0,0.818996073141,-0.57366398895,-0.0116536201278,0.0,-0.00776295390883,0.00923004385907,-0.999927268774,0.0,0.568219249937,0.138388441614,0.304298205091,1.0,-0.148294285714,-0.194901061224,1.999
0.353131264973,0.125571718734,-0.12632813163,-1.97144837446,0.0305071405727,2.09006704379,0.0382224634307,-0.246156314948,-0.551355931868,-0.00803134752977,-0.742093552926,-0.0766316958001,0.170807625358,-0.207964472615,0.573772774159,0.818997753707,0.00286879026472,0.0,0.818963425084,-0.573707347394,-0.0118124858824,0.0,-0.00802870792791,0.00912729282419,-0.999926113458,0.0,0.565632861117,0.13500594687,0.304207380659,1.0,-0.15048,-0.197773714286,2.016
0.348917807967,0.115838872957,-0.126465524163,-1.98388614515,0.0291648403114,2.09317274606,0.0344388957428,-0.248417477975,-0.560339663768,-0.00361215835898,-0.739429061576,-0.0790323134936,0.186382632039,-0.225640765315,0.573864880745,0.818932204392,0.00314486230266,0.0,0.818902204625,-0.573799370353,-0.0115848497486,0.0,-0.00768283445144,0.00922365067619,-0.999927946566,0.0,0.563143508502,0.131588982188,0.304356546801,1.0,-0.152665714286,-0.200646367347,2.033
0.34436810438,0.105616804429,-0.126509901597,-1.99735714876,0.0277019608015,2.09621933986,0.0303086581603,-0.251483830194,-0.572077919929,-0.0010400240485,-0.754999402154,-0.07882662869,0.16598489525,-0.233240149655,0.573820480305,0.818964014113,0.00295751095803,0.0,0.818931022222,-0.573754941888,-0.0117471018643,0.0,-0.00792371972527,0.0091629015203,-0.999926625259,0.0,0.560319554663,0.127969954426,0.304275998207,1.0,-0.15498,-0.203688,2.051
0.340259016822,0.0963398745304,-0.126512873558,-2.00912010576,0.0264060359125,2.09902286544,0.0265030958464,-0.259356197517,-0.573363733073,-0.00189386512016,-0.730544103073,-0.0767082125821,0.170499697284,-0.240526119858,0.573678841133,0.819062395308,0.00318225235071,0.0,0.819032744409,-0.573613072783,-0.0115824530877,0.0,-0.00766151772828,0.00925115525447,-0.999927856034,0.0,0.557873920514,0.124789134219,0.304392032837,1.0,-0.157037142857,-0.206391673469,2.067
0.335739154395,0.0865277234268,-0.126539189884,-2.02195021325,0.025100517281,2.101816228,0.0223933977809,-0.270726947178,-0.575531658415,-0.00684170423761,-0.767117955979,-0.0839348055845,0.161011470711,-0.25103608254,0.573637218095,0.819092042504,0.00305201958271,0.0,0.81905923276,-0.573570152477,-0.0118321730213,0.0,-0.00794124432339,0.00928733844376,-0.999925338204,0.0,0.555113854423,0.121317828082,0.304294030625,1.0,-0.159222857143,-0.209264326531,2.084
0.331036253562,0.0764913916014,-0.12667104067,-2.03447737545,0.0235922375734,2.104675802,0.0181761684628,-0.271848255608,-0.586809559012,-0.00734661102534,-0.727595757498,-0.0956174797625,0.168600472381,-0.242523790462,0.573638928805,0.819090066242,0.00325417331319,0.0,0.819061185063,-0.573572741204,-0.0115686028592,0.0,-0.00760936907864,0.00930174708971,-0.999927784894,0.0,0.552477367462,0.117720282861,0.304438307716,1.0,-0.161408571429,-0.212136979592,2.101
0.326475867083,0.0671071774867,-0.126791811929,-2.0465670808,0.0222593405261,2.10724420904,0.0141436585889,-0.292367111158,-0.60107074071,-0.011057919413,-0.756157327901,-0.0867050484683,0.156241310201,-0.251870894165,0.573720646753,0.819033258173,0.00314458228889,0.0,0.819002308128,-0.57365402334,-0.0117058826142,0.0,-0.00778375475698,0.00929150558722,-0.999926537845,0.0,0.549849476153,0.11427872408,0.304364209756,1.0,-0.163465714286,-0.214840653061,2.117
0.321431518895,0.0569321238556,-0.12694399331,-2.05924803317,0.0207645100676,2.10986974192,0.00967109945586,-0.299832988315,-0.601550188592,-0.00544137414105,-0.745940736543,-0.082291793405,0.169344479132,-0.264635238486,0.573784290853,0.818988465065,0.00319821225443,0.0,0.818958491371,-0.573717817225,-0.0116448491528,0.0,-0.00770227407258,0.00930101366954,-0.999927080401,0.0,0.547086364418,0.110534819874,0.304436121937,1.0,-0.165651428571,-0.217713306122,2.134
0.316349273582,0.0468197010563,-0.12700851157,-2.07204532883,0.0193342828786,2.11252710402,0.00515695389487,-0.304428757607,-0.604465346609,-0.00462232148363,-0.750734280357,-0.0818749341809,0.156353603165,-0.276812214204,0.57378610553,0.818987235584,0.00318746809247,0.0,0.81895652131,-0.57371894353,-0.0117276143766,0.0,-0.00777620536778,0.00933971977964,-0.999926147405,0.0,0.544244406115,0.106857587145,0.304391560309,1.0,-0.167837142857,-0.220585959184,2.151
0.31112527706,0.0365056147511,-0.127040213,-2.08478163088,0.0178595911035,2.11505224389,0.00049120848088,-0.313348030805,-0.616965717678,-0.00832816545444,-0.746540904024,-0.0876144516987,0.161282811429,-0.290829478046,0.573716100717,0.819035956497,0.00326873758703,0.0,0.819006081008,-0.573648411992,-0.0117168934747,0.0,-0.00772159959289,0.00939946736666,-0.999926010719,0.0,0.541375957629,0.103155157946,0.304442807682,1.0,-0.16998,-0.223402285714,2.168
0.30604180383,0.0268545246221,-0.127107297717,-2.09673994755,0.0163670860379,2.1174237741,-0.00396582717246,-0.31755362499,-0.607098456161,-0.00487806486841,-0.737800574595,-0.0908572560453,0.14479542933,-0.293115018973,0.573690832709,0.819053767473,0.00324057936643,0.0,0.819023952607,-0.573623759242,-0.0116745359617,0.0,-0.00770334765799,0.00935186643123,-0.999926597821,0.0,0.538496627693,0.0993548166339,0.304434550681,1.0,-0.16998,-0.223402285714,2.185
0.30019164905,0.0159762341412,-0.127276189208,-2.11006810896,0.0147610979604,2.11988425249,-0.00910341488704,-0.327988949233,-0.607492081925,-0.00547125691077,-0.726916971258,-0.0997639511312,0.152841184099,-0.288571287079,0.573785017847,0.818987730992,0.00325525437943,0.0,0.81895790692,-0.573717640303,-0.0116945628133,0.0,-0.00771025504853,0.00937626176769,-0.999926316127,0.0,0.535609136772,0.095500477145,0.30446115439,1.0,-0.16998,-0.223402285714,2.202
0.29520943379,0.00699712422237,-0.127400708394,-2.12104394277,0.0134354602316,2.12186017288,-0.0134483271372,-0.330726295381,-0.595967167667,-0.0070804396312,-0.727757664491,-0.0886122939007,0.1264161736,-0.286330507172,0.573866334846,0.818930820968,0.00323837941395,0.0,0.818900445116,-0.573798599457,-0.0117462824261,0.0,-0.00776136456861,0.00939288722965,-0.999925764689,0.0,0.533058164388,0.0920917227907,0.304455118414,1.0,-0.16998,-0.223402285714,2.217
0.2892166022,-0.00373774915319,-0.1274152785,-2.1340375135,0.0119092524294,2.12415547379,-0.018721420168,-0.337308366221,-0.601326523392,0.00287891324344,-0.689120353305,-0.085631363661,0.124890372402,-0.291718647778,0.573827880175,0.818957506363,0.0033035748466,0.0,0.818927300559,-0.57375910295,-0.0118031810603,0.0,-0.00777099720357,0.00947856449022,-0.999924881387,0.0,0.529989070229,0.0881252595848,0.304468266697,1.0,-0.16998,-0.223402285714,2.235
0.283501757758,-0.0138386754876,-0.127437865412,-2.14611060629,0.010327750301,2.12631725445,-0.0237573632226,-0.337533147871,-0.595070268317,-0.00279890553432,-0.722703030398,-0.0942336695627,0.111694419613,-0.291713935875,0.573721124582,0.819031948396,0.00338904350536,0.0,0.819003638074,-0.573653042759,-0.0116607999826,0.0,-0.00760657906091,0.00946586848731,-0.999926265926,0.0,0.527126832839,0.0843808383842,0.304518087095,1.0,-0.16998,-0.223402285714,2.252
0.277983824376,-0.0232721420317,-0.127480354508,-2.1575236672,0.00888681721956,2.12800927452,-0.0286034167134,-0.349748200543,-0.586504792635,-0.00615441887886,-0.70693523149,-0.0930028088891,0.113859584002,-0.299608211813,0.573670497687,0.819068266403,0.0031752096846,0.0,0.81903617481,-0.573601938577,-0.011887275318,0.0,-0.00791533595123,0.00942017210962,-0.999924301042,0.0,0.524321620505,0.0808040526075,0.304445149316,1.0,-0.16998,-0.223402285714,2.268
0.271967923201,-0.0332770948863,-0.1276516641,-2.16921237094,0.00733684160254,2.13006269337,-0.0337476661227,-0.35060822966,-0.576071628231,-0.00990987923428,-0.697905748674,-0.09368172789,0.11343801981,-0.309748637875,0.573827798194,0.818957145286,0.00340574616392,0.0,0.818929228537,-0.573759868592,-0.0116309389712,0.0,-0.00757130587651,0.00946340337924,-0.999926556965,0.0,0.521530894595,0.0769273895135,0.304549142619,1.0,-0.16998,-0.223402285714,2.285
0.265944221607,-0.0431664677063,-0.127718019679,-2.18105199628,0.00592957395888,2.1317343082,-0.0390673394276,-0.349418510158,-0.574495880895,0.000502559536262,-0.690029925756,-0.0816093962728,0.102469635603,-0.319540148272,0.573808736417,0.818971036229,0.00327455798473,0.0,0.818939647654,-0.573739087983,-0.0119188640882,0.0,-0.007882614326,0.00952099701289,-0.999923604586,0.0,0.518558696357,0.0731453422158,0.304460529075,1.0,-0.16998,-0.223402285714,2.302
0.260205886554,-0.0525358646725,-0.127738701053,-2.19171953203,0.00448096525172,2.13344825198,-0.044031397741,-0.364682718869,-0.578802545639,-0.00132221912684,-0.668426655849,-0.0915920793419,0.0958107726268,-0.316701381451,0.573781890961,0.818988728011,0.00354286583083,0.0,0.8189621425,-0.573712968082,-0.0116269646607,0.0,-0.00748990913075,0.00957299907046,-0.999926126746,0.0,0.515928480225,0.069621648203,0.304609670867,1.0,-0.16998,-0.223402285714,2.318
0.254000847927,-0.0622931997474,-0.127796475427,-2.2032590333,0.00298880351112,2.13498738447,-0.0494756407629,-0.365663560518,-0.578923255254,-0.00467709056479,-0.68305837802,-0.0867027649888,0.087382180842,-0.318873884736,0.573738339408,0.819019918466,0.00338200398061,0.0,0.818990230607,-0.573668685698,-0.0118316575706,0.0,-0.00775036265874,0.00955828781368,-0.99992428264,0.0,0.512973838605,0.0658349631367,0.304518825486,1.0,-0.16998,-0.223402285714,2.335
0.24767466247,-0.0721053987548,-0.127905778541,-2.21448503765,0.00145583953965,2.13650139593,-0.0549694394875,-0.375383361778,-0.587826120087,-0.0134651999355,-0.64619745665,-0.0937758005805,0.102557523258,-0.322872469666,0.573779730732,0.818990605335,0.00345772671313,0.0,0.818962296253,-0.573710302234,-0.0117470561313,0.0,-0.00763714221292,0.00957215480637,-0.999925021145,0.0,0.509936209048,0.061784744667,0.304576329633,1.0,-0.16998,-0.223402285714,2.353
0.241565938195,-0.0812140735733,-0.128034677364,-2.22494221524,9.20682622472e-05,2.13786555403,-0.0602699919343,-0.383041704189,-0.569398006794,-0.00614589073099,-0.651995122155,-0.083109351893,0.0768088267034,-0.333637685209,0.573854682841,0.818937982406,0.00348293781848,0.0,0.818909483588,-0.573784509235,-0.0118043023075,0.0,-0.00766868339445,0.00962635030419,-0.999924259469,0.0,0.507395979591,0.0583772229432,0.304562921985,1.0,-0.16998,-0.223402285714,2.368
0.234810819379,-0.0914191704525,-0.128042372307,-2.23666699834,-0.00143647426545,2.13919319805,-0.0662578069744,-0.375447029324,-0.568350403593,-0.000279389286505,-0.636268413413,-0.0818260922909,0.076389684425,-0.33493556513,0.573715989855,0.81903553673,0.00339108516805,0.0,0.819004669142,-0.573644710483,-0.0119935382808,0.0,-0.00787800766971,0.00965838522657,-0.999922323278,0.0,0.504271070368,0.0544618723421,0.304507632646,1.0,-0.16998,-0.223402285714,2.386
0.228207688295,-0.101054870688,-0.128104964524,-2.24735687866,-0.00297819546061,2.14051536234,-0.0719933509006,-0.390553429438,-0.561160841006,-0.00511566854962,-0.635063962321,-0.0837687174202,0.0720875322948,-0.338958587647,0.573693421889,0.819050693975,0.00354475418921,0.0,0.819022940858,-0.573622987439,-0.0117829338509,0.0,-0.00761761432255,0.00966321268825,-0.999924294271,0.0,0.501450104523,0.0506719335194,0.304603493219,1.0,-0.16998,-0.223402285714,2.403
0.221895209198,-0.110026813564,-0.128243854246,-2.25756825177,-0.00434951958862,2.1415276325,-0.0774203402619,-0.403868135675,-0.564434629428,-0.0139847852898,-0.651957485272,-0.0885760956231,0.0573724942704,-0.343476643718,0.573816326754,0.818965099138,0.00342584960118,0.0,0.818934605221,-0.573744805421,-0.0119898925954,0.0,-0.00785389137693,0.00968572939824,-0.999922248495,0.0,0.498667702923,0.0470595886097,0.304530002357,1.0,-0.16998,-0.223402285714,2.419
0.215054711668,-0.119595496789,-0.128381865556,-2.26800859215,-0.0058824942975,2.14265984256,-0.0833712996725,-0.397436493315,-0.560810591164,-0.00233544362544,-0.610842291177,-0.0857880555888,0.0708579770972,-0.351997042389,0.57385490225,0.818937388161,0.00358501551125,0.0,0.8189099895,-0.573784093315,-0.0117894129648,0.0,-0.0075979124701,0.00970140422129,-0.999924074359,0.0,0.495841113457,0.0432085448614,0.304632037874,1.0,-0.16998,-0.223402285714,2.436
0.207832136894,-0.12954910704,-0.128412904181,-2.2790542712,-0.00737045756457,2.14367182345,-0.0897256895991,-0.401354964612,-0.5542564776,-0.00302788620427,-0.605288140876,-0.0896930670917,0.0565674511218,-0.350121261308,0.573789625636,0.818983117573,0.00358685719396,0.0,0.818954910727,-0.573717759936,-0.0118967655879,0.0,-0.00768555446641,0.00976390297141,-0.999922796245,0.0,0.492763525007,0.0392617330225,0.304609965631,1.0,-0.16998,-0.223402285714,2.454
0.201240562089,-0.138366428749,-0.12848895839,-2.28880741696,-0.00881433207471,2.14447708621,-0.0955071479529,-0.408982755821,-0.553536850658,-0.00666332076163,-0.593437461794,-0.0842232538458,0.0486498658778,-0.364121759799,0.573737586709,0.819020040236,0.0034788202985,0.0,0.818990173815,-0.573665802521,-0.0119745193325,0.0,-0.00781184146927,0.00971953859599,-0.999922249829,0.0,0.490009181126,0.0356743837202,0.304569996388,1.0,-0.16998,-0.223402285714,2.47
0.194166337384,-0.147768302701,-0.128634442967,-2.29881813154,-0.0102226235004,2.1454667492,-0.101674290881,-0.422511712255,-0.546756713601,-0.00970258002763,-0.598378583572,-0.0845410265667,0.0516020086299,-0.366829116667,0.573822889379,0.81895892102,0.00378473337698,0.0,0.818933904375,-0.573751144279,-0.0117316496644,0.0,-0.00743638721861,0.00983152487636,-0.999924017745,0.0,0.487207078642,0.0318684517629,0.304687145293,1.0,-0.16998,-0.223402285714,2.487
0.186525874495,-0.157577717708,-0.128755400283,-2.30951707127,-0.0118362452621,2.14609542496,-0.108364386318,-0.415122283832,-0.541597733434,-0.00244365618016,-0.590597869968,-0.0900896250811,0.0243301745447,-0.37266843236,0.573808531266,0.818969820876,0.0035984499174,0.0,0.81894163853,-0.573736460817,-0.0119085310552,0.0,-0.00768831364897,0.0097803254874,-0.999922614539,0.0,0.484081500014,0.0278103276848,0.304629281476,1.0,-0.16998,-0.223402285714,2.505
0.180150580717,-0.165726900697,-0.1287685063,-2.31813386707,-0.0130438566171,2.1466952293,-0.113936361942,-0.431407396563,-0.544907328146,-0.00230881076779,-0.563189594457,-0.0797788037187,0.0506778817039,-0.37581794511,0.573791979833,0.818980785781,0.00373942532279,0.0,0.818954485749,-0.573719479059,-0.0118429945935,0.0,-0.00755394930692,0.00985802425468,-0.99992287563,0.0,0.481566719433,0.0245298435897,0.304688395892,1.0,-0.16998,-0.223402285714,2.52
0.172803617351,-0.174867233778,-0.128839993749,-2.32786827948,-0.0144505130451,2.14730995373,-0.120447299047,-0.435623257763,-0.537805071915,-0.0102399377964,-0.58350215969,-0.0888529817696,0.0258996747851,-0.376173391019,0.573731951028,0.819022584905,0.00379482353576,0.0,0.818996801777,-0.57365900145,-0.0118463342506,0.0,-0.00752562551097,0.00990475949853,-0.999922627357,0.0,0.478686125627,0.0207660886223,0.304692311136,1.0,-0.16998,-0.223402285714,2.537
0.164783493679,-0.184514652135,-0.129054294165,-2.33813397847,-0.0160283888583,2.14775824937,-0.12742892279,-0.446931887896,-0.536108516097,-0.0129294914158,-0.562625585717,-0.0868043344405,0.0256048087941,-0.391228863446,0.573854443711,0.818937217414,0.00369570946395,0.0,0.818909523529,-0.573781019387,-0.0119700027898,0.0,-0.00768230074159,0.00989568149089,-0.999921525792,0.0,0.475579552099,0.0166422694799,0.304652394836,1.0,-0.16998,-0.223402285714,2.555
0.15813231636,-0.192534759308,-0.129098873066,-2.34634006061,-0.0172477960492,2.14823231404,-0.133309934618,-0.436497884586,-0.539557341603,0.000476325791946,-0.546591209676,-0.0821374496137,0.0322499463378,-0.387845958719,0.573805929412,0.818970132824,0.0039273164622,0.0,0.81894641481,-0.57373298154,-0.0117465937596,0.0,-0.00736702030619,0.00995671858388,-0.999923292441,0.0,0.472935558864,0.013125250985,0.304761164502,1.0,-0.16998,-0.223402285714,2.571
0.150022831418,-0.202006654251,-0.129155461568,-2.35628487699,-0.0187634945759,2.14854533324,-0.140504698382,-0.447218950938,-0.51866662184,-0.0027885110906,-0.555865236626,-0.0837759852353,0.00811003305784,-0.397259108904,0.57371887169,0.819031564612,0.00383397136813,0.0,0.81900597345,-0.573645369938,-0.0118723167116,0.0,-0.00752460708011,0.0099516092,-0.999922169853,0.0,0.470009617024,0.0093557420476,0.304714071354,1.0,-0.16998,-0.223402285714,2.588
0.142205291433,-0.210933349173,-0.129324645862,-2.36557091052,-0.0201166056406,2.14875820544,-0.147397371265,-0.457889271283,-0.533272285633,-0.0127992036885,-0.538005852501,-0.0722507614119,0.0146729504535,-0.404341082492,0.573801700861,0.818973568845,0.00382733892072,0.0,0.818946740257,-0.573726694776,-0.0120276026472,0.0,-0.00765458953044,0.0100360388141,-0.999920339419,0.0,0.467076287044,0.00552729948374,0.304679598755,1.0,-0.16998,-0.223402285714,2.605
0.135207063442,-0.218763975979,-0.12942981547,-2.37337540305,-0.0213336846874,2.1490258431,-0.153483476472,-0.46241346153,-0.521248387976,-0.00642582573232,-0.517133693705,-0.0896170378061,0.0137926312123,-0.406000545699,0.573907778676,0.818898193233,0.00404445251952,0.0,0.818875266174,-0.573833432322,-0.011799885545,0.0,-0.0073422042422,0.0100841423862,-0.999922198028,0.0,0.464615159282,0.0021588549701,0.304790026583,1.0,-0.16998,-0.223402285714,2.62
0.126842743679,-0.227986202971,-0.129457340982,-2.38294995769,-0.0228533981223,2.14914460586,-0.160981829965,-0.470979492181,-0.508597308009,-0.00350569017901,-0.532151772898,-0.0818986462302,0.00313621628761,-0.414255781791,0.573729212115,0.819024046473,0.00389221864803,0.0,0.818998511812,-0.573654572545,-0.0119421919533,0.0,-0.00754829868072,0.0100394989522,-0.999921112712,0.0,0.461507820987,-0.00177930067033,0.304705919027,1.0,-0.16998,-0.223402285714,2.638
0.118694472049,-0.236711013467,-0.129582325802,-2.39178792481,-0.0242568596723,2.14916269888,-0.168174751906,-0.48306700121,-0.517501415835,-0.0127653499621,-0.517049992206,-0.0850288435455,0.000555503981178,-0.417037683081,0.573761377885,0.819001655087,0.00386226788171,0.0,0.818975344404,-0.573686331026,-0.0120052386001,0.0,-0.00761672663832,0.010051437931,-0.999920473873,0.0,0.458593263007,-0.00560340298659,0.304691275454,1.0,-0.16998,-0.223402285714,2.655
0.110894597125,-0.244901161098,-0.129750121363,-2.39975692216,-0.0255420906012,2.14924343463,-0.175067789201,-0.493715851367,-0.508336570874,-0.00190427903756,-0.501851251364,-0.0792154806164,-7.99334221157e-05,-0.431545919256,0.573854134193,0.818935565616,0.0040888799137,0.0,0.818913339955,-0.573779820091,-0.0117646334735,0.0,-0.00728850031284,0.0100998163156,-0.999922432728,0.0,0.455956057051,-0.0092389846907,0.304807969838,1.0,-0.16998,-0.223402285714,2.671
0.102666640873,-0.253437812072,-0.129813826261,-2.40839715174,-0.0268467108416,2.14920003561,-0.182453519021,-0.489939015579,-0.498894725073,-0.00409403619238,-0.511058572444,-0.0829610649589,-0.00652068379487,-0.436091331323,0.573778513436,0.818988643408,0.00407018299883,0.0,0.818965293666,-0.573703059628,-0.0118909228659,0.0,-0.00740359688933,0.0101562902004,-0.999921015142,0.0,0.4530317444,-0.0129645522282,0.304746377019,1.0,-0.16998,-0.223402285714,2.688
0.0942065862267,-0.261934003549,-0.129915325455,-2.41684846811,-0.0282270322853,2.14906367267,-0.189941005909,-0.49923657115,-0.503223748481,-0.00826935396293,-0.488982335481,-0.0801540732088,-0.0105676112668,-0.428119365503,0.573801536467,0.818972686445,0.00403515881752,0.0,0.818948644202,-0.573725879185,-0.0119365243661,0.0,-0.00746075602936,0.0101539793597,-0.99992061376,0.0,0.45011887376,-0.0167737394142,0.304719982075,1.0,-0.16998,-0.223402285714,2.705
0.0861354968372,-0.269906589299,-0.130090239623,-2.42441944205,-0.0294604545771,2.14898343088,-0.197151627624,-0.514740443078,-0.495330967144,-0.00930490825244,-0.477325667716,-0.074999691381,-0.00871452628089,-0.448243547552,0.573873174635,0.818921218896,0.00428527446394,0.0,0.818901605073,-0.573798315111,-0.0116791132135,0.0,-0.00710552716462,0.0102117445212,-0.999922612884,0.0,0.447490119697,-0.0203965653794,0.304839472019,1.0,-0.16998,-0.223402285714,2.721
0.077095791205,-0.278726501912,-0.130140264446,-2.43308716828,-0.030873737259,2.14872784751,-0.205328950652,-0.508117274141,-0.482025294148,-0.00317451465331,-0.483738793948,-0.0764848767586,-0.0183342437975,-0.460577200384,0.573728505459,0.819022767238,0.00424919645559,0.0,0.819002423831,-0.573653409133,-0.0117278663728,0.0,-0.00716796154311,0.0102089099959,-0.999922196215,0.0,0.444411020969,-0.0243362303813,0.304803727831,1.0,-0.16998,-0.223402285714,2.739
0.0672741121709,-0.287943879617,-0.130266592353,-2.44204122638,-0.0323394273653,2.14834486675,-0.214118041973,-0.514966437802,-0.483849673609,-0.0164706415623,-0.463733396819,-0.0789672002215,-0.0226907071789,-0.468449399578,0.573741971947,0.819013428902,0.00423081607515,0.0,0.818992350491,-0.573666229593,-0.0118039723407,0.0,-0.0072406749609,0.0102376374757,-0.999921378612,0.0,0.441157126999,-0.0285891881336,0.304775649815,1.0,-0.16998,-0.223402285714,2.758
0.0599066185551,-0.294716606878,-0.130431473764,-2.44836626515,-0.0333330477758,2.14810645267,-0.220701164466,-0.527075577491,-0.4901628193,-0.0118457511231,-0.444730845782,-0.0734385119668,-0.0136122918756,-0.47774749861,0.573868390224,0.818923695862,0.00444948963694,0.0,0.818905930129,-0.573792608715,-0.0116561865585,0.0,-0.00699257773868,0.010333029409,-0.999922163151,0.0,0.438833478,-0.0317678926266,0.304855088242,1.0,-0.16998,-0.223402285714,2.772
0.0505184953302,-0.303301309057,-0.13051931064,-2.4564509479,-0.0347322777355,2.14769849171,-0.229250315323,-0.529790439656,-0.474027218347,-0.00531073987522,-0.451111345311,-0.0749558733843,-0.0301844863578,-0.478036522524,0.573747588503,0.819008095523,0.00449344591153,0.0,0.818991538026,-0.573672643977,-0.011545782624,0.0,-0.00687845487315,0.0103046575126,-0.999923247501,0.0,0.435636134098,-0.0359553939988,0.304889520376,1.0,-0.16998,-0.223402285714,2.791
0.0419110287732,-0.310779402583,-0.130620067995,-2.4636792682,-0.0359454050409,2.1471323006,-0.236891500254,-0.538557637899,-0.470324723949,-0.0102520299388,-0.455642816456,-0.0640161791084,-0.0347987073282,-0.482784431263,0.573820981097,0.818957355536,0.00436787910973,0.0,0.818938018369,-0.573744717136,-0.0117587639364,0.0,-0.00712401581283,0.0103246465025,-0.999921321942,0.0,0.433024937258,-0.0393219631887,0.304811583514,1.0,-0.16998,-0.223402285714,2.806
0.0326821097194,-0.31870699795,-0.130799946748,-2.47108731965,-0.0371873403684,2.14662845257,-0.245218771044,-0.542782476525,-0.458328414701,-0.00477442077436,-0.432897783922,-0.0735468466263,-0.0333178435988,-0.4879619725,0.573890213416,0.818908400286,0.00444991995441,0.0,0.818890091294,-0.573813617933,-0.0117344431667,0.0,-0.00705614526601,0.0103784772688,-0.999921245911,0.0,0.430142354588,-0.0431579596997,0.304823752855,1.0,-0.16998,-0.223402285714,2.823
0.023523757532,-0.326562361367,-0.130859536752,-2.47815452885,-0.0383869596341,2.14616585462,-0.253648895379,-0.544783894075,-0.455110203406,-0.00110029913422,-0.414472195136,-0.0687385745888,-0.0282717776938,-0.492395073413,0.573747530948,0.819007108832,0.00467689167013,0.0,0.81899324265,-0.573672553947,-0.0114287463559,0.0,-0.00667734868123,0.0103877576745,-0.999923750846,0.0,0.427362821947,-0.0468768409163,0.304944839771,1.0,-0.16998,-0.223402285714,2.84
0.014043751805,-0.33423796038,-0.130981293447,-2.48543275331,-0.039604682948,2.14543202801,-0.262193897744,-0.563256184144,-0.452193619449,-0.0123042453521,-0.426695864059,-0.0672735832023,-0.0415563229755,-0.511551498972,0.573802354055,0.818969359632,0.0045599743811,0.0,0.818952519704,-0.573725482201,-0.011687105905,0.0,-0.00695534205026,0.0104406924053,-0.999921304483,0.0,0.424397840801,-0.0506919762993,0.304850163574,1.0,-0.16998,-0.223402285714,2.857
0.00560703631929,-0.340997511232,-0.131135888083,-2.4916057,-0.0406577134133,2.14481889533,-0.269784302601,-0.561626770611,-0.448788187607,-0.0078351637994,-0.406068056905,-0.0654936361324,-0.036195710033,-0.500553852071,0.573917351721,0.818888459094,0.004616476637,0.0,0.818872162254,-0.573839996105,-0.0116956255513,0.0,-0.00692842724415,0.0104928286683,-0.999920945596,0.0,0.421842894885,-0.0540747448392,0.304860154805,1.0,-0.16998,-0.223402285714,2.872
-0.00444850811205,-0.348975099328,-0.13124364669,-2.49884463091,-0.0419292348909,2.14404427629,-0.279094505617,-0.568125275688,-0.447432906006,-0.00830341513423,-0.398455049546,-0.0795883648065,-0.0475605377331,-0.508877998214,0.573770821797,0.818990988538,0.00464237531441,0.0,0.818975059054,-0.573693455882,-0.0116798213456,0.0,-0.0069025009867,0.0105037325186,-0.999921010422,0.0,0.41879859729,-0.0580314942303,0.304871131997,1.0,-0.16998,-0.223402285714,2.89
-0.0142776809314,-0.356441061463,-0.131396290364,-2.50540420851,-0.0431101490281,2.14332504029,-0.288002566423,-0.5828059593,-0.423369213742,-0.0112466647898,-0.392601158517,-0.065275785505,-0.0452036985509,-0.525917540129,0.573862573897,0.818925850482,0.00479005147758,0.0,0.818912833142,-0.573786301025,-0.011480390776,0.0,-0.00665325095674,0.0105110035958,-0.999922623534,0.0,0.41596540931,-0.0618892928956,0.304959805038,1.0,-0.16998,-0.223402285714,2.907
-0.0235098817044,-0.363293551522,-0.131495817162,-2.51168641191,-0.0442467742994,2.1424934143,-0.296504327077,-0.568426311941,-0.426892564707,-0.00373242592516,-0.386940928133,-0.0687364222625,-0.0463713294734,-0.543347692654,0.573784383356,0.818981289217,0.00467720323496,0.0,0.818965939205,-0.573707101661,-0.0116489839449,0.0,-0.00685708719766,0.0105146776499,-0.99992120785,0.0,0.413197341938,-0.0654390651346,0.304893261211,1.0,-0.16998,-0.223402285714,2.923
-0.0333703489595,-0.37055720011,-0.131570751155,-2.51816176989,-0.0453731109606,2.14165361259,-0.305639776249,-0.590382469638,-0.417895103545,-0.00786431677291,-0.377687775671,-0.0711592449345,-0.0511674677346,-0.535926573448,0.573675180265,0.819057603034,0.00470928455565,0.0,0.819042505103,-0.573597564822,-0.0116599899376,0.0,-0.00684910112296,0.0105463540991,-0.999920928988,0.0,0.410132530026,-0.0693962417879,0.304890885333,1.0,-0.16998,-0.223402285714,2.941
-0.0441487634468,-0.378037317166,-0.131757548985,-2.52473948148,-0.0465201995748,2.14068368275,-0.315358537569,-0.591289902098,-0.415119480709,-0.0108311342808,-0.349280940113,-0.0665205516522,-0.0439415313959,-0.544891144865,0.573905743643,0.818895647933,0.00478143412859,0.0,0.818881136335,-0.573827322004,-0.0116891393003,0.0,-0.00682859923144,0.010624094942,-0.999920246239,0.0,0.407246163608,-0.0732625822672,0.304906740155,1.0,-0.16998,-0.223402285714,2.958
-0.0529992895872,-0.38420630788,-0.131821971228,-2.52999741845,-0.0475199403307,2.13997834175,-0.323658351263,-0.586610229918,-0.402876110482,-0.00485559835275,-0.34928980961,-0.0737605659451,-0.0537516855444,-0.557401507067,0.573741932207,0.819009799809,0.00488773428683,0.0,0.818998041451,-0.573665398971,-0.0114439950878,0.0,-0.00656894655873,0.0105691481507,-0.999922568026,0.0,0.404781899378,-0.0765646819826,0.304989416864,1.0,-0.16998,-0.223402285714,2.973
-0.0639028156396,-0.391474523733,-0.131966013358,-2.53646193687,-0.0487169425824,2.13891583822,-0.333713332744,-0.616089597668,-0.407504259832,-0.00247639912359,-0.357480115497,-0.0700731556613,-0.0618752992477,-0.565169472591,0.573741448189,0.819010628795,0.00480494038308,0.0,0.818996883486,-0.573663701825,-0.0116107256483,0.0,-0.0067530178433,0.0105969897719,-0.999921047162,0.0,0.401662798402,-0.0805920441775,0.304928025798,1.0,-0.16998,-0.223402285714,2.991
-0.0743563193705,-0.398257193062,-0.132121332046,-2.54231708862,-0.0497881173314,2.13791609322,-0.343304235726,-0.608684394866,-0.392396762917,-0.00127960815546,-0.338165157119,-0.0669530750854,-0.0511859694443,-0.569696923093,0.573837560508,0.818943071621,0.00484215821749,0.0,0.818929583713,-0.5737593301,-0.0116324951557,0.0,-0.00674824778296,0.0106407541236,-0.999920614601,0.0,0.398753420006,-0.0844240111313,0.304934910493,1.0,-0.16998,-0.223402285714,3.008
-0.0840378587088,-0.404453036043,-0.132192717345,-2.54769729862,-0.0507700476312,2.1369707331,-0.352445908012,-0.615951140064,-0.386804778563,-0.00582594524447,-0.327740291607,-0.0616946527148,-0.0661896664097,-0.571879241915,0.573662906449,0.819065508496,0.00482798704391,0.0,0.81905144467,-0.573584133524,-0.0116927180267,0.0,-0.00680797634566,0.0106622536521,-0.999919980701,0.0,0.396042828926,-0.0879013662075,0.304912948312,1.0,-0.16998,-0.223402285714,3.024
-0.0947697188413,-0.410908843792,-0.132371288591,-2.55311287605,-0.0517945985258,2.13601021052,-0.362280964197,-0.643470396596,-0.378548786022,-0.01644226338,-0.31401689149,-0.0513790252015,-0.0539147671964,-0.570193139508,0.573836499402,0.818943260018,0.00493515209049,0.0,0.818931142061,-0.573758248515,-0.0115759978175,0.0,-0.00664862917778,0.0106844855119,-0.999920815615,0.0,0.393190523298,-0.0917857900213,0.304963265462,1.0,-0.16998,-0.223402285714,3.041
-0.106000766075,-0.41765093408,-0.132455431249,-2.55877800626,-0.0528069497758,2.13494623557,-0.372856324258,-0.615291946538,-0.377422494364,-0.00274493742166,-0.319140833034,-0.0546613177169,-0.0638606139398,-0.590061411208,0.573732494904,0.819015563221,0.00502776237806,0.0,0.819004832866,-0.573654293456,-0.0115144362402,0.0,-0.00654643104684,0.0107241743912,-0.999921065047,0.0,0.390166382191,-0.0957491561606,0.3049946531,1.0,-0.16998,-0.223402285714,3.059
-0.115514073293,-0.423179552928,-0.132585814219,-2.56351971697,-0.0537290105462,2.13390451468,-0.381755456773,-0.643309123181,-0.359225988765,-0.0140394129241,-0.314706726305,-0.0650449961319,-0.0692791494112,-0.598479230091,0.573708266284,0.819032985109,0.00495392793155,0.0,0.819020311604,-0.573628698221,-0.0116872861708,0.0,-0.00673068723642,0.0107626674995,-0.999919428173,0.0,0.38755391065,-0.0990892494465,0.30495017114,1.0,-0.16998,-0.223402285714,3.074
-0.128414829862,-0.430305938753,-0.132750385438,-2.56952794467,-0.0549101425366,2.13268048245,-0.39369479331,-0.634452689476,-0.346415255107,-6.48227969424e-05,-0.295578825211,-0.0633355911766,-0.0503961964186,-0.585700016208,0.573817586802,0.818956393227,0.0049547926584,0.0,0.818943621645,-0.573737822563,-0.0117048036418,0.0,-0.00674310164847,0.0107743254631,-0.999919218983,0.0,0.384141239229,-0.103592778577,0.304936053991,1.0,-0.16998,-0.223402285714,3.094
-0.137987136843,-0.435456639857,-0.13282638893,-2.57385409518,-0.0556631629402,2.13175308333,-0.402834527148,-0.649212331887,-0.334282044604,-0.00925052044122,-0.281528687509,-0.0505532307695,-0.0586647263714,-0.599673255265,0.573692394939,0.819043741869,0.00501316220666,0.0,0.819031195648,-0.573611608025,-0.0117631031761,0.0,-0.00675901813872,0.0108545480528,-0.999918243888,0.0,0.381621742707,-0.106869667543,0.304920800395,1.0,-0.16998,-0.223402285714,3.109
-0.149226366005,-0.44126136945,-0.133009735267,-2.57854184775,-0.0566483699924,2.13065987341,-0.413246590983,-0.661845585128,-0.338786545664,-0.0130440017875,-0.268569854768,-0.0546605652,-0.0568398824748,-0.608442702511,0.573846944054,0.818935201544,0.00505641891629,0.0,0.81892375539,-0.57376686024,-0.0116713259504,0.0,-0.00665698223134,0.0108385849738,-0.999919101559,0.0,0.378739579938,-0.110755995728,0.304972243734,1.0,-0.16998,-0.223402285714,3.126
-0.15964036187,-0.446634545376,-0.133058293741,-2.5828479047,-0.0575038188254,2.1296797194,-0.423175068504,-0.65251038672,-0.333892708008,-0.00408884874289,-0.267235149807,-0.0478158727934,-0.0613365140446,-0.628573898463,0.573695168942,0.819041154973,0.00511727408755,0.0,0.81903136294,-0.573616348769,-0.0115177188235,0.0,-0.00649825876169,0.0107990755324,-0.999920573146,0.0,0.376069055975,-0.114269579197,0.305031141148,1.0,-0.16998,-0.223402285714,3.142
-0.172295034876,-0.452777473132,-0.133264869303,-2.58800273165,-0.0584730144372,2.1283982515,-0.435094914217,-0.672497869727,-0.310051525731,-0.0164726104916,-0.26746632302,-0.0504001624319,-0.0709454484464,-0.632013748679,0.573771534446,0.818987598957,0.00512697917422,0.0,0.818976460816,-0.573690241851,-0.0117392476271,0.0,-0.0066731287837,0.0109347319105,-0.999917947129,0.0,0.372766381724,-0.118521751247,0.304965098212,1.0,-0.16998,-0.223402285714,3.161
-0.181689950426,-0.457161849381,-0.133333090746,-2.59156072268,-0.0591767264311,2.12748614118,-0.443948888399,-0.662363681591,-0.316736222974,-4.98015025494e-05,-0.246449945639,-0.04143747271,-0.0679657324045,-0.627190400159,0.57377935941,0.81898204939,0.00513774205042,0.0,0.818970888868,-0.573697763806,-0.0117603525379,0.0,-0.00668413518802,0.010955719651,-0.999917643881,0.0,0.37038560599,-0.121642392209,0.304967748297,1.0,-0.16998,-0.223402285714,3.175
-0.193726666217,-0.462545919484,-0.133417128422,-2.59592652667,-0.0600411198196,2.1264311661,-0.455481095904,-0.677105893874,-0.291534572569,-0.0164461623361,-0.244894365997,-0.0526855368187,-0.0567419949776,-0.645594692161,0.573656764646,0.819067656613,0.00518046009795,0.0,0.819057233865,-0.573575350341,-0.0117180218108,0.0,-0.00662659603163,0.0109654269165,-0.99991792045,0.0,0.367380165317,-0.125615402516,0.304970041068,1.0,-0.16998,-0.223402285714,3.193
-0.20542151297,-0.467530566145,-0.133578335565,-2.60000529833,-0.060914776643,2.12533098648,-0.466445559678,-0.688720269344,-0.290071460976,-0.00186158229955,-0.241155178889,-0.0468303231613,-0.0673410253782,-0.655830591683,0.57378421422,0.818978581172,0.00514839733781,0.0,0.818967107708,-0.573701842583,-0.0118245173426,0.0,-0.00673051098044,0.0110013012782,-0.999916832338,0.0,0.364441828759,-0.129468332802,0.304934808428,1.0,-0.16998,-0.223402285714,3.21
-0.215574711607,-0.471872627875,-0.133652843287,-2.60335664294,-0.0615747285358,2.12441589586,-0.476191064495,-0.682530747752,-0.29288802131,-0.00505850008682,-0.221701031693,-0.0478828041899,-0.0658338859847,-0.663595742353,0.573711657663,0.81902878877,0.00524632534006,0.0,0.819019230169,-0.573630032817,-0.0116975623274,0.0,-0.00657131704576,0.0110080811543,-0.999917816594,0.0,0.361940418225,-0.132767582829,0.304994711114,1.0,-0.16998,-0.223402285714,3.225
-0.228092265635,-0.476889248062,-0.133843425529,-2.60721040216,-0.0624210433493,2.12334968663,-0.488055637525,-0.700224575457,-0.272541405028,-0.00754386363677,-0.21621872458,-0.0481451632124,-0.0540003636291,-0.659317229328,0.573815706026,0.818955279681,0.00534156348918,0.0,0.818947840662,-0.573735266517,-0.0115336521197,0.0,-0.00638102479988,0.0109928642661,-0.999919216466,0.0,0.358895928211,-0.136859740038,0.305061643243,1.0,-0.16998,-0.223402285714,3.243
-0.239760802022,-0.481347773954,-0.133884515604,-2.61080407788,-0.063134682731,2.12232447537,-0.499348145748,-0.679231526708,-0.260624430562,-0.00415598492778,-0.211273812623,-0.0429518573897,-0.0551912154184,-0.66141306856,0.573655191679,0.819067710935,0.00534348794247,0.0,0.819059799342,-0.573573920372,-0.0116081812497,0.0,-0.00644312516685,0.0110359420779,-0.999918343726,0.0,0.356025668541,-0.140569332967,0.305034562439,1.0,-0.16998,-0.223402285714,3.26
-0.251036416051,-0.485388071739,-0.134006325742,-2.61405243286,-0.0638678908323,2.12134381941,-0.510064445537,-0.705186492033,-0.251508173696,-0.0165151263643,-0.197601827704,-0.0420649900992,-0.0652634182058,-0.682705288306,0.573711700689,0.81902837294,0.00530619562434,0.0,0.819019399853,-0.573629556557,-0.0117090311216,0.0,-0.00654636410302,0.0110636983244,-0.999917366434,0.0,0.353270277704,-0.144171056441,0.305001917097,1.0,-0.16998,-0.223402285714,3.276
-0.263673715498,-0.489693943812,-0.134085426392,-2.61751623315,-0.0645793926301,2.1202860573,-0.522233281749,-0.700838726374,-0.237188811096,-0.00509843290793,-0.191593782115,-0.0342449824954,-0.0571896030076,-0.68180789492,0.573651908262,0.819070197982,0.00531468029784,0.0,0.819060416705,-0.573568200475,-0.0118448339781,0.0,-0.00665354699837,0.0111480705089,-0.999915721867,0.0,0.350038431273,-0.148377458695,0.3049588555,1.0,-0.16998,-0.223402285714,3.295
-0.27574849225,-0.493629929985,-0.134245806655,-2.62060079486,-0.0652185931759,2.11936598247,-0.533819274149,-0.714446151922,-0.231942513956,-0.0174576880257,-0.172021026431,-0.0320600600249,-0.0570236256695,-0.688568662187,0.573733017445,0.819012849326,0.00539668717224,0.0,0.819004013059,-0.573648798439,-0.0118418555542,0.0,-0.0066029558742,0.0112141878784,-0.999915317896,0.0,0.347319903048,-0.151967881946,0.304957532637,1.0,-0.16998,-0.223402285714,3.311
-0.287150215432,-0.497212368764,-0.13432531315,-2.62333356535,-0.0658407213091,2.11847588435,-0.544810671771,-0.692760071809,-0.222486984394,-0.00138205276684,-0.173136947486,-0.0302810089127,-0.0479622150811,-0.679468768348,0.573708599416,0.819029786927,0.00542199069831,0.0,0.819021482773,-0.573624641664,-0.0118037338825,0.0,-0.00655754842845,0.011212846377,-0.999915631758,0.0,0.344609911908,-0.155533713956,0.304981283667,1.0,-0.16998,-0.223402285714,3.327
-0.299263705829,-0.500791778258,-0.13438195155,-2.6260740689,-0.0664321270713,2.11756138661,-0.556555752394,-0.715208720832,-0.203686740056,-0.00739234546996,-0.153306428731,-0.0399359477995,-0.0446932367732,-0.701633456721,0.57364560028,0.819073645429,0.00546219226016,0.0,0.819065817934,-0.573561434491,-0.0117988837386,0.0,-0.00653137763686,0.0112424891689,-0.999915470199,0.0,0.341748887374,-0.159287192276,0.30499499529,1.0,-0.168737142857,-0.221768816327,3.344
-0.312964279935,-0.50449475152,-0.134458740806,-2.62891278157,-0.0671059370181,2.11664483566,-0.56966114091,-0.70307454867,-0.186595927051,0.00143950664942,-0.143649476106,-0.0265380136937,-0.0472421222838,-0.683348055488,0.57374125019,0.819006545555,0.00547750577648,0.0,0.818999187734,-0.57365748072,-0.0117546674088,0.0,-0.00648506224179,0.0112304265769,-0.999915907208,0.0,0.338555694412,-0.163531932164,0.305005469787,1.0,-0.166294285714,-0.218558204082,3.363
-0.323573535356,-0.507236311797,-0.134457973825,-2.63100278734,-0.067528198343,2.11598928611,-0.579989472453,-0.712715516234,-0.178751249487,-0.00135475102598,-0.136727184233,-0.0275263308274,-0.0438061481387,-0.677128435917,0.573673132653,0.819053846707,0.00553895005133,0.0,0.819047583293,-0.573589684668,-0.011690887281,0.0,-0.00639850477666,0.0112436280582,-0.999916316481,0.0,0.336101138892,-0.16677249832,0.305019346123,1.0,-0.164365714286,-0.216023510204,3.378
-0.335750727741,-0.510199808462,-0.13449088029,-2.63322527432,-0.0680178097533,2.11522711801,-0.591628232312,-0.708016166366,-0.170046329877,0.00165705707945,-0.125548113082,-0.0291035351133,-0.0446495830445,-0.684517770984,0.573802963744,0.818962529637,0.0055929197424,0.0,0.81895724674,-0.57371980877,-0.0116342571127,0.0,-0.00631937345794,0.0112563500854,-0.99991667658,0.0,0.333287093714,-0.17048943196,0.305043003675,1.0,-0.16218,-0.213150857143,3.395
-0.348243731566,-0.512992097842,-0.134435868834,-2.63537786832,-0.0684460100939,2.11444541693,-0.603864410866,-0.698866025043,-0.151030271958,0.000766749224358,-0.114122128529,-0.0263739163848,-0.0394057687994,-0.678973444201,0.573669748959,0.819055635104,0.00562428967562,0.0,0.819050350323,-0.573585786302,-0.0116882970585,0.0,-0.00634747516312,0.0113120166598,-0.99991587038,0.0,0.330406664803,-0.174244671353,0.305033018606,1.0,-0.159865714286,-0.21010922449,3.413
-0.358129009558,-0.514987101335,-0.134469404376,-2.63695494689,-0.0687686172406,2.1138621127,-0.613315882647,-0.707142857325,-0.137286557764,-0.00704683222102,-0.108460566546,-0.0192872493667,-0.0392409823035,-0.676175777557,0.573822208697,0.818948536316,0.00566697215915,0.0,0.818943085151,-0.573736784561,-0.0117928887656,0.0,-0.0064065419545,0.0114081687845,-0.999914401289,0.0,0.328125518809,-0.177227515056,0.305002699971,1.0,-0.158065714286,-0.207743510204,3.427
-0.370459194026,-0.517291343212,-0.134392320339,-2.63876352154,-0.0691154249828,2.11321002883,-0.625335152549,-0.677546841062,-0.120658844064,0.00812343079592,-0.0942074427883,-0.0182409881944,-0.0414517557361,-0.675967087337,0.573771688727,0.818983680561,0.00570325267525,0.0,0.818978186962,-0.573685226276,-0.0118632766889,0.0,-0.00644408227326,0.01147787282,-0.999913362367,0.0,0.325320035287,-0.180904856784,0.304976871246,1.0,-0.155751428571,-0.204701877551,3.445
-0.382175881674,-0.51933567555,-0.13438290657,-2.64034720462,-0.0694819451104,2.11261053534,-0.636606879965,-0.692949611572,-0.115396042194,-0.00229391005656,-0.0905892029008,-0.0107705209976,-0.0403021975914,-0.66264658412,0.573882997664,0.818905553894,0.00572238538829,0.0,0.818899914298,-0.573795738112,-0.0119217527829,0.0,-0.00647943396758,0.0115279740777,-0.999912557551,0.0,0.322643258069,-0.184408050797,0.304958778141,1.0,-0.153565714286,-0.20182922449,3.462
-0.392271690196,-0.52096142076,-0.134293970495,-2.64155656723,-0.0697383668703,2.11214552872,-0.646489294956,-0.659586440166,-0.103502094029,0.00520323870712,-0.0740846687715,-0.0156365556347,-0.023036651951,-0.652398657798,0.573816769779,0.818951799199,0.00574562526634,0.0,0.818946554475,-0.573729599312,-0.0119010372426,0.0,-0.00645006476401,0.0115345968395,-0.999912671057,0.0,0.320220754676,-0.187597345406,0.304967904053,1.0,-0.151508571429,-0.19912555102,3.478
-0.404280300215,-0.522748437859,-0.134196425202,-2.64284906629,-0.0700282227449,2.11162355018,-0.658239051405,-0.673945718206,-0.095338764216,0.00438153050385,-0.0671919264473,-0.015002999677,-0.0296024221421,-0.652117889797,0.573761084249,0.818990584765,0.00577816314504,0.0,0.818986098966,-0.57367440555,-0.0118403132863,0.0,-0.00638244367655,0.0115259681929,-0.999913204468,0.0,0.317681371624,-0.190957544188,0.304995850202,1.0,-0.149322857143,-0.196252897959,3.495
-0.415641175085,-0.524239770563,-0.134162814156,-2.64393363153,-0.0703002053358,2.11116114377,-0.669214334417,-0.652630783339,-0.0767871664347,0.00764534874409,-0.063586319488,-0.00893173709308,-0.022886226862,-0.64163695969,0.573874744316,0.818910706667,0.00581199139816,0.0,0.81890675108,-0.573788081712,-0.0118202039623,0.0,-0.00634496234463,0.0115430177587,-0.999913246334,0.0,0.315128293978,-0.194331012359,0.305011021218,1.0,-0.147137142857,-0.193380244898,3.512
-0.42598794158,-0.525413862083,-0.134039946577,-2.64483122778,-0.070486153805,2.11082076228,-0.679442703811,-0.655039745581,-0.0765563273441,0.00540276375759,-0.054590154093,-0.0163425927674,-0.0184354069693,-0.640105066539,0.573754244588,0.818994986705,0.0058331355404,0.0,0.818991331808,-0.573667574827,-0.0118092724647,0.0,-0.0063255760131,0.0115531300805,-0.999913252374,0.0,0.312826717875,-0.19736783001,0.305007106097,1.0,-0.14508,-0.190676571429,3.528
-0.437747564096,-0.526608551123,-0.13402607368,-2.6457455428,-0.0706900460933,2.11044061521,-0.690797218345,-0.645142283264,-0.0590864506675,0.00142433316147,-0.0439525436327,-0.0111085089688,-0.0199119971609,-0.632431199185,0.573937031454,0.81886638715,0.0059051522262,0.0,0.818863415259,-0.573849591896,-0.011836381728,0.0,-0.00630386731644,0.0116290748074,-0.999912509111,0.0,0.310181815382,-0.200839064177,0.304996537937,1.0,-0.142765714286,-0.187634938776,3.546
-0.448434705573,-0.527535925758,-0.133883939959,-2.64647080693,-0.0708332623868,2.11014303204,-0.701421336963,-0.622748605274,-0.0533743297296,0.00432837197874,-0.0420896879314,-0.0119409820966,-0.0222660879775,-0.622635505882,0.573785840589,0.818972155827,0.00592992579498,0.0,0.818969339555,-0.573698029888,-0.0118548839152,0.0,-0.00630695451958,0.0116588164127,-0.999912143303,0.0,0.307803401414,-0.203951087318,0.304984110572,1.0,-0.14058,-0.184762285714,3.563
-0.457926978513,-0.528242946683,-0.133798781288,-2.64699728062,-0.0709674354783,2.10989970654,-0.710621076513,-0.638226375701,-0.049644393691,0.00407680796666,-0.0318361374436,-0.00265263390106,-0.0278025515163,-0.618506538782,0.573884404494,0.818902887951,0.00595795985896,0.0,0.818900395791,-0.573796391537,-0.0118570541519,0.0,-0.00629124114549,0.0116837790966,-0.999911950919,0.0,0.305548069789,-0.206912334974,0.304982191734,1.0,-0.138522857143,-0.182058612245,3.579
