nelsonifechukwu/NELSON_IML_WORK/CNN-GradCAM/train2dof/data_sample_2022-02-22-07-46-22/robot_state.csv
position_joint1,position_joint2,position_joint3,position_joint4,position_joint5,position_joint6,position_joint7,velocity_joint1,velocity_joint2,velocity_joint3,velocity_joint4,velocity_joint5,velocity_joint6,velocity_joint7,ee_T_00,ee_T_10,ee_T_20,ee_T_30,ee_T_01,ee_T_11,ee_T_21,ee_T_31,ee_T_02,ee_T_12,ee_T_22,ee_T_32,ee_T_03,ee_T_13,ee_T_23,ee_T_33,v_x,v_y,time
0.465088207804,0.547685213126,-0.124034304026,-1.35581672428,0.0795256130651,1.89414027977,0.159133549527,0.00042033282301,0.000246122693486,-0.00117062612889,0.000102872653292,0.000280628680427,0.000139884265407,-0.00213795256069,0.573810848382,0.818973468204,0.00207739215562,0.0,0.818932049448,-0.573751827504,-0.0118273295497,0.0,-0.00849452510108,0.0084880564399,-0.999927895371,0.0,0.661696581111,0.26088366203,0.303295129949,1.0,0.0,0.0,0.0
0.465087971713,0.547677102382,-0.124028549263,-1.35581922895,0.0795245144018,1.89414016203,0.159139714501,0.00102556044673,-0.00105990837191,0.00141421046788,-0.000685297843937,2.77732132093e-05,0.000330727757977,0.0020412725193,0.573811899629,0.818972717111,0.00208311651384,0.0,0.81893135181,-0.573752834859,-0.0118267669097,0.0,-0.00849076889911,0.00849243251521,-0.999927890117,0.0,0.661695000077,0.260886460447,0.303299480741,1.0,-0.00016,-0.000210285714286,0.009
0.465082167944,0.547685980118,-0.124029342455,-1.35582244515,0.0795242465252,1.89413865217,0.15913187808,-0.000982364852257,-0.00096037112829,0.00107834978477,-0.00371832307646,-3.9119720834e-05,-0.000214885423591,-0.00167149057059,0.573810900505,0.818973447418,0.00207118033484,0.0,0.818931926957,-0.573751883495,-0.0118330933261,0.0,-0.00850280932216,0.00848627702703,-0.999927840064,0.0,0.661695436726,0.260881514139,0.303291555323,1.0,-0.0005,-0.000657142857143,0.026
0.465081839414,0.547661119793,-0.124025695543,-1.35583722595,0.0795239232348,1.89414270822,0.159135706812,-0.000997145067922,-0.00200805634667,0.00235437121453,-0.00175647199148,2.04576980065e-05,-0.000677772941289,0.000680350314348,0.573812461481,0.818972319021,0.00208485651565,0.0,0.81893095227,-0.573753365633,-0.0118286829,0.0,-0.00849133390735,0.00849496273699,-0.999927863826,0.0,0.661692782343,0.260882204969,0.303302362484,1.0,-0.00082,-0.00107771428571,0.042
0.465084652203,0.547589177771,-0.124026153076,-1.35590577515,0.079523209261,1.89415888223,0.159136306184,0.000580913118771,-0.00605484277275,0.00487310158017,-0.00418712311408,-0.000470831101883,0.00076937814194,-0.000164831590101,0.57381450587,0.818970836808,0.00210433183679,0.0,0.818929684339,-0.57375529337,-0.0118229581377,0.0,-0.00847544956786,0.00850764848713,-0.999927890736,0.0,0.661681608161,0.260877594964,0.303322117795,1.0,-0.00116,-0.00152457142857,0.059
0.46507980057,0.547444071484,-0.12402648869,-1.35608564538,0.0795221378715,1.894204722,0.159129889387,-0.00150003286086,-0.00582370467059,0.000276767340221,-0.0127776476037,-0.00251753591296,0.00075785628839,-0.000334697814267,0.573823057123,0.81896480356,0.00212050587877,0.0,0.81892374955,-0.573763667058,-0.0118276661811,0.0,-0.00846993615405,0.00852368429918,-0.999927800887,0.0,0.661654750789,0.260857684796,0.303343285745,1.0,-0.00152,-0.00199771428571,0.077
0.465062274784,0.547302872952,-0.124026488687,-1.35628471256,0.0795145129458,1.89427870788,0.159130186363,-0.00267750344434,-0.0130135945447,-0.00236676473982,-0.011726559248,-0.00188145449073,0.00398368506522,0.00197213804484,0.573846763612,0.818948150755,0.00213662549774,0.0,0.818907269614,-0.573787269849,-0.0118236895087,0.0,-0.00845718297417,0.00853484843333,-0.999927813604,0.0,0.661632593816,0.260828103218,0.303354965913,1.0,-0.00184,-0.00241828571429,0.093
0.465041397494,0.547087420165,-0.124026488687,-1.35652296085,0.0795174721835,1.89440553734,0.159113349688,-0.000899597605601,-0.01393236425,0.00101812160549,-0.0131019486492,-8.94160298671e-05,0.00788327205068,1.40485030514e-05,0.573864346027,0.818935568511,0.00223470089551,0.0,0.818895864993,-0.573804368814,-0.0117836976159,0.0,-0.00836796907873,0.00859239667922,-0.99992807132,0.0,0.661614232055,0.26079794621,0.30340519876,1.0,-0.00222,-0.00291771428571,0.112
0.465019790586,0.546885840717,-0.124031869584,-1.35676222113,0.0795110178541,1.89453002822,0.159091274726,-0.00101533778913,-0.0179466688,-0.00043678326572,-0.013297380044,-0.000117319117222,0.00270803145703,-0.00474277690384,0.573879559614,0.818924694648,0.00231137507462,0.0,0.818885995571,-0.573819297693,-0.0117425190235,0.0,-0.00829008679358,0.00863171051227,-0.999928381453,0.0,0.661596746178,0.260762200952,0.30344507228,1.0,-0.00254,-0.00333828571429,0.128
0.464990373589,0.546649425444,-0.124030058988,-1.35710838138,0.0795078968212,1.89466423665,0.159050911558,-0.00254572610928,-0.0146656007365,0.000682793144978,-0.0230954611858,0.000347484348628,0.00791806694665,-0.0100091346025,0.573887899329,0.818918762172,0.00234240626227,0.0,0.818880309684,-0.573827356726,-0.0117452111369,0.0,-0.00827439627963,0.00865875161982,-0.999928277621,0.0,0.661557776753,0.260714408702,0.303459335035,1.0,-0.00288,-0.00378514285714,0.145
0.464963639629,0.546418899667,-0.124032195016,-1.35745350686,0.0794997833394,1.89479072456,0.158947793634,-0.00304617162142,-0.0118402203542,-0.000161162090234,-0.0260645794758,-0.000296713477386,0.0083840137017,-0.00483910998503,0.573843985051,0.818949484878,0.00235986024165,0.0,0.818911150309,-0.573783268601,-0.0117488498906,0.0,-0.00826782542418,0.00867468972071,-0.999928193832,0.0,0.66151781461,0.260664817738,0.303469357027,1.0,-0.00318,-0.00417942857143,0.16
0.464926434221,0.546133035732,-0.124034328956,-1.3579119518,0.0794867202761,1.89494911282,0.158936749457,-0.000277394288365,-0.0170749490755,-0.000616148969777,-0.0308738019914,-0.0018010741733,0.00895781924629,-0.00116066144684,0.573889034613,0.818917931136,0.00235476468006,0.0,0.818879398368,-0.573828193273,-0.0117678559946,0.0,-0.00828583745113,0.0086818789538,-0.999927982345,0.0,0.661462648272,0.26059693643,0.303467374253,1.0,-0.00352,-0.00462628571429,0.177
0.464876678567,0.545800736979,-0.124029692328,-1.35846509485,0.0794592648273,1.89513464286,0.158856418439,-0.0071305107789,-0.0165543112754,0.00110891587155,-0.0320583474884,-0.00673981013118,0.010453348186,-0.00939838498235,0.573884328234,0.818921302653,0.00232911356597,0.0,0.818882328113,-0.573823471452,-0.0117942027017,0.0,-0.00832218403625,0.0086759450727,-0.999927732004,0.0,0.661394859509,0.260513552371,0.303455282222,1.0,-0.00388,-0.00509942857143,0.195
0.464824846165,0.545461710423,-0.12402969287,-1.35906530013,0.0793654190228,1.89532001616,0.158760803033,-0.00261095640203,-0.0227654997667,0.003116848718,-0.0350401351875,-0.00849648305215,0.0133500590151,-0.00119172898105,0.573856942647,0.818940761207,0.00223291523872,0.0,0.818900981974,-0.573796919326,-0.0117908437131,0.0,-0.00837492388385,0.0085949594857,-0.999927991068,0.0,0.66132167088,0.260409848008,0.303425544332,1.0,-0.00422,-0.00554628571429,0.212
0.464764648622,0.545097552221,-0.124037080142,-1.35970833603,0.0793313966763,1.89551782022,0.158715864176,-0.00878010785452,-0.0223560157118,-0.00178814907971,-0.0418771590906,-0.00512755707947,0.0112332436523,-0.00334585530006,0.573901306499,0.818909856617,0.00216426307238,0.0,0.81886911874,-0.573841478268,-0.0118351635161,0.0,-0.00845015082875,0.00856462889495,-0.999927618422,0.0,0.661242236335,0.260302115979,0.303394622045,1.0,-0.00454,-0.00596685714286,0.228
0.464699220631,0.544647448803,-0.124029306537,-1.36046708965,0.0793169152092,1.89577277291,0.158605012584,-0.00558899794262,-0.0258027854865,0.00108408275991,-0.0477801405543,0.000178039395044,0.0184991557383,-0.00708955584518,0.573897073717,0.81891289302,0.00213759817064,0.0,0.818871442032,-0.573836982498,-0.0118922598186,0.0,-0.00851225589588,0.00857551631152,-0.999926998345,0.0,0.661146575638,0.260194148579,0.303373921977,1.0,-0.0049,-0.00644,0.246
0.464634682538,0.544261092201,-0.124035394389,-1.361121779,0.0792892798483,1.89599553426,0.158518717747,-0.00646810673698,-0.0276671965784,0.000452247709809,-0.0475832146822,-0.000335023694065,0.0187047168674,-0.0010731875773,0.573912622215,0.818902084761,0.00210345848051,0.0,0.818860076318,-0.573852554468,-0.0119234241918,0.0,-0.00855720665861,0.00856560673002,-0.999926699611,0.0,0.66107033954,0.260085948924,0.303355236343,1.0,-0.0052,-0.00683428571429,0.261
0.464561810482,0.543756238868,-0.124032915492,-1.36192723896,0.0792541432862,1.89629042497,0.158428404416,-0.00225448257016,-0.0324949099774,0.000119815117878,-0.0504148845439,-0.000937174308726,0.0147085932533,-0.0072312930761,0.573932157901,0.818888386786,0.00210594747887,0.0,0.818846265602,-0.573871932194,-0.0119392483283,0.0,-0.00856853262498,0.00857693091788,-0.999926505552,0.0,0.660977460944,0.259964551554,0.303354565777,1.0,-0.00554,-0.00728114285714,0.278
0.464470303918,0.543196819506,-0.124036084922,-1.36282027451,0.0792049282109,1.89658415667,0.158322052082,-0.00475149136588,-0.034912188374,9.05202743463e-05,-0.0518970569978,-0.00247771533266,0.0222501139042,-0.00395921926374,0.573958624752,0.818869916697,0.00207448850664,0.0,0.818827299097,-0.573898439599,-0.0119658756834,0.0,-0.00860811564008,0.00856673030822,-0.999926253019,0.0,0.66087242263,0.25981553447,0.303350816244,1.0,-0.0059,-0.00775428571429,0.296
0.464397891297,0.542678237218,-0.124038564228,-1.36365571414,0.0791482607139,1.89688413499,0.158207563579,-0.00318414671143,-0.0370510620086,-0.000405229650571,-0.0495765955008,-0.00226039217213,0.0196337995629,-0.00524632600852,0.573957259637,0.818870920875,0.00205571295469,0.0,0.81882810412,-0.573897198232,-0.0119703243816,0.0,-0.00862254865523,0.00855389480929,-0.999926238549,0.0,0.660775986279,0.25968506507,0.303346034406,1.0,-0.00622,-0.00817485714286,0.312
0.464304463072,0.542045190163,-0.12403991995,-1.36463349976,0.0790958716763,1.89724288055,0.158066647112,-0.00844506725915,-0.0372026469118,0.00161672290342,-0.0554909554142,-0.000818106973492,0.0215938189167,-0.00546501463933,0.573959681523,0.818869184632,0.00207107402556,0.0,0.81882650193,-0.573899489973,-0.0119700479217,0.0,-0.00861348089092,0.00856634012116,-0.999926210159,0.0,0.660666302804,0.259530657293,0.303359458327,1.0,-0.00658,-0.008648,0.33
0.46421852021,0.541423811046,-0.124050677338,-1.36558777998,0.0790348065054,1.89758710804,0.157960894779,-0.00436671800836,-0.0398207329566,-0.000279755944112,-0.0547226377297,-0.00117134545617,0.0191520815927,-8.58781068977e-05,0.573987620871,0.818849587631,0.00207625254697,0.0,0.818807040074,-0.573927471594,-0.0119597397875,0.0,-0.00860177522931,0.00856495769127,-0.999926322767,0.0,0.660559364905,0.259376003954,0.303374762039,1.0,-0.00692,-0.00909485714286,0.347
0.464134778992,0.540784082092,-0.124050549519,-1.36655861126,0.0789772272762,1.89794535418,0.157827718092,-0.00326554851866,-0.0385083765546,-6.07102994395e-05,-0.0621948821479,-0.00731990962118,0.0272572558855,-0.00861913093457,0.5739854964,0.818851015647,0.00210023742352,0.0,0.81880876224,-0.573925229699,-0.0119494140395,0.0,-0.0085795757603,0.00857864831985,-0.999926396128,0.0,0.660448466105,0.259228915526,0.303395936668,1.0,-0.00724,-0.00951542857143,0.363
0.464043823398,0.540106144462,-0.124052055669,-1.36758556428,0.0789226389351,1.89831274609,0.157711467724,-0.0108583076118,-0.0479151297583,0.00140093281641,-0.0656736296014,-0.00285769564327,0.0185862910706,0.000636755272637,0.574008045729,0.818835157632,0.00212013328721,0.0,0.81879308131,-0.573947611874,-0.0119488796301,0.0,-0.00856748224897,0.00859486899001,-0.999926360526,0.0,0.660329338244,0.259071068319,0.303418163345,1.0,-0.00756,-0.009936,0.379
0.463958954184,0.539405900919,-0.124062939539,-1.36866459446,0.0788526875382,1.89872541421,0.157571196352,-0.00906239649147,-0.0448546955693,-0.00070325180728,-0.067343488328,-0.00529929352244,0.023774794654,-0.0127743587271,0.574011416068,0.818832735511,0.00214298397482,0.0,0.818791064046,-0.573950995924,-0.0119245384855,0.0,-0.00853439899479,0.00859964292074,-0.999926602394,0.0,0.660209029989,0.258906506624,0.303435475908,1.0,-0.00788,-0.0103565714286,0.395
0.463851760305,0.538608372322,-0.124063087819,-1.36989331288,0.0787875672022,1.89920125302,0.157432013869,-0.00740545927738,-0.0427980315147,0.00083955829147,-0.0687498817178,-0.00249361316506,0.0238733235295,-0.000284261394195,0.574035965224,0.818815415446,0.00218471024333,0.0,0.8187742287,-0.5739753134,-0.0119100346213,0.0,-0.00849831381869,0.0086257387363,-0.999926684959,0.0,0.660072090358,0.258722014182,0.303455297756,1.0,-0.00824,-0.0108297142857,0.413
0.463739625473,0.53777448011,-0.124067404958,-1.37119483927,0.0787205967435,1.89970699127,0.157262192113,-0.00768232113789,-0.0480194664329,0.00110263815257,-0.0749278232715,-0.0072370511821,0.0267054714136,-0.000556000621215,0.57404586376,0.818808378075,0.00222107954937,0.0,0.818767604048,-0.573985002538,-0.0118985009163,0.0,-0.00846788891915,0.00864899973705,-0.999926742147,0.0,0.659927275838,0.25852541598,0.303468737215,1.0,-0.0086,-0.0113028571429,0.431
0.463646132731,0.537050914783,-0.124072734737,-1.37231715657,0.0786444313778,1.90010797455,0.157123440518,-0.00598649224949,-0.0497768500374,-0.000270028255132,-0.0798394356793,-0.00165909659564,0.03105950106,-0.0104804057426,0.574053899442,0.818802754531,0.00221734264731,0.0,0.818762001524,-0.573993123307,-0.0118922730363,0.0,-0.00846484946274,0.00864244800757,-0.999926824531,0.0,0.659795829662,0.258351790302,0.303480338274,1.0,-0.0089,-0.0116971428571,0.446
0.46353074486,0.536155630063,-0.124075971958,-1.37372672694,0.0785677293516,1.90064059702,0.15694471512,-0.00730334800889,-0.0522247440053,9.66158642477e-05,-0.0748367233579,-0.00989637808931,0.0265210330154,-0.0165334237279,0.574061452664,0.818797409213,0.00223565032969,0.0,0.81875683487,-0.574000541492,-0.0118899377906,0.0,-0.0084523484927,0.00865617560616,-0.999926811536,0.0,0.659633498608,0.258141932967,0.303487679701,1.0,-0.00926,-0.0121702857143,0.464
0.463416389091,0.535279130105,-0.124076251097,-1.37512986259,0.0784910134675,1.90114106048,0.156783629533,-0.00748027617108,-0.0477060581022,-0.000900219993687,-0.0907452027818,-0.00250690726761,0.0366530704566,-0.00853654096555,0.574079855,0.818784557032,0.00221723955587,0.0,0.818743627582,-0.574018897293,-0.0119132173045,0.0,-0.0084817842492,0.00865465544886,-0.999926575442,0.0,0.659464457036,0.257932830773,0.303481764623,1.0,-0.0096,-0.0126171428571,0.481
0.463300944394,0.53445108666,-0.12407622269,-1.37648052751,0.0784184139693,1.90162596766,0.156622186474,-0.00271123687093,-0.0478508045232,-0.000134225124045,-0.0873600710172,-0.00212239939121,0.0329788401633,-0.0113146670667,0.574096789942,0.818772758662,0.00218914449901,0.0,0.818731339625,-0.574035818094,-0.0119423600231,0.0,-0.00852159577479,0.00864855827347,-0.999926289706,0.0,0.659302876385,0.257728408581,0.303465123286,1.0,-0.00992,-0.0130377142857,0.497
0.463159791051,0.533466955461,-0.124076960931,-1.3780455108,0.0783229595126,1.90219313083,0.156427257962,-0.00927238746973,-0.0569248940809,0.000658864672188,-0.0872628400273,-0.00483822070911,0.0367577370239,-0.0118689165233,0.57411332239,0.818761200679,0.00217628547049,0.0,0.818719587079,-0.574052373612,-0.0119522794826,0.0,-0.00853692522229,0.00864389684745,-0.999926199254,0.0,0.65911967694,0.257485112691,0.303463522859,1.0,-0.01028,-0.0135108571429,0.515
0.463035489,0.532589756245,-0.124077621985,-1.37947907179,0.0782571329077,1.90274790131,0.156241581587,-0.00664073860166,-0.0590603834621,0.000900375512497,-0.0876079184453,-0.00251017705031,0.037206844464,-0.00758724220312,0.574124540751,0.818753314563,0.00218368956003,0.0,0.818711624846,-0.574063385328,-0.0119687873151,0.0,-0.00854607260256,0.0086595532717,-0.999925985651,0.0,0.658955398384,0.257271112462,0.303447858594,1.0,-0.0106,-0.0139314285714,0.531
0.462897075001,0.531615741892,-0.124077622058,-1.38104263632,0.0781558954753,1.90331632602,0.156051356097,-0.00815299945502,-0.0561198543888,-0.00292023369546,-0.0942369927494,-0.0106148826911,0.0294399145263,-0.00228861848983,0.574140209732,0.818742386891,0.00216110584836,0.0,0.818700423828,-0.574079166753,-0.0119780309599,0.0,-0.00856644074416,0.00864653395403,-0.999925924028,0.0,0.658771135098,0.257029292647,0.30343947634,1.0,-0.01094,-0.0143782857143,0.548
0.462778053764,0.530731865071,-0.124082268297,-1.38248268083,0.078063137831,1.90382147698,0.155865119644,-0.00711856089571,-0.0639036865134,-1.50729361145e-05,-0.0990004657126,-0.00742277700348,0.0374141650853,-0.0128693795205,0.574141823801,0.818741380161,0.00211316738415,0.0,0.818698797519,-0.574080985682,-0.0120019881768,0.0,-0.00861356098746,0.00862105695947,-0.999925739215,0.0,0.658595889209,0.256808138422,0.303420839953,1.0,-0.01124,-0.0147725714286,0.563
0.462632895923,0.52970974175,-0.124083323957,-1.38411961847,0.0779701044468,1.90442565639,0.155643054061,-0.0122142769046,-0.0622265100081,-0.000360652419791,-0.0982381378151,-0.00464148632159,0.035903347368,-0.0131405223471,0.574143640846,0.818740123857,0.00210622015095,0.0,0.818697371637,-0.574082752695,-0.0120147256996,0.0,-0.00862795946028,0.0086227012723,-0.999925600902,0.0,0.658403573748,0.256556980256,0.303414176403,1.0,-0.01158,-0.0152194285714,0.58
0.462485865278,0.528552851609,-0.124094323073,-1.38590965932,0.0778521037858,1.90509789589,0.155397186714,-0.0151491201315,-0.0750948776715,-0.00224847165795,-0.102016678012,-0.00682051788583,0.0367707842384,-0.014489597051,0.574135863535,0.818745513253,0.00213111058925,0.0,0.818703218352,-0.574075005154,-0.011986476492,0.0,-0.00859062192116,0.00862677922182,-0.999925887201,0.0,0.658196216262,0.256283022597,0.303435466031,1.0,-0.01194,-0.0156925714286,0.598
0.462342766154,0.527448715721,-0.124097139165,-1.38762903778,0.0777447607552,1.90576156952,0.15515714964,-0.0102763422523,-0.0645530736322,-0.00162066043756,-0.0989507912308,-0.00997787169728,0.0400404424555,-0.0146827691175,0.574122837682,0.818754548986,0.00216856357957,0.0,0.818712801432,-0.574061885662,-0.0119602300325,0.0,-0.0085477676194,0.00864223835879,-0.999926120963,0.0,0.657998306219,0.256025263643,0.303451969924,1.0,-0.01228,-0.0161394285714,0.615
0.462208753765,0.526360662315,-0.124098202208,-1.38931679316,0.0776423647155,1.90639546602,0.154921076165,-0.00837036073928,-0.0694333949731,-6.29284324764e-05,-0.10529919381,-0.00254633407167,0.0433782788093,-0.00829324587335,0.574111487598,0.81876241848,0.00220199785578,0.0,0.818721098478,-0.574050392005,-0.0119439209076,0.0,-0.00851533978277,0.00866013103768,-0.999926242839,0.0,0.657786761635,0.25575905226,0.303471791746,1.0,-0.01262,-0.0165862857143,0.632
0.46203316443,0.525044316808,-0.124096772047,-1.39136061617,0.0775044655103,1.90712770343,0.154655163869,-0.0076543202699,-0.0718913082922,0.000775707271338,-0.109576829027,-0.00418935016142,0.0380051167626,-0.00950293786275,0.574101434645,0.818769487958,0.00219436314208,0.0,0.818728128115,-0.574040432018,-0.0119407513846,0.0,-0.00851723371406,0.00865195590532,-0.999926297478,0.0,0.657551064909,0.255464304045,0.303485850738,1.0,-0.01298,-0.0170594285714,0.65
0.461910464165,0.524068314494,-0.124107524998,-1.39290654372,0.0774179077223,1.9076779645,0.154433281802,-0.00621736956364,-0.0724305107127,-0.000475733039409,-0.113702070943,-0.00793228491456,0.0339373534642,-0.0145633849334,0.574087547886,0.818779264547,0.00217949788149,0.0,0.818737638774,-0.574026534478,-0.0119567333328,0.0,-0.00853900011101,0.00864881518544,-0.999926139009,0.0,0.657361752721,0.255230028018,0.303484403092,1.0,-0.01326,-0.0174274285714,0.664
0.461761084987,0.522935372391,-0.124105352017,-1.39472487103,0.0773013572137,1.9083631625,0.154195673249,-0.0116414687329,-0.0743140758609,0.00128969466457,-0.116630681054,-0.00666154761103,0.0519847962753,-0.019276238105,0.574080005422,0.818784565881,0.00217461508984,0.0,0.818742905931,-0.57401904281,-0.0119557258509,0.0,-0.00854105777007,0.00864416026609,-0.999926161687,0.0,0.6571444722,0.254959795091,0.303474666505,1.0,-0.01358,-0.017848,0.68
0.461575880734,0.521556786067,-0.124106441695,-1.39690750559,0.0771639960376,1.90922178974,0.153904775572,-0.00987932390989,-0.0734683754215,0.000361448113506,-0.110386991773,-0.00917658959249,0.045025796821,-0.0158421304355,0.574074336521,0.818788432383,0.00221495935211,0.0,0.81874738533,-0.574013299041,-0.0119246987146,0.0,-0.00849255275019,0.00865932239975,-0.999926443636,0.0,0.656892827294,0.254632516663,0.303478953455,1.0,-0.01396,-0.0183474285714,0.699
0.461420118749,0.520353847019,-0.124114556778,-1.39882265512,0.077043268379,1.90992449992,0.153639903013,-0.0139121955746,-0.0782156982656,0.000347787813574,-0.114123761372,-0.00847281193978,0.0378348645838,-0.0119096045167,0.574060362162,0.818798265209,0.00220190524932,0.0,0.818757081164,-0.573999412916,-0.0119274019625,0.0,-0.00850240741264,0.00865004074528,-0.999926440226,0.0,0.65666094959,0.254342133356,0.303473490896,1.0,-0.01428,-0.018768,0.715
0.461242737934,0.518961229458,-0.124122732823,-1.40100549539,0.076906268516,1.91071468234,0.153346222649,-0.0147940743111,-0.0737615356589,-0.00106148292495,-0.123381011454,-0.00744072811248,0.0415510236082,-0.0169562848676,0.574050003075,0.818805538833,0.00219782787719,0.0,0.81876431671,-0.573989086945,-0.011927642315,0.0,-0.00850505412493,0.00864673262413,-0.99992644633,0.0,0.656393990417,0.254011598397,0.303480995472,1.0,-0.01464,-0.0192411428571,0.733
0.461066709476,0.517603834438,-0.124126967815,-1.40312972377,0.0767702310416,1.91146158241,0.153055776909,-0.00712664140508,-0.0780764996899,-0.00410061960219,-0.12571241184,-0.00198716080694,0.04336693073,-0.0171313651675,0.57403501999,0.8188160974,0.00217746743385,0.0,0.818774596619,-0.573974174911,-0.0119395715109,0.0,-0.00852666744024,0.00863675347502,-0.999926348504,0.0,0.656129219643,0.253688044266,0.303487356836,1.0,-0.01498,-0.019688,0.75
0.460889401646,0.516341853713,-0.12412760791,-1.40513743768,0.0766419997813,1.91220759778,0.152780491542,-0.0112780867069,-0.0808593830464,-0.000446726330628,-0.129667644297,0.000258198190075,0.0567231901363,-0.0207155217104,0.574026896019,0.818821804047,0.00217319231953,0.0,0.818780270368,-0.573966092489,-0.011939029683,0.0,-0.00852876332485,0.00863285735461,-0.999926364274,0.0,0.655887703654,0.253379538568,0.303481685974,1.0,-0.0153,-0.0201085714286,0.766
0.460685374552,0.514895172064,-0.124131280543,-1.4074499592,0.0765034583234,1.91308619752,0.15246434856,-0.0149458621232,-0.0763300998997,0.000708125136299,-0.124538616877,-0.00854031903307,0.0463006568829,-0.00819976013464,0.574022567587,0.818824814426,0.00218221964303,0.0,0.818783383249,-0.573961712505,-0.0119361130259,0.0,-0.00852123907025,0.00863852974689,-0.999926379434,0.0,0.655612452116,0.253025345278,0.303471678075,1.0,-0.01566,-0.0205817142857,0.784
0.460504493731,0.513562644843,-0.124133763693,-1.40959232764,0.0763762596052,1.91382049327,0.152163666508,-0.00931780008762,-0.0798741015144,-0.000344284609177,-0.133596225505,-0.0160294285729,0.048454419985,-0.0223259700617,0.574004301763,0.818837780938,0.0021206053321,0.0,0.81879539306,-0.573943547857,-0.0119856196435,0.0,-0.00859733596949,0.00861630500164,-0.999925919807,0.0,0.655338156393,0.252697915338,0.303449648238,1.0,-0.01598,-0.0210022857143,0.8
0.460320267726,0.512244023896,-0.124136725063,-1.41173134695,0.0762453453336,1.91458602447,0.151869448385,-0.0124236362862,-0.0846530043624,8.25564862281e-05,-0.135988241846,-0.00403096171368,0.051878150031,-0.0149711197645,0.573982907268,0.818852900812,0.00207265466815,0.0,0.818809802779,-0.573922272835,-0.0120199217126,0.0,-0.00865317168434,0.00859650507917,-0.999925608593,0.0,0.655085428314,0.252395787251,0.303422423288,1.0,-0.01628,-0.0213965714286,0.815
0.460133187481,0.510791443435,-0.124140955904,-1.41404402203,0.076102332203,1.91546194456,0.151544693831,-0.0105903781749,-0.0866317144331,-0.00108671979171,-0.142436097182,-0.0104553404894,0.0467547884425,-0.0266080808155,0.573962134569,0.818867438035,0.00208180391856,0.0,0.818824475436,-0.573901480075,-0.0120131801071,0.0,-0.00864261806406,0.0085999080737,-0.999925670605,0.0,0.654772056921,0.252002296595,0.303413001509,1.0,-0.01666,-0.021896,0.834
0.45995047656,0.509474301146,-0.124143362994,-1.41613618356,0.0759764524439,1.9162427531,0.151247190625,-0.0109042391217,-0.087172454831,-0.0016017836246,-0.141227471599,-0.0132715222325,0.048788597893,-0.0205919089464,0.573955118228,0.818872367622,0.00207718700352,0.0,0.818829319054,-0.573894458522,-0.012018470618,0.0,-0.00864967391253,0.00859908990323,-0.999925616631,0.0,0.654515071484,0.251683621266,0.303402966376,1.0,-0.01696,-0.0222902857143,0.849
0.459729716155,0.507884915714,-0.12414933457,-1.41863902975,0.0758077672524,1.91713721836,0.150902650777,-0.0123278255802,-0.089762531528,-0.000919252697702,-0.136454813303,-0.0131215953507,0.0481959861404,-0.0205386909562,0.573935806739,0.818885943317,0.00206118445885,0.0,0.818842757863,-0.573875288571,-0.0120182346369,0.0,-0.00865886729153,0.00858564645895,-0.999925652582,0.0,0.654221252688,0.251315871997,0.303406534849,1.0,-0.0173,-0.0227371428571,0.866
0.459522454595,0.506432684005,-0.124152529278,-1.42092028152,0.075667443504,1.91797918429,0.150581330741,-0.0137403148471,-0.0948280831362,-0.000822900035857,-0.147639554089,-0.00785454235572,0.0507953044531,-0.0212864831961,0.573924930239,0.818893542055,0.00207078068343,0.0,0.818850454864,-0.573864346101,-0.0120163116206,0.0,-0.00865189935851,0.00859228594129,-0.999925655866,0.0,0.653941692859,0.250961330701,0.303409289945,1.0,-0.01762,-0.0231577142857,0.882
0.459324728419,0.505024164259,-0.124153621937,-1.42308096278,0.0755326762582,1.91881333545,0.150296990717,-0.0114223259176,-0.0867436383841,0.00119244353747,-0.142951452479,-0.00719294496624,0.0495043973829,-0.0161569206829,0.573930096305,0.818889749591,0.00213763226935,0.0,0.818847581533,-0.573869278818,-0.0119764747105,0.0,-0.00858085609596,0.00862422034094,-0.999925993128,0.0,0.653684309609,0.250628376769,0.303437611053,1.0,-0.01792,-0.023552,0.897
0.459045722565,0.502937716432,-0.124162260046,-1.42616131043,0.0753344530075,1.91998420595,0.149863632366,-0.0136962765432,-0.106052186173,0.000565467332001,-0.145931737801,-0.0132187018318,0.0582820017425,-0.0208266702237,0.573914636923,0.818900193681,0.00228237089728,0.0,0.818860051489,-0.573853377696,-0.0118854484134,0.0,-0.00842341193592,0.00869034247731,-0.999926759357,0.0,0.65331557236,0.250150409944,0.303530434261,1.0,-0.01834,-0.024104,0.918
0.458838105881,0.501453281526,-0.124165728515,-1.42839530192,0.0751933006235,1.92078295294,0.149547640877,-0.0166327688851,-0.101020192776,0.00124478643034,-0.154714378664,-0.0112329341512,0.0529911779813,-0.0227893542297,0.573904356635,0.818907282085,0.00232372208253,0.0,0.818867658686,-0.573842915789,-0.0118664425049,0.0,-0.00838422614671,0.00871319166841,-0.999926889849,0.0,0.653036804588,0.249798756362,0.3035726502,1.0,-0.01864,-0.0244982857143,0.933
0.45858869173,0.499631044036,-0.124168925954,-1.43113423847,0.075017202882,1.92175988684,0.149169950379,-0.0177037048947,-0.104238433903,-0.000789592968719,-0.148384880226,-0.00742915410439,0.0659089212147,-0.0171243207835,0.573893363039,0.81891484502,0.00237305004965,0.0,0.818875857291,-0.5738317254,-0.0118417976889,0.0,-0.00833585300568,0.00873933075308,-0.999927066167,0.0,0.652692066641,0.249371095255,0.303625053567,1.0,-0.019,-0.0249714285714,0.951
0.458336587526,0.497975068779,-0.124171736334,-1.43376758917,0.0748568218018,1.9227501705,0.148789199414,-0.0166005530992,-0.104691345809,-0.00112642556035,-0.156686010312,-0.00171463589036,0.0623958708931,-0.0223470982469,0.573880832486,0.818923598572,0.00238258436163,0.0,0.818884700551,-0.573819123646,-0.011840922393,0.0,-0.00832979868052,0.00874650867921,-0.999927053859,0.0,0.652369599768,0.248955705799,0.303612404112,1.0,-0.01934,-0.0254182857143,0.968
0.458111764509,0.496499748983,-0.124164001945,-1.43612492227,0.0747148712196,1.92358331275,0.148433110201,-0.0122743257421,-0.0972930078717,0.00158276252042,-0.15583616622,-0.00841746885933,0.0543014153605,-0.0256086319709,0.573848748734,0.818946188091,0.00234552523806,0.0,0.818906629545,-0.573787001609,-0.0118808995339,0.0,-0.00838414691164,0.00873877374704,-0.999926667268,0.0,0.652066429923,0.248587171461,0.30359067817,1.0,-0.01964,-0.0258125714286,0.983
0.457795004581,0.494535116912,-0.124174560059,-1.43934811325,0.0745116781108,1.92469238243,0.147979403477,-0.0141249208609,-0.0977693491424,-0.000605691180417,-0.158433459925,-0.0144488672768,0.0519237500691,-0.0179215982674,0.573851538498,0.818944598181,0.00221444694793,0.0,0.818903200396,-0.573790180782,-0.0119634326469,0.0,-0.00852692479703,0.00867881901707,-0.999925982088,0.0,0.651650464836,0.2480608583,0.303521701943,1.0,-0.0209411428571,-0.027522644898,1.003
0.457521929274,0.49260265536,-0.124227910833,-1.4423193607,0.0743354015699,1.92577751593,0.147555247258,-0.014374302367,-0.137307648059,-0.00377543802423,-0.204974707651,-0.0187948708822,0.072517113554,-0.029190461206,0.573867926424,0.818933026221,0.00224688418256,0.0,0.818892158846,-0.573806544669,-0.011934336086,0.0,-0.00848430846697,0.00868885582922,-0.999926257428,0.0,0.651285684457,0.247570077839,0.303548384177,1.0,-0.0286302857143,-0.0376283755102,1.019
0.457217193347,0.490322959884,-0.124262057617,-1.44593358571,0.0741425767407,1.92714983469,0.147007644795,-0.0236020254532,-0.159560593322,-0.000953722847974,-0.26191553344,-0.0134254836764,0.0921595424715,-0.0452867193993,0.573823285285,0.818964199126,0.00228576380861,0.0,0.818923692412,-0.573761602665,-0.0119313123466,0.0,-0.0084599970355,0.00871849884476,-0.999926205391,0.0,0.65083368986,0.247015097891,0.303534133839,1.0,-0.0358388571429,-0.0471024979592,1.034
0.456689314055,0.486826989119,-0.124286403394,-1.45148095635,0.0738212271428,1.9291963872,0.146195284962,-0.0291297487579,-0.208935451261,-0.00469989325205,-0.32378640639,-0.0235844422546,0.123981322778,-0.0474188450262,0.573797322881,0.818982385869,0.0022870927746,0.0,0.818941670376,-0.573735405273,-0.0119570965925,0.0,-0.00848062867385,0.0087341137501,-0.999925894351,0.0,0.650133378245,0.246133041419,0.303501710413,1.0,-0.0444891428571,-0.058471444898,1.052
0.45607468368,0.482791902735,-0.124393847064,-1.45777861998,0.0734384976955,1.9314950052,0.145228742271,-0.0353782364483,-0.249897057456,-0.00360457271605,-0.395114556308,-0.0321377059705,0.145605492331,-0.0582019842612,0.573793831879,0.818984795319,0.00230009455884,0.0,0.818944470487,-0.573732090556,-0.0119243207571,0.0,-0.00844636195352,0.00872591942134,-0.999926255931,0.0,0.649351148907,0.245071971783,0.303507557657,1.0,-0.0526588571429,-0.0692087836735,1.069
0.455365268946,0.47835903344,-0.12450072224,-1.46477623072,0.0730286953725,1.93393170017,0.144177411334,-0.0494878659376,-0.286868239807,-0.00458252739283,-0.45377649416,-0.0248518659713,0.156767332685,-0.0730619380456,0.573821936937,0.818965410518,0.00218814233838,0.0,0.818923457777,-0.573760476318,-0.0120013756977,0.0,-0.00857340704933,0.00867874083124,-0.999925585306,0.0,0.648451730203,0.24387817472,0.303464089069,1.0,-0.060348,-0.0793145142857,1.085
0.454441786391,0.472633451837,-0.124600843636,-1.47362188888,0.0724980467843,1.93713553081,0.142910141512,-0.0552358506861,-0.32899411145,-0.00433263457517,-0.510517759924,-0.0258232298045,0.183258489647,-0.0717380284471,0.573896690182,0.818912849743,0.00225397973688,0.0,0.818871712532,-0.573834904882,-0.0119736065847,0.0,-0.00851209192624,0.00871750127459,-0.999925771976,0.0,0.647329735464,0.24238154929,0.303496202853,1.0,-0.0689982857143,-0.0906834612245,1.103
0.453442334991,0.466517153208,-0.124653929195,-1.48285722869,0.0719342976987,1.94059639831,0.14142394595,-0.0592718647818,-0.376921981045,-0.00268087187019,-0.563614489381,-0.0300936314118,0.214441029337,-0.0907975402921,0.573824369161,0.818962672587,0.0025458135327,0.0,0.818925350953,-0.573761464124,-0.0118236522879,0.0,-0.00822259848806,0.00886970182527,-0.999926855957,0.0,0.646168066131,0.24083619252,0.303625077044,1.0,-0.077168,-0.1014208,1.12
0.452429372952,0.460646577393,-0.124695123172,-1.49199838475,0.0713327813086,1.94376461337,0.140013389071,-0.0675148033098,-0.393358691797,-0.00401825758545,-0.621208718323,-0.0441846137818,0.208987180307,-0.0893897990668,0.573792935874,0.818984996235,0.0024473626136,0.0,0.818946223581,-0.573730230332,-0.0118933841815,0.0,-0.00833653778732,0.00882876817829,-0.999926274777,0.0,0.644952233243,0.239274440651,0.303595590458,1.0,-0.0843765714286,-0.110894922449,1.135
0.451157475591,0.453349997756,-0.124817734088,-1.50328018399,0.070591907256,1.94760345882,0.138271430291,-0.0743226231528,-0.452386195977,-0.0103465161386,-0.676652819016,-0.0437541988385,0.24019384121,-0.108491252599,0.573815155293,0.818969851628,0.00230143050919,0.0,0.818929107538,-0.573752955032,-0.0119754048286,0.0,-0.00848720636528,0.00875654580503,-0.999925642352,0.0,0.643439019422,0.237290356319,0.303578941346,1.0,-0.0925462857143,-0.121632261224,1.152
0.449672838624,0.444837875557,-0.124907811654,-1.51590504531,0.0697352944885,1.95230991537,0.136316516863,-0.0878226787129,-0.478768403973,-0.00179273222655,-0.72155485628,-0.0444441473614,0.259070880065,-0.103674233595,0.573833492053,0.818955566223,0.00276601725607,0.0,0.818921582636,-0.573770319855,-0.0116536881816,0.0,-0.00795694739355,0.0089526001788,-0.999928266396,0.0,0.641815876912,0.23508945102,0.303815545197,1.0,-0.101196571429,-0.133001208163,1.17
0.448306467053,0.437402519674,-0.124937687363,-1.52739737615,0.0689676328681,1.95622275501,0.134480029617,-0.096096425786,-0.508712548885,-0.001045403944,-0.761589457826,-0.0525949937038,0.267264062734,-0.125112823789,0.573768895562,0.81900123985,0.00264017273005,0.0,0.818965184252,-0.573705690761,-0.0117709078977,0.0,-0.00812586249058,0.00891616203429,-0.999927233559,0.0,0.640222195515,0.233086085819,0.303769600306,1.0,-0.108405142857,-0.142475330612,1.185
0.446521285096,0.427744449142,-0.125006873015,-1.54188539838,0.0679656567153,1.96139002959,0.132097767771,-0.103127088687,-0.537986312146,-0.00256713499634,-0.832599169185,-0.0568034523336,0.279328332283,-0.135649958362,0.573682957252,0.819060579859,0.00289447406236,0.0,0.819028113038,-0.573619201092,-0.0116064246682,0.0,-0.00784619008309,0.00902923749713,-0.999928452526,0.0,0.638257178531,0.230521695344,0.303906243855,1.0,-0.117055428571,-0.153844277551,1.203
0.444624836285,0.41815627385,-0.125085871484,-1.55652118542,0.0669330700398,1.96634137334,0.129684923852,-0.120452231446,-0.578652405265,-0.0067218616693,-0.880177951509,-0.0657120621051,0.297049528633,-0.135786247686,0.573649910412,0.819084115468,0.002781901142,0.0,0.81905008864,-0.573586426348,-0.0116752177886,0.0,-0.00796747809939,0.0089761768346,-0.999927971177,0.0,0.636199624866,0.227852627872,0.303884885446,1.0,-0.125225142857,-0.164581616327,1.22
0.442707301071,0.408578435361,-0.125180800494,-1.57092464853,0.0659186350293,1.97140619383,0.127284713707,-0.122445703711,-0.599329283023,-0.00440675828007,-0.925186782663,-0.0558256382702,0.312017925188,-0.147206240069,0.573640413001,0.819090176625,0.0029505981349,0.0,0.819058567765,-0.573576629636,-0.0115611161407,0.0,-0.00777735226619,0.00904881033777,-0.999928813378,0.0,0.63406112515,0.225037695128,0.303954540746,1.0,-0.133394857143,-0.175318955102,1.237
0.440575409152,0.398495458151,-0.125278005778,-1.58610632947,0.0648956323066,1.97652306164,0.124735431308,-0.140070013905,-0.65005995812,-0.0141875398878,-0.946269003532,-0.0646301479152,0.33255898373,-0.157692171656,0.573691555702,0.819054290707,0.00296895460388,0.0,0.819022394795,-0.573627094642,-0.0116198114856,0.0,-0.00781433410107,0.0090980032026,-0.999928078674,0.0,0.632017351893,0.222351353084,0.303975446039,1.0,-0.140603428571,-0.184793077551,1.252
0.438144689387,0.387372785111,-0.125414029735,-1.60291037214,0.0636231302547,1.98223542873,0.121850567837,-0.146091806709,-0.66374358405,-0.00590143375271,-1.01921705983,-0.0799214518849,0.340523309004,-0.175748121948,0.573714092131,0.819038682239,0.00291965548042,0.0,0.819006690167,-0.573650420294,-0.011575131078,0.0,-0.00780576879667,0.00903220708715,-0.999928742065,0.0,0.629595365054,0.219124488208,0.303949309929,1.0,-0.148773142857,-0.195530416327,1.269
0.435366189957,0.3749364464,-0.125539337378,-1.62137086714,0.0622510858891,1.9883630563,0.118512760331,-0.158003614178,-0.700333994148,-0.00421194136008,-1.04318017027,-0.0731202177893,0.349942961009,-0.192244798677,0.573652455816,0.819081689767,0.00296518562229,0.0,0.819050318602,-0.573588680705,-0.0115476346554,0.0,-0.00775780855909,0.0090531395086,-0.99992892601,0.0,0.626868013207,0.215540817195,0.30401502082,1.0,-0.157423428571,-0.206899363265,1.287
0.432463897704,0.36275439943,-0.125698037643,-1.63941276537,0.0608704761837,1.9943670791,0.11532811301,-0.173714580449,-0.740595926578,-0.0113218445312,-1.06932232857,-0.0852021783912,0.363361311692,-0.196110849103,0.573796779461,0.818980381082,0.00302294297543,0.0,0.818950140864,-0.573733254622,-0.0114702319518,0.0,-0.0076596794957,0.0090573961121,-0.999929643968,0.0,0.62419457547,0.211914381328,0.304061979992,1.0,-0.165593142857,-0.217636702041,1.304
0.429534709531,0.350926725664,-0.125834612863,-1.65713761618,0.0595336925088,2.00006717545,0.112028006647,-0.184357767632,-0.741583439636,-0.010423780673,-1.13049956601,-0.0746748653971,0.351670857091,-0.204700229954,0.573827744434,0.818959385828,0.00282683267647,0.0,0.81892621098,-0.573764388914,-0.0116204081165,0.0,-0.00789485837151,0.00898325290719,-0.999928483632,0.0,0.621476564417,0.208324084632,0.303962332132,1.0,-0.173282285714,-0.227742432653,1.32
0.426010534268,0.336970192912,-0.125991300496,-1.67740966564,0.0579792816756,2.00670178771,0.108156340619,-0.196655412052,-0.766404825088,-0.00832039717233,-1.13771564087,-0.0928812439239,0.363554425285,-0.222906588818,0.573886224753,0.818917574018,0.00305857893639,0.0,0.818887440015,-0.573822157662,-0.0114995158,0.0,-0.00766222273822,0.00910422086873,-0.999929199246,0.0,0.618367560437,0.204143786974,0.304092741658,1.0,-0.181932571429,-0.239111379592,1.338
0.422744588749,0.324237638763,-0.12606216212,-1.69602181227,0.0564321441337,2.01267870551,0.10450734945,-0.202512299141,-0.797896738619,0.00232736012974,-1.17940119035,-0.105497731406,0.377621528635,-0.23303654304,0.573758616038,0.819006959194,0.00306565067695,0.0,0.818977259159,-0.573694951325,-0.0114498342955,0.0,-0.00761889234103,0.00908031409239,-0.99992974772,0.0,0.615416710847,0.200331140432,0.304104073415,1.0,-0.189621714286,-0.249217110204,1.354
0.419229968828,0.311122879745,-0.12612322529,-1.71511137129,0.0548893432831,2.0186259911,0.100716840834,-0.226252365296,-0.816609914791,-0.00475421282776,-1.18801122633,-0.0980094176171,0.379006863263,-0.24570141545,0.573698311407,0.819049395082,0.00301376933627,0.0,0.819018586495,-0.573634297409,-0.0115323333461,0.0,-0.00771689776945,0.00908458817555,-0.99992895735,0.0,0.612315901046,0.19635054926,0.304091554198,1.0,-0.197310857143,-0.259322840816,1.37
0.415003535252,0.29589838928,-0.126252773067,-1.73719019563,0.0529918078225,2.0254052384,0.0961918933632,-0.242330921506,-0.847612640962,-0.00364589496152,-1.23548846217,-0.100611345245,0.36697429831,-0.24691040057,0.573611113345,0.819111001557,0.00286438051196,0.0,0.819078433926,-0.573547798171,-0.0115840058941,0.0,-0.00784587859172,0.00899103992722,-0.99992879916,0.0,0.608672291393,0.19162936149,0.304049068488,1.0,-0.205961142857,-0.270691787755,1.388
0.410693610918,0.280984301822,-0.126418010546,-1.7583546505,0.051273607403,2.03192159289,0.0917354146442,-0.258959663176,-0.867787934967,-0.00778279827546,-1.2693207664,-0.107786042111,0.378345627131,-0.278396064708,0.5736710756,0.819068254042,0.00307231855496,0.0,0.819037972295,-0.573606606625,-0.0115328954485,0.0,-0.0076840742605,0.00913260992725,-0.999928772683,0.0,0.605157082995,0.186982402023,0.304155043136,1.0,-0.214130857143,-0.281429126531,1.405
0.40637089326,0.266595537604,-0.12657242507,-1.77869896327,0.0495216925785,2.03800318338,0.0873053196452,-0.270834933594,-0.917734270086,-0.0105992598923,-1.28662552749,-0.109469221171,0.376095326727,-0.276552220957,0.573678599829,0.819062754204,0.00313299779093,0.0,0.819033131566,-0.573613788849,-0.011519441876,0.0,-0.00763816211483,0.00917466291881,-0.999928739481,0.0,0.601697175696,0.182426248319,0.304217496393,1.0,-0.22182,-0.291534857143,1.421
0.401396001733,0.250986310226,-0.126786698643,-1.8006803472,0.0475569545636,2.0444740396,0.0824294427183,-0.295900032117,-0.933375017436,-0.00895878971662,-1.3072806555,-0.112024483382,0.380449826837,-0.291502072197,0.573828171461,0.818957973514,0.00313275552796,0.0,0.818928362883,-0.573763359798,-0.0115191284882,0.0,-0.00763636880994,0.00917567945327,-0.99992874385,0.0,0.597679343978,0.177036613013,0.304251454557,1.0,-0.230470285714,-0.302903804082,1.439
0.396523829789,0.235956431686,-0.126918903978,-1.82172974996,0.0456599365423,2.05052696056,0.0775260133535,-0.310021494354,-0.969376501919,-0.0127668356341,-1.30289664964,-0.118871877467,0.386844986723,-0.305637162322,0.573771767119,0.818997518319,0.00312588319128,0.0,0.818967667265,-0.573706802583,-0.0115417305981,0.0,-0.00765945573433,0.00918249321766,-0.999928504722,0.0,0.594183260899,0.172462223038,0.304261605645,1.0,-0.237678857143,-0.312377926531,1.454
0.391122700293,0.219725147803,-0.127032134107,-1.84443576868,0.0435784709582,2.05696135674,0.0721436440049,-0.32650797,-0.959690526017,-0.00808275372332,-1.31858708004,-0.132527106504,0.368815325648,-0.317780591475,0.573667516487,0.819070825511,0.00305126628063,0.0,0.819039487213,-0.573602188471,-0.0116445123459,0.0,-0.00778761725941,0.00917936277918,-0.999927543533,0.0,0.590062288064,0.167194694006,0.304204036988,1.0,-0.245848571429,-0.323115265306,1.471
0.384942010872,0.202006346093,-0.127227827463,-1.86884485125,0.0412331751481,2.06367632047,0.0661234291476,-0.349310521652,-0.968249759916,-0.0114825567843,-1.36555515236,-0.123890246544,0.3539024072,-0.341669073672,0.573633758571,0.819094676066,0.00299492381015,0.0,0.819062562909,-0.57356857246,-0.0116772269184,0.0,-0.00784711130688,0.00915165773632,-0.999927332362,0.0,0.585561972992,0.161318036145,0.304207401675,1.0,-0.254498857143,-0.334484212245,1.489
0.379037732208,0.185807716995,-0.127463153908,-1.89076271094,0.0391086950491,2.06967185291,0.0604582848956,-0.381861232816,-1.00446123697,-0.0184311295824,-1.39689572989,-0.142558517561,0.373101171548,-0.359145163363,0.573674562947,0.819065472273,0.00316146472731,0.0,0.819035734462,-0.57360908122,-0.0115686869476,0.0,-0.00766221468212,0.0092261916462,-0.999928081341,0.0,0.581485293706,0.155867094463,0.304305688163,1.0,-0.262188,-0.344589942857,1.505
0.371927336052,0.167376568521,-0.127731508046,-1.91562512244,0.0366601711582,2.07621829855,0.0538372031574,-0.399179105082,-1.03032194169,-0.018557575823,-1.39904451124,-0.153529736109,0.369461514147,-0.374400059114,0.57383037319,0.818956152368,0.00320471612056,0.0,0.818926744964,-0.573764455641,-0.0115794096168,0.0,-0.00764442372487,0.00926922314411,-0.999927819539,0.0,0.576754254543,0.149511832955,0.30433813439,1.0,-0.270838285714,-0.355958889796,1.523
0.365388324566,0.150635750404,-0.127902175665,-1.9379167482,0.034353858165,2.08195940527,0.0476662279978,-0.413447317453,-1.03992254814,-0.0114431799829,-1.40449165369,-0.146121183925,0.356632641975,-0.388788462927,0.573760798844,0.819004566167,0.00328834428172,0.0,0.818976447425,-0.573694881939,-0.0115112076203,0.0,-0.00754137051338,0.00929793521168,-0.999928335498,0.0,0.572398857343,0.143822607147,0.304398830208,1.0,-0.278527428571,-0.366064620408,1.539
0.35801857323,0.132533862475,-0.128125307682,-1.96188103377,0.031882208171,2.08786793172,0.0407819187698,-0.431025279961,-1.06829068051,-0.0107584194044,-1.41962696944,-0.134474548518,0.338085764994,-0.411130847286,0.573740509889,0.819018766206,0.00329162810662,0.0,0.818990192596,-0.573673973065,-0.0115751440985,0.0,-0.00759208503557,0.00933711998257,-0.999927586596,0.0,0.567602629533,0.137571478596,0.304412283313,1.0,-0.286697142857,-0.376801959184,1.556
0.350122135589,0.114105227214,-0.128457221383,-1.98599650152,0.0292356830548,2.0937327661,0.0335525550946,-0.479097347928,-1.0955462551,-0.0196520299468,-1.41635964546,-0.158113617776,0.337463013395,-0.426002550433,0.573831806671,0.81895463662,0.00333282355977,0.0,0.818927158426,-0.573765826485,-0.0114818313099,0.0,-0.00749098294845,0.00931815913523,-0.999928525988,0.0,0.56272517589,0.13102827998,0.304445123151,1.0,-0.294866857143,-0.387539297959,1.573
0.341857680482,0.0953287936754,-0.12873767611,-2.01026117862,0.0265247467373,2.0993906691,0.0259265738673,-0.490373809117,-1.1284404189,-0.0181525200605,-1.42779753975,-0.16681729523,0.347648939657,-0.457759139796,0.573774372705,0.818994652256,0.0033875807777,0.0,0.81896816784,-0.573708597179,-0.0114163255061,0.0,-0.00740656792149,0.00932489536192,-0.999929092025,0.0,0.557680262648,0.124393119362,0.304488312377,1.0,-0.303036571429,-0.398276636735,1.59
0.333674260709,0.0774123096373,-0.128976213251,-2.03320723118,0.0240587537497,2.10440304871,0.018389015016,-0.52913609029,-1.15628737533,-0.0214437426038,-1.42112443876,-0.166482326578,0.340239303364,-0.482293877548,0.573718444249,0.819033752001,0.00340686262277,0.0,0.819006255613,-0.573651034107,-0.0115754583732,0.0,-0.00752648574407,0.00943147735456,-0.999927196973,0.0,0.552763739554,0.118039060094,0.304493600102,1.0,-0.30998,-0.407402285714,1.606
0.323934819746,0.0572256541577,-0.129324772083,-2.05886277482,0.0210142384071,2.1098816684,0.00963137463327,-0.556902097506,-1.15070805399,-0.0272033419484,-1.39774977449,-0.171888918201,0.311765550227,-0.49273222663,0.573751673587,0.819010843554,0.00331694104579,0.0,0.818982406827,-0.573684820126,-0.0115884151801,0.0,-0.00758830506325,0.009365569281,-0.99992734923,0.0,0.547189978106,0.110657893074,0.304460651038,1.0,-0.30998,-0.407402285714,1.624
0.314373700981,0.0382901641381,-0.129539135184,-2.08259975854,0.0182691503184,2.11457490359,0.00122397300837,-0.568270414032,-1.11249913316,-0.00382457855001,-1.36479523719,-0.152218440293,0.264612818866,-0.50002160274,0.573863743309,0.818932607999,0.00324570053212,0.0,0.81890204339,-0.573795639644,-0.0117793955087,0.0,-0.00778431214378,0.00941786012149,-0.999925351411,0.0,0.54187285597,0.103722286303,0.304429547101,1.0,-0.30998,-0.407402285714,1.641
0.305147633011,0.0205769821571,-0.129760640604,-2.10444698916,0.0155565767295,2.11879624346,-0.00699580364454,-0.582559379885,-1.08864848316,-0.0124961007412,-1.34829944617,-0.161482719325,0.247875163294,-0.514702603274,0.573809552048,0.818970562536,0.00325001227144,0.0,0.818940238005,-0.573741663901,-0.0117531519817,0.0,-0.00776096746439,0.00940581778801,-0.999925646224,0.0,0.536899707642,0.0971935812179,0.30445059314,1.0,-0.30998,-0.407402285714,1.657
0.294986721641,0.00185090132383,-0.130058564606,-2.12705473382,0.012750168067,2.12293861457,-0.0159005922903,-0.604600780398,-1.08275939249,-0.017937053788,-1.33925412891,-0.165994640231,0.236236613418,-0.533976098729,0.57393171562,0.818884217562,0.00343087966297,0.0,0.818856348123,-0.573863342176,-0.0116572958535,0.0,-0.00757726540973,0.00950007230619,-0.999926164112,0.0,0.531660678368,0.0902015894666,0.304563873435,1.0,-0.30998,-0.407402285714,1.674
0.284676296086,-0.0166160056771,-0.130207825175,-2.14910487746,0.00995657678185,2.12683486247,-0.0250695961758,-0.618028775429,-1.07215038568,-0.0115628183477,-1.29849833611,-0.175896439171,0.222866447284,-0.536708402611,0.573789678032,0.818982792443,0.00365211823071,0.0,0.818958074462,-0.573721004741,-0.0115164184123,0.0,-0.0073365928216,0.00959911853957,-0.999927013001,0.0,0.526428536255,0.083373704335,0.304664853914,1.0,-0.30998,-0.407402285714,1.691
0.274619679284,-0.0337983074823,-0.130438432739,-2.16941813201,0.00725455926589,2.13008020904,-0.0338559398706,-0.637530218125,-1.06329040169,-0.013063925256,-1.25406576017,-0.166587405855,0.191217995932,-0.548929167872,0.573810678485,0.818967909786,0.0036898372994,0.0,0.8189439549,-0.573742253863,-0.0114617523033,0.0,-0.00726993172651,0.00959883062394,-0.999927502644,0.0,0.521489148466,0.0768442475495,0.304723197151,1.0,-0.30998,-0.407402285714,1.707
0.263597272651,-0.0519300470681,-0.130715811842,-2.19060062482,0.00452542577283,2.13328021224,-0.0435017761044,-0.638747657495,-1.07562791958,-0.00789487253319,-1.22375908142,-0.166424110196,0.206040279865,-0.577711592229,0.573896184329,0.818907283806,0.00384409200974,0.0,0.81888481451,-0.573826626336,-0.0114634363646,0.0,-0.00718178745877,0.00972687823382,-0.999926902213,0.0,0.516232253447,0.0698868780892,0.304780736453,1.0,-0.30998,-0.407402285714,1.724
0.252386511876,-0.0696721628341,-0.130902944214,-2.21134597565,0.00170615948478,2.13611619426,-0.0533717366015,-0.669818946038,-1.03787485441,-0.014109063666,-1.19608712712,-0.166415017262,0.154229355717,-0.589012374254,0.573792723964,0.818980403441,0.00370885511638,0.0,0.818955509172,-0.573722683571,-0.0116147859842,0.0,-0.00738456997671,0.00970205381299,-0.999925666376,0.0,0.510930507189,0.0630230655285,0.304703720711,1.0,-0.30998,-0.407402285714,1.741
0.241391377573,-0.0863012471737,-0.131217702221,-2.23044003263,-0.000959876475926,2.13858818364,-0.0629533124335,-0.693991772283,-1.02326398867,-0.0111572382314,-1.2027052326,-0.169082291477,0.152723128086,-0.609650437275,0.573886803479,0.81891451483,0.00370149911075,0.0,0.818889390049,-0.573816595217,-0.0116373888479,0.0,-0.00740618761736,0.00970984918049,-0.999925430827,0.0,0.50597747465,0.0564150407847,0.30468384826,1.0,-0.30998,-0.407402285714,1.757
0.228957343212,-0.104911791022,-0.131407578722,-2.25137742483,-0.00392546466655,2.14094011043,-0.0739458364962,-0.703209577787,-1.02852350195,-0.0200945457438,-1.16094566197,-0.162007780089,0.12454789344,-0.604907206794,0.573707246928,0.819040217852,0.00372334055694,0.0,0.819015153423,-0.57363670308,-0.0116558244502,0.0,-0.00741088687797,0.00973669075498,-0.999925135002,0.0,0.500375579057,0.0492064325209,0.304719035592,1.0,-0.30998,-0.407402285714,1.775
0.218116151697,-0.120182382104,-0.131720209224,-2.26844134504,-0.00641721035591,2.14267799579,-0.0833469502329,-0.730555982745,-1.02151229803,-0.0265190403133,-1.10974908472,-0.167043999929,0.119883271342,-0.638830097569,0.573836796857,0.818949651015,0.00368056746141,0.0,0.81892375897,-0.573766015192,-0.011712544786,0.0,-0.00748034395885,0.00973538075995,-0.999924630568,0.0,0.495723952962,0.043018975586,0.304700666334,1.0,-0.30998,-0.407402285714,1.79
0.207871058336,-0.134292649382,-0.131903063545,-2.28415118247,-0.00868100865447,2.1440605947,-0.0923514033664,-0.739167374353,-0.994273072746,-0.0156177223947,-1.11706255424,-0.170532358913,0.101334582881,-0.652951044869,0.573785040978,0.818986429626,0.00356394991842,0.0,0.818957914796,-0.573713245184,-0.0119076863532,0.0,-0.00770769665516,0.00975136503973,-0.999922748162,0.0,0.491325619605,0.0373548035312,0.304625392211,1.0,-0.30998,-0.407402285714,1.804
0.191996536519,-0.15533882291,-0.13235272657,-2.3069316605,-0.0120652962894,2.14592116267,-0.1063091353,-0.770729908148,-0.997696635682,-0.0273535555184,-1.07310726866,-0.167791008362,0.07575639275,-0.67110068466,0.573859388311,0.818933695887,0.00370824605094,0.0,0.818906902076,-0.573786870971,-0.0118684175479,0.0,-0.00759185031513,0.00984770071873,-0.999922690311,0.0,0.484840365714,0.0287424685216,0.304671110745,1.0,-0.30998,-0.407402285714,1.825
0.178869968045,-0.172158838865,-0.132595814441,-2.32481377837,-0.0147331496791,2.14703255564,-0.117889603654,-0.768029089957,-0.980265159865,-0.0111803498809,-1.040560905,-0.156222663519,0.0569731645403,-0.701794572535,0.573814543016,0.818964623148,0.0038161704038,0.0,0.818938785981,-0.573741070018,-0.0118826046086,0.0,-0.00754208432297,0.00994381274013,-0.999922115743,0.0,0.479581230189,0.0218853612753,0.304721019072,1.0,-0.30998,-0.407402285714,1.842
0.166915136689,-0.186787153936,-0.132923164972,-2.34035118947,-0.0171878700599,2.14776544879,-0.128386935137,-0.812032120618,-0.967073525847,-0.0330761115484,-1.02482755309,-0.168902642028,0.0397873708644,-0.706303889646,0.573870888919,0.818925609807,0.00371420987288,0.0,0.81889777878,-0.573796906646,-0.0120118580722,0.0,-0.00770576442082,0.00993500516391,-0.99992095531,0.0,0.474889785403,0.0157253391375,0.304675644401,1.0,-0.30998,-0.407402285714,1.857
0.153939140074,-0.202246289311,-0.133168972467,-2.35636868517,-0.019713568351,2.14848536682,-0.139927835746,-0.808420779604,-0.955697250538,-0.0139654013677,-1.00904895586,-0.154235761564,0.0336351622982,-0.735153921627,0.573772095896,0.818994158777,0.00385963220002,0.0,0.818968672765,-0.573698193474,-0.0118929700009,0.0,-0.00752615384243,0.00998496442558,-0.999921825691,0.0,0.46997480108,0.00925020746372,0.304731503533,1.0,-0.30998,-0.407402285714,1.873
0.138094559314,-0.220443672167,-0.13358424415,-2.3749092478,-0.0226807771892,2.14896057935,-0.153902479652,-0.847747728866,-0.958079123012,-0.0201820850907,-0.958506377402,-0.160911316246,0.0302707836795,-0.745700403866,0.573874701288,0.818921470742,0.00402478335372,0.0,0.818898238203,-0.573800357677,-0.0118140551717,0.0,-0.00736550311744,0.0100758693719,-0.999922110077,0.0,0.464106612517,0.00149117243539,0.304806995763,1.0,-0.30998,-0.407402285714,1.892
0.123679115584,-0.236379458959,-0.133820974095,-2.391166467,-0.0253893021317,2.14907153219,-0.166819730338,-0.859511664299,-0.945017345381,-0.0129774291461,-0.94529813771,-0.162473872789,0.00584933842237,-0.769870231593,0.573665246197,0.819068825159,0.00389767371138,0.0,0.819043413088,-0.573590665488,-0.0119324282496,0.0,-0.0075379558587,0.0100377766275,-0.999921208027,0.0,0.458787412883,-0.0053355810048,0.304751431911,1.0,-0.30998,-0.407402285714,1.909
0.108707274861,-0.252102653937,-0.134235501187,-2.40669998228,-0.0279346894577,2.14910027056,-0.180112842058,-0.884364510445,-0.908654223981,-0.0250065667872,-0.901475124043,-0.160345503094,-0.00113916206685,-0.786520077837,0.57380620222,0.818968884909,0.00414182890023,0.0,0.818947040805,-0.573731294776,-0.0117852727023,0.0,-0.00727561486382,0.0101545966003,-0.999921971754,0.0,0.45359247986,-0.012317618862,0.304836086729,1.0,-0.30998,-0.407402285714,1.926
0.0935279593619,-0.267605395417,-0.134541722264,-2.42195907183,-0.0305104735289,2.14894271783,-0.193703673574,-0.911286955997,-0.912106842954,-0.024555480953,-0.876450805049,-0.155234882151,-0.00554882078114,-0.80623464174,0.573752467583,0.819005970129,0.0042513217868,0.0,0.818985912284,-0.573677728649,-0.0116912802779,0.0,-0.00713647711891,0.0101898697472,-0.99992261563,0.0,0.448342908934,-0.0191864955521,0.304852668506,1.0,-0.30998,-0.407402285714,1.943
0.078833081796,-0.281925394443,-0.134930010946,-2.43584465399,-0.0329099293134,2.14855682167,-0.206905929505,-0.910637936944,-0.876789032265,-0.0154965814427,-0.880415311072,-0.143399635489,-0.0233256742172,-0.826123595281,0.573778143565,0.818987470116,0.00434886886226,0.0,0.818968834178,-0.573703323279,-0.0116315263658,0.0,-0.0070312492065,0.0102357007361,-0.99992289301,0.0,0.443407629386,-0.0257297261476,0.304871390441,1.0,-0.30998,-0.407402285714,1.959
0.0628667934615,-0.296898504302,-0.13531449489,-2.45012508635,-0.0353942910396,2.14794933621,-0.221320269248,-0.952747809003,-0.872733382159,-0.0326613050473,-0.799328696886,-0.162444561746,-0.0241122256082,-0.851099755333,0.573773413488,0.818990036503,0.00448742506966,0.0,0.818973460725,-0.573698571821,-0.011539766875,0.0,-0.00687665713752,0.0102964917091,-0.999923343984,0.0,0.438171826897,-0.0326651946363,0.304910936622,1.0,-0.30998,-0.407402285714,1.976
0.0485451175738,-0.309846668109,-0.135606100593,-2.46238445394,-0.0375673740818,2.14722024223,-0.234240677704,-0.953146071623,-0.835156188576,-0.0156438153153,-0.782949481053,-0.14878143744,-0.0586017213176,-0.866093681803,0.573757126709,0.819001243524,0.00452432954099,0.0,0.818985096955,-0.573682107522,-0.0115324488078,0.0,-0.00684969488614,0.0103223818975,-0.999923262112,0.0,0.433531204122,-0.0387332708531,0.304910783664,1.0,-0.30998,-0.407402285714,1.991
0.0318805884875,-0.324274432744,-0.136060203988,-2.47581478961,-0.0399852566805,2.14621573133,-0.249324813487,-0.985259539622,-0.870558944458,-0.0256993850049,-0.777534619496,-0.14282489196,-0.05436969372,-0.901809769873,0.573842101514,0.818941145661,0.00462486478909,0.0,0.81892620094,-0.573766628169,-0.0115100266693,0.0,-0.00677257174435,0.010392560933,-0.999923060515,0.0,0.42826984479,-0.045697234925,0.304932235906,1.0,-0.30998,-0.407402285714,2.008
0.0129704213652,-0.339995981508,-0.136451468153,-2.49029938329,-0.0426585865939,2.14495571858,-0.266678573725,-1.00791773178,-0.823608299837,-0.0310931050344,-0.74244316197,-0.157774196304,-0.0707003476655,-0.923180947849,0.573680772019,0.819053845492,0.00468154913771,0.0,0.819039856459,-0.573605508229,-0.0114534432151,0.0,-0.00669575325104,0.010405195812,-0.999923446464,0.0,0.422400638029,-0.0533714145256,0.304935215151,1.0,-0.30998,-0.407402285714,2.027
-0.00443127987577,-0.353767318259,-0.136857949189,-2.50267572466,-0.0449965124917,2.14354050932,-0.282571420822,-1.02240492054,-0.848745729962,-0.0173315130072,-0.712251769967,-0.133820034065,-0.0792441484869,-0.949439272388,0.573698462858,0.819041047284,0.00475220782585,0.0,0.819028095814,-0.573623197345,-0.011408445854,0.0,-0.00661813621227,0.0104374005289,-0.999923627555,0.0,0.417144104526,-0.0603009386495,0.304985652287,1.0,-0.30998,-0.407402285714,2.044
-0.0211797976633,-0.366321338372,-0.137323569993,-2.51396204603,-0.0470864288105,2.14217595054,-0.29791780929,-1.05096013507,-0.775024318721,-0.0307778745398,-0.694310398408,-0.136145160058,-0.0975071466177,-0.96710727995,0.573811016548,0.81896163443,0.00484824924541,0.0,0.818949324746,-0.57373451675,-0.0114653691743,0.0,-0.00660821676909,0.0105496286998,-0.999922515401,0.0,0.41217981073,-0.0668568444261,0.304968862156,1.0,-0.30998,-0.407402285714,2.06
-0.0402763387167,-0.380054754487,-0.137729591207,-2.52612844407,-0.0494425623428,2.14039916749,-0.315559151646,-1.07212230261,-0.762246079956,-0.0294759561378,-0.636552418066,-0.124713414139,-0.101229134442,-0.9936023163,0.573747011223,0.819006569277,0.00483254538481,0.0,0.818993432721,-0.573669576475,-0.0115637834342,0.0,-0.00669865930402,0.0105927130598,-0.999921458112,0.0,0.406592182282,-0.0741390765159,0.304952146858,1.0,-0.30998,-0.407402285714,2.078
-0.0555013157812,-0.390493373655,-0.138071502547,-2.53514240076,-0.0512756420497,2.13911078319,-0.329594554662,-1.08380176383,-0.745166811735,-0.018284262174,-0.639674150719,-0.133702121829,-0.103424681474,-1.00063244595,0.573770184371,0.818989732166,0.00493366342291,0.0,0.818979019998,-0.573694255842,-0.0113583677333,0.0,-0.00647209678968,0.0105578628552,-0.999923318808,0.0,0.402299175819,-0.0798674877042,0.305009731039,1.0,-0.30998,-0.407402285714,2.092
-0.074258856917,-0.402683420978,-0.138484512873,-2.54580910424,-0.0532901487107,2.13720706327,-0.347039125964,-1.10702130792,-0.710484699775,-0.023052645531,-0.619020981411,-0.122025064709,-0.12682961643,-1.02364306167,0.573781921548,0.818981523055,0.00493135897221,0.0,0.818968880555,-0.573702929738,-0.011647660472,0.0,-0.00671021281581,0.010722052977,-0.999920002112,0.0,0.396978978331,-0.0867559334015,0.30493532099,1.0,-0.30998,-0.407402285714,2.109
-0.0956080121267,-0.415973402496,-0.138930039476,-2.55690509168,-0.0555637373856,2.13524915571,-0.367016573539,-1.14360009293,-0.704095668314,-0.0423061734301,-0.57626977799,-0.121409598464,-0.0968580315027,-1.06776901927,0.573713666079,0.819028048173,0.00514126063006,0.0,0.819019715024,-0.573636702381,-0.0113307980873,0.0,-0.00633114754201,0.0107116337585,-0.99992258574,0.0,0.39117402374,-0.0944820002833,0.305052323031,1.0,-0.30998,-0.407402285714,2.128
-0.112731946312,-0.425922619032,-0.139185940281,-2.56538474763,-0.0573721817678,2.13345958903,-0.383135088001,-1.14797514818,-0.670550871517,-0.0103043145665,-0.560125533593,-0.121311040844,-0.126404262373,-1.08740934319,0.573521907588,0.819163194464,0.00500292449251,0.0,0.819152336952,-0.573444131282,-0.0114901725304,0.0,-0.00654355472916,0.0106882287393,-0.999921468745,0.0,0.386503181625,-0.10052063661,0.304999126777,1.0,-0.30998,-0.407402285714,2.143
-0.13368126865,-0.437445827434,-0.139644265414,-2.5751105474,-0.0593751511462,2.13131990772,-0.402785965415,-1.17186227753,-0.633647320222,-0.0288086240824,-0.523629257979,-0.103903312303,-0.108694030413,-1.11198679055,0.573563717933,0.819133944787,0.00499888675762,0.0,0.819121597469,-0.573483617606,-0.011708791554,0.0,-0.00672441841841,0.010810642261,-0.999918952821,0.0,0.380871944674,-0.107820891099,0.304932556899,1.0,-0.30998,-0.407402285714,2.161
-0.153857380463,-0.447917162425,-0.140087784236,-2.58341637812,-0.0611860957407,2.12944474337,-0.421849051559,-1.19496322622,-0.61103672554,-0.0136871961488,-0.486593288955,-0.124468937295,-0.108773059264,-1.13164411128,0.573584135649,0.81911818731,0.00523272876888,0.0,0.819110743626,-0.573506456494,-0.0113437619936,0.0,-0.00629099914863,0.0107929940697,-0.99992196426,0.0,0.375700865229,-0.11478844561,0.305082536867,1.0,-0.30998,-0.407402285714,2.178
-0.174380478508,-0.457754181486,-0.140535746301,-2.59152888405,-0.0629505662745,2.12734361419,-0.441229594659,-1.22217044022,-0.566415742422,-0.046757448574,-0.4606367732,-0.0937683072312,-0.125360253088,-1.14191066994,0.573654785156,0.819068857804,0.00520965877049,0.0,0.819059607405,-0.573574600799,-0.0115880860208,0.0,-0.00650343764295,0.0109147922075,-0.999919283047,0.0,0.370369965327,-0.121720671422,0.305021902065,1.0,-0.30998,-0.407402285714,2.195
-0.192588015743,-0.465968853607,-0.140825566013,-2.5982283903,-0.0644568313031,2.12562669137,-0.458660399247,-1.20736851019,-0.535399475458,-0.0186753714005,-0.445570306725,-0.0921826307198,-0.113219387626,-1.17239356488,0.573489362985,0.819184837918,0.00518640235333,0.0,0.81917487173,-0.573408588451,-0.0116562051243,0.0,-0.00657478543792,0.0109334906377,-0.999918612177,0.0,0.365731135708,-0.127757669315,0.304987578204,1.0,-0.308969142857,-0.406073730612,2.21
-0.212358714998,-0.474193690174,-0.141132701307,-2.60470167071,-0.0658675143092,2.12388086828,-0.477337183564,-1.24446059836,-0.501913464074,-0.0167796977809,-0.388469823237,-0.0884719634945,-0.107320599462,-1.1708931178,0.573643245506,0.819076229257,0.00532019289961,0.0,0.819068439589,-0.573562774355,-0.0115491144354,0.0,-0.00640826388237,0.0109828850386,-0.999919151927,0.0,0.360859520498,-0.134252353878,0.305036082858,1.0,-0.30128,-0.395968,2.226
-0.234405709945,-0.482625785237,-0.141333459758,-2.61133908339,-0.0673048596654,2.1219681651,-0.498308794458,-1.21218044953,-0.462550415978,-0.00109671185878,-0.361211129847,-0.0865254300367,-0.103267037179,-1.17458369872,0.573678546217,0.819051002871,0.00539696268311,0.0,0.819044195889,-0.573597816563,-0.0115280924145,0.0,-0.00634653183261,0.0110339826964,-0.999918983098,0.0,0.355491467346,-0.141349296049,0.305056118091,1.0,-0.292629714286,-0.384599053061,2.244
-0.253806613827,-0.489386471747,-0.141422885442,-2.61679996009,-0.068364274036,2.12028451454,-0.516761571814,-1.21176423763,-0.400184112564,-0.0171966845187,-0.328689860055,-0.0673319758745,-0.094315640699,-1.16417273448,0.573755201204,0.818996966158,0.00544843252087,0.0,0.818989045219,-0.573671210075,-0.0117912443387,0.0,-0.00653151021518,0.0112277104844,-0.999915635387,0.0,0.350778759716,-0.147455247368,0.304982376614,1.0,-0.284940571429,-0.374493322449,2.26
-0.272925384223,-0.495553439824,-0.141326834421,-2.62161743935,-0.0693312728143,2.11884363815,-0.535013072963,-1.18883934828,-0.366604754486,0.00664743091277,-0.288899281881,-0.0490257669068,-0.0842383668435,-1.13296384522,0.573732082966,0.819012778774,0.00550564096274,0.0,0.819005706459,-0.573648079402,-0.0117592809388,0.0,-0.00647282561584,0.0112560448271,-0.999915698438,0.0,0.345984658319,-0.15375921771,0.304983986776,1.0,-0.276770857143,-0.363755983674,2.277
-0.292971514308,-0.501382835085,-0.141253449037,-2.62614517607,-0.0702140940411,2.11735809668,-0.554064312756,-1.15857708932,-0.330718006923,0.00299427473646,-0.252962203795,-0.0359966470157,-0.0789668440286,-1.11619946366,0.573800067652,0.818964630029,0.00558247473058,0.0,0.81895823496,-0.573715221288,-0.0117898751568,0.0,-0.00645286425816,0.0113370630883,-0.999914912152,0.0,0.341317982938,-0.159898932232,0.304990757343,1.0,-0.268601142857,-0.353018644898,2.294
-0.312615201573,-0.506586118707,-0.141097434585,-2.6300961985,-0.0710099184912,2.11606520824,-0.57285038193,-1.14561865422,-0.301746248784,0.0156261558317,-0.225717089379,-0.0420830079201,-0.071074939572,-1.10396010972,0.573844512221,0.818933137716,0.00563370618667,0.0,0.81892796054,-0.573760458563,-0.011690959556,0.0,-0.00634183844709,0.0113226104969,-0.999915786242,0.0,0.337070891862,-0.165540330841,0.305022980822,1.0,-0.260912,-0.342912914286,2.31
-0.33189165745,-0.511195624768,-0.140949595423,-2.63355777712,-0.0715442958625,2.11489511952,-0.591269702468,-1.14498409144,-0.25739780392,0.00542477501209,-0.192885233197,-0.0343340894101,-0.0672845450517,-1.06799741721,0.574008548959,0.818816703399,0.0058428467226,0.0,0.818814463193,-0.573924171079,-0.0116046377755,0.0,-0.00614883866965,0.0114455890564,-0.999915591575,0.0,0.332684382367,-0.171351892222,0.305063394374,1.0,-0.252742285714,-0.33217557551,2.327
-0.350545762484,-0.515160678771,-0.140592054324,-2.63667841597,-0.0720866688153,2.11371400697,-0.609310577941,-1.08510706951,-0.216975117225,0.0204659187557,-0.18108466742,-0.0356038033052,-0.0618109528421,-1.04853255764,0.573840581151,0.818934621693,0.00581547231097,0.0,0.818930927638,-0.573754306652,-0.0117846619964,0.0,-0.00631433700074,0.011525209319,-0.999913645621,0.0,0.328421713016,-0.176852183418,0.305019071279,1.0,-0.244572571429,-0.321438236735,2.344
-0.368913090069,-0.518506944787,-0.140337763774,-2.63934585056,-0.0724939865398,2.11276877378,-0.626922376309,-1.06400874979,-0.179267635977,0.0140135429361,-0.141088935125,-0.0216947528256,-0.0521007633093,-1.01829642944,0.573947549224,0.818859098116,0.00589364687048,0.0,0.818855457634,-0.57385919861,-0.0119208461992,0.0,-0.00637949272245,0.0116682100152,-0.999911573564,0.0,0.324273676772,-0.182274859057,0.304965892006,1.0,-0.236402857143,-0.310700897959,2.361
-0.387770740544,-0.52151612099,-0.140011262913,-2.64166422281,-0.0728819832571,2.11191616744,-0.645093552908,-1.03094403182,-0.159233396629,0.0195115306561,-0.112904350751,-0.0281597636894,-0.0458341517465,-0.9952970247,0.573975069467,0.81883949073,0.00593758813542,0.0,0.818836251642,-0.573886227074,-0.0119389393612,0.0,-0.00636869759056,0.0117147915078,-0.999911097724,0.0,0.320066163596,-0.187814825247,0.304954069749,1.0,-0.227752571429,-0.299331951021,2.379
-0.405982185868,-0.52398897607,-0.139602919988,-2.64354553218,-0.0731207280467,2.11116479407,-0.662743053368,-1.01745057009,-0.123284392321,0.0140383579058,-0.09932934945,-0.016046055335,-0.0393916147863,-0.965389455591,0.573932410711,0.818868928147,0.00600111256666,0.0,0.818866297341,-0.573842918246,-0.0119598979821,0.0,-0.00635001515082,0.0117785086809,-0.999910468012,0.0,0.316040385804,-0.193110360582,0.304952613748,1.0,-0.219102285714,-0.287963004082,2.397
-0.420802588426,-0.525709562904,-0.139267764121,-2.64483820656,-0.0732996562507,2.11064191328,-0.677073328128,-0.972491909919,-0.105511898968,0.0274236108614,-0.0769380094608,-0.000319221149959,-0.0264267811564,-0.936787854066,0.573943480738,0.818860918814,0.00603518508123,0.0,0.818858813759,-0.573854001273,-0.0119404879529,0.0,-0.00631440540076,0.011795356811,-0.999910494915,0.0,0.312776596249,-0.197410195211,0.304959275263,1.0,-0.211893714286,-0.278488881633,2.412
-0.438051223477,-0.527375620568,-0.138909286879,-2.64606344698,-0.073468688469,2.1101421486,-0.693699429393,-0.949755091636,-0.0836908170478,0.0141530010514,-0.0624068155657,-0.0155601054122,-0.0193384344632,-0.914940103628,0.574054840086,0.818782455572,0.0060891643739,0.0,0.818781436826,-0.573965844874,-0.0118707425538,0.0,-0.00622470320803,0.0118003791674,-0.9999109981,0.0,0.308990043238,-0.202415866426,0.304978380352,1.0,-0.203243428572,-0.267119934694,2.43
-0.451808026105,-0.528405341344,-0.138486726252,-2.64685905351,-0.0735019120059,2.10979001676,-0.707083017443,-0.912363967309,-0.063477721997,0.0249580038059,-0.0504172677763,-0.000785728084516,-0.0220412673742,-0.883563888659,0.574000828863,0.818820136502,0.00611387150922,0.0,0.818819349437,-0.573911576862,-0.0118794710696,0.0,-0.00621844820858,0.0118252102041,-0.999910743669,0.0,0.305993409946,-0.206350760717,0.304973993393,1.0,-0.196034857143,-0.257645812245,2.445
-0.467037712896,-0.529302376371,-0.13808989204,-2.64753606921,-0.0735249185745,2.10946733139,-0.721731034128,-0.874773949501,-0.045333382298,0.0287156712087,-0.0387329291126,-0.00167777922157,-0.00721016975485,-0.847497341028,0.574147158198,0.81871718239,0.00616140354277,0.0,0.818717045496,-0.574057747672,-0.0118679674863,0.0,-0.00617962643779,0.011858634226,-0.999910588508,0.0,0.302666734923,-0.2107202646,0.304976606846,1.0,-0.187865142857,-0.246908473469,2.462
-0.482310704864,-0.529869517523,-0.137548591647,-2.64796150029,-0.0735219519762,2.10922111936,-0.736715652134,-0.838764874441,-0.0244685813065,0.0252168556523,-0.0160556077874,-0.00243358896557,-0.0114656360916,-0.813928041757,0.5739776145,0.818836313334,0.00612673800995,0.0,0.818835876707,-0.573888665584,-0.0118470853878,0.0,-0.00618487729988,0.011816982213,-0.999911049156,0.0,0.299368154358,-0.21507073685,0.304983312094,1.0,-0.179214857143,-0.235539526531,2.48
-0.495485440233,-0.530119993952,-0.137120303924,-2.64817244778,-0.0735116059422,2.10904861267,-0.749469006997,-0.803383039527,-0.00300569845384,0.0361612223496,-0.00808882114156,-0.000123561690491,-0.00567623543272,-0.78023677226,0.574012804289,0.818811886235,0.0060944543221,0.0,0.818810884516,-0.573923698747,-0.0118773025357,0.0,-0.00622764462775,0.0118081566137,-0.999910887969,0.0,0.296508020253,-0.218827020762,0.30497523546,1.0,-0.171525714286,-0.225433795918,2.496
-0.510317257264,-0.530226606892,-0.136526168101,-2.64826231035,-0.0734611813045,2.10892368391,-0.763913829643,-0.787417840332,-0.00133407754192,0.0238668164565,0.0048339273932,0.000885184885718,-0.00607705684837,-0.750145055098,0.573927085887,0.818872528399,0.00601907140672,0.0,0.818870692663,-0.57383856988,-0.0118672371523,0.0,-0.00626389976344,0.0117399960396,-0.999911464107,0.0,0.29330146821,-0.223018237453,0.304978092297,1.0,-0.162394857143,-0.213433240816,2.515
-0.522315173641,-0.530143708425,-0.136031502019,-2.64824285142,-0.0733807627824,2.10888569297,-0.775574033357,-0.721888962556,0.00955811480031,0.0344286676198,0.00344770875047,0.00784160403986,0.000796207288286,-0.722723737256,0.573890549515,0.818898507436,0.00596813189045,0.0,0.818896015141,-0.573802250092,-0.0118760715957,0.0,-0.006300891108,0.0117030699974,-0.99991166456,0.0,0.290700333637,-0.22639290206,0.304966332714,1.0,-0.154705714286,-0.203327510204,2.531
-0.532937856007,-0.529949517693,-0.135545325493,-2.64814380453,-0.0732381320171,2.10889127136,-0.785959122248,-0.700853737981,0.0188972130373,0.0352592017882,0.00977158320099,0.00927507327937,0.0022512775405,-0.684620634815,0.573809089979,0.818955730664,0.00594864454992,0.0,0.818952952468,-0.573720822656,-0.011883862851,0.0,-0.0063196180116,0.0116909536324,-0.999911688116,0.0,0.288404288287,-0.229358135034,0.304953653972,1.0,-0.147497142857,-0.193853387755,2.546
-0.545282936685,-0.529614660578,-0.135045240133,-2.64791695568,-0.0730357159839,2.1088942808,-0.797815863558,-0.666962889229,0.0251121685406,0.036622136248,0.0173349571507,0.00941903933946,0.00938370807383,-0.6432953335,0.573955770631,0.818852739747,0.00597585717621,0.0,0.818850198205,-0.573867149704,-0.0118993399637,0.0,-0.00631458058098,0.011723252381,-0.999911341783,0.0,0.28571314453,-0.232810255523,0.304947858313,1.0,-0.138846857143,-0.182484440816,2.564
-0.556038124042,-0.529099051495,-0.13443828308,-2.64759238573,-0.0727274673456,2.10894465673,-0.808424241117,-0.630286953092,0.0312506461221,0.0307772881092,0.0222961135514,0.0169016708221,0.00288283305591,-0.602072596624,0.573798152438,0.818962953543,0.00600898357278,0.0,0.818960435285,-0.573708674469,-0.0119544626481,0.0,-0.00634297815982,0.0117807952001,-0.99991048574,0.0,0.283413430204,-0.235770596705,0.304927262597,1.0,-0.130677142857,-0.171747102041,2.581
-0.565248486059,-0.528586659496,-0.134012992491,-2.64724304002,-0.0725085130572,2.1090151169,-0.817246037572,-0.602620183814,0.0359224506362,0.030169933208,0.0264997069134,0.0137443663828,0.00515049591401,-0.57623619478,0.573951018044,0.818855627064,0.00603637420761,0.0,0.818853263217,-0.573861020666,-0.0119837047949,0.0,-0.00634900647856,0.0118211918795,-0.999909970717,0.0,0.281286723164,-0.238503520848,0.304914723811,1.0,-0.122988,-0.161641371429,2.597
-0.575988925913,-0.527764773669,-0.133364742731,-2.64668291996,-0.0721559295115,2.10916783481,-0.82779547436,-0.536718828964,0.0511465977303,0.0385389873599,0.0284696137887,0.0193377847522,0.00592857298847,-0.526484271799,0.573811023148,0.818953591847,0.00605565985268,0.0,0.818951314035,-0.573720667451,-0.0120036611936,0.0,-0.00635630661584,0.0118473518029,-0.999909614726,0.0,0.279144039883,-0.241298780034,0.30490001456,1.0,-0.114337714286,-0.15027242449,2.615
-0.585019729922,-0.526988902263,-0.132823808722,-2.64615118534,-0.0718639674244,2.10927576054,-0.836520565385,-0.522447459197,0.0492225501453,0.0273874982645,0.02713759915,0.0095441638423,0.00567800349101,-0.508716168982,0.573834223858,0.818937277324,0.00606351715181,0.0,0.818934667563,-0.573743022219,-0.0120706925927,0.0,-0.00640636281363,0.0118924298844,-0.999908760151,0.0,0.277216235312,-0.243787203031,0.304881113949,1.0,-0.106168,-0.139535085714,2.632
-0.59306232635,-0.526228633219,-0.132353245648,-2.64559706127,-0.0715621488007,2.10940432972,-0.844200718608,-0.489222814078,0.0571640650838,0.0305938618905,0.0409950972682,0.0198822989643,0.0120993396498,-0.479432529222,0.573958516051,0.818849888201,0.00610158570743,0.0,0.818847643875,-0.57386688057,-0.012086620967,0.0,-0.00639575340915,0.0119337178757,-0.999908336157,0.0,0.275505211201,-0.246011414003,0.30487784908,1.0,-0.0984788571429,-0.129429355102,2.648
-0.600727663802,-0.525346823978,-0.131749625881,-2.64499630966,-0.0712004919587,2.10956323026,-0.851745230404,-0.430229038517,0.049549450982,0.0396684129796,0.0354525577209,0.0255667211845,0.0105736741383,-0.432102801955,0.573819028936,0.818947540179,0.00611517506558,0.0,0.818945070514,-0.573726613291,-0.0121446113263,0.0,-0.00643748483358,0.0119770321483,-0.999907550472,0.0,0.273916019875,-0.248097655802,0.304856995144,1.0,-0.0903091428572,-0.118692016327,2.665
-0.607072853423,-0.524636332184,-0.131233074987,-2.64447850544,-0.0709108103281,2.10969107302,-0.857887362359,-0.41948689111,0.0497400921847,0.0337436883672,0.0346544592173,0.0209836830386,0.0127069188904,-0.39936978776,0.573772513573,0.818980183395,0.00610809097077,0.0,0.81897753686,-0.573679982499,-0.0121580713912,0.0,-0.00645325426165,0.0119785871054,-0.999907430196,0.0,0.272596140015,-0.249818978684,0.304856035039,1.0,-0.0831005714287,-0.109217893878,2.68
-0.613773611166,-0.523854894179,-0.130656638353,-2.64387222505,-0.070571639042,2.10984948518,-0.864263539467,-0.38061539862,0.0527049902795,0.0311314713996,0.0388215977743,0.024025903093,0.00982201995764,-0.372594948233,0.573808630541,0.818954906122,0.00610443741925,0.0,0.818952462814,-0.573716574282,-0.0121203525765,0.0,-0.00642392896291,0.0119542371283,-0.999907910435,0.0,0.271217235534,-0.251636266888,0.304873174616,1.0,-0.0749308571429,-0.0984805551022,2.697
-0.620499704505,-0.522960485227,-0.130062270213,-2.64320537208,-0.0701629115395,2.11002730596,-0.870660910258,-0.334906296997,0.0444180992544,0.0348244383237,0.0363926324156,0.0214607085831,0.00895741049198,-0.325282515213,0.573868222213,0.818912856543,0.00614360033835,0.0,0.818910942626,-0.573776015566,-0.0121119324997,0.0,-0.00639368981653,0.0119819454049,-0.999907772604,0.0,0.269844632622,-0.253457595546,0.304878266384,1.0,-0.0658000000001,-0.0864800000001,2.716
-0.625431385788,-0.522316561349,-0.129490226372,-2.64272237244,-0.0697976850437,2.11015954768,-0.875386469064,-0.298342186655,0.0374533334659,0.0315730550891,0.0304886583996,0.0256636815808,0.00204758424983,-0.286492066848,0.573814212379,0.818950568756,0.00616137214771,0.0,0.818948977162,-0.573722109169,-0.0120938479164,0.0,-0.00636947083771,0.011985701997,-0.999907882152,0.0,0.268864468763,-0.254750261905,0.304886988389,1.0,-0.0581108571429,-0.0763742693879,2.732
-0.630460145104,-0.521713198207,-0.128852461552,-2.64223763244,-0.0694504395146,2.11030075137,-0.8801197318,-0.271901546036,0.0315794973577,0.0346384036824,0.0255560400906,0.0174706577372,0.012626705634,-0.244189135088,0.573778802785,0.818975614138,0.00612991212592,0.0,0.818974069012,-0.573687702159,-0.0120267027687,0.0,-0.00633304301479,0.0119211357113,-0.999908885394,0.0,0.267868646776,-0.256054815524,0.304913550749,1.0,-0.0494605714287,-0.0650053224491,2.75
-0.63439888951,-0.521158845574,-0.128339630648,-2.64183056073,-0.069108303954,2.11041369844,-0.88378157869,-0.231430638928,0.0350648193066,0.026548973403,0.0216587131695,0.0201115161772,0.000384854282875,-0.210605944658,0.573810268219,0.818953375429,0.00615563650472,0.0,0.818952172984,-0.573719065742,-0.0120216001668,0.0,-0.00631364556732,0.0119395193805,-0.999908788719,0.0,0.267098302986,-0.257069661446,0.304917184254,1.0,-0.0417714285715,-0.0548995918369,2.766
-0.637701890753,-0.52065597283,-0.127855115972,-2.64147750753,-0.0687857756664,2.11050256048,-0.886798181211,-0.19521474311,0.0307527989518,0.029421989704,0.0190812239894,0.0236004988207,0.00260443081375,-0.180053905104,0.573858225075,0.818919588163,0.00618001116846,0.0,0.81891851795,-0.57376655701,-0.012047651907,0.0,-0.0063202960929,0.0119748002787,-0.999908324806,0.0,0.266465218756,-0.257904822683,0.30491229217,1.0,-0.0340822857144,-0.0447938612246,2.782
-0.640852947473,-0.520225799489,-0.127304971827,-2.64117510845,-0.0684341845977,2.1105805402,-0.889622984591,-0.162902232503,0.0221946863812,0.0263765534712,0.0125149427923,0.0137788027831,0.00332142203465,-0.145839332661,0.573901791278,0.818888901014,0.00620069876263,0.0,0.818887995754,-0.573809825617,-0.0120615644357,0.0,-0.00631918103337,0.0120000622556,-0.999908028999,0.0,0.26587388788,-0.258667429712,0.304911661005,1.0,-0.0254320000001,-0.0334249142858,2.8
-0.64317614362,-0.519917703321,-0.126747791319,-2.64095735282,-0.0681139269679,2.11062831203,-0.891589278963,-0.12187703349,0.0190887888313,0.0345102320417,0.0140883905756,0.0183268088015,-0.000158441798777,-0.0947065418166,0.573947400321,0.818856995088,0.00619275075606,0.0,0.818855912332,-0.573855319426,-0.0120753511607,0.0,-0.00633436475901,0.0120018180491,-0.999907911853,0.0,0.265472284839,-0.259186827024,0.304914929862,1.0,-0.0198668965517,-0.0261107783251,2.817
-0.644820441883,-0.519660716036,-0.126378935989,-2.64080190023,-0.0678783784362,2.11068818073,-0.893110775017,-0.102674644174,0.0229107789673,0.0258403988657,0.0112178621603,0.0122990031921,0.00856256420252,-0.0981156494815,0.573895423138,0.818893313261,0.00620739068904,0.0,0.818892276887,-0.573803015173,-0.0120948556688,0.0,-0.00634269905491,0.0120245981175,-0.999907585334,0.0,0.265186292842,-0.259562057759,0.304905088592,1.0,-0.0195668965517,-0.0257164926108,2.832
-0.646554929019,-0.519388856514,-0.126036861453,-2.64060676683,-0.0676976060667,2.11072677322,-0.894758056428,-0.0943542315333,0.0144206492254,0.0160648599171,0.00924176667321,0.0131346109911,0.00450541980161,-0.0876720396054,0.573811809757,0.818952052774,0.00618782204302,0.0,0.818950644316,-0.573719285437,-0.0121148914265,0.0,-0.00637156503429,0.0120194200346,-0.999907464069,0.0,0.264871070133,-0.259979218153,0.304905263744,1.0,-0.0192068965517,-0.0252433497537,2.85
-0.648084172567,-0.51915241083,-0.125824904445,-2.64041673303,-0.0676031755312,2.11080670643,-0.896268028938,-0.0852554891386,0.017138046609,0.00832858901137,0.0116837320047,0.00139685106319,0.0018352818154,-0.0864334889362,0.573727508703,0.819011374607,0.00615312307285,0.0,0.819009826373,-0.573635744002,-0.0120699796582,0.0,-0.00635592167068,0.0119645779741,-0.999908221355,0.0,0.264578801633,-0.260383975616,0.304916492409,1.0,-0.0188668965517,-0.0247964926108,2.867
-0.649366356308,-0.518913913854,-0.125711387592,-2.64024556639,-0.0675616466318,2.11085677123,-0.897527318273,-0.0904656264245,0.0204142031926,0.00422381871032,0.0142989736755,0.000958631585366,0.00124599391111,-0.076099066668,0.573692548781,0.819036069763,0.00612558578593,0.0,0.819034123758,-0.573600838235,-0.0120801240762,0.0,-0.0063805390493,0.0119475709853,-0.999908267927,0.0,0.26431506554,-0.260740902748,0.30491344937,1.0,-0.0185668965517,-0.0244022068966,2.882
-0.650880267935,-0.518681873744,-0.125642741629,-2.64004357013,-0.0675176052379,2.1108774968,-0.899068705666,-0.0855741732573,0.0114383110005,0.00381821219951,0.0126806659874,0.00499193532816,-0.000279090551536,-0.0880527072138,0.573650638799,0.819065432942,0.00612438295638,0.0,0.819063470066,-0.573558940134,-0.012079780488,0.0,-0.00638155890256,0.0119460621484,-0.999908279446,0.0,0.263983354288,-0.261172191146,0.304923204815,1.0,-0.0182068965517,-0.0239290640394,2.9
-0.65213528606,-0.518489684892,-0.125624892995,-2.63987996958,-0.067493651694,2.11091947935,-0.900333365477,-0.0814872152756,0.00988037180942,-0.000241926880506,0.0104022966313,0.000107368705864,0.00411110981591,-0.0840307029194,0.573648802129,0.819066679516,0.0061297000929,0.0,0.819064912399,-0.573557317865,-0.0120589925562,0.0,-0.00636150712541,0.0119384787571,-0.99990849779,0.0,0.263701217104,-0.261541694514,0.304930773158,1.0,-0.0179068965517,-0.0235347783251,2.915
-0.653504203296,-0.518260698861,-0.125624826124,-2.63968672607,-0.0674625678615,2.11100476863,-0.901655489044,-0.0807912869977,0.00978713439605,-0.00138508703072,0.0132794292879,0.000110761813015,0.0107123318401,-0.0770328359949,0.573710366926,0.819023461606,0.00614256647564,0.0,0.819022220231,-0.573619489194,-0.0120013034855,0.0,-0.00630597468989,0.0119164000867,-0.999909112916,0.0,0.263398271363,-0.261957163038,0.304941520793,1.0,-0.0175668965517,-0.0230879211823,2.932
-0.655019632694,-0.51798699706,-0.125633104717,-2.63947242402,-0.067431497676,2.11104762777,-0.903152475273,-0.0805889311095,0.0164470396394,0.00116843855343,0.00928243595227,7.67904060956e-05,-0.000749056660845,-0.0748265847168,0.573755849116,0.818991430006,0.00616523175043,0.0,0.818990419471,-0.573664744111,-0.012008375415,0.0,-0.00629810171668,0.0119393712401,-0.999908888514,0.0,0.263051537021,-0.262411332724,0.304941525588,1.0,-0.0171868965517,-0.0225884926108,2.951
-0.656280509506,-0.517794790768,-0.125635384252,-2.63931404106,-0.0674066011121,2.11105817461,-0.904308391499,-0.0767551994206,0.00930457861468,-0.000502466330396,0.00977214710938,0.00387017883302,0.00058008222476,-0.062007046741,0.573862321424,0.818916684628,0.00618438271747,0.0,0.818915815962,-0.573770907993,-0.0120240762489,0.0,-0.00629841903437,0.0119648834896,-0.999908581562,0.0,0.262755684967,-0.262779882995,0.304943517471,1.0,-0.0168668965517,-0.0221679211823,2.967
-0.657399717364,-0.517603027678,-0.125629668729,-2.63914679155,-0.0673809660688,2.1110944159,-0.905479591555,-0.073920050457,0.0110413057741,-0.000519642814943,0.0136386430242,-2.66877448393e-05,0.0050957795677,-0.0781673834689,0.573835285073,0.818935542372,0.00619596201549,0.0,0.818934928732,-0.573744026245,-0.0120050719389,0.0,-0.00627660475038,0.0119632539197,-0.99990873823,0.0,0.262504494267,-0.263115046765,0.304952071938,1.0,-0.0165668965517,-0.021773635468,2.982
-0.65860287666,-0.517371582892,-0.125610193144,-2.63896362485,-0.0673539764566,2.11116678313,-0.90674892366,-0.0739346385169,0.011102100793,0.000465658309569,0.0100838609354,0.00183636627501,0.00907113601811,-0.0706629711891,0.573788345128,0.81896841575,0.00619805621204,0.0,0.81896801831,-0.573697448042,-0.0119737210701,0.0,-0.00625041068352,0.0119466214207,-0.99990910117,0.0,0.262242333977,-0.263477429884,0.304956627675,1.0,-0.0162268965517,-0.0213267783251,2.999
-0.659804324838,-0.517141099287,-0.125546897112,-2.63879642375,-0.0673216465445,2.11120522048,-0.907958140537,-0.0685216288076,0.0136531740305,0.00642858750777,0.0106081102506,0.00208991344106,0.000255649869335,-0.0737720131599,0.573759676717,0.818988570403,0.00618884677908,0.0,0.818987947071,-0.573668622289,-0.0119917160498,0.0,-0.00627085191228,0.0119491841011,-0.999908942562,0.0,0.261981374783,-0.263820145035,0.304952413268,1.0,-0.0158868965517,-0.0208799211823,3.016
-0.660995305358,-0.516918458749,-0.125494107537,-2.63863139606,-0.0673007519724,2.11121260645,-0.909192083103,-0.0669788711519,0.0165131248741,0.0017223180374,0.0121995134103,0.0011075538761,-0.000440772459526,-0.0805137528722,0.573700770983,0.819029874283,0.00618363220412,0.0,0.819028913248,-0.573609238424,-0.0120344405592,0.0,-0.00630969926023,0.011968971831,-0.999908461515,0.0,0.261700094954,-0.264177386517,0.304948676132,1.0,-0.0155268965517,-0.0204067783251,3.034
-0.662123255968,-0.516686891559,-0.125467197128,-2.63845160946,-0.0672710302116,2.11126405476,-0.910332021309,-0.0617308973088,0.0093277373461,0.000736938867224,0.00517583971774,0.00238856923981,0.00570478654865,-0.0595088924238,0.573697791731,0.819031976264,0.00618162778642,0.0,0.819031023614,-0.573606333861,-0.0120292566147,0.0,-0.00630664638871,0.01196433324,-0.999908536288,0.0,0.261468388715,-0.264494663382,0.304948499744,1.0,-0.0152068965517,-0.0199862068966,3.05
-0.663251639622,-0.516456820453,-0.125456418848,-2.63827913276,-0.0672478834764,2.11133981542,-0.911454125776,-0.063139295758,0.0126912547049,-0.00103387514549,0.00647355623172,0.00087410825702,0.00706623765385,-0.0610503837475,0.573714188546,0.819020471598,0.00618416242697,0.0,0.81901970468,-0.573623006437,-0.0120048628434,0.0,-0.006284971589,0.0119525411529,-0.999908813789,0.0,0.261220046248,-0.264836508244,0.304948721432,1.0,-0.0148668965517,-0.0195393497537,3.067
-0.664312063468,-0.516245980817,-0.125444285082,-2.63813562732,-0.0672227173502,2.11135441619,-0.912555942307,-0.0633382691473,0.0181056800029,0.00281361484615,0.00866955762248,0.00184539676079,-0.000550109434702,-0.0606345180161,0.573690052488,0.819037267038,0.00619885320285,0.0,0.81903638631,-0.573598232462,-0.0120504157066,0.0,-0.00631420987467,0.0119905208004,-0.999908174866,0.0,0.260974099523,-0.265143975828,0.304937677081,1.0,-0.0145468965517,-0.0191187783251,3.083
-0.665426711357,-0.51604316211,-0.125440821133,-2.6379671842,-0.0672014919971,2.11137863354,-0.913623432611,-0.0625982183672,0.00956610838913,-0.000614680117988,0.0100555222474,0.000230603174972,0.000696882733188,-0.0626910508769,0.573744019088,0.81899939099,0.00620846355214,0.0,0.818998607398,-0.57365209234,-0.0120542496862,0.0,-0.00631104655216,0.0120010077219,-0.999908069027,0.0,0.260718424294,-0.265475624413,0.304941520621,1.0,-0.0142068965517,-0.0186719211823,3.1
-0.666640167329,-0.515818269481,-0.125423836986,-2.63778288515,-0.0671747815021,2.11143868474,-0.914831643817,-0.0620702913488,0.0174489661929,0.00427145413724,0.00944275965672,-0.000323468889807,0.00142401644727,-0.068562835382,0.573762872705,0.818986156673,0.00621192268232,0.0,0.818985586468,-0.573671247459,-0.0120272980454,0.0,-0.00628671020571,0.0119885230347,-0.999908372097,0.0,0.260459731348,-0.265822247895,0.304948340419,1.0,-0.0138468965517,-0.0181987783251,3.118
-0.667690422713,-0.51563183794,-0.125404687152,-2.63760908521,-0.0671467944475,2.11149052063,-0.915893391427,-0.0618117766618,0.011879297133,0.00331884242737,0.0122499425793,-0.000350940067012,0.0046479764972,-0.0626870125178,0.573755006882,0.818991652392,0.00621387891487,0.0,0.818991385961,-0.573663906731,-0.0119824345463,0.0,-0.00624895612626,0.0119643254706,-0.999908898582,0.0,0.260218839963,-0.266154159516,0.304962817383,1.0,-0.0134868965517,-0.017725635468,3.136
-0.668637045551,-0.515442557451,-0.125370588283,-2.63745211737,-0.0671314040809,2.11153454217,-0.916805635053,-0.0613971015339,0.00948409323631,0.00599867635556,0.00931826028971,-0.000404110491602,0.00187838025965,-0.0549545201726,0.573773620097,0.818978716633,0.00620011969826,0.0,0.818978384947,-0.573682791845,-0.0119668806114,0.0,-0.00624383876021,0.0119442743909,-0.999909170268,0.0,0.260013788664,-0.266435478833,0.304968817093,1.0,-0.0131668965517,-0.0173050640394,3.152
-0.669524052612,-0.515275687275,-0.125337248942,-2.63731356117,-0.0671095071605,2.11156382597,-0.917677289841,-0.0598217907064,0.0116719883046,0.00135530235593,0.00822267802972,0.00539971814861,0.00122131956512,-0.0496385786045,0.573779015717,0.818974971988,0.00619542425924,0.0,0.81897462011,-0.573688284258,-0.0119612299469,0.0,-0.00624182582167,0.0119372278035,-0.999909266985,0.0,0.259818833161,-0.266694139915,0.304973445292,1.0,-0.0128668965517,-0.0169107783251,3.167
-0.670502320352,-0.515081626057,-0.125300149833,-2.63715552391,-0.0670928154743,2.11161049746,-0.918711767409,-0.0581817304332,0.0109865181962,0.00166687231678,0.0114322914832,0.000496758519617,0.00221731499015,-0.0602665602198,0.573721915638,0.819015071512,0.00618247958878,0.0,0.819014653853,-0.573631446455,-0.0119460166401,0.0,-0.00623762305719,0.0119174623795,-0.999909528982,0.0,0.259606107683,-0.266983177584,0.304978441564,1.0,-0.0125268965517,-0.0164639211823,3.184
-0.671563220121,-0.514863574457,-0.125292624031,-2.63698414745,-0.0670718449087,2.11163854273,-0.919758092383,-0.0581138646978,0.0156406646015,0.000366870037452,0.0120765786148,-0.000152652950268,-0.000140744210274,-0.0597398622919,0.573746376401,0.818997883106,0.00618950211247,0.0,0.818997472799,-0.573655712254,-0.0119586892384,0.0,-0.00624361813712,0.0119306709074,-0.999909334052,0.0,0.259364327829,-0.26729980984,0.304978340349,1.0,-0.0121468965517,-0.0159644926108,3.203
-0.672446976178,-0.514694148652,-0.125269432191,-2.63683770801,-0.0670513572593,2.11167267557,-0.920605365458,-0.0580171810297,0.00942161595222,0.000700186291763,0.0102250260829,0.00573279077401,0.00056176872248,-0.0513214016976,0.573776043063,0.818977122155,0.00618649297868,0.0,0.818976776589,-0.573685583771,-0.0119430851424,0.0,-0.00623213165142,0.0119194796999,-0.999909539178,0.0,0.25916946656,-0.26756220227,0.304985748624,1.0,-0.0118268965517,-0.0155439211823,3.219
-0.673352073786,-0.514509273691,-0.125253369995,-2.63668477729,-0.0670304021278,2.11171572458,-0.92151926577,-0.0494398440641,0.0102888660335,0.00396042103237,0.0154724491944,0.000528637805349,0.00933651496845,-0.0478510388625,0.57377425098,0.818978375346,0.00618680279399,0.0,0.818978133344,-0.573683981286,-0.011927012242,0.0,-0.0062188151819,0.0119104980332,-0.999909729113,0.0,0.258969570498,-0.267834183428,0.304990981702,1.0,-0.0114868965517,-0.0150970640394,3.236
-0.674227637067,-0.514339648141,-0.125238164573,-2.63653965935,-0.0670108506992,2.11173915923,-0.922406073876,-0.0498409423319,0.00932671404771,-0.00020494077168,0.0113174210807,0.00071885895424,0.000112093458173,-0.0382681152882,0.573764587805,0.818985142699,0.0061871416378,0.0,0.818984881107,-0.573674272803,-0.0119306388387,0.0,-0.00622173175964,0.0119127828922,-0.99990968375,0.0,0.258761191456,-0.268110023627,0.304994734253,1.0,-0.0111268965517,-0.0146239211823,3.254
-0.675056753289,-0.514161396461,-0.125216921343,-2.63639389308,-0.0669941628178,2.11177667926,-0.92320345662,-0.0447562581381,0.0101032699548,0.00420681319451,0.00875818938078,0.00063231347248,0.00654979433526,-0.0482623191418,0.573795581895,0.818963456413,0.00618337769487,0.0,0.81896325457,-0.573705484042,-0.0119143672117,0.0,-0.00621011322317,0.0119005995118,-0.999909901054,0.0,0.258590962913,-0.268342889512,0.305000649304,1.0,-0.0108068965517,-0.0142033497537,3.27
-0.67577020872,-0.514000268054,-0.125204690361,-2.63627435319,-0.0669738758812,2.11182149957,-0.923905658398,-0.0444312179606,0.0125510686259,0.00250611287485,0.0070918911742,0.00435814051109,0.00189285736553,-0.0451904315594,0.57381099181,0.818952636443,0.00618642407708,0.0,0.818952518519,-0.573720963193,-0.011906960409,0.0,-0.00620207484793,0.0118989614322,-0.99990997044,0.0,0.258434161328,-0.268557723397,0.304999522084,1.0,-0.0105068965517,-0.0138090640394,3.285
-0.67662108215,-0.513805382346,-0.125188301364,-2.63614406669,-0.0669565705608,2.11185571835,-0.924773755879,-0.0410226861694,0.0135294922393,0.000838056416045,0.00836204246622,0.00253358141398,0.000378868428169,-0.0478866339986,0.573799511273,0.818960663103,0.00618870376347,0.0,0.818960411618,-0.573709162879,-0.0119326247122,0.0,-0.00622195398332,0.0119154670193,-0.999909650386,0.0,0.258240936673,-0.268808062595,0.304989980957,1.0,-0.0101468965517,-0.0133359211823,3.303
-0.677449807775,-0.513623577439,-0.125180210868,-2.63601563568,-0.0669302337059,2.11189200854,-0.925587012403,-0.0480392165814,0.0122667762906,0.000460526823242,0.00903096143164,0.0048206802826,0.00766538117758,-0.0351072533388,0.573824411808,0.818943121428,0.00620122401857,0.0,0.818942951001,-0.573733849463,-0.0119440314753,0.0,-0.0062237501177,0.0119324552702,-0.999909436622,0.0,0.258052586236,-0.269053477727,0.304984408842,1.0,-0.00978689655173,-0.0128627783251,3.321
-0.678108899499,-0.513480909242,-0.125165263709,-2.63591918888,-0.0669135440801,2.11192125368,-0.926229934897,-0.0433072315413,0.0104350643949,0.00120214672728,0.00283931954763,0.000360668309233,0.00390961304187,-0.0423470746284,0.573839235251,0.818932712015,0.00620420662091,0.0,0.818932496841,-0.573748497169,-0.0119571951119,0.0,-0.00623260399316,0.0119425640491,-0.999909260789,0.0,0.257902990581,-0.269245756742,0.304978324617,1.0,-0.00948689655173,-0.0124684926108,3.336
-0.678897607386,-0.513310023248,-0.125142887266,-2.63579846634,-0.0668864599039,2.11195143801,-0.927023445877,-0.0458716192889,0.00180832330998,0.00209031992713,0.00174447521944,-0.000152943321484,0.00589656226102,-0.0397514143005,0.573837283772,0.818934023082,0.00621164172298,0.0,0.818933805336,-0.573746324554,-0.0119718185851,0.0,-0.0062403430954,0.0119570294621,-0.999909039645,0.0,0.257725900415,-0.269474779561,0.304973086857,1.0,-0.00910689655173,-0.0119690640394,3.355
-0.679454063061,-0.513180647843,-0.125119956886,-2.63570871926,-0.0668695654628,2.11197057032,-0.927584979375,-0.0397700584604,0.010625089705,0.000544713104557,0.00817094998449,0.00247033020709,0.000778253177939,-0.0374602613322,0.573828747117,0.818940004585,0.00621166441884,0.0,0.818939678429,-0.573737581486,-0.011989061153,0.0,-0.00625457689491,0.0119668768017,-0.999908832908,0.0,0.257602743164,-0.269635720841,0.304968187242,1.0,-0.00882689655173,-0.0116010640394,3.369
-0.680100803331,-0.51302511005,-0.125067346294,-2.63562961126,-0.0668431171462,2.11199447513,-0.928278005668,-0.0389148169185,0.0108901553743,0.00541015471279,0.00652716062276,0.00218310071396,0.00320027141996,-0.0368143521585,0.573769055631,0.818981841064,0.00620980746815,0.0,0.818981183983,-0.573677325135,-0.0120371844403,0.0,-0.00629593095239,0.0119925103143,-0.999908266267,0.0,0.257460531873,-0.269809999527,0.304949884425,1.0,-0.00848689655173,-0.0111542068966,3.386
-0.680815660203,-0.512861706481,-0.125030448937,-2.63553691938,-0.0668183869076,2.1120135693,-0.928999751098,-0.040122872096,0.011077075265,0.00291535182028,0.00529025754691,0.00285819088533,0.000278019397979,-0.0368058748454,0.573752735967,0.818993246575,0.00621344798606,0.0,0.818992335301,-0.573660419468,-0.012084070352,0.0,-0.00633248475135,0.0120222661683,-0.999907678115,0.0,0.257298201174,-0.270007998228,0.304934053879,1.0,-0.00810689655173,-0.0106547783251,3.405
-0.681396599816,-0.512736317141,-0.12500899969,-2.63545582686,-0.0667958946686,2.11203542422,-0.929555294486,-0.0406799223008,0.00698216774363,-0.000394113889128,0.00289583653022,0.000204493200492,0.00111729735103,-0.0341629412618,0.57377217546,0.818979579323,0.00621982480393,0.0,0.818978630347,-0.573679597178,-0.012102467389,0.0,-0.00634360919707,0.0120381944137,-0.999907415963,0.0,0.257166872815,-0.270172992208,0.30492688147,1.0,-0.00778689655173,-0.0102342068966,3.421
-0.682039655802,-0.512585338487,-0.124996200129,-2.63536103749,-0.0667714299591,2.1120598534,-0.930160788953,-0.032513903759,0.0082998219499,-0.000317025927401,0.00767391584801,-0.000219737452512,0.000672061481099,-0.0375197170538,0.573809322472,0.81895346268,0.00623171803219,0.0,0.818952489301,-0.573716342348,-0.0121295379628,0.0,-0.0063584110585,0.0120637552201,-0.999907013886,0.0,0.257019744833,-0.270359077247,0.304916475523,1.0,-0.00742689655173,-0.00976106403942,3.439
-0.682601121998,-0.512470969531,-0.124997585434,-2.63527427065,-0.0667509232114,2.11208164846,-0.930692443677,-0.0374665261967,0.00165863031634,-0.000741958081489,0.00701080597542,-0.000284056985797,7.58950799939e-05,-0.0334006816924,0.573847984111,0.818926267122,0.00624556247831,0.0,0.818925455883,-0.573754898182,-0.0121310106772,0.0,-0.00635110350492,0.0120762386272,-0.99990690964,0.0,0.25688958494,-0.270525684651,0.304915404841,1.0,-0.00710689655173,-0.00934049261084,3.455
-0.683083035137,-0.512376131791,-0.124993794712,-2.63519776646,-0.0667315010574,2.11209905833,-0.931183587757,-0.0308926137643,0.00731408874398,-0.000249031624991,0.00588536768964,0.00484281576639,0.000695214475023,-0.0310198465027,0.573849964517,0.818924795503,0.00625655145124,0.0,0.818924136514,-0.573756845522,-0.0121279740209,0.0,-0.00634228152902,0.0120835111014,-0.999906877776,0.0,0.256779406803,-0.270667804572,0.304916643296,1.0,-0.00680689655173,-0.00894620689656,3.47
-0.683623256861,-0.512266081477,-0.12497641424,-2.63509668953,-0.0667100522236,2.1121222094,-0.931749430842,-0.0277741327655,0.00863819046314,-0.000770446806994,0.00754280629933,0.000145279900375,0.000638676363107,-0.0324000683972,0.573830903933,0.818938130275,0.0062593429311,0.0,0.818937616278,-0.57373798359,-0.012110067431,0.0,-0.00632629498837,0.0120753748085,-0.99990707734,0.0,0.256662630777,-0.270828814596,0.304924218507,1.0,-0.00644689655173,-0.00847306403942,3.488
-0.684043219648,-0.512186383359,-0.124945830716,-2.6350277036,-0.0666908765437,2.11214058323,-0.932170235883,-0.0287152608891,0.00769484644355,0.00118706758504,0.00298398077751,0.000126652671574,-0.000237349826463,-0.0260469137976,0.573820155038,0.818945685319,0.00625628253363,0.0,0.81894519825,-0.573727378317,-0.0120997741322,0.0,-0.00631977891816,0.0120668791331,-0.999907221107,0.0,0.256573961285,-0.270947690423,0.304928349889,1.0,-0.00614689655173,-0.00807877832513,3.503
-0.684492691181,-0.512099547869,-0.124908258141,-2.63494384686,-0.0666715688357,2.11217162286,-0.932622592424,-0.0280015915847,0.00895155960103,0.00431767152266,0.00474727876532,0.00298038418366,0.000328325191361,-0.0296173720867,0.573803512626,0.818957422535,0.00624626882736,0.0,0.818957003825,-0.57371116386,-0.0120695173876,0.0,-0.00630098800577,0.0120411889068,-0.999907649396,0.0,0.256483920108,-0.271078257907,0.304937835011,1.0,-0.00580689655173,-0.00763192118227,3.52
-0.684991482431,-0.512004963617,-0.124844175254,-2.63486581634,-0.0666491789634,2.11220545288,-0.933104171345,-0.0251482565503,0.00313388108029,0.00374697973486,0.00105261537843,0.00306897173034,8.78962598509e-05,-0.0272762809982,0.573785536398,0.818970160659,0.00622744502279,0.0,0.818969634216,-0.573693536724,-0.0120503549406,0.0,-0.00629635738624,0.0120146390648,-0.999907997934,0.0,0.25638573438,-0.271214224473,0.304942664641,1.0,-0.00542689655173,-0.00713249261084,3.539
-0.685379665828,-0.511936406048,-0.124821937254,-2.63481462303,-0.0666340290747,2.11222130678,-0.933498137552,-0.0266770089827,0.00664179286112,0.00106913524332,0.00104547392997,1.22117800775e-05,8.9700069729e-05,-0.0263993241495,0.573774091563,0.818978178501,0.00622751079636,0.0,0.818977658278,-0.573682104296,-0.0120492885037,0.0,-0.00629561406286,0.0120139930807,-0.999908010376,0.0,0.256299164725,-0.271322157965,0.304942419264,1.0,-0.00510689655173,-0.00671192118227,3.555
-0.685716309395,-0.511883830873,-0.124816657942,-2.63476724045,-0.066615382962,2.11223702004,-0.93382894991,-0.0207798638465,0.00531942264631,9.07662436613e-05,0.00281610109835,0.000718088423598,0.000384683865677,-0.0158555263706,0.57378547645,0.818970125634,0.00623756642448,0.0,0.818969814153,-0.573693591533,-0.0120355075404,0.0,-0.00627839011642,0.0120144093584,-0.999908113671,0.0,0.256222482987,-0.271419379107,0.304945950889,1.0,-0.00480689655173,-0.00631763546799,3.57
