nelsonifechukwu/NELSON_IML_WORK/CNN-GradCAM/train2dof/data_sample_2022-02-22-11-35-09/robot_state.csv
position_joint1,position_joint2,position_joint3,position_joint4,position_joint5,position_joint6,position_joint7,velocity_joint1,velocity_joint2,velocity_joint3,velocity_joint4,velocity_joint5,velocity_joint6,velocity_joint7,ee_T_00,ee_T_10,ee_T_20,ee_T_30,ee_T_01,ee_T_11,ee_T_21,ee_T_31,ee_T_02,ee_T_12,ee_T_22,ee_T_32,ee_T_03,ee_T_13,ee_T_23,ee_T_33,v_x,v_y,time
0.465076162308,0.547764700372,-0.124003783016,-1.3558452153,0.0795385500515,1.89409785713,0.159144524116,0.00607178613913,0.00105989387007,0.000256394388906,0.000445454626369,-2.20706644934e-05,0.000253143594309,-0.00175097404144,0.573813209448,0.818972093326,0.00196415804796,0.0,0.81892883617,-0.573754289469,-0.0119299416138,0.0,-0.00864351156591,0.00845422652029,-0.999926905209,0.0,0.661674873404,0.260888114414,0.303220587623,1.0,0.0,0.0,0.0
0.46507029009,0.54776653043,-0.124006528644,-1.35585110079,0.0795396131006,1.89409634779,0.159149685821,0.000499916071447,0.00122299408255,-0.000447033160151,-0.000700504726506,0.000351338487125,-0.000487346430064,0.00054093556207,0.573824759562,0.81896401936,0.00195632543061,0.0,0.818920656693,-0.573765867476,-0.0119345826113,0.0,-0.0086516875588,0.00845059700395,-0.999926865182,0.0,0.661675276176,0.260881985101,0.303216451836,1.0,-0.00026,-0.000341714285714,0.014
0.465069461952,0.547761942071,-0.124006371453,-1.3558540096,0.0795357115734,1.8940954568,0.159151630609,0.000712498104517,0.00146112345685,6.38590925861e-05,-4.39902847171e-05,-1.26141771141e-05,-0.000497619618884,0.000977720586707,0.573827817837,0.818961861373,0.0019626495981,0.0,0.81891857864,-0.573768896557,-0.0119315465855,0.0,-0.00864554075998,0.00845406632683,-0.999926889021,0.0,0.66167552106,0.260880470827,0.303221329868,1.0,-0.0006,-0.000788571428571,0.031
0.465066348615,0.547736032942,-0.124006363292,-1.35587310777,0.0795385081619,1.89410114306,0.159150104711,-0.000728070448875,-0.00293733289907,0.000658308351503,-0.0030922301617,-7.73761195554e-05,0.000155616621736,0.000411956372752,0.573829103571,0.81896094678,0.00196836122887,0.0,0.818917735011,-0.573770154944,-0.011928934624,0.0,-0.00864011101541,0.00845725860954,-0.999926908958,0.0,0.661673048522,0.260877410614,0.303227991125,1.0,-0.0009,-0.00118285714286,0.046
0.46507128824,0.54764474367,-0.123997042777,-1.35597335534,0.0795361506499,1.89411637702,0.159144221865,-0.000999650758744,-0.000677309893803,0.00188975703063,-0.00857569102444,0.000265152471247,-0.000244161494979,7.94733641519e-05,0.573818521553,0.818968334209,0.00197959268593,0.0,0.818925158658,-0.573759419549,-0.0119356565736,0.0,-0.00863928116431,0.00847020214089,-0.99992680657,0.0,0.661652222329,0.260876026302,0.303245957173,1.0,-0.00124,-0.00162971428571,0.063
0.465067583575,0.547520038002,-0.124001349651,-1.35614822769,0.0795324967386,1.89415322034,0.159148333708,-0.00251435353958,-0.00812392293595,-0.000274473911916,-0.0135647587094,9.73259805063e-05,0.00131008559726,0.000981327921628,0.573836546442,0.818955722661,0.00197210275962,0.0,0.81891237205,-0.573777397631,-0.0119487142654,0.0,-0.00865408655483,0.00847175138478,-0.999926665418,0.0,0.661624931578,0.260853869332,0.303254400261,1.0,-0.00156,-0.00205028571429,0.079
0.46505557587,0.547368096076,-0.124002377925,-1.35636136401,0.0795286423302,1.89424976268,0.159136983545,0.000312647454307,-0.0065789336227,0.00116115407238,-0.00836271111216,0.000104041003485,0.0127197730334,-0.000686562777845,0.573848821284,0.818947038481,0.00200633355784,0.0,0.818904082453,-0.573789477549,-0.0119367540645,0.0,-0.00862452235507,0.00849305050871,-0.99992674017,0.0,0.661602917852,0.260827962772,0.303268996655,1.0,-0.0019,-0.00249714285714,0.096
0.46504183365,0.547169817919,-0.123999578982,-1.35657558837,0.0795264525812,1.89436167961,0.159129197665,0.00096301898134,-0.0153438604425,0.00132182478299,-0.0110199408679,-0.000447917299125,0.00597002007629,-0.00442259740634,0.573867252538,0.818933896687,0.00209671730793,0.0,0.818892045142,-0.573807462797,-0.0118979385859,0.0,-0.00854067760451,0.00854498696898,-0.999927017349,0.0,0.661583831147,0.260801573277,0.303316777323,1.0,-0.00226,-0.00297028571429,0.114
0.465016627911,0.546971656109,-0.124004530394,-1.35684655491,0.0795230016483,1.8944959855,0.159117115456,-0.00266021630143,-0.0104197295037,0.000161447537675,-0.0194125197818,-0.000183264344513,0.00429670961338,-0.0024146194368,0.573891937602,0.818916454975,0.00215188924789,0.0,0.818875293773,-0.573831894261,-0.0118725430487,0.0,-0.00848796160117,0.00857585078621,-0.999927201996,0.0,0.661562205356,0.260764393939,0.303340308335,1.0,-0.00258,-0.00339085714286,0.13
0.464984531057,0.546732542801,-0.124004534283,-1.35719650237,0.0795157778697,1.89463442393,0.159093361598,-0.00381221914432,-0.0187290115632,-0.000433794529653,-0.0231042235483,-0.00102473003806,0.0115897230018,-0.00139748543918,0.573916485549,0.818899169835,0.00218269564236,0.0,0.818858299407,-0.573856204532,-0.011869663581,0.0,-0.00846766724453,0.00859967961934,-0.999927169409,0.0,0.661524625014,0.260712989943,0.303355103896,1.0,-0.00292,-0.00383771428571,0.147
0.46494907682,0.546476389969,-0.124004533959,-1.35757145928,0.0795085430253,1.89477404941,0.158981456513,-0.00793275400054,-0.0167853751545,-4.83944087357e-05,-0.0219154521496,7.76813918159e-05,0.00997105090747,-0.0115189187318,0.573872928369,0.81892962168,0.00220991427909,0.0,0.818888963451,-0.573812399904,-0.011871906172,0.0,-0.00845434218626,0.00862280598929,-0.999927082999,0.0,0.661482843992,0.260656700539,0.303370152118,1.0,-0.00324,-0.00425828571429,0.163
0.464901542081,0.546162675965,-0.124004534392,-1.35809842808,0.0794918888653,1.89495067768,0.158942622487,-0.00284163343975,-0.0172748786711,-0.000412843543116,-0.0286587276204,-0.000791585861093,0.00517229706435,-0.00283072531696,0.573905044433,0.81890717777,0.00218656625093,0.0,0.818866050327,-0.573844437211,-0.0119037979288,0.0,-0.0084935202135,0.00862232055531,-0.999926755169,0.0,0.661418710466,0.260576109135,0.303356787654,1.0,-0.00362,-0.00475771428571,0.182
0.464853565616,0.545873116978,-0.124002028629,-1.35857818816,0.0794700286419,1.89512055239,0.158894115854,-0.00346625043255,-0.0232952778519,0.000436049623804,-0.0309151750093,-0.000424725073677,0.0129040484626,-0.00536967491101,0.573923870938,0.818894019035,0.00217321343308,0.0,0.81885262631,-0.573863222688,-0.0119216161996,0.0,-0.00851557689005,0.00862180764085,-0.999926571996,0.0,0.661363218878,0.260500666973,0.303348090868,1.0,-0.00392,-0.005152,0.197
0.464783860062,0.54549853555,-0.124002357124,-1.35921393532,0.0793840744391,1.8953277288,0.158782310434,-0.00526935255025,-0.01495825249,-1.73075777326e-05,-0.0392382050328,-0.0051293736136,0.00827609647216,-0.00132172264239,0.57390219171,0.818909400524,0.00210118648417,0.0,0.818867447971,-0.573842220109,-0.0119145279311,0.0,-0.00855133404834,0.0085585316851,-0.999926810432,0.0,0.661291424994,0.260383964446,0.303328536532,1.0,-0.00428,-0.00562514285714,0.215
0.464711067498,0.545084251298,-0.124002824499,-1.35994877696,0.0793462729312,1.8955636198,0.158716615102,-0.00836694764324,-0.0270540297221,-0.000478420330653,-0.0430029801614,-0.000314251667365,0.0122310238791,0.000500884695818,0.573939178315,0.818883653706,0.00203179449044,0.0,0.818840679675,-0.573879372104,-0.0119647182779,0.0,-0.00863187346284,0.00853090080496,-0.999926354534,0.0,0.661201684736,0.260263648476,0.303292481787,1.0,-0.00464,-0.00609828571429,0.233
0.464656657447,0.544737074503,-0.124007730582,-1.36053780042,0.0793294033237,1.89576134219,0.158627791262,-0.00217635624634,-0.0213013633865,2.9972093957e-05,-0.0382569812459,-0.00353064235069,0.0119274460111,-0.0130365025538,0.573942738976,0.81888122855,0.00200319883212,0.0,0.818837697663,-0.573882871401,-0.0120009041348,0.0,-0.00867788069994,0.00852829070499,-0.999925978583,0.0,0.661131070288,0.260170154045,0.30327516736,1.0,-0.00492,-0.00646628571429,0.247
0.464587336349,0.544269341195,-0.124016552705,-1.36128294168,0.0793006983482,1.8960341693,0.158547042916,-0.00105869097634,-0.0295067057569,0.00199896804641,-0.0445432580401,-0.00102293826612,0.016703514929,-0.000270723245363,0.573973486121,0.818859671933,0.00200544580257,0.0,0.818816057023,-0.573913493765,-0.0120130486263,0.0,-0.00868621588652,0.00853742699553,-0.999925828246,0.0,0.661048080433,0.26005077491,0.303275462243,1.0,-0.00526,-0.00691314285714,0.264
0.464513890393,0.543758631488,-0.124011992639,-1.36210774057,0.0792657003489,1.89632741511,0.158450033566,-0.00488324561003,-0.0282562032463,0.000213391465086,-0.0487040463247,0.000705650993844,0.0158176942915,-0.0127009211876,0.573987607248,0.818849795489,0.00199651054694,0.0,0.818805879417,-0.573927470095,-0.0120390117531,0.0,-0.00871245780647,0.00854516264478,-0.999925533865,0.0,0.660950211575,0.259927900089,0.303269524443,1.0,-0.0056,-0.00736,0.281
0.464439800966,0.543218508495,-0.124020413545,-1.36296078834,0.0792133739697,1.89662195796,0.158321252477,-0.00311708351231,-0.0328675545617,0.00139739452743,-0.054129299948,-0.00490859330087,0.0258920147731,-0.00999258900054,0.573982152059,0.818853662122,0.00197890067434,0.0,0.818809526165,-0.573922101113,-0.0120469339312,0.0,-0.00872910919637,0.00853523211668,-0.999925473456,0.0,0.660850862484,0.25979140428,0.30327139759,1.0,-0.00594,-0.00780685714286,0.298
0.464368182593,0.54269730265,-0.12402013354,-1.36379793957,0.0791697444999,1.89692565181,0.15822044772,-0.00167092779943,-0.0351790544593,-0.00120279770855,-0.0586448321111,-0.00199383100142,0.0207684585833,-0.0124166192576,0.573987715677,0.818849770261,0.00197557493502,0.0,0.818805488364,-0.5739275782,-0.0120604356704,0.0,-0.00874201635084,0.00854031794757,-0.999925317271,0.0,0.660745666729,0.259657873717,0.303273624914,1.0,-0.00628,-0.00825371428571,0.315
0.464289584138,0.542066760618,-0.124023459091,-1.36478120312,0.0791099915751,1.89728653011,0.158090922287,-0.00128060241775,-0.0326707701195,0.000172313955614,-0.0577536193643,-0.004896412775,0.00960589192252,-0.00804338853704,0.573992323307,0.818846535933,0.00197744183971,0.0,0.818802305183,-0.573932203333,-0.0120564466364,0.0,-0.00873763023833,0.00853960616628,-0.999925361687,0.0,0.660639654804,0.259517777841,0.303277206433,1.0,-0.00662,-0.00870057142857,0.332
0.464207851958,0.541464954112,-0.124021198973,-1.36568235632,0.0790571043808,1.89762296905,0.157976911817,-0.00534668629522,-0.0371422722704,-2.30417072486e-05,-0.0539624724866,-0.00413185343836,0.015867431108,-0.00563481262508,0.574000212907,0.818840924684,0.00201060848042,0.0,0.818797102632,-0.573939925316,-0.0120421655297,0.0,-0.00870681710969,0.00855865075679,-0.999925467639,0.0,0.660538361304,0.259380301815,0.303302870492,1.0,-0.00694,-0.00912114285714,0.348
0.464125923599,0.540778438514,-0.124026170046,-1.36672345831,0.0789927532196,1.89800801238,0.157842674159,-0.00433184179755,-0.0437767300094,-0.000725379263958,-0.059986664205,-0.000835535920106,0.0158881423982,-0.00514741523105,0.574001394156,0.818840037218,0.00203466395483,0.0,0.818796561347,-0.573941035376,-0.012026052514,0.0,-0.00867980326442,0.00856911174092,-0.999925612903,0.0,0.660418875887,0.259224454096,0.30332616175,1.0,-0.00728,-0.009568,0.365
0.464019555849,0.539967127364,-0.12403040077,-1.3679567204,0.0789305502189,1.89846068198,0.157691705031,-0.00522985323673,-0.0454620283277,-0.00187167739653,-0.0642178987508,-0.000396448655709,0.0299734471532,-0.00979625399173,0.574019490296,0.818827271277,0.00206675482048,0.0,0.818784111902,-0.573958891753,-0.0120214631545,0.0,-0.0086574362477,0.00859294560357,-0.999925602274,0.0,0.660277606903,0.259036667128,0.303351933096,1.0,-0.00766,-0.0100674285714,0.384
0.463925266778,0.539321015453,-0.124029855843,-1.36897156821,0.0788650407993,1.89885217052,0.157562733593,-0.009966761639,-0.0447203956035,0.000300989841378,-0.0711809227152,-0.00311647291888,0.0279292622386,-0.00549651175376,0.574029459896,0.818820241714,0.00208274645864,0.0,0.818777340261,-0.573968841558,-0.012007618313,0.0,-0.0086368156428,0.00859819780264,-0.999925735447,0.0,0.660166002542,0.258878707796,0.303359326127,1.0,-0.00796,-0.0104617142857,0.399
0.46381664225,0.538608623259,-0.124032946624,-1.37007703132,0.0787978705092,1.89928065778,0.157432030593,-0.0073776802415,-0.0399025398896,-0.000726088177946,-0.0684179683851,-0.00181392526721,0.0257622207143,-0.00930376716194,0.574056799323,0.818801003344,0.00211068126249,0.0,0.818758506078,-0.573996100216,-0.0119888516449,0.0,-0.00860512661765,0.00861058582055,-0.999925902059,0.0,0.66004700157,0.258701543021,0.303373644089,1.0,-0.00828,-0.0108822857143,0.415
0.463711546269,0.537826146486,-0.124047358732,-1.37131355156,0.0787315503555,1.89974938224,0.15728193941,-0.00842039804636,-0.0500792180176,-0.00234192300487,-0.07309970875,-0.00434209400874,0.0214229304244,-0.00944643582068,0.574077828163,0.818786204629,0.00213195248276,0.0,0.818743976998,-0.574017030145,-0.0119789871487,0.0,-0.00858461767068,0.00862256019141,-0.999925975158,0.0,0.659901273382,0.258499258051,0.303383024403,1.0,-0.00864,-0.0113554285714,0.433
0.463578764699,0.536898511413,-0.12405135824,-1.37276282343,0.0786477960455,1.90028631133,0.157096058329,-0.00246890058128,-0.0483821938902,-0.00185791036685,-0.0833077349336,-0.00624602577543,0.0298674218753,-0.00637985204058,0.57409745751,0.818772429418,0.00213658768918,0.0,0.818730241958,-0.574036617425,-0.0119791343239,0.0,-0.00858187057034,0.00862664560388,-0.999925963501,0.0,0.659744394991,0.258281463505,0.303390665761,1.0,-0.009,-0.0118285714286,0.451
0.463481482945,0.536106712367,-0.124063331694,-1.37399004485,0.0785707062489,1.90075498713,0.156942666233,-0.00480511506175,-0.0500878566419,4.07075240147e-05,-0.0772678551803,-0.00874294826304,0.0328378799372,-7.57786940535e-05,0.57410688298,0.818765760535,0.00215944252291,0.0,0.81872396646,-0.574046043544,-0.0119563178696,0.0,-0.00854996887052,0.00863235793135,-0.99992618749,0.0,0.659606146414,0.258094380561,0.303406455584,1.0,-0.00932,-0.0122491428571,0.467
0.46335002827,0.535157133855,-0.124059901906,-1.37548447392,0.0784945763401,1.90128837081,0.156760682447,-0.00054717565148,-0.0507627198763,-0.000275178328726,-0.0839656599117,-0.00506662938481,0.0289519427402,-0.0139191043244,0.574124687004,0.818753279187,0.00215835450454,0.0,0.818711281236,-0.57406365836,-0.0119791914931,0.0,-0.00856913441644,0.0086447851872,-0.999925916068,0.0,0.659427848027,0.257868613744,0.303411382776,1.0,-0.00968,-0.0127222857143,0.485
0.463232542966,0.534314350874,-0.124064835469,-1.37686824854,0.078417851812,1.90179914086,0.156593769451,-0.00602074296107,-0.0534220800575,0.000112361334538,-0.0870787420804,-6.60476214557e-05,0.0313987422279,-0.0137088948588,0.574143085118,0.818740442908,0.0021335084565,0.0,0.818698057657,-0.574082093696,-0.0119994577913,0.0,-0.00859979795781,0.00863627122033,-0.999925726389,0.0,0.659265915123,0.257657321172,0.303391766932,1.0,-0.01,-0.0131428571429,0.501
0.463101084816,0.533387375023,-0.124068039551,-1.37834867389,0.0783264566438,1.90234378375,0.156410368598,-0.00600024887045,-0.0585765210547,-0.00131981614854,-0.0869133924216,-0.00676592817255,0.0345943402975,-0.00443391703362,0.574159344108,0.818729067842,0.00212319214843,0.0,0.818686555599,-0.574098401344,-0.012004005816,0.0,-0.00860927302916,0.00863060713882,-0.999925693758,0.0,0.659094136726,0.257427408026,0.303388214631,1.0,-0.01034,-0.0135897142857,0.518
0.462987051605,0.532555231736,-0.124062750861,-1.37968953982,0.0782633470175,1.90285352485,0.156248891388,-0.00466403329695,-0.0608735236134,-0.00161702768488,-0.0903125144163,-0.0109416624951,0.0320710585279,-0.0055711051298,0.574173307372,0.818719248939,0.0021334055535,0.0,0.818676681574,-0.574112131061,-0.0120207702328,0.0,-0.00861698787162,0.00864874129576,-0.99992547062,0.0,0.658937056385,0.257231443633,0.303380784583,1.0,-0.01064,-0.013984,0.533
0.462845559517,0.53157900018,-0.124065997411,-1.38126173927,0.0781652347178,1.90341709341,0.156044899271,-0.0123628289796,-0.0565137885616,-0.00126685487186,-0.0917117196205,-0.00171745606708,0.0300811202361,-0.0121364636538,0.574183764585,0.818711994152,0.00210285987894,0.0,0.818669018157,-0.574122705819,-0.0120376191434,0.0,-0.00864821007493,0.00863351793079,-0.999925332628,0.0,0.658751162031,0.256984898729,0.3033695444,1.0,-0.01098,-0.0144308571429,0.55
0.462700583678,0.530520302517,-0.124062856198,-1.3829907319,0.0780582169614,1.90403049815,0.155817250324,-0.00259118780751,-0.0599018978183,0.000549481355797,-0.096315788452,-0.00990705051208,0.035950201878,-0.00986254096638,0.574183843771,0.818712085935,0.00204469997167,0.0,0.818668281668,-0.5741229652,-0.0120752773404,0.0,-0.00871243403028,0.00860752589179,-0.999924999183,0.0,0.658528340381,0.2567051375,0.303342536707,1.0,-0.01136,-0.0149302857143,0.569
0.462560460578,0.529468715886,-0.124065947159,-1.38463058999,0.077960566671,1.90464078819,0.155600073932,-0.0103323917269,-0.0614751515028,0.000957314703565,-0.0970620294242,-0.00455918250337,0.0407716453903,-0.0119120499671,0.574181092888,0.818713947526,0.00207161728044,0.0,0.818670481016,-0.574120085321,-0.01206308608,0.0,-0.0086870269863,0.00862253387498,-0.99992509093,0.0,0.658348528234,0.25647491924,0.303358911861,1.0,-0.01168,-0.0153508571429,0.585
0.46241951098,0.52837972592,-0.124068320971,-1.38632928538,0.0778528683782,1.90528200461,0.155364855682,-0.0070081221078,-0.0628850971353,0.00179987177522,-0.103368895325,-0.012756789409,0.0318908332141,-0.0146407286732,0.574168782282,0.818722523035,0.00209442802851,0.0,0.818679405638,-0.574107729943,-0.0120454184274,0.0,-0.00865959476895,0.0086309344963,-0.999925256401,0.0,0.658150323532,0.256219503622,0.303372863674,1.0,-0.01202,-0.0157977142857,0.602
0.462293076223,0.527391689256,-0.124076931376,-1.38785500651,0.0777520289165,1.90587845244,0.155149159785,-0.0100575501638,-0.0720786122525,-0.00131723812095,-0.102492150296,-0.0081842110412,0.0422982955623,-0.0191699554635,0.574157363972,0.818730421894,0.00213648404355,0.0,0.818688000482,-0.574096283005,-0.0120067734165,0.0,-0.00860392876903,0.00864305762992,-0.999925632217,0.0,0.65797789888,0.255987309823,0.303394138361,1.0,-0.01232,-0.016192,0.617
0.462149285681,0.526241333116,-0.124074732572,-1.38966275838,0.0776432110904,1.90655202499,0.154916259838,-0.0115700787254,-0.0686739287711,0.000437029170459,-0.103696701507,-0.0117272450967,0.0412713960009,-0.0133819772123,0.574151209356,0.81873470175,0.00215031323059,0.0,0.818692423745,-0.574090034201,-0.0120039508171,0.0,-0.00859374315216,0.00865269462044,-0.999925636462,0.0,0.657760968744,0.255722616027,0.303401520656,1.0,-0.01266,-0.0166388571429,0.634
0.46198028487,0.524919916801,-0.124087965095,-1.39172417049,0.07751293671,1.90729113895,0.154640016561,-0.00728092783895,-0.0749470917063,-0.00144445977863,-0.109465114301,-0.00484520435552,0.0347114461427,-0.0137716908938,0.574148514484,0.818736607731,0.00214414976889,0.0,0.818694296044,-0.574087412399,-0.0120016436993,0.0,-0.00859542114544,0.00864629555496,-0.999925677392,0.0,0.657512582798,0.255405537187,0.303414330835,1.0,-0.01304,-0.0171382857143,0.653
0.461838518284,0.523813645853,-0.124084022064,-1.39351531654,0.0774001785899,1.90793441697,0.154388037311,-0.00967135906214,-0.0681456448179,0.000107234434713,-0.104188811906,-0.00705853438007,0.0407280802168,-0.0184387569278,0.574121254144,0.818755820235,0.00210695818463,0.0,0.818712973478,-0.574060261629,-0.0120262204277,0.0,-0.00863718329643,0.00862966890277,-0.999925461162,0.0,0.657290431668,0.25514198564,0.30339531913,1.0,-0.01336,-0.0175588571429,0.669
0.461680941428,0.522600169185,-0.124084434297,-1.39544857026,0.077282667877,1.90866920635,0.154131163942,-0.00830695180251,-0.071429662666,0.000146867252899,-0.111036761445,-0.0063877548693,0.040631093409,-0.017362977507,0.574112369955,0.818762022307,0.00211763859643,0.0,0.818719313186,-0.57405133181,-0.0120208803325,0.0,-0.00862677312646,0.00863525396925,-0.999925502812,0.0,0.657060637628,0.254855490334,0.303391807779,1.0,-0.0137,-0.0180057142857,0.686
0.461518686404,0.521361245871,-0.124086905626,-1.39744280431,0.0771625838537,1.90943824098,0.153862126432,-0.00644843550333,-0.0697865262735,-0.00019573199135,-0.118789837596,-0.00259914633596,0.0451510424952,-0.0144482500917,0.574101223873,0.818769814694,0.00212654523097,0.0,0.81872723213,-0.574040160065,-0.0120150282169,0.0,-0.00861698596562,0.00863906922402,-0.999925554247,0.0,0.656825120704,0.254559753503,0.303379869861,1.0,-0.01404,-0.0184525714286,0.703
0.461354813081,0.520140298131,-0.124090410129,-1.39935126239,0.0770408877389,1.91014370066,0.15360292306,-0.0142435115026,-0.0809389322205,-1.63749437292e-05,-0.117300116741,-0.00417578091664,0.0447824728412,-0.0292204603855,0.57409455702,0.818774460688,0.00213752825012,0.0,0.818732058771,-0.574033485548,-0.0120050119403,0.0,-0.00860255001087,0.00864224130673,-0.999925651135,0.0,0.656596742731,0.254267805857,0.303390258936,1.0,-0.01436,-0.0188731428571,0.719
0.461188129242,0.518797906195,-0.124095735676,-1.40143837828,0.0769042804248,1.91088244241,0.153330658869,-0.0123003945269,-0.0836310908767,-0.000703200041487,-0.123760224623,-0.0109898147603,0.0472610083278,-0.0160133442734,0.574085715841,0.81878068713,0.00212700525016,0.0,0.818738178128,-0.574024719811,-0.0120068156984,0.0,-0.00861016098733,0.00863456803078,-0.999925651918,0.0,0.65633724443,0.253953274485,0.303403438986,1.0,-0.0147,-0.01932,0.736
0.461048808319,0.517688779147,-0.124096905044,-1.40316900782,0.0767995906376,1.91150742498,0.153087933423,-0.0124902888368,-0.082228867972,0.000428607330112,-0.123015168438,-0.0076429165933,0.0466485643859,-0.0203206917959,0.574065332501,0.818794969211,0.00213056745588,0.0,0.818752454343,-0.574004271635,-0.0120108930565,0.0,-0.00861166979101,0.00863961098902,-0.999925595365,0.0,0.656122954822,0.253695824002,0.303412260961,1.0,-0.01498,-0.019688,0.75
0.460851465263,0.516259207153,-0.124102372549,-1.40542985144,0.0766502134922,1.91234917599,0.152762101498,-0.0113991551912,-0.0850662615104,1.59420265227e-06,-0.124386944084,-0.00776153264345,0.0463344896231,-0.0160751962368,0.574043276088,0.818810431949,0.00213087067519,0.0,0.818768017558,-0.573982313597,-0.0119993334066,0.0,-0.0086022629099,0.00863299162987,-0.999925733506,0.0,0.655852244498,0.253346612144,0.303412112552,1.0,-0.01534,-0.0201611428571,0.768
0.460646252256,0.514715221276,-0.124111287101,-1.40788903479,0.0764966913,1.91327447802,0.152437869829,-0.0110266566346,-0.0842036059326,-0.0014876706616,-0.130710609197,-0.00903606411155,0.0449166257887,-0.0144558167936,0.574040543383,0.818812341354,0.00213333078351,0.0,0.818770010577,-0.573979622703,-0.0119920558377,0.0,-0.00859492039872,0.00863079968714,-0.999925815568,0.0,0.655556220902,0.252973235157,0.303404685462,1.0,-0.01572,-0.0206605714286,0.787
0.460452133396,0.5133190056,-0.124111717238,-1.41014885321,0.0763641304736,1.91405695446,0.15212234952,-0.0081231491738,-0.0825714785088,-0.0012974402828,-0.137861442465,-0.0021316477849,0.0385038576136,-0.0268695623579,0.574024224132,0.818823949818,0.00206790138633,0.0,0.818780585767,-0.573963402167,-0.0120462544182,0.0,-0.00867702896784,0.00860816508835,-0.999925301541,0.0,0.655268288133,0.252627634197,0.303375461804,1.0,-0.01606,-0.0211074285714,0.804
0.460255251539,0.511884525278,-0.124112080883,-1.41243616771,0.0762250366353,1.91487138561,0.151800613442,-0.00987249453018,-0.0799188594698,-9.07021665518e-05,-0.133460496928,-0.00962710972808,0.0465402850569,-0.0221182688637,0.574004397494,0.818837928947,0.00203584788061,0.0,0.818794045282,-0.573943615639,-0.0120741202126,0.0,-0.00871845355249,0.00859770375208,-0.999925031219,0.0,0.654981351755,0.252278672829,0.303362246588,1.0,-0.0164,-0.0215542857143,0.821
0.460081382781,0.510585142245,-0.124109168618,-1.41449849112,0.0760983982549,1.91566105395,0.151508969067,-0.010212835967,-0.0911166437079,0.000517565834695,-0.143167697651,-0.00788107889669,0.0537480587526,-0.0225322279093,0.573979926174,0.818855033982,0.0020553764356,0.0,0.818811375924,-0.573919034208,-0.0120673001158,0.0,-0.00870191732646,0.00860951939682,-0.999925073598,0.0,0.65474738649,0.251995496691,0.303358161017,1.0,-0.01668,-0.0219222857143,0.835
0.4598858497,0.509185058628,-0.124115993968,-1.41671360273,0.0759632788863,1.91647698109,0.151208315389,-0.0124832721291,-0.0860639460562,-0.00131955049126,-0.136056058252,-0.0073784055883,0.0533827937162,-0.0166472849365,0.573977364749,0.818856828714,0.00205565690238,0.0,0.818813174891,-0.573916472468,-0.012067069069,0.0,-0.00870159408433,0.00860958922046,-0.99992507581,0.0,0.65446042085,0.251629058965,0.303355349571,1.0,-0.01702,-0.0223691428571,0.852
0.459678688761,0.507675600518,-0.12411847145,-1.41908987497,0.0758080526775,1.91732017379,0.150865945073,-0.0131376645247,-0.0886962633709,-0.000687369198148,-0.140375597166,-0.00787362161214,0.0466469481323,-0.0165111296243,0.57394953424,0.818876397957,0.00203074262779,0.0,0.818832415122,-0.573888749389,-0.0120799905341,0.0,-0.00872676680624,0.00859630833665,-0.999924970697,0.0,0.654161236917,0.25126216271,0.303353403721,1.0,-0.01736,-0.022816,0.869
0.459464236122,0.506115179902,-0.124124180845,-1.42153286113,0.0756555552028,1.91823152624,0.150539434561,-0.0113126522232,-0.0915363872621,-0.000943687048763,-0.143543619791,-0.00994581367701,0.0518854486669,-0.0215702732335,0.573947117433,0.818878040292,0.00205144305854,0.0,0.818834348114,-0.573886263603,-0.012067050093,0.0,-0.00870431492544,0.00860580634477,-0.999925084693,0.0,0.653862467414,0.250886437169,0.303360825844,1.0,-0.0177,-0.0232628571429,0.886
0.459234541439,0.50448948812,-0.124124494598,-1.42400473105,0.0754949861466,1.91918490838,0.150201006014,-0.0129551936074,-0.097709971544,0.000559223388061,-0.148223091646,-0.00942467030297,0.0554283020623,-0.0148161523856,0.573942470933,0.818881079229,0.00213659579875,0.0,0.818838609066,-0.573881366317,-0.0120106868609,0.0,-0.00860933745908,0.00864313683368,-0.999925584978,0.0,0.653568895852,0.250502940129,0.303402931692,1.0,-0.01804,-0.0237097142857,0.903
0.45900722644,0.502824021816,-0.124130333602,-1.42647955193,0.075339366604,1.92012479606,0.149846517553,-0.0140498784014,-0.0941218221757,-0.00159449951518,-0.146046067954,-0.0107834738866,0.0602181315868,-0.0194705747634,0.573927609,0.81889120535,0.00224506778835,0.0,0.818850223896,-0.573866134464,-0.0119464405859,0.0,-0.0084946303057,0.00869493374711,-0.999926116962,0.0,0.653272282306,0.250117926168,0.303469742031,1.0,-0.01838,-0.0241565714286,0.92
0.458762954692,0.501021395685,-0.124129465752,-1.4291955206,0.0751706805287,1.92107251645,0.149477179859,-0.0128516785329,-0.0990114760632,8.67875209234e-05,-0.15449554859,-0.00871351941247,0.050407885181,-0.0192613525189,0.573917505522,0.818898197221,0.00227735465771,0.0,0.818857528872,-0.573855791171,-0.0119425814246,0.0,-0.00847304837235,0.00871905341689,-0.999926090048,0.0,0.652925051029,0.249697619617,0.303517335171,1.0,-0.01874,-0.0246297142857,0.938
0.458532946644,0.499413812999,-0.124129167483,-1.43164588204,0.0750085644308,1.92196396772,0.149121215631,-0.0180597119191,-0.10542775511,0.00121274862553,-0.157146838868,-0.0105591875657,0.0619386132866,-0.0229985090041,0.573894969158,0.818913888271,0.00231406000782,0.0,0.818873738874,-0.57383315246,-0.0119188850961,0.0,-0.00843281854655,0.00873527934642,-0.999926288516,0.0,0.652620506547,0.249312548403,0.303549743551,1.0,-0.01906,-0.0250502857143,0.954
0.458243539307,0.497551267167,-0.124134694661,-1.43458709596,0.0748313051078,1.92306069115,0.148692708245,-0.0167504510112,-0.0951000964722,-0.00140232561368,-0.156554543314,-0.00413890714488,0.0530141906139,-0.0252281912313,0.573886743808,0.818919609844,0.00232911901075,0.0,0.818879601988,-0.573824811513,-0.0119176357233,0.0,-0.00842324149297,0.00874680961083,-0.999926268444,0.0,0.65226086381,0.248841981944,0.303543778508,1.0,-0.01944,-0.0255497142857,0.973
0.457978679839,0.495874426443,-0.124130117293,-1.43728283983,0.0746710746468,1.92399478077,0.148288379167,-0.0117937054379,-0.0916213740438,0.000172627307652,-0.162495669964,-0.00876869792383,0.0518680302327,-0.02649406767,0.573862131922,0.818937042541,0.00226291858787,0.0,0.818895932804,-0.573800223198,-0.0119792318783,0.0,-0.00851193741675,0.00872769040746,-0.999925684409,0.0,0.651912474936,0.248412009672,0.303510124705,1.0,-0.01978,-0.0259965714286,0.99
0.457768481974,0.494583880176,-0.124132288863,-1.43938608691,0.0745369102766,1.92472322606,0.14800729204,-0.0163136965886,-0.0976331471458,0.000485889070967,-0.159861923234,-0.0145258638926,0.0577192272052,-0.016176061239,0.573875143003,0.818928126639,0.0021887310917,0.0,0.818885963276,-0.573813452219,-0.0120269739922,0.0,-0.00859346938776,0.00869446998353,-0.999925276446,0.0,0.651641886343,0.248069262116,0.303471243171,1.0,-0.0214611428571,-0.0282060734694,1.003
0.457446711847,0.492164414916,-0.124218224929,-1.44302483177,0.0743289775065,1.92606882885,0.147485373223,-0.0184966672639,-0.157430738955,-0.00112816937016,-0.237318059391,-0.0088372564912,0.0858528557636,-0.0323982856783,0.573899893648,0.818910510513,0.00228795593484,0.0,0.818869841802,-0.573837996064,-0.0119533828305,0.0,-0.00847599797656,0.00873375140134,-0.99992593678,0.0,0.651200736707,0.247467465866,0.303542609079,1.0,-0.0347914285714,-0.045725877551,1.021
0.4570307435,0.488915718801,-0.124263956671,-1.44819699676,0.0740564017208,1.92804731173,0.146690046961,-0.0287968623953,-0.207777599357,-0.00127256234601,-0.336529166111,-0.0208279468817,0.122894850318,-0.05562262258,0.573808342597,0.818974498037,0.00234615252597,0.0,0.818934353013,-0.573745979027,-0.0119508955997,0.0,-0.00844154567284,0.00877903752124,-0.999925831653,0.0,0.650549314941,0.246689614001,0.303513226964,1.0,-0.0473811428571,-0.0622723591837,1.038
0.456428583587,0.484821235598,-0.124340040441,-1.4546499855,0.073684766648,1.93048607331,0.145728972982,-0.0417366115523,-0.281352964153,-0.0101208448386,-0.435337186258,-0.0336387349578,0.160868931257,-0.0697001898686,0.573789629716,0.818987424687,0.00240955114308,0.0,0.818948134828,-0.573727046665,-0.0119153383561,0.0,-0.00837624888216,0.00881036462449,-0.999926105235,0.0,0.649751687361,0.245648034199,0.303499671989,1.0,-0.0592302857143,-0.0778455183673,1.054
0.455604016609,0.479460053831,-0.124493928871,-1.46319203829,0.0731695853047,1.93344690042,0.144421047603,-0.0559430249585,-0.340268443715,-0.00998000964735,-0.543990197551,-0.0344070252629,0.184248734126,-0.0814304777488,0.573783958561,0.81899197588,0.00220436901816,0.0,0.818950002336,-0.573722199639,-0.0120199091992,0.0,-0.00857967892843,0.00870226664002,-0.999925327044,0.0,0.648649231732,0.244199455746,0.303413511889,1.0,-0.07182,-0.094392,1.071
0.454517640635,0.472580988504,-0.124658265596,-1.47396986711,0.0725271735214,1.93724015486,0.142868265898,-0.0612329806254,-0.39374532177,-0.00545994694975,-0.634938394211,-0.0389594800146,0.215985460941,-0.089851480543,0.573868265353,0.818933167915,0.0021041414865,0.0,0.818889767497,-0.573806801307,-0.01208512988,0.0,-0.00868971030527,0.00865849915639,-0.999924756833,0.0,0.647258528021,0.242368055436,0.303378294256,1.0,-0.0851502857143,-0.111911804082,1.089
0.453379573777,0.465468569837,-0.124775870612,-1.48472525021,0.0718965458355,1.94128262907,0.141158518934,-0.0744846493401,-0.460424970321,-0.006315184745,-0.691903029794,-0.0512898678713,0.259761681264,-0.112302151291,0.57382828516,0.818960230567,0.00244679404251,0.0,0.818921344733,-0.573765465298,-0.0119066734394,0.0,-0.00834736681564,0.00883628799522,-0.999926118012,0.0,0.645910634171,0.240556994855,0.303522979816,1.0,-0.0969994285714,-0.127484963265,1.105
0.452009077839,0.457561838178,-0.124840817125,-1.49704609001,0.0711186145743,1.9455825823,0.139256547515,-0.0897837774756,-0.516796858866,-0.00429675929322,-0.788653311044,-0.0477177278943,0.271042343673,-0.118059553029,0.573804100876,0.818977458628,0.00235010202069,0.0,0.81893685909,-0.573741195908,-0.0120086570278,0.0,-0.00848663246424,0.00881537153912,-0.999925130344,0.0,0.644271970781,0.238450909003,0.303478316627,1.0,-0.108848571429,-0.143058122449,1.121
0.450151973445,0.446892936922,-0.125022506292,-1.51320420984,0.0699929109679,1.95130631845,0.136735287399,-0.104044115069,-0.58741168928,-0.00824275464249,-0.886987219219,-0.0626164667606,0.314707238646,-0.13039671884,0.573821157192,0.818965131468,0.002477881996,0.0,0.818927082769,-0.573758677638,-0.0118389122706,0.0,-0.00827410934899,0.00882279287954,-0.999926846044,0.0,0.642147444631,0.23559322719,0.303611377619,1.0,-0.122919428571,-0.16155124898,1.14
0.448391616178,0.437128973869,-0.125121518932,-1.52824909773,0.0690222534782,1.95644935116,0.134361688601,-0.114014875027,-0.632729451669,-0.00301894525762,-0.954110596871,-0.0618797682977,0.322204725623,-0.149171071759,0.573795348509,0.818983554208,0.00236280923842,0.0,0.818943399169,-0.57373268308,-0.0119693033848,0.0,-0.00844720437837,0.00880310712347,-0.999925572252,0.0,0.640073461824,0.2329594252,0.303577455145,1.0,-0.134768571429,-0.177124408163,1.156
0.446271079662,0.425722032576,-0.125246510088,-1.54529358233,0.0678646518988,1.96249859359,0.131545161243,-0.131682850817,-0.694391899589,-0.00668196075424,-1.01435787481,-0.0769541845645,0.356623825245,-0.165630668441,0.573736953056,0.819023480444,0.00268217812611,0.0,0.818987764516,-0.573673372248,-0.0117749925084,0.0,-0.00810545723106,0.00895259175672,-0.999927073673,0.0,0.637763742298,0.229906490468,0.303763943628,1.0,-0.147358285714,-0.193670889796,1.173
0.443896478466,0.413519417614,-0.125400387297,-1.56354516085,0.0665380850944,1.96891783687,0.128504751308,-0.139979346769,-0.74770791781,-0.00482590385066,-1.09671816162,-0.0834637783366,0.397195541785,-0.185212748743,0.573701963128,0.81904717602,0.00292024965635,0.0,0.819015397893,-0.573638529719,-0.0115482525279,0.0,-0.00778354575904,0.00901715818843,-0.99992905112,0.0,0.635252493443,0.226554749187,0.303915584012,1.0,-0.159948,-0.210217371429,1.19
0.441240614666,0.400580209816,-0.125536767347,-1.58309559351,0.0652369137104,1.97552216334,0.125197015233,-0.160689196213,-0.773409510391,-0.00878278012812,-1.16617713482,-0.0774604881252,0.388655206028,-0.194816669423,0.573702568225,0.819046732889,0.00292565499251,0.0,0.81901423035,-0.573638198008,-0.0116471100149,0.0,-0.00786141130396,0.00907830478543,-0.999927888697,0.0,0.632450908824,0.222925928521,0.303925290006,1.0,-0.172537714286,-0.226763853061,1.207
0.438454654331,0.38761683676,-0.125684192153,-1.60250428526,0.0638172877542,1.98219567957,0.121877442557,-0.174994038271,-0.785989765263,-0.0110977514918,-1.24754157419,-0.0989655023523,0.416584733724,-0.214276629609,0.573734939206,0.819023566137,0.00306015485794,0.0,0.818993187898,-0.573670572662,-0.011531658148,0.0,-0.0076893270334,0.00912253680613,-0.999928824253,0.0,0.62966918261,0.219229262903,0.303982648701,1.0,-0.184386857143,-0.242337012245,1.223
0.435444822718,0.373920752633,-0.125827340744,-1.62283140392,0.0622966324901,1.98895322643,0.11817332668,-0.190828814914,-0.880288211369,-0.0115106956619,-1.28553048436,-0.0903141384852,0.430577374301,-0.24362715224,0.573604615613,0.819114634144,0.00311576325924,0.0,0.81908509114,-0.573540230834,-0.011487558007,0.0,-0.00762275805689,0.00914156753159,-0.999929160142,0.0,0.626657446503,0.215310041839,0.304055942106,1.0,-0.196236,-0.257910171429,1.239
0.432291836527,0.360520240682,-0.125985910669,-1.64268255919,0.0607677600516,1.9955371871,0.114662303808,-0.212455574983,-0.91604472495,-0.0125670654744,-1.3466544444,-0.102434073542,0.456640300115,-0.241888414842,0.573706959443,0.819042790306,0.00315899282368,0.0,0.819014165984,-0.573642864733,-0.0114195691841,0.0,-0.00754112730566,0.00913892214017,-0.999929803287,0.0,0.623691834344,0.211353577583,0.304097452722,1.0,-0.207344571429,-0.272510008163,1.254
0.427618641791,0.341763784769,-0.126244478067,-1.67035793466,0.0586770364377,2.00446586081,0.109456707558,-0.244841905119,-0.982530404097,-0.0145175651985,-1.39975792991,-0.108253015884,0.46818594433,-0.27205583491,0.573810885848,0.818970124138,0.00312249145572,0.0,0.818940669083,-0.573746454617,-0.0114862194207,0.0,-0.0076154987645,0.00914822911455,-0.999929154532,0.0,0.619449528704,0.205677237133,0.304106535457,1.0,-0.222156,-0.291976457143,1.274
0.423343331516,0.325127718264,-0.126406360464,-1.69475844925,0.0567306239718,2.01231514811,0.104700603713,-0.25543934171,-1.00079855965,-0.0146609413497,-1.45138632958,-0.12944199356,0.476605775089,-0.286022272178,0.573754409112,0.819009669597,0.00312826356673,0.0,0.818980312563,-0.573689995657,-0.0114796959217,0.0,-0.00760747491932,0.00914868856458,-0.999929211406,0.0,0.615610825578,0.200645188247,0.304099788993,1.0,-0.234745714286,-0.308522938775,1.291
0.418760551831,0.30776221871,-0.126561925684,-1.719885948,0.0546798491014,2.02024521271,0.0996655938965,-0.279908206554,-1.05231589601,-0.0139857877975,-1.47996731683,-0.127201744312,0.488143801251,-0.308950257009,0.57365279787,0.819080535867,0.00320782790194,0.0,0.81905217793,-0.573588121775,-0.0114430453884,0.0,-0.0075329488,0.00919189040507,-0.999929379423,0.0,0.611551625593,0.195393923605,0.304153503375,1.0,-0.247335428571,-0.325069420408,1.308
0.41373564973,0.289699245509,-0.126743006736,-1.74580708236,0.0525008669452,2.02819801837,0.0943152798157,-0.305888065411,-1.10660483417,-0.0165480006476,-1.52868148443,-0.126223242926,0.493899566571,-0.321801039608,0.573598997116,0.819118165249,0.00322005699486,0.0,0.819089883138,-0.573534191201,-0.0114473475692,0.0,-0.00753006253073,0.00920388039617,-0.999929290872,0.0,0.607260974417,0.189818018057,0.304200683657,1.0,-0.259925142857,-0.341615902041,1.325
0.408937340706,0.273391422426,-0.126888216602,-1.76914835843,0.0505720707436,2.03522594213,0.0892905579116,-0.329020986516,-1.10144253675,-0.00768512321407,-1.54682191407,-0.131439368718,0.455665426853,-0.341350129941,0.573553447309,0.819150125185,0.00320349668824,0.0,0.819120812597,-0.573487704645,-0.0115626075246,0.0,-0.00763449242627,0.00925600242274,-0.999928017882,0.0,0.603308442809,0.184692167358,0.304183850502,1.0,-0.271033714286,-0.356215738775,1.34
0.402638867261,0.25302327998,-0.127192885878,-1.79783111386,0.0479979800547,2.04385441221,0.0829610380454,-0.356722274921,-1.14505300752,-0.0120367869195,-1.61077887272,-0.139014873518,0.494160321011,-0.352488706572,0.573658407435,0.819076058267,0.00334503419008,0.0,0.819049313897,-0.573593133079,-0.0113967535083,0.0,-0.0074162620853,0.00927777005168,-0.999929458532,0.0,0.598417650863,0.178125824169,0.304270596402,1.0,-0.284364,-0.373735542857,1.358
0.396242183283,0.233196549058,-0.12742580617,-1.82555929424,0.0454939217075,2.0518896627,0.0765219783592,-0.384253021428,-1.18674125884,-0.0134236541434,-1.61088738298,-0.147226100662,0.497578095892,-0.389191267751,0.573624189809,0.819099843804,0.0033884578712,0.0,0.819073517778,-0.573558617007,-0.0113943948109,0.0,-0.00738981007619,0.00931167587877,-0.999929339203,0.0,0.593520682317,0.171698968647,0.3043030593,1.0,-0.296953714286,-0.39028202449,1.375
0.389849841576,0.21401587191,-0.127621479507,-1.8521464048,0.0430286169486,2.0594251339,0.0701289098737,-0.420384410834,-1.22057333592,-0.0203560507581,-1.69458583686,-0.156129138719,0.488231498744,-0.396625211513,0.57351150378,0.819178554409,0.00343481156505,0.0,0.819152609871,-0.573445539343,-0.0114000899361,0.0,-0.00736917370298,0.00935189763343,-0.999929116133,0.0,0.588694225293,0.165468677591,0.304320593685,1.0,-0.308802857143,-0.405855183673,1.391
0.38202720919,0.191800632435,-0.127909295465,-1.88263909149,0.0400693541734,2.0676827674,0.0624770733928,-0.445509509096,-1.26052274433,-0.0188030058571,-1.72716972202,-0.166090740309,0.47133816288,-0.436564519901,0.573440480799,0.819228717552,0.00332719403101,0.0,0.819201200954,-0.573374612501,-0.0114757569013,0.0,-0.00749368529762,0.0093064840797,-0.999928614469,0.0,0.583007402199,0.158074110166,0.304312176113,1.0,-0.322133142857,-0.423374987755,1.409
0.373936496517,0.170254384212,-0.128337333114,-1.91172686735,0.0372748863435,2.07533726284,0.0548095783303,-0.483656529056,-1.28461312336,-0.0201345762216,-1.71443883868,-0.177241336481,0.432808332864,-0.459561760386,0.573639401523,0.819089190526,0.0033884930828,0.0,0.819061844157,-0.573572544582,-0.0115316281846,0.0,-0.00750202983272,0.00939056248114,-0.999927765833,0.0,0.577490073452,0.15068558193,0.304367329185,1.0,-0.334722857143,-0.439921469388,1.426
0.365891402992,0.149533794731,-0.12865101491,-1.93942847323,0.0343764074836,2.0824582997,0.0471291964966,-0.508502655323,-1.30501001279,-0.0230858536356,-1.7269445422,-0.186065648947,0.435094422368,-0.484286156917,0.573552269155,0.819150192046,0.00339180180546,0.0,0.81912328221,-0.573485907587,-0.0114764647242,0.0,-0.00745594129608,0.00936083643707,-0.999928389276,0.0,0.572085800462,0.143590317173,0.304398023212,1.0,-0.346572,-0.455494628571,1.442
0.356741398718,0.126993067827,-0.129015178615,-1.9691947472,0.0312629388167,2.08978360445,0.0385177051242,-0.546783103322,-1.31082844885,-0.0217509488906,-1.78101952006,-0.184779198424,0.423464756357,-0.523899913339,0.57351726464,0.819174607998,0.00341404055247,0.0,0.819147629149,-0.573450392926,-0.0115132712438,0.0,-0.00747374045432,0.00939984403132,-0.999927890468,0.0,0.566114120065,0.135792904058,0.304424097153,1.0,-0.359161714286,-0.472041110204,1.459
0.348573756335,0.107976634243,-0.129437248982,-1.99387318982,0.0285261577708,2.09567467205,0.0310442063087,-0.589103906303,-1.37690690984,-0.0305329546551,-1.77391709301,-0.194535913425,0.405279928376,-0.53662793577,0.573678223179,0.819061681815,0.00346475593284,0.0,0.819035877772,-0.573611837505,-0.0114209324257,0.0,-0.00736716494409,0.00938988042202,-0.999928774977,0.0,0.560709360657,0.128535163725,0.304492844086,1.0,-0.370270285714,-0.486640946939,1.474
0.337504087451,0.083199791063,-0.129837021472,-2.0258650422,0.0249770805228,2.10290241358,0.0208067027414,-0.640677529447,-1.39585379948,-0.0292898813634,-1.79001396194,-0.190330474876,0.389013138919,-0.585760193777,0.573574378207,0.819134428169,0.00345950209708,0.0,0.819107977498,-0.573507286279,-0.0115004645553,0.0,-0.00743651997365,0.00943025913398,-0.999927881591,0.0,0.554333496509,0.120232820073,0.304486150203,1.0,-0.37998,-0.499402285714,1.491
0.327064477621,0.0612156532288,-0.130233352589,-2.05391562534,0.0217071921788,2.10892767325,0.011317947364,-0.67363004704,-1.34882665256,-0.0344416148128,-1.71470496828,-0.204785133441,0.354966963357,-0.590192970459,0.573566964464,0.819140055249,0.0033547076607,0.0,0.819111968375,-0.573499844435,-0.0115870013134,0.0,-0.00756759827423,0.00939398322914,-0.999927239621,0.0,0.548261939932,0.112237254094,0.304435643046,1.0,-0.37998,-0.499402285714,1.507
0.315383625707,0.037906453204,-0.130701998756,-2.08303066489,0.0182516308709,2.11470492661,0.0010122263466,-0.683557374207,-1.3601745295,-0.0206995039962,-1.67493654551,-0.190214109407,0.311381670731,-0.606689635784,0.573809996153,0.818970043859,0.00330188993123,0.0,0.818940528538,-0.573742097708,-0.011711658193,0.0,-0.00769721216361,0.00942449947893,-0.999925963127,0.0,0.541782527355,0.103616432001,0.304456828476,1.0,-0.37998,-0.499402285714,1.524
0.303291876563,0.014811943468,-0.131079615824,-2.11128818901,0.0147404393916,2.12019715161,-0.00967842684562,-0.720553726743,-1.36221403222,-0.0226509105098,-1.6248293193,-0.208861070915,0.321437001153,-0.633975948776,0.573884606499,0.818916971071,0.00349282345672,0.0,0.818890396414,-0.573816665791,-0.0115628553511,0.0,-0.00746492189377,0.00949616710887,-0.999927046215,0.0,0.5353615572,0.0950672626105,0.304563456918,1.0,-0.37998,-0.499402285714,1.541
0.290726412461,-0.00792213542464,-0.131531971011,-2.13873656058,0.0112605576715,2.1251382182,-0.0207171752765,-0.73590782893,-1.33601335381,-0.0188612652547,-1.56005795253,-0.206466195445,0.316658142192,-0.659616066374,0.574050370227,0.818800172353,0.00363278111294,0.0,0.81877545653,-0.573982047518,-0.0114938162847,0.0,-0.00732612866417,0.00957264581084,-0.999927343506,0.0,0.52894847101,0.0864682434022,0.304635917422,1.0,-0.37998,-0.499402285714,1.558
0.278635495983,-0.0291075322894,-0.131795932709,-2.16389548867,0.00798890367965,2.12926791482,-0.0314295217277,-0.771746376374,-1.33005033544,-0.0155720588879,-1.54775665714,-0.211551213058,0.269308798549,-0.672458436861,0.573953389406,0.818867688316,0.00373667269369,0.0,0.818844144084,-0.573884551882,-0.011468901888,0.0,-0.00724723397391,0.009642553314,-0.999927246736,0.0,0.522867239926,0.0785375043581,0.30470954642,1.0,-0.37998,-0.499402285714,1.574
0.265195520828,-0.0513345841956,-0.132266900778,-2.18998512349,0.00451065550603,2.13321526438,-0.0431006312869,-0.786838576913,-1.32038457192,-0.0120019514672,-1.50515399446,-0.200769894385,0.228211714437,-0.698171625042,0.574180852313,0.818707930323,0.00379744171845,0.0,0.818684807874,-0.574111320531,-0.0114945159005,0.0,-0.00723063625552,0.0097090257092,-0.999926723675,0.0,0.516411236059,0.0699329850071,0.304741965783,1.0,-0.37998,-0.499402285714,1.591
0.251502535348,-0.0732385835135,-0.132553404073,-2.21535212153,0.000990231045569,2.13672241713,-0.0552046385406,-0.827432724913,-1.29555210349,-0.0229652166752,-1.45995837735,-0.203879215406,0.204761620399,-0.721326794493,0.574020583068,0.818820299481,0.00379924639414,0.0,0.818797117585,-0.573950957717,-0.0115032721633,0.0,-0.00723867101807,0.00971411401767,-0.999926616123,0.0,0.509931751867,0.0615305800657,0.304745856658,1.0,-0.37998,-0.499402285714,1.608
0.237232652578,-0.0947808154913,-0.132965089006,-2.23996354218,-0.00243108558577,2.13970002781,-0.0677598506118,-0.837722757943,-1.25205764146,-0.0116602642027,-1.41083813272,-0.196507340058,0.157959835139,-0.742622152967,0.574043433331,0.818804399951,0.00377335023721,0.0,0.818779862162,-0.57397252217,-0.0116545275647,0.0,-0.00737712112906,0.00977993649827,-0.999924962648,0.0,0.50346291404,0.0530255781979,0.304713723847,1.0,-0.37998,-0.499402285714,1.625
0.221738229006,-0.117332672754,-0.133298300631,-2.26525838382,-0.00619650884487,2.14240161222,-0.081387662464,-0.881873346478,-1.25194538683,-0.0251574157883,-1.37119442894,-0.197064915044,0.136007837706,-0.765608419549,0.573895317898,0.818908603022,0.0036892943981,0.0,0.818883081963,-0.573824835666,-0.0116748854005,0.0,-0.00744379865827,0.00972145000339,-0.999925038826,0.0,0.49661121724,0.0441258382106,0.304700314495,1.0,-0.37998,-0.499402285714,1.643
0.206551801825,-0.13832595128,-0.133660299708,-2.28858892987,-0.00961649181043,2.14449903294,-0.0947842046957,-0.897283526327,-1.22033825715,-0.0158445715297,-1.35452671656,-0.200160053684,0.108513854875,-0.802514912792,0.573817247764,0.818963847764,0.00356779000749,0.0,0.818935376907,-0.573745425935,-0.0119072066355,0.0,-0.0077047169045,0.00975453779972,-0.99992274018,0.0,0.49008697325,0.0356879208271,0.304604186273,1.0,-0.37998,-0.499402285714,1.66
0.190823171865,-0.159144866267,-0.134138110631,-2.31118527053,-0.0131105886658,2.14624244586,-0.108681187951,-0.94199228809,-1.20731949917,-0.0370326481403,-1.32929671086,-0.207521749461,0.0910325065514,-0.822691364843,0.573782026478,0.818988606496,0.00354900286974,0.0,0.81895965971,-0.573709985372,-0.0119446788863,0.0,-0.00774660667785,0.00976032015595,-0.999922360104,0.0,0.483600997688,0.0271690109371,0.304584299025,1.0,-0.37998,-0.499402285714,1.677
0.176604855139,-0.177264729078,-0.134462076956,-2.33043508913,-0.0160364600028,2.14733666312,-0.121245581503,-0.963098532434,-1.19332072529,-0.0283582230246,-1.26864953721,-0.196612180264,0.0634405393321,-0.841012131748,0.573735404592,0.819020996459,0.00361106333504,0.0,0.818991957878,-0.573662003151,-0.0120343663363,0.0,-0.00778501876793,0.00986216374694,-0.999921062489,0.0,0.477891336792,0.0197587418377,0.304607187564,1.0,-0.37998,-0.499402285714,1.692
0.159839452182,-0.197625702812,-0.135026794262,-2.351604762,-0.0194641988798,2.14833780257,-0.135976515269,-0.993167000575,-1.20018229802,-0.0218209273381,-1.23578809968,-0.2079189404,0.0498167792707,-0.873499831896,0.573882173747,0.818917424197,0.00377490441993,0.0,0.818891031906,-0.573808811916,-0.0119026103101,0.0,-0.0075813275201,0.0099221222854,-0.999922034442,0.0,0.471458835841,0.0111770818224,0.304693291041,1.0,-0.37998,-0.499402285714,1.709
0.142645075887,-0.217537985152,-0.13556108065,-2.37210536327,-0.0227492302078,2.14888159577,-0.151277484216,-1.02795165783,-1.17273110725,-0.0454106295559,-1.16500475372,-0.208035971531,0.0455740601737,-0.908178920898,0.57391412354,0.81889463811,0.00385971219563,0.0,0.818868436031,-0.57383925005,-0.0119894318043,0.0,-0.00760337345524,0.0100416940686,-0.9999206734,0.0,0.464996056287,0.00267216272893,0.30470258312,1.0,-0.37998,-0.499402285714,1.726
0.124969835521,-0.237150993764,-0.136052557165,-2.39200382185,-0.0261105559021,2.1490441026,-0.166953331898,-1.05393913456,-1.15291990953,-0.0248553919404,-1.15268247641,-0.183585368864,-0.00192400940056,-0.935730426523,0.573927567829,0.818885372312,0.00382632983774,0.0,0.818858217334,-0.57385213596,-0.0120703297488,0.0,-0.00768861694973,0.0100609103292,-0.999919828413,0.0,0.458500295479,-0.00579956599781,0.304687835961,1.0,-0.37998,-0.499402285714,1.743
0.105604422681,-0.257546254369,-0.136669231861,-2.41216120956,-0.029543014532,2.14906054587,-0.184273048151,-1.08194519791,-1.12299591068,-0.0307616678117,-1.11762020592,-0.190713790176,-0.00357832143976,-0.986092436267,0.573989103305,0.818840964662,0.00409032759746,0.0,0.818817902787,-0.573913582191,-0.0118823042649,0.0,-0.00738236505626,0.0101697424343,-0.999921035395,0.0,0.451724694593,-0.0148300804764,0.304767907426,1.0,-0.37998,-0.499402285714,1.761
0.0891034254861,-0.274219429355,-0.137151853687,-2.42831955352,-0.0323995141227,2.14885238933,-0.199084316261,-1.1102182864,-1.11394452068,-0.0471111068184,-1.07264716818,-0.191883554505,-0.0253647671523,-1.00164545127,0.573984635379,0.818842871225,0.00432868272816,0.0,0.818824203643,-0.573910179004,-0.0116093438497,0.0,-0.0070220885685,0.010208211724,-0.999923238397,0.0,0.446108685465,-0.0223014467464,0.304859626564,1.0,-0.37998,-0.499402285714,1.776
0.0699259527072,-0.292625379033,-0.137622098161,-2.44615833097,-0.0355273519362,2.14806301059,-0.216445797022,-1.13744433202,-1.07838045851,-0.0226211015846,-1.01669134143,-0.179237713218,-0.0494739684278,-1.02966082253,0.573862727043,0.818928446174,0.00430319162116,0.0,0.818908372838,-0.573786818198,-0.0117690721403,0.0,-0.00716905135884,0.0102779493641,-0.999921481147,0.0,0.439625683934,-0.0307044132691,0.304809265763,1.0,-0.37998,-0.499402285714,1.793
0.05008848141,-0.310662234452,-0.138231124328,-2.46321091806,-0.0386639287054,2.14709455559,-0.234347938746,-1.16800794449,-1.04752743798,-0.0306499904503,-0.983985477951,-0.171700088909,-0.0729286287845,-1.05860598636,0.57392918157,0.818881363953,0.0043992287209,0.0,0.818862671102,-0.573853144473,-0.011715005539,0.0,-0.00706882457651,0.0103261465326,-0.999921698143,0.0,0.433190371252,-0.039223712628,0.304828311011,1.0,-0.37998,-0.499402285714,1.81
0.0273312497569,-0.330362459457,-0.138879727841,-2.48147374241,-0.0420460796506,2.14566848978,-0.25505541924,-1.19965616391,-1.01144254979,-0.0265529980399,-0.948737343607,-0.187018291699,-0.0770142798364,-1.10942689124,0.573924919407,0.818883578929,0.00454069870715,0.0,0.818866702405,-0.573848408406,-0.0116651088566,0.0,-0.0069468271109,0.0104133241261,-0.999921649067,0.0,0.425983422731,-0.048691806102,0.304862083752,1.0,-0.37998,-0.499402285714,1.829
0.00759830641913,-0.34640827249,-0.13948190521,-2.49625978961,-0.0448846745439,2.14419599331,-0.273047836099,-1.2517898888,-0.987250131234,-0.0503204786168,-0.915739206722,-0.182452701182,-0.0960054591956,-1.12478248044,0.573969824424,0.818852211923,0.00452134732043,0.0,0.818834280773,-0.573892170426,-0.0117874618527,0.0,-0.00705755926397,0.0104680831343,-0.99992030187,0.0,0.419865064716,-0.056699386022,0.304809590389,1.0,-0.37998,-0.499402285714,1.845
-0.0125666669918,-0.362101155401,-0.139998939831,-2.51016663945,-0.0475970232513,2.14256483532,-0.291602141842,-1.27271843101,-0.972466039421,-0.0405333108132,-0.882063341934,-0.17184779488,-0.0977855627143,-1.16596620481,0.573904386072,0.818897023139,0.00470829506031,0.0,0.818882412771,-0.57382750857,-0.0115901408149,0.0,-0.00678951330618,0.0105073749674,-0.999921745728,0.0,0.413848798299,-0.0646580698184,0.30491416371,1.0,-0.37998,-0.499402285714,1.861
-0.0344684681308,-0.378172097519,-0.140596680228,-2.52446249179,-0.0504545641738,2.14055500609,-0.311898611358,-1.29022372257,-0.936945698726,-0.0316990964385,-0.810498229862,-0.153153675954,-0.128584255947,-1.21516443793,0.573788997797,0.818977968478,0.00469255319932,0.0,0.818962378253,-0.5737109938,-0.0117074976201,0.0,-0.0068961460296,0.0105608611836,-0.999920452527,0.0,0.407358138451,-0.0730978638385,0.304884888719,1.0,-0.37998,-0.499402285714,1.878
-0.056996784914,-0.39369157058,-0.14121842858,-2.53782220239,-0.0531612382335,2.13854805418,-0.332676725252,-1.33205186462,-0.884975686984,-0.0417639752174,-0.774976065312,-0.14045447564,-0.125476614276,-1.24921752138,0.573890869718,0.818905327317,0.00490728515552,0.0,0.818893429465,-0.573813625472,-0.0114987522286,0.0,-0.0066006494541,0.0106177769126,-0.999921844066,0.0,0.40096582772,-0.0815935729856,0.304973759657,1.0,-0.37998,-0.499402285714,1.895
-0.0786124511134,-0.4076313839,-0.141742410688,-2.54989900723,-0.0556720826246,2.13630507564,-0.352866726964,-1.35000302164,-0.848624577709,-0.0220938497613,-0.720663663737,-0.159551839808,-0.150086384074,-1.26923601825,0.573776571756,0.818985902115,0.00482542663775,0.0,0.818971555834,-0.573697398162,-0.011731708211,0.0,-0.00683990061474,0.0106834721692,-0.999919536354,0.0,0.394847008076,-0.0895190437477,0.304916637818,1.0,-0.37998,-0.499402285714,1.911
-0.102120006727,-0.421934292018,-0.14238250795,-2.56176524684,-0.0582115812799,2.13412116567,-0.37489621835,-1.39860742056,-0.832313679959,-0.0305252055573,-0.69652826458,-0.143127631205,-0.141837952863,-1.30369945292,0.573767767933,0.818990566406,0.00507420146003,0.0,0.818981036483,-0.573690419683,-0.0114066273132,0.0,-0.00643102321599,0.0107006358846,-0.999922066129,0.0,0.388483447069,-0.0980135418641,0.305039911478,1.0,-0.37998,-0.499402285714,1.928
-0.126168446166,-0.435358716449,-0.143022100769,-2.57321283111,-0.0606277767549,2.13160292554,-0.397493929039,-1.41982282363,-0.75600999931,-0.0383279447599,-0.658967096095,-0.145920618825,-0.143009161199,-1.32697572958,0.573793381618,0.818972940969,0.00502235736014,0.0,0.818960226247,-0.573712083929,-0.0118042145551,0.0,-0.00678607585568,0.0108865007057,-0.999917713253,0.0,0.381944872046,-0.10646840344,0.30491544687,1.0,-0.37998,-0.499402285714,1.945
-0.152134890591,-0.448974446647,-0.143670544015,-2.58415135883,-0.0631292836602,2.12913525547,-0.422062153749,-1.45067955853,-0.730477672331,-0.0345022961101,-0.597960169556,-0.139793491743,-0.120647749928,-1.38074712542,0.573749325658,0.819002571649,0.00521975490314,0.0,0.818994182226,-0.573670326722,-0.0114731259527,0.0,-0.00640222442206,0.0108578562242,-0.999920556085,0.0,0.375196991004,-0.115456895005,0.305043507281,1.0,-0.37998,-0.499402285714,1.963
-0.17565744074,-0.460191245582,-0.144247043193,-2.59337126268,-0.0652194476039,2.12670865114,-0.444399641697,-1.47596213424,-0.690502935516,-0.0440618100478,-0.553704686172,-0.114740670646,-0.151936866926,-1.40683733242,0.573735220226,0.819012613755,0.00519446661083,0.0,0.819002117477,-0.573653322817,-0.0117534544286,0.0,-0.00664653236703,0.0109978616614,-0.999917431914,0.0,0.369076507436,-0.123401461917,0.304976170186,1.0,-0.375701142857,-0.493778644898,1.979
-0.200835893435,-0.4710453513,-0.144610244781,-2.60222017686,-0.0671219667019,2.12440579549,-0.468319988804,-1.48797329493,-0.615810765512,-0.029759119012,-0.489121053664,-0.100785170997,-0.132500363075,-1.3929637231,0.573715350816,0.819026101701,0.00526192659336,0.0,0.819015363277,-0.573631369429,-0.0119009925477,0.0,-0.00672894692817,0.0111375952682,-0.999915334038,0.0,0.362748505043,-0.131685324763,0.304915916479,1.0,-0.363111428572,-0.477232163265,1.996
-0.224392221858,-0.480344892594,-0.144793306818,-2.6094641458,-0.0687252069755,2.12235559827,-0.490530762712,-1.47773847551,-0.564381469034,-0.0149477367618,-0.441197695777,-0.08343244315,-0.126822777999,-1.3801067336,0.573844925291,0.818934580578,0.00537599772776,0.0,0.818926123025,-0.573761859556,-0.0117507637238,0.0,-0.0065386901984,0.0111458757004,-0.999916504007,0.0,0.357020823101,-0.139300803847,0.304985283789,1.0,-0.351262285714,-0.461659004082,2.012
-0.247558197593,-0.488688081614,-0.14479511723,-2.61607176174,-0.0700821688248,2.12036189086,-0.512563127522,-1.44490862336,-0.50241557596,0.00644312070381,-0.393698496377,-0.0829874243186,-0.128873395076,-1.37283878569,0.573808244671,0.818959971819,0.00542308094736,0.0,0.818951397598,-0.573723779189,-0.0118482263343,0.0,-0.00659199952526,0.0112400660826,-0.999915099624,0.0,0.351416376344,-0.146593701224,0.304966894261,1.0,-0.339413142857,-0.446085844898,2.028
-0.271788978806,-0.496459104075,-0.144677624648,-2.62217023162,-0.0712543416049,2.11850023078,-0.535582105033,-1.40666571667,-0.438188230223,0.0118283603377,-0.335856230281,-0.0580549778618,-0.0983188492046,-1.34695714444,0.573855065403,0.818926451948,0.00552965743716,0.0,0.818918901231,-0.573769581355,-0.0118763471035,0.0,-0.00655323173287,0.011343861341,-0.9999141823,0.0,0.345698115573,-0.154101693528,0.304959048314,1.0,-0.326823428572,-0.429539363265,2.045
-0.295358735009,-0.503236301824,-0.144448443474,-2.62737678832,-0.0721706190436,2.11680569017,-0.558063742657,-1.36694399142,-0.374423805856,0.0103711270294,-0.291645498394,-0.0403458693675,-0.09150153608,-1.30919549401,0.573879842198,0.818908036952,0.00568336491308,0.0,0.818902430739,-0.573793692271,-0.0118471321849,0.0,-0.00644075682758,0.0114531721999,-0.999913667022,0.0,0.34023652767,-0.16128924005,0.304985582451,1.0,-0.314233714286,-0.412992881633,2.062
-0.318459193892,-0.5090717479,-0.144172034261,-2.6317427918,-0.0729518788343,2.11537612603,-0.580066190172,-1.35170374273,-0.326657216989,0.00924784219513,-0.239124904482,-0.0444939759904,-0.0706835317141,-1.26326510986,0.573984913547,0.818833309642,0.00583754594318,0.0,0.81883072586,-0.573900047718,-0.0116500866266,0.0,-0.00618943026046,0.0114671567254,-0.99991509403,0.0,0.334999930367,-0.16828299079,0.305055229633,1.0,-0.301644,-0.3964464,2.079
-0.340841151623,-0.514019729517,-0.143737734198,-2.6355502892,-0.0736404867082,2.1139694845,-0.601507344045,-1.29604674788,-0.272454215421,0.0391599628832,-0.216025436956,-0.038670956429,-0.0816707174218,-1.25535134328,0.573922226847,0.81887734782,0.00582354357788,0.0,0.81887410533,-0.573836542119,-0.0117290004213,0.0,-0.0062629712296,0.011500504498,-0.999914253118,0.0,0.329922410201,-0.174927578051,0.305047063028,1.0,-0.289054285714,-0.379899918367,2.096
-0.363774850203,-0.518319140534,-0.143235733228,-2.63902277467,-0.0741247329737,2.1127287494,-0.623467823903,-1.25296008396,-0.218593906217,0.0465810090579,-0.173974236893,-0.0326002202329,-0.0592904577199,-1.20955979667,0.573947261626,0.818859515413,0.00586359877841,0.0,0.818855252001,-0.573858607519,-0.0119633501871,0.0,-0.0064315503342,0.0116679953802,-0.999911242583,0.0,0.324749601601,-0.181640263841,0.304961401345,1.0,-0.275724,-0.362380114286,2.114
-0.384620994301,-0.521612638173,-0.142723507502,-2.64160593765,-0.0744511573831,2.11180120097,-0.643442064899,-1.22181141524,-0.1741641683,0.0275830710537,-0.140244133296,-0.0256590143156,-0.0468084236401,-1.15184899675,0.574002920927,0.818820062272,0.00592446541471,0.0,0.818816163943,-0.573913231334,-0.0120182971228,0.0,-0.00644081771413,0.0117498119177,-0.999910224864,0.0,0.320131725668,-0.187714405267,0.304932438332,1.0,-0.263134285714,-0.345833632653,2.131
-0.403413585493,-0.524148151988,-0.142077776274,-2.64354071307,-0.0746415301787,2.11103228847,-0.661631316822,-1.15094848088,-0.148211048863,0.0462071105628,-0.107640808962,-0.0157970206294,-0.0403870590081,-1.13628944847,0.573841511936,0.818933134779,0.00593184978851,0.0,0.818929253283,-0.573751680157,-0.0120264099104,0.0,-0.0064455408821,0.011759244966,-0.999910083538,0.0,0.316020684205,-0.193114891555,0.304934544912,1.0,-0.251285142857,-0.33026047347,2.147
-0.421678345103,-0.526131276139,-0.14152488702,-2.64507813508,-0.0747753229962,2.11041663908,-0.679143866561,-1.12322573368,-0.109004819304,0.0383180531929,-0.0887546178378,-0.00115712589795,-0.0316999179689,-1.07492831807,0.573916795113,0.818880154931,0.00596247007495,0.0,0.818876486582,-0.573826480855,-0.0120505806715,0.0,-0.00644668226557,0.0117987843477,-0.999909610403,0.0,0.312036360869,-0.198372095028,0.304923952734,1.0,-0.239436,-0.314687314286,2.163
-0.439159456838,-0.527674803083,-0.140929704173,-2.64628385224,-0.0748196650259,2.10992995287,-0.695922061564,-1.06686218538,-0.0874826582716,0.0432316990397,-0.0686463677469,-0.00292353744828,-0.0351963087863,-1.03321941134,0.573952626283,0.81885483236,0.0059910937569,0.0,0.818851436194,-0.573861999196,-0.012061435348,0.0,-0.00643862754277,0.0118287359618,-0.999909308428,0.0,0.308014829011,-0.203658928603,0.304914995943,1.0,-0.226846285714,-0.298140832653,2.18
-0.456745187663,-0.528888490768,-0.140208618081,-2.64724331799,-0.0748097859676,2.10950975938,-0.712902871787,-1.02937377523,-0.0615569835229,0.0388986729772,-0.0534004075383,0.000702465575333,-0.0285164079343,-0.988060459049,0.573913728562,0.818882245021,0.00597058272555,0.0,0.818878503053,-0.573823052594,-0.0120767731544,0.0,-0.00646352155075,0.0118204353347,-0.999909245981,0.0,0.304439290506,-0.208335615541,0.304905079391,1.0,-0.214997142857,-0.28256767347,2.196
-0.47454493724,-0.529704235938,-0.139469954451,-2.6478747052,-0.0747555901343,2.10917813268,-0.729993695332,-0.964526658822,-0.0337937493275,0.0455027425388,-0.0302520511076,0.00368333129169,-0.0172112048652,-0.93891195555,0.57395853139,0.818851096815,0.00593568788431,0.0,0.818846943066,-0.573868072479,-0.0120775047861,0.0,-0.00648350110337,0.0117926338337,-0.9999094449,0.0,0.300611587284,-0.213367993809,0.304907120514,1.0,-0.201666857143,-0.265047869388,2.214
-0.489496356795,-0.530118045733,-0.138808944074,-2.64819230071,-0.0746728766528,2.10898950345,-0.744351939246,-0.927014657133,-0.0185200657351,0.0332578096938,-0.0179067115413,0.00494654918751,-0.0127381058566,-0.880946994943,0.573994464529,0.818826243265,0.0058893915385,0.0,0.818821739725,-0.573904652144,-0.0120480580373,0.0,-0.00648544176395,0.0117381064421,-0.999910073908,0.0,0.297407239384,-0.217581059112,0.304915145473,1.0,-0.189817714286,-0.249474710204,2.23
-0.504296887562,-0.530265523941,-0.137972886655,-2.64830194951,-0.074443203061,2.10886738402,-0.758769126051,-0.8533302437,-0.0034423914622,0.0420203740854,-0.00624701071611,0.00550143764353,-0.00474523762256,-0.827922721511,0.573810130174,0.818955700196,0.00585171144511,0.0,0.818950998362,-0.573721038437,-0.0120074658731,0.0,-0.00647645734667,0.0116824954101,-0.999910783421,0.0,0.2942796398,-0.221694021455,0.304930857063,1.0,-0.177228,-0.232928228572,2.247
-0.519990736373,-0.53021300837,-0.137098843682,-2.64830782149,-0.0741558246665,2.10880642894,-0.773771115486,-0.796362075601,0.00714496861848,0.0545155661739,0.0027512794264,0.0131715359536,0.00095839840181,-0.764281097644,0.573882712724,0.818904990024,0.00583063051889,0.0,0.818900093339,-0.573793835222,-0.0120007787843,0.0,-0.00648204258286,0.0116619678887,-0.999910986853,0.0,0.290937271701,-0.22603483167,0.304926932554,1.0,-0.163157142857,-0.214435102041,2.266
-0.532080184739,-0.529969480315,-0.136265850988,-2.64817133468,-0.0737514564668,2.10880469702,-0.785493656016,-0.747076729257,0.013732437494,0.0475751821615,0.00829397170419,0.0266975259841,-0.0036679592932,-0.710432622636,0.573776164391,0.818979357978,0.00587122505325,0.0,0.818974877783,-0.57368694151,-0.012007897471,0.0,-0.00646609951023,0.0116984564053,-0.999910663847,0.0,0.288402186231,-0.22932161007,0.304921977001,1.0,-0.151308,-0.198861942857,2.282
-0.543563823852,-0.529609869176,-0.13557242148,-2.64797900235,-0.0733958522659,2.10881962306,-0.796373931753,-0.687932440568,0.0282575702986,0.0532707331437,0.0147769591622,0.0215867959025,7.72853300599e-05,-0.670729448412,0.573920007828,0.818878254236,0.00591407262239,0.0,0.818873814222,-0.573829639942,-0.0120817054776,0.0,-0.00649990086943,0.0117770384527,-0.999909522234,0.0,0.285811370749,-0.23264043496,0.30489402068,1.0,-0.138718285714,-0.182315461225,2.299
-0.555227979276,-0.52905291929,-0.134616029201,-2.64767421679,-0.0729029954013,2.10890651425,-0.807682266645,-0.633834637771,0.028436133625,0.050208794633,0.0112069201914,0.028448316669,0.00726150661071,-0.604603589563,0.573789141494,0.818969746177,0.00594330311936,0.0,0.818965306357,-0.573697985321,-0.0121324162343,0.0,-0.00652654647444,0.0118290355008,-0.99990873489,0.0,0.283527497251,-0.235576585912,0.304865279547,1.0,-0.126128571429,-0.165768979592,2.316
-0.564932051722,-0.528517107447,-0.133901277042,-2.64733392205,-0.0725049143806,2.1089847358,-0.816820257266,-0.600696237883,0.0330508988674,0.0411585026212,0.0241921510641,0.0281360228905,0.00362455705074,-0.549631291305,0.573937768291,0.818865313741,0.00598188776028,0.0,0.818861104723,-0.573845917629,-0.0121696710614,0.0,-0.00653276541685,0.0118831978579,-0.999908052065,0.0,0.281486485353,-0.238191925195,0.304849503698,1.0,-0.114279428572,-0.150195820408,2.332
-0.574189445686,-0.527870814121,-0.133077731795,-2.64686918998,-0.0720262364988,2.10912389544,-0.825630501502,-0.513435506181,0.0402421519765,0.0554593827476,0.0307471454464,0.0273534646603,0.0106476383746,-0.502688704547,0.573953049455,0.818854354219,0.00601585402269,0.0,0.818850805515,-0.573861443251,-0.012130505258,0.0,-0.0064809751564,0.0118886562901,-0.999908324204,0.0,0.27959546819,-0.240667206162,0.304857723238,1.0,-0.101689714286,-0.133649338776,2.349
-0.58151055163,-0.527283494802,-0.132327745075,-2.64646545513,-0.0716176504203,2.10922668144,-0.832593973826,-0.476605862872,0.0377544619056,0.0468265024845,0.0228864415941,0.0217448216348,0.00692013304166,-0.447847890218,0.573913448417,0.81888212355,0.0060140134643,0.0,0.818878456153,-0.573821685015,-0.0121447419225,0.0,-0.00649426575044,0.0118950057935,-0.999908162458,0.0,0.278112899135,-0.242594998353,0.304854499992,1.0,-0.0905811428573,-0.119049502041,2.364
-0.589054979286,-0.526662072801,-0.131488194299,-2.64599028715,-0.0711341459297,2.10934690511,-0.839541526157,-0.424266635388,0.0388020471653,0.0479770699411,0.0276231091094,0.0323101248244,0.011051793005,-0.389663980207,0.574041782666,0.818792094611,0.00602365808177,0.0,0.818788837622,-0.573950473091,-0.0121012695728,0.0,-0.00645126666204,0.011878967064,-0.999908631476,0.0,0.276606442522,-0.244566236966,0.304874814554,1.0,-0.0779914285715,-0.102503020408,2.381
-0.595570293324,-0.526012454045,-0.130644676924,-2.64552192675,-0.0706435162552,2.10947687911,-0.84562824282,-0.364156166618,0.0351873615798,0.052509564465,0.0270493584227,0.0333649481898,0.00372263379603,-0.332763030169,0.574031980951,0.818798940935,0.00602711139152,0.0,0.818795806598,-0.573940801605,-0.0120884345991,0.0,-0.00643891627298,0.0118743502108,-0.99990876592,0.0,0.275340486318,-0.246242360539,0.304882374407,1.0,-0.0654017142858,-0.0859565387757,2.398
-0.600960813714,-0.525423189854,-0.129696830365,-2.64515891639,-0.0701185200758,2.10957799217,-0.850686261516,-0.295260834058,0.0318138992993,0.05586680569,0.0209247384722,0.0267779382245,0.00444128832008,-0.286234584218,0.57387860792,0.818906576063,0.0060091557231,0.0,0.81890279316,-0.573786777756,-0.0121530213549,0.0,-0.0065043402359,0.0118955024087,-0.999908091067,0.0,0.274339052902,-0.247547437223,0.304864002852,1.0,-0.0528120000001,-0.069410057143,2.415
-0.605584039743,-0.524979895529,-0.128802205841,-2.644856571,-0.0696070804302,2.10964476105,-0.854845450336,-0.258298332082,0.0259349092582,0.0443681875775,0.0222086308668,0.0331880876575,0.00103482371891,-0.219435391348,0.573860834325,0.818919049948,0.00600660986477,0.0,0.818915103972,-0.573768781891,-0.0121730980306,0.0,-0.00652250222711,0.0119047969383,-0.999907862143,0.0,0.273493506345,-0.248634736166,0.3048670069,1.0,-0.0402222857144,-0.0528635755104,2.432
-0.609251579347,-0.524583535386,-0.12791021917,-2.64457952844,-0.0690792400398,2.10978023203,-0.8579891585,-0.194189824586,0.0183419755153,0.0560564240198,0.013982556203,0.0291223746333,0.00790145301883,-0.167003433015,0.573899149218,0.818892206202,0.00600566816955,0.0,0.818888673818,-0.573807872128,-0.0121083721859,0.0,-0.0064694764972,0.0118671866188,-0.999908653706,0.0,0.272889444447,-0.249460977118,0.304881295986,1.0,-0.0276325714287,-0.0363170938777,2.449
-0.611900625201,-0.524278478778,-0.127091168856,-2.64440915615,-0.0685735312903,2.10982211437,-0.860213047198,-0.139267046111,0.0158032406441,0.0435508989844,0.0106244365435,0.0311897224078,-0.000185453711058,-0.115948202629,0.573893118558,0.818896251914,0.00603025487016,0.0,0.818892685462,-0.573801084517,-0.0121586185408,0.0,-0.00649660544692,0.0119161085384,-0.999907895996,0.0,0.272482081718,-0.249989389006,0.304870609503,1.0,-0.0198466666667,-0.0260841904762,2.466
-0.613889764978,-0.524119447003,-0.126572307313,-2.64427847834,-0.0682548572871,2.10982211499,-0.861888121491,-0.11437523008,0.00629048252735,0.0335285000886,0.00934789676408,0.022206090216,-0.000212118733049,-0.102630733235,0.57392606291,0.818873036983,0.00604735609948,0.0,0.818869677728,-0.573833916944,-0.0121586826231,0.0,-0.00648636421022,0.0119304110857,-0.999907791934,0.0,0.272147386562,-0.250411235545,0.304884373884,1.0,-0.0195266666667,-0.0256636190476,2.482
-0.615657570091,-0.523950742233,-0.126138972008,-2.64406747403,-0.0680478385263,2.10988760501,-0.863563603877,-0.100376553877,0.0111022557556,0.0177153006146,0.0167046953443,0.0149708592667,0.00283552049713,-0.10222960068,0.573794091216,0.818965876568,0.00599840004905,0.0,0.818962748213,-0.573703783879,-0.0120304739463,0.0,-0.00641136627427,0.011815708543,-0.999909637624,0.0,0.271869616345,-0.250831921412,0.304934504917,1.0,-0.0191866666667,-0.0252167619048,2.499
-0.617134642538,-0.523764311972,-0.125913826051,-2.64388077941,-0.0678941012676,2.10999407891,-0.864912427713,-0.086727236722,0.0119539896194,0.0137131388826,0.0117335397833,0.0141506645722,0.00212561771888,-0.0823455317185,0.573814969613,0.818951208588,0.00600379064047,0.0,0.818948923387,-0.573726068179,-0.0119082524007,0.0,-0.00630786794341,0.0117501575977,-0.999911068345,0.0,0.271616574224,-0.251224660314,0.304965540939,1.0,-0.0188666666667,-0.0247961904762,2.515
-0.618751336311,-0.52357942486,-0.125767740633,-2.643715232,-0.0678021161912,2.10998998989,-0.866511650324,-0.0897050839807,0.0096382719367,0.0101824549855,0.00756395652393,0.00417605848433,-0.00011091249463,-0.0888734269323,0.573773780371,0.818980018802,0.00601037959429,0.0,0.818977745422,-0.573684723527,-0.0119179442798,0.0,-0.00631261681192,0.0117607975047,-0.999910913287,0.0,0.271282986915,-0.251658938975,0.304976144082,1.0,-0.0185066666667,-0.0243230476191,2.533
-0.620241499073,-0.523427299571,-0.125668358685,-2.64356954518,-0.0677792114326,2.10999262676,-0.867961476005,-0.0861539671445,0.00752806243862,0.00952347881579,0.0095978475383,-8.50697904945e-05,-0.000177004266342,-0.0816133746003,0.573753825694,0.818994210386,0.00598145099096,0.0,0.818991624792,-0.573665007133,-0.0119132284973,0.0,-0.00632563782902,0.011734244613,-0.999911142957,0.0,0.270961960996,-0.252072594109,0.304989144298,1.0,-0.0181666666667,-0.0238761904762,2.55
-0.621557363228,-0.523234604254,-0.125594420662,-2.64339535915,-0.0677383349629,2.11002535969,-0.8692525822,-0.0790226641425,0.0163716230557,0.0017586392007,0.0122707566685,0.00444295565266,0.000276835967569,-0.076740212931,0.573748272867,0.818998161083,0.0059731420455,0.0,0.818995620869,-0.573659772906,-0.0118905360527,0.0,-0.00631189737572,0.0117143772399,-0.999911462739,0.0,0.270691210146,-0.252453016338,0.305002174236,1.0,-0.0178466666667,-0.0234556190476,2.566
-0.6228864467,-0.523024617874,-0.125579703254,-2.64324297292,-0.0677058250673,2.11010254346,-0.87063802895,-0.0808097796717,0.0109386389513,0.000739600089731,0.00784427512035,0.000474639805004,0.00104972395943,-0.0744579216857,0.573713658033,0.819022304943,0.00598744467861,0.0,0.819020107229,-0.573625400545,-0.0118621543309,0.0,-0.00628093955723,0.011709542981,-0.999911714304,0.0,0.270405044802,-0.252851102469,0.305001316533,1.0,-0.0175066666667,-0.0230087619048,2.583
-0.624234451559,-0.522825204745,-0.125584631598,-2.64311729585,-0.0676827997305,2.11010011372,-0.871895271203,-0.0794477360543,0.0158652758171,0.001963438781,0.00483777987247,0.000268953526517,-0.000150737548648,-0.0769073794123,0.573808142306,0.818955932701,0.00601190641454,0.0,0.818953603204,-0.573718930784,-0.0119302623654,0.0,-0.00632133632805,0.0117693807025,-0.99991075721,0.0,0.270089602849,-0.253241982153,0.304984916046,1.0,-0.0171666666667,-0.0225619047619,2.6
-0.625556222174,-0.522631348396,-0.125589068675,-2.64301150679,-0.0676553614614,2.1101048636,-0.873246923899,-0.0806511247406,0.0128011654704,-0.00184484336605,0.00806781915099,0.000259776541159,-0.000310205757319,-0.0774784515745,0.573804392663,0.818958331741,0.00604290763505,0.0,0.818955897274,-0.573714108971,-0.0120044320329,0.0,-0.00636435079517,0.011837298581,-0.999909682622,0.0,0.269777347412,-0.253620908485,0.304962134435,1.0,-0.0168266666667,-0.0221150476191,2.617
-0.626756200208,-0.522453435325,-0.125580705816,-2.64288687961,-0.0676291948613,2.11013794129,-0.8744278747,-0.0697194592187,0.0096744912352,-0.000532998199191,0.00536634873543,0.000507096589035,7.5193395484e-05,-0.0684133876423,0.573831880888,0.81893894889,0.00605948575032,0.0,0.818936634121,-0.573741343126,-0.012016962336,0.0,-0.00636470355149,0.0118582792733,-0.999909431779,0.0,0.269507460076,-0.253972782461,0.304956481122,1.0,-0.0165066666667,-0.0216944761905,2.633
-0.627975315874,-0.52228269196,-0.125554455644,-2.64275278729,-0.0675985979334,2.11017208726,-0.875695298761,-0.0730732139059,0.00831215035497,0.00324320639501,0.00588586743462,-0.000264114095108,0.00152730982594,-0.0681348533587,0.573793852114,0.818965512269,0.00607057583636,0.0,0.818963361723,-0.573703312713,-0.0120111631001,0.0,-0.0063541412107,0.0118637391518,-0.99990943419,0.0,0.269238991547,-0.254327741547,0.304958272502,1.0,-0.0161666666667,-0.0212476190476,2.65
-0.629322293794,-0.522071220439,-0.125451957028,-2.64261720302,-0.0675681220179,2.1102075337,-0.877073474647,-0.0679665347138,0.0106156068739,0.00708466868233,0.0055350436278,-0.000840918960558,0.00118804965297,-0.0729718744243,0.573716055203,0.819020200684,0.00604531018948,0.0,0.819017536707,-0.573625295482,-0.0120433322251,0.0,-0.00639611267718,0.0118608964747,-0.999909200316,0.0,0.268953327383,-0.254699791902,0.304947692916,1.0,-0.0157866666667,-0.0207481904762,2.669
-0.630289776269,-0.521924910657,-0.125399763572,-2.64250952404,-0.0675454916393,2.11023019134,-0.87802148912,-0.0702490064095,0.00997866823306,0.00420169431628,0.00546382305142,0.00484612890056,0.000421464743312,-0.070422827562,0.573710406316,0.819024219774,0.00603688735912,0.0,0.819021390126,-0.573619579875,-0.0120535057289,0.0,-0.0064093597345,0.0118597898839,-0.999909128617,0.0,0.268745427947,-0.254973798301,0.304946066207,1.0,-0.0155066666667,-0.0203801904762,2.683
-0.631436482236,-0.521757408752,-0.125374200804,-2.64238808691,-0.067516552566,2.11027594941,-0.879231357754,-0.0695212413439,0.0138216457673,0.00200865825013,0.00880105797587,0.000415340678929,0.00107788084957,-0.0742083807179,0.573659354674,0.819059905122,0.00604677749727,0.0,0.819057235578,-0.573568554806,-0.0120459406403,0.0,-0.00639822875335,0.0118631517977,-0.999909160023,0.0,0.268492838144,-0.255307300034,0.304944242207,1.0,-0.0151666666667,-0.0199333333333,2.7
-0.632575602398,-0.521578422892,-0.12536459978,-2.64224905055,-0.0674930899482,2.11030387461,-0.880402621048,-0.0651422311721,0.00872188087674,0.000952445326524,0.00925885287574,0.000587623197268,0.00292370130353,-0.063614279139,0.573643563316,0.819070873453,0.00605916069043,0.0,0.819068318855,-0.573552628074,-0.0120506754769,0.0,-0.00639523287869,0.0118758876289,-0.999909028007,0.0,0.268238881939,-0.255644418172,0.304944283033,1.0,-0.0148266666667,-0.0194864761905,2.717
-0.633710384754,-0.521401645042,-0.125366855624,-2.64212003841,-0.067465516392,2.11033859348,-0.881478092555,-0.0691517051425,0.00731732926358,-0.00279492370502,0.00360911752282,0.000255363122412,0.000886314842959,-0.0583961480175,0.573712344617,0.819022540091,0.00608040773815,0.0,0.819020208677,-0.573621204511,-0.0120564677418,0.0,-0.00638679098927,0.0118971502475,-0.999908829202,0.0,0.267982246986,-0.255980763732,0.304940871757,1.0,-0.0144866666667,-0.0190396190476,2.734
-0.634947394577,-0.521204174526,-0.125358043553,-2.64199170211,-0.0674371684101,2.11036362101,-0.882739392226,-0.0664636543791,0.00869491699441,0.00134187936731,0.0113332420687,0.000232021236363,0.00522073737545,-0.0655869626518,0.573705217668,0.819027382321,0.00610058433553,0.0,0.819025062226,-0.573613523169,-0.0120921621304,0.0,-0.00640455752979,0.0119340977405,-0.99990827527,0.0,0.267699249177,-0.256339848266,0.304928973841,1.0,-0.0141066666667,-0.0185401904762,2.753
-0.635985248701,-0.521035416065,-0.125325537395,-2.64188314182,-0.067415564823,2.11038731313,-0.883778357972,-0.059157599132,0.00574389636301,3.4559468082e-05,0.00538400989363,-0.000207962213553,0.00043258480794,-0.0609742056686,0.573696349232,0.819033578536,0.00610270504771,0.0,0.819031089931,-0.573604282184,-0.0121222146465,0.0,-0.006428086854,0.0119530055864,-0.999907898437,0.0,0.267467203408,-0.2566361087,0.304919076477,1.0,-0.0137666666667,-0.0180933333333,2.77
-0.637067125406,-0.520855432234,-0.125258117187,-2.64174031936,-0.0673939153079,2.11041238216,-0.884852226177,-0.0638099532853,0.00769900415143,0.00337153721471,0.00386500355268,0.000855644211923,0.00190757511948,-0.0637857485878,0.573671870459,0.819050866738,0.0060835549357,0.0,0.819048106257,-0.573579851889,-0.0121284806935,0.0,-0.00644456216302,0.0119407222505,-0.999907939148,0.0,0.267238959419,-0.256944910168,0.304921556044,1.0,-0.0134066666667,-0.0176201904762,2.788
-0.637944019795,-0.520707911058,-0.125208101336,-2.64161438968,-0.0673701154511,2.11045618608,-0.885801613601,-0.0584557718065,0.0147426747808,0.00761464159905,0.00920776068024,0.00051946606534,-3.21563183597e-05,-0.060410096068,0.57359373875,0.819105664251,0.00607293666902,0.0,0.8191029468,-0.57350211948,-0.0121007602064,0.0,-0.00642908295545,0.0119155100203,-0.999908339556,0.0,0.267059347715,-0.257201238105,0.304929473654,1.0,-0.0131066666667,-0.0172259047619,2.803
-0.638942081898,-0.520541210495,-0.125166135069,-2.64148265923,-0.0673471085895,2.11049227424,-0.886802387905,-0.0554890937832,0.0082564961426,0.00133211096493,0.00981489868368,0.00152739276221,-0.000106336166727,-0.0501889477,0.57357849006,0.819116387968,0.00606676223994,0.0,0.819113639862,-0.573486993167,-0.0120938232378,0.0,-0.00642716331482,0.0119063538065,-0.999908460966,0.0,0.266846181737,-0.257491716562,0.304932117122,1.0,-0.0127666666667,-0.0167790476191,2.82
-0.639843130495,-0.520392016711,-0.125151238518,-2.6413637121,-0.0673284489566,2.11050422281,-0.887699323096,-0.0565900808261,0.00851338920796,0.000745400458183,0.0071219939648,0.000525131830515,-1.09519983767e-05,-0.0576019996404,0.573585498101,0.819111435761,0.00607281449825,0.0,0.819108677945,-0.573493809259,-0.0121066658002,0.0,-0.00643411076288,0.0119187324609,-0.99990826881,0.0,0.2666450743,-0.257756254597,0.304932679261,1.0,-0.0124466666667,-0.0163584761905,2.836
-0.640788481733,-0.520238240401,-0.125156846455,-2.64126112011,-0.0673172664911,2.11053454886,-0.888631649427,-0.0559383995712,0.0131383469455,0.000435453092393,0.0069996232897,-0.000183695285296,-9.75223425953e-06,-0.0558010152805,0.573610402063,0.819093915494,0.00608367868805,0.0,0.81909119075,-0.573518459182,-0.0121220919849,0.0,-0.00644015375347,0.011936675496,-0.999908015868,0.0,0.266426232723,-0.258036031527,0.304925195886,1.0,-0.0121066666667,-0.0159116190476,2.853
-0.641727967979,-0.520108209882,-0.125153700138,-2.64116469844,-0.0673076813282,2.11055867542,-0.88959762782,-0.0512877062115,0.00435964534741,0.000880051060627,0.00512271504591,1.88428426411e-05,0.00114286478055,-0.0514822352737,0.573595651655,0.819104197637,0.00609005074175,0.0,0.81910152147,-0.57350361985,-0.0121261059374,0.0,-0.00644000211889,0.0119440814262,-0.999907928407,0.0,0.266208479896,-0.258310269713,0.304923314443,1.0,-0.0117666666667,-0.0154647619048,2.87
-0.642580957619,-0.519963761933,-0.12515098804,-2.64107026599,-0.0673020137148,2.11059500433,-0.890405448584,-0.0482915619475,0.0147205838038,0.00125305114899,0.00280330806126,-0.000523657185174,0.00341999157963,-0.0476644614104,0.573638203502,0.819074392034,0.00609087013512,0.0,0.819071668897,-0.573546052161,-0.0121356566491,0.0,-0.00644673519119,0.0119505655305,-0.999907807545,0.0,0.266013531544,-0.258562761782,0.304916248155,1.0,-0.0114466666667,-0.0150441904762,2.886
-0.643524870124,-0.519815782048,-0.125133010308,-2.64095099268,-0.0672889946486,2.11063289759,-0.891294062586,-0.0471677614602,0.00647686249535,0.00146564461977,0.006467226583,0.00265445779385,0.00440389116759,-0.0487862614979,0.573682527676,0.81904337071,0.00608779404794,0.0,0.819040705362,-0.573590562074,-0.0121217556787,0.0,-0.00643646634214,0.0119404204588,-0.999907994898,0.0,0.265804682204,-0.258841670457,0.304919661838,1.0,-0.0110866666667,-0.0145710476191,2.904
-0.644388200627,-0.519666589467,-0.125113223784,-2.64084514434,-0.0672873831456,2.11066373504,-0.892160700186,-0.0491416374581,0.00761213281916,0.00204463894951,0.00306732550906,3.33029521568e-05,0.00114966939543,-0.0553096949021,0.573672087602,0.819050766501,0.00607656989557,0.0,0.819047909439,-0.573580089607,-0.0121305297095,0.0,-0.00645024433861,0.0119361779801,-0.999907956766,0.0,0.265611552035,-0.259095345652,0.304915956155,1.0,-0.0107466666667,-0.0141241904762,2.921
-0.645188603428,-0.519538202004,-0.125103966786,-2.64074848297,-0.0672775841719,2.11068013976,-0.892958753291,-0.0504039826947,0.00776931051562,1.91844326502e-05,0.00730439993138,2.19371551713e-06,0.000177133154413,-0.0519464835235,0.573676719407,0.819047505501,0.00607883575353,0.0,0.819044605385,-0.5735845761,-0.0121414723587,0.0,-0.00645784055304,0.0119443476281,-0.999907810178,0.0,0.26542900351,-0.259329642522,0.30491425161,1.0,-0.0104266666667,-0.0137036190476,2.937
-0.646008833433,-0.519426789482,-0.125086583006,-2.64066611877,-0.0672670467729,2.1106989654,-0.893729315839,-0.0480990685248,0.00941568738656,0.00176034778313,0.00567411782831,0.00222370220574,0.00107795588646,-0.0431433926735,0.573713909534,0.819021457519,0.00607857160149,0.0,0.819018520052,-0.573621696829,-0.0121474128855,0.0,-0.00646231566984,0.0119478324871,-0.999907739632,0.0,0.265240401729,-0.259564186555,0.304912692942,1.0,-0.0100866666667,-0.0132567619048,2.954
-0.646797556766,-0.519338636962,-0.125079232067,-2.64058518393,-0.0672560248717,2.11072246592,-0.894471912233,-0.0446833603536,0.00474447669565,0.00156730031578,0.00538131449556,-3.10473919925e-05,0.0001806149659,-0.0409207956515,0.573755336199,0.818992409917,0.00608223495243,0.0,0.818989653683,-0.573663345557,-0.0121268308069,0.0,-0.00644275117888,0.0119393512535,-0.999907967189,0.0,0.265058579377,-0.259793073157,0.304919204789,1.0,-0.00974666666667,-0.0128099047619,2.971
-0.64752352744,-0.519239282052,-0.125069058766,-2.64049736195,-0.067246797477,2.11074259008,-0.89518305137,-0.0420492447987,0.00441710383758,0.00273182312532,0.0113944571614,-0.000452709750242,0.000342540992924,-0.0442800652154,0.573768738416,0.818983019764,0.00608235614814,0.0,0.818980346486,-0.573676895287,-0.0121144040157,0.0,-0.00643230783421,0.0119324261906,-0.999908117089,0.0,0.264894131247,-0.260005877295,0.304924497121,1.0,-0.00942666666667,-0.0123893333333,2.987
-0.648261009828,-0.519134093017,-0.12506148009,-2.6404181296,-0.0672348368873,2.11077275365,-0.895895996178,-0.0462379042012,0.0060790447862,0.000558469829192,0.00232068161651,6.85962394508e-05,0.00012475553953,-0.0359481124235,0.573792717575,0.818966189416,0.00608644008193,0.0,0.818963621527,-0.573700948305,-0.0121060080194,0.0,-0.00642273846748,0.0119311419636,-0.999908193927,0.0,0.264725683852,-0.260221023586,0.304924532967,1.0,-0.00908666666667,-0.0119424761905,3.004
-0.648994973191,-0.519018042128,-0.125060105242,-2.64031511025,-0.0672209351048,2.11080916256,-0.896633017086,-0.0382100583169,0.00275286032494,-0.000570115640851,0.0063850577956,0.000254461980945,0.00118062017681,-0.0367715624332,0.573800472564,0.818960716314,0.00609177479673,0.0,0.818958390324,-0.573708999146,-0.0120783325432,0.0,-0.00639689700987,0.0119196924938,-0.999908496133,0.0,0.264563018882,-0.260443078609,0.304931761492,1.0,-0.00872666666667,-0.0114693333333,3.022
-0.649579345217,-0.518900566196,-0.125041494855,-2.64023403977,-0.0672091953355,2.11083109163,-0.897196898063,-0.0378356891287,0.00855924102629,0.00145181420044,0.00815779992705,0.00311323848038,0.000835166431046,-0.0363435854937,0.573813365639,0.818951699647,0.00608949588908,0.0,0.818949275018,-0.573721771001,-0.012089719926,0.0,-0.00640734367693,0.0119244607068,-0.999908372394,0.0,0.264435356383,-0.26061424995,0.30492765884,1.0,-0.00842666666667,-0.0110750476191,3.037
-0.650276907529,-0.518768214968,-0.125002404394,-2.64014545414,-0.0671946630013,2.11085577729,-0.89787876999,-0.0419075551985,0.00346635703425,0.00478942589795,0.00562870813234,-6.60903885252e-05,0.000626481100511,-0.0383916562316,0.573809405797,0.818954544383,0.00608004564352,0.0,0.818951907031,-0.573717686741,-0.0121052381821,0.0,-0.00642553380961,0.0119255941075,-0.99990824215,0.0,0.264284611402,-0.260812581356,0.3049222088,1.0,-0.00806666666667,-0.0106019047619,3.055
-0.650929554163,-0.518633290669,-0.124977794106,-2.64006814886,-0.0671816380906,2.110873719,-0.89854737314,-0.0328298766479,0.00243166230692,-0.000651221603958,0.0034295608017,-1.51346302503e-06,0.00500541333117,-0.0365275371071,0.573788649543,0.818969095651,0.00607889179228,0.0,0.818966211103,-0.573696509744,-0.0121411152814,0.0,-0.00645588349359,0.0119450710997,-0.999907814173,0.0,0.264138436881,-0.260998389626,0.304909762853,1.0,-0.00770666666667,-0.0101287619048,3.073
-0.651448603136,-0.518536149339,-0.124956215082,-2.64001449194,-0.0671704756239,2.11088798571,-0.899081338782,-0.0363275327388,0.00841435595236,0.00312527530558,0.00112203276288,-0.000483918612883,0.000774321517397,-0.024931371965,0.573768825321,0.818982987685,0.00607847620399,0.0,0.818979927407,-0.573676376801,-0.0121671733166,0.0,-0.00647775446622,0.0119595249996,-0.999907499951,0.0,0.264021035201,-0.261143748599,0.304900097358,1.0,-0.00740666666667,-0.00973447619048,3.088
-0.652133843669,-0.518428560328,-0.124942229555,-2.63995840152,-0.0671554708229,2.11091511234,-0.899735796875,-0.0336433374626,0.00379987404545,-0.000593112304297,0.00269463169436,-0.000100302875805,-0.000194221257025,-0.0348024167904,0.57379360697,0.818965575717,0.00608516985817,0.0,0.818962468192,-0.573700874695,-0.0121872461652,0.0,-0.00648999275426,0.0119767202515,-0.999907214778,0.0,0.263861168282,-0.261336433272,0.304888607005,1.0,-0.00700666666667,-0.00920876190477,3.108
-0.652708552933,-0.518373884585,-0.124929115793,-2.63990866493,-0.0671385052496,2.11092519438,-0.900286835973,-0.0308896215352,0.00552886101715,0.000103491919078,0.00395232694503,0.00260622074884,0.00250911132771,-0.0307314689195,0.573813480758,0.818951589753,0.00609342627463,0.0,0.818948642822,-0.573720804696,-0.0121780778515,0.0,-0.00647745550206,0.0119783790396,-0.999907276204,0.0,0.263727087569,-0.261496734795,0.304892243585,1.0,-0.00664666666667,-0.00873561904763,3.126
-0.653196465301,-0.518305605378,-0.124917064203,-2.63985257062,-0.0671287446144,2.11094147257,-0.900764315616,-0.0310782535173,0.00461637970294,0.00111546923523,0.00277305059602,0.000674196592858,-6.18839398123e-05,-0.0257997906426,0.573820546706,0.818946633663,0.00609411934162,0.0,0.818943740482,-0.573727948727,-0.012171182152,0.0,-0.00647130665462,0.0119750458418,-0.999907355942,0.0,0.263616871059,-0.26163732326,0.304894255586,1.0,-0.00632666666667,-0.00831504761905,3.142
-0.653705687808,-0.518266118963,-0.124918135385,-2.63976792539,-0.0671122610434,2.11095910281,-0.901268774669,-0.0257035821568,0.00156435759617,0.000506466261369,0.00477585453388,0.000602045385698,-3.08616188928e-05,-0.0224085745227,0.573838563035,0.818933946377,0.00610261790538,0.0,0.818931589018,-0.57374671262,-0.0121040971153,0.0,-0.0064112224923,0.0119436542263,-0.999908118454,0.0,0.263512740193,-0.261786310356,0.304920296747,1.0,-0.00598666666667,-0.0078681904762,3.159
-0.654140109798,-0.51821293914,-0.12490784658,-2.63968818784,-0.0670977511099,2.11097324102,-0.901708602301,-0.0231874081538,0.00720953998329,-0.000215772067108,0.0111433561684,0.000241071490737,-0.000419347143105,-0.0268008178283,0.573835383051,0.818936169938,0.00610324730149,0.0,0.818934169588,-0.573744181839,-0.012049339705,0.0,-0.0063660600451,0.0119127245826,-0.999908775975,0.0,0.263410153863,-0.261937106523,0.304942375053,1.0,-0.00562666666667,-0.00739504761905,3.177
-0.654619616564,-0.518163030162,-0.124886285137,-2.63959729159,-0.0670735423472,2.1109957848,-0.902174820217,-0.0279885760022,0.00331590563115,0.000634620451727,0.000293193655683,0.000281447144003,0.000181965050332,-0.0259763079304,0.573845043914,0.818929394871,0.00610398991774,0.0,0.818927751962,-0.573754489788,-0.011994557781,0.0,-0.00632062601608,0.0118819730427,-0.9999094301,0.0,0.263319706043,-0.262070925725,0.304963103665,1.0,-0.00528666666667,-0.0069481904762,3.194
-0.654977550488,-0.518097114451,-0.124868407952,-2.63953419816,-0.0670577185543,2.11100907415,-0.902523917166,-0.0188067571079,0.00647586123929,0.000711567812643,0.00735052872498,-0.000108012651449,0.000328018778924,-0.0219745877664,0.573849564382,0.818926223574,0.00610448222029,0.0,0.818924668279,-0.573759159997,-0.0119816903916,0.0,-0.00630973935553,0.0118750275201,-0.999909581368,0.0,0.263246273963,-0.262176675015,0.304969048002,1.0,-0.00498666666667,-0.00655390476191,3.209
-0.655382835032,-0.51802016497,-0.124834090293,-2.6394848566,-0.0670326879236,2.11102498821,-0.902909620557,-0.0192669371995,0.00876311028806,0.00118965156261,0.00232528224522,-7.21336252567e-05,-0.000245703303826,-0.0182476288907,0.573854560433,0.818922701452,0.00610732504824,0.0,0.818921127743,-0.573764038854,-0.0119900439914,0.0,-0.00631487731064,0.0118821877092,-0.999909463872,0.0,0.263161844931,-0.262286997428,0.304965293845,1.0,-0.00462666666667,-0.00608076190477,3.227
-0.655695739214,-0.517959483417,-0.124787157949,-2.639469893,-0.0670112267829,2.11103605568,-0.903219573485,-0.0187422483915,0.0027624580252,0.00355189179008,-0.000887070191499,0.002910223555,-0.000195415262244,-0.0159851689283,0.57383380217,0.818937263935,0.00610509027933,0.0,0.818935459366,-0.573742915286,-0.0120219571142,0.0,-0.00634259848594,0.0118985093559,-0.999909094328,0.0,0.263095805581,-0.262361336447,0.304951794344,1.0,-0.00432666666667,-0.00568647619048,3.242
-0.656001913907,-0.517900842965,-0.124740323305,-2.63945368615,-0.0669906829732,2.11105106721,-0.903516730812,-0.0173543775586,-0.00161410690249,0.00452292182969,-0.000260142082112,0.00163912562818,0.00079565097608,-0.0104532265862,0.573817732744,0.818948552234,0.00610125264437,0.0,0.818946541962,-0.573726573842,-0.012046857593,0.0,-0.00636542836317,0.0119095295608,-0.999908818057,0.0,0.263032357367,-0.262434914465,0.304939944239,1.0,-0.00400666666667,-0.00526590476191,3.258
-0.656270109509,-0.51784257225,-0.12470129675,-2.63944908574,-0.0669701277089,2.11105602281,-0.903790687577,-0.0182056270423,0.00364016242385,0.00110385914526,-0.00102913014013,7.81394361545e-05,0.00125249228393,-0.0195915191426,0.57379457711,0.818964756112,0.00610396813341,0.0,0.818962482395,-0.5737028532,-0.0120927896577,0.0,-0.00640182785375,0.0119379278648,-0.99990824703,0.0,0.262972920527,-0.262495778948,0.304921914595,1.0,-0.00370666666667,-0.00487161904763,3.273
-0.656517830442,-0.517791084301,-0.124678131553,-2.63942540304,-0.0669495121219,2.11106187311,-0.904043577952,-0.0131024406123,0.00406042592142,-0.000631648109428,0.0041463852182,0.000142958876202,0.000121612479948,-0.0150923070305,0.573784033579,0.818972090597,0.00611101741952,0.0,0.818969776777,-0.573692034958,-0.0121120044615,0.0,-0.00641367507918,0.0119546435105,-0.999907971401,0.0,0.262920013264,-0.262559853816,0.304914756352,1.0,-0.00338666666667,-0.00445104761905,3.289
-0.656752609882,-0.517751567587,-0.124659643817,-2.63940998473,-0.0669290149374,2.11106720045,-0.904285368857,-0.0123833591835,0.00164841609528,-0.000322959146946,0.00286976845113,0.000175017196933,0.000298934032115,-0.00217884159023,0.573774812806,0.818978476646,0.00612093790864,0.0,0.818976178443,-0.573682560338,-0.0121279020148,0.0,-0.00642113901275,0.0119718175398,-0.999907718021,0.0,0.262867749197,-0.262619544153,0.304908099942,1.0,-0.00306666666667,-0.00403047619048,3.305
-0.656988732724,-0.517709320776,-0.124648213726,-2.6393950087,-0.0669055211219,2.11107280902,-0.904527659846,-0.0124294406743,0.00146593337221,0.00174664604302,0.00282222084113,0.000501532728855,-0.000769056542196,-0.0160470508817,0.573772563615,0.81897993181,0.0061370544377,0.0,0.818977708808,-0.573679988072,-0.012146220062,0.0,-0.00642692889982,0.0119955095562,-0.99990739688,0.0,0.262813720521,-0.262680688203,0.304900096033,1.0,-0.00272666666667,-0.00358361904763,3.322
-0.657206168939,-0.517685271347,-0.12461842095,-2.63936038535,-0.0668882321905,2.11107808662,-0.904751604605,-0.0127842042704,0.000502739317477,0.00304083201947,0.00325338742095,0.00348851815161,0.0014842502556,-0.0157566969121,0.573755168517,0.818992135187,0.0061348188848,0.0,0.818989997489,-0.573662820392,-0.0121284547607,0.0,-0.00641391504467,0.0119833496247,-0.999907626246,0.0,0.262772898378,-0.262738881324,0.304908123104,1.0,-0.00238666666667,-0.00313676190477,3.339
-0.657409283509,-0.517667475013,-0.124583971585,-2.63933519952,-0.0668608147241,2.11107744943,-0.90495450109,-0.00687913215984,-0.000573200397849,0.000653724734012,-0.000252210072727,0.000477473449449,3.08846158743e-06,-0.00524651995703,0.573743838541,0.819000030244,0.00614044768052,0.0,0.818998020242,-0.573651569406,-0.0121188555333,0.0,-0.00640298887692,0.0119823638838,-0.999907708086,0.0,0.262734821709,-0.262788108543,0.304913778252,1.0,-0.00202666666667,-0.00266361904763,3.357
-0.6575932725,-0.51765839093,-0.124549566259,-2.63932127475,-0.066842801205,2.1110867085,-0.905130707755,-0.00929949646153,-0.000129133028256,0.00427865266806,0.000936780942084,0.000281423005194,0.00138384539368,-0.0134106584867,0.573734153962,0.819006833169,0.0061379721346,0.0,0.819004894323,-0.573642091456,-0.0121029288454,0.0,-0.00639150530946,0.0119711233423,-0.999907916193,0.0,0.262700086952,-0.262831904552,0.304918365497,1.0,-0.00168666666667,-0.00221676190477,3.374
-0.657739376372,-0.517657738404,-0.124525525709,-2.63931244233,-0.0668234099684,2.11108943213,-0.905283410406,-0.00794217677247,-0.00128221527458,0.00236416840947,0.00131417318359,0.00214920877616,2.13156878599e-05,-0.0101931025926,0.573720366067,0.819016456544,0.00614266809367,0.0,0.819014655818,-0.57362843006,-0.0120898587219,0.0,-0.00637830699772,0.011967363775,-0.999908045474,0.0,0.262671147659,-0.262865763271,0.304922946652,1.0,-0.00136666666667,-0.0017961904762,3.39
-0.657884192476,-0.517643565768,-0.124497738976,-2.63930304018,-0.0668092437904,2.11108472794,-0.905375831652,-0.00592658830711,0.00120870020245,0.00187023384417,0.000880209229724,0.00127905327921,-0.000452430361877,-0.00471913015531,0.573750102785,0.818995631714,0.00614179845586,0.0,0.818993771443,-0.573658073839,-0.0120980807518,0.0,-0.00638510594879,0.011971600246,-0.999907951368,0.0,0.262641557013,-0.262897856404,0.304922254392,1.0,-0.00104666666667,-0.00137561904763,3.406
-0.658012231752,-0.517644564828,-0.124477754377,-2.63929836307,-0.0667942406861,2.11109101732,-0.905453952937,-0.0064948584046,-0.000142521603422,3.90482139584e-05,0.000628508119296,-0.000206126956769,-4.33342530128e-05,-0.00539048773746,0.573783406244,0.818972283171,0.00614402294153,0.0,0.818970538507,-0.573691522979,-0.0120847184777,0.0,-0.006372398293,0.0119660150915,-0.999908099289,0.0,0.262615720817,-0.262927747202,0.304925762519,1.0,-0.000706666666672,-0.000928761904769,3.423
-0.658085396394,-0.51763500362,-0.124474011295,-2.63929853619,-0.0667752334994,2.1110903101,-0.905503612884,-0.00144209932413,0.00194154867559,0.000433284927276,-0.00120803496746,4.86766957861e-05,-0.000141071153651,0.000642409843905,0.573808148226,0.818954832564,0.00615939533584,0.0,0.818953221804,-0.573716067419,-0.0120930303409,0.0,-0.00637002421097,0.0119835667218,-0.999907904219,0.0,0.262598659232,-0.26294392646,0.304922199314,1.0,-0.000366666666672,-0.000481904761912,3.44
-0.658092397902,-0.517631737383,-0.124464369365,-2.6392954857,-0.0667638147776,2.11108980029,-0.905528317158,0.00134061625496,0.000222815128792,0.00169937551912,-0.000869057360971,0.000144671722758,-0.000688855133726,-0.000719464319381,0.573791834961,0.818966225294,0.00616432162416,0.0,0.818964673685,-0.573699726459,-0.0120927258,0.0,-0.0063671869604,0.0119872997665,-0.999907877544,0.0,0.262600512708,-0.262943181451,0.304922571284,1.0,-4.66666666721e-05,-6.13333333404e-05,3.456
-0.65809488844,-0.517621038168,-0.124446247996,-2.63929240473,-0.066752783792,2.11109563356,-0.905542894398,0.00020724329959,0.00135254850643,0.00194538258665,-0.000101445768193,0.00389791528461,0.000296528668399,-0.00667222982681,0.573773969315,0.818978743184,0.00616419087414,0.0,0.818977181051,-0.573681848601,-0.0120938168113,0.0,-0.00636841708836,0.0119876797415,-0.999907865155,0.0,0.262606221503,-0.262940227056,0.304920957267,1.0,0.0,0.0,3.473
-0.658092843071,-0.517623220222,-0.124416173,-2.63928739206,-0.0667435524345,2.11109741815,-0.905545198248,6.53570458045e-06,0.000552825895369,-0.00110301976527,0.00141240245957,0.000579375287992,0.000468389438346,-0.000604959351973,0.573753216082,0.818993343562,0.00615606518241,0.0,0.818991739854,-0.57366125652,-0.0120846894941,0.0,-0.00636590673032,0.0119756265649,-0.99990802557,0.0,0.262615680351,-0.262933812773,0.304924902414,1.0,0.0,0.0,3.49
-0.658087489787,-0.517615069754,-0.124380832905,-2.63928679832,-0.0667374371524,2.11109741815,-0.905550688064,0.000956218833862,0.0014041816208,0.000393268297608,-0.000364701584928,0.000212088009801,2.30303026951e-05,-0.000834720351974,0.573721925636,0.819015353146,0.00614412381511,0.0,0.819013553648,-0.573629949622,-0.0120924248347,0.0,-0.00637955098796,0.011970040402,-0.999908005499,0.0,0.262625368549,-0.262924128202,0.30492300072,1.0,0.0,0.0,3.508
-0.658087383676,-0.517606624038,-0.124371302559,-2.63929208799,-0.0667333911964,2.11109513096,-0.905548838447,6.917180203e-05,-0.00234995048447,-0.00166975023601,0.00119770006478,0.000253778847821,-0.000302205059842,0.000399649826775,0.573718115079,0.819018021131,0.00614429767764,0.0,0.819016122684,-0.573625949321,-0.012108176991,0.0,-0.00639240964413,0.0119791899774,-0.999907813804,0.0,0.262626105219,-0.262919788493,0.304917515548,1.0,0.0,0.0,3.524
-0.658089767862,-0.51761378187,-0.124365964307,-2.63928633694,-0.0667318920888,2.11109686539,-0.905555967584,0.000588908926307,-0.000626469086443,0.000962657420069,0.000413625156011,-0.000207358801027,-0.000474949697853,-0.00155789670913,0.573711306712,0.819022810697,0.00614158042393,0.0,0.819020972277,-0.573619333286,-0.0120935665467,0.0,-0.00638210047152,0.0119685294677,-0.999908007317,0.0,0.262628530596,-0.262920957437,0.304923040615,1.0,0.0,0.0,3.541
-0.658099831778,-0.517608987674,-0.124369582525,-2.63927850358,-0.0667285665979,2.11110077351,-0.905554704773,-0.00227941448319,0.000114789111054,0.000352172151619,0.000529328131099,-8.21239561634e-05,8.63787875131e-05,0.000576414958722,0.573724950548,0.819013229769,0.00614471177336,0.0,0.819011476429,-0.573633043567,-0.0120863438107,0.0,-0.00637418848695,0.0119670568697,-0.99990807541,0.0,0.262627682131,-0.262926545196,0.304925082944,1.0,0.0,0.0,3.557
-0.658094815583,-0.517610859649,-0.124371236409,-2.63928596607,-0.0667278482163,2.11110230426,-0.905556457439,-3.53589237638e-05,1.78383025149e-05,0.00010826103533,-0.00127909611507,0.000289945957394,2.90958660731e-05,-0.000212462204853,0.573720534902,0.819016305491,0.00614703766058,0.0,0.819014554962,-0.57362856704,-0.0120901917838,0.0,-0.0063760705618,0.0119711350927,-0.999908014594,0.0,0.262627283113,-0.262923836873,0.30492247493,1.0,0.0,0.0,3.574
