nelsonifechukwu/NELSON_IML_WORK/CNN-GradCAM/train2dof/data_sample_2022-02-22-14-26-22/robot_state.csv
position_joint1,position_joint2,position_joint3,position_joint4,position_joint5,position_joint6,position_joint7,velocity_joint1,velocity_joint2,velocity_joint3,velocity_joint4,velocity_joint5,velocity_joint6,velocity_joint7,ee_T_00,ee_T_10,ee_T_20,ee_T_30,ee_T_01,ee_T_11,ee_T_21,ee_T_31,ee_T_02,ee_T_12,ee_T_22,ee_T_32,ee_T_03,ee_T_13,ee_T_23,ee_T_33,v_x,v_y,time
0.465088621462,0.547750526861,-0.12400889958,-1.35582722794,0.0795266805602,1.89410837972,0.15915122755,3.46214260533e-05,-0.00103519474919,-0.00131061423462,-0.000189788919652,0.000260658983546,-0.000684340459968,-0.00110528306924,0.573807991541,0.81897568181,0.00199207154949,0.0,0.81893295772,-0.573749122875,-0.0118954471159,0.0,-0.00859929817112,0.00845723849215,-0.999927260949,0.0,0.661680067693,0.260894518375,0.303240250694,1.0,0.0,0.0,0.0
0.46508578693,0.547755816694,-0.124003892176,-1.35582669459,0.079525573574,1.8941090168,0.159156430733,-0.000597625715049,0.00139801049397,0.000798826293512,0.00128081148369,4.68131542004e-05,0.000184743787191,0.000819128505283,0.573810766788,0.818973744972,0.00198893567131,0.0,0.818930966253,-0.573751897119,-0.0118987379719,0.0,-0.00860376403178,0.00845658778614,-0.999927228036,0.0,0.661679828036,0.260895397524,0.303236644664,1.0,-0.00018,-0.000236571428571,0.01
0.465085432727,0.547751917403,-0.124006637196,-1.35583519988,0.0795254562806,1.89410931714,0.159156446804,-2.52042717414e-06,0.000818741703597,-0.000152832693204,-0.000717064739708,5.43572515771e-05,9.14755150714e-05,0.000602150793789,0.573811788847,0.818973032656,0.001987376066,0.0,0.818930238636,-0.573752930394,-0.0118989921183,0.0,-0.00860485648918,0.00845546710282,-0.999927228113,0.0,0.661678042601,0.260894506305,0.303237851029,1.0,-0.00052,-0.000683428571429,0.027
0.46508290193,0.547735940789,-0.124004947034,-1.3558500914,0.0795266741693,1.89410651687,0.159156428764,0.000346574200907,0.000703879052248,0.000763915038248,-0.00216761550904,3.17131941415e-05,-0.000516407485944,0.000311374928747,0.573815381467,0.81897052006,0.0019854887354,0.0,0.818927664424,-0.573756493965,-0.0119043258676,0.0,-0.00861027066553,0.0084570197655,-0.999927168376,0.0,0.661675423904,0.260890369261,0.303239408934,1.0,-0.00084,-0.001104,0.043
0.465084344634,0.547651683043,-0.124003736816,-1.35593801758,0.0795224932817,1.89412344105,0.159154547459,9.02592139616e-05,-0.0063250878914,0.00131674225507,-0.0105151497652,5.8115810648e-05,0.000735153663596,-0.000446854201257,0.573815475329,0.818970421461,0.00199898630468,0.0,0.818927705775,-0.573756496974,-0.011901335864,0.0,-0.00860007624691,0.00846635896786,-0.999927177076,0.0,0.661660452155,0.260883168052,0.3032586703,1.0,-0.00118,-0.00155085714286,0.06
0.46508078903,0.54749919181,-0.124006994317,-1.35612086801,0.0795201973487,1.8941505005,0.159144225334,-0.000760896581589,-0.014307050931,-0.000437269448204,-0.0122046944929,0.000193011267338,-0.000406312991774,-0.000387736904964,0.573819525963,0.81896758667,0.00199762590754,0.0,0.818924717629,-0.573760419237,-0.0119178469114,0.0,-0.00861433749786,0.0084747616629,-0.999926983136,0.0,0.661630073114,0.260863609586,0.303277558288,1.0,-0.00152,-0.00199771428571,0.077
0.465062370655,0.547370967482,-0.124007317263,-1.35630390636,0.0795181593306,1.8942148075,0.159147859812,-0.00257115313904,-0.0111843609017,0.000488961807202,-0.011692168236,3.97647910048e-05,0.00486235824474,-0.00060072694492,0.573849460745,0.818946567508,0.00201565630707,0.0,0.818903870302,-0.573790213739,-0.0119159020756,0.0,-0.00860208885719,0.00848872616572,-0.999926970131,0.0,0.661608999592,0.260832313617,0.303291417274,1.0,-0.00184,-0.00241828571429,0.093
0.46504214235,0.547182815542,-0.124004455222,-1.35651524636,0.0795142303692,1.89435172613,0.159140345071,-0.00024341537787,-0.0146592878317,0.000506161717219,-0.0128202036482,0.000417624920636,0.0051089423349,0.0012493273548,0.57386897994,0.818932634484,0.0021168234413,0.0,0.818891245631,-0.573809310344,-0.0118638144017,0.0,-0.00850117545804,0.00854188771135,-0.999927380448,0.0,0.661597664929,0.260806652256,0.303335890227,1.0,-0.00218,-0.00286514285714,0.11
0.465018810862,0.547006583542,-0.124004569251,-1.35674809115,0.079510863942,1.89447520812,0.159128914855,9.53523337218e-06,-0.00866575139335,-0.000518398265103,-0.0194512196814,-0.000190662212171,0.0125438711031,0.000390097036885,0.573891159486,0.818916929836,0.00217853007643,0.0,0.818876302652,-0.573831200245,-0.0118364471501,0.0,-0.00844312098803,0.00857694416612,-0.999927572245,0.0,0.661579849583,0.260773675147,0.303360610664,1.0,-0.0025,-0.00328571428571,0.126
0.464983933806,0.546763393544,-0.124004534283,-1.35707690658,0.0795045229507,1.89459738304,0.159103651258,-0.002455912548,-0.0150204216259,0.000111569494035,-0.0248325162288,0.000627198779755,0.00135018835645,-0.00127129001764,0.573915678645,0.818899641401,0.00221766087435,0.0,0.818859407047,-0.573855444253,-0.0118299405482,0.0,-0.00841507932278,0.0086055065093,-0.999927563225,0.0,0.661544653201,0.260722056338,0.303386940806,1.0,-0.00284,-0.00373257142857,0.143
0.464949550543,0.546490521736,-0.124009449209,-1.35747643484,0.0794908062629,1.89473984336,0.159027973221,-0.00212093886629,-0.013729781613,-0.000364524147407,-0.0233681687829,-0.00359856395297,0.00367911789099,-0.00828613808399,0.573903956899,0.818907805244,0.00223644083182,0.0,0.818867737236,-0.573843570738,-0.011829291512,0.0,-0.00840389375797,0.00862039241871,-0.999927529076,0.0,0.661499458705,0.260660074147,0.303402531297,1.0,-0.00318,-0.00417942857143,0.16
0.46490301313,0.546208583911,-0.12400699101,-1.3579386935,0.0794711605634,1.89489628307,0.158940366041,-0.00215357344792,-0.0124002895542,0.000517612660185,-0.0282904500037,0.000312775956584,0.00502253264889,-0.000755131610175,0.573889190993,0.8189181937,0.0022215738527,0.0,0.818877819451,-0.573828749421,-0.0118503185688,0.0,-0.00842980083128,0.008620133253,-0.999927313239,0.0,0.661444667488,0.260586977319,0.30339562605,1.0,-0.00352,-0.00462628571429,0.177
0.464866315449,0.545910038167,-0.124005109615,-1.35842387902,0.0794440029466,1.89506881922,0.158911078578,-0.00108918368576,-0.0190439173334,-0.000197921769974,-0.0355912163695,0.000682373110509,0.0100249801663,-0.00200901306579,0.573911799154,0.818902401128,0.00220252597092,0.0,0.818861739549,-0.57385138979,-0.0118651102132,0.0,-0.00845260739267,0.00861325682946,-0.999927179966,0.0,0.661380815096,0.260511616566,0.303386632889,1.0,-0.00386,-0.00507314285714,0.194
0.46480926055,0.54554582463,-0.124007721801,-1.35905042507,0.0793848756876,1.89527738841,0.158806432219,-0.00521199672423,-0.0229477343368,-0.000292920958888,-0.0389578285213,-0.000130733726446,0.00114912117553,-0.0106568128892,0.573895933682,0.818913653668,0.00215221772625,0.0,0.818872496241,-0.573835888025,-0.0118724646165,0.0,-0.00848766702084,0.00857611618494,-0.99992720222,0.0,0.661312282727,0.260413166873,0.303368686877,1.0,-0.0042,-0.00552,0.211
0.464740397364,0.545155776278,-0.12400550879,-1.35973048207,0.0793563288002,1.89549712683,0.158726969995,-0.00624547256719,-0.0236392629235,0.00475650266963,-0.0455480950142,-0.00038661070353,0.0135974360122,-0.00238852671391,0.573915976139,0.818899744534,0.00209943688106,0.0,0.818857722442,-0.573855963193,-0.0119210236867,0.0,-0.00855751363672,0.00856097087378,-0.999926736685,0.0,0.661229143765,0.260303588758,0.303340078962,1.0,-0.00454,-0.00596685714286,0.228
0.46468889374,0.544753879426,-0.124005496804,-1.36038335476,0.0793302716324,1.8957218217,0.158669111971,-0.00306928771344,-0.0242534211271,0.000889338732559,-0.039801786332,-0.00235904450301,0.0169336381754,-0.00573858296101,0.57394019711,0.818882808316,0.00208405542486,0.0,0.818840436354,-0.573880095085,-0.0119466798321,0.0,-0.0085870981338,0.0085633535022,-0.999926462657,0.0,0.66114932793,0.260208347862,0.303333269158,1.0,-0.00486,-0.00638742857143,0.244
0.464627148258,0.544307610886,-0.124012999349,-1.36113617168,0.0792973331407,1.89599337477,0.158564078187,-0.00595539871597,-0.0271754780203,-0.00102303487592,-0.044493240694,-0.00199969924813,0.0214909153337,-0.00062865364731,0.573943256885,0.818880728815,0.00205833749484,0.0,0.818837924307,-0.573883164475,-0.0119713888452,0.0,-0.0086220603888,0.00855650744436,-0.999926220406,0.0,0.661061733535,0.260092768998,0.303314562461,1.0,-0.0052,-0.00683428571429,0.261
0.464558964472,0.543810447263,-0.124008210772,-1.36194696565,0.0792563552288,1.89628013686,0.158462569837,-0.00579606182387,-0.0258069131216,0.00393662832728,-0.0522304788033,-0.000527942129623,0.0187029740006,-0.00791146618418,0.573946854742,0.818878251598,0.00204056203561,0.0,0.818835089765,-0.573886712092,-0.0119951804781,0.0,-0.00865170755222,0.00855564462772,-0.999925971711,0.0,0.660964375543,0.259973577316,0.303305127711,1.0,-0.00554,-0.00728114285714,0.278
0.464484035319,0.543297575551,-0.124018347461,-1.36278605267,0.0792078625969,1.89656933146,0.158355278558,-0.000921968531626,-0.0291834467057,-0.000789540426996,-0.0529747387519,-0.00142584017364,0.0208895118867,-0.00345819969014,0.573961167861,0.818868301004,0.00200756058154,0.0,0.818824699312,-0.573901153925,-0.0120135016457,0.0,-0.00868550157025,0.00853928803197,-0.99992581856,0.0,0.660866878837,0.259837082191,0.303293974747,1.0,-0.00588,-0.007728,0.295
0.46439859013,0.542731691566,-0.124011358036,-1.36367419456,0.079150295221,1.8968927238,0.158233327513,-0.0045348329007,-0.0359127863258,-0.000404491806874,-0.0514607900576,-0.0060981499479,0.0217404046904,-0.00828365266124,0.573960421779,0.818868823083,0.00200791329763,0.0,0.818825210552,-0.573900391254,-0.0120150898068,0.0,-0.00868660746635,0.00854048047265,-0.999925798769,0.0,0.66076548847,0.259699299384,0.303299297097,1.0,-0.00622,-0.00817485714286,0.312
0.464322242675,0.542140889873,-0.124022229438,-1.36459118523,0.0790984395571,1.89722945048,0.158110689889,-0.00354488322133,-0.0343521448617,-0.000561444019134,-0.0545808712531,-0.00522355739712,0.0202866552266,-0.0086281778996,0.573967259736,0.818864010225,0.00201603812033,0.0,0.818820515307,-0.573907205246,-0.012009595374,0.0,-0.00867737369214,0.00854405241939,-0.999925848428,0.0,0.660662036498,0.259555917711,0.303310194086,1.0,-0.00656,-0.00862171428571,0.329
0.464224736189,0.541549925921,-0.124018011425,-1.36549970916,0.0790462921104,1.8975573132,0.158004801873,-0.0107683472394,-0.0423301656097,0.000642045953655,-0.0525215580353,-0.00146957041688,0.0196005508394,-0.0102057794339,0.573993905409,0.818845304637,0.00202744378459,0.0,0.818801895873,-0.573933737443,-0.0120111298686,0.0,-0.00867180586667,0.00855455485792,-0.999925806935,0.0,0.660560673718,0.259407671632,0.303323889219,1.0,-0.00688,-0.00904228571429,0.345
0.464139654789,0.540886660846,-0.124024348938,-1.36651796283,0.0789897534312,1.89793960481,0.157855615903,-0.00453010156994,-0.0408981982113,-0.000926316547143,-0.0624470795741,-0.00226538394026,0.0189920358118,-0.0116019396536,0.573987274092,0.818849892435,0.00205176561951,0.0,0.818806786826,-0.573926990161,-0.0120001130665,0.0,-0.00864889414521,0.00856807676409,-0.999925889599,0.0,0.660446029988,0.259252430079,0.303341455112,1.0,-0.00722,-0.00948914285714,0.362
0.464049576967,0.54021779145,-0.124026805107,-1.36753474035,0.0789189914004,1.89831262693,0.157735823644,-0.0041437548582,-0.0426296746767,-0.00100999435531,-0.0637429131132,-0.00134299760672,0.0269875450247,-0.00879194117441,0.574002039419,0.818839502679,0.00206748553687,0.0,0.818796689501,-0.573941774348,-0.011981979033,0.0,-0.00862486749042,0.00857069572683,-0.999926074685,0.0,0.660331040538,0.259093470474,0.303362624584,1.0,-0.00754,-0.00990971428571,0.378
0.463936659263,0.539439943746,-0.124032849271,-1.36875748072,0.0788523722866,1.89877354849,0.157583587218,-0.002755086911,-0.0455560478338,0.00013846545247,-0.0700119639094,-0.00334628569768,0.028551640427,-0.00638949995434,0.57402402251,0.818824053879,0.00208261173206,0.0,0.818781403537,-0.573963657257,-0.0119783250741,0.0,-0.00861296307568,0.00858121531394,-0.999926087074,0.0,0.660195145599,0.258900969505,0.30337043311,1.0,-0.0079,-0.0103828571429,0.396
0.46384219009,0.538726403236,-0.124033182589,-1.3698552701,0.078792399632,1.89919844835,0.157444630708,-0.00525253061275,-0.0461004049965,0.000672306944071,-0.0715973469411,3.90637749675e-05,0.0308897416194,-0.0102911820765,0.574032580389,0.81881795925,0.00211970820777,0.0,0.81877575551,-0.573972022967,-0.0119635254635,0.0,-0.0085794614786,0.00860318471963,-0.999926186302,0.0,0.660072581737,0.258736593016,0.303388842581,1.0,-0.00822,-0.0108034285714,0.412
0.463730939269,0.53793772086,-0.124046652442,-1.37107612094,0.0787205968075,1.89966853176,0.157299453647,-0.00426704914152,-0.0484324504089,-0.00195976815858,-0.0709036168641,-0.00911819208051,0.0270999408441,-0.00662266133643,0.574062551408,0.818796871915,0.00214860762392,0.0,0.818755111701,-0.574001938589,-0.0119410409745,0.0,-0.00854414655719,0.00861425377447,-0.999926393387,0.0,0.659940295313,0.258541060022,0.303405968475,1.0,-0.00856,-0.0112502857143,0.429
0.463626687374,0.537130413589,-0.124045666018,-1.37233804658,0.078642210171,1.90013604957,0.157146234474,-0.00914464454337,-0.0481887042521,0.000592632403614,-0.075082629835,-0.00679399673602,0.0349873619953,-0.00385891755345,0.574070329945,0.818791393492,0.00215803659433,0.0,0.81874975877,-0.574009680276,-0.0119359275157,0.0,-0.00853446514253,0.00861911973289,-0.999926434134,0.0,0.659793444431,0.258352681617,0.303415848814,1.0,-0.0089,-0.0116971428571,0.446
0.463524200402,0.536328062329,-0.124054830557,-1.37358927367,0.0785765499299,1.90060393476,0.156989285329,-0.0060124771538,-0.0526172600078,-0.0012553757387,-0.0804251190573,-0.00403133619792,0.0269487704163,-0.0116499178268,0.574083503175,0.818782107603,0.00217682168684,0.0,0.818740668314,-0.574022725438,-0.01193212597,0.0,-0.0085204301771,0.00863245532136,-0.999926438787,0.0,0.659649902752,0.258162871793,0.303427564348,1.0,-0.00922,-0.0121177142857,0.462
0.463422777749,0.535467817312,-0.124056938858,-1.37497178324,0.0784965539997,1.90110805534,0.156825478426,-0.0100987300376,-0.0505291237727,-0.000135807533912,-0.0836661600158,-0.00119290185974,0.0346244585618,-0.011584832053,0.574088442028,0.818778684539,0.00216179917042,0.0,0.818736997895,-0.574027672736,-0.0119459663883,0.0,-0.00854033452613,0.00862815231386,-0.999926306122,0.0,0.65948325044,0.257963191666,0.303420406395,1.0,-0.00956,-0.0125645714286,0.479
0.463300419097,0.534566869924,-0.124055262837,-1.37641023464,0.0784164448199,1.90162516507,0.156657511574,-0.0124639479172,-0.0509479097725,-0.00086692551813,-0.0777384377354,-0.00980708562176,0.0358201692075,-0.00513264938599,0.57410729972,0.818765498367,0.00214802100099,0.0,0.818723521921,-0.574046473456,-0.0119661133013,0.0,-0.0085645417341,0.00862863444259,-0.999926094915,0.0,0.659311463782,0.257746677404,0.303416175448,1.0,-0.0099,-0.0130114285714,0.496
0.463176719633,0.533657251019,-0.124058005666,-1.37789555148,0.0783374385704,1.90217231819,0.156479807583,-0.00437333796933,-0.0518406742946,-0.00130304987985,-0.0877657265477,-0.000415213201398,0.038899875938,-0.0111346777053,0.574125250347,0.81875296538,0.00212732169937,0.0,0.818710607662,-0.574064395617,-0.0119898910843,0.0,-0.00859570472816,0.00862552612969,-0.999925854331,0.0,0.659135925154,0.257523492724,0.303398341433,1.0,-0.01024,-0.0134582857143,0.513
0.463045815317,0.532714805693,-0.124050323382,-1.37941747337,0.0782512364219,1.90274258317,0.156264584608,-0.00955271668132,-0.0588161602667,0.000933531318484,-0.0893133863556,-0.00127672099606,0.0369001876511,-0.0138739865269,0.574110987017,0.818762977827,0.00212311722428,0.0,0.818720458767,-0.574050044832,-0.012004304459,0.0,-0.00861007029838,0.00863020874757,-0.999925690332,0.0,0.658956824097,0.257298129115,0.30338769687,1.0,-0.01058,-0.0139051428571,0.53
0.462911520418,0.531732183469,-0.124055641332,-1.3809812926,0.0781558937665,1.90331239844,0.156078314666,-0.00862920358522,-0.0623486416072,-1.59787155732e-05,-0.0948978964371,-0.0111889590753,0.0318378182328,-0.0138999002291,0.574131873166,0.818748363708,0.00211093396434,0.0,0.818705684216,-0.574070977918,-0.0120109053187,0.0,-0.00862224915614,0.00862424324808,-0.999925636859,0.0,0.658772857001,0.257057060031,0.303385592287,1.0,-0.01092,-0.014352,0.547
0.462786606108,0.53079077101,-0.124055746539,-1.38251246548,0.0780695825189,1.90385335834,0.155883263811,-0.00796635624517,-0.0613231076376,0.00024635242098,-0.0964681910928,-0.0143041034019,0.028154412647,-0.0164082779032,0.574134636556,0.818746524358,0.00207240440374,0.0,0.818703218894,-0.574073781209,-0.0120449160416,0.0,-0.00867218707946,0.00861225346264,-0.999925308341,0.0,0.658585136141,0.256828063107,0.303367127405,1.0,-0.01124,-0.0147725714286,0.563
0.462647009063,0.529760166002,-0.124063889424,-1.38415543155,0.0779627281337,1.90445387963,0.155662635172,-0.00630865240549,-0.0585517346356,-0.00062081350288,-0.0913300799758,-0.00803004948614,0.0444889196884,-0.0108416263048,0.574134576397,0.818746608806,0.00205563995217,0.0,0.818703154364,-0.574073861857,-0.012045458414,0.0,-0.00868225622238,0.00859883863139,-0.999925336413,0.0,0.658391851,0.256573373607,0.303363470531,1.0,-0.01158,-0.0152194285714,0.58
0.462499297244,0.528691840519,-0.124064514428,-1.38582810511,0.0778546466638,1.90507881593,0.155430552978,-0.00927405250624,-0.0631591341334,3.08662184885e-05,-0.102652938229,-0.00650177828373,0.0389067553311,-0.0118971213523,0.574127618298,0.818751455222,0.00206866650031,0.0,0.818708220776,-0.574066898705,-0.0120329525331,0.0,-0.00866461125538,0.00860225026871,-0.999925460123,0.0,0.658197446464,0.256316165865,0.303373858882,1.0,-0.01192,-0.0156662857143,0.597
0.462357982477,0.52757589446,-0.124064844276,-1.38755247582,0.0777483276771,1.9057508264,0.15518120299,-0.00890713618718,-0.0740502156495,-0.00105775035957,-0.105085958464,-0.0163614996586,0.0423344366449,-0.0128639986228,0.574104327941,0.81876765412,0.00212040273024,0.0,0.818725140986,-0.574043439379,-0.0120008385367,0.0,-0.00860886088732,0.00862592644294,-0.999925737696,0.0,0.6579992953,0.256061319467,0.303396977635,1.0,-0.01226,-0.0161131428571,0.614
0.462205729836,0.526413579764,-0.124062714324,-1.38934853244,0.0776320828334,1.90642193191,0.154948667721,-0.0125525144344,-0.0670707565368,0.00110427740794,-0.112126009649,-0.00828621417416,0.039270591295,-0.00749476847701,0.574102774452,0.818768670884,0.00214821934829,0.0,0.81872656463,-0.574041814582,-0.0119814181863,0.0,-0.00857700724483,0.00863753596902,-0.999925911215,0.0,0.657787626431,0.255791195562,0.303418146845,1.0,-0.0126,-0.01656,0.631
0.46205553646,0.525238046021,-0.124073399039,-1.39116222185,0.0775222227191,1.90708431202,0.154703876646,-0.0116068115988,-0.0726870538766,-0.000174571893247,-0.106376625316,-0.00624302046408,0.0430506374267,-0.0145413132315,0.574100929599,0.818769915572,0.00216676950452,0.0,0.818728066268,-0.574039908524,-0.0119701222993,0.0,-0.00855712860744,0.00864621981244,-0.999926006479,0.0,0.657571897893,0.255513525793,0.303439582948,1.0,-0.01294,-0.0170068571429,0.648
0.461914427674,0.524140257098,-0.124077869673,-1.39293952673,0.0774080084798,1.90771004438,0.154453159335,-0.0105852917422,-0.0674139523437,0.000931693588458,-0.108823111716,-0.00635637797329,0.0384363823716,-0.015807218401,0.574078942433,0.818785463547,0.00211646872658,0.0,0.818742952894,-0.57401812741,-0.0119963908434,0.0,-0.00860774474824,0.00861988518281,-0.999925799402,0.0,0.65735128097,0.25524561126,0.303420016207,1.0,-0.01326,-0.0174274285714,0.664
0.461752573408,0.522916592053,-0.124085459911,-1.39487144976,0.0772917484366,1.90844402529,0.154206982813,-0.00323432087143,-0.069192033939,0.00196708690065,-0.11607631648,-0.00681397064254,0.0490030246126,-0.0151270297861,0.574080509082,0.818784309983,0.00213769008126,0.0,0.818742021267,-0.574019550336,-0.0119918866211,0.0,-0.00859185813314,0.00863469131883,-0.999925808288,0.0,0.657108442797,0.254942268902,0.303420912439,1.0,-0.01362,-0.0179005714286,0.682
0.461594540732,0.521682900822,-0.124089032944,-1.39682296456,0.0771790288182,1.90921692085,0.153932500988,-0.0111894239204,-0.072340388108,-0.00170590035866,-0.11574351351,-0.0102667369719,0.0435699914129,-0.0194204625034,0.574069336964,0.818792026928,0.00218171899022,0.0,0.818750400525,-0.57400828679,-0.0119588978255,0.0,-0.00853968982607,0.00865168641438,-0.99992610828,0.0,0.65689893962,0.254665358706,0.303429704882,1.0,-0.01394,-0.0183211428571,0.698
0.461423455113,0.520423602804,-0.124087181832,-1.39885517766,0.0770474566587,1.90995498408,0.15366347418,-0.00569079069978,-0.0748167854187,-0.00143753561551,-0.117351983477,-0.00714242133202,0.048460067068,-0.0118433777589,0.574060706897,0.818798169148,0.00214706730561,0.0,0.8187560929,-0.573999802456,-0.011976394324,0.0,-0.00857399861225,0.00863326804721,-0.999925973875,0.0,0.656650216565,0.254358221315,0.303410895858,1.0,-0.01428,-0.018768,0.715
0.461268255828,0.519171363939,-0.124090368821,-1.40079392411,0.076924963529,1.91065726074,0.153404496266,-0.00989333604108,-0.0827872718339,9.22358030334e-05,-0.116206731039,-0.00698942355589,0.0407111266486,-0.0172244076011,0.574047964301,0.818807074689,0.00215778184619,0.0,0.818765143603,-0.573987022708,-0.0119701413741,0.0,-0.00856286252623,0.00863831816576,-0.999926025686,0.0,0.65641216628,0.254068666661,0.303428274138,1.0,-0.0146,-0.0191885714286,0.731
0.461088708049,0.517805370391,-0.124093604478,-1.4028993351,0.07678107718,1.91141943938,0.153119037717,-0.0101602890127,-0.0830644658779,-3.1589239297e-05,-0.127369383815,-0.0122778323607,0.0379504572584,-0.0186490997115,0.574029279992,0.818820163412,0.00216162054215,0.0,0.818778333928,-0.573968376978,-0.0119619823017,0.0,-0.00855417516316,0.00863658243498,-0.999926115036,0.0,0.656137581277,0.253731234257,0.303445030417,1.0,-0.01496,-0.0196617142857,0.749
0.460903840138,0.516482003301,-0.124099035896,-1.40502645765,0.0766458626666,1.91220680037,0.15282426634,-0.0157874187384,-0.0725866112298,-0.000847197061819,-0.124099857104,-0.00502502264061,0.05355777043,-0.0164839123249,0.574026148272,0.818822392553,0.00214882615416,0.0,0.818780479779,-0.573965382497,-0.0119587846307,0.0,-0.00855893360388,0.00862423803237,-0.999926180862,0.0,0.655899824436,0.253417541361,0.303435318226,1.0,-0.01528,-0.0200822857143,0.765
0.460718965807,0.51509623417,-0.124100232974,-1.40721698161,0.0765116286147,1.91302690778,0.152513322125,-0.00685670839565,-0.0816629396468,0.000294022530323,-0.127895593765,-0.00551308099917,0.0515414870072,-0.0196636124434,0.574003211785,0.818838441737,0.00216011484422,0.0,0.818796661506,-0.573942387785,-0.011954476642,0.0,-0.0085491681517,0.00863076897967,-0.999926208053,0.0,0.655634665923,0.253087775663,0.30343554811,1.0,-0.01562,-0.0205291428571,0.782
0.460537594942,0.513771769437,-0.124106406701,-1.40934373005,0.0763804323696,1.91377015906,0.152222558791,-0.0127969519116,-0.0799140410504,-0.000566424422611,-0.134587518078,-0.00857576400797,0.0479031766721,-0.0216946116297,0.573994260954,0.818844851413,0.00210822387359,0.0,0.818802327131,-0.57393358502,-0.0119889938015,0.0,-0.0086073110796,0.00860799798113,-0.999925905538,0.0,0.65536693645,0.252759565381,0.303416253677,1.0,-0.01594,-0.0209497142857,0.798
0.460339876755,0.512371415559,-0.124112089201,-1.411621814,0.0762475182503,1.91457587282,0.15191904446,-0.0116247765619,-0.0811683598225,-0.00142210267718,-0.134230247972,-0.00353061847671,0.0430825950097,-0.0165004563228,0.573995204828,0.818844340959,0.00204866184584,0.0,0.818800902912,-0.573934644052,-0.012035474591,0.0,-0.00867954936052,0.00858591617768,-0.999925470956,0.0,0.65508095786,0.25240797193,0.303383133886,1.0,-0.01628,-0.0213965714286,0.815
0.460137494353,0.510933480491,-0.12411239117,-1.41393022126,0.0761082131718,1.91544502314,0.151584893593,-0.0111520634668,-0.082671359421,0.00129607286772,-0.132619818891,-0.00188867843493,0.0487843922033,-0.0180341315166,0.57397081352,0.818861443597,0.0020465383379,0.0,0.818817935266,-0.573910222787,-0.0120412610991,0.0,-0.0086857624007,0.00858724005609,-0.999925405638,0.0,0.654800827404,0.252056650986,0.303366755651,1.0,-0.01662,-0.0218434285714,0.832
0.459936804234,0.50944209025,-0.124124175964,-1.41629775768,0.0759567197171,1.91632942254,0.15126113989,-0.00875514161967,-0.0894064516542,-0.00150334612057,-0.13892733271,-0.0154829188999,0.0457428918508,-0.0172312704978,0.573960973769,0.818868342683,0.0020456887743,0.0,0.818824905607,-0.573900469315,-0.0120321311011,0.0,-0.00867887660137,0.00858119981554,-0.999925517281,0.0,0.654512926002,0.251692582806,0.303360820703,1.0,-0.01696,-0.0222902857143,0.849
0.4597085443,0.507844347052,-0.124125519272,-1.4188087187,0.0757952553096,1.91721901579,0.150905970148,-0.0143893292603,-0.0918646695522,0.00181009727245,-0.137166758786,-0.00991859705332,0.0490607159664,-0.0219576499416,0.573944482825,0.818879959461,0.00202225838665,0.0,0.81883618405,-0.573884048553,-0.0120477967915,0.0,-0.00870532512258,0.00857082985422,-0.999925376311,0.0,0.654198657391,0.251299849072,0.303360588011,1.0,-0.01732,-0.0227634285714,0.867
0.459508022709,0.506387070873,-0.124136949466,-1.42109497633,0.0756463719161,1.91805938389,0.150592317652,-0.013138568771,-0.0939736104415,-0.00208859587954,-0.14585327443,-0.012189132125,0.0559719313599,-0.0166273784568,0.573938025263,0.818884480796,0.00202414667001,0.0,0.818840812626,-0.573877665056,-0.0120372766485,0.0,-0.00869569389287,0.00856626962057,-0.999925499191,0.0,0.653918271513,0.250942917572,0.303364582104,1.0,-0.01764,-0.023184,0.883
0.459306949753,0.504889329854,-0.12414077405,-1.42341077579,0.0755078308936,1.91896273036,0.150276129901,-0.00757608741188,-0.0947678248746,-0.000984626697253,-0.145295568239,-0.012316815535,0.0620099551533,-0.0130586398289,0.573928924492,0.818890679408,0.00209564111429,0.0,0.818847963626,-0.573868282066,-0.0119980917086,0.0,-0.00862266951789,0.00860222894878,-0.999925822863,0.0,0.653641425226,0.250593011708,0.303387517596,1.0,-0.01796,-0.0236045714286,0.899
0.459077674174,0.503215895901,-0.124141847151,-1.42589669332,0.0753485531899,1.91989614252,0.149933123296,-0.0157360228137,-0.100273718056,0.00017488862215,-0.149284565878,-0.0166370647747,0.0563036314646,-0.0181758947232,0.573921221388,0.818895815866,0.00219574563998,0.0,0.818854465407,-0.573860227106,-0.0119394777899,0.0,-0.00851730129856,0.00865048234669,-0.999926309652,0.0,0.653340925903,0.250207260252,0.303454043135,1.0,-0.0183,-0.0240514285714,0.916
0.458836903145,0.501414673757,-0.124144964833,-1.42857940985,0.0751726097738,1.92087066503,0.149552929212,-0.0122143256651,-0.102541136036,-0.0011779792735,-0.156001023959,-0.0116524565789,0.0611665227398,-0.0181816325671,0.573898749804,0.818911359995,0.00227075892619,0.0,0.818871042188,-0.573837513465,-0.0118941711617,0.0,-0.00843738767199,0.00868567591426,-0.999926682074,0.0,0.653007728879,0.249791406069,0.303519048782,1.0,-0.01866,-0.0245245714286,0.934
0.458612740766,0.499799317277,-0.124145149038,-1.43101300436,0.0750229869335,1.92172713674,0.149201850128,-0.0185043782977,-0.105313905413,0.00101515925704,-0.153730573734,-0.00898731397888,0.0552271530661,-0.0131649661044,0.573878342679,0.818925560904,0.00230660009995,0.0,0.818885612259,-0.573816866246,-0.0118871757667,0.0,-0.00841130798501,0.00871080207315,-0.999926683225,0.0,0.652698685254,0.249411585955,0.30356196747,1.0,-0.01898,-0.0249451428571,0.95
0.458371624039,0.498237751064,-0.124150675567,-1.43348240362,0.0748706507353,1.92266213158,0.14884996285,-0.0154866689566,-0.100555359609,-0.000787911982318,-0.151590916503,-0.00996611326677,0.0586319474862,-0.0232000543812,0.573876240121,0.818926978098,0.00232647125887,0.0,0.818887298872,-0.573814696846,-0.0118757034007,0.0,-0.00839053204231,0.0087204696775,-0.999926773509,0.0,0.652399820967,0.249017510595,0.303556874168,1.0,-0.0193,-0.0253657142857,0.966
0.458114667284,0.496544188659,-0.12414873504,-1.43614218758,0.0747067587622,1.92360988749,0.148455313185,-0.0153696670217,-0.0971795501407,-0.000250622792797,-0.157701974458,-0.0123184190043,0.0577078784286,-0.0299731371938,0.573852378811,0.818943738238,0.0023125386498,0.0,0.818903759733,-0.573790771148,-0.0118966441363,0.0,-0.00841593091901,0.00872083203534,-0.999926556901,0.0,0.652062672779,0.248595861631,0.303553426815,1.0,-0.01964,-0.0258125714286,0.983
0.457838760875,0.494864778085,-0.124150392706,-1.43888338209,0.0745349986713,1.92455302326,0.148063157166,-0.0229995529187,-0.105135884134,-0.000977197002115,-0.158755095109,-0.0158272578293,0.0609831302371,-0.0303815934031,0.573849967777,0.818945708629,0.00221081490349,0.0,0.818904252621,-0.573788614071,-0.011966549301,0.0,-0.008531578037,0.008677616728,-0.999925952831,0.0,0.651709149228,0.248148558017,0.303500560867,1.0,-0.01998,-0.0262594285714,1.0
0.457533051913,0.492725208619,-0.124210243187,-1.44213153391,0.0743499474352,1.92572643079,0.147603691485,-0.0161152152879,-0.161125733624,-0.00379697498945,-0.223741846923,-0.0123064663634,0.0848475711634,-0.036141647003,0.57388044581,0.818924207538,0.00226343246693,0.0,0.818883483877,-0.573818921952,-0.0119344687347,0.0,-0.00847478813878,0.00870261325428,-0.999926218522,0.0,0.6513104223,0.24760716602,0.303547534721,1.0,-0.0338862857143,-0.0445362612245,1.017
0.457143679835,0.489442343961,-0.124266930691,-1.44722835818,0.074075861683,1.92771081747,0.146831105991,-0.0294223569687,-0.21699686139,-0.00102977248835,-0.339150640906,-0.0145652073875,0.126239320465,-0.0497515083937,0.573789670591,0.818987382368,0.0024141968493,0.0,0.818948570109,-0.573727508658,-0.0118630614376,0.0,-0.00833076688298,0.00878417429476,-0.999926715617,0.0,0.650676234936,0.246849599091,0.303578833895,1.0,-0.0486617142857,-0.0639553959184,1.034
0.456534615334,0.485237042025,-0.124326877007,-1.45388212147,0.0737129547496,1.93025372387,0.145831967077,-0.0414350551089,-0.286453564718,-0.0078335908655,-0.448234397669,-0.0262390853981,0.176064908941,-0.0620909049506,0.573747094518,0.819016942973,0.00250310945964,0.0,0.818979101382,-0.573684399057,-0.0118401300568,0.0,-0.00826143133557,0.00884340481769,-0.99992676879,0.0,0.649851933994,0.245798879404,0.303555751468,1.0,-0.062568,-0.0822322285714,1.05
0.45567537099,0.479540826439,-0.124496452652,-1.46297746634,0.0731640615011,1.93341628719,0.14444063453,-0.0540900239371,-0.367391622985,-0.00806872076588,-0.579963762565,-0.0362811286779,0.195976943325,-0.0876773973917,0.573731195408,0.819028731328,0.00228025796936,0.0,0.818988023422,-0.573669413404,-0.011948578062,0.0,-0.00847827771268,0.00872294388583,-0.999926011791,0.0,0.648677301354,0.24426557156,0.303456908314,1.0,-0.0773434285714,-0.101651363265,1.067
0.454563456987,0.472563733841,-0.124663565632,-1.47397117588,0.072510585003,1.93724430115,0.142851793184,-0.0714538942427,-0.432072715872,-0.00375198334194,-0.675608629564,-0.0399118818987,0.238318330027,-0.0923213344226,0.573816228413,0.818969611919,0.00211131824182,0.0,0.818926483491,-0.573754918034,-0.0120604962092,0.0,-0.00866596752198,0.00864968940421,-0.99992503913,0.0,0.647250416964,0.242392332222,0.303390034859,1.0,-0.0921188571428,-0.121070497959,1.084
0.453269870545,0.464334983629,-0.124798901455,-1.48645221398,0.0717760685428,1.94190716154,0.140849411568,-0.0836698091445,-0.503445246431,-0.00510834067223,-0.76580463818,-0.0503871964434,0.276621804938,-0.134112773112,0.573730092013,0.819028972714,0.0024637927893,0.0,0.818990442257,-0.573667360693,-0.0118811475627,0.0,-0.008317766719,0.00883456472325,-0.999926379902,0.0,0.645671488188,0.240306472897,0.303537264352,1.0,-0.106894285714,-0.140489632653,1.101
0.451689458128,0.455105088337,-0.124923295257,-1.50093100982,0.0708598779969,1.94691512653,0.138639012721,-0.103944019202,-0.557387779868,-0.00668733389826,-0.890119466171,-0.0539248188195,0.294798788315,-0.138810114764,0.573728835769,0.819030469725,0.00224934892102,0.0,0.81898871363,-0.573666520061,-0.0120398342199,0.0,-0.0085707799227,0.00874995991303,-0.999924987153,0.0,0.643731550772,0.237819559902,0.303436144404,1.0,-0.121669714286,-0.159908767347,1.118
0.449952688992,0.445137381034,-0.125095106392,-1.51590816756,0.0698210708508,1.95229144986,0.136282130866,-0.112382199172,-0.632513014598,-0.00891001159112,-0.958288762745,-0.0598851678955,0.336428765108,-0.150442814836,0.57374177864,0.819020688078,0.00249616604555,0.0,0.818983067291,-0.573679443139,-0.0118058845776,0.0,-0.008237423159,0.00881801671455,-0.99992719107,0.0,0.64177418595,0.235166355011,0.303614321992,1.0,-0.135576,-0.1781856,1.134
0.447862495483,0.433613137546,-0.125230109554,-1.53351967555,0.0686887672834,1.95833308805,0.133442911726,-0.134623806468,-0.703479460706,-0.00310328114879,-1.05279415511,-0.0717416036099,0.374607061353,-0.176390375516,0.573696506028,0.819052506045,0.00246134380948,0.0,0.819013809796,-0.573633646392,-0.0118981507875,0.0,-0.00833346104027,0.00884197234095,-0.999926183752,0.0,0.639351703788,0.232058271042,0.303633910673,1.0,-0.150351428571,-0.197604734694,1.151
0.445488789867,0.420996963932,-0.125385207945,-1.55258933417,0.0673693688822,1.96493021754,0.130282372114,-0.14273281633,-0.774917327092,-0.0100286664129,-1.15081129113,-0.0903712456398,0.391818566136,-0.194498821028,0.573618819525,0.819106669713,0.0025417353395,0.0,0.819069178202,-0.57355583037,-0.0118379757028,0.0,-0.00823889635516,0.00887251354735,-0.999926696858,0.0,0.636712743756,0.22862068572,0.303716669353,1.0,-0.165126857143,-0.217023869388,1.168
0.442777327138,0.407359846044,-0.125555227232,-1.57285750678,0.0659231560814,1.9721051728,0.126903848774,-0.161557588809,-0.796050014739,-0.0103215216952,-1.22193784824,-0.0816400960985,0.415679084486,-0.206365339988,0.573634936235,0.819094061546,0.00293686420796,0.0,0.819062472767,-0.573571428,-0.0115425122102,0.0,-0.00777005140667,0.00902683731064,-0.999929068739,0.0,0.633920925648,0.224866565164,0.30392892239,1.0,-0.179902285714,-0.236443004082,1.185
0.43971714501,0.392773135162,-0.125722846837,-1.59452956025,0.0644922810669,1.97952653507,0.12318729757,-0.188833006841,-0.885615807627,-0.00835694431138,-1.30451807569,-0.0883838588604,0.447214037666,-0.223838080136,0.573689649362,0.819054589915,0.00324219923181,0.0,0.819026262599,-0.573624359389,-0.0114813932521,0.0,-0.00754422863414,0.00924238073286,-0.999928828974,0.0,0.630830135509,0.220781733329,0.304086357649,1.0,-0.194677714286,-0.255862138775,1.202
0.436541741079,0.378258382379,-0.125902145809,-1.61620113958,0.0627920105891,1.98679823107,0.119330531922,-0.201305308725,-0.940699695721,-0.00991372015947,-1.37617719673,-0.117353037319,0.47818024919,-0.24667657916,0.573606751872,0.819112713381,0.00322550548038,0.0,0.819085095115,-0.573542656141,-0.011365537726,0.0,-0.00745983509012,0.00916148902854,-0.999930206554,0.0,0.627661560579,0.216590594295,0.304130259246,1.0,-0.208584,-0.274138971429,1.218
0.43280500074,0.362003560394,-0.126088215221,-1.64031103241,0.0609967811846,1.99478879079,0.115013397897,-0.22943522445,-0.9888651234,-0.00961098804208,-1.44339848326,-0.11922594262,0.493701245853,-0.263241101133,0.573637136184,0.819091178105,0.00329011297259,0.0,0.819064346011,-0.573572794895,-0.0113398831609,0.0,-0.0074014214649,0.00919996945918,-0.999930287331,0.0,0.624054348382,0.211848855101,0.304178321102,1.0,-0.223359428571,-0.293558106122,1.235
0.428596700655,0.344922931896,-0.126309270198,-1.66561517368,0.0590849371441,2.00297166443,0.110254470581,-0.256423242074,-1.02940690323,-0.0187396128366,-1.49985239732,-0.115425704745,0.494414814718,-0.289474129471,0.573676336746,0.819064028164,0.0032133046721,0.0,0.819035855958,-0.573611781734,-0.011425297021,0.0,-0.00751500506987,0.00918641115067,-0.999929564794,0.0,0.620178394913,0.206701635351,0.304153009332,1.0,-0.238134857143,-0.312977240816,1.252
0.424053915128,0.326999588103,-0.126487553987,-1.69184788633,0.0570795619623,2.01142385509,0.105209617987,-0.27232772833,-1.07548300641,-0.0114585318289,-1.53246989203,-0.113680920005,0.507231721306,-0.297665631741,0.573670803576,0.819067524139,0.0033086139775,0.0,0.819040062212,-0.573605325875,-0.0114478609563,0.0,-0.00747887652293,0.00927736961009,-0.999928995889,0.0,0.616060913946,0.201328272628,0.304183220827,1.0,-0.252910285714,-0.33239637551,1.269
0.419125933793,0.308262808955,-0.126662720906,-1.71906222947,0.0548300825758,2.02003154127,0.0997655451322,-0.298343812384,-1.12254804214,-0.00894149764073,-1.57192625993,-0.12466646055,0.517478754069,-0.325612169025,0.573539961023,0.819159060077,0.00333081139095,0.0,0.819132080054,-0.573474678404,-0.0114094503049,0.0,-0.00743616176564,0.00927232866714,-0.999929361215,0.0,0.611672414329,0.195649797817,0.304203254026,1.0,-0.267685714286,-0.351815510204,1.286
0.413680016285,0.288661041791,-0.126891363613,-1.7471869072,0.0524399577798,2.02866011115,0.093923533804,-0.327180692381,-1.18657704186,-0.0159898197085,-1.6559400201,-0.127587633445,0.533303670533,-0.353514704399,0.573462437948,0.819213342441,0.00332847269042,0.0,0.819186495472,-0.573397375912,-0.0113877932129,0.0,-0.00742063750477,0.00925728976878,-0.999929615886,0.0,0.60702221458,0.189580686955,0.304255476663,1.0,-0.282461142857,-0.371234644898,1.303
0.40807568854,0.269592144465,-0.127136996533,-1.77434901952,0.050156271756,2.03687281844,0.0880539515708,-0.359168331899,-1.21220570577,-0.020739091653,-1.71566554782,-0.148195585953,0.539257271657,-0.379484666391,0.573447123,0.819223835312,0.00338403304975,0.0,0.819197322023,-0.573381422667,-0.011412214172,0.0,-0.00740895882437,0.00931667157078,-0.99992915097,0.0,0.602434757867,0.183563277651,0.304285272686,1.0,-0.296367428571,-0.389511477551,1.319
0.401538698274,0.248648069104,-0.127492723614,-1.80380836983,0.0475003925108,2.04564563946,0.0815219450487,-0.386447872956,-1.25764179967,-0.021259886619,-1.76286352988,-0.1555871945,0.528034280908,-0.40028855171,0.57360073848,0.819115901524,0.00347557014985,0.0,0.819091235062,-0.573535610963,-0.011278231359,0.0,-0.00724495488573,0.00931619024839,-0.999930357189,0.0,0.597382282705,0.17676359404,0.304358911395,1.0,-0.311142857143,-0.408930612245,1.336
0.394533293323,0.227020506088,-0.127756411196,-1.83388521183,0.0447981117242,2.05435472095,0.0744623063655,-0.412296633025,-1.2808271972,-0.0100508739285,-1.78374363701,-0.16197189583,0.510935491224,-0.425134512842,0.573552832658,0.819148752217,0.00363549069279,0.0,0.819125899965,-0.573486975266,-0.0112337040896,0.0,-0.00711730515696,0.00942122877524,-0.999930289778,0.0,0.592043105629,0.169773041745,0.304436771417,1.0,-0.325918285714,-0.428349746939,1.353
0.386997336343,0.204761059963,-0.128010841609,-1.8646878208,0.0418709393546,2.0629113441,0.0669167418274,-0.453080433774,-1.32337794819,-0.0126648299901,-1.84125018561,-0.180623685052,0.492121199975,-0.456822226834,0.573381066268,0.819269330413,0.00355865005175,0.0,0.819245292022,-0.573315174411,-0.0112964237887,0.0,-0.00721472438413,0.00939274365724,-0.999929859599,0.0,0.586382022883,0.162483108292,0.304416916777,1.0,-0.340693714286,-0.447768881633,1.37
0.379228206368,0.183145442784,-0.128370956099,-1.89415428161,0.0390172635014,2.07078499922,0.0593512258775,-0.5040735316,-1.36472412883,-0.0251039575667,-1.85490612898,-0.171208288404,0.478516938782,-0.487560903815,0.573380187755,0.819270156584,0.00350966113586,0.0,0.819245141388,-0.573313982956,-0.0113675925555,0.0,-0.00730113209772,0.00939340603944,-0.999929226192,0.0,0.580843305599,0.155212582271,0.30443489831,1.0,-0.3546,-0.466045714286,1.386
0.370233335404,0.159626654768,-0.128827519014,-1.92576231077,0.0358778959862,2.07900875534,0.0508177960912,-0.539974786992,-1.39658879187,-0.024485319624,-1.84395407916,-0.185868109325,0.462802318552,-0.51114113989,0.573513151278,0.819176888303,0.00355497999368,0.0,0.819152164326,-0.573446422805,-0.0113876579475,0.0,-0.00729005599814,0.00944322296241,-0.99992883778,0.0,0.574780096291,0.14711439669,0.304483858241,1.0,-0.369375428571,-0.48546484898,1.403
0.360617767716,0.135414530055,-0.12923448836,-1.95789543379,0.0324833781086,2.08718062067,0.0417558596379,-0.58484961651,-1.44664293724,-0.0291041918058,-1.90661225341,-0.198225867738,0.496631981408,-0.558569410877,0.573491538238,0.81919164711,0.00363974927647,0.0,0.819168475256,-0.573425182964,-0.0112834210659,0.0,-0.00715629817411,0.00945269636247,-0.999929714494,0.0,0.568435997357,0.138775569167,0.304528961919,1.0,-0.384150857143,-0.504883983673,1.42
0.35016516193,0.110629271549,-0.129779964261,-1.99033780568,0.0289672515639,2.09497377124,0.0320154182191,-0.643870145076,-1.46822923969,-0.041289876965,-1.94298254444,-0.221232377939,0.455317787672,-0.597771923612,0.573564260946,0.819140676944,0.00365196417594,0.0,0.819117746392,-0.573497975022,-0.0112666362626,0.0,-0.00713470336045,0.00945371058025,-0.999929859222,0.0,0.561844371692,0.130013307382,0.304557305051,1.0,-0.398926285714,-0.524303118367,1.437
0.338986671435,0.0852858870522,-0.130242636298,-2.02305844836,0.0252958990738,2.1023645216,0.021644480869,-0.665398297829,-1.50916746536,-0.0329754620618,-1.95525262495,-0.215989702269,0.421983734428,-0.628359159369,0.573480359689,0.819199713314,0.00358520003376,0.0,0.819175573472,-0.573413804473,-0.011346169728,0.0,-0.00723911517259,0.0094438956146,-0.999929201517,0.0,0.554948751334,0.121040856849,0.304555516246,1.0,-0.40998,-0.538830857143,1.454
0.326280100607,0.0585335320736,-0.130777092301,-2.05706511978,0.0213445150729,2.10963624286,0.0100938824492,-0.728120601755,-1.5045859233,-0.044176001734,-1.84727862296,-0.222359659328,0.378099437128,-0.646830092799,0.5735231728,0.819169992136,0.00352720092679,0.0,0.819144709135,-0.573456263128,-0.011428327799,0.0,-0.00733918903259,0.00944388062029,-0.999928472153,0.0,0.547593959513,0.111292932717,0.304544254453,1.0,-0.40998,-0.538830857143,1.472
0.314388148466,0.0348575762831,-0.131217963201,-2.08658494223,0.0178568994809,2.11548063975,-0.000368663892062,-0.745691303099,-1.46205565914,-0.0191284117412,-1.79869344193,-0.195045973481,0.358367982612,-0.660309892135,0.573767464902,0.818998941113,0.00351817794984,0.0,0.81897261715,-0.573699363649,-0.0115602512212,0.0,-0.00744960048602,0.0095143706211,-0.999926987437,0.0,0.541000352379,0.102570635239,0.304566447865,1.0,-0.40998,-0.538830857143,1.488
0.302107425459,0.0114022335738,-0.131623077911,-2.11516846563,0.0142263933027,2.12100287614,-0.0112620455357,-0.770792005169,-1.46423283019,-0.0213163753127,-1.76103556097,-0.22493180038,0.339700879483,-0.696371065189,0.57379214468,0.818980738714,0.00372440875217,0.0,0.818958008552,-0.573724660525,-0.0113375938991,0.0,-0.00714862351288,0.0095557406712,-0.999928789966,0.0,0.53448421002,0.0939008087902,0.304698471771,1.0,-0.40998,-0.538830857143,1.504
0.288559318538,-0.013142647758,-0.132059639179,-2.14461083109,0.0104635506697,2.12626761217,-0.0232261928688,-0.787313220062,-1.46468387562,-0.0125888985751,-1.71078288578,-0.229529404944,0.30818118923,-0.713388597718,0.573857106903,0.81893407939,0.00396753974141,0.0,0.818914781892,-0.573789409639,-0.0111821413666,0.0,-0.00688103684103,0.00966621434019,-0.999929605338,0.0,0.527569386712,0.0847027020345,0.304824628701,1.0,-0.40998,-0.538830857143,1.521
0.27451326465,-0.0373078318602,-0.132463687441,-2.17324924521,0.00660996798773,2.13083613555,-0.0355566835748,-0.837471674003,-1.39957224181,-0.0343461186851,-1.64733180224,-0.231939599383,0.259245874582,-0.72775221623,0.573870184693,0.818924909202,0.00396876679575,0.0,0.818905807581,-0.573802735922,-0.0111555125386,0.0,-0.00685836989205,0.0096520480507,-0.999929897908,0.0,0.520599285729,0.0755188764125,0.30487147086,1.0,-0.40998,-0.538830857143,1.538
0.259900051378,-0.0610957010787,-0.132946196685,-2.20107218281,0.0029029643364,2.134866119,-0.0483576270581,-0.861165063389,-1.40102016147,-0.0193639039447,-1.60002375246,-0.230258547825,0.225972002138,-0.755260193204,0.574004430664,0.818830680668,0.00399710848303,0.0,0.818811039678,-0.573935622741,-0.0112751563582,0.0,-0.00693849459657,0.00974505388121,-0.999928443049,0.0,0.513622192229,0.0662991251844,0.304866367456,1.0,-0.40998,-0.538830857143,1.555
0.245705717473,-0.0832238104456,-0.133403646521,-2.2265097366,-0.000650769636771,2.13814866638,-0.0608630187022,-0.906329420733,-1.35024352358,-0.0373840416071,-1.56557845176,-0.209047764024,0.185182621081,-0.793662418655,0.574017093221,0.818821887897,0.00397988600586,0.0,0.818801483171,-0.573947570453,-0.0113606527164,0.0,-0.00701824032412,0.0097801337117,-0.999927544019,0.0,0.507042805648,0.0576447330977,0.304863053921,1.0,-0.40998,-0.538830857143,1.571
0.230180138095,-0.106405211558,-0.133803886564,-2.25273290861,-0.00440160080201,2.14115787258,-0.0745202197591,-0.924653029092,-1.34983625921,-0.0243492246202,-1.52456185122,-0.210157597942,0.152147329912,-0.8029299508,0.573959642586,0.818862205021,0.00397048757912,0.0,0.818841092254,-0.573889338969,-0.0114472334861,0.0,-0.00709522296672,0.00982163752333,-0.999926593929,0.0,0.500049094538,0.0485477474157,0.304849801613,1.0,-0.40998,-0.538830857143,1.588
0.21399708334,-0.129200103772,-0.134280903834,-2.27817947478,-0.00821562710399,2.14367570777,-0.0886921342382,-0.96270584068,-1.32773926392,-0.0234144866965,-1.47015943334,-0.215139181409,0.129399492632,-0.847922995887,0.573984172802,0.818845561049,0.00385531121953,0.0,0.818822518272,-0.573913597673,-0.0115591036532,0.0,-0.00725264481986,0.00979174671167,-0.999925757664,0.0,0.493053533099,0.0393606541826,0.304785353571,1.0,-0.40998,-0.538830857143,1.605
0.197407268783,-0.151671350132,-0.134677218753,-2.30280789712,-0.0119553497692,2.14573966921,-0.103436177424,-0.994237654363,-1.3278181336,-0.0301558614085,-1.44280653963,-0.227179436115,0.111125746114,-0.880913893818,0.573777965739,0.818990304707,0.00380443556393,0.0,0.818966059231,-0.573706847981,-0.0116530385811,0.0,-0.00736123660916,0.00980214909486,-0.999924862212,0.0,0.486061202267,0.0303087486215,0.3047312028,1.0,-0.40998,-0.538830857143,1.622
0.180165211569,-0.173821546946,-0.135177717117,-2.3266429556,-0.0156592595984,2.14719672238,-0.118641615515,-1.01441651357,-1.30512275981,-0.0214851636862,-1.40619880694,-0.218382701018,0.08359813464,-0.912063100601,0.573770307457,0.818996158605,0.00369775230777,0.0,0.818969310796,-0.573697946785,-0.0118608908038,0.0,-0.00759277728377,0.00983396195644,-0.999922818484,0.0,0.479046244989,0.0211791200559,0.304668574085,1.0,-0.40998,-0.538830857143,1.639
0.163336395249,-0.194435617317,-0.135740165135,-2.34828032622,-0.0191483337103,2.14819274749,-0.133535630056,-1.06401174705,-1.32114597715,-0.0443640051766,-1.33151629068,-0.224138578552,0.0745668213391,-0.941028539835,0.573803424115,0.818972840401,0.00372344741236,0.0,0.818945925073,-0.573730447278,-0.0119034689649,0.0,-0.00761250920387,0.00987974355215,-0.99992221716,0.0,0.472482025127,0.0125204125205,0.304682850279,1.0,-0.40998,-0.538830857143,1.655
0.144923090166,-0.215937645593,-0.136266768577,-2.37053555083,-0.0227161097014,2.14879197547,-0.149943360204,-1.09788836771,-1.2537254588,-0.0361114878232,-1.26823538966,-0.218151745121,0.0327723368876,-0.96945649992,0.57375767175,0.819004814209,0.00374103081276,0.0,0.818976732224,-0.573682831017,-0.0120775979963,0.0,-0.0077455948822,0.00999362410512,-0.999920063424,0.0,0.465483555755,0.00339844372035,0.304656914715,1.0,-0.40998,-0.538830857143,1.672
0.125883441226,-0.237168769458,-0.136911527416,-2.3920544753,-0.0263780558246,2.14903571051,-0.166808599467,-1.12413834739,-1.23992581578,-0.0384602969807,-1.23883534426,-0.203753850548,0.00141119557097,-1.01013469863,0.573859381184,0.818933411303,0.00377165470907,0.0,0.818905383769,-0.573783961494,-0.0121113528335,0.0,-0.00775442580781,0.0100390350719,-0.999919540091,0.0,0.458481048672,-0.00579116427126,0.304659224939,1.0,-0.40998,-0.538830857143,1.689
0.10614418511,-0.257996191022,-0.137611896435,-2.41262494055,-0.0299456845989,2.14904047835,-0.184424881142,-1.16643097965,-1.21947748432,-0.0414659213374,-1.20994410747,-0.219244189084,-0.000107336886157,-1.05807115114,0.573973768551,0.818852030527,0.00402641512432,0.0,0.818828098161,-0.57389842008,-0.011912010409,0.0,-0.00744356394427,0.0101343184611,-0.999920941347,0.0,0.451562055676,-0.0150296960435,0.304742543469,1.0,-0.40998,-0.538830857143,1.706
0.0858795399363,-0.278334030663,-0.138274181497,-2.43230411817,-0.033420990204,2.14867078899,-0.202599305807,-1.215338064,-1.17224931549,-0.0420826051203,-1.15160159141,-0.199322230122,-0.0414527470916,-1.09022419279,0.574045216269,0.818800513562,0.00430761778439,0.0,0.818781150677,-0.573970203866,-0.0116781535744,0.0,-0.00708977038634,0.0102309814185,-0.999922528087,0.0,0.44467318205,-0.0241982023175,0.304841085818,1.0,-0.40998,-0.538830857143,1.723
0.0663066243802,-0.297016753136,-0.138802999087,-2.45010774312,-0.0366459200347,2.14788331145,-0.220356746785,-1.24616984652,-1.16460221565,-0.0377955930441,-1.08171907293,-0.206583067281,-0.0456738258566,-1.11746199708,0.573911936642,0.818893218467,0.00444214250605,0.0,0.818876001806,-0.573837124698,-0.0115669738942,0.0,-0.00692318348971,0.0102761861319,-0.999923231818,0.0,0.438161397319,-0.0327512140265,0.304900734268,1.0,-0.40998,-0.538830857143,1.739
0.044859218819,-0.316354188,-0.139466160567,-2.46840744062,-0.0400329085599,2.14667896985,-0.239776129866,-1.26655633146,-1.12072948667,-0.0347246097376,-1.06982577977,-0.186685989296,-0.0814508051365,-1.1455258581,0.573925530547,0.818883642006,0.00445119569257,0.0,0.818865840884,-0.573849649693,-0.011664522314,0.0,-0.00699770415336,0.0103396983326,-0.99992205835,0.0,0.431166824908,-0.0418872597275,0.304866369698,1.0,-0.40998,-0.538830857143,1.756
0.022770324553,-0.335175719716,-0.140134093222,-2.48577122025,-0.0433621875716,2.14525858119,-0.259920512524,-1.31039272779,-1.08757990552,-0.0332337252083,-1.02487974794,-0.192776571984,-0.0958776666164,-1.19769254567,0.573890659908,0.81890748217,0.00455993614372,0.0,0.818891472582,-0.573815026019,-0.0115680140345,0.0,-0.00685670538258,0.0103730677454,-0.99992268954,0.0,0.424230157027,-0.0510311952505,0.304898103859,1.0,-0.40998,-0.538830857143,1.773
3.16076347366e-05,-0.353444172663,-0.140817520603,-2.50229265502,-0.0466298771577,2.14342759279,-0.280743748289,-1.34713319402,-1.0703001985,-0.02776918723,-0.948807412597,-0.192028252072,-0.107343942658,-1.23429889668,0.573863863817,0.81892603176,0.00460078397348,0.0,0.818910507455,-0.573788047331,-0.0115587378721,0.0,-0.00682600790725,0.0104009725655,-0.999922609698,0.0,0.41726681325,-0.0601834437039,0.304930814174,1.0,-0.40998,-0.538830857143,1.79
-0.0233563803386,-0.371045316978,-0.141575424871,-2.51807343785,-0.0497809785641,2.14143640111,-0.302291297341,-1.38201900662,-1.02246931804,-0.0339835893909,-0.907463894172,-0.19538446646,-0.122658642281,-1.29396792116,0.573879511111,0.818914815127,0.00464534106304,0.0,0.818899208527,-0.57380255181,-0.0116389308756,0.0,-0.00686591656043,0.0104836119226,-0.999921473452,0.0,0.410278431034,-0.0693565378817,0.304901937462,1.0,-0.40998,-0.538830857143,1.807
-0.047371390217,-0.388068756721,-0.142342686447,-2.53291260874,-0.0528375229813,2.13926752966,-0.324434283048,-1.42697359418,-0.998417498455,-0.0452498573787,-0.846641110693,-0.18151792561,-0.11745694096,-1.30468459138,0.573976041254,0.818846341839,0.00478742358918,0.0,0.818832858402,-0.573899076364,-0.0115475993419,0.0,-0.0067083406585,0.0105483481866,-0.999921862205,0.0,0.403327681559,-0.0785353120814,0.30495007037,1.0,-0.40998,-0.538830857143,1.824
-0.0720108315874,-0.404352367076,-0.143111024707,-2.54703146843,-0.055714353566,2.13684995544,-0.347328123478,-1.46069291912,-0.9476810693,-0.0561904892175,-0.844360534628,-0.17099167545,-0.150291633442,-1.35925323346,0.574052136271,0.818792472159,0.00487640023175,0.0,0.818778824388,-0.573972808955,-0.011713164187,0.0,-0.00679186028724,0.0107168665059,-0.999919506463,0.0,0.396311735404,-0.0876862504957,0.304913986367,1.0,-0.40998,-0.538830857143,1.841
-0.095685632965,-0.419039395548,-0.143758956999,-2.55921838429,-0.0583524289683,2.134559722,-0.369554417945,-1.49989169375,-0.910989768704,-0.0479840110796,-0.760590277104,-0.156236475492,-0.140067543529,-1.40496534185,0.573963986065,0.81885291383,0.00509854033693,0.0,0.818843558567,-0.573886304492,-0.011422916039,0.0,-0.00642782936631,0.010731455949,-0.99992175637,0.0,0.389847038972,-0.0962798527018,0.305049047787,1.0,-0.40998,-0.538830857143,1.857
-0.121446385186,-0.43370054016,-0.144471558588,-2.57164960457,-0.0610495661423,2.13188104045,-0.393780774484,-1.53227582848,-0.843794065192,-0.0559048632339,-0.721876823887,-0.154947053548,-0.173878949364,-1.43494139915,0.573936042642,0.818872712195,0.00506429470062,0.0,0.818861051245,-0.573855402287,-0.0117176329341,0.0,-0.00668920577644,0.0108723348838,-0.999918520111,0.0,0.382824411446,-0.105388677516,0.304960551432,1.0,-0.40998,-0.538830857143,1.874
-0.147785544852,-0.447654404653,-0.145159930234,-2.5829047533,-0.063680389587,2.12930650562,-0.418674592191,-1.57192107331,-0.784698468259,-0.0560799028873,-0.648632555483,-0.142850223145,-0.142210374017,-1.49071031642,0.57388305761,0.818908972056,0.00520370790699,0.0,0.818900536394,-0.573804354836,-0.0114551632517,0.0,-0.00639494882746,0.0108354519246,-0.999920845673,0.0,0.375933803962,-0.1145375799,0.305072448337,1.0,-0.40998,-0.538830857143,1.891
-0.173038650068,-0.459827895137,-0.145741373973,-2.5928891727,-0.065967804505,2.12676470525,-0.442699603516,-1.59048074338,-0.733814670252,-0.0412319005124,-0.602872078117,-0.133716857667,-0.171240262741,-1.52243446645,0.573776301744,0.818983850515,0.0051918257369,0.0,0.818974042078,-0.573695604959,-0.0116455207888,0.0,-0.0065590921327,0.010934104875,-0.999918708526,0.0,0.369368133413,-0.123071106429,0.305020722973,1.0,-0.402536571429,-0.529048065306,1.907
-0.19997499268,-0.471434777681,-0.14610515507,-2.60237092843,-0.068055009899,2.12428041218,-0.468289807823,-1.59413615513,-0.662759819239,-0.0254501209371,-0.522687359534,-0.109742512025,-0.14692880753,-1.49299329684,0.573708751688,0.819031054821,0.00521021850829,0.0,0.8190202281,-0.573625920939,-0.0118285962953,0.0,-0.00669940029492,0.0110536563831,-0.999916463869,0.0,0.362591712725,-0.131929217211,0.304945668068,1.0,-0.387761142857,-0.509628930612,1.924
-0.226690406013,-0.481927966326,-0.146345354386,-2.61052999241,-0.0698147208297,2.121983321,-0.493487670085,-1.57197228501,-0.598212929665,-0.0260496992552,-0.466086132868,-0.0900915844339,-0.134810106276,-1.47961552424,0.573895952047,0.818898581592,0.00541259565647,0.0,0.818891178951,-0.573813750647,-0.0116517597614,0.0,-0.00643591163856,0.0111194386833,-0.999917465156,0.0,0.356099899094,-0.140555422617,0.305027527066,1.0,-0.372985714286,-0.490209795918,1.941
-0.252979252602,-0.491092682504,-0.146307037124,-2.61785438625,-0.0712746446005,2.11972680196,-0.518406677618,-1.54443672403,-0.515996112467,-0.0106741597376,-0.412974885925,-0.0749298878206,-0.124752661584,-1.45159261799,0.573933173654,0.818872209421,0.00545561355826,0.0,0.818863764267,-0.573848064764,-0.0118861700335,0.0,-0.00660268815655,0.0112894889022,-0.999914472317,0.0,0.349757739947,-0.148784837519,0.304966772384,1.0,-0.358210285714,-0.470790661225,1.958
-0.278672098,-0.499076354521,-0.146116792295,-2.62403563453,-0.0723646457882,2.11782771093,-0.542807620063,-1.50577679347,-0.451527118608,0.00580183151089,-0.34696699008,-0.0496822267109,-0.104883079441,-1.41866688201,0.574018768663,0.818810780745,0.00566616800218,0.0,0.818805100526,-0.573932920752,-0.0118303309881,0.0,-0.00643492609416,0.0114305393606,-0.999913963547,0.0,0.343753576161,-0.156693070857,0.304993696947,1.0,-0.343434857143,-0.451371526531,1.975
-0.302113978042,-0.505473645845,-0.145801107873,-2.62897217269,-0.0732723663831,2.11621044353,-0.565172647819,-1.46581542043,-0.381611169824,0.0149751199351,-0.290355916422,-0.0564445511191,-0.0931018414226,-1.38348811393,0.573988692783,0.818831345039,0.00574071777816,0.0,0.818826640012,-0.573902589812,-0.0118109235621,0.0,-0.00637666439675,0.0114802102551,-0.999913767744,0.0,0.338359940028,-0.163799803431,0.305005092565,1.0,-0.329528571429,-0.433094693878,1.991
-0.326413899003,-0.511335559507,-0.145396358708,-2.63335602904,-0.0740388583281,2.11478277639,-0.58833836221,-1.4272895233,-0.332229905486,0.0305353088281,-0.251411093633,-0.0423574220858,-0.0964244475485,-1.37401666406,0.574034345045,0.8187984355,0.00586852904652,0.0,0.818796628766,-0.573950064934,-0.0115823393769,0.0,-0.00611547647579,0.0114540129227,-0.999915699714,0.0,0.332883911771,-0.17109670129,0.305076046747,1.0,-0.314753142857,-0.413675559184,2.008
-0.349863447368,-0.516156158023,-0.144842152242,-2.63716956555,-0.0745955803366,2.11333927319,-0.610825468984,-1.35606069713,-0.265300145459,0.0452934430309,-0.211491936001,-0.0261028863799,-0.0811387566061,-1.30498494416,0.573958916842,0.818851207529,0.00588290798776,0.0,0.818848039462,-0.573871727871,-0.0118268812371,0.0,-0.00630854286942,0.0116055750598,-0.999912752651,0.0,0.327575856678,-0.177977309751,0.305015010467,1.0,-0.299977714286,-0.39425642449,2.025
-0.372453716049,-0.520061564927,-0.14421865835,-2.64030492214,-0.0749825532954,2.11223236068,-0.632452946775,-1.30788659962,-0.215228852152,0.0316078739563,-0.169451565105,-0.00684046591744,-0.064816967453,-1.26584003002,0.573949417654,0.818857635281,0.0059148979903,0.0,0.81885387102,-0.573860250187,-0.0119790680428,0.0,-0.00641494999753,0.0117190418711,-0.999910752254,0.0,0.322542120694,-0.184543115441,0.304949849498,1.0,-0.285202285714,-0.374837289796,2.042
-0.394143748474,-0.523200204248,-0.143480049195,-2.64274471872,-0.0752597285857,2.11128982157,-0.653247822019,-1.25322953504,-0.17233602185,0.0522815908921,-0.131922302195,-0.0201991353283,-0.0449622859745,-1.22286216287,0.573892336717,0.818897764782,0.00589776173551,0.0,0.818893435197,-0.573802628103,-0.0120346448013,0.0,-0.00647111713299,0.0117364547572,-0.999910186103,0.0,0.31778288875,-0.190791560612,0.304932470852,1.0,-0.270426857143,-0.355418155102,2.059
-0.413691193595,-0.525501933931,-0.142842640403,-2.64452462979,-0.0753641786924,2.11056393525,-0.672021388381,-1.20391229978,-0.127433055449,0.0452197334744,-0.0996399458393,-0.00914641290953,-0.0378523767974,-1.15109783609,0.573922334288,0.818876283129,0.00596104316242,0.0,0.818872385585,-0.573831640008,-0.012083540594,0.0,-0.00647441428716,0.0118165749649,-0.999909221137,0.0,0.313521603725,-0.196404109384,0.304921814646,1.0,-0.256520571429,-0.337141322449,2.075
-0.433528691623,-0.52737302293,-0.142060944444,-2.64599862262,-0.0754224085907,2.11001008336,-0.691092786367,-1.15507811336,-0.0996160844462,0.0324647411282,-0.0748549841046,-0.000220168330236,-0.0280284382504,-1.10921053508,0.573883298806,0.818903695966,0.00595340122335,0.0,0.818899784258,-0.573792800901,-0.012071117496,0.0,-0.006469188521,0.0118028789483,-0.999909416722,0.0,0.30923510423,-0.202048671625,0.304909891821,1.0,-0.241745142857,-0.317722187755,2.092
-0.45013548199,-0.52857567844,-0.141361665489,-2.64695538909,-0.0753726460695,2.10960153618,-0.707069788586,-1.08376683726,-0.0715226581953,0.0464739759667,-0.0587297866888,0.00464128454071,-0.0205602553428,-1.04792328178,0.573868871926,0.818913726251,0.00596436864707,0.0,0.818909786343,-0.573778018139,-0.0120952318578,0.0,-0.00648285258375,0.0118255845955,-0.999909059951,0.0,0.305659070647,-0.206741399282,0.30489827082,1.0,-0.228708,-0.300587657143,2.107
-0.470143432799,-0.529619517299,-0.140469970809,-2.64776314727,-0.0753443300781,2.10921506777,-0.726153268117,-1.01932966008,-0.0446390181819,0.0490019695673,-0.0330348332437,0.0111325328148,-0.0147799126476,-0.986596151818,0.573960256784,0.818850281093,0.0058811297538,0.0,0.818845500408,-0.573870179631,-0.0120751932601,0.0,-0.00651289580045,0.0117466438198,-0.999909795205,0.0,0.301363497384,-0.212385508383,0.304902960682,1.0,-0.212194285714,-0.278883918367,2.126
-0.48686887757,-0.53010369081,-0.139609618572,-2.64813394358,-0.075132439613,2.10899557538,-0.742178144015,-0.960858623295,-0.0196102942108,0.0446767915296,-0.0137496883101,0.00774085779539,-0.00738415393653,-0.917504105232,0.573995183692,0.818825862151,0.00587226300025,0.0,0.818821193635,-0.573905547275,-0.0120425313527,0.0,-0.00649073677325,0.011720914059,-0.999910241227,0.0,0.297815920907,-0.21706055265,0.304915365072,1.0,-0.197418857143,-0.259464783674,2.143
-0.50238975784,-0.530310522892,-0.13863668607,-2.64826595222,-0.0747966747037,2.10886082244,-0.75719938921,-0.885189052114,-0.00887914767648,0.0532934455006,-0.00358168280041,0.0274578185007,-0.00272125720521,-0.863061355119,0.573853169242,0.818925413947,0.00586970559915,0.0,0.818921173225,-0.573764406668,-0.0119693185304,0.0,-0.00643427486151,0.0116756823612,-0.999911135326,0.0,0.294562671577,-0.221340803282,0.304945309615,1.0,-0.182643428572,-0.24004564898,2.16
-0.516165411981,-0.530301888064,-0.137799876101,-2.6482689915,-0.0744722044807,2.10880303069,-0.770313519854,-0.842554817563,8.3860470307e-05,0.0558927837965,0.00344737166514,0.0228971727663,-0.0049425156597,-0.799278432097,0.573942836467,0.818862500776,0.00587981216933,0.0,0.818858667989,-0.573854518646,-0.011925610664,0.0,-0.00639140164371,0.0116595784551,-0.9999115982,0.0,0.291656082976,-0.225133217399,0.304958117662,1.0,-0.168737142857,-0.221768816327,2.176
-0.529531204119,-0.530069272234,-0.136737482414,-2.64817647227,-0.0739924948593,2.10880616568,-0.783187131101,-0.77047622528,0.0200305027667,0.0604107290766,0.00985638717422,0.0330268462013,-0.0015289806301,-0.731983029138,0.573806880724,0.818957745774,0.00588397580759,0.0,0.818953830374,-0.573718324492,-0.0119438167943,0.0,-0.0064058598688,0.0116723735135,-0.999911356399,0.0,0.288878797512,-0.228724744369,0.30494373134,1.0,-0.153961714286,-0.202349681633,2.193
-0.54195456397,-0.529710024339,-0.13581230109,-2.64797196788,-0.0735214112493,2.10881299607,-0.794973679443,-0.713056475064,0.0267989384796,0.0540969481415,0.0158004180279,0.0314197526421,0.00132769306297,-0.669294692991,0.573888730923,0.818900098106,0.00592458802062,0.0,0.818896393257,-0.573799414583,-0.0119864855487,0.0,-0.00641633258821,0.0117307585949,-0.999910605994,0.0,0.286274704525,-0.232070303285,0.304930559674,1.0,-0.139186285714,-0.182930546939,2.21
-0.552450707758,-0.529201618822,-0.134794433291,-2.64770882853,-0.0730073029891,2.10887451377,-0.805047771723,-0.632713358187,0.032234847625,0.0624884369809,0.0157068100997,0.0340557596818,0.00257876923033,-0.609059984962,0.573751175844,0.818996486804,0.00592365776567,0.0,0.818992199084,-0.573660851825,-0.0120727720476,0.0,-0.00648951227639,0.0117784234293,-0.999909573397,0.0,0.284126963073,-0.234831277531,0.304896453266,1.0,-0.12528,-0.164653714286,2.226
-0.56328505326,-0.528587505709,-0.133801179031,-2.64737807076,-0.0724580990854,2.1089712315,-0.81522581538,-0.579820791275,0.0338953284884,0.0451302131341,0.0248172447725,0.0334286589351,0.00767481417118,-0.53571676064,0.573841431784,0.818932995992,0.00595870318066,0.0,0.818928545533,-0.573749814186,-0.012162850543,0.0,-0.00654188074374,0.0118595280318,-0.999908273489,0.0,0.281890466898,-0.237688542919,0.304856581838,1.0,-0.109635428572,-0.144092277551,2.244
-0.571878870685,-0.528031094735,-0.13292523683,-2.64700177345,-0.0719634322527,2.10910232161,-0.823198619175,-0.509790270684,0.0373022194575,0.0568480095054,0.0188768556605,0.0316193524853,0.00932810242358,-0.486757175573,0.573964028296,0.818846919992,0.00598019585973,0.0,0.818842929384,-0.573872617574,-0.012133536082,0.0,-0.0065037632153,0.0118612827096,-0.999908501332,0.0,0.280154011088,-0.23994643524,0.304858099945,1.0,-0.0957291428573,-0.125815444898,2.26
-0.579743704063,-0.527409506444,-0.131929420084,-2.64660714434,-0.071393464949,2.10920600435,-0.830600470983,-0.449508664686,0.036756335485,0.0549354316216,0.0209296319598,0.0259003011539,0.00461422815946,-0.412556832431,0.5739055587,0.81888777854,0.00599689520619,0.0,0.81888369018,-0.573813511505,-0.0121779666844,0.0,-0.00653141433887,0.0118999915616,-0.999907861169,0.0,0.278604802199,-0.241952943681,0.304844578074,1.0,-0.0809537142858,-0.106396310204,2.277
-0.586325258321,-0.526911170512,-0.131027595066,-2.64622967663,-0.0708737394947,2.10929752574,-0.83657295669,-0.383153557056,0.0346477183972,0.0547506968232,0.0228786198585,0.0345160550147,0.00975080891149,-0.35432796759,0.57400972148,0.818814708431,0.00600498163952,0.0,0.81881096895,-0.573918061217,-0.0121409652831,0.0,-0.0064949585762,0.0118862057817,-0.999908262605,0.0,0.277400677502,-0.243521114974,0.304863200659,1.0,-0.0679165714287,-0.089261779592,2.292
-0.592458031442,-0.526362499533,-0.129985951927,-2.64582941344,-0.0702554597774,2.10943292878,-0.842060124722,-0.314752866474,0.0303734667746,0.066762480243,0.0206685226224,0.0310308104883,0.0097663366568,-0.281656349402,0.574088315231,0.818759487459,0.00602120517833,0.0,0.818756309867,-0.573997211662,-0.0120852371897,0.0,-0.00643887159226,0.0118681216883,-0.999908840155,0.0,0.276199208718,-0.245117873377,0.304883574547,1.0,-0.051402857143,-0.0675580408165,2.311
-0.59675661513,-0.525922137223,-0.12902892835,-2.64555613885,-0.0696619727431,2.10950982021,-0.845921687978,-0.247987297914,0.0266345611797,0.0604143393405,0.0142142210027,0.0317240154915,0.0080078212866,-0.212190199717,0.574032708282,0.818798222867,0.00605532432631,0.0,0.81879521437,-0.573940959745,-0.0121209963576,0.0,-0.00644937579202,0.0119161483688,-0.999908201266,0.0,0.275418550418,-0.246141852693,0.304877428666,1.0,-0.0366274285716,-0.0481389061226,2.328
-0.600265059736,-0.525625373612,-0.127911944392,-2.64537578901,-0.0690786417178,2.10955676205,-0.848895676874,-0.189011799149,0.0172678762839,0.0644655585034,0.0056911430003,0.0332098827797,0.00576665724569,-0.1522946973,0.573945036182,0.818860075848,0.00600154357306,0.0,0.818856331033,-0.573853476783,-0.012134381393,0.0,-0.00649247882274,0.0118790986279,-0.999908363169,0.0,0.274915620172,-0.246790231148,0.304882024091,1.0,-0.0227211428573,-0.0298620734696,2.344
-0.60281411827,-0.525396877836,-0.127003253419,-2.64522225758,-0.068570347782,2.10958090769,-0.850941715945,-0.131282969127,0.0125723862489,0.0468411520248,0.00832508986625,0.0254681367511,0.00263223805135,-0.108093530402,0.573939629784,0.818863996873,0.00598355161664,0.0,0.818859981323,-0.573848084224,-0.0121430688607,0.0,-0.00650999760717,0.0118693079324,-0.999908365532,0.0,0.274551520257,-0.247268746084,0.304892492528,1.0,-0.0197030769231,-0.0258954725275,2.361
-0.604754759956,-0.525200469532,-0.126414791483,-2.64504479029,-0.0682517974037,2.10965852482,-0.85264334881,-0.108996644183,0.0118808974692,0.0314978801767,0.0131668806996,0.0125193053353,0.000452365406466,-0.101050733382,0.573864406418,0.818916922499,0.00595516515787,0.0,0.818913125052,-0.573774071617,-0.0120563368979,0.0,-0.00645634325386,0.0117956926308,-0.999909584546,0.0,0.274270437031,-0.2476856429,0.304922180714,1.0,-0.0193630769231,-0.0254486153846,2.378
-0.60647625203,-0.524999094177,-0.126089429689,-2.64485769476,-0.0680582793596,2.1097187048,-0.854279798713,-0.0944490334961,0.0152923428104,0.0149272946759,0.0103206399811,0.00804024228615,0.000356562664471,-0.0936236489024,0.573796241961,0.818964710565,0.00595167724965,0.0,0.818961287263,-0.57370670387,-0.0119906130376,0.0,-0.00640549512406,0.0117545882738,-0.999910395629,0.0,0.273977442317,-0.248114632699,0.304946483928,1.0,-0.0190230769231,-0.0250017582418,2.395
-0.607962211897,-0.524820829497,-0.125912278396,-2.64471411672,-0.0679292354986,2.10975626135,-0.855669704835,-0.0904103795506,0.0101588600039,0.00893686872024,0.0106358231058,0.0052491431448,0.00386405465749,-0.0894534006305,0.573812226746,0.818953371096,0.00597087161754,0.0,0.818950287963,-0.573722773228,-0.0119729790093,0.0,-0.00637980932984,0.0117603151992,-0.999910492504,0.0,0.273692557262,-0.248505595171,0.304953931038,1.0,-0.0187030769231,-0.0245811868132,2.411
-0.609574882168,-0.524658103728,-0.125775571441,-2.64457579372,-0.0678583791297,2.10976110208,-0.857221337527,-0.0910119078509,0.0096086724219,0.00727756583205,0.00859671854751,0.000646230345918,0.000352231437101,-0.0856943576312,0.573803025661,0.818959855183,0.00596575569049,0.0,0.818956665469,-0.573713521195,-0.0119800911057,0.0,-0.00638870197556,0.0117601343305,-0.999910437853,0.0,0.27335597015,-0.248940661217,0.304960871773,1.0,-0.0183430769231,-0.024108043956,2.429
-0.61090189677,-0.524518227542,-0.125705470418,-2.6444509442,-0.0678251361414,2.10978653814,-0.858504431695,-0.0799749612863,0.00905373082984,0.00122543348347,0.00631815844419,0.000324143326132,7.66589749456e-05,-0.0730747170893,0.573810118714,0.818954935705,0.00595884605343,0.0,0.818951786918,-0.573720881766,-0.0119610798266,0.0,-0.00637699372518,0.0117436223598,-0.999910706656,0.0,0.273073547498,-0.249315988733,0.30497020041,1.0,-0.0180230769231,-0.0236874725275,2.445
-0.612267290931,-0.524343859346,-0.125650767027,-2.64430377737,-0.0677888052144,2.10983265348,-0.859919771975,-0.0757098523606,0.0130688077134,0.000328412007753,0.00714386948723,0.00217520086812,0.00315340454033,-0.0757855653262,0.573753738692,0.818994428605,0.00595987848213,0.0,0.818991465489,-0.573664826658,-0.0119328543616,0.0,-0.00635409091907,0.0117278352126,-0.999911037748,0.0,0.272786004679,-0.249712350485,0.30497841792,1.0,-0.0176830769231,-0.0232406153846,2.462
-0.613625514391,-0.524180616496,-0.125649537743,-2.64415936024,-0.0677583181016,2.10986364668,-0.861277314816,-0.080861878492,0.0101771806758,-0.0001704661413,0.00896508099565,-0.000440178641714,-0.000119828215913,-0.0748432709082,0.573773968911,0.818980084337,0.00598339032907,0.0,0.818977531667,-0.57368515283,-0.0119119666173,0.0,-0.00632320297072,0.0117352645464,-0.999911146388,0.0,0.272485172444,-0.250116509451,0.304986887622,1.0,-0.0173430769231,-0.0227937582418,2.479
-0.614903751957,-0.52402246597,-0.12565984168,-2.64403352926,-0.0677327068247,2.10987242147,-0.862509159497,-0.0816202211331,0.00968268622591,-0.00110211935972,0.0043021972738,0.00058142912041,0.000579636179487,-0.0822141470522,0.573836828488,0.818935841114,0.00601076623988,0.0,0.818933518367,-0.573747655826,-0.0119275659455,0.0,-0.00631936987766,0.0117671211122,-0.999910796234,0.0,0.272193030888,-0.250494111699,0.304986593517,1.0,-0.0170230769231,-0.0223731868132,2.495
-0.616221072324,-0.523861326115,-0.125659841668,-2.64391744709,-0.0677072352908,2.10988731911,-0.863816833145,-0.0743995523994,0.00878106011686,-0.000176097552859,0.006168605329,0.000912957950075,0.0037669340472,-0.0717943360246,0.57386180041,0.818918168219,0.00603445868223,0.0,0.81891599033,-0.573772222438,-0.0119492443848,0.0,-0.00632317029455,0.0117991567744,-0.999910394694,0.0,0.271891321196,-0.250878063917,0.304981532099,1.0,-0.0166830769231,-0.0219263296703,2.512
-0.617495421402,-0.523688276331,-0.125635401905,-2.64382156199,-0.0676751577247,2.10991634936,-0.865000598186,-0.0752407712283,0.0096969538874,0.00355116773018,0.00674513214536,0.00285762535764,0.000805020976433,-0.0718141986358,0.573937680137,0.818864864892,0.00605138544147,0.0,0.818862642762,-0.573847523426,-0.0119891220456,0.0,-0.00634502041647,0.0118364902578,-0.99990981504,0.0,0.271602795158,-0.251240515257,0.304964705959,1.0,-0.0163430769231,-0.0214794725275,2.529
-0.618703777338,-0.523514881012,-0.125567113842,-2.64371623336,-0.0676520427684,2.10993465919,-0.86629838732,-0.0707447072546,0.0100783483576,0.00376133550287,0.00854437170516,-8.32514623136e-06,0.000285466150182,-0.0832486675868,0.573831753212,0.818939182046,0.00604003439431,0.0,0.818936548995,-0.573741176466,-0.0120307127056,0.0,-0.00638712855527,0.0118502380407,-0.999909384118,0.0,0.271339302777,-0.251576760034,0.304952158369,1.0,-0.0160030769231,-0.0210326153846,2.546
-0.619892037595,-0.523332692011,-0.125459837351,-2.64362438029,-0.067623958003,2.1099641723,-0.867540856102,-0.0662837100186,0.0147971683847,0.0103509868306,0.00167335587069,0.000383401936628,0.00242098809326,-0.0642150329202,0.573728591393,0.819011652336,0.00601362265756,0.0,0.819008355923,-0.573637558613,-0.0120835085524,0.0,-0.0064470186109,0.0118580898517,-0.999908906679,0.0,0.271087509105,-0.251896066051,0.304932135677,1.0,-0.0156630769231,-0.0205857582418,2.563
-0.621028786433,-0.523159545874,-0.125376029075,-2.64351996845,-0.0675983025678,2.10999402361,-0.868697755461,-0.064038138674,0.01085995333,0.00300147601553,0.00665694154373,0.000603182127373,0.00378679758682,-0.0647818228398,0.573669419261,0.819053240925,0.00599440046674,0.0,0.819049505499,-0.573578136033,-0.0121151271935,0.0,-0.00648480199822,0.0118600170615,-0.999908639496,0.0,0.270846422883,-0.252209987689,0.304920598074,1.0,-0.0153230769231,-0.0201389010989,2.58
-0.622083358945,-0.522989454922,-0.125338356245,-2.6434146323,-0.0675713914659,2.11002461248,-0.869826916245,-0.0640998831668,0.0133146532696,-0.000746920863563,0.00935748592364,0.000392453154084,0.00212584713824,-0.0783109224628,0.573598863577,0.819102621452,0.00599884450879,0.0,0.819098756854,-0.573507233756,-0.0121419212255,0.0,-0.00650522403105,0.0118784669936,-0.999908287836,0.0,0.270616531615,-0.252511981091,0.304909560816,1.0,-0.0150030769231,-0.0197183296703,2.596
-0.623207127802,-0.522821418866,-0.125335364067,-2.64329139731,-0.0675465422273,2.11005013884,-0.870937379606,-0.0700768957201,0.00449449541126,0.000243880438425,0.0113103321318,0.000540088607678,0.000556601230642,-0.0650864038795,0.573624795371,0.81908432857,0.00601695338621,0.0,0.819080603477,-0.573532903756,-0.0121540206516,0.0,-0.0065043723268,0.0119004465403,-0.999908032027,0.0,0.270364773506,-0.252844243728,0.304906147073,1.0,-0.0146630769231,-0.0192714725275,2.613
-0.624353530883,-0.52267410547,-0.125335328594,-2.64317971138,-0.0675183040482,2.11006792786,-0.87202026096,-0.0694644457311,0.0101444714299,0.00114933375669,0.00700616931851,0.00133060593691,-7.54263200251e-05,-0.0673830102034,0.573694756391,0.819035152379,0.00604090708253,0.0,0.819031652859,-0.57360258472,-0.0121644284305,0.0,-0.00649813968587,0.0119265925415,-0.999907761031,0.0,0.270103049361,-0.25317907348,0.304904356804,1.0,-0.0143230769231,-0.0188246153846,2.63
-0.625470605917,-0.522557582759,-0.125343123965,-2.64307336717,-0.0674963150294,2.11010227968,-0.873148284317,-0.061117381555,0.00828125225974,0.000340529248767,0.00642122115581,0.000272359200429,0.000225794361405,-0.0554082587122,0.57370619225,0.819026980201,0.0060628027494,0.0,0.81902394723,-0.573614254405,-0.0121329266265,0.0,-0.0064596085447,0.0119265453978,-0.999908011255,0.0,0.269848269655,-0.253509537275,0.30491266191,1.0,-0.0139830769231,-0.0183777582418,2.647
-0.626540178318,-0.522419171757,-0.125339933359,-2.64294351525,-0.0674706559807,2.11012795109,-0.87417691483,-0.0607938529659,0.0116465442494,-0.000528645990887,0.00762355577382,0.00162437597713,0.00302084164794,-0.064814892324,0.573755119145,0.818992584044,0.00607926293461,0.0,0.818989906688,-0.573663359675,-0.0121090631486,0.0,-0.00642990631462,0.0119267215794,-0.999908200595,0.0,0.269611422811,-0.253828476719,0.304923130209,1.0,-0.0136430769231,-0.0179309010989,2.664
-0.627477037829,-0.522293050772,-0.125316525441,-2.64281590121,-0.0674457438797,2.11016948775,-0.875154519425,-0.0582769407374,0.00287435319776,0.00328587898529,0.00832243490768,0.000251389955881,0.0017956126846,-0.0575176163582,0.573722334697,0.819015522853,0.00608300069484,0.0,0.819013201868,-0.573631137875,-0.0120598394406,0.0,-0.00638792008197,0.0119012862526,-0.99990877277,0.0,0.269414465036,-0.25410884308,0.304938922497,1.0,-0.0133230769231,-0.0175103296703,2.68
-0.628468051963,-0.522126303938,-0.125251421418,-2.64269485607,-0.0674211841805,2.1101976461,-0.87619038567,-0.0603569539436,0.00498999534251,0.00264641411245,0.00862009888617,0.00362646795619,-7.37891323666e-05,-0.0603838621505,0.573656406547,0.819061805521,0.00606900868485,0.0,0.819059238679,-0.573565165472,-0.012071097409,0.0,-0.00640612620561,0.0118957690261,-0.999908721947,0.0,0.269207644068,-0.254390266383,0.304936647859,1.0,-0.0129830769231,-0.0170634725275,2.697
-0.629431896014,-0.521964743181,-0.125195318396,-2.64260132983,-0.0673910827276,2.11022501145,-0.87716575625,-0.0566434268155,0.00899561102266,0.00531051760152,0.00528465937046,0.000946134870058,0.000873843338842,-0.0479665903274,0.573625193743,0.819083680574,0.00606697800429,0.0,0.819080867676,-0.573533560892,-0.0121051079762,0.0,-0.00643560480157,0.0119133698853,-0.999908323102,0.0,0.268999562168,-0.254658689168,0.304923486155,1.0,-0.0126430769231,-0.0166166153846,2.714
-0.630389250985,-0.52182787461,-0.12514484939,-2.6425167699,-0.0673785131431,2.11024102842,-0.878096845056,-0.056509442822,0.00757071612226,0.00368302357729,0.00593306462713,-0.000410958524452,0.00110463332781,-0.0595999488077,0.573620916191,0.819086771166,0.00605414821678,0.0,0.819083604439,-0.573528995902,-0.012136173184,0.0,-0.00646847389796,0.0119206458334,-0.999908024294,0.0,0.268786769174,-0.254924849635,0.304914200193,1.0,-0.0123030769231,-0.0161697582418,2.731
-0.631265092067,-0.521696866169,-0.125141941801,-2.64243651362,-0.067360357131,2.11025274109,-0.879012061064,-0.0555152352498,0.00520522561113,0.000281168250665,0.00699536967668,0.000230626487312,-0.000192815734045,-0.0581257438078,0.573596998213,0.819103414554,0.00606850947522,0.0,0.819100246389,-0.573504671447,-0.012162446103,0.0,-0.00648210740023,0.0119472902044,-0.999907618003,0.0,0.268570846627,-0.255195102955,0.304906231305,1.0,-0.0119630769231,-0.0157229010989,2.748
-0.632135707302,-0.521558507201,-0.125149658101,-2.64234750334,-0.0673460240977,2.11027032946,-0.879885246708,-0.0566407441434,0.00871223559259,-0.000780051888124,0.00831747125749,0.00305990066789,0.000126407004664,-0.0472131138453,0.573612989728,0.819092079723,0.00608685896918,0.0,0.819088919253,-0.57352014993,-0.0121953631748,0.0,-0.00649831422988,0.0119813281439,-0.999907105529,0.0,0.268381176743,-0.255433870976,0.304894552868,1.0,-0.0116630769231,-0.0153286153846,2.763
-0.6331038282,-0.52141465516,-0.125136177046,-2.64226039607,-0.0673383262979,2.11029278025,-0.880795821943,-0.053957318028,0.00771511150106,0.00401110885513,0.0103907319312,-0.000406267959023,0.00136044962732,-0.0434965548586,0.573658596871,0.819060134378,0.00608747976031,0.0,0.819056795996,-0.573565401911,-0.0122246294071,0.0,-0.00652126438412,0.0119989864388,-0.999906744369,0.0,0.268158020959,-0.255712500788,0.304883512274,1.0,-0.0113030769231,-0.0148554725275,2.781
-0.633980165003,-0.521279637833,-0.125137580792,-2.64216918868,-0.0673314913965,2.11032610219,-0.881644774131,-0.0519211328999,0.00864020650742,-0.000853160959032,0.0097098942564,-0.000306205947441,-2.53283496257e-05,-0.0411411476577,0.573689814437,0.819038233292,0.00609229996673,0.0,0.819034918229,-0.573596517807,-0.01223046946,0.0,-0.00652282563709,0.012006533323,-0.999906643594,0.0,0.267957719718,-0.255972404572,0.304878150344,1.0,-0.0109630769231,-0.0144086153846,2.798
-0.634818720581,-0.521145484081,-0.125124795652,-2.64207973526,-0.0673238307776,2.11035341938,-0.882502809498,-0.0492810912433,0.00423388486211,-6.50692916002e-05,0.00349317901427,-0.000394406732023,0.000244481792316,-0.038898982619,0.573672864079,0.819050110447,0.00609167446086,0.0,0.819046702789,-0.573579418637,-0.0122432049788,0.0,-0.00653386509143,0.0120131916385,-0.999906491545,0.0,0.267768604947,-0.256217560669,0.304872127443,1.0,-0.0106230769231,-0.0139617582418,2.815
-0.635591674513,-0.521029253155,-0.125114860701,-2.64198049588,-0.0673156084057,2.11038567375,-0.883263533405,-0.0512798319674,0.00545250490036,0.000313715515335,0.00262834809461,0.00416175019233,0.00878187146821,-0.0451054025847,0.573683846562,0.819042437664,0.00608903942015,0.0,0.819039108431,-0.573590618435,-0.0122265368995,0.0,-0.00652156225999,0.0120015592037,-0.99990671155,0.0,0.267587146049,-0.256462120415,0.304877265514,1.0,-0.0102830769231,-0.0135149010989,2.832
-0.636418836329,-0.520913900671,-0.125109844854,-2.64184672989,-0.0673088713296,2.11040706529,-0.884057188597,-0.0463115518667,0.00828413850472,-0.000182252828204,0.00921486522821,0.000682718462399,0.000153741567939,-0.0410637505253,0.573718027122,0.819018522097,0.00608545140705,0.0,0.819015454102,-0.573625375835,-0.0121803547314,0.0,-0.0064852916422,0.0119723983395,-0.999907297038,0.0,0.267420445018,-0.256703435691,0.304897810919,1.0,-0.00994307692308,-0.013068043956,2.849
-0.637151188759,-0.520797717361,-0.125088013048,-2.64173872366,-0.0673004530626,2.11043455733,-0.884752594136,-0.0447718383691,0.0124365374936,0.000327846304567,0.00704678460724,0.00278442129549,-0.000606993541105,-0.0428229156714,0.573741969225,0.81900182031,0.00607601674077,0.0,0.818998789051,-0.573649650206,-0.0121576828625,0.0,-0.00647178411904,0.0119518533699,-0.99990763034,0.0,0.267264720955,-0.256922775062,0.304907039194,1.0,-0.00962307692308,-0.0126474725275,2.865
-0.637889702833,-0.520700382832,-0.125079466326,-2.641645585,-0.0672942105419,2.11046423294,-0.885513181628,-0.0459568700899,0.00511961889227,0.00107125011475,0.00398133519751,-0.000291399988189,-0.000155158954567,-0.0431642329275,0.573725274297,0.819013534964,0.00607339114786,0.0,0.819010660158,-0.573633322934,-0.0121283250602,0.0,-0.00644948700773,0.0119327284573,-0.999908002823,0.0,0.267101508615,-0.257143666039,0.304916309339,1.0,-0.00928307692308,-0.0122006153846,2.882
-0.638624797673,-0.520624358018,-0.125063994856,-2.64157122935,-0.0672835628641,2.11048412,-0.88622746621,-0.0440138365576,0.00544318362315,-0.000746528560585,0.00385072212938,0.000180793796174,0.000194789736917,-0.0448232111022,0.573739701671,0.819003428242,0.00607339739079,0.0,0.819000698937,-0.573648016534,-0.0121059972252,0.0,-0.00643098467922,0.011920037442,-0.999908273365,0.0,0.266935424713,-0.257355798906,0.304924209505,1.0,-0.00894307692308,-0.0117537582418,2.899
-0.639327902162,-0.520553359359,-0.125042419373,-2.64152152762,-0.0672722255783,2.1104991309,-0.886896463839,-0.0438976753413,-1.20929557054e-05,0.00222102716262,0.00300720495768,0.000697233432595,0.000447986900339,-0.0382353536085,0.573759820764,0.818989328647,0.00607408760267,0.0,0.818986595787,-0.573668105102,-0.0121081795213,0.0,-0.00643208332962,0.0119220127759,-0.999908242748,0.0,0.266772396243,-0.257551022815,0.304922482342,1.0,-0.00860307692308,-0.0113069010989,2.916
-0.639957558129,-0.520470555139,-0.125030076487,-2.64148281802,-0.0672621396933,2.11051243307,-0.887513095512,-0.0436266881275,0.00529586165609,0.00258550484272,-0.000554499112704,0.000206702165684,-0.000250079698372,-0.0393249704693,0.573768230985,0.818983394997,0.00607969843509,0.0,0.818980557106,-0.573676158824,-0.0121350228982,0.0,-0.00645072840296,0.0119420753546,-0.999907883227,0.0,0.266622968116,-0.257725492675,0.304911052435,1.0,-0.00828307692308,-0.0108863296703,2.932
-0.640591627494,-0.520379080334,-0.125027467838,-2.64141077581,-0.0672536621356,2.11052921563,-0.888136363809,-0.0339398228809,0.00695693782249,-0.000492762634776,0.00621103879601,-0.000144432106186,0.000855907643152,-0.0397811066688,0.573782617665,0.818973282113,0.00608422162484,0.0,0.818970505994,-0.573690527632,-0.0121340726296,0.0,-0.00644714510018,0.011945348004,-0.999907867246,0.0,0.266478141195,-0.257912172296,0.30491164313,1.0,-0.00794307692308,-0.0104394725275,2.949
-0.641200026391,-0.520280000835,-0.125012206705,-2.64132677469,-0.0672415281109,2.11054628822,-0.88875319229,-0.0320512704127,0.0059104828401,0.00177998922342,0.00579097170033,1.28154034572e-05,0.000778803296067,-0.038417567389,0.573774436002,0.818979015675,0.0060840262606,0.0,0.818976272029,-0.573682413463,-0.0121285299239,0.0,-0.00644283667448,0.0119419434819,-0.999907935683,0.0,0.266345510103,-0.258091734437,0.304915193903,1.0,-0.00760307692308,-0.00999261538462,2.966
-0.641794108438,-0.520167140141,-0.124987795786,-2.64123584637,-0.0672330461614,2.11057478255,-0.889358100696,-0.0306053812933,0.010277001806,0.000461201614192,0.00398942560311,-0.000156065083273,-0.000248477820349,-0.0295315576523,0.573756626613,0.818991564619,0.00607432315824,0.0,0.818988764003,-0.573664779369,-0.012119086186,0.0,-0.00644092811063,0.0119284380826,-0.999908109183,0.0,0.266221224504,-0.258268899443,0.304918007874,1.0,-0.00726307692308,-0.00954575824176,2.983
-0.642331383607,-0.520087053537,-0.124973629533,-2.64116122088,-0.0672218890539,2.11059685262,-0.889870281233,-0.0294700284772,0.00191432530592,-0.000322652683741,0.00591755416398,-0.000364283648182,-0.000322622708183,-0.030198553218,0.573775725934,0.818978195569,0.00607275994624,0.0,0.818975503985,-0.573684121321,-0.0120995751106,0.0,-0.00642556594949,0.0119161135522,-0.999908354971,0.0,0.266105469462,-0.258428373612,0.304924679118,1.0,-0.00694307692308,-0.00912518681319,2.999
-0.642874091161,-0.520011207547,-0.124951501702,-2.64110475183,-0.0672074218484,2.11061755535,-0.890378903852,-0.0288797011198,0.00240842092727,0.00250646772784,0.00395950249268,-0.000340723374463,0.000584801879296,-0.0303115889279,0.573797093545,0.81896322673,0.00607252861187,0.0,0.818960564221,-0.573705544958,-0.0120949922006,0.0,-0.00642163413973,0.0119134622005,-0.999908411822,0.0,0.265985905834,-0.258582410219,0.304924732053,1.0,-0.00660307692308,-0.00867832967034,3.016
-0.64344000245,-0.51995027703,-0.12493481697,-2.64105501535,-0.067198748792,2.11062911618,-0.890900843936,-0.0317341838578,-7.58319966491e-06,0.00115770729437,0.00390243234055,0.00196718484463,0.00106916897964,-0.0274135268575,0.573827565797,0.818941882155,0.00607167900498,0.0,0.818939234802,-0.573736063148,-0.0120915857523,0.0,-0.00641888836872,0.0119110507018,-0.999908458182,0.0,0.265855881776,-0.258741609113,0.304926299566,1.0,-0.00624307692308,-0.00820518681319,3.034
-0.643905485312,-0.519898421974,-0.124926352036,-2.64101692747,-0.0671910758679,2.11064323154,-0.891340500552,-0.0243941082862,0.0026741875049,0.00185317620727,0.00065524266204,-0.00020015785797,-0.000507413310256,-0.0277233294151,0.573847992578,0.818927550615,0.00607413861439,0.0,0.818924954411,-0.573756510405,-0.0120885363481,0.0,-0.00641468238943,0.0119114753372,-0.999908480115,0.0,0.265747813584,-0.258873499264,0.304925935641,1.0,-0.00592307692308,-0.00778461538462,3.05
-0.644385119555,-0.519836749239,-0.124908644793,-2.64095543195,-0.0671780114444,2.11066175304,-0.891799717893,-0.0281682663814,0.00296377583354,0.00223984681464,0.00584248516087,-0.000460503863429,0.000961367137684,-0.0326874942041,0.5738608631,0.818918537405,0.00607336795674,0.0,0.818916069193,-0.573769638067,-0.012067350636,0.0,-0.00639758617213,0.0118987879537,-0.999908740704,0.0,0.265644384525,-0.259012947888,0.304933191746,1.0,-0.00558307692308,-0.00733775824176,3.067
-0.644883226735,-0.519789575469,-0.124903650872,-2.64088911903,-0.0671650016458,2.1106857104,-0.892294738132,-0.0267753826738,0.00156273761503,0.000385239685162,0.00856794514174,0.00140732154689,0.00115405149354,-0.0264931383721,0.573868678976,0.818913029478,0.00607752766129,0.0,0.818910906635,-0.573777977358,-0.0120210895416,0.0,-0.00635719772107,0.0118757091065,-0.999909272669,0.0,0.265535640494,-0.259162287549,0.304948135031,1.0,-0.00520307692308,-0.00683832967034,3.086
-0.645264362438,-0.519740781999,-0.124894373884,-2.64084200313,-0.0671521581894,2.11068733091,-0.892644003059,-0.0229073463568,-0.000652379840508,0.00104008526981,0.00338096177239,0.000644142521764,0.000116702171094,-0.0211033163703,0.573896092749,0.818893778941,0.00608279871567,0.0,0.818891737629,-0.573805387256,-0.0120185897577,0.0,-0.00635172800204,0.011878804016,-0.999909270667,0.0,0.265450039165,-0.259271565892,0.30495195353,1.0,-0.00490307692308,-0.00644404395605,3.101
-0.64564450873,-0.519699474415,-0.124875570587,-2.64079571637,-0.0671417371944,2.11069623083,-0.892987150491,-0.0233027828519,0.003440113726,0.00275905291562,0.00132825427647,-0.000309995075613,-0.000622841776418,-0.0193618205607,0.573919838462,0.818877155571,0.00608029641128,0.0,0.81887518862,-0.573829338603,-0.0120026048175,0.0,-0.00633972848359,0.0118677653799,-0.999909477897,0.0,0.265367632317,-0.259379642726,0.304958993865,1.0,-0.00458307692308,-0.00602347252748,3.117
-0.646011345915,-0.519669558037,-0.1248644431,-2.64075660865,-0.0671259824905,2.11070801793,-0.893335406071,-0.0268525192486,0.00134252809496,-0.00112199891871,0.00132379486722,0.00112825580354,0.000210025502054,-0.018164839607,0.573935828163,0.818865902773,0.00608648727886,0.0,0.818864161554,-0.573845571273,-0.0119788210836,0.0,-0.00631646598278,0.0118593092299,-0.999909725446,0.0,0.265286504221,-0.259484063647,0.304967032735,1.0,-0.00424307692308,-0.00557661538462,3.134
-0.646351980894,-0.519638454613,-0.124840448509,-2.64072556972,-0.0671109039268,2.11071654551,-0.893658705149,-0.018796443439,0.00253447426374,0.000774723884499,0.00305225108913,0.00140244476984,0.000159745438626,-0.0209922666857,0.573941021717,0.818862259175,0.00608695255301,0.0,0.818860593189,-0.573850891762,-0.0119678673132,0.0,-0.0063071531472,0.0118534437873,-0.999909853782,0.0,0.265212463598,-0.259576222728,0.304970992773,1.0,-0.00390307692308,-0.00512975824176,3.151
-0.646645315254,-0.519596655184,-0.124811609537,-2.64071002321,-0.0670854733796,2.11072444219,-0.893958364825,-0.018114810207,0.00193906621541,-0.000632623481244,0.00180744102284,0.000167145579716,0.000216759736776,-0.0178017753372,0.573927154872,0.818871909853,0.00609615082665,0.0,0.818870257004,-0.573836789382,-0.0119828313252,0.0,-0.00631432992517,0.0118694574078,-0.999909618525,0.0,0.265148736946,-0.259649476543,0.30496404282,1.0,-0.00356307692308,-0.00468290109891,3.168
-0.64689375102,-0.519552609471,-0.124761536523,-2.64068166311,-0.0670619235445,2.11073386419,-0.894212090343,-0.0119279848148,0.0034878613784,0.0024280458756,4.17281953391e-05,0.000421824574406,6.92332128327e-05,-0.0159709809605,0.573898880192,0.818891766267,0.00609075986252,0.0,0.818890021936,-0.573808503024,-0.0119866898161,0.0,-0.00632099349489,0.0118670388173,-0.99990960513,0.0,0.265104237446,-0.259709804506,0.304962717186,1.0,-0.00324307692308,-0.00426232967034,3.184
-0.647198970859,-0.519499336304,-0.124682230003,-2.64065842741,-0.0670264808235,2.11075004261,-0.894511206766,-0.0146530390748,0.00277054666435,0.00462913297071,0.000106305694388,0.000141866972195,0.00346852475068,-0.0141376930639,0.573864080203,0.818916220319,0.00608181326207,0.0,0.818914298886,-0.573773633922,-0.0119972912756,0.0,-0.00633531430373,0.0118655268144,-0.999909532441,0.0,0.265052066395,-0.259777043562,0.304956938092,1.0,-0.00282307692308,-0.00371032967034,3.205
-0.647411992713,-0.519466297932,-0.124640562103,-2.64063402289,-0.0670036983205,2.11075288344,-0.894745582054,-0.0116439241771,0.00933985665044,-2.9664236898e-05,-0.000268375387542,0.00247069491114,-0.000626008330287,-0.00687260176103,0.573828047017,0.81894147868,0.00608061304516,0.0,0.818939517779,-0.573737568649,-0.0120006433779,0.0,-0.00633927053919,0.0118661885284,-0.999909499514,0.0,0.265013138019,-0.259828141842,0.304957104165,1.0,-0.00248307692308,-0.00326347252748,3.222
-0.647604621292,-0.519435319097,-0.124608503698,-2.64062106735,-0.0669770718009,2.11075607293,-0.894941281167,-0.0125984519834,0.00122807542674,0.00521125685614,-0.000928554581192,0.000443022130594,0.000165291594118,-0.00898578893876,0.573814900028,0.818950631895,0.00608850767738,0.0,0.818948687365,-0.573724229508,-0.0120126117338,0.0,-0.00634473374981,0.0118794196871,-0.999909307758,0.0,0.264975219595,-0.259872698752,0.304952631467,1.0,-0.00214307692308,-0.00281661538462,3.239
-0.647803371958,-0.519412239338,-0.124591551031,-2.64061149827,-0.0669612319096,2.1107620611,-0.895135041676,-0.0133834998104,-0.000337780077369,0.00423351414028,0.000430846240115,0.00116439486889,-0.000455543358503,-0.0117469188103,0.573814269509,0.818951028056,0.00609464147761,0.0,0.818949122389,-0.573723496467,-0.012017963273,0.0,-0.00634560653187,0.0118875089772,-0.999909206082,0.0,0.264931298804,-0.259922933134,0.304949403813,1.0,-0.00178307692308,-0.00234347252748,3.257
-0.647977110935,-0.519393481196,-0.124581122283,-2.6406080328,-0.0669377742778,2.11076219526,-0.895297561395,-0.00702525534063,0.00164053376734,0.00230049866123,5.92408820062e-05,5.60976099657e-05,-0.000391718765564,-0.00180874937499,0.57382631667,0.818942461588,0.00611144875623,0.0,0.81894067946,-0.573735291108,-0.0120302187714,0.0,-0.00634582531963,0.0119083993968,-0.999908956118,0.0,0.264890895967,-0.259964881146,0.304944345296,1.0,-0.00144307692308,-0.00189661538462,3.274
-0.648103592927,-0.519385690415,-0.124566324184,-2.64060635897,-0.0669269409996,2.11076805767,-0.895387752751,-0.0107805283511,-0.000112881846942,0.00159381899514,-8.38273376062e-06,-0.000251038201387,0.000647418382923,-0.00871994145983,0.57385027371,0.818925657281,0.00611376396362,0.0,0.818923911482,-0.573759244843,-0.0120292585525,0.0,-0.00634336200118,0.0119099301149,-0.999908953517,0.0,0.264863336672,-0.259995161418,0.304943093296,1.0,-0.00118307692308,-0.00155490109891,3.287
-0.648231512669,-0.51937452653,-0.124552358974,-2.64060009867,-0.0669119429594,2.11076795797,-0.89546759413,-0.0114322689609,0.00176691264647,0.00081357379172,-0.000364381760086,3.78217797926e-05,0.000233998486071,-0.00198086434638,0.573886481579,0.818900237299,0.00612000929883,0.0,0.818898547889,-0.573795371615,-0.0120327336378,0.0,-0.0063420975265,0.0119173193444,-0.999908873497,0.0,0.264835626303,-0.260025860987,0.304942157857,1.0,-0.000883076923082,-0.00116061538462,3.302
-0.648317547974,-0.51937031033,-0.1245390983,-2.64060529787,-0.0668955186548,2.11076180909,-0.895520935801,-0.00605794876804,-0.000821018836313,0.000578914239557,-0.000360698881868,7.82780962521e-05,-0.000621612536367,-0.000805322233587,0.573922443709,0.818874925307,0.00613450985017,0.0,0.818873348631,-0.573831120941,-0.0120428586127,0.0,-0.00634154437756,0.0119352832586,-0.999908662743,0.0,0.264813061839,-0.260045091418,0.304938227517,1.0,-0.000523076923082,-0.000687472527479,3.32
-0.648349022492,-0.519361414758,-0.124532149733,-2.64059750216,-0.0668757877164,2.11076601767,-0.895559513321,0.000755182121348,3.90631415915e-05,0.000211787613057,0.00122069459323,0.00029585802038,0.000498455931731,0.000472886885469,0.573908709676,0.81888449463,0.0061420121976,0.0,0.818883013241,-0.573817353033,-0.0120417143512,0.0,-0.00633650198673,0.0119406640961,-0.999908630468,0.0,0.26481268735,-0.260049058294,0.304938843964,1.0,-0.000203076923082,-0.000266901098908,3.336
-0.648344809621,-0.519363206052,-0.124508810964,-2.64059533381,-0.0668578010674,2.11076567914,-0.895579905715,0.00033241594714,-0.000603354555243,0.00147330387039,-4.5071496024e-06,0.00240784903184,-0.000391238620359,-0.00425324794395,0.573879772527,0.818904747615,0.00614556097192,0.0,0.818903336596,-0.573788452317,-0.0120367852901,0.0,-0.00633085058985,0.0119405178813,-0.999908668011,0.0,0.264820947467,-0.260041547918,0.304941019988,1.0,0.0,0.0,3.352
-0.648342028737,-0.519355409278,-0.124471168588,-2.64060219808,-0.0668409244189,2.11076171191,-0.895586404002,-0.000636401916652,0.00192318769063,-0.00112071532476,-0.000842422273266,-5.52892490399e-05,-0.00172133441104,-0.00012081111382,0.573852403481,0.818923946317,0.00614296909387,0.0,0.818922389529,-0.573760889177,-0.0120544133594,0.0,-0.00634717455214,0.0119482990498,-0.999908471574,0.0,0.264828974924,-0.260028417417,0.304935587979,1.0,0.0,0.0,3.369
-0.648333443724,-0.519358158686,-0.124425171457,-2.64059690942,-0.0668305540739,2.11076567936,-0.895592793247,0.000980192819244,0.000521893796558,0.00165526041649,0.000227675327997,-0.000374375242283,-8.98595851066e-06,-0.000492637101583,0.573812172652,0.818952250521,0.00612770623384,0.0,0.818950583497,-0.573720899155,-0.0120423653585,0.0,-0.00634665127443,0.011928574088,-0.999908710402,0.0,0.26484403804,-0.26001698142,0.304940429006,1.0,0.0,0.0,3.386
-0.64833362,-0.519360056006,-0.124399742795,-2.64058952685,-0.06681689111,2.11076843178,-0.89559594709,0.00068184520135,-0.00189175998113,0.00153209526121,0.000745976926536,0.000524714947622,-0.00116076297557,0.000849770495776,0.573797856699,0.81896229938,0.00612525454262,0.0,0.818960682187,-0.573706750425,-0.0120296487931,0.0,-0.00633785098043,0.0119191588139,-0.999908878497,0.0,0.264852917396,-0.260012382908,0.304945322877,1.0,0.0,0.0,3.404
-0.648328568693,-0.519352251745,-0.124387655591,-2.64060195859,-0.0668103037759,2.11076421068,-0.895598471343,0.000575440224517,0.0014853933453,0.000435479210475,0.000735740774033,0.000169760170411,0.000272247233671,0.00163557734119,0.573785359589,0.818971039049,0.00612741555586,0.0,0.818969294675,-0.573693954821,-0.0120535257114,0.0,-0.00635634959246,0.0119345315573,-0.999908577709,0.0,0.264853738945,-0.260003826945,0.304936729189,1.0,0.0,0.0,3.421
-0.648322808828,-0.519351446759,-0.124388323252,-2.64059734489,-0.06680027912,2.11076427122,-0.895600400776,0.00038978349677,-9.47360292973e-05,-0.00016602807347,0.000920016524733,0.00245320498262,-0.000205071992931,-0.00193299612081,0.57378402683,0.818971911453,0.00613560970896,0.0,0.818970294917,-0.573692626714,-0.0120487758057,0.0,-0.00634777711624,0.0119385070463,-0.999908584709,0.0,0.264857040776,-0.260002605006,0.304938525152,1.0,0.0,0.0,3.438
-0.648328241858,-0.519352533399,-0.124383426452,-2.64058816536,-0.066798541218,2.11076957884,-0.895607692382,0.000281918849509,-0.00145075341206,-0.00119396774386,-0.000230899623676,0.000808510302183,9.62043139799e-05,-0.0011624540833,0.573780186323,0.818974623285,0.00613278885118,0.0,0.818973071214,-0.573688989537,-0.0120332377648,0.0,-0.00633672492782,0.0119272519639,-0.999908789129,0.0,0.264859827372,-0.260005906161,0.304943665154,1.0,0.0,0.0,3.457
-0.648330959131,-0.519351817048,-0.124386193315,-2.64059380924,-0.066797115298,2.11077241624,-0.895611836674,-0.000905547945285,0.00135459926361,-0.000607368666218,-0.000452627096978,-0.00065423817032,0.000335780156901,-0.00200432176262,0.573781329872,0.818973798442,0.00613594793334,0.0,0.818972263508,-0.573690074138,-0.0120365003489,0.0,-0.00633756800372,0.0119317200675,-0.999908730479,0.0,0.264857780974,-0.260006027412,0.304941015062,1.0,0.0,0.0,3.47
-0.648326093255,-0.519346537254,-0.124382609121,-2.64059539619,-0.0667943457424,2.11077090831,-0.895609416972,0.000181759779706,0.00264849026218,0.000266976583237,-0.00163324875972,-4.36645001601e-05,-0.000128880202159,-0.00907183446909,0.573777919792,0.818976179112,0.0061370764287,0.0,0.818974605459,-0.573686559394,-0.0120446703765,0.0,-0.00634366199766,0.0119373054902,-0.99990862517,0.0,0.264859349677,-0.260002966468,0.304938307657,1.0,0.0,0.0,3.49
-0.648336245885,-0.519354321756,-0.1243861575,-2.64059372956,-0.0667904421096,2.11077114374,-0.895607171069,-0.000839639682747,-0.000911937543795,-0.00031392945475,0.0004485227941,0.000111562034355,0.000353279927561,-0.00012248545271,0.57379229319,0.818966075281,0.0061415564615,0.0,0.818964620513,-0.573701024529,-0.0120346044354,0.0,-0.00633263745076,0.0119353105252,-0.999908718867,0.0,0.264856882699,-0.260006626923,0.304941869873,1.0,0.0,0.0,3.506
-0.648333857323,-0.51934688722,-0.124385524659,-2.64059357933,-0.066793235859,2.11076645356,-0.895608230713,0.000491150485667,0.000107279381199,0.000912410767693,0.000359357996151,0.000154329825178,-0.000226833536476,0.00022933955672,0.573787875638,0.818969184541,0.00613966167197,0.0,0.818967629316,-0.573696473319,-0.0120468060087,0.0,-0.00634378278218,0.0119407252882,-0.999908583571,0.0,0.264856516487,-0.260005395437,0.30493881415,1.0,0.0,0.0,3.52
-0.648331075322,-0.519351814104,-0.124385946927,-2.64059372386,-0.066791363821,2.11076951619,-0.895608249818,-2.63191129976e-05,-0.000331235645565,-0.000118199280031,0.00136707393324,-3.95304362942e-05,1.33834458155e-05,0.000471014007398,0.573786646494,0.818970035997,0.00614095641515,0.0,0.818968546836,-0.573695331521,-0.0120388033232,0.0,-0.00633650316186,0.0119371845659,-0.999908672006,0.0,0.264857877714,-0.260005036123,0.304940814808,1.0,0.0,0.0,3.537
-0.648336364077,-0.519344062537,-0.124380627577,-2.64058923698,-0.0667948006341,2.11077125717,-0.895614261516,-0.000854459748134,0.00181737473829,0.0017224613407,0.000712120682007,-0.000169280381736,-0.000305541600604,-0.00091154828778,0.5737810596,0.818973995419,0.00613493056029,0.0,0.818972421291,-0.573689759451,-0.0120407626924,0.0,-0.00634164678904,0.011933330265,-0.999908685403,0.0,0.264858487656,-0.260006882285,0.304940271257,1.0,0.0,0.0,3.556
-0.648340975759,-0.519348308788,-0.124388768511,-2.64058467834,-0.0667940457035,2.11077288914,-0.895617330859,-0.000364480094646,0.000467407989397,-0.00020232569858,-0.000344520368311,-0.000257428779521,-0.000230395997499,-0.00119998147859,0.573788605449,0.818968680819,0.00613864762956,0.0,0.818967219085,-0.573697408277,-0.0120301580081,0.0,-0.00633071828446,0.0119303484611,-0.999908790236,0.0,0.264856990391,-0.260011275456,0.304943854335,1.0,0.0,0.0,3.572
