nelsonifechukwu/NELSON_IML_WORK/CNN-GradCAM/train2dof/data_sample_2022-02-21-10-43-29/robot_state.csv
position_joint1,position_joint2,position_joint3,position_joint4,position_joint5,position_joint6,position_joint7,velocity_joint1,velocity_joint2,velocity_joint3,velocity_joint4,velocity_joint5,velocity_joint6,velocity_joint7,ee_T_00,ee_T_10,ee_T_20,ee_T_30,ee_T_01,ee_T_11,ee_T_21,ee_T_31,ee_T_02,ee_T_12,ee_T_22,ee_T_32,ee_T_03,ee_T_13,ee_T_23,ee_T_33,v_x,v_y,time
0.465081830144,0.547695043482,-0.123954328345,-1.35574033989,0.0794919120802,1.89408959038,0.159162104562,-0.000360062048529,-0.00067277702349,-0.00155844750878,0.000906942851625,0.000195046243222,0.000363686519624,-0.00122508938783,0.573770141365,0.819001952304,0.00209138738386,0.0,0.818960631676,-0.573710985881,-0.0118294271352,0.0,-0.00848863543302,0.00850029966968,-0.999927841384,0.0,0.661688910352,0.260925761616,0.303317409091,1.0,0.0,0.0,0.0
0.465081838975,0.547697593574,-0.123950641848,-1.35574292487,0.0794898819561,1.8940883777,0.159164347235,-0.000132438432727,-0.00311994051866,-0.000850339949157,0.000384063294321,-0.000242710332444,0.000193981080447,0.00164214682615,0.573768994969,0.819002769694,0.00208579644439,0.0,0.81896137164,-0.573709857169,-0.0118329392144,0.0,-0.00849473155989,0.00849772396513,-0.999927811506,0.0,0.661687272788,0.260927147948,0.303314140979,1.0,-0.00014,-0.000184,0.008
0.465076515603,0.547691434517,-0.123957336778,-1.35575154288,0.0794905898161,1.89408574071,0.159161295429,0.000710986417891,-0.000795680207334,-0.00212941497209,-0.00165824810033,-6.85592322693e-06,-0.00055421569603,-7.6470350775e-06,0.573776162432,0.818997761153,0.00208075776591,0.0,0.818956312722,-0.573717058996,-0.0118338907646,0.0,-0.0084983274351,0.00849421767717,-0.999927810743,0.0,0.661687820577,0.260918743573,0.303314395942,1.0,-0.00046,-0.000604571428571,0.024
0.465070200619,0.547678696583,-0.123952647974,-1.35576165937,0.0794913182928,1.8940908063,0.159163240043,0.000988398305064,-0.000637902611763,0.000625247270041,-0.00542358299232,3.54240444249e-05,-0.000170700603345,0.00193287072611,0.573780408002,0.818994765059,0.00208928220928,0.0,0.818953394446,-0.573721237005,-0.0118332935606,0.0,-0.0084929034207,0.00850090043315,-0.999927800035,0.0,0.661687379144,0.260916708534,0.30331889088,1.0,-0.0008,-0.00105142857143,0.041
0.465074343169,0.547587829491,-0.123957287889,-1.35584523731,0.0794911868601,1.89411080171,0.159154919972,0.000302272896307,-0.0109511988168,-0.000247214532053,-0.00877730152868,-0.00115283805514,0.00520756106449,-0.00115958217575,0.573777946,0.818996422534,0.00211552867358,0.0,0.818955359575,-0.573718637298,-0.0118233304163,0.0,-0.0084697101538,0.0085166537587,-0.999927862707,0.0,0.661674603731,0.260909378194,0.303345371501,1.0,-0.00114,-0.00149828571429,0.058
0.465071154982,0.547432687021,-0.123954781265,-1.35603744741,0.0794878507221,1.89414476422,0.159160436037,-0.000435910019946,-0.0097574178682,-0.00156135477765,-0.00982533539131,-0.000242661628308,0.000628904482511,0.00155046016832,0.573792890676,0.81898594057,0.00212006123933,0.0,0.8189448034,-0.573733428238,-0.0118367735506,0.0,-0.00847796434384,0.00852823384165,-0.99992769406,0.0,0.661641853056,0.260889705239,0.303366645147,1.0,-0.00152,-0.00199771428571,0.077
0.465055952992,0.547295781005,-0.123961924413,-1.35623648342,0.0794836550904,1.8942184574,0.159145853408,-0.00253970754727,-0.0100182979853,-0.00151179534678,-0.0127041590681,-0.000220740731044,0.00383669076081,-0.00117672857498,0.573808408956,0.818975035755,0.00213249193941,0.0,0.81893402661,-0.573748861385,-0.0118343153974,0.0,-0.00846865710145,0.00853716426678,-0.999927696723,0.0,0.661620374389,0.260858011604,0.303375516651,1.0,-0.00184,-0.00241828571429,0.093
0.465042191074,0.547116515686,-0.123949264532,-1.35645098739,0.0794822520441,1.89435076055,0.159136412148,-0.00231753370345,-0.00873200325411,0.00415395180794,-0.00970205759557,-8.03607628877e-05,0.00946900579336,-9.84284673449e-05,0.573815020133,0.818970162089,0.00222332597969,0.0,0.81893024284,-0.573755023291,-0.011797351917,0.0,-0.00838619622269,0.00859041200428,-0.999927935671,0.0,0.661603076605,0.260841899834,0.303411468892,1.0,-0.00218,-0.00286514285714,0.11
0.465016664062,0.546909592562,-0.123951999154,-1.35669582999,0.0794780314589,1.89447767592,0.159120636606,-0.00161405824659,-0.00955017580267,-0.000235848418383,-0.0115450612043,-0.000618374931305,0.00910342131296,-0.00434233531481,0.57383765148,0.818954082223,0.00230387833025,0.0,0.818915184388,-0.573777317536,-0.0117582975781,0.0,-0.00830775262329,0.00863420105035,-0.999928213333,0.0,0.66158522741,0.260805030355,0.303452598947,1.0,-0.00252,-0.003312,0.127
0.464987081421,0.546700134668,-0.123951989411,-1.35702011208,0.0794725180824,1.8945965699,0.159096541652,-0.00392822405147,-0.00989898673536,0.0037693652022,-0.0190988665916,-0.000112370646692,0.00829318335974,-0.00474266107285,0.57385881789,0.818939219733,0.00231482486045,0.0,0.818900339218,-0.573798309995,-0.0117677855768,0.0,-0.00830901851971,0.0086488249004,-0.999928076433,0.0,0.661548105196,0.26075690278,0.303456909517,1.0,-0.00284,-0.00373257142857,0.143
0.464949393505,0.54643934272,-0.123952734775,-1.35741688078,0.0794638953397,1.89473970148,0.15898626014,-0.00097151328694,-0.0140963943143,-0.000565667135646,-0.0205117175308,-0.00298769459929,0.00681655870111,-0.00298514996328,0.573819769084,0.818966538073,0.00233002687188,0.0,0.818927712643,-0.573759060005,-0.0117766475809,0.0,-0.00830796622572,0.00866596361868,-0.999927936789,0.0,0.661502980875,0.260696188883,0.303465185282,1.0,-0.00318,-0.00417942857143,0.16
0.464903699706,0.546140834292,-0.123952946543,-1.35789747002,0.0794451272785,1.89490828507,0.158931660393,-0.0016524654843,-0.0167443129088,-0.000464427887085,-0.0274835877756,-6.60461059492e-05,0.0071413270895,-0.000404991473898,0.573834485627,0.81895624389,0.00232391887409,0.0,0.818917234414,-0.573773688857,-0.0117925423854,0.0,-0.0083243329821,0.00867023164018,-0.999927763673,0.0,0.661447192074,0.260621117145,0.303462429417,1.0,-0.00354,-0.00465257142857,0.178
0.464858884316,0.545896074531,-0.123954238656,-1.35831848306,0.079421450615,1.89505841472,0.158901287067,-0.00462965517384,-0.0118005759153,-0.000374214532151,-0.0260200396344,-0.00577978727142,0.0109773749141,-0.00586978561146,0.573864485896,0.818935285937,0.00230134223296,0.0,0.81889596283,-0.573803750943,-0.0118069625905,0.0,-0.00834878021954,0.00866032311873,-0.999927645719,0.0,0.66140023747,0.26055032008,0.303448379472,1.0,-0.00382,-0.00502057142857,0.192
0.464799066234,0.545511021958,-0.123955194478,-1.35897679734,0.0793223650753,1.89527793917,0.158798158123,-0.00302713344732,-0.0235325291837,-0.00011873411455,-0.0325529528683,-0.0094084453319,0.010516442074,-0.0178037137455,0.573840063772,0.81895261701,0.002222431924,0.0,0.818912753467,-0.573780136259,-0.0117900104007,0.0,-0.00838043392939,0.00858572346828,-0.99992802425,0.0,0.661324335229,0.260435967735,0.303426564133,1.0,-0.0042,-0.00552,0.211
0.464733620423,0.545124175308,-0.123952780448,-1.359660163,0.0792884364959,1.89549353533,0.158729576111,-0.00115656472244,-0.0209810828437,0.0014357564506,-0.0391352566268,-0.000181178358886,0.00790886943127,-0.000222141926388,0.57386479005,0.818935463877,0.00215769501412,0.0,0.818894623213,-0.573804974727,-0.0118403527398,0.0,-0.00845855148373,0.00856185122691,-0.999927571182,0.0,0.661238899381,0.260327183385,0.303393733312,1.0,-0.00454,-0.00596685714286,0.228
0.464677765469,0.544712678528,-0.123955174799,-1.36032431164,0.0792708096639,1.89572297412,0.158662276012,-0.00321973425153,-0.0314302164343,0.000257973858118,-0.0423011418859,-0.000231590751013,0.0119109291787,-0.00807286734759,0.57388938139,0.818918252657,0.00214948677837,0.0,0.81887708906,-0.573829377149,-0.0118703763712,0.0,-0.00848759262949,0.00857261347793,-0.999927232887,0.0,0.661158910573,0.260228152357,0.303388853956,1.0,-0.00486,-0.00638742857143,0.244
0.464600668395,0.544256083525,-0.123961579576,-1.3610701833,0.0792439711035,1.89598859311,0.158537811618,-0.00145389850187,-0.0299500929123,0.00600982202061,-0.0463039766027,-0.00744607589114,0.0123486228834,-0.00764981829411,0.573889500344,0.818918200353,0.00213762189416,0.0,0.818876726795,-0.573829386926,-0.0118948692804,0.0,-0.00851445861323,0.00857695454074,-0.999926967256,0.0,0.661075411578,0.260104614286,0.303380212814,1.0,-0.0052,-0.00683428571429,0.261
0.464533750399,0.543727853583,-0.123964062587,-1.36192194468,0.079205153407,1.89629644735,0.158456737146,-0.00590721146847,-0.032074411039,1.63696580446e-05,-0.0492024312595,-0.000610467514434,0.0114446868793,-0.0033272292861,0.573916757775,0.818899118594,0.00212969754734,0.0,0.81885742426,-0.573856554727,-0.0119130278472,0.0,-0.00853359140485,0.00858117017956,-0.999926767987,0.0,0.660974876032,0.259979382269,0.303375327515,1.0,-0.00556,-0.00730742857143,0.279
0.464464624486,0.543274057792,-0.12396485503,-1.3626605,0.0791609121507,1.89654931185,0.158343857681,-0.00141626885326,-0.0342527510118,-7.08386257745e-05,-0.0512035592859,-0.00741242662618,0.0178439118971,-0.0108231188649,0.573910713492,0.818903424351,0.00210271889858,0.0,0.818861340644,-0.573850583332,-0.0119314588191,0.0,-0.00856423090592,0.00856959225137,-0.999926605325,0.0,0.660887843583,0.259861525276,0.303366764108,1.0,-0.00586,-0.00770171428571,0.294
0.464390787826,0.542687739245,-0.123970120282,-1.36361186116,0.0791100112072,1.89687925789,0.158237308863,-0.00322444828711,-0.0310393275311,0.000861414879431,-0.0575999456442,-0.00130650651223,0.01735620029,-0.00547890400937,0.573926859853,0.818892179477,0.00207480893523,0.0,0.818849658101,-0.57386676896,-0.0119547401822,0.0,-0.0085991449032,0.00856026789205,-0.999926385551,0.0,0.660773163168,0.259718602608,0.303357434246,1.0,-0.00622,-0.00817485714286,0.312
0.4643169382,0.542087046399,-0.123968669983,-1.36453335564,0.0790518915195,1.89721828177,0.158119460454,-0.00844355255645,-0.0338268598874,0.000957423559885,-0.0530580930431,-0.00722249919209,0.0197510292532,-0.0069216374744,0.573925485236,0.818893106088,0.00208928205605,0.0,0.818850779218,-0.573865340499,-0.0119465162153,0.0,-0.00858411848288,0.00856738530408,-0.999926453705,0.0,0.660666277498,0.259582757982,0.30337295674,1.0,-0.00656,-0.00862171428571,0.329
0.464242299901,0.54148600679,-0.123973306839,-1.3654371067,0.0789903526937,1.89755599645,0.15797918515,-0.00322350044941,-0.0376710820293,-0.000573194122373,-0.0560222205111,-0.00643372721686,0.0149026098344,-0.0144621870248,0.573908711692,0.818904796944,0.00211449478433,0.0,0.818862882452,-0.573848549393,-0.0119234644174,0.0,-0.00855094707512,0.00857462648484,-0.999926675854,0.0,0.660564878477,0.259444341573,0.303397166441,1.0,-0.00688,-0.00904228571429,0.345
0.464151083708,0.540827699865,-0.123974283607,-1.36645959092,0.078940479004,1.89793082764,0.157858298262,-0.00559283544349,-0.0379347500335,-3.33470350082e-05,-0.0646084674639,0.000156109858567,0.0317358316874,-0.0086489703526,0.573928460597,0.818890917003,0.00212957013945,0.0,0.818849084747,-0.573868119614,-0.0119291491946,0.0,-0.00854674406284,0.00859044018567,-0.999926576056,0.0,0.660447639592,0.2592881635,0.303408393528,1.0,-0.00722,-0.00948914285714,0.362
0.464059433056,0.540128467203,-0.123976742824,-1.36753727498,0.0788766045022,1.8983327917,0.157716919062,-0.00595461181197,-0.041897408587,0.000354485419224,-0.0700730844781,-0.00525026568532,0.0270946820365,-0.00806281087248,0.573932097045,0.818888316626,0.00214936639251,0.0,0.818846739675,-0.573871672332,-0.0119192080094,0.0,-0.00852720387134,0.00860098330643,-0.99992665225,0.0,0.660325185406,0.259124411876,0.303424552335,1.0,-0.00756,-0.009936,0.379
0.463968357412,0.539435390362,-0.123977541779,-1.36862163774,0.0788090595111,1.89875295509,0.157593293607,-0.00585784109028,-0.0467820168501,-0.000337205052503,-0.0729269468201,-0.00591122585971,0.0215524375302,-0.00931699001571,0.573948065232,0.818877067316,0.00217116109361,0.0,0.818835814683,-0.573887591176,-0.0119032847654,0.0,-0.00850148819008,0.00860985749036,-0.999926794847,0.0,0.660204128156,0.258961778686,0.30343459612,1.0,-0.00788,-0.0103565714286,0.395
0.463859312898,0.538644278537,-0.123983672261,-1.36985249236,0.0787393806042,1.89922738373,0.157444953728,-0.00559387776724,-0.0468630248263,-0.00205960269959,-0.0698019250177,-0.00403006360996,0.0293737823579,-0.00615908850831,0.573969686222,0.81886183464,0.00220044771937,0.0,0.818820969064,-0.573909097669,-0.0118876042412,0.0,-0.0084716115581,0.00862506326939,-0.99992691737,0.0,0.660068358438,0.258771434733,0.303448943857,1.0,-0.00824,-0.0108297142857,0.413
0.463745431126,0.537866698815,-0.12398989446,-1.37108185419,0.0786707159106,1.8996980757,0.157278641858,-0.0106882831039,-0.0481863195192,0.000285353445421,-0.0699126222541,-0.000253340654284,0.0283494528582,-0.0143037375655,0.573980707711,0.818854065058,0.00221680274513,0.0,0.818813402002,-0.573920041929,-0.0118804492735,0.0,-0.00845624946688,0.00863446271938,-0.999926966282,0.0,0.659932779207,0.258577766952,0.303453989666,1.0,-0.00858,-0.0112765714286,0.43
0.463653624593,0.537150235317,-0.123996346839,-1.37220810278,0.0786106065668,1.90010945798,0.157147091547,-0.00861396501132,-0.0444649461149,-0.000653239900694,-0.07774628655,-0.0051031278259,0.0221094015697,-0.00870632699814,0.573998640758,0.818841484517,0.00222048246079,0.0,0.818800811983,-0.573937899466,-0.0118854849674,0.0,-0.00845807195966,0.00864055141532,-0.999926898273,0.0,0.659801265374,0.258407345882,0.303459696399,1.0,-0.00888,-0.0116708571429,0.445
0.463523696666,0.536257059747,-0.124000258559,-1.37360378617,0.0785155064538,1.90064161646,0.156974884351,-0.00765168128292,-0.050087153623,0.000290800348812,-0.0802258242851,-0.0017757029418,0.0201127508143,-0.0159896906133,0.574018165511,0.818827751091,0.00223754523607,0.0,0.818787424588,-0.573957480934,-0.0118621380087,0.0,-0.00842895424512,0.00864132297228,-0.999927137479,0.0,0.659646968788,0.258186138176,0.303472127168,1.0,-0.00924,-0.012144,0.463
0.463406532102,0.535324000817,-0.124008420736,-1.37507265073,0.0784375058387,1.9011775711,0.156791985671,-0.00732008501787,-0.0477077978182,-0.000352555008004,-0.088181010644,-0.00330390018702,0.0335861387735,-0.0104949886101,0.574029832011,0.818819562606,0.0022411506463,0.0,0.818779200111,-0.573969046708,-0.0118702058847,0.0,-0.00843336805906,0.00864902634401,-0.999927033661,0.0,0.659473860582,0.257965756571,0.303478194135,1.0,-0.0096,-0.0126171428571,0.481
0.463298810353,0.534534264743,-0.124005918534,-1.376335878,0.0783795702912,1.90163564058,0.156640107538,-0.00208594123543,-0.0483537524513,-0.00130275808899,-0.0817394673746,-0.00690981912087,0.0368836001367,-0.00625192470761,0.574045662801,0.818808472621,0.0022380984895,0.0,0.818767865362,-0.573984677493,-0.0118961991818,0.0,-0.00845623725115,0.00866161142973,-0.999926731585,0.0,0.659322894737,0.257778295958,0.303473762697,1.0,-0.0099,-0.0130114285714,0.496
0.463175963838,0.533607200395,-0.124006327691,-1.37782556759,0.0782870729509,1.90217951803,0.156466260175,-0.00599880609526,-0.0556964959272,0.00595406171505,-0.0863489207476,-0.00367329388324,0.0384564622866,-0.00570348805595,0.574060922264,0.818797824907,0.00221953980531,0.0,0.818756968694,-0.57400000187,-0.0119067615198,0.0,-0.008475377759,0.00865263677221,-0.999926647234,0.0,0.659146158057,0.257554355074,0.303465748991,1.0,-0.01024,-0.0134582857143,0.513
0.463041502603,0.532664241201,-0.124008497004,-1.37934503095,0.0782038160869,1.90276262513,0.156274199003,-0.0103680173478,-0.0620513940241,0.000429180569014,-0.0930195845896,-0.00358580589238,0.0352052964268,-0.00473404724617,0.574067713437,0.818793034295,0.00223030943167,0.0,0.818752273248,-0.574006702918,-0.0119065929989,0.0,-0.00846898590057,0.00866142829428,-0.999926625277,0.0,0.658963070929,0.257313542464,0.303459213524,1.0,-0.0106,-0.0139314285714,0.531
0.462917141772,0.531747221828,-0.124011562695,-1.38080755812,0.078118133925,1.9032956868,0.156084921476,-0.00690786469921,-0.0635027165464,-0.00117230027965,-0.0955493311701,-0.00590837840855,0.0381597037701,-0.0150122126639,0.574079509633,0.818784801171,0.00221650461767,0.0,0.818743791528,-0.574018482885,-0.0119219143649,0.0,-0.00848933111085,0.00865904286051,-0.999926473414,0.0,0.658788491928,0.25708755287,0.303454459094,1.0,-0.01092,-0.014352,0.547
0.462779326283,0.530688757626,-0.124014813825,-1.38253739118,0.0780056828115,1.90389887339,0.155861149163,-0.00353600064666,-0.0579717153987,-0.00133229810769,-0.0939565876094,-0.00907999008078,0.0350696039768,-0.0107763602445,0.57407764694,0.818786275985,0.00215324011718,0.0,0.818744454886,-0.574016890959,-0.0119529656776,0.0,-0.00855109269162,0.00862504987508,-0.999926240944,0.0,0.6585871558,0.256838243445,0.303429593413,1.0,-0.01126,-0.0147988571429,0.564
0.462624218224,0.529598569505,-0.124020504326,-1.38428089203,0.0779030996575,1.90453366049,0.155620495118,-0.00977104147657,-0.0593370778388,-0.00137525875084,-0.101028202869,-0.00692024290759,0.0402137401361,-0.0154549988055,0.574078745812,0.818785547769,0.0021371178864,0.0,0.818743474532,-0.574018013784,-0.0119661883532,0.0,-0.00857116294253,0.00861945167689,-0.99992611738,0.0,0.65838195269,0.256566634649,0.303422936908,1.0,-0.01162,-0.015272,0.582
0.462492965108,0.528574058096,-0.124018443407,-1.38585662269,0.0777968086029,1.90512846511,0.155416172569,-0.0142683849696,-0.0692619155025,0.000659085207933,-0.0992646015939,-0.00872003137029,0.0417567723146,-0.011687432522,0.574074299715,0.818788583374,0.00216818927942,0.0,0.818747002207,-0.57401352854,-0.0119399468984,0.0,-0.00853188649296,0.00862978127713,-0.999926364183,0.0,0.658198104467,0.256331014702,0.303445860926,1.0,-0.01194,-0.0156925714286,0.598
0.462354355509,0.52746450187,-0.12401878418,-1.38757430582,0.0776932466244,1.90579472726,0.155176449756,-0.0121098200964,-0.0690924625621,-0.00126762017892,-0.0995560815491,-0.00453820578845,0.0390427688583,-0.0130515878208,0.574056998825,0.818800583782,0.0022165289162,0.0,0.81875965214,-0.573996054062,-0.0119125501172,0.0,-0.00848188744128,0.0086534538188,-0.999926584966,0.0,0.657999351692,0.256078717456,0.303467142384,1.0,-0.01228,-0.0161394285714,0.615
0.462204456488,0.52630377837,-0.124019724652,-1.38937351603,0.0775903869991,1.906473839,0.154919679628,-0.00842653706048,-0.072055864727,-0.000919880533896,-0.106985902435,-0.00729707291379,0.036299146814,-0.02166299156,0.574039690622,0.818812616625,0.00225374083518,0.0,0.818772114758,-0.573978542854,-0.0118997201405,0.0,-0.00845020479747,0.00867637886488,-0.999926654555,0.0,0.657787857077,0.255810657115,0.303486483095,1.0,-0.01262,-0.0165862857143,0.632
0.462058623244,0.525189027948,-0.124030094445,-1.39109180568,0.0774725134876,1.90709061568,0.154693735854,-0.00729602033003,-0.0699782491914,-0.00130415752539,-0.105228647999,-0.00811365135399,0.030946675256,-0.0139407297614,0.574042000545,0.818810991653,0.0022557612655,0.0,0.818770638562,-0.573980970246,-0.011884196497,0.0,-0.00843630910401,0.00866914593174,-0.999926834622,0.0,0.657583075929,0.255542204777,0.303506554537,1.0,-0.01294,-0.0170068571429,0.648
0.461901767867,0.524029970302,-0.124028997129,-1.392968375,0.0773654062164,1.90775720029,0.154442757163,-0.0101480113531,-0.0753699663181,0.000760614164627,-0.113790139664,-0.00153149632826,0.0422192392364,-0.00713446582221,0.574036067542,0.81881525956,0.00221602641826,0.0,0.818774247741,-0.573975052334,-0.0119213017485,0.0,-0.0084895633565,0.0086578492297,-0.999926481778,0.0,0.657351272442,0.255260114185,0.303486189287,1.0,-0.01328,-0.0174537142857,0.665
0.461744771743,0.522821147007,-0.124033951373,-1.39490429123,0.0772371221208,1.9084963686,0.154184969821,-0.00599244661463,-0.0746486483496,-0.000632053952639,-0.116842848088,-0.00665672076834,0.0372122828193,-0.0169179329412,0.574026394542,0.818822038468,0.00221688756758,0.0,0.818781156256,-0.573965497857,-0.0119068186813,0.0,-0.00847731178235,0.00865014050594,-0.999926652437,0.0,0.657123266533,0.254969542915,0.303478707738,1.0,-0.01362,-0.0179005714286,0.682
0.461588324635,0.52166367915,-0.124037554939,-1.39674175962,0.0771274308687,1.90921757422,0.153922417359,-0.0122125957995,-0.0674486867251,0.000252723134875,-0.114256436237,-0.00377949897149,0.0482861100318,-0.0236650542484,0.574011079469,0.818832685447,0.00224962008514,0.0,0.818792258203,-0.573950083398,-0.0118864029584,0.0,-0.0084419681533,0.00866506533213,-0.999926822231,0.0,0.65691143198,0.254692923246,0.303480095012,1.0,-0.01394,-0.0183211428571,0.698
0.461415207128,0.520398057087,-0.124049745815,-1.39876977082,0.0770052872332,1.90995612227,0.153651960198,-0.0084451328608,-0.0781516270501,-0.00111941581555,-0.120636298737,-0.00161515193733,0.0457124484744,-0.0100803909911,0.574015248836,0.818829826611,0.00222622042214,0.0,0.818789088893,-0.573954339593,-0.0118991963128,0.0,-0.0084658309749,0.00865329172622,-0.999926722439,0.0,0.65666718905,0.254378404138,0.303468220547,1.0,-0.01428,-0.018768,0.715
0.46125014733,0.5190797109,-0.124053126483,-1.40082215091,0.0768666847652,1.91069890342,0.153376420949,-0.0126269006847,-0.079741994561,-0.000564017653066,-0.120658065398,-0.00566786528594,0.0441365306925,-0.0236823423005,0.573998743981,0.818841398066,0.00222567347396,0.0,0.818800735618,-0.573937923219,-0.0118895981066,0.0,-0.00845845957617,0.00864716394203,-0.999926837832,0.0,0.656415548731,0.254069815279,0.303481414557,1.0,-0.01462,-0.0192148571429,0.732
0.461091166148,0.517795663332,-0.124053851232,-1.40281360509,0.0767392033821,1.91141701069,0.153101175092,-0.0113114474815,-0.0879130843126,-3.45603183255e-05,-0.124372085943,-0.00149388820051,0.0383282855368,-0.0197825698607,0.573975107284,0.818857949677,0.00223189833179,0.0,0.81881736907,-0.573914265501,-0.0118860785948,0.0,-0.00845225438819,0.00864999689597,-0.9999268658,0.0,0.656169025125,0.253773708702,0.303496932365,1.0,-0.01494,-0.0196354285714,0.748
0.460912389631,0.516466401877,-0.124051305361,-1.40494118669,0.0766015436749,1.91220951869,0.152793318377,-0.0129397897045,-0.0776830717631,0.00086404336938,-0.125338497293,-0.0072851033233,0.0520966498978,-0.0188461273006,0.573943029756,0.818880460877,0.00222177630745,0.0,0.818839773052,-0.573882257453,-0.0118881264165,0.0,-0.00846007931878,0.00864255249689,-0.999926863998,0.0,0.655910421935,0.253454394323,0.303485389654,1.0,-0.01528,-0.0200822857143,0.765
0.460748338278,0.515230329128,-0.124057040138,-1.40686693435,0.0764931953412,1.91293023705,0.152545774893,-0.00912402538865,-0.0835841783804,0.000290560839969,-0.126478612483,-0.00647471553208,0.050085811129,-0.0167978272006,0.573951225783,0.818874636452,0.00225102160164,0.0,0.818834260032,-0.57389026512,-0.0118812920192,0.0,-0.00843761174919,0.00866266250889,-0.99992687982,0.0,0.65567873289,0.253162521397,0.3034982159,1.0,-0.01558,-0.0204765714286,0.78
0.460553848998,0.513825215161,-0.124063540033,-1.40912603814,0.0763490290646,1.9137246343,0.152229252469,-0.00910027927647,-0.082051122923,-0.000594908893237,-0.134126665425,-0.0137867841483,0.052191314167,-0.0299986810359,0.573935592789,0.818885743682,0.00219568337866,0.0,0.818844625839,-0.573874834127,-0.0119121950967,0.0,-0.00849484285798,0.00863492253792,-0.999926635188,0.0,0.655396098839,0.252812256648,0.303476916333,1.0,-0.01592,-0.0209234285714,0.797
0.460326602731,0.512260581288,-0.124074188341,-1.41166428988,0.0762027134469,1.91462450262,0.151880101321,-0.0156246856084,-0.0879132626176,-0.00668350087052,-0.138173848591,-0.0105424440184,0.0484875013868,-0.0277882872187,0.573936895571,0.818884991257,0.00213492316876,0.0,0.818842941284,-0.57387624261,-0.0119600409345,0.0,-0.00856888130724,0.00861264135181,-0.999926195618,0.0,0.655080682674,0.252413930812,0.303443368266,1.0,-0.0163,-0.0214228571429,0.816
0.460150449515,0.510911793738,-0.124081145666,-1.41383388392,0.0760711590535,1.91544815894,0.151570233789,-0.00996289388432,-0.0821094004724,-0.000254931509244,-0.133999403908,-0.00565057988246,0.0541169324639,-0.01519883829,0.573910484202,0.818903504031,0.00213403590062,0.0,0.818861450199,-0.573849845968,-0.0119593712874,0.0,-0.00856911986247,0.00861125409196,-0.999926205521,0.0,0.65481669183,0.252089370874,0.303426877957,1.0,-0.01662,-0.0218434285714,0.832
0.459939043459,0.509424126266,-0.124077356318,-1.41620348029,0.0759186060799,1.91632932098,0.151246129034,-0.014207327687,-0.0885012372494,0.00216686342002,-0.146435037191,-0.0115645463546,0.0451375416976,-0.014074937069,0.573897764889,0.818912431975,0.00212864129836,0.0,0.81887031742,-0.573837160152,-0.0119609271276,0.0,-0.0085736235139,0.00860759624307,-0.99992619841,0.0,0.654526826814,0.251726716689,0.30341657741,1.0,-0.01696,-0.0222902857143,0.849
0.459727575393,0.507823726782,-0.124081903212,-1.41871928407,0.0757565041225,1.9172242253,0.150890801901,-0.00818036831224,-0.0874600480199,0.000794102930599,-0.14217519188,-0.0104609105986,0.0462602404645,-0.0193552167434,0.573869742355,0.818932126308,0.00210670617076,0.0,0.818889717259,-0.573809223439,-0.0119730098668,0.0,-0.00859640050404,0.00859627361291,-0.999926100259,0.0,0.654209112861,0.251342818967,0.303416450152,1.0,-0.01732,-0.0227634285714,0.867
0.459531324631,0.506458177469,-0.124089832945,-1.42086784032,0.0756227721172,1.91801243963,0.150598125985,-0.0134513965441,-0.0914110190179,-0.00138590185325,-0.14661766375,-0.00785434068315,0.0566407847698,-0.0194523148999,0.573871485026,0.818930902358,0.00210778061299,0.0,0.818888513461,-0.573810967573,-0.0119717548996,0.0,-0.0085947378851,0.0085964516038,-0.999926113021,0.0,0.653946261146,0.25100475584,0.303417239177,1.0,-0.01762,-0.0231577142857,0.882
0.459304073143,0.50474567549,-0.124094138142,-1.42347664145,0.075460321481,1.91902685946,0.150247247597,-0.0123249314364,-0.0992336911537,-0.000232380853102,-0.140458028272,-0.00380355637581,0.0557719747098,-0.0194469744242,0.573864250065,0.818935718287,0.00220424857033,0.0,0.818894666502,-0.573803419559,-0.0119125051058,0.0,-0.00849093403496,0.00864137458004,-0.999926612649,0.0,0.653634978163,0.250609207692,0.30346038346,1.0,-0.01798,-0.0236308571429,0.9
0.459079758506,0.503081111703,-0.124094706279,-1.42595778324,0.0753085573307,1.9199602126,0.149896661887,-0.0154927513085,-0.0966209238996,-0.00151222051234,-0.148035986228,-0.0102468360788,0.0574958041072,-0.0213280587484,0.573847746151,0.818947006389,0.00230474846522,0.0,0.818907257061,-0.573786512288,-0.0118612626201,0.0,-0.00839147349302,0.00869410145331,-0.999926995221,0.0,0.653333596889,0.250228640628,0.303522935466,1.0,-0.01832,-0.0240777142857,0.917
0.458853792065,0.501485258625,-0.124100686572,-1.42833459019,0.0751506340401,1.92082003022,0.149564899322,-0.0138572559689,-0.101255878911,0.0008581117986,-0.152542367597,-0.0163885355872,0.0557798386187,-0.0205377897228,0.57384401353,0.81894944616,0.00236636247512,0.0,0.818910575728,-0.573782621963,-0.0118202620856,0.0,-0.0083225796584,0.00872099379919,-0.999927336828,0.0,0.653041714364,0.249849501572,0.303580319014,1.0,-0.01864,-0.0244982857143,0.933
0.45860080427,0.499664358104,-0.124105005575,-1.43109169603,0.0749676972593,1.92179135852,0.14916639352,-0.00968961570776,-0.103975672003,-0.00041482096703,-0.155574585991,-0.0152942204063,0.0551231625433,-0.024021186898,0.573818567144,0.818967203663,0.0023912813909,0.0,0.818928682319,-0.573757109976,-0.0118041911766,0.0,-0.00829539045141,0.00873192110231,-0.999927467395,0.0,0.652692981644,0.249415242156,0.303622720215,1.0,-0.019,-0.0249714285714,0.951
0.458401411356,0.49830890099,-0.124104984916,-1.43325118999,0.0748415452588,1.92259727697,0.14885839372,-0.0145735864636,-0.0934279033367,0.000585308213715,-0.153257972829,-0.010648157162,0.0565517366839,-0.0235947766974,0.573805553954,0.818976309529,0.00239532544774,0.0,0.818937746753,-0.573743984055,-0.0118133232291,0.0,-0.0083006881099,0.00874034118306,-0.999927349867,0.0,0.652424715219,0.249081165864,0.30361004598,1.0,-0.01928,-0.0253394285714,0.965
0.458099199921,0.496433169262,-0.124102280805,-1.43623683868,0.0746507603772,1.92367296099,0.148411352221,-0.0154556755162,-0.0995742958927,0.000640529064664,-0.157141976418,-0.0148214889286,0.0556306091765,-0.0235984534986,0.573784478955,0.818991168035,0.00236332233415,0.0,0.818952127488,-0.573722969848,-0.0118369612569,0.0,-0.0083386349621,0.00872748053175,-0.999927146471,0.0,0.652051671257,0.248598563423,0.303589566236,1.0,-0.01966,-0.0258388571429,0.984
0.457817874174,0.494644505499,-0.124103176362,-1.43914221488,0.0744748003991,1.92466264904,0.147999254226,-0.0126780470034,-0.104959026738,0.00101845484153,-0.163452566904,-0.0106037413941,0.0542045348534,-0.0211116641151,0.573776676568,0.818996929791,0.00225861032565,0.0,0.818956298317,-0.573715344385,-0.0119177164164,0.0,-0.00846493673062,0.00868797813982,-0.999926429235,0.0,0.651671856102,0.248132660466,0.303538603112,1.0,-0.0201262857143,-0.0264516897959,1.002
0.457537439642,0.49286369385,-0.124121210807,-1.44199910102,0.0742912287924,1.92572118481,0.1476037669,-0.017429931476,-0.106887714651,5.84925558153e-05,-0.177286338831,-0.00982855853135,0.0656637942028,-0.0273933235817,0.573789338973,0.818988126613,0.00223379695437,0.0,0.818947253151,-0.573728188164,-0.0119209715982,0.0,-0.00848170521636,0.00866965521084,-0.999926446172,0.0,0.651319962183,0.247666402939,0.303510980994,1.0,-0.0226131428571,-0.0297201306122,1.019
0.45727306054,0.491089751361,-0.124139086127,-1.4447994858,0.0741221876969,1.92674440492,0.147194201714,-0.0239428743588,-0.12928160279,-0.00493028543341,-0.196263917387,-0.0111618453135,0.0721747710172,-0.0330069434575,0.573777790064,0.818996230395,0.00222915460784,0.0,0.818955260841,-0.573716623053,-0.0119274504746,0.0,-0.00848979737791,0.0086694509815,-0.99992637927,0.0,0.650968370597,0.247217389023,0.303501634357,1.0,-0.0248074285714,-0.0326040489796,1.034
0.456876307761,0.488663044003,-0.124160027371,-1.44874932525,0.0738830731105,1.92813765635,0.146638763818,-0.0255215103791,-0.133719722125,-0.000732540030856,-0.214718692156,-0.0129902704513,0.0758764284612,-0.0300490426871,0.573794838367,0.818984583939,0.00211698747907,0.0,0.8189419873,-0.573733964222,-0.0120044423604,0.0,-0.00861703151797,0.00862194299622,-0.999925701673,0.0,0.650463083396,0.246566935462,0.303430552094,1.0,-0.0275868571429,-0.0362570122449,1.053
0.456548782469,0.486616139258,-0.124176380518,-1.45188172824,0.07369022368,1.92934833748,0.146184291961,-0.0296215973255,-0.150900950954,-0.000969034846819,-0.231258323719,-0.0186956638264,0.0824104623093,-0.0328015517863,0.573806039786,0.818976466365,0.00221881654643,0.0,0.818935290049,-0.573744837569,-0.0119414813583,0.0,-0.00850692145154,0.00866932821083,-0.999926234797,0.0,0.650088134003,0.246051122052,0.303467113866,1.0,-0.0296348571429,-0.0389486693878,1.067
0.456090068103,0.483810016998,-0.12421189959,-1.4561727035,0.0734253683158,1.93089955128,0.145519179828,-0.029205011596,-0.167158219085,-0.00354474375953,-0.246931592886,-0.00781318427827,0.0779094247655,-0.0315310360327,0.573802199606,0.818979012523,0.0022714918389,0.0,0.818938537425,-0.57374080086,-0.0119126927725,0.0,-0.00845316056602,0.0086959089436,-0.999926459918,0.0,0.649555660656,0.245323528402,0.30350817479,1.0,-0.032268,-0.0424093714286,1.085
0.455652252715,0.48110786582,-0.124250181379,-1.46037242474,0.0731582089802,1.93236663902,0.144903045095,-0.0264883461031,-0.18170268289,-0.00127020996377,-0.266352227756,-0.0192855269267,0.0966832618341,-0.0381500643062,0.573816556259,0.81896904599,0.00223793970839,0.0,0.818928135855,-0.57375529263,-0.0119297688584,0.0,-0.00848624505508,0.0086783777625,-0.999926331989,0.0,0.649018366178,0.244611815574,0.303511646705,1.0,-0.0346085714286,-0.0454855510204,1.101
0.455152048384,0.478035568584,-0.124283372111,-1.46508799243,0.0728730119268,1.93409503328,0.144199508868,-0.0305555345617,-0.191477645984,-0.00166928581082,-0.283954397133,-0.0166679364303,0.104804567195,-0.0366796549262,0.57382637678,0.818961965953,0.00230966145983,0.0,0.818921950685,-0.573764784538,-0.0118977986258,0.0,-0.00841880423127,0.00871887101046,-0.999926549814,0.0,0.648427766203,0.243821443151,0.30354666684,1.0,-0.0370954285714,-0.0487539918367,1.118
0.454601899552,0.474769244864,-0.12430841807,-1.47008707525,0.072573173076,1.93594613718,0.143493874044,-0.0319668211702,-0.191990530643,-0.00271726539984,-0.304178733101,-0.0167474247644,0.107739609534,-0.0477259124614,0.573877751352,0.818925670424,0.00241241065209,0.0,0.81888691673,-0.573815671377,-0.0118549479828,0.0,-0.00832420245339,0.00877895143357,-0.999926816155,0.0,0.647803808369,0.242978937982,0.303589122299,1.0,-0.0395822857143,-0.0520224326531,1.135
0.454092124247,0.471741970962,-0.124316948791,-1.47476852278,0.0722800457512,1.93756843002,0.142791315936,-0.0359763175949,-0.206833839537,-0.00360055799414,-0.318926481567,-0.0218242042395,0.107224625205,-0.052876529663,0.573876594065,0.81892654565,0.00239050529124,0.0,0.81888727783,-0.573814358534,-0.011893487664,0.0,-0.00836834762476,0.00878311766497,-0.999926411093,0.0,0.647107777257,0.242081161233,0.303594626205,1.0,-0.0420691428571,-0.0552908734694,1.152
0.453440273774,0.467857775234,-0.124321395226,-1.48060239263,0.0719178020651,1.93978796681,0.141852692477,-0.0355690106793,-0.2282334414,-8.37156911241e-05,-0.335231833162,-0.0178796299109,0.13089388406,-0.0621331459408,0.573818314335,0.818966678645,0.00262074492241,0.0,0.818930418714,-0.573755226966,-0.0117752170283,0.0,-0.00814000100244,0.00890321433721,-0.999927233932,0.0,0.646461036124,0.241222634107,0.303692617548,1.0,-0.0444097142857,-0.0583670530612,1.168
0.452748594304,0.463774839416,-0.124327672975,-1.4868757438,0.0714936443972,1.94196684008,0.140901469442,-0.0466722409765,-0.228726527183,-0.000848875707205,-0.363453974677,-0.0253816715715,0.128195216039,-0.0560275215967,0.573788990175,0.818987285604,0.00260147528158,0.0,0.818950711527,-0.573725907961,-0.0117924350962,0.0,-0.00816547785293,0.00889702075367,-0.999927081338,0.0,0.645627878608,0.240164979687,0.303711373407,1.0,-0.0470428571429,-0.061827755102,1.186
0.45200629802,0.459500791504,-0.124344679954,-1.493496778,0.0710500106546,1.94425539182,0.139919142272,-0.0403529360292,-0.241994910286,0.000374047733797,-0.373942092237,-0.0228976613936,0.124018718429,-0.057646787383,0.573791371422,0.818985804172,0.00254195749597,0.0,0.818948354235,-0.573728400911,-0.0118347786697,0.0,-0.00823428105205,0.00887259661619,-0.999926734138,0.0,0.644742835359,0.239035371364,0.30370219338,1.0,-0.049676,-0.0652884571429,1.204
0.451357623359,0.455873609812,-0.124352855535,-1.49924128363,0.0706709808821,1.94631313914,0.139014623885,-0.0471969268719,-0.243469087681,-0.0005753529154,-0.395963440556,-0.0175362887253,0.141340954248,-0.0688652925146,0.573749386225,0.819015398665,0.00248303373867,0.0,0.818977086665,-0.573686543972,-0.0118755077701,0.0,-0.00830190052389,0.00884728336921,-0.999926399304,0.0,0.643980364629,0.238061761894,0.30364145878,1.0,-0.0518702857143,-0.0681723755102,1.219
0.450557173212,0.451444747837,-0.124396036582,-1.50592967543,0.0702018878738,1.94874751823,0.137940055031,-0.0468225166873,-0.264435100473,-0.00682210098627,-0.398081789145,-0.0274713500577,0.159733579925,-0.0686145373798,0.573732864385,0.819026599849,0.00260306858582,0.0,0.818990240489,-0.573669995012,-0.0117673152255,0.0,-0.00814459864458,0.00888335426963,-0.999927373128,0.0,0.643117873682,0.23688128178,0.303711463106,1.0,-0.0543571428571,-0.0714408163265,1.236
0.449727335547,0.446841575591,-0.124440572365,-1.51292042543,0.0697376492315,1.95120724381,0.136916880845,-0.0537523934046,-0.279775965542,-0.000366226383552,-0.424602011079,-0.0244357313319,0.140421941332,-0.0565864777265,0.573795383422,0.818982642621,0.00265253651633,0.0,0.818946955034,-0.573732358306,-0.0117393685615,0.0,-0.00809264886478,0.00890845370339,-0.999927571621,0.0,0.642187030395,0.235652001358,0.30375464795,1.0,-0.056844,-0.0747092571429,1.253
0.448898704855,0.442380524126,-0.124471798065,-1.51985900062,0.0692580496993,1.95352518178,0.135842231857,-0.0493007004707,-0.277027339698,-0.00471876586204,-0.435480411864,-0.0291503666999,0.157252073725,-0.0708474885643,0.573793545202,0.818984400904,0.00250309021062,0.0,0.818946634909,-0.573730925072,-0.0118313857058,0.0,-0.00825377898284,0.00883884022868,-0.999926872344,0.0,0.641226087691,0.234425854629,0.303708136632,1.0,-0.0591845714286,-0.0777854367347,1.269
0.447967996596,0.43751041234,-0.124482191253,-1.5274269753,0.0687456041112,1.9561646666,0.134603354013,-0.055021570196,-0.284331382885,-0.00154213399572,-0.445159854007,-0.0349553812732,0.161687967028,-0.0690613609816,0.573741225142,0.819021229388,0.00244525776344,0.0,0.818982538411,-0.573678649938,-0.0118808789003,0.0,-0.00832806021164,0.0088193432259,-0.999926428593,0.0,0.640191256785,0.233095930071,0.303664025526,1.0,-0.0616714285714,-0.081053877551,1.286
0.446972500085,0.432346935596,-0.124498452018,-1.53505675832,0.0682261142376,1.95899563199,0.133356340728,-0.0600397198932,-0.305372543319,0.000897939397543,-0.45765104502,-0.0264664385156,0.171608052845,-0.0714543797408,0.573736390414,0.819023679263,0.00274117174698,0.0,0.818989088018,-0.573672997047,-0.0117009857692,0.0,-0.00801100244084,0.00895844356649,-0.999927782457,0.0,0.639193125996,0.231730760523,0.303800345263,1.0,-0.0641582857143,-0.0843223183673,1.303
0.445983401724,0.427459592556,-0.124548298844,-1.54266641019,0.0676601612734,1.96152078004,0.132150603479,-0.0591706970105,-0.314190621992,0.00223948661701,-0.48918469912,-0.0357781563304,0.150377112598,-0.080822504781,0.573763723989,0.819005187895,0.00253734840762,0.0,0.818968096741,-0.573701225658,-0.0117858856763,0.0,-0.0081971794426,0.00884049125917,-0.999927323341,0.0,0.638128840903,0.230324532154,0.303727551788,1.0,-0.0664988571429,-0.0873984979592,1.319
0.444826905606,0.421683577555,-0.124639543613,-1.55150833328,0.0670162478699,1.96443783804,0.13069038351,-0.0692931126927,-0.318001851483,-0.00784476235813,-0.50045531039,-0.0299244884154,0.161261169836,-0.0768177957093,0.573776088364,0.818997012747,0.00237495988846,0.0,0.818957978216,-0.57371438308,-0.0118483528726,0.0,-0.00834137755877,0.00874346225215,-0.999926983978,0.0,0.636886205122,0.228671539969,0.303700746138,1.0,-0.069132,-0.0908592,1.337
0.443669620367,0.416036466403,-0.124666038373,-1.55988782746,0.0664375443681,1.96749248068,0.129343603544,-0.0703103679363,-0.338706562638,0.001393309588,-0.493181712224,-0.0334792906832,0.177335916623,-0.0888001752572,0.5738295897,0.818958740728,0.0026324648157,0.0,0.81892325361,-0.573767139112,-0.0116928043542,0.0,-0.00806565781227,0.00886563446782,-0.999928170265,0.0,0.635758052722,0.227129649036,0.303807821268,1.0,-0.0716188571429,-0.0941276408163,1.354
0.442608078582,0.410980360893,-0.124681927401,-1.5675327154,0.0659152586206,1.9701751158,0.128006544296,-0.0732606283333,-0.341616399286,-0.00265721754053,-0.513021831852,-0.0366197348085,0.174670949605,-0.0890249689128,0.573784766518,0.818989898476,0.00270828482924,0.0,0.818955263687,-0.573721909684,-0.0116701897523,0.0,-0.00800411928031,0.00891431284685,-0.999928231975,0.0,0.63469337071,0.225720070311,0.303825117631,1.0,-0.0738131428571,-0.0970115591837,1.369
0.441277329665,0.404777170358,-0.124752487413,-1.57713405063,0.0652244480864,1.97328855943,0.126479320355,-0.078793842722,-0.341493949026,-0.00537175737437,-0.539685872344,-0.0355171994705,0.177813576871,-0.082697539612,0.573869967263,0.818931031716,0.00244394498242,0.0,0.818892751875,-0.573807834551,-0.0118311806349,0.0,-0.00828672573081,0.00879105733082,-0.999927021081,0.0,0.633297486968,0.223902214227,0.303718931335,1.0,-0.0764462857143,-0.100472261224,1.387
0.439932673978,0.398643650524,-0.124803345916,-1.58620569986,0.0645907614235,1.97649168786,0.12491522478,-0.07775584074,-0.367530057275,-0.00327008723396,-0.526724867088,-0.0362355401771,0.192991238871,-0.0913399398838,0.573911617769,0.818901187903,0.00265449447912,0.0,0.818865761062,-0.573848830019,-0.0117103606778,0.0,-0.00806650502393,0.00889455793095,-0.999927906569,0.0,0.632038269495,0.222165201326,0.303813998465,1.0,-0.0789331428571,-0.103740702041,1.404
0.438628612204,0.392759499193,-0.12482071905,-1.5950098778,0.0639185807682,1.97949015444,0.123417912042,-0.0806616808121,-0.370136777497,-0.000877216874924,-0.558242109049,-0.0371442421975,0.18255218538,-0.0966040907164,0.573918524968,0.81889623936,0.00268751973788,0.0,0.818861460092,-0.573855862329,-0.0116664196494,0.0,-0.00801149246707,0.00889645197771,-0.999928331997,0.0,0.630773362016,0.22048667774,0.303841265046,1.0,-0.0812737142857,-0.106816881633,1.42
0.437215672562,0.386419214376,-0.124853985969,-1.60471210798,0.063201313902,1.98258427946,0.121730974504,-0.0875926161295,-0.375239908807,0.00118894025613,-0.582204680569,-0.0440605096639,0.179443585368,-0.0948522703163,0.573886314449,0.818919570247,0.00244590604812,0.0,0.81888128148,-0.573824135639,-0.0118344877699,0.0,-0.00828813328695,0.00879472657446,-0.999926977149,0.0,0.629313248592,0.218637500023,0.303748051709,1.0,-0.0837605714286,-0.110085322449,1.437
0.435758825282,0.379804796807,-0.124857108632,-1.61433555121,0.0625158682278,1.98592761575,0.120012919512,-0.0905434126938,-0.384233524353,0.000309286064047,-0.567198781179,-0.0438622077819,0.20483208025,-0.105687596995,0.573842573012,0.818949334268,0.00272694008982,0.0,0.818914622557,-0.573779287813,-0.0117011426777,0.0,-0.00801813563737,0.00894791721087,-0.999927819534,0.0,0.627916740419,0.216815771055,0.303884112372,1.0,-0.0862474285714,-0.113353763265,1.454
0.434299181608,0.373566865903,-0.124872743981,-1.62372861153,0.0618071112711,1.98904921705,0.118323232459,-0.0939495563745,-0.391505901438,-0.00333786012255,-0.589620996025,-0.0534773695371,0.19828591745,-0.103739997317,0.57380893852,0.818973063046,0.00267786876969,0.0,0.818937619076,-0.573745726379,-0.0117373091089,0.0,-0.00807627972383,0.00892815224991,-0.999927528276,0.0,0.626515449651,0.214994346291,0.303850517403,1.0,-0.088588,-0.116429942857,1.47
0.432592648371,0.366345174982,-0.124942310414,-1.63454370236,0.060960874586,1.99249166834,0.116485023135,-0.093961391799,-0.41063687547,0.000686706058688,-0.594300891788,-0.0415600996332,0.193792243283,-0.102639112542,0.57389844234,0.818910873895,0.00251105511701,0.0,0.818873283123,-0.573835855466,-0.0118196476306,0.0,-0.00823846312502,0.00883968350326,-0.999926991195,0.0,0.624869611444,0.212843755698,0.303813732519,1.0,-0.0912211428571,-0.119890644898,1.488
0.430932207503,0.359317990248,-0.12496498838,-1.64477584728,0.0601565930253,1.99602118988,0.114532936722,-0.0985330402184,-0.417486900395,0.000452595563637,-0.611938287859,-0.0451640642764,0.201715776911,-0.116045181415,0.573804532236,0.818975925676,0.0027456966597,0.0,0.818941831465,-0.573741605331,-0.0116444790089,0.0,-0.00796138084726,0.00893039261967,-0.99992842969,0.0,0.623353965871,0.210830664859,0.303916949814,1.0,-0.093708,-0.123159085714,1.505
0.429265829269,0.352659614499,-0.124986995974,-1.65474688239,0.0594304666579,1.99918046246,0.11271863435,-0.103211255268,-0.41114648708,-0.000711864181783,-0.63464562186,-0.0515603508696,0.199158236209,-0.113832410315,0.573834728266,0.818955165785,0.00262449450063,0.0,0.818918835813,-0.573771495094,-0.0117880732229,0.0,-0.00814820020517,0.00891382539446,-0.999927072616,0.0,0.621804193504,0.208835035142,0.303857579007,1.0,-0.0960485714286,-0.126235265306,1.521
0.427426026032,0.345391896418,-0.12506343068,-1.66533292239,0.0586202417065,2.0026963271,0.110681946683,-0.108465119413,-0.446375847734,-0.00285588753688,-0.622231693008,-0.043212334709,0.219455306434,-0.117408249464,0.573853170511,0.818941777557,0.00276596588015,0.0,0.818907433904,-0.573789591934,-0.0116989651545,0.0,-0.00799384279178,0.00897873113518,-0.999927737821,0.0,0.620203503873,0.206654352314,0.303926679019,1.0,-0.0985354285714,-0.129503706122,1.538
0.425428230016,0.337598951663,-0.12507328481,-1.6767950516,0.0577060744938,2.00637063508,0.108519428682,-0.111829478491,-0.43673182393,-0.00203272437383,-0.646729406148,-0.0490734964047,0.201939461846,-0.13357806931,0.573832789732,0.818956133223,0.00274375385787,0.0,0.818921393597,-0.573769171421,-0.0117233074143,0.0,-0.00802674767072,0.00897430971466,-0.999927513916,0.0,0.618406011022,0.204327581543,0.303923552378,1.0,-0.101168571429,-0.132964408163,1.556
0.4237133812,0.330982248423,-0.125083985777,-1.68661664901,0.0568930494025,2.00938113762,0.10665659623,-0.116981692016,-0.449070659257,-0.00339427378251,-0.645034248781,-0.0578895731346,0.214011520731,-0.1300636091,0.57379145447,0.818985720468,0.00255016614246,0.0,0.818948270768,-0.573728338028,-0.011843599604,0.0,-0.00823679495583,0.00888438144735,-0.999926608794,0.0,0.61681901638,0.202325138222,0.303857242902,1.0,-0.103362857143,-0.135848326531,1.571
0.421580311397,0.322825242152,-0.12507576522,-1.69829798343,0.0559592376699,2.01325048541,0.104331245802,-0.122176054086,-0.449556348378,0.000198815479473,-0.654129223557,-0.0542135373208,0.210726995742,-0.132075766725,0.573714826446,0.819038525329,0.00281759557354,0.0,0.819004696598,-0.573650910785,-0.0116912961874,0.0,-0.00795945896578,0.00901526754277,-0.999927683367,0.0,0.614987671618,0.199932587422,0.303973283082,1.0,-0.105996,-0.139309028571,1.589
0.419468902075,0.315050828062,-0.125115424814,-1.7097117618,0.0550491797594,2.01673760593,0.102116545891,-0.121104677416,-0.456602855509,-0.00149118836257,-0.674115759164,-0.0576324160917,0.205231436787,-0.136955858875,0.573734610926,0.819025134119,0.00267820991462,0.0,0.818989013337,-0.573670655261,-0.0118204156967,0.0,-0.00814496393049,0.00897537890008,-0.999926548371,0.0,0.613123259482,0.197541412829,0.303920075444,1.0,-0.108482857143,-0.142577469388,1.606
0.417432144767,0.307566430181,-0.125184886771,-1.72035255395,0.054105601609,2.02019022612,0.0999080168265,-0.128616076439,-0.461172086136,-0.000449714226646,-0.661674692463,-0.0598814209085,0.220529293404,-0.129646115435,0.573673147444,0.819067596854,0.00285282083555,0.0,0.819034644184,-0.57360959366,-0.0116203523818,0.0,-0.00788160044493,0.00900301655922,-0.999928410471,0.0,0.611433694166,0.19526096772,0.304025312603,1.0,-0.110823428571,-0.14565364898,1.622
0.415126107898,0.299544350225,-0.125201023554,-1.73204120664,0.0531625515162,2.02371135567,0.0975313241338,-0.132543581919,-0.472947971901,-0.000589880309067,-0.700841677103,-0.0560101996502,0.202751110446,-0.131345617155,0.573676652874,0.819065566237,0.00272819590821,0.0,0.819030372836,-0.573612829571,-0.0117608258735,0.0,-0.0080681146652,0.00898155945687,-0.999927115902,0.0,0.609490501067,0.192756629201,0.303972491211,1.0,-0.113310285714,-0.148922089796,1.639
0.413001474831,0.292319227804,-0.12529903924,-1.74234605129,0.0523384190303,2.02686549506,0.0954162543344,-0.138473783166,-0.495870083274,-0.00564093873863,-0.674842667657,-0.0572492381335,0.224936789737,-0.157006727521,0.573797225834,0.818980922375,0.00278196209002,0.0,0.818946213819,-0.57373295467,-0.0117619087695,0.0,-0.0080368302971,0.00902740174849,-0.99992695502,0.0,0.607802737426,0.190459276875,0.30401471629,1.0,-0.115504571429,-0.151806008163,1.654
0.410568693106,0.284076897637,-0.125362326865,-1.75414420122,0.0513293242784,2.03054388334,0.0929044594688,-0.143790605955,-0.482061618592,-0.00105725381026,-0.704878771128,-0.0659020322224,0.202145464471,-0.15458563053,0.57378881074,0.81898660403,0.00284429069102,0.0,0.81895289758,-0.573724538189,-0.0117069520613,0.0,-0.00795615072961,0.00904683238318,-0.999927424611,0.0,0.605851460769,0.18786367844,0.304031964076,1.0,-0.117991428571,-0.15507444898,1.671
0.407704791412,0.274675985896,-0.125408170706,-1.76759100038,0.0501491430762,2.03451347384,0.09002890728,-0.153691365265,-0.514036035912,-0.00369110742949,-0.690334341013,-0.0592860821133,0.224982703029,-0.145828616184,0.573795565916,0.818982224459,0.00274070357185,0.0,0.81894704156,-0.573731512624,-0.011774610103,0.0,-0.00807092375865,0.00900088344436,-0.999926919473,0.0,0.603562849634,0.184865496929,0.304013944357,1.0,-0.120770857143,-0.158727412245,1.69
0.405220440087,0.26666020072,-0.125529937544,-1.77890339348,0.0491430548379,2.03803895918,0.0875257960904,-0.156724690257,-0.501427619624,-0.00859302352629,-0.72239046071,-0.0573560943082,0.212968970569,-0.150886299602,0.573843254244,0.81894835885,0.00287262899314,0.0,0.818915498484,-0.573779423684,-0.0116329789941,0.0,-0.00787870533709,0.0090281207457,-0.999928206942,0.0,0.6016802001,0.182272466851,0.30406508148,1.0,-0.123111428571,-0.161803591837,1.706
0.402449763967,0.258048544663,-0.125647804215,-1.79120976841,0.0480577282328,2.04152467818,0.0848437174913,-0.166500221988,-0.509693054493,-0.00648706519221,-0.724420798126,-0.0639336189116,0.202747609138,-0.153023825361,0.573961910092,0.818865898324,0.0026670632254,0.0,0.818830052077,-0.573898428211,-0.0117765365981,0.0,-0.00811293702676,0.00894332714665,-0.999927095919,0.0,0.599538456764,0.179415901836,0.304002898051,1.0,-0.125598285714,-0.165072032653,1.723
0.399631626673,0.249247184069,-0.125676200171,-1.80342500509,0.0469334526757,2.04520205975,0.0820823303523,-0.173301946767,-0.51851734002,0.00109639390249,-0.735580396829,-0.0667216648698,0.214980115496,-0.166970144291,0.573953835342,0.818870994888,0.00283470085201,0.0,0.818837766873,-0.573890260368,-0.0116373321535,0.0,-0.00790281870209,0.00900062482796,-0.999928264532,0.0,0.597432330831,0.176615762468,0.304095585397,1.0,-0.128085142857,-0.168340473469,1.74
0.396920773203,0.240955204223,-0.12567908823,-1.81522373134,0.0459460564711,2.04852378278,0.0793658454775,-0.173266057009,-0.520999542108,-0.00160881909011,-0.722144540098,-0.0636664242061,0.199644891549,-0.17873978602,0.573900944358,0.818908496225,0.00270698650655,0.0,0.818872494656,-0.573836578475,-0.0118391553741,0.0,-0.00814197380735,0.00901135273971,-0.999926249173,0.0,0.595307768256,0.173947425038,0.304015813778,1.0,-0.130425714286,-0.171416653061,1.756
0.393963197372,0.231895836785,-0.125681899111,-1.82755036697,0.0448415949292,2.05223559285,0.0764898445937,-0.172847124622,-0.528205920882,0.00194539663352,-0.729674261821,-0.0666082383518,0.217808129342,-0.178769061859,0.573876628497,0.818924313651,0.0030546157032,0.0,0.818893087639,-0.573811342939,-0.0116361777786,0.0,-0.00777652548428,0.0091793108871,-0.999927630333,0.0,0.593143462083,0.171108743153,0.304176585262,1.0,-0.132912571429,-0.174685093878,1.773
0.390710812966,0.222308352068,-0.125677960791,-1.84110372866,0.0435389266644,2.05588920403,0.0732397258064,-0.184889511362,-0.533049035678,-0.00135254142736,-0.756966799056,-0.0725473373131,0.19748546305,-0.178952527007,0.573721220384,0.819034268284,0.0027523732809,0.0,0.818998671054,-0.573656503054,-0.0118380833003,0.0,-0.00811703534042,0.00904612382327,-0.999926137963,0.0,0.590633997297,0.167973603105,0.304061923534,1.0,-0.135545714286,-0.178145795918,1.791
0.387877616851,0.214098283843,-0.125752683604,-1.85218731755,0.0425185332919,2.05912536716,0.0705371681195,-0.191794033983,-0.54766900235,-0.00192680114394,-0.742509227648,-0.0700042961887,0.213883074797,-0.16689360239,0.573767281868,0.819001039286,0.00302503027713,0.0,0.818969333399,-0.573701996131,-0.0116617960806,0.0,-0.00781570767823,0.00916874059513,-0.999927421821,0.0,0.588655832541,0.165301874256,0.304196849231,1.0,-0.13774,-0.181029714286,1.806
0.383773810955,0.202689364786,-0.125842364249,-1.86814555412,0.0410040704124,2.06336065002,0.0665784091758,-0.201856778262,-0.543756518096,-0.00756487233904,-0.768410780981,-0.0773025797447,0.196328899775,-0.19583890195,0.573745523817,0.819017305634,0.00273383850225,0.0,0.818981123844,-0.573680490885,-0.0118894939807,0.0,-0.00816950879983,0.00906068052704,-0.999925578828,0.0,0.585668726285,0.161447106865,0.30407208756,1.0,-0.140812,-0.1850672,1.827
0.380924316934,0.194820104529,-0.125904901464,-1.87865661153,0.0399987323969,2.06633410157,0.0638859571027,-0.203051180769,-0.553915971353,-0.00701417163774,-0.762536604091,-0.0746028700802,0.208895538319,-0.192514420145,0.573768815586,0.819000137434,0.00297792626733,0.0,0.818967509292,-0.573703327262,-0.0117242446734,0.0,-0.00789386377229,0.00916600731198,-0.999926832936,0.0,0.583744564331,0.158850985977,0.304199324574,1.0,-0.14286,-0.187758857143,1.841
0.377318446389,0.185354553549,-0.126068489558,-1.89172088925,0.0387886639363,2.0698073836,0.0605138094402,-0.216190375808,-0.564275837106,-0.0109002438525,-0.789042698315,-0.0717606903231,0.190346239611,-0.191349673046,0.573899550151,0.818908922103,0.00286889135119,0.0,0.818874255577,-0.573833720764,-0.0118558579769,0.0,-0.00806275651103,0.00915350906257,-0.999925599847,0.0,0.581289272134,0.155550323222,0.304126445553,1.0,-0.145346857143,-0.191027297959,1.858
0.373829357173,0.176218567282,-0.126183256717,-1.90386081166,0.0375893760674,2.0730866605,0.0573057319823,-0.218021923798,-0.576418534374,-0.00167901415743,-0.772813618514,-0.075902340248,0.201006989864,-0.193385316654,0.57399925119,0.818838361792,0.00305676158024,0.0,0.818806518868,-0.573933182133,-0.0117189592993,0.0,-0.00784170751098,0.00922974787232,-0.999926656999,0.0,0.579013414087,0.15244266205,0.3042422914,1.0,-0.147687428571,-0.194103477551,1.874
0.369865102209,0.165991755382,-0.126179377189,-1.91789248732,0.0361408084724,2.07666303252,0.0535387410107,-0.227342382063,-0.567008710601,0.00674488679033,-0.806121831872,-0.0761874111312,0.187974968655,-0.213556248787,0.573849140988,0.818944508896,0.00279314109286,0.0,0.818908792817,-0.573783528983,-0.0118994880593,0.0,-0.00814251882034,0.00911601431306,-0.999925296045,0.0,0.576103178013,0.148783104188,0.304115797409,1.0,-0.150466857143,-0.197756440816,1.893
0.366431773612,0.15719822918,-0.12620340546,-1.92936336417,0.034994208299,2.079757027,0.050333502617,-0.232375749538,-0.594955277504,0.00115605795141,-0.775915296061,-0.0826453520043,0.215434429165,-0.20445196787,0.57381945031,0.818964067805,0.00313703556012,0.0,0.818933359328,-0.573753244319,-0.0116668125054,0.0,-0.00775496520465,0.00926384536599,-0.999927018179,0.0,0.574062198224,0.146052716865,0.304285168916,1.0,-0.152514857143,-0.200448097959,1.907
0.36218239941,0.146758765394,-0.126261580487,-1.94347712976,0.0335084415287,2.08321581273,0.0464186515958,-0.239387985625,-0.593841276537,-0.00505512907814,-0.803459689099,-0.0809337168841,0.187657897367,-0.218756237004,0.573791486014,0.818984491003,0.0029122115699,0.0,0.818950557625,-0.573725706551,-0.0118129043749,0.0,-0.00800392893663,0.009163277666,-0.999925982993,0.0,0.57124507193,0.142426203967,0.304193912573,1.0,-0.155148,-0.2039088,1.925
0.358021274968,0.136644064625,-0.126371682268,-1.95664927223,0.0322037208297,2.08656713412,0.0425848310658,-0.244778871765,-0.589145524357,-0.0115909143742,-0.769823094618,-0.0947826909179,0.204015031401,-0.225346352124,0.573839013941,0.81895030497,0.00315134416313,0.0,0.818919406376,-0.573772308302,-0.0117085861085,0.0,-0.00778074595303,0.0092997194469,-0.999926484903,0.0,0.568646327095,0.138949260123,0.304308028887,1.0,-0.157634857143,-0.207177240816,1.942
0.354232146845,0.127752235296,-0.126477254064,-1.96846543607,0.0309236780869,2.08940852347,0.0390627923185,-0.255098113553,-0.605770272903,-0.00873171599485,-0.802941949406,-0.0861931153978,0.18939151871,-0.239202002186,0.573806679707,0.818973476802,0.00301421942308,0.0,0.818940826734,-0.573740485775,-0.0117696300784,0.0,-0.00790978743787,0.00922213725767,-0.999926191,0.0,0.566091841337,0.13558416657,0.304255117583,1.0,-0.159975428571,-0.210253420408,1.958
0.349507185207,0.116825499462,-0.126635171615,-1.9825718338,0.0294052509561,2.09287073835,0.0348697015555,-0.267837269963,-0.606341204169,-0.0132353850579,-0.787144792459,-0.0856190026753,0.199455019615,-0.245755524771,0.573953678393,0.818869704003,0.00321400459107,0.0,0.818840143011,-0.573887382397,-0.0116120377519,0.0,-0.00766441679875,0.00929670675073,-0.999927411345,0.0,0.563417220068,0.131941135357,0.304370049574,1.0,-0.162462285714,-0.213521861224,1.975
0.344926638536,0.106567803526,-0.126689524123,-1.99610151675,0.0279433055953,2.09596872946,0.0306985423475,-0.26614560095,-0.608998541666,0.000695121175095,-0.777455425786,-0.0910703255215,0.173416642572,-0.23851822865,0.57391266309,0.818899074934,0.00305075684142,0.0,0.818866861209,-0.573846282231,-0.011758183754,0.0,-0.00787825200842,0.00924651225445,-0.999926214856,0.0,0.56059481261,0.128293825101,0.304290215269,1.0,-0.164949142857,-0.216790302041,1.992
0.340555057938,0.0966991306816,-0.1266975786,-2.00866903158,0.0265533578839,2.09894340201,0.0266664678503,-0.275828634618,-0.626188568752,0.000212580952515,-0.803033763128,-0.0847071927723,0.182934676048,-0.248915484044,0.573776944776,0.81899345548,0.00323796634214,0.0,0.818964054712,-0.573710412676,-0.0116183638373,0.0,-0.00765785637725,0.00931830675675,-0.999927260552,0.0,0.557977137135,0.124899011706,0.30438985895,1.0,-0.167289714286,-0.219866481633,2.008
0.33545375702,0.0856216864955,-0.126734550078,-2.02313408441,0.0250640308651,2.10204776892,0.0220277762239,-0.288624519684,-0.616984698777,0.000785815996138,-0.782208447735,-0.0834890307003,0.168378883265,-0.260750971595,0.573728401018,0.819028140622,0.00306163945948,0.0,0.818994789239,-0.573660508581,-0.0119123043103,0.0,-0.00800032483143,0.00934207393211,-0.999924357368,0.0,0.554857215149,0.120975373008,0.304282900658,1.0,-0.169922857143,-0.223327183673,2.026
0.330743739112,0.0755505854482,-0.126871603714,-2.03569535023,0.0235730315842,2.10496209012,0.0177823338329,-0.293866579449,-0.624516173496,-0.00709495932655,-0.800799407274,-0.102977572562,0.182137427573,-0.263169353904,0.573723784089,0.819030374162,0.00331853451783,0.0,0.8190016661,-0.573656569247,-0.0116257638762,0.0,-0.0076183012869,0.009388043292,-0.999926910393,0.0,0.55221931251,0.117376582271,0.304432979197,1.0,-0.172263428571,-0.226403363265,2.042
0.325846447245,0.0655598856533,-0.127026660909,-2.04859927595,0.0221241865199,2.10762896349,0.0134665736078,-0.31093847398,-0.626782164227,-0.0115632674179,-0.795627249413,-0.0929279141954,0.149511675992,-0.27357489161,0.573834080027,0.818953907939,0.00311322542208,0.0,0.818921751472,-0.573766600927,-0.0118236850256,0.0,-0.0078969403302,0.00933450115267,-0.999925249917,0.0,0.54940054024,0.11367054622,0.304329406541,1.0,-0.174604,-0.229479542857,2.058
0.320142942282,0.054035130811,-0.127178409483,-2.0628655373,0.020481168015,2.11066763363,0.00841360507948,-0.319848788678,-0.642224614412,-0.00323292614969,-0.79582491451,-0.0909507642934,0.165321345632,-0.281796862042,0.573908747651,0.818900757059,0.00332360623743,0.0,0.818871720719,-0.573841005716,-0.0116769887234,0.0,-0.00765522074657,0.00942331456121,-0.999926296653,0.0,0.546302117627,0.10947227394,0.304452919056,1.0,-0.177237142857,-0.232940244898,2.076
0.315032471805,0.0439136288646,-0.127222763782,-2.07580647467,0.0190123507518,2.11323608418,0.00388195840693,-0.320606504236,-0.627093073584,-0.00185620746833,-0.837507655027,-0.0942868673397,0.151170681748,-0.286038342593,0.573877412917,0.818923490596,0.003127042462,0.0,0.818890784221,-0.573809015866,-0.0119098165452,0.0,-0.00795905661636,0.00939566185689,-0.999924184604,0.0,0.543199942009,0.105555701752,0.304330995942,1.0,-0.179724,-0.236208685714,2.093
0.309441715235,0.0329066998562,-0.127265138288,-2.08925540425,0.0173857046843,2.11600365532,-0.00115237555749,-0.332516857947,-0.638565079959,-0.00267834930897,-0.779206970246,-0.102145018314,0.165603521986,-0.291015112986,0.573754183358,0.81900896371,0.00334684068089,0.0,0.818979928802,-0.573686016204,-0.0117037571615,0.0,-0.00766559391368,0.0094562570372,-0.999925906191,0.0,0.540377633696,0.101838111997,0.30444617214,1.0,-0.17998,-0.236545142857,2.109
0.302626285468,0.0201656011881,-0.127389289427,-2.10513512685,0.015490431909,2.11890369543,-0.0071606605316,-0.341623004358,-0.631719574002,-0.0131160400229,-0.8037262167,-0.0908349619183,0.139855447277,-0.307934638464,0.573772273986,0.818997047706,0.00315600318845,0.0,0.818964604704,-0.573703650515,-0.0119098501224,0.0,-0.00794367447896,0.00941837802419,-0.999924093215,0.0,0.536716801694,0.097070622889,0.304364963446,1.0,-0.17998,-0.236545142857,2.129
0.297730515231,0.011178372399,-0.127540432728,-2.11591195576,0.0141246476442,2.12095984901,-0.0113734874888,-0.354516374892,-0.620207655668,-0.00309688163592,-0.791245726437,-0.094904388897,0.138618250534,-0.304974642147,0.573900597056,0.818906501354,0.0033156658655,0.0,0.818876950653,-0.57383237737,-0.0117341072613,0.0,-0.00770664867455,0.00944951544893,-0.999925654348,0.0,0.534259178208,0.0936879561181,0.304472529312,1.0,-0.17998,-0.236545142857,2.143
0.292113997998,0.00106956091132,-0.12760827858,-2.12833246666,0.0126968908874,2.12310435762,-0.0163108406059,-0.343891498244,-0.623279889041,0.000199228019129,-0.776069588832,-0.0904292247856,0.124821684204,-0.312268979565,0.573921376364,0.818892239912,0.0032403803546,0.0,0.818860390705,-0.573851818857,-0.0119372287783,0.0,-0.00791595825905,0.00950463288724,-0.999923496853,0.0,0.531321614425,0.0899097013675,0.30441301471,1.0,-0.17998,-0.236545142857,2.159
0.286087386417,-0.00968845028455,-0.127623737216,-2.14106326059,0.0110610968582,2.12547795015,-0.0216414893598,-0.35976695331,-0.621014128927,-0.00168946655757,-0.762923899783,-0.101112278943,0.13946948203,-0.31518017155,0.573806839463,0.818971435796,0.00349931950876,0.0,0.818944094171,-0.573737808753,-0.011672374706,0.0,-0.00755179496049,0.00956361961371,-0.99992575103,0.0,0.52834169194,0.0859538315687,0.304545221904,1.0,-0.17998,-0.236545142857,2.176
0.279561806642,-0.0208865061732,-0.127686626209,-2.15470230976,0.00933449123641,2.127565379,-0.0273816485441,-0.361860565344,-0.61182834015,-0.0110890724225,-0.740866613885,-0.0907103843735,0.107540990456,-0.320546005483,0.573746111874,0.819015100543,0.0032266226781,0.0,0.81898308085,-0.573676640313,-0.0119403744238,0.0,-0.00792846154919,0.00949347556047,-0.999923503784,0.0,0.525009714867,0.0816939957799,0.30443505687,1.0,-0.17998,-0.236545142857,2.194
0.274008848119,-0.0303449211697,-0.127817434442,-2.16562023547,0.00793229713399,2.12946335737,-0.0321512945546,-0.37212320238,-0.623392073629,-0.014202661781,-0.735087504203,-0.0987053946476,0.123477246168,-0.315333481606,0.573868268464,0.818928251147,0.00353225492466,0.0,0.818901266446,-0.573799033533,-0.0116675546041,0.0,-0.00752823056687,0.00958839199531,-0.999925691481,0.0,0.522228368196,0.077870845382,0.304591455197,1.0,-0.17998,-0.236545142857,2.21
0.267570502873,-0.040792359392,-0.127960919833,-2.17818314798,0.00631997615781,2.13134462561,-0.0377199301486,-0.377248570281,-0.613207421463,-0.00544018726293,-0.746242735491,-0.0941421348883,0.0986013135968,-0.331759258805,0.573959655513,0.818864888766,0.00336967216425,0.0,0.818834880143,-0.573889816456,-0.011860207886,0.0,-0.00777823702659,0.00956667012331,-0.999923986037,0.0,0.519291855722,0.0740171148139,0.304497028043,1.0,-0.17998,-0.236545142857,2.226
0.260803207404,-0.0519278718763,-0.127981975683,-2.19102139007,0.00467187172838,2.13334067882,-0.0436602080852,-0.380248654672,-0.623259315309,-0.00376122910808,-0.716308297016,-0.0998668980812,0.115417654658,-0.336819519666,0.573882830806,0.818917754082,0.003599368901,0.0,0.81889113966,-0.573812735959,-0.0117043726563,0.0,-0.00751969962939,0.00966461588803,-0.999925021848,0.0,0.516102494243,0.0698524657097,0.304603131017,1.0,-0.17998,-0.236545142857,2.244
0.254600034893,-0.0616316258019,-0.12803883337,-2.20250290453,0.00316218052652,2.13491179366,-0.0490924215479,-0.392209200088,-0.60639454312,-0.0013974234536,-0.735509984845,-0.0867501249608,0.0887532822761,-0.346914107891,0.573821147768,0.818961635647,0.00344624634202,0.0,0.818932360254,-0.573750732377,-0.0118588922805,0.0,-0.00773484037598,0.00962731118612,-0.999923740654,0.0,0.513361908665,0.066304885947,0.304516765932,1.0,-0.17998,-0.236545142857,2.259
0.247938772914,-0.0720015787808,-0.12817002667,-2.21440945825,0.00155683617419,2.1364841629,-0.054892554506,-0.39371925383,-0.617578550137,-0.00889642777921,-0.682556307219,-0.104710484728,0.100407619085,-0.346400045996,0.573872588381,0.81892547659,0.0034731826581,0.0,0.818896416963,-0.573801902653,-0.0118651463301,0.0,-0.00772390050474,0.0096534449289,-0.99992357326,0.0,0.510118929739,0.0620282611453,0.304544952033,1.0,-0.17998,-0.236545142857,2.277
0.241097268188,-0.0822482190727,-0.128326065194,-2.22616305008,3.40687710169e-06,2.13800527543,-0.0608496353515,-0.407079144764,-0.600620788259,-0.00431150313779,-0.696077347281,-0.0860236270593,0.0844185064589,-0.353287640598,0.573953239958,0.818868787513,0.00351199101168,0.0,0.818839847296,-0.573881921741,-0.0118992133823,0.0,-0.00772857508281,0.00970553711909,-0.999923032876,0.0,0.507073838475,0.057948931096,0.304542963174,1.0,-0.17998,-0.236545142857,2.294
0.234706228931,-0.0918544507115,-0.128334207063,-2.23719436296,-0.00143324037368,2.13924195628,-0.0664900663604,-0.407833034919,-0.605300283899,-0.00127541436007,-0.668664520943,-0.0799254594768,0.0772519590427,-0.358499197052,0.573846452823,0.818943995592,0.00342455358373,0.0,0.818912730789,-0.573774004243,-0.0120862859376,0.0,-0.00793322421425,0.00974027037045,-0.99992109243,0.0,0.504130449962,0.0542507323668,0.304489870028,1.0,-0.17998,-0.236545142857,2.31
0.227717044106,-0.102068327867,-0.128397191379,-2.248536916,-0.00308517006623,2.14063204842,-0.0725622014401,-0.416241920925,-0.594200573515,-0.00443643741871,-0.6749200587,-0.0930390103485,0.0693803554107,-0.354689495322,0.573808446474,0.818970031937,0.00356376844607,0.0,0.818941791136,-0.573736997897,-0.0118721049932,0.0,-0.00767838022858,0.00973102038922,-0.999923171908,0.0,0.501130377588,0.0502415628396,0.304582877779,1.0,-0.17998,-0.236545142857,2.327
0.220172755713,-0.112730588279,-0.128577220733,-2.26067007451,-0.00475429216613,2.14180214851,-0.0790906061709,-0.429541790801,-0.580944640366,-0.00962236052469,-0.673928603822,-0.0947595542901,0.0642897557842,-0.357804788494,0.573916081863,0.81889537258,0.00338328943568,0.0,0.818863415478,-0.573843596132,-0.0121235667679,0.0,-0.00798660751579,0.00972854918519,-0.999920781578,0.0,0.497812934063,0.0459255574249,0.304487015043,1.0,-0.17998,-0.236545142857,2.345
0.213370969136,-0.122265435983,-0.128667378337,-2.27096100556,-0.006217080634,2.1429665137,-0.0850196644879,-0.426401826122,-0.586165840419,0.000130105722987,-0.651648280524,-0.0824267761581,0.0704428615957,-0.373116206457,0.57395676265,0.818865652345,0.0036640032893,0.0,0.818838612246,-0.573884810604,-0.0118447522138,0.0,-0.00759669117452,0.00979879166079,-0.999923134028,0.0,0.49520704508,0.0423689178767,0.304631717655,1.0,-0.17998,-0.236545142857,2.36
0.206112716913,-0.13223689809,-0.128701303416,-2.28202215531,-0.00773965085707,2.14392950107,-0.0914118560394,-0.431387185968,-0.602072564086,-0.00316806427454,-0.653604941465,-0.096083479813,0.0535605055433,-0.374579118073,0.573847130105,0.818942622414,0.0036330931177,0.0,0.81891430275,-0.573774179167,-0.0119709220295,0.0,-0.00771907187411,0.0098448607127,-0.999921744261,0.0,0.491929456291,0.0381873169696,0.304601683677,1.0,-0.17998,-0.236545142857,2.378
0.198255554628,-0.142783467651,-0.128817714969,-2.29342100319,-0.00941527597712,2.14496406454,-0.0983189690876,-0.435630498972,-0.599388098666,-0.00688986339046,-0.632431319076,-0.0933945862346,0.0613037277032,-0.392217477546,0.573811367719,0.818967123744,0.00375651480697,0.0,0.818941063105,-0.573738827736,-0.011833833291,0.0,-0.00753640711068,0.00986694226489,-0.999922920038,0.0,0.488729507185,0.0339305515552,0.304668725726,1.0,-0.17998,-0.236545142857,2.396
0.191104683022,-0.152021368484,-0.128993958604,-2.30347875754,-0.010859685397,2.14576537576,-0.104514385,-0.45201998252,-0.580618503634,-0.00753942597523,-0.634653217293,-0.0960433269592,0.0327407021593,-0.393958858551,0.573938803752,0.818877721444,0.00377806461184,0.0,0.818851600305,-0.573865723767,-0.0118715906349,0.0,-0.00755342473297,0.00990743152987,-0.999922391276,0.0,0.485855048937,0.0300859686356,0.30465534243,1.0,-0.17998,-0.236545142857,2.412
0.183955254266,-0.161223732377,-0.129053222153,-2.31347014734,-0.0123701066547,2.14633190478,-0.110819958115,-0.44693897352,-0.568649217585,-0.000793786148035,-0.614320870389,-0.0849552028317,0.0336692630708,-0.393028750473,0.573839441838,0.818948078126,0.0036176271614,0.0,0.818919239528,-0.573766145386,-0.0120181712936,0.0,-0.00776673582536,0.00985923501175,-0.999921233548,0.0,0.482917961366,0.0263356500185,0.304608406795,1.0,-0.17998,-0.236545142857,2.428
0.17712357263,-0.169858353063,-0.129100269553,-2.32247508218,-0.0136110977087,2.14703004329,-0.116817175229,-0.454972715101,-0.576838717361,-0.00301736334349,-0.60319782714,-0.0784376308594,0.0488464236502,-0.406584447788,0.573850106574,0.81893923616,0.00391529869473,0.0,0.818914818403,-0.573776459687,-0.0118254560289,0.0,-0.00743796690779,0.00999252770918,-0.999922410009,0.0,0.480300697436,0.0228332636433,0.304721932906,1.0,-0.17998,-0.236545142857,2.443
0.169282812781,-0.179495101493,-0.129248976734,-2.33280815223,-0.0151621709047,2.14751925438,-0.123701328243,-0.463202494435,-0.562213420271,-0.0144929006068,-0.603117643332,-0.0921209977041,0.0220024680953,-0.408647518176,0.573885540553,0.818914940072,0.00380186421002,0.0,0.81888820419,-0.573811172065,-0.011983102822,0.0,-0.00763173670556,0.00999042354264,-0.999920970893,0.0,0.477010509002,0.018551770786,0.3046682712,1.0,-0.17998,-0.236545142857,2.461
0.160282375894,-0.190263973377,-0.129416191901,-2.34404024143,-0.0168453121199,2.14807718926,-0.131591357443,-0.468338954739,-0.565733021602,0.000406685606166,-0.578127738272,-0.0877640086649,0.0332600617342,-0.415538468109,0.573940216345,0.818876109094,0.00391061598646,0.0,0.81885087817,-0.573865564478,-0.0119289616937,0.0,-0.00752431875316,0.0100489156627,-0.999921198856,0.0,0.473794611666,0.0142528896095,0.304711928404,1.0,-0.17998,-0.236545142857,2.479
0.15272104313,-0.199235372566,-0.129448999589,-2.35333327074,-0.0183033785933,2.14850357667,-0.13832215181,-0.47862703917,-0.557227705549,-0.00519835226649,-0.587662043021,-0.0924742093497,0.0159560232669,-0.425531453163,0.573801304553,0.818973177554,0.003967901569,0.0,0.818949341726,-0.573727349312,-0.0118174125257,0.0,-0.00740179274455,0.0100305502208,-0.999922297744,0.0,0.47094334339,0.0105298271112,0.304748617467,1.0,-0.17998,-0.236545142857,2.495
0.144021478687,-0.209216882051,-0.129597794162,-2.36382868694,-0.0198300220575,2.14871426715,-0.145988784899,-0.48921361273,-0.555973445047,-0.00709869521557,-0.577652482615,-0.0813658733809,0.0100783921453,-0.435348244651,0.573854403354,0.81893646973,0.00386383206015,0.0,0.818909517779,-0.57377846484,-0.0120922238736,0.0,-0.0076859274803,0.010103499289,-0.999919419664,0.0,0.467626395557,0.00627137568689,0.304664544227,1.0,-0.17998,-0.236545142857,2.513
0.135610892616,-0.218650307486,-0.12975113643,-2.37325442566,-0.0212802061632,2.1490327935,-0.153305224441,-0.4893975771,-0.551005459496,-0.00154815864113,-0.551843522583,-0.0871478704335,0.0166741917326,-0.426186256143,0.574006918854,0.818828294709,0.0041264746175,0.0,0.818805811077,-0.573931419796,-0.011853945288,0.0,-0.00733817365233,0.0101832240657,-0.999921223475,0.0,0.464655742564,0.00220798342132,0.304788782104,1.0,-0.17998,-0.236545142857,2.53
0.128272002373,-0.22679158891,-0.129770447831,-2.38169851824,-0.0226450873549,2.1491490937,-0.159907970605,-0.492818336814,-0.536746041351,-0.00286662816062,-0.560854146317,-0.0857174221913,0.00305530268391,-0.440919745634,0.573811927614,0.818965632203,0.00398897218797,0.0,0.818941003423,-0.573736454,-0.0119524543349,0.0,-0.0075001749641,0.010125388693,-0.999920608788,0.0,0.461920188094,-0.00125179804052,0.304720842471,1.0,-0.17998,-0.236545142857,2.545
0.11917143694,-0.236562439253,-0.129904975825,-2.39164743719,-0.0242059706609,2.14916589225,-0.167966645479,-0.508642232568,-0.5408840992,-0.0128417982366,-0.5492056299,-0.0924217836927,0.000415415930495,-0.440391191937,0.573824676481,0.818956970058,0.00393303386772,0.0,0.818930857381,-0.573748395689,-0.0120737805156,0.0,-0.00763148176606,0.0101493114013,-0.999919372732,0.0,0.458640197614,-0.0055226481794,0.30468298152,1.0,-0.17998,-0.236545142857,2.563
0.110400227234,-0.24579217295,-0.130084900649,-2.40061092946,-0.0256729084401,2.14924549829,-0.175705990252,-0.513319728385,-0.535236791656,-0.0046158302903,-0.53295055598,-0.0833184924209,0.000365457098661,-0.457258519548,0.573920992923,0.818888254329,0.00417943833972,0.0,0.818866778181,-0.573845774017,-0.0117887291376,0.0,-0.00725543848491,0.0101883984981,-0.999921774515,0.0,0.455670796944,-0.00960723954789,0.304820045177,1.0,-0.17998,-0.236545142857,2.58
0.102729243866,-0.253754537818,-0.130147359529,-2.40867863853,-0.0268664361082,2.14920738466,-0.182613572243,-0.517475452106,-0.530082701483,-0.00475112374595,-0.537791957957,-0.0879747996764,-0.00201317913409,-0.457662293252,0.573837918988,0.818946588597,0.00415627929085,0.0,0.818923659992,-0.573761186981,-0.0119535066605,0.0,-0.00740471432576,0.0102632484348,-0.999919914762,0.0,0.452752184005,-0.0133095757802,0.304740937695,1.0,-0.17998,-0.236545142857,2.596
0.0932242612952,-0.263255604524,-0.130294665798,-2.41813377617,-0.0284275753268,2.14904712584,-0.191034144628,-0.529978480484,-0.535608719669,-0.0108341037747,-0.509742444129,-0.0848775172024,-0.00989625631955,-0.471591102161,0.573884411142,0.818914145401,0.00412940812275,0.0,0.818890723295,-0.573807570332,-0.0119834232245,0.0,-0.00744405246814,0.0102588312994,-0.999919668005,0.0,0.449673772846,-0.0173657109558,0.304721865322,1.0,-0.17998,-0.236545142857,2.613
0.0841351006698,-0.272222654772,-0.130471316423,-2.42662710279,-0.0298187429303,2.14894537772,-0.199141406625,-0.536970026722,-0.528474541716,-0.000500763788299,-0.502921559067,-0.0786209316575,-0.00750541564824,-0.475364441618,0.573957025084,0.818861781209,0.00441174935846,0.0,0.818843465475,-0.573881258162,-0.0116802174989,0.0,-0.00703279883674,0.0103166736495,-0.999922049955,0.0,0.446715409478,-0.0214260307186,0.304860123095,1.0,-0.17998,-0.236545142857,2.63
0.0756253604826,-0.280448143141,-0.130534834056,-2.43480193144,-0.0311380767257,2.14864464837,-0.206883316718,-0.541489358356,-0.511708745091,-0.00673071863446,-0.504056482103,-0.0877213994567,-0.0242120918416,-0.489770645664,0.573800120517,0.818972321814,0.00430170886055,0.0,0.818951590309,-0.573723313128,-0.0118574703882,0.0,-0.00724308884698,0.0103269080751,-0.999920443152,0.0,0.443788877386,-0.0251266072039,0.3047744412,1.0,-0.17998,-0.236545142857,2.646
0.06626889238,-0.28918036976,-0.13067944764,-2.44326550017,-0.0325249221487,2.14828179849,-0.215216655766,-0.556314839544,-0.520335402598,-0.012278788927,-0.495923329631,-0.0706646291627,-0.0200344541931,-0.499681036028,0.573868370361,0.818924482965,0.0043048346239,0.0,0.818903337393,-0.57379089381,-0.011919777207,0.0,-0.00729146286301,0.0103658261356,-0.999919688884,0.0,0.440704897326,-0.0291786994974,0.304751806779,1.0,-0.17998,-0.236545142857,2.663
0.0562773934847,-0.298393645898,-0.130861147043,-2.45178893437,-0.0339116679105,2.14795754612,-0.224190120734,-0.548267441473,-0.50379993276,-0.00379026860853,-0.468847850086,-0.0748729366818,-0.024765243543,-0.494506291487,0.573950010549,0.818865588212,0.00461310459618,0.0,0.818849738048,-0.573873404302,-0.0116262304989,0.0,-0.00687311436589,0.0104505158125,-0.999921770449,0.0,0.437563683157,-0.0334613804009,0.304889631137,1.0,-0.17998,-0.236545142857,2.681
0.0479626570178,-0.305887140345,-0.130966000002,-2.45897663212,-0.0351889737262,2.14750680522,-0.231744114112,-0.565282434865,-0.49669461023,-0.00680557243857,-0.486758588638,-0.0832536426756,-0.0368873666423,-0.500563776148,0.573846519116,0.818938641349,0.00451897178375,0.0,0.818921385149,-0.573769942474,-0.0116861011452,0.0,-0.00697748395226,0.0104069114621,-0.999921502375,0.0,0.434843732464,-0.0369668963125,0.30485073693,1.0,-0.17998,-0.236545142857,2.696
0.0376321826884,-0.314807163558,-0.13114616018,-2.46745967939,-0.0365716485206,2.14686159685,-0.240950327774,-0.573966895838,-0.49279687059,-0.016594964864,-0.462100095008,-0.0795894850269,-0.0377174303569,-0.517246687552,0.574002082729,0.818829705051,0.0045022272496,0.0,0.818811078325,-0.573923827249,-0.0118577160598,0.0,-0.00712565184043,0.0104930292871,-0.999919557476,0.0,0.431555279929,-0.0412735239839,0.304803787917,1.0,-0.17998,-0.236545142857,2.714
0.0279212586687,-0.323164634151,-0.131265658506,-2.47507803642,-0.0378999748101,2.14636592445,-0.249849943289,-0.562611566502,-0.485514856369,-0.00342966093551,-0.442191937177,-0.074492556438,-0.0268155124779,-0.533515050166,0.573899286964,0.818900789128,0.00467470737545,0.0,0.818885668033,-0.573822395263,-0.011613280575,0.0,-0.00682780430032,0.0104931063381,-0.999921634833,0.0,0.428576506681,-0.0452642162578,0.304895883554,1.0,-0.17998,-0.236545142857,2.731
0.0204246857581,-0.329469452552,-0.131338278501,-2.48086308921,-0.0388526636338,2.14592514165,-0.256714562056,-0.581863063371,-0.474701052566,-0.00896941669048,-0.458620800079,-0.0811254560341,-0.0481376650641,-0.528080645352,0.573841121085,0.818940930308,0.0047819785719,0.0,0.818927469008,-0.573764339883,-0.0115338494312,0.0,-0.0067019416377,0.0105348935261,-0.99992204696,0.0,0.426272113292,-0.0482932448345,0.304928140232,1.0,-0.17998,-0.236545142857,2.744
0.00851192006072,-0.338988124102,-0.13153246009,-2.48977894334,-0.0403749323157,2.14498548559,-0.267397188865,-0.595934066368,-0.485005350087,-0.0130772074258,-0.438651370029,-0.0750920546363,-0.0301868011259,-0.544067556348,0.573993484388,0.818834710728,0.00468436635348,0.0,0.81881849912,-0.573914686748,-0.0117874821409,0.0,-0.00696370695366,0.0106017878904,-0.999919551203,0.0,0.422597399633,-0.0530810598497,0.304845260377,1.0,-0.17998,-0.236545142857,2.764
-0.00267615104368,-0.347946984112,-0.131616498054,-2.4979258896,-0.0417897788837,2.14413390191,-0.277750953788,-0.589269343835,-0.46268538951,-0.00696829031093,-0.422998169141,-0.0732192090945,-0.0467604113865,-0.549701362807,0.573803798413,0.818967462244,0.00471631362929,0.0,0.818951697156,-0.573724974626,-0.0117693719616,0.0,-0.00693299925204,0.0106159477774,-0.999919614356,0.0,0.419191988582,-0.0574757846386,0.304856112633,1.0,-0.17998,-0.236545142857,2.783
-0.0124267660026,-0.355416669925,-0.131782769721,-2.50444333024,-0.0429727613442,2.14345279374,-0.28659864709,-0.614049316166,-0.461551348674,-0.0157868971251,-0.409862633484,-0.069863389519,-0.0465803004673,-0.556577556545,0.573891520929,0.818904862238,0.00490873818921,0.0,0.81889297727,-0.573814262888,-0.0114991471925,0.0,-0.00660013063478,0.0106191987546,-0.999921832392,0.0,0.416390396765,-0.0613170341148,0.304970726603,1.0,-0.17998,-0.236545142857,2.799
-0.0222715323699,-0.362677645,-0.13191010072,-2.51110994102,-0.0441921525192,2.14255824362,-0.295566126176,-0.606887985686,-0.456180525396,-0.00240621599347,-0.420805285054,-0.0743872494397,-0.0604582729636,-0.566635850227,0.573902636715,0.81889785848,0.00477575640667,0.0,0.818883230887,-0.57382416784,-0.0116972422299,0.0,-0.00683853382928,0.0106240695405,-0.999920178615,0.0,0.413449491418,-0.0651191115395,0.304895900395,1.0,-0.17998,-0.236545142857,2.815
-0.0326171636288,-0.370359437887,-0.132001144156,-2.51799927804,-0.0453621312197,2.14166090435,-0.305217204256,-0.620326507773,-0.447662254871,-0.00748773918562,-0.402683930983,-0.0713183849979,-0.0527202169167,-0.555391372849,0.573744025808,0.819008790334,0.00481052041425,0.0,0.818994114675,-0.573664694715,-0.0117560650822,0.0,-0.0068688271634,0.0106849657344,-0.999919322106,0.0,0.410379574676,-0.0690362186641,0.304877766712,1.0,-0.17998,-0.236545142857,2.832
-0.0427621810917,-0.377431524329,-0.132185500658,-2.52422443862,-0.0464770028608,2.14074833059,-0.314369484897,-0.637182373673,-0.440983656514,-0.00650616135072,-0.378967692164,-0.0725832124568,-0.0481886864468,-0.569613609533,0.573946351879,0.818866724418,0.00486001100365,0.0,0.818852405764,-0.573866376323,-0.0117841674016,0.0,-0.00686079774818,0.0107433184346,-0.999918751981,0.0,0.407492878908,-0.0728921935797,0.304888073936,1.0,-0.17998,-0.236545142857,2.848
-0.0534354994037,-0.384805026547,-0.132272808565,-2.5305346825,-0.0476840545456,2.13988689483,-0.324285380826,-0.62013807244,-0.427317881052,-0.00456045990386,-0.376649942399,-0.0760143762385,-0.0541376715959,-0.580961196655,0.57383229763,0.818946020344,0.00496556753695,0.0,0.818934538601,-0.573754348345,-0.0115289263626,0.0,-0.00659267932663,0.010682350732,-0.999921208877,0.0,0.40452714753,-0.0768797103657,0.304973346367,1.0,-0.17998,-0.236545142857,2.865
-0.0642912263384,-0.392054351615,-0.132447293976,-2.53699021345,-0.0488676986299,2.13881640837,-0.334368983993,-0.645442560471,-0.419932128673,-0.0104644480439,-0.377757064556,-0.069749957932,-0.0613661135915,-0.594722176155,0.573797272026,0.818970974682,0.00489695254261,0.0,0.818957460835,-0.573717711714,-0.0117222655176,0.0,-0.00679085755436,0.0107368065129,-0.999919299363,0.0,0.401408034099,-0.0808921921134,0.304905548157,1.0,-0.17998,-0.236545142857,2.882
-0.0747279459586,-0.398797449511,-0.132604542055,-2.54280846763,-0.0499622437607,2.13781508426,-0.343946691424,-0.643986673016,-0.416301663421,-0.00388877195508,-0.354082753564,-0.0749184492417,-0.0534795413229,-0.597243879146,0.573881737551,0.818911683712,0.00491451784737,0.0,0.818898259116,-0.573801885964,-0.0117381336603,0.0,-0.00679266596988,0.0107609978328,-0.999919027029,0.0,0.398508007534,-0.0847193313216,0.304911581301,1.0,-0.17998,-0.236545142857,2.898
-0.0863255207967,-0.406172915937,-0.132701860521,-2.54914885067,-0.0511524651753,2.13668919081,-0.354855599514,-0.658064499135,-0.409571851321,-0.00903125075908,-0.344513603724,-0.0662830230858,-0.0673052628165,-0.610533308505,0.573712019873,0.819030591824,0.004914754332,0.0,0.819017094972,-0.573632077243,-0.0117467018243,0.0,-0.00680177836586,0.0107646990998,-0.999918925246,0.0,0.395289136003,-0.0888901799809,0.304911388812,1.0,-0.17998,-0.236545142857,2.916
-0.0977194928913,-0.413013806869,-0.132907766822,-2.55482570116,-0.0521863926898,2.13571490929,-0.365312859242,-0.67496201331,-0.396263733368,-0.00277754746189,-0.332613251438,-0.0644767548672,-0.0560320242126,-0.609330114672,0.573920753783,0.818883093551,0.00511804408522,0.0,0.818873138549,-0.573841605288,-0.0115473765715,0.0,-0.00651913032895,0.0108185161794,-0.999920227142,0.0,0.392283820422,-0.0930053593833,0.304991886343,1.0,-0.17998,-0.236545142857,2.933
-0.108269294654,-0.41933138591,-0.132983822525,-2.56017745953,-0.0531510750329,2.13463395301,-0.375287046027,-0.662264518935,-0.396929281973,-0.00575537518139,-0.339089145895,-0.0654032079374,-0.0693399938657,-0.622786034639,0.573778540491,0.818982581227,0.00514441642389,0.0,0.818972557031,-0.573698654869,-0.011599617792,0.0,-0.00654866622016,0.0108689569011,-0.999919487132,0.0,0.3894060729,-0.0967071826965,0.304990635489,1.0,-0.17998,-0.236545142857,2.949
-0.119762539305,-0.425862284735,-0.133186019608,-2.56578599785,-0.0542650584381,2.13340391034,-0.385989772044,-0.682864006895,-0.385327922407,-0.0144600735221,-0.324164291896,-0.0626189055347,-0.0700023848586,-0.629950941427,0.573825675402,0.818950085169,0.00505956047601,0.0,0.818937736309,-0.573744055856,-0.0118105597468,0.0,-0.00676949649595,0.0109208776872,-0.999917450767,0.0,0.386275366937,-0.100750839023,0.304929194714,1.0,-0.17998,-0.236545142857,2.966
-0.13199605447,-0.432579530563,-0.13328234407,-2.57141387235,-0.0553416758367,2.13227709436,-0.397421158404,-0.672797030569,-0.368269831743,0.000609773283763,-0.301879140684,-0.051823079589,-0.0644844578528,-0.64301168352,0.573815000105,0.81895734026,0.0050958208511,0.0,0.818945668197,-0.573733592737,-0.0117687725553,0.0,-0.00671460834216,0.0109265090061,-0.999917759336,0.0,0.383059430859,-0.104980478484,0.3049302783,1.0,-0.17998,-0.236545142857,2.984
-0.142259520824,-0.437990609842,-0.133410724804,-2.57592209994,-0.0562260168046,2.13127016491,-0.407124486292,-0.688507739359,-0.359172650287,-0.0161120057356,-0.294199852712,-0.0662823172844,-0.0694826989195,-0.648178369546,0.573764510844,0.81899264439,0.00510699829508,0.0,0.818980848021,-0.573682636075,-0.0118046830216,0.0,-0.00673828205255,0.0109558529083,-0.999917279,0.0,0.380375918503,-0.108513429312,0.304922678134,1.0,-0.17998,-0.236545142857,2.999
-0.154177281011,-0.44409238764,-0.133571243117,-2.5807637048,-0.0572554933303,2.13015934841,-0.418189749062,-0.693193773017,-0.353775142258,-0.00525050245129,-0.29297215932,-0.0580012819681,-0.058044556063,-0.643269231163,0.573893414397,0.818901796426,0.00519072481172,0.0,0.81889237311,-0.573813367736,-0.0115865081416,0.0,-0.00650983038068,0.0109002755416,-0.999919399803,0.0,0.377356902359,-0.112613077947,0.30501457835,1.0,-0.17998,-0.236545142857,3.016
-0.166640876834,-0.450367468596,-0.133690489786,-2.58595082408,-0.0582140846778,2.12890637586,-0.430084547547,-0.694424360636,-0.340831680535,-0.0114559224781,-0.289356173278,-0.049782617548,-0.0727542125284,-0.668755032017,0.573772212287,0.818986451474,0.0052333173559,0.0,0.818976873678,-0.573690869511,-0.0116796199337,0.0,-0.00656327046299,0.0109876188008,-0.999918094503,0.0,0.374102445495,-0.116787480338,0.304994431127,1.0,-0.17998,-0.236545142857,3.034
-0.177348148356,-0.455384736359,-0.133873255471,-2.59014431358,-0.0590476993162,2.12782373467,-0.440095862831,-0.707626682755,-0.334109938782,-0.00942126186213,-0.267765418778,-0.0521160298586,-0.0686202173564,-0.679794726434,0.573894147107,0.81890110433,0.00521882592063,0.0,0.818890182285,-0.573810910734,-0.0118598052864,0.0,-0.0067175177247,0.011080131476,-0.999916049297,0.0,0.371158282889,-0.12061502245,0.304943067947,1.0,-0.17998,-0.236545142857,3.05
-0.190023218624,-0.461218038242,-0.133941195207,-2.59480719522,-0.0599488951925,2.12667821989,-0.452266455957,-0.712195359622,-0.317700903556,-0.0051943912917,-0.257464915768,-0.0605213043774,-0.0605042846881,-0.681931828543,0.57373698292,0.819010709236,0.00529900819369,0.0,0.819001275879,-0.573654239857,-0.0117673320993,0.0,-0.00659789952116,0.0110914616322,-0.999916720133,0.0,0.368163887318,-0.124563268412,0.304975573208,1.0,-0.17998,-0.236545142857,3.067
-0.202366896143,-0.466480406771,-0.134136334874,-2.59913761423,-0.0608723630638,2.12556184353,-0.463864721041,-0.727236797757,-0.304754757653,-0.00619406596511,-0.244334914779,-0.0572211573677,-0.0646963309972,-0.688406330747,0.573866747272,0.818919882504,0.00528481939796,0.0,0.818909665623,-0.573783027397,-0.0118635542906,0.0,-0.00668308948253,0.0111361034024,-0.999915658201,0.0,0.365070676286,-0.128650014558,0.304932436124,1.0,-0.17998,-0.236545142857,3.084
-0.213828201315,-0.471385847665,-0.134209914747,-2.60297033564,-0.0616469493218,2.12451975594,-0.474820790504,-0.714880735679,-0.310677775499,-0.0110627089129,-0.236260915509,-0.0376953212932,-0.0662425780043,-0.685822690869,0.573798162492,0.818967485026,0.00535481955573,0.0,0.818958707829,-0.573715101681,-0.0117628174832,0.0,-0.00656135053148,0.0111350735463,-0.99991647592,0.0,0.362235507996,-0.132374783609,0.304979578278,1.0,-0.17998,-0.236545142857,3.1
-0.22630088135,-0.476454835138,-0.134407170718,-2.60684632027,-0.0624876160537,2.12343529504,-0.486676857069,-0.741427111979,-0.291767236355,-0.0118295964974,-0.230485462021,-0.0502214678488,-0.060112060107,-0.697091044972,0.573893500769,0.818899892954,0.00547375523251,0.0,0.818893533602,-0.573811539757,-0.0115950147675,0.0,-0.00635437477508,0.0111369408014,-0.999917791856,0.0,0.359007277698,-0.136693716122,0.305054742655,1.0,-0.17998,-0.236545142857,3.118
-0.237264306139,-0.480669160448,-0.134451811496,-2.61021412944,-0.0632054898663,2.12246499175,-0.497207495308,-0.729194101026,-0.27635711863,-0.00321819278844,-0.226588658576,-0.0451480312554,-0.0608796588287,-0.703860985889,0.573775281729,0.818982913652,0.00544611093428,0.0,0.818976041739,-0.573693161021,-0.0116252722746,0.0,-0.00639662591712,0.0111307425516,-0.999917591478,0.0,0.356499131047,-0.139952978898,0.305043216061,1.0,-0.17998,-0.236545142857,3.132
-0.249831328458,-0.485228295185,-0.134583356841,-2.61388354888,-0.0639974023838,2.121376226,-0.509235432821,-0.748191818064,-0.269359088427,-0.0167066430071,-0.214192866773,-0.0414467527099,-0.0643769187236,-0.718060053686,0.573773849399,0.818983986193,0.00543571593063,0.0,0.818976305864,-0.573690596974,-0.0117327012235,0.0,-0.00649060026374,0.0111838550213,-0.999916393252,0.0,0.353421396915,-0.143961313313,0.305006813948,1.0,-0.17998,-0.236545142857,3.149
-0.262499335195,-0.489536051289,-0.134671189015,-2.61735499659,-0.0647375967106,2.12030912082,-0.521388383754,-0.737373782646,-0.249277204135,-0.00523709970789,-0.200393659196,-0.0419818165279,-0.0567910031433,-0.711070864662,0.573752716836,0.818998914708,0.00541705931927,0.0,0.818990133974,-0.573668065085,-0.0118683805134,0.0,-0.00661272413714,0.0112462502268,-0.999914893246,0.0,0.350352776272,-0.147960611791,0.304962188989,1.0,-0.17998,-0.236545142857,3.166
-0.275238171746,-0.493697159164,-0.134833997972,-2.6206116343,-0.0654029295593,2.11934783346,-0.533670550425,-0.766914167662,-0.244430067736,-0.0133037974503,-0.18258977618,-0.0350463123676,-0.0570638464797,-0.724005763649,0.573780047145,0.818979065503,0.00552219768256,0.0,0.818971533306,-0.573694804607,-0.0118594141187,0.0,-0.00654468177725,0.0113274359837,-0.999914424506,0.0,0.347307096725,-0.151983500911,0.30496166984,1.0,-0.17998,-0.236545142857,3.183
-0.288055122576,-0.497710639948,-0.134909816594,-2.62368807723,-0.0660904889987,2.11834599454,-0.546011512526,-0.745324809854,-0.234904688776,0.00173133178418,-0.174817432949,-0.0339594627657,-0.0507711414645,-0.720084955365,0.573759001234,0.818993618326,0.0055505446703,0.0,0.818986567842,-0.573673856308,-0.0118344912901,0.0,-0.00650829578193,0.0113361856886,-0.99991456284,0.0,0.34425866155,-0.15598210835,0.304981053321,1.0,-0.178297714286,-0.234334138776,3.2
-0.302358310733,-0.501857026418,-0.134995486266,-2.62683940161,-0.0667503462799,2.1172997439,-0.559781914365,-0.762079289247,-0.214019051931,-0.00802234668131,-0.160764236257,-0.040326871315,-0.0507952879221,-0.72892776406,0.573798251069,0.818965517565,0.00563870648414,0.0,0.818959702265,-0.573712938432,-0.011799035722,0.0,-0.00642812829226,0.0113883587062,-0.99991448857,0.0,0.340900245536,-0.160418883093,0.305007110129,1.0,-0.175518285714,-0.23068117551,3.219
-0.312914888026,-0.504642888978,-0.135019751111,-2.62897629309,-0.0672481878819,2.11660464801,-0.569858018053,-0.740563573576,-0.194731853564,0.000513132885738,-0.147512446227,-0.0326207999748,-0.0475861225602,-0.717131930107,0.573876154477,0.818910888391,0.00564474072435,0.0,0.818905356445,-0.573791169247,-0.0117668254734,0.0,-0.00639720228763,0.0113754279802,-0.999914834094,0.0,0.33845545248,-0.163678975914,0.305014235705,1.0,-0.173470285714,-0.227989518367,3.233
-0.325506995308,-0.507843965194,-0.135010532241,-2.63141821104,-0.0677289212799,2.11583469561,-0.582077090155,-0.746082222934,-0.178703298967,-0.00120044179825,-0.141986030252,-0.0304080063652,-0.0406273871098,-0.720438817851,0.573832052579,0.818941235606,0.00572494173398,0.0,0.818937057171,-0.573747356724,-0.0116967493452,0.0,-0.0062944013608,0.0114005561174,-0.99991520032,0.0,0.335551274408,-0.167521661179,0.305029133675,1.0,-0.170983428571,-0.224721077551,3.25
-0.338140778023,-0.510877527967,-0.134997288134,-2.63372724935,-0.0682270689251,2.11502898321,-0.594180976177,-0.733184284097,-0.167907395842,0.00268258305923,-0.131488432288,-0.0274384713751,-0.0405557197567,-0.695088647029,0.573912957313,0.818884335874,0.00575402377613,0.0,0.818880547843,-0.573828169497,-0.0116887620335,0.0,-0.00627004392205,0.0114204100063,-0.999915126791,0.0,0.332625171857,-0.171351350167,0.305036255905,1.0,-0.168496571429,-0.221452636735,3.267
-0.350466537829,-0.513559981668,-0.134933465001,-2.63582234653,-0.0686284249231,2.1142576666,-0.606222547384,-0.734756131423,-0.149418898437,0.00199815190995,-0.11469342426,-0.0287706304027,-0.042556257461,-0.707449871957,0.573810226042,0.818956106824,0.00578502252922,0.0,0.818952059668,-0.573724145444,-0.0117845577342,0.0,-0.00633215032919,0.011499977263,-0.999913823484,0.0,0.329783429674,-0.175045493052,0.305012321639,1.0,-0.166009714286,-0.218184195918,3.284
-0.363636015986,-0.516138741056,-0.134909732666,-2.63783775694,-0.0690471238722,2.11352972841,-0.61886313974,-0.719110038156,-0.137648508048,0.00225846987176,-0.105777134572,-0.0244784440149,-0.0361036006706,-0.696124493628,0.573933306643,0.818869592776,0.00582206619091,0.0,0.818865514749,-0.573846134067,-0.0118587550881,0.0,-0.00636992641471,0.0115738465811,-0.999912731248,0.0,0.326772403006,-0.17900245093,0.304986865082,1.0,-0.163376571429,-0.214723493878,3.302
-0.373555629691,-0.517939552312,-0.134807431993,-2.63924180914,-0.0693042998061,2.11303689809,-0.628540126905,-0.711126619586,-0.121775086056,0.00800006089059,-0.0960441013531,-0.0173410877717,-0.0384023897817,-0.688869010724,0.573869710116,0.818913960811,0.00585042747814,0.0,0.818910055414,-0.573782085408,-0.0118821928777,0.0,-0.00637374586802,0.0116100280016,-0.99991228746,0.0,0.324529731149,-0.181946301885,0.304972958255,1.0,-0.161328571429,-0.212031836735,3.316
-0.387128004477,-0.520207919522,-0.134776820517,-2.64097211119,-0.0697126400217,2.11236219826,-0.6416188677,-0.709617714764,-0.111366566385,0.00768109555228,-0.0877279498214,-0.0219250277698,-0.0384270460027,-0.680188040504,0.573967400033,0.818845342177,0.00587164334821,0.0,0.81884143971,-0.573879176045,-0.0119220307584,0.0,-0.00639280859052,0.0116510262086,-0.999911688894,0.0,0.321291441596,-0.186208564443,0.304966354484,1.0,-0.158402857143,-0.208186612245,3.336
-0.399561809178,-0.522126431761,-0.134616762038,-2.64238939109,-0.0699788293476,2.11180878397,-0.653874244852,-0.695339769342,-0.103266142208,0.00985604674103,-0.0796805433539,-0.0200594911221,-0.0298498341861,-0.677016174372,0.573816692599,0.818950681131,0.00591033585507,0.0,0.818947461552,-0.573728677118,-0.0118830623714,0.0,-0.00634083493224,0.0116591785686,-0.999911924805,0.0,0.318663934382,-0.189662520127,0.304981667859,1.0,-0.155916,-0.204918171429,3.353
-0.410770238594,-0.523686208601,-0.134594024835,-2.64350458423,-0.0702372869943,2.11131752187,-0.664639512186,-0.698169162405,-0.0971201730693,0.000895251632001,-0.0681465040071,-0.00794986131971,-0.0320553249314,-0.678236840737,0.573988798214,0.818829653783,0.00596695155552,0.0,0.818827278519,-0.573900729473,-0.011856962728,0.0,-0.00628451583149,0.0116918915951,-0.999911898385,0.0,0.316140872906,-0.192993491838,0.305005554979,1.0,-0.153575428571,-0.201841991837,3.369
-0.422263820626,-0.525067264916,-0.13445903324,-2.64451219778,-0.0704412674376,2.1109143285,-0.6759534984,-0.670758001266,-0.0691209767101,0.00455069776404,-0.0548661730958,-0.00296456209272,-0.0267445408878,-0.65331456681,0.573895279679,0.818894926591,0.00600450383602,0.0,0.818893316003,-0.573807604,-0.0118032833896,0.0,-0.00622033868632,0.0116911217696,-0.999912308684,0.0,0.31359098771,-0.196374485183,0.305022580002,1.0,-0.151088571429,-0.19857355102,3.386
-0.433773826614,-0.526293184618,-0.134381742323,-2.64544664148,-0.0706565565964,2.11052049028,-0.687126175285,-0.674960204107,-0.0745469829437,-0.00732693864338,-0.0550191149853,-0.0119885224705,-0.026507713215,-0.654726318939,0.573971480956,0.818841283892,0.00603636850595,0.0,0.818839915243,-0.573883344431,-0.0118256961988,0.0,-0.00621931665301,0.0117306576878,-0.999911852,0.0,0.311009514125,-0.199757966826,0.305014834754,1.0,-0.148601714286,-0.195305110204,3.403
-0.445008585543,-0.527298302644,-0.134246529382,-2.64625170563,-0.0708243290631,2.11018341028,-0.698174806499,-0.649625740495,-0.055212475094,0.0130674363142,-0.0398990658135,-0.0107478247074,-0.0233250712751,-0.648847058105,0.573910948326,0.818883580086,0.00605413555334,0.0,0.818882070438,-0.573822054182,-0.0118807302712,0.0,-0.0062550588683,0.0117763309643,-0.999911092181,0.0,0.308500875178,-0.2030333412,0.304991073532,1.0,-0.146114857143,-0.192036669388,3.42
-0.455417077232,-0.528090299487,-0.134136532255,-2.64688254672,-0.0709838765656,2.10993627507,-0.708365560977,-0.660517952823,-0.0480132597699,0.000379314039325,-0.0370867318487,-0.00571762442776,-0.0174596098315,-0.626819042661,0.573907614891,0.818885846315,0.0060635943888,0.0,0.818884379174,-0.573818532392,-0.0118916916487,0.0,-0.0062586556452,0.0117903421184,-0.999910904562,0.0,0.306182728526,-0.206074105712,0.304975384723,1.0,-0.143774285714,-0.188960489796,3.436
-0.467141297605,-0.528797771172,-0.134048254779,-2.6474433304,-0.0711147872653,2.10965916958,-0.719766865796,-0.641584885423,-0.0337420178093,0.00992710086826,-0.0277945944784,-0.00306228009455,-0.00229063242084,-0.635721727696,0.574021941586,0.818805356104,0.0061111614029,0.0,0.818804140817,-0.573931950946,-0.0119432644145,0.0,-0.00627193883972,0.0118597684273,-0.999910000288,0.0,0.303568881918,-0.209501035227,0.304957391649,1.0,-0.141141142857,-0.185499787755,3.454
-0.47651579623,-0.529224502395,-0.133904788115,-2.64775795823,-0.0711763753324,2.10948374209,-0.729100459811,-0.627664531474,-0.0219464498562,0.0108732367328,-0.0169162485572,-0.00795410173912,-0.0110736233128,-0.616623240193,0.573909860247,0.81888370517,0.00613975731916,0.0,0.81888284406,-0.57381974194,-0.0119389432406,0.0,-0.00625361251768,0.011879847906,-0.999909876711,0.0,0.301507803394,-0.212226857956,0.304958808433,1.0,-0.138946857143,-0.182615869388,3.469
-0.487870770628,-0.529629886365,-0.13380435178,-2.64806273553,-0.0712644862707,2.10927782517,-0.7401223692,-0.627267728023,-0.0232903935346,0.00359989952925,-0.0172092047227,-0.00185693409277,-0.0112478841674,-0.607987635471,0.5740567268,0.818780422858,0.00618388719357,0.0,0.818779921342,-0.573965985656,-0.0119680666488,0.0,-0.00624999809513,0.0119338215995,-0.999909256596,0.0,0.298983019036,-0.215537093197,0.304953131323,1.0,-0.136313714286,-0.179155167347,3.487
-0.498781917975,-0.529847074635,-0.133614465515,-2.6482324857,-0.0713166420551,2.109154402,-0.750990771153,-0.598524270894,-0.0104889184191,0.00878063454976,-0.00598873073872,-0.00155255988819,-0.00353376444979,-0.609284294857,0.573925944161,0.818872020439,0.00619448642798,0.0,0.818871652859,-0.573835178736,-0.0119645597892,0.0,-0.00624294921782,0.0119394904856,-0.999909232957,0.0,0.296583269947,-0.218697012968,0.304949459849,1.0,-0.133680571429,-0.175694465306,3.505
-0.507827330464,-0.529982842612,-0.133506557066,-2.64835114549,-0.0713335193554,2.10905073424,-0.759904399741,-0.611088581771,-0.0100488187517,0.010878607982,-0.00486480199274,-0.00299714727519,-0.00837525267296,-0.581743928063,0.573943903604,0.818859048763,0.00624505213716,0.0,0.818859131004,-0.573852520861,-0.0119897778656,0.0,-0.00623431921607,0.0119955088284,-0.99990861634,0.0,0.294565813418,-0.221309593419,0.304938925469,1.0,-0.131486285714,-0.172810546939,3.52
-0.518039769237,-0.530024553068,-0.133393819734,-2.64838464412,-0.0713588803068,2.10893153289,-0.769837619731,-0.586290129064,0.00277650552005,0.0116056722981,-0.00122833337593,-0.00473145802074,-0.0031186548974,-0.59131745533,0.574080359474,0.818763058322,0.00628825060719,0.0,0.818763408978,-0.573988193703,-0.0120324772943,0.0,-0.00624248648831,0.0120564305178,-0.999907832675,0.0,0.292281041169,-0.224260805634,0.304931562795,1.0,-0.128999428571,-0.169542106123,3.537
-0.529475927275,-0.529924232429,-0.133187110074,-2.64832537225,-0.0713693070528,2.10892385127,-0.781294545177,-0.580047950992,0.00662799840542,0.00973592588554,0.00605913579587,-0.000696782909606,-0.00164623700737,-0.559731809794,0.573916714853,0.818877665087,0.00630245478383,0.0,0.81887837333,-0.573824856929,-0.0119995901886,0.0,-0.0062098107391,0.0120479412622,-0.999908138462,0.0,0.289746961063,-0.227551944869,0.304926460833,1.0,-0.126073714286,-0.165696881633,3.557
-0.537548170395,-0.529797354429,-0.133085903823,-2.64821039394,-0.0713723134345,2.1089217151,-0.789123969287,-0.575961591652,0.00982091503367,0.00885340140979,0.0103698627109,-0.000917247367689,0.00080152890269,-0.564340067035,0.574049343014,0.818784494257,0.00632855828042,0.0,0.818785775836,-0.573957799021,-0.011960147689,0.0,-0.00616057670533,0.0120476803799,-0.999908446155,0.0,0.287945488904,-0.229884435352,0.304934794742,1.0,-0.124025714286,-0.16300522449,3.571
-0.546502650057,-0.529526840426,-0.132924325797,-2.6479770834,-0.0713696161991,2.10894373294,-0.79799347637,-0.544912604533,0.0217040887188,0.0138856736846,0.0152296621636,-0.000212703187748,0.00332207966037,-0.547141046299,0.574019245383,0.818805616518,0.006325756068,0.0,0.818807146576,-0.573928277941,-0.0119136642997,0.0,-0.00612456287192,0.01201847826,-0.999909018816,0.0,0.285962824903,-0.232468826392,0.304948071854,1.0,-0.121685142857,-0.159929044898,3.587
