nelsonifechukwu/NELSON_IML_WORK/CNN-GradCAM/train2dof/data_sample_2022-02-21-09-59-20/robot_state.csv
position_joint1,position_joint2,position_joint3,position_joint4,position_joint5,position_joint6,position_joint7,velocity_joint1,velocity_joint2,velocity_joint3,velocity_joint4,velocity_joint5,velocity_joint6,velocity_joint7,ee_T_00,ee_T_10,ee_T_20,ee_T_30,ee_T_01,ee_T_11,ee_T_21,ee_T_31,ee_T_02,ee_T_12,ee_T_22,ee_T_32,ee_T_03,ee_T_13,ee_T_23,ee_T_33,v_x,v_y,time
0.465078620325,0.547661415517,-0.123956627505,-1.35575894432,0.0794716092261,1.89408208193,0.159165605417,0.00178283642627,-0.000862273826693,-0.000664376956254,0.000843932152095,-0.000177351948494,-0.000389294317213,-0.000896258102884,0.573772768641,0.819000120931,0.00208776942854,0.0,0.81895892014,-0.573713794292,-0.0118117002932,0.0,-0.00847616504054,0.00848719278107,-0.999928058505,0.0,0.661686542837,0.260916740571,0.303331762666,1.0,0.0,0.0,0.0
0.465071224581,0.547668980673,-0.123956304309,-1.35576236917,0.0794696592941,1.89408208338,0.159167317092,-0.000200179371208,0.00174639691852,-0.000336623515743,0.00168991336427,0.00042768765071,-7.98004367697e-05,0.000975103408936,0.573779686531,0.818995301055,0.00207727595009,0.0,0.818953976333,-0.573720765414,-0.0118158741495,0.0,-0.00848553243102,0.00848106525163,-0.999928031046,0.0,0.661687521968,0.260911210148,0.303324758955,1.0,-0.00014,-0.000184,0.008
0.465072600268,0.547667478605,-0.123957283667,-1.35577029185,0.0794715306692,1.89408360927,0.159171264653,0.00135302879209,0.00213493423018,0.000410707849936,-0.00152714775725,-0.000261552889842,0.000795932282383,0.000454035290815,0.57378341352,0.818992698113,0.00207405572347,0.0,0.818951313593,-0.573724486822,-0.0118197329265,0.0,-0.00849050187331,0.00848068064403,-0.999927992124,0.0,0.661685810308,0.260911039025,0.303322220433,1.0,-0.00046,-0.000604571428571,0.024
0.465071650299,0.547654678907,-0.123956913093,-1.35577799546,0.0794721410208,1.89408644161,0.159170096476,0.00118749619554,0.00351596455393,0.000854254377176,0.00142688776652,4.22748346322e-05,5.83022770875e-05,0.00150500879181,0.573783554438,0.818992579951,0.00208171603003,0.0,0.818951283804,-0.573724586085,-0.0118169783898,0.0,-0.00848384929138,0.00848537524828,-0.999928008763,0.0,0.661685076772,0.26091017129,0.303327856191,1.0,-0.0008,-0.00105142857143,0.041
0.465070614593,0.54755050917,-0.123954782243,-1.35587500408,0.0794716700407,1.89410413157,0.159160503924,0.000558748199418,-0.00910665574484,-0.000243033540557,-0.00971576970062,9.85968581874e-06,0.00366659075722,-0.00390271237562,0.573780163707,0.818994887611,0.00210824669291,0.0,0.818953854846,-0.573721009031,-0.011812465087,0.0,-0.00846496607321,0.00850447864508,-0.999928006505,0.0,0.661668928124,0.260901701083,0.303356942037,1.0,-0.00116,-0.00152457142857,0.059
0.465066244806,0.547420624734,-0.123952001536,-1.35603290892,0.0794686727527,1.89413894939,0.159160975938,-0.000377886161003,-0.00723672477548,-0.00167104342636,-0.00938077224141,2.24822720925e-05,-0.000640241282147,-0.00301925605175,0.573792493515,0.818986220472,0.00211942520718,0.0,0.818945266378,-0.573733226179,-0.0118145146923,0.0,-0.00846010295599,0.00851493702476,-0.999927958658,0.0,0.661647719315,0.260885604297,0.303376132258,1.0,-0.00146,-0.00191885714286,0.074
0.465050374393,0.547268016838,-0.123957288868,-1.35624293147,0.079465201592,1.8942339117,0.159159497477,0.000173331527565,-0.0111155082457,-0.000417445672769,-0.0117794950922,-0.000218856764935,0.001078505952,0.00089678667797,0.573816427341,0.81896935892,0.00215493966327,0.0,0.818928800879,-0.573756951257,-0.0118036806507,0.0,-0.00843060347928,0.00853805239881,-0.999928010702,0.0,0.66162414053,0.260854667659,0.303393269352,1.0,-0.00182,-0.002392,0.092
0.465030024358,0.547090646909,-0.123954877806,-1.35644382877,0.0794631528421,1.89433357083,0.159142937909,0.000520935611466,-0.00844188037665,-0.000540917965927,-0.0129097714013,-0.000122542678353,0.00977254041647,0.000211705096456,0.573828629888,0.818960618766,0.00222605754028,0.0,0.818920920645,-0.573768811099,-0.0117738710688,0.0,-0.00836525540451,0.00857931457256,-0.999928206355,0.0,0.66160750681,0.260827529629,0.303431855767,1.0,-0.00216,-0.00283885714286,0.109
0.465003845159,0.54688720895,-0.12395439639,-1.35668767695,0.0794556741568,1.89446566852,0.159128529627,0.000308701132084,-0.010951333886,6.91254562674e-06,-0.0216659020902,-0.000210218251203,0.012766045243,0.000230079510851,0.573849788891,0.818945567147,0.00230754003451,0.0,0.81890692126,-0.57378965225,-0.0117318448984,0.0,-0.00828385927002,0.00862214322658,-0.999928515606,0.0,0.661590440628,0.26079198706,0.303471327777,1.0,-0.0025,-0.00328571428571,0.126
0.464974680851,0.54667296586,-0.123957978177,-1.35699252337,0.0794491991088,1.89459358019,0.159109181134,-0.00240270440649,-0.0197809786221,-0.000842535704171,-0.0189248306468,0.000328131171721,0.00580364132978,0.000698456311796,0.573875738005,0.818927278455,0.00234453235906,0.0,0.818889048139,-0.573815392702,-0.0117204452841,0.0,-0.0082530224987,0.0086461575243,-0.999928563238,0.0,0.661560472309,0.26074488896,0.303489179072,1.0,-0.00282,-0.00370628571429,0.142
0.464933901202,0.546401433719,-0.123955667668,-1.35738529445,0.0794389877833,1.89473617691,0.158992403965,-0.00115755395631,-0.0131782953702,-0.00211220464587,-0.0222512678235,-0.000579233381749,0.0080664305035,-0.00228302482239,0.573831096888,0.818958480504,0.00237199428301,0.0,0.818920468301,-0.573770510037,-0.011722427684,0.0,-0.00823935982756,0.00866933511674,-0.999928475231,0.0,0.661516635461,0.260684222589,0.303506811355,1.0,-0.00316,-0.00415314285714,0.159
0.464892040057,0.546085087047,-0.123955221796,-1.35790204152,0.079422821165,1.89491766743,0.158926752611,-0.00105089715206,-0.0211768985829,6.71985472838e-05,-0.0316034691887,0.000282228157544,0.00974787411363,-0.00141553177337,0.573835882731,0.818955150225,0.00236400314499,0.0,0.818916883165,-0.573775166182,-0.0117449581213,0.0,-0.00826234672102,0.00867576753387,-0.999928229767,0.0,0.661454297054,0.260609307332,0.303500576598,1.0,-0.00354,-0.00465257142857,0.178
0.464841806014,0.545792899759,-0.123950419939,-1.35839112201,0.0793942793827,1.89508680603,0.158897308795,-0.00254060997067,-0.015202613578,0.00131962848068,-0.0359922818261,-0.00465854475201,0.00761643611742,0.00149331388476,0.5738692811,0.818931812326,0.0023413396381,0.0,0.818893200524,-0.573808592666,-0.01176316365,0.0,-0.00828990773034,0.00866799226277,-0.999928069083,0.0,0.661397039226,0.260531501058,0.30348914375,1.0,-0.00386,-0.00507314285714,0.194
0.464776327936,0.545455197937,-0.123958074103,-1.35897968894,0.0792855910923,1.89527915337,0.158815755033,-0.00316805400643,-0.0221181733722,0.000640995431426,-0.0350198396886,-0.00842790684193,0.016027932625,-6.33764357827e-05,0.573865392784,0.818934795999,0.00224894807498,0.0,0.818895622136,-0.573805715651,-0.0117348895887,0.0,-0.00831981033389,0.00857606587195,-0.999928613377,0.0,0.66133403008,0.260413786012,0.30346483816,1.0,-0.0042,-0.00552,0.211
0.464723772425,0.545108888665,-0.123963326965,-1.35957445393,0.0792739439688,1.89547319055,0.158727028584,-0.00389176034707,-0.0221404136929,-0.00179289653191,-0.0393390622536,-0.000168016768665,0.00983470396665,-0.00144473372405,0.573869451167,0.818932045563,0.00221464865455,0.0,0.818892195326,-0.57380966725,-0.0117807090671,0.0,-0.00837697464967,0.00857431262737,-0.999928151148,0.0,0.661260743957,0.26032122036,0.303443899459,1.0,-0.0045,-0.00591428571429,0.226
0.464657669869,0.54469246627,-0.123964324331,-1.36027013753,0.0792571310938,1.89571616235,0.158658664103,-0.00362549528099,-0.025235532137,-0.000492283164523,-0.0423780191796,-0.00471043247322,0.0201040800341,-0.010729271156,0.573902605773,0.818908860007,0.00219658607892,0.0,0.818868531346,-0.573842639021,-0.0118195141086,0.0,-0.00841877215963,0.00858213039493,-0.999927733045,0.0,0.661178641376,0.260213593912,0.303428625406,1.0,-0.00484,-0.00636114285714,0.243
0.464587075141,0.544218867605,-0.12396469262,-1.36106005298,0.0792231069885,1.89598746653,0.158555178422,-0.00338198182501,-0.0334592045627,0.00103427011319,-0.0471623857261,-0.00230180561603,0.0119340842066,-0.00460630257913,0.573910844841,0.818903169196,0.00216530731034,0.0,0.818862275457,-0.573850839583,-0.0118547308935,0.0,-0.00846547626731,0.00857681222387,-0.999927384365,0.0,0.661083919799,0.260092068447,0.303411331863,1.0,-0.0052,-0.00683428571429,0.261
0.464520013727,0.543734364346,-0.123965092454,-1.36187578562,0.0791856993455,1.89627705141,0.158440856417,-0.00411429708413,-0.0280912753961,0.00015734662062,-0.0516089086796,-0.000414872775477,0.0153689518454,-0.00663278155101,0.573907906347,0.818905306983,0.00213544572104,0.0,0.818863891598,-0.573847886552,-0.0118860017431,0.0,-0.00850825270261,0.00857027477299,-0.999927077354,0.0,0.660986357589,0.259970638025,0.303391000964,1.0,-0.00554,-0.00728114285714,0.278
0.464443686907,0.543170621853,-0.123971000481,-1.36277090261,0.0791378105344,1.89659291207,0.158347443346,-0.00347386102478,-0.0319948061928,0.00119399385157,-0.0513068017761,-0.00747297315564,0.0206790600251,-0.00279957571558,0.573935039106,0.818886321112,0.00212388392749,0.0,0.818844701823,-0.573875008927,-0.0118985430062,0.0,-0.00852487433136,0.00856828681298,-0.999926952821,0.0,0.660881984337,0.259831606349,0.303391330682,1.0,-0.0059,-0.00775428571429,0.296
0.464376136635,0.542714668662,-0.123976336863,-1.3634971454,0.0790902400915,1.89685120813,0.158246783897,-0.00745693144567,-0.0343009971771,-4.75597175042e-05,-0.0505464282563,-0.000640336219005,0.0229935160338,-0.00643018145072,0.573939324624,0.818883352757,0.0021102437633,0.0,0.818841593963,-0.573879387476,-0.0119012405402,0.0,-0.00853486667983,0.00855871010629,-0.999926949598,0.0,0.660799636685,0.259713487469,0.303390710917,1.0,-0.00618,-0.00812228571429,0.31
0.464306843441,0.542153321694,-0.123971857726,-1.3643613539,0.0790437476052,1.89716912263,0.158119658676,-0.0029803510367,-0.0353887029775,-0.000233318059729,-0.0552329539178,-0.00097721297293,0.0222939618582,-0.0114393167331,0.573924431045,0.818893746753,0.00212741132923,0.0,0.818852127191,-0.573864341447,-0.0119020297496,0.0,-0.00852581638255,0.00857306600275,-0.999926903826,0.0,0.660698199916,0.259589141142,0.303403766634,1.0,-0.0065,-0.00854285714286,0.326
0.464208890774,0.541423821122,-0.123973583761,-1.36549379733,0.0789639064436,1.89758281431,0.157960777164,-0.00888352291931,-0.036661078815,0.00174285732291,-0.0586026680169,-0.00435785686403,0.0245574210801,-0.0044055014205,0.573917252718,0.818898771386,0.00212982531189,0.0,0.81885727678,-0.573857248328,-0.0118897311794,0.0,-0.0085144344913,0.00856790976778,-0.999927045003,0.0,0.660568994174,0.259413746329,0.303416434511,1.0,-0.0069,-0.00906857142857,0.346
0.464138315151,0.540785511577,-0.123982487283,-1.36645191604,0.0789157981232,1.89794401923,0.15785784628,-0.00712288463227,-0.044726673342,0.00034052505005,-0.0621100899277,4.33533859683e-05,0.0172610973534,-0.00683323302767,0.573937284956,0.818884631315,0.00216804873779,0.0,0.818843596686,-0.573877086604,-0.011874364788,0.0,-0.00847970459882,0.00859059890887,-0.999927145456,0.0,0.660459727271,0.259273349528,0.303443227518,1.0,-0.00722,-0.00948914285714,0.362
0.464040980938,0.540080579291,-0.123983567787,-1.367539772,0.0788591071704,1.89834216615,0.157709455601,-0.00823163119363,-0.0440971082341,-0.00161214553384,-0.0656220865686,-0.00265913819991,0.0257259484132,-0.00234045994396,0.57394130036,0.818881769839,0.00218578755609,0.0,0.818840875657,-0.573880938912,-0.0118758244739,0.0,-0.00847067743533,0.00860600403008,-0.999927089501,0.0,0.660335064019,0.259106414775,0.303458201658,1.0,-0.00756,-0.009936,0.379
0.463942438472,0.539339593186,-0.123986403174,-1.36869997151,0.0787807710637,1.89877425619,0.157576614233,-0.00642892601542,-0.0457124246341,0.00166719864083,-0.0688240416942,-0.00383234380654,0.0235899025715,-0.00711358379304,0.573958452126,0.818869735159,0.00219065623219,0.0,0.818828986221,-0.573898152393,-0.0118637644179,0.0,-0.00845782690211,0.00860324632263,-0.99992722201,0.0,0.660203101731,0.258928366341,0.303467074225,1.0,-0.0079,-0.0103828571429,0.396
0.463846771605,0.53862974615,-0.123990012712,-1.36978716826,0.07872128823,1.89920315786,0.15743101106,-0.00568560299561,-0.0474052253256,-0.000588776315134,-0.0709081478499,-0.00205911313723,0.0248176618458,-0.0136306539423,0.573964406331,0.818865439222,0.00223598174261,0.0,0.81882527126,-0.573903918039,-0.0118412375579,0.0,-0.00841330349321,0.00862749334805,-0.999927388705,0.0,0.66008473349,0.258762863728,0.303488354651,1.0,-0.00822,-0.0108034285714,0.412
0.463732564747,0.537859965795,-0.123998721122,-1.37101177867,0.0786537283972,1.89967241023,0.157280106195,-0.0113370474158,-0.044980732354,-0.00062360592768,-0.0717961668229,-0.00209756989731,0.0373402270997,-0.00947651871147,0.57399010232,0.818847394613,0.00224803809752,0.0,0.818807379053,-0.573929559085,-0.0118357136923,0.0,-0.00840158956281,0.00863445893599,-0.999927427072,0.0,0.659950362556,0.258568082491,0.303490109629,1.0,-0.00856,-0.0112502857143,0.429
0.463609888961,0.536951380809,-0.123999512877,-1.37242613351,0.0785737580212,1.90019898704,0.157114949344,-0.00741601927391,-0.0470449525648,-1.38756080016e-05,-0.0742763584473,-0.00854776948222,0.0273696860841,-0.0141425875161,0.574012395033,0.81883171308,0.00226779707983,0.0,0.818791902419,-0.573951718304,-0.0118318422355,0.0,-0.0083868430886,0.00864864449777,-0.999927428272,0.0,0.659787887907,0.258353507927,0.30350411229,1.0,-0.00894,-0.0117497142857,0.448
0.463514184008,0.536255580131,-0.124005119213,-1.37350863888,0.0784938951693,1.90062240024,0.156979547115,-0.0100125415544,-0.0488942182711,-0.000817039929717,-0.0799687592987,-0.00755363456467,0.0291084200344,-0.00761295712186,0.57402210124,0.818824851598,0.00228836096926,0.0,0.818785484432,-0.573961525767,-0.0118001832307,0.0,-0.00834901287367,0.00864740920731,-0.999927755539,0.0,0.659670024855,0.258183568045,0.303516885348,1.0,-0.00922,-0.0121177142857,0.462
0.463402105095,0.53538105384,-0.124006941542,-1.37488275899,0.0784284036846,1.90111616239,0.15681501308,-0.00537316414961,-0.0534619939181,-0.000718423943174,-0.0830611186321,-0.00896216474141,0.0358948922605,-0.00761420933692,0.574036655324,0.818814638649,0.0022918942391,0.0,0.818775148106,-0.573975889051,-0.0118187365062,0.0,-0.00836202342298,0.00866110077227,-0.999927528323,0.0,0.659495783111,0.25796457347,0.303523825858,1.0,-0.00958,-0.0125908571429,0.48
0.463272971434,0.534435865535,-0.12401153958,-1.37641466203,0.0783458299793,1.90167781631,0.156623624014,-0.00682177774167,-0.0537020748372,-0.00198539885508,-0.086657457882,-0.00509797328264,0.0357084419476,-0.0113788545999,0.574052468601,0.818803601799,0.00227417590545,0.0,0.818763774494,-0.573991659225,-0.011840760826,0.0,-0.0083900611457,0.00865939755072,-0.999927308212,0.0,0.659325400355,0.257747354721,0.303509444775,1.0,-0.00992,-0.0130377142857,0.497
0.463150299927,0.533574508276,-0.124017911786,-1.37781492825,0.0782592918322,1.90218363388,0.156451145047,-0.00864182125258,-0.0522428874989,-0.000655304833066,-0.084424375552,-0.00328226381487,0.03542605365,-0.00656212468899,0.574069582322,0.81879169099,0.00224239176678,0.0,0.818751459543,-0.574008905017,-0.0118562793402,0.0,-0.00842083229428,0.00864245725473,-0.999927196108,0.0,0.659161111926,0.257528204569,0.303494533823,1.0,-0.01024,-0.0134582857143,0.513
0.463019111149,0.532632991687,-0.124015497056,-1.37933016413,0.0781707759688,1.90276511468,0.156251520865,-0.010388788326,-0.0611710255185,0.000593336016347,-0.0923621105743,-0.00880223264662,0.0364802491389,-0.0118575722242,0.574071084552,0.818790619171,0.00224916418763,0.0,0.818750443454,-0.574010347144,-0.0118566275582,0.0,-0.00841721396097,0.00864821772247,-0.999927176768,0.0,0.658987203568,0.257300772349,0.303487535268,1.0,-0.01058,-0.0139051428571,0.53
0.462900771969,0.531647729211,-0.124021084493,-1.3808877869,0.0780794720141,1.90333681712,0.156057445155,-0.00591093534509,-0.0649714690785,-0.000581455789805,-0.0962964544339,-0.00698609302727,0.0421640017373,-0.0149701489112,0.57407344001,0.818788970492,0.0022481494651,0.0,0.818748755489,-0.574012679507,-0.0118602719771,0.0,-0.00842075570918,0.00864950323982,-0.999927135829,0.0,0.658800881396,0.25707161879,0.303490394639,1.0,-0.01092,-0.014352,0.547
0.462764179296,0.530716517645,-0.124018693283,-1.38242314743,0.0780011117915,1.90387162213,0.155863452151,-0.0110145062813,-0.0582242126301,-0.00121004971595,-0.0971419311112,-0.00647407078342,0.0391623080752,-0.0169859038231,0.574087204201,0.818779458242,0.00219718802516,0.0,0.818738363769,-0.574026424257,-0.0119122981698,0.0,-0.00849246456263,0.00863778638467,-0.999926630654,0.0,0.65861269719,0.25683662582,0.303462130902,1.0,-0.01124,-0.0147725714286,0.563
0.462629127939,0.529689887219,-0.124021198985,-1.3840732683,0.0778896299887,1.90446221186,0.155646067196,-0.0082898117826,-0.0602491600725,-0.000344887734907,-0.0954099306503,-0.00270743206539,0.0329331659706,-0.0142184986293,0.574081116986,0.81878382058,0.00216175338306,0.0,0.818742324051,-0.574020541535,-0.01192357347,0.0,-0.00852210227001,0.00861518323398,-0.9999265735,0.0,0.658413469636,0.256585906649,0.30345119822,1.0,-0.01158,-0.0152194285714,0.58
0.462505046475,0.528681612125,-0.124021244801,-1.38563517912,0.0777885614007,1.90504881084,0.155422205021,-0.010993226149,-0.0641859349484,0.00224670218183,-0.0995638031804,-0.00524185533385,0.0348796946571,-0.0233964196927,0.574056969755,0.818800686562,0.00218587807729,0.0,0.818759553571,-0.573996349721,-0.0119050763856,0.0,-0.00849336220438,0.00862406667338,-0.999926741453,0.0,0.658229195157,0.256355493714,0.303468657125,1.0,-0.0119,-0.01564,0.596
0.462365840362,0.527574753574,-0.124019096177,-1.38736386535,0.0776874406895,1.90571964409,0.155183681188,-0.00649490819231,-0.074006013276,0.00098324054653,-0.104691377139,0.000318077924333,0.0423541646596,-0.0130631631143,0.574040684552,0.818811989099,0.002228427471,0.0,0.818771388463,-0.573979874094,-0.0118854730892,0.0,-0.00845305808986,0.00864748425372,-0.999926880739,0.0,0.658028218747,0.256103610243,0.303483156491,1.0,-0.01224,-0.0160868571429,0.613
0.462213999366,0.526418494092,-0.124019803691,-1.38915309439,0.0775752579527,1.9063983181,0.154938375794,-0.00711943834533,-0.0687744183555,0.00112420305208,-0.108379749575,-0.0069580259026,0.0389242619489,-0.0196795906706,0.574031124636,0.818818592677,0.00226431804752,0.0,0.818778496819,-0.573970211935,-0.0118623715356,0.0,-0.00841364124563,0.00866351220015,-0.99992707444,0.0,0.657819878524,0.255834004361,0.303504070423,1.0,-0.01258,-0.0165337142857,0.63
0.462073190098,0.52530273467,-0.124029817578,-1.39088131662,0.0774642723753,1.90701763622,0.154717643147,-0.00713053584143,-0.0712128972541,-0.0013786812381,-0.108276079782,-0.0035502525305,0.0327883361855,-0.0163153916196,0.574035783583,0.818815324781,0.00226494399038,0.0,0.818775288953,-0.573974921271,-0.0118559205754,0.0,-0.00840795028703,0.00866036956672,-0.999927149532,0.0,0.657611617581,0.255569174343,0.303520378308,1.0,-0.0129,-0.0169542857143,0.646
0.461906173598,0.524125901939,-0.124033292157,-1.39274909194,0.0773437293722,1.90769008393,0.15445960477,-0.0134476728068,-0.0718766512385,-0.000504507372587,-0.106053381641,-0.0150086227298,0.0403704955946,-0.00866847636856,0.574031487283,0.818818393447,0.00224433972416,0.0,0.818778112572,-0.573970730328,-0.0118638105537,0.0,-0.00842628321923,0.00864798356079,-0.999927102409,0.0,0.657387960112,0.255277253202,0.30351733679,1.0,-0.01324,-0.0174011428571,0.663
0.461738434797,0.522926508217,-0.124037515807,-1.39467836512,0.0772219874951,1.90840395357,0.154206103602,-0.00932771977988,-0.0739295014873,0.000483287024875,-0.119049659991,-0.00115612109258,0.0452506646791,-0.0200250269994,0.574034917208,0.81881603984,0.00222567462442,0.0,0.818775543205,-0.573974261459,-0.0118702963016,0.0,-0.00844227160048,0.0086364587829,-0.999927067155,0.0,0.657158495883,0.254980063632,0.303504207991,1.0,-0.01358,-0.017848,0.68
0.461580430154,0.521678672115,-0.124045802497,-1.39663111188,0.0771084739841,1.90918229969,0.153922975971,-0.0116455066142,-0.0744615014561,-0.000440410724239,-0.115681434146,-0.00546397781781,0.0524206338799,-0.0224696856198,0.574012580306,0.818831531662,0.00228633053971,0.0,0.818791867776,-0.573951734087,-0.0118334738778,0.0,-0.00837753945591,0.00866475855101,-0.999927366758,0.0,0.656935008098,0.254690441735,0.303519336839,1.0,-0.01392,-0.0182948571429,0.697
0.461420378414,0.520494521,-0.12404930096,-1.39852315242,0.0769886078143,1.90988380733,0.153678081482,-0.00999169065459,-0.0760491966063,0.00244791855345,-0.118224839355,-0.00862007967892,0.0474047454079,-0.0171446609026,0.574014223187,0.818830408625,0.00227604727518,0.0,0.818790639851,-0.573953446601,-0.0118353761516,0.0,-0.00838498214911,0.00865744713524,-0.999927367704,0.0,0.656707937521,0.254402491819,0.303511464027,1.0,-0.01424,-0.0187154285714,0.713
0.461252228763,0.519179263566,-0.124055371697,-1.40058113914,0.0768572134291,1.91061211302,0.153399004539,-0.0124852818159,-0.0737793960625,0.000162201805674,-0.120650656253,-0.00880128549295,0.0437814747362,-0.0190084031606,0.574001484956,0.818839382969,0.00225988242149,0.0,0.818799407024,-0.573940776256,-0.011843281141,0.0,-0.00840086809329,0.00864861786102,-0.99992731077,0.0,0.656453079451,0.254089786014,0.303518695342,1.0,-0.01458,-0.0191622857143,0.73
0.461077575834,0.517815018512,-0.124059551525,-1.402679709,0.0767230073751,1.91138238977,0.153111366058,-0.0141950602262,-0.0754195114036,-0.000492299756313,-0.127893011558,-0.00283384438519,0.041050849124,-0.0163085510475,0.573986932964,0.818849510105,0.00228637032777,0.0,0.818809916804,-0.57392616228,-0.0118248591722,0.0,-0.00837073355498,0.00865958407066,-0.999927468581,0.0,0.656198932903,0.253772161314,0.303544149926,1.0,-0.01492,-0.0196091428571,0.747
0.460889892674,0.516461773651,-0.124063461136,-1.40482779775,0.0765842802118,1.91217256277,0.15281314229,-0.0137449391418,-0.0759145306128,0.00092995251268,-0.126791689241,-0.0113139976038,0.0494600684821,-0.0155038848445,0.573975347645,0.818857658772,0.0022763714492,0.0,0.818817977814,-0.57391466099,-0.011824889472,0.0,-0.00837661963565,0.00865129547661,-0.999927491036,0.0,0.655939450209,0.253440802037,0.303539658314,1.0,-0.01526,-0.020056,0.764
0.460717277583,0.515163117954,-0.124074826757,-1.40687871031,0.0764555940046,1.91293702347,0.152525294564,-0.0101272401421,-0.0773145022583,-0.00236068749878,-0.135612030875,-0.00860370815428,0.0399555528785,-0.0173257832294,0.573973276506,0.818859114176,0.00227505817488,0.0,0.818819490178,-0.573912671666,-0.0118167130748,0.0,-0.00837069964747,0.00864550594874,-0.999927590686,0.0,0.655677975738,0.253101989832,0.303537379222,1.0,-0.0156,-0.0205028571429,0.781
0.460510894652,0.513671166932,-0.124078701581,-1.4092648726,0.0763213298483,1.91377608871,0.152204705076,-0.0173197632826,-0.0821094896827,-0.000526975827971,-0.134663442505,-0.00676913199443,0.0461961324765,-0.0120904904662,0.573960962214,0.818867842251,0.00224001862844,0.0,0.8188275555,-0.573900282799,-0.0118594544007,0.0,-0.00842594073654,0.00864121920723,-0.999927163774,0.0,0.655393215488,0.252759852743,0.303523607267,1.0,-0.01594,-0.0209497142857,0.798
0.460336188222,0.512365763176,-0.124079793331,-1.41141579017,0.0761870786043,1.91453215681,0.151911685669,-0.0105010649253,-0.0750793157051,0.00108742761083,-0.138270154338,-0.0122919906698,0.0489568190928,-0.0189323880172,0.57394123878,0.818881877517,0.00216148186251,0.0,0.818840490189,-0.57388079593,-0.0119092649481,0.0,-0.00851201219154,0.00860529282367,-0.999926744609,0.0,0.65511835065,0.252436313101,0.303480018729,1.0,-0.01626,-0.0213702857143,0.814
0.460135294227,0.510924973806,-0.124085117486,-1.41371399437,0.0760537268995,1.91539383771,0.151583339924,-0.0125090100857,-0.0865157908173,-0.000165885368941,-0.133378955643,-0.00588189734852,0.0526947068471,-0.025525711139,0.573925025116,0.818893228688,0.00216620758026,0.0,0.818851835319,-0.573864496816,-0.0119146124477,0.0,-0.00851384975082,0.00861206310998,-0.999926670677,0.0,0.654839753634,0.252084741434,0.303469993333,1.0,-0.0166,-0.0218171428571,0.831
0.459934395565,0.509440632303,-0.124088887366,-1.41607131634,0.0759086742958,1.91628020577,0.151259897407,-0.0102512412178,-0.0875981441647,0.000636264167522,-0.140104242325,-0.00385026751042,0.047372617079,-0.0256094781246,0.573911177248,0.818902911845,0.00217451217835,0.0,0.818861627119,-0.573850617576,-0.0119101318493,0.0,-0.00850556025372,0.00861614825889,-0.999926706031,0.0,0.65455247631,0.251727502783,0.303463905721,1.0,-0.01694,-0.022264,0.848
0.459745224926,0.508032557102,-0.124094614327,-1.41830152492,0.0757611933531,1.91707376892,0.150937830668,-0.0115888728657,-0.0869863481596,0.000331001455463,-0.140343415574,-0.0147301043022,0.0423188239721,-0.0204963446166,0.573874891481,0.81892840675,0.00214952230498,0.0,0.818886833149,-0.573814474625,-0.0119184775471,0.0,-0.00852711698981,0.00860009610056,-0.999926660622,0.0,0.654255001253,0.25136284431,0.303461571723,1.0,-0.01728,-0.0227108571429,0.865
0.45952886886,0.506498657013,-0.124097554082,-1.42071443616,0.0756030009876,1.91795968656,0.15060471379,-0.0128445440576,-0.0940145544353,-0.000786991199208,-0.140926786168,-0.00940279750672,0.0607381843451,-0.0109671330321,0.573870677979,0.818931377564,0.00214259137312,0.0,0.818889759777,-0.573810336283,-0.0119166357852,0.0,-0.00852963010497,0.00859331944013,-0.999926697449,0.0,0.653974847635,0.251009591876,0.30345747963,1.0,-0.0176,-0.0231314285714,0.881
0.459306203584,0.50489358762,-0.12410256147,-1.4231692475,0.0754563146096,1.91891159008,0.15027203023,-0.0171253011934,-0.0939502168495,-0.000970787797414,-0.142741853965,-0.00538824967212,0.0594677925852,-0.0201266301256,0.573871494062,0.818930575363,0.0022288874331,0.0,0.818890098946,-0.573810823953,-0.0118697541363,0.0,-0.00844170737879,0.00863709368179,-0.999927066435,0.0,0.653683427047,0.250631782722,0.303493494706,1.0,-0.01794,-0.0235782857143,0.898
0.459084292529,0.503234734382,-0.1241066862,-1.42565027281,0.0752967473829,1.91984024901,0.149921672836,-0.0122029162449,-0.0923455637897,-0.000406714011618,-0.142250920876,-0.0133792429801,0.053814686843,-0.0159802044867,0.573853553187,0.818942906848,0.00231553846338,0.0,0.818903625934,-0.573792617106,-0.0118165514167,0.0,-0.00834860282765,0.00867733992621,-0.999927499673,0.0,0.653381717059,0.250249088833,0.303551867478,1.0,-0.01828,-0.0240251428571,0.915
0.458868846648,0.501637875569,-0.124104975714,-1.4280110109,0.0751410940487,1.92071094599,0.149589325956,-0.0137895515928,-0.097864126122,0.00780145556677,-0.148220995335,-0.00912222529804,0.0495808793225,-0.0212224914531,0.573835146833,0.818955552457,0.00240296896764,0.0,0.818917463794,-0.573773939529,-0.0117643832126,0.0,-0.00825590493381,0.008718817685,-0.999927908527,0.0,0.653091539528,0.249884307244,0.303618343211,1.0,-0.0186,-0.0244457142857,0.931
0.458626989913,0.499911834712,-0.124105157072,-1.43062006384,0.0749711628264,1.92163160925,0.149227207069,-0.0160910361294,-0.0982622422043,0.00187703955615,-0.154778643594,-0.0103366636305,0.0603766109797,-0.0227678128355,0.573823517295,0.818963613052,0.0024327756763,0.0,0.818925894429,-0.573762182165,-0.0117509425782,0.0,-0.00822791812276,0.0087353983819,-0.999927994497,0.0,0.652761642581,0.249474680584,0.303660588931,1.0,-0.01894,-0.0248925714286,0.948
0.458345749674,0.498015690369,-0.12411311463,-1.43355611834,0.0747969384119,1.92273404531,0.148804976032,-0.0166150940014,-0.105625926235,-0.00131422417304,-0.158443861258,-0.00500982585195,0.0591130573685,-0.0150783982209,0.573816176649,0.818968593305,0.0024870662052,0.0,0.818931534441,-0.573754594068,-0.0117283667067,0.0,-0.00817835578127,0.00876683227436,-0.999928125991,0.0,0.652404150599,0.249009882834,0.303681210742,1.0,-0.01932,-0.025392,0.967
0.458099082735,0.496447917715,-0.124110430018,-1.43607321509,0.074642061081,1.92362754108,0.148423639749,-0.0122481269806,-0.0983685253705,-0.00643199267051,-0.154596678697,-0.0150581116074,0.0650188465691,-0.0221807198487,0.573789459332,0.818987451369,0.00244085231501,0.0,0.818949664948,-0.57372791499,-0.0117674442522,0.0,-0.00823716265865,0.0087511391473,-0.99992778075,0.0,0.652084145794,0.248608445175,0.303653274996,1.0,-0.01964,-0.0258125714286,0.983
0.457825973396,0.494766105511,-0.124113090642,-1.43880571173,0.0744727053928,1.92456529045,0.148039191571,-0.0134707906675,-0.101068032406,-0.00119981977495,-0.167054633486,-0.00882672224962,0.0559657268584,-0.0271645110688,0.573791956698,0.818985981831,0.00234497205216,0.0,0.818946791813,-0.573730610768,-0.0118357656852,0.0,-0.00834810465956,0.00871184222048,-0.999927203827,0.0,0.651731154129,0.248163477799,0.303605720733,1.0,-0.01998,-0.0262594285714,1.0
0.457548583828,0.493025902719,-0.12411919098,-1.44162823964,0.0742899119786,1.92560230513,0.147633466621,-0.0199502682105,-0.11481751057,0.000373203964983,-0.171046490603,-0.0109597231902,0.0559028910848,-0.0249046733035,0.573793395581,0.818985091294,0.00230354668896,0.0,0.818945407144,-0.57373225699,-0.0118517639209,0.0,-0.00838496035232,0.00868711009868,-0.999927110623,0.0,0.651359018158,0.247678193987,0.303568039656,1.0,-0.021884,-0.0287618285714,1.018
0.457217312404,0.490862135958,-0.124122277019,-1.44507621053,0.0740818337718,1.92683587264,0.147145073183,-0.0156487207532,-0.112722224444,-0.000828359294324,-0.186089511693,-0.0142578989373,0.057910414568,-0.0319069337394,0.573773348895,0.818999262713,0.00225802427735,0.0,0.81895878852,-0.573712188777,-0.0118984896157,0.0,-0.0084495608524,0.00867643210842,-0.999926659534,0.0,0.650937407739,0.247160949999,0.303535484114,1.0,-0.0239,-0.0314114285714,1.036
0.456919692976,0.489054548842,-0.124131267045,-1.44803047353,0.0738957347757,1.92788179096,0.14672769671,-0.0243864487735,-0.130444094719,0.00185797262267,-0.202357816816,-0.0140306831732,0.0725843879191,-0.0195303731971,0.573778349784,0.818996002004,0.00216816114912,0.0,0.818954273413,-0.573717467342,-0.0119546069691,0.0,-0.00854702794673,0.00863508574972,-0.99992618908,0.0,0.650559261003,0.246676810702,0.303477294878,1.0,-0.02558,-0.0336194285714,1.051
0.456555346946,0.486758298518,-0.124161834614,-1.45155140791,0.0736788156277,1.9292360656,0.146221664357,-0.0234815234275,-0.141336814659,-0.000928259420517,-0.20221060939,-0.0118340107121,0.0808204920164,-0.0283218179208,0.573800571559,0.818980156179,0.00227041055034,0.0,0.818939907513,-0.573739424827,-0.0118847457962,0.0,-0.00843090924616,0.00867897083388,-0.999926794938,0.0,0.650138472604,0.246091807931,0.303515188074,1.0,-0.027484,-0.0361218285714,1.068
0.456180609818,0.484472231928,-0.124184034353,-1.45505705639,0.0734608545293,1.93053787432,0.145676521096,-0.0242954474079,-0.150335447716,-0.0019058980097,-0.228411832379,-0.009617890505,0.0847627856784,-0.0337676636323,0.573790951453,0.818986711629,0.0023360453132,0.0,0.818947364638,-0.573729597639,-0.0118452373155,0.0,-0.0083609945949,0.00870995583599,-0.999927112563,0.0,0.649709182727,0.245503282121,0.303547244665,1.0,-0.029276,-0.0384770285714,1.084
0.455757991281,0.481882501937,-0.124232333683,-1.4590992908,0.0732069465497,1.93190598768,0.145066510365,-0.0233579451671,-0.150526298136,-0.00134984860809,-0.245120479446,-0.0126471472434,0.0818191324069,-0.03788974539,0.573801131827,0.818979797712,0.00225808652001,0.0,0.818939391155,-0.57374003659,-0.0118907917979,0.0,-0.00844292617116,0.00867235276148,-0.999926750965,0.0,0.649186458438,0.244808140672,0.30353988705,1.0,-0.03118,-0.0409794285714,1.101
0.45535377425,0.479442971443,-0.124256369606,-1.46285613154,0.0729839728461,1.93327999765,0.144509394618,-0.0281670969949,-0.169130623975,-0.00261615597051,-0.249153441671,-0.00690238657092,0.0973464055712,-0.0388129064536,0.573816323032,0.818969013715,0.0023084404665,0.0,0.81892917909,-0.573754940478,-0.0118749658132,0.0,-0.00840091166103,0.00870466606704,-0.999926824059,0.0,0.648716908993,0.24417640621,0.303562467009,1.0,-0.03286,-0.0431874285714,1.116
0.454869132727,0.476556135367,-0.124274412202,-1.46725690873,0.0726998435435,1.93491125321,0.143886982375,-0.025097524707,-0.174929950654,-0.00179934227857,-0.261692377104,-0.0175915860151,0.100554160364,-0.0340589064005,0.573852652853,0.818943295188,0.00239978779994,0.0,0.818904745925,-0.5737910131,-0.0118168222823,0.0,-0.00830049051571,0.00874648083042,-0.999927297822,0.0,0.648170460756,0.243433724532,0.303608788385,1.0,-0.034764,-0.0456898285714,1.133
0.454290434253,0.473149505876,-0.12428900509,-1.47251432211,0.0723780216848,1.93678792549,0.143119154981,-0.0310633481884,-0.180846529406,-0.00238067861648,-0.285052225626,-0.0202631591591,0.097230128715,-0.0413060016959,0.573873872105,0.818928348115,0.00242620468765,0.0,0.818889942633,-0.573811917934,-0.011827577627,0.0,-0.00829391312673,0.00877450132429,-0.999927106909,0.0,0.647495009905,0.242548923014,0.303626111167,1.0,-0.036892,-0.0484866285714,1.152
0.45375001541,0.469940580194,-0.124284358507,-1.47742850026,0.0720743883199,1.93854526447,0.142372101652,-0.0341894733529,-0.189373260603,0.00101103130408,-0.290566065089,-0.01566588543,0.117318268313,-0.0435350075163,0.573853232499,0.818942655421,0.00247822200109,0.0,0.818904689441,-0.573790831062,-0.0118295689954,0.0,-0.0082659167285,0.00881803379971,-0.999926955783,0.0,0.646856476628,0.241733708946,0.303656551518,1.0,-0.038796,-0.0509890285714,1.169
0.453197162539,0.466557627353,-0.124287537277,-1.48249450096,0.0717413609875,1.94047129704,0.141547337489,-0.0340809081971,-0.199569994144,-0.0021648575629,-0.300551846154,-0.0184975640638,0.105053549393,-0.0500838575898,0.573785148102,0.818989716629,0.00268230760877,0.0,0.818954546085,-0.573722161937,-0.0117080848582,0.0,-0.00805005676854,0.00891478485179,-0.999927858996,0.0,0.646178925508,0.240844217294,0.303751342311,1.0,-0.040812,-0.0536386285714,1.187
0.452708462376,0.463686236753,-0.124297808724,-1.48696409083,0.0714415217264,1.94198616622,0.140876002274,-0.032756359324,-0.202871202199,-0.00482130149578,-0.323833494446,-0.0176921079446,0.113614845712,-0.0534342731529,0.5737671611,0.819002620135,0.00258842730564,0.0,0.818966085516,-0.573704357381,-0.0117731897912,0.0,-0.00815743831826,0.0088750747344,-0.999927341985,0.0,0.645572390481,0.240085683555,0.303721938484,1.0,-0.04238,-0.0556994285714,1.201
0.45207593345,0.460105401914,-0.124300138839,-1.49256604056,0.0710516727035,1.94394636651,0.140048967628,-0.0377004157832,-0.208071320509,-0.00150965012678,-0.334431259215,-0.0261375134848,0.113836705194,-0.0538193083843,0.573763678894,0.819005234324,0.00253255469112,0.0,0.818968033603,-0.573701147469,-0.011794076045,0.0,-0.00820663848578,0.00884126401786,-0.999927238921,0.0,0.644872270846,0.239187857719,0.303700892628,1.0,-0.044172,-0.0580546285714,1.217
0.45140644634,0.456408920395,-0.124299325334,-1.49835175021,0.0706729953313,1.9460201946,0.139161618273,-0.0410978240388,-0.221154218474,0.00115679387004,-0.353483264864,-0.0233837944938,0.127774234784,-0.0500385255008,0.573748446653,0.819015958469,0.0025152808259,0.0,0.818978400422,-0.573685839182,-0.0118188182893,0.0,-0.00823697838515,0.00884115952188,-0.999926990377,0.0,0.644108358189,0.238203203931,0.30366967503,1.0,-0.046076,-0.0605570285714,1.234
0.450692193603,0.452551785368,-0.124353071903,-1.5043441639,0.0702518128373,1.94810609312,0.138199362413,-0.0430945980815,-0.233898705183,-0.00522590844358,-0.350779407964,-0.0267694070427,0.132855584716,-0.060241206882,0.573742503632,0.819020331082,0.00244616066306,0.0,0.818982099931,-0.57368039977,-0.0118264878376,0.0,-0.00828297903025,0.0087888897511,-0.999927071178,0.0,0.643317513518,0.237130739163,0.303649631634,1.0,-0.04798,-0.0630594285714,1.251
0.449864516547,0.447968412583,-0.124408740798,-1.51123703548,0.0698021701641,1.95060514912,0.137160944731,-0.0457578773051,-0.248481057709,0.000670980104898,-0.369503520628,-0.0190531327744,0.127340833661,-0.0495671069121,0.573799908565,0.818979656865,0.00259489359502,0.0,0.818943503064,-0.573737400422,-0.0117337567643,0.0,-0.00812107693886,0.00885807035455,-0.999927788742,0.0,0.642422063407,0.235911905703,0.303730645813,1.0,-0.050108,-0.0658562285714,1.27
0.449131115985,0.444017565944,-0.124420963572,-1.51735021601,0.0693792938336,1.95262383298,0.136247915521,-0.0505470060178,-0.242032557365,-0.00292612431565,-0.380972220635,-0.0289324456004,0.131135899172,-0.0502242204987,0.573817943127,0.818967423211,0.0024647039476,0.0,0.818929380414,-0.57375570302,-0.011824129925,0.0,-0.00826959848557,0.0088034858839,-0.999927053528,0.0,0.641570950574,0.23483685237,0.303702412421,1.0,-0.0519,-0.0682114285714,1.286
0.448324040996,0.439720885165,-0.124434524783,-1.52396685084,0.0689144307274,1.95495311825,0.135166195774,-0.0463770074135,-0.251076074062,-0.000158062803819,-0.392642020324,-0.0191340251555,0.139255442197,-0.0648090264418,0.57376741713,0.819002853315,0.00245442509198,0.0,0.818964745974,-0.573705296014,-0.0118205362863,0.0,-0.00827309555497,0.00879249547882,-0.999927121301,0.0,0.640675293538,0.233674366836,0.303694110607,1.0,-0.053804,-0.0707138285714,1.303
0.447562630207,0.435825718167,-0.124440198721,-1.52992144302,0.0685377758225,1.9570990988,0.134190473008,-0.0537621518776,-0.26697989367,-0.00127184850448,-0.392685128546,-0.0278832681122,0.138451459447,-0.0737370413669,0.57375440732,0.819011722927,0.00253469711841,0.0,0.818974429303,-0.57369173899,-0.0118076104135,0.0,-0.00821659474562,0.00885069104387,-0.99992707376,0.0,0.639878010962,0.23262087276,0.303706333023,1.0,-0.055484,-0.0729218285714,1.318
0.446653716236,0.431256233254,-0.124473388961,-1.53680386408,0.0680359709726,1.95960653646,0.133097334074,-0.0567708157223,-0.267527375879,-0.00241069886352,-0.421701301492,-0.0246230496699,0.141805663019,-0.0661451022352,0.573786930365,0.818988523171,0.00266540000312,0.0,0.818953381981,-0.573724278997,-0.0116857491062,0.0,-0.0080414445303,0.00888813957976,-0.999928165492,0.0,0.638971443829,0.231363001969,0.30376448703,1.0,-0.057388,-0.0754242285714,1.335
0.445663213302,0.426306580778,-0.124524789035,-1.54453936507,0.0674695080384,1.96207772794,0.131857603205,-0.056077089202,-0.277608092984,-0.00546197083746,-0.426372368537,-0.0293306200899,0.140316685562,-0.0794104127656,0.573792426421,0.81898557701,0.00237127235416,0.0,0.818946530032,-0.573730770564,-0.0118461284172,0.0,-0.0083414970018,0.00873933229362,-0.999927019086,0.0,0.637863408055,0.229938449403,0.303668393462,1.0,-0.059404,-0.0780738285714,1.353
0.444683229836,0.421456766596,-0.124576784233,-1.55191023323,0.0669376025171,1.96457805569,0.130626746068,-0.0584879802449,-0.283436105011,-0.000790748649652,-0.436465502042,-0.033016646311,0.153606465296,-0.0724572209746,0.573787771401,0.818988961143,0.00232847981045,0.0,0.818949492714,-0.573726423452,-0.0118518487091,0.0,-0.00837078403171,0.00870752086411,-0.999927051867,0.0,0.63683887748,0.228570531609,0.303674006109,1.0,-0.061308,-0.0805762285714,1.37
0.443650463048,0.416445317949,-0.12459214715,-1.55930938288,0.0664340025008,1.96729797483,0.129461946987,-0.056263082404,-0.298446595709,-0.00100925141607,-0.438222527977,-0.0303263328001,0.165196240133,-0.0723956544361,0.573860224356,0.818937375612,0.00260089006307,0.0,0.818901581551,-0.573797994866,-0.0116964833358,0.0,-0.00808645755326,0.00884218977692,-0.999928209865,0.0,0.635848382935,0.227209820942,0.303787270432,1.0,-0.063212,-0.0830786285714,1.387
0.442716378251,0.411973401332,-0.124600289496,-1.56607066213,0.0659602798324,1.96967479585,0.128273252366,-0.0640903975658,-0.299679972237,-0.000292564755192,-0.455415674233,-0.0320551683947,0.150294312382,-0.0780593029743,0.573803765115,0.818976726767,0.00266590607787,0.0,0.818941743537,-0.573741277232,-0.0116668073788,0.0,-0.00802545787579,0.0088778506985,-0.999928385332,0.0,0.634907030208,0.225967963822,0.303803680427,1.0,-0.064892,-0.0852866285714,1.402
0.441555982469,0.406479717578,-0.124654666975,-1.57453488244,0.0653555653516,1.97236329204,0.126914409555,-0.066948176,-0.310455706207,-0.00651841191269,-0.481943341017,-0.0347180480619,0.154032572615,-0.0807372828612,0.573854346225,0.818942067461,0.00241378609043,0.0,0.818903485811,-0.57379242657,-0.0118354990744,0.0,-0.00830773585302,0.00876867925129,-0.999927043233,0.0,0.633664131083,0.224374955958,0.303723648393,1.0,-0.066908,-0.0879362285714,1.42
0.440410827888,0.40117998573,-0.12468911039,-1.58254633907,0.0648082939855,1.97513615845,0.125557250717,-0.0661423352718,-0.325332805196,-0.000631782106757,-0.472475395729,-0.0272626622479,0.170685631261,-0.0855621937436,0.573873956632,0.818928181882,0.00246205597505,0.0,0.818890049623,-0.573811660901,-0.0118326389436,0.0,-0.00827748443591,0.00880676602508,-0.999926959394,0.0,0.632530029687,0.22286984914,0.303727223781,1.0,-0.068812,-0.0904386285714,1.437
0.43927896613,0.395991872622,-0.124690787282,-1.59009445894,0.0642489478307,1.97786906567,0.124231539883,-0.0732151072801,-0.325954379013,0.000900459828732,-0.478841415675,-0.0377559460461,0.164816760068,-0.0897877581651,0.573865516128,0.818933075215,0.00278111835572,0.0,0.818899500444,-0.573802528463,-0.0116195268201,0.0,-0.0079199545705,0.00894567441988,-0.999928622067,0.0,0.631421999121,0.221350786245,0.303883372996,1.0,-0.070716,-0.0929410285714,1.454
0.43798667629,0.390112285142,-0.124710356879,-1.599020363,0.0635713844996,1.98074189128,0.122760414585,-0.0717930940556,-0.329391754107,0.000546172188348,-0.506226182876,-0.0366143222298,0.162755919609,-0.0851890620084,0.573875166305,0.818926960165,0.00258346946972,0.0,0.818890633211,-0.573812663002,-0.0117433180276,0.0,-0.00813464885556,0.00885494802118,-0.999927706079,0.0,0.630156356869,0.219749815115,0.30381578558,1.0,-0.07262,-0.0954434285714,1.471
0.436878495413,0.385134445943,-0.124717924807,-1.6066056951,0.0630003365793,1.98320714281,0.121391744418,-0.0739761503009,-0.337586613805,0.00157525604582,-0.498663809861,-0.0405377195117,0.166197412416,-0.0908068022468,0.573792834487,0.818985066277,0.00244769422541,0.0,0.818946783977,-0.573730642931,-0.0118347487256,0.0,-0.00828832486369,0.00879539466936,-0.999926969685,0.0,0.629018060278,0.218315623786,0.303757941746,1.0,-0.0743,-0.0976514285714,1.486
0.435596465264,0.379259709957,-0.124717222773,-1.61509635156,0.0624074767231,1.98621677227,0.119893894587,-0.0766633616461,-0.337933289549,-0.000343464573487,-0.507761999977,-0.0411478944139,0.183825586453,-0.0842939410977,0.573766590804,0.819002380455,0.00278334113642,0.0,0.818968415979,-0.573703135943,-0.0116701473059,0.0,-0.00796122016361,0.00897558192329,-0.999928026361,0.0,0.627795066298,0.216719058029,0.303907561779,1.0,-0.076204,-0.100153828571,1.503
0.434283770396,0.373784508902,-0.124735870572,-1.62343193807,0.0617518027852,1.98894116932,0.118387581421,-0.0854187102713,-0.35096961431,-0.00235912063311,-0.531011745186,-0.0504829419937,0.168713578105,-0.0949969358016,0.573739353141,0.81902195094,0.00263541950544,0.0,0.818986105172,-0.573676467427,-0.0117395551911,0.0,-0.00810323125603,0.00889398799459,-0.999927614691,0.0,0.626546321651,0.215081657642,0.303833771792,1.0,-0.077996,-0.102509028571,1.519
0.432772249619,0.367416564391,-0.124809586113,-1.6329624787,0.0610276674793,1.99195822807,0.116773490208,-0.0845859866296,-0.359440707598,-0.00490261494564,-0.522221804821,-0.0404673236441,0.165925443942,-0.0977578179514,0.573846234641,0.818947528829,0.00248815489735,0.0,0.81890963761,-0.573783738271,-0.011831061946,0.0,-0.00826151518549,0.00882695432107,-0.999926913451,0.0,0.625097621827,0.213176205796,0.303803982557,1.0,-0.080012,-0.105158628571,1.537
0.431043755784,0.360178152115,-0.124844533474,-1.64348993366,0.060195543754,1.99561640277,0.114785637856,-0.0891019773802,-0.360935821566,0.000222834169149,-0.537958091133,-0.0333003714928,0.182301934507,-0.104872113933,0.573791248012,0.818985210801,0.00275228919003,0.0,0.818951352656,-0.573728469366,-0.0116220619318,0.0,-0.00793938303463,0.00892280016695,-0.999928672373,0.0,0.623553481512,0.211085780728,0.303920122402,1.0,-0.082252,-0.108102628571,1.557
0.429750682454,0.355088683357,-0.124870161325,-1.65115496941,0.0596400929913,1.99800945796,0.113371198018,-0.0890132975773,-0.367302379861,-0.00407681895965,-0.549889878008,-0.0350507214938,0.177279116252,-0.102594158494,0.573816894246,0.818967721406,0.0026057769244,0.0,0.818931391493,-0.573753997923,-0.0117674464567,0.0,-0.00814224064668,0.00888648319393,-0.999927364529,0.0,0.622361751057,0.209535851649,0.303854784748,1.0,-0.08382,-0.110163428571,1.571
0.428053061518,0.348416859775,-0.124936042007,-1.66112706958,0.05888223072,2.00120130004,0.111525584929,-0.0948872883294,-0.383600954809,-0.00421772607263,-0.552604090025,-0.0396090295151,0.189666246876,-0.108442564902,0.573864549814,0.81893466803,0.00249697154233,0.0,0.818896692289,-0.573801804594,-0.0118508777437,0.0,-0.00827248712486,0.00884573066575,-0.999926656813,0.0,0.620823316352,0.207496506706,0.303800440467,1.0,-0.085836,-0.112813028571,1.589
0.426609277342,0.342648674733,-0.124949393813,-1.66933482054,0.0582530873979,2.00401042003,0.109999575663,-0.0953801879835,-0.38723615536,-0.00117308377749,-0.558806956437,-0.0396692607602,0.186657402404,-0.102352166849,0.573897315127,0.818910748098,0.00279378599016,0.0,0.818876839166,-0.573833717071,-0.0116762293175,0.0,-0.00795877431703,0.00898889636119,-0.999927926229,0.0,0.619589005638,0.205831634955,0.303941793823,1.0,-0.087516,-0.115021028571,1.604
0.425027015479,0.336516876192,-0.124949096267,-1.67843162571,0.0575094975716,2.00680522179,0.108230791401,-0.0956437764517,-0.386818752333,0.000264462706324,-0.573746720406,-0.0424822628426,0.16890642766,-0.11363078807,0.573819746363,0.818965652019,0.00262800272217,0.0,0.818929351619,-0.573756484673,-0.0117881403943,0.0,-0.00814640532409,0.00891658796843,-0.99992706261,0.0,0.618130096056,0.203983511107,0.303891230061,1.0,-0.089308,-0.117376228571,1.62
0.423309378763,0.329861869767,-0.124945380148,-1.68816466391,0.0566904629465,2.00987436422,0.106374499464,-0.100712582044,-0.404556097795,0.000884779006368,-0.563948704256,-0.0537861966036,0.189222437012,-0.112920914277,0.573768143288,0.819001951677,0.00258220792683,0.0,0.81896515814,-0.573705168853,-0.011798130563,0.0,-0.00818142344034,0.0088843008409,-0.999927064095,0.0,0.61657591427,0.202001834276,0.303894129753,1.0,-0.091212,-0.119878628571,1.637
0.421534466956,0.323127360594,-0.124947023084,-1.69788247697,0.0559400529892,2.0131278917,0.104434379,-0.109004512221,-0.388284362665,-0.00128944641164,-0.58096893757,-0.042971868269,0.187904076992,-0.108648985457,0.57371551707,0.819038099624,0.00280066749182,0.0,0.819004115123,-0.573651732443,-0.0116917141144,0.0,-0.0079695049886,0.00900164931911,-0.999927726038,0.0,0.615057570137,0.200012027362,0.303960138473,1.0,-0.093116,-0.122381028571,1.654
0.419673601846,0.316291433616,-0.124988286716,-1.70792185771,0.05512070777,2.016165541,0.102516950382,-0.111303690013,-0.39967302158,-0.00600636466552,-0.599314312979,-0.0344685457814,0.178786442552,-0.118369971236,0.573759613124,0.819007741906,0.0026404444296,0.0,0.818971375881,-0.573696064264,-0.011809243731,0.0,-0.00815720651607,0.00893828761157,-0.999926780818,0.0,0.613416355541,0.197897564512,0.303910811681,1.0,-0.09502,-0.124883428571,1.671
0.417877419278,0.309707249733,-0.125036226749,-1.71729975492,0.054312336487,2.01917109528,0.100551279822,-0.114289698373,-0.421188745891,0.00150263974774,-0.584322996181,-0.0553582131381,0.194033904765,-0.112876856955,0.573690016006,0.819056066627,0.00276986595155,0.0,0.819021888361,-0.573626573842,-0.0116810560012,0.0,-0.0079787246818,0.00897005874788,-0.999927936403,0.0,0.611920396415,0.195894365694,0.303995425965,1.0,-0.096812,-0.127238628571,1.687
0.415629077502,0.30185826698,-0.12505693248,-1.72868251753,0.0533754336441,2.02269144699,0.0982114853035,-0.121912214774,-0.408325620372,-0.00343796143871,-0.604507290209,-0.0490094479737,0.179197180561,-0.118711694829,0.573675253129,0.819066512316,0.00273847604575,0.0,0.819031702234,-0.573611671741,-0.0117246611492,0.0,-0.00803261014561,0.00896921933519,-0.999927512512,0.0,0.610056656681,0.193450945309,0.303980111547,1.0,-0.09894,-0.130035428571,1.706
0.413665558933,0.295205862999,-0.125130106649,-1.73841259762,0.0525834878368,2.02556761031,0.0963032566089,-0.12441215325,-0.417625819086,-0.00458256510704,-0.600957162657,-0.042721381037,0.188692263245,-0.121099434649,0.573809163135,0.818973288271,0.00255818331255,0.0,0.818935675354,-0.573745725272,-0.011872205638,0.0,-0.00825543149302,0.00890753945821,-0.999926249076,0.0,0.608433274212,0.191306454708,0.303907687768,1.0,-0.100732,-0.132390628571,1.722
0.411541262725,0.287901389895,-0.125202122504,-1.74858979004,0.0517288451484,2.02892853933,0.0940853076055,-0.126828694867,-0.425500913749,-0.00388469396019,-0.611902124083,-0.0531588584497,0.194588369825,-0.130450796948,0.573804872883,0.818975053987,0.00292843031264,0.0,0.818942889711,-0.573740829559,-0.0116082208208,0.0,-0.00782683392736,0.00905924527358,-0.999928332805,0.0,0.606810218875,0.189052202403,0.304068816753,1.0,-0.102636,-0.134893028571,1.739
0.409471253062,0.281055224893,-0.125228039907,-1.75856208467,0.0508618301968,2.03177033663,0.092001575347,-0.136294857112,-0.443990921229,-0.0044107911359,-0.635203067544,-0.0555221482462,0.180188713111,-0.133186507853,0.573808044645,0.818973718871,0.00266882012468,0.0,0.818937738586,-0.573744403376,-0.0117935073045,0.0,-0.00812750840529,0.00895297925612,-0.999926891212,0.0,0.605090907387,0.186853388665,0.303976734518,1.0,-0.104428,-0.137248228571,1.755
0.407211638519,0.273601898862,-0.125285052878,-1.76909819173,0.0499407083371,2.03498400863,0.0897474243372,-0.128759853694,-0.454027584807,-0.00255901405141,-0.613314166356,-0.0499492575118,0.202270555595,-0.13983265973,0.573840495625,0.818950743472,0.00274084820414,0.0,0.818915902364,-0.573776815387,-0.0117327694995,0.0,-0.00803607986999,0.00897743528843,-0.999927410903,0.0,0.603321435792,0.184492808713,0.304022926451,1.0,-0.106332,-0.139750628571,1.772
0.404999004115,0.266575894658,-0.125358181875,-1.77904255341,0.0490855833501,2.0380563634,0.0875266988666,-0.135603314939,-0.439449545572,-0.00553089439861,-0.625138126895,-0.0476485184146,0.180032063025,-0.133546044688,0.573872261889,0.818928145158,0.00284024710775,0.0,0.81889475399,-0.573808410885,-0.0116634637137,0.0,-0.00792193354753,0.00901937541034,-0.999927944322,0.0,0.601656741837,0.182219569356,0.304051161938,1.0,-0.108124,-0.142105828571,1.788
0.402580263004,0.259028084969,-0.125456420418,-1.78987950109,0.0481123440459,2.04109324838,0.0851724825311,-0.143999700742,-0.445868777272,-0.00380485902715,-0.631386759978,-0.0564094178519,0.175804442459,-0.149149795939,0.573954769672,0.818871137882,0.00259399634975,0.0,0.818834303295,-0.573891516139,-0.0118177135194,0.0,-0.00818866967608,0.00890705772336,-0.999926802327,0.0,0.599760168073,0.179714913904,0.303972276595,1.0,-0.110028,-0.144608228571,1.805
0.400129341541,0.251277508022,-0.125464243594,-1.80053398454,0.0471496596628,2.04434095175,0.0827961527425,-0.142673806354,-0.454748119685,0.00269001335641,-0.632068853701,-0.0510446004117,0.193189042181,-0.143241974114,0.573963263829,0.818864352447,0.00284446276626,0.0,0.818831148757,-0.573899538001,-0.0116454716095,0.0,-0.00790377787321,0.0090133811438,-0.999928142046,0.0,0.597932795991,0.177289996918,0.304105397369,1.0,-0.111932,-0.147110628571,1.822
0.397632919151,0.243585501727,-0.125472835162,-1.81152114949,0.0462012725216,2.04748029952,0.0802524693016,-0.144879135725,-0.454506651843,-0.00293286374913,-0.654006364994,-0.0609592647966,0.175092769792,-0.146255846263,0.573876420684,0.818925649759,0.00271677195007,0.0,0.81889008492,-0.573812364989,-0.0117959953661,0.0,-0.00810128180668,0.00899435438117,-0.999926732727,0.0,0.595967258739,0.174812494673,0.304021827,1.0,-0.113836,-0.149613028571,1.839
0.395034866957,0.23565114562,-0.125482342396,-1.82239279726,0.0452350352575,2.05066129755,0.0777098084044,-0.152887612013,-0.474835804356,-0.000760064380836,-0.634163817526,-0.0525436000835,0.199884340779,-0.150808231264,0.573853454136,0.818941087256,0.00290786556487,0.0,0.818907949757,-0.573788659398,-0.0117085897147,0.0,-0.00792029739729,0.00910046409088,-0.999927222573,0.0,0.594046578732,0.17230124619,0.304128530758,1.0,-0.11574,-0.152115428571,1.856
0.392572061766,0.228203577662,-0.125446659643,-1.83278623537,0.044255249777,2.05364960048,0.0752730685531,-0.155833758564,-0.472487030741,-0.000887382834021,-0.659898013492,-0.065283757476,0.184754340725,-0.160344768181,0.573738085841,0.819021962758,0.00289487083658,0.0,0.81898866124,-0.57367335668,-0.0117132189021,0.0,-0.00793282599694,0.00909136121974,-0.999927206062,0.0,0.592043906958,0.169782419243,0.304119844982,1.0,-0.117644,-0.154617828571,1.873
0.389787379792,0.220217717734,-0.125499216564,-1.84399492892,0.0431903706781,2.05666518916,0.072577511822,-0.16683498204,-0.472044678168,-0.00284671257198,-0.641067938316,-0.0573366809487,0.184737021739,-0.156320021737,0.57372975666,0.819028448415,0.00270442429049,0.0,0.818992360503,-0.573665364099,-0.0118452679323,0.0,-0.00815033378951,0.00901105901262,-0.999926183713,0.0,0.590105998511,0.167266083112,0.304058800616,1.0,-0.119436,-0.156973028571,1.889
0.386951274359,0.212066219095,-0.125575908549,-1.85503331421,0.0422108299589,2.0599414,0.069882971051,-0.167309466435,-0.477378322445,-0.0055149447283,-0.658506522736,-0.0641719247998,0.181496593757,-0.162636190549,0.573798227494,0.818979392558,0.00301588967841,0.0,0.818947523146,-0.57373291573,-0.0116723023708,0.0,-0.00782921066323,0.00916757829763,-0.999927326844,0.0,0.588141120208,0.164607219102,0.304178048034,1.0,-0.12134,-0.159475428571,1.906
0.383654083819,0.202965631514,-0.125606375444,-1.8677633855,0.0409670004057,2.06322621679,0.0667220409221,-0.173672889268,-0.473287561488,-0.00142527520465,-0.662152418344,-0.065462371914,0.171367241931,-0.161757030402,0.573748373667,0.819015433757,0.00269627223512,0.0,0.818978840816,-0.573683569026,-0.0118982278859,0.0,-0.00819818303441,0.00903495275953,-0.999925576942,0.0,0.585734236992,0.161534847106,0.304067403908,1.0,-0.123468,-0.162272228571,1.925
0.380805609532,0.195096409539,-0.125686551933,-1.87827363223,0.0399733120492,2.06627477848,0.0640102462847,-0.178090010329,-0.490066351487,-0.000513967361691,-0.657886597658,-0.0596853066993,0.192318621176,-0.168812318117,0.573774102898,0.818996347499,0.0030014209174,0.0,0.818964234441,-0.573708777937,-0.0116862194845,0.0,-0.00784918066835,0.00916348291029,-0.999927207823,0.0,0.583828734497,0.158934133082,0.304202507669,1.0,-0.12526,-0.164627428571,1.941
0.377623111249,0.186785789245,-0.12578445701,-1.88975065383,0.0389000998476,2.06928866723,0.0610605517126,-0.193623778683,-0.495852766619,-0.00546490309025,-0.676058774707,-0.066363453198,0.175582720643,-0.171324677914,0.573871146685,0.818928820504,0.00287068830973,0.0,0.818894394936,-0.573805561682,-0.0118276889775,0.0,-0.00803897324078,0.00913853594772,-0.999925928292,0.0,0.581662191897,0.156047278102,0.304133808624,1.0,-0.127164,-0.167129828571,1.958
0.374374029219,0.178307245551,-0.125916769857,-1.90108810036,0.0377908927175,2.07234782092,0.0580677442319,-0.190583753987,-0.503046533994,-0.00370060207183,-0.659989948933,-0.0670579451293,0.192365998492,-0.166674118422,0.573985848354,0.818847963993,0.00300077576395,0.0,0.818815499195,-0.573920096929,-0.0117323280089,0.0,-0.00788493919515,0.00919144891433,-0.999926669812,0.0,0.579542322669,0.153132929071,0.304214521063,1.0,-0.129068,-0.169632228571,1.975
0.37131906655,0.170357013647,-0.125917280615,-1.91189644145,0.0366654228032,2.0751990717,0.0551998603342,-0.191966207595,-0.496792875707,0.00490224198436,-0.672876805842,-0.0674744768255,0.16859856787,-0.185075263298,0.573908842815,0.818902150413,0.00294195340214,0.0,0.818869112578,-0.573843527397,-0.0117358182768,0.0,-0.00792241843708,0.00914454071911,-0.999926803652,0.0,0.577456015436,0.150455539705,0.304186484394,1.0,-0.13086,-0.171987428571,1.991
0.367341999054,0.160221302573,-0.125942327432,-1.9254840694,0.0353242645739,2.07866896064,0.0514220439987,-0.194851439985,-0.515548886656,-0.00042782054077,-0.659043876752,-0.0708396886339,0.184389397063,-0.185149921028,0.573815114963,0.818967812145,0.00294676269269,0.0,0.818934400896,-0.573749292304,-0.0117874301838,0.0,-0.0079629762109,0.00917718763566,-0.999926182394,0.0,0.574801158383,0.147028493321,0.304199480061,1.0,-0.1331,-0.174931428571,2.011
0.364896939949,0.154098088595,-0.125963683373,-1.93357546496,0.034442377459,2.08087876047,0.049196666322,-0.207855830338,-0.507399343999,-0.000543366177954,-0.684455153505,-0.067125079245,0.17790769528,-0.195215424788,0.573805996641,0.818973704602,0.00308160522483,0.0,0.818942841773,-0.5737406473,-0.0116206043909,0.0,-0.00774907644508,0.00919180799494,-0.999927728628,0.0,0.573248650178,0.14494988273,0.304257023072,1.0,-0.134444,-0.176697828571,2.023
0.361126493371,0.144876003723,-0.12598814773,-1.94606744855,0.0331943106189,2.08377201493,0.0457212546164,-0.211053383735,-0.514226959789,-0.00286096507764,-0.690081322127,-0.0709647926839,0.159890576084,-0.200430209639,0.573780172015,0.818992860247,0.00278495376644,0.0,0.818956900919,-0.573714447428,-0.0119194862079,0.0,-0.00816436308019,0.00912009754263,-0.999925080692,0.0,0.570706548948,0.141758686607,0.304144673355,1.0,-0.13646,-0.179347428571,2.041
0.357248924995,0.135488707504,-0.126086151553,-1.95825471314,0.031976372524,2.08698639433,0.0421352637071,-0.215071463548,-0.513664571428,-0.00575937598774,-0.678824569059,-0.0731453171489,0.186230897748,-0.208279221337,0.573805198278,0.818974165086,0.00310777281074,0.0,0.818942753133,-0.573738707521,-0.0117221791689,0.0,-0.00781726284869,0.00927151386937,-0.999926462012,0.0,0.56832452371,0.138536647171,0.30427296447,1.0,-0.138476,-0.181997028571,2.059
0.353691658229,0.127113860916,-0.126158529051,-1.96936596388,0.0307599066654,2.08957457982,0.0388680023078,-0.227212764157,-0.521639452853,-0.00725971760712,-0.706665335666,-0.0713841217002,0.162826946375,-0.193377032618,0.573776945546,0.818994572517,0.00294174261928,0.0,0.818960886352,-0.573710904593,-0.0118157301206,0.0,-0.00798946284181,0.0091889425965,-0.999925863161,0.0,0.566053227162,0.135587476658,0.304231332562,1.0,-0.140268,-0.184352228571,2.075
0.349524812737,0.117523870014,-0.126306477142,-1.98170549061,0.0294468047379,2.09264060112,0.0351875277438,-0.235065033836,-0.533807051723,-0.0108300255802,-0.692716541765,-0.0621637121575,0.178972612921,-0.207829089815,0.573937018777,0.818881597891,0.00315816621219,0.0,0.818851250625,-0.573870831489,-0.0116466741087,0.0,-0.00772501636462,0.00927070425895,-0.999927186431,0.0,0.563583781492,0.132194732169,0.30434477811,1.0,-0.142284,-0.187001828571,2.093
0.346208578206,0.110143932911,-0.12635006773,-1.99143011402,0.0283782802085,2.09492471631,0.032129863741,-0.234686570628,-0.532573936364,-0.00101077967569,-0.693628273387,-0.0760196251681,0.154232110932,-0.212158761879,0.573877244677,0.818923800345,0.00307638940404,0.0,0.818892325102,-0.573811258279,-0.0116938728508,0.0,-0.00781127431206,0.00923025691426,-0.999926890503,0.0,0.56157732027,0.129552187355,0.304301236735,1.0,-0.143852,-0.189062628571,2.107
0.342166438208,0.101014183472,-0.126357078028,-2.00323561179,0.0270550496136,2.09760244073,0.0284728026491,-0.237466302,-0.547945422745,0.00163388168539,-0.673514891097,-0.0725211261031,0.166262066952,-0.216549761809,0.573801339991,0.818977130517,0.00303789674785,0.0,0.818945170521,-0.573735512149,-0.0117096831825,0.0,-0.00784716456779,0.00920708003599,-0.999926823165,0.0,0.559095668669,0.126379413043,0.304315498858,1.0,-0.145756,-0.191565028571,2.124
0.338020304782,0.0918519753735,-0.126356754697,-2.01505206629,0.0258537515279,2.10037349856,0.0246849671869,-0.251230744215,-0.533713235823,0.000398680735832,-0.702246092387,-0.0748203139961,0.155242884906,-0.210640901601,0.573735403377,0.819022851225,0.00316274962146,0.0,0.81899188473,-0.573668414807,-0.0117298551228,0.0,-0.00779279986086,0.00932027887806,-0.999926199613,0.0,0.556609334046,0.123199665627,0.304326815785,1.0,-0.14766,-0.194067428571,2.141
0.333688753273,0.0826204967182,-0.126443105641,-2.02698952342,0.0245307569341,2.10287566735,0.0207663391841,-0.255971920811,-0.54844856067,-0.00448254500232,-0.683463828953,-0.0820220799012,0.156385028479,-0.225264637023,0.573720202571,0.819034147563,0.0029901820257,0.0,0.819000244535,-0.573653015866,-0.0118980561384,0.0,-0.00802974192736,0.00927529356633,-0.999924743255,0.0,0.554035404919,0.119861468674,0.304273826781,1.0,-0.149564,-0.196569828571,2.158
0.329271337949,0.0732442090583,-0.126552989684,-2.03870865614,0.0231925134158,2.1056164931,0.0168232493159,-0.260145557101,-0.539351041503,-0.00580064434116,-0.700931633243,-0.0773364895408,0.151257658942,-0.222996071291,0.57375284497,0.819010248046,0.00326088736913,0.0,0.818980740379,-0.573685749442,-0.0116599604183,0.0,-0.00767905030575,0.00936071963698,-0.999926701871,0.0,0.551568289238,0.116517682679,0.304397465776,1.0,-0.151468,-0.199072228571,2.175
0.324938041284,0.0644220695295,-0.126688668385,-2.0500816283,0.021911994848,2.1078611525,0.0129702689013,-0.279168955851,-0.541056445526,-0.0118634545808,-0.701686554248,-0.0781923928888,0.138080866368,-0.240793044623,0.573817943753,0.818965579968,0.00301548600758,0.0,0.81893194646,-0.573750580782,-0.0118947476062,0.0,-0.00801140626813,0.00929507639761,-0.999924706628,0.0,0.549058522084,0.113243884264,0.304302048163,1.0,-0.15326,-0.201427428571,2.191
0.320200651492,0.0549013958004,-0.126821851594,-2.06184260005,0.0205350633011,2.11045306762,0.00879786526876,-0.28405194806,-0.558982051301,-0.00926494593809,-0.700732220437,-0.0779456759829,0.152432499601,-0.237246372489,0.573899998884,0.818907177066,0.00325169684899,0.0,0.818877403476,-0.573832735024,-0.0116849130193,0.0,-0.00770307734667,0.00936889302155,-0.999926440516,0.0,0.546527566762,0.109760153367,0.304422231445,1.0,-0.155164,-0.203929828571,2.208
0.31545183477,0.0454302803544,-0.126840510389,-2.0738868072,0.0191913842961,2.11285999454,0.00457839229652,-0.276641016615,-0.554148852956,-0.0016359969658,-0.710074526514,-0.0692021868887,0.131547539946,-0.24236468603,0.573861008292,0.818934935879,0.0031402005543,0.0,0.818902753365,-0.573792982703,-0.0118591919005,0.0,-0.00791023381278,0.00937722724225,-0.999924745073,0.0,0.543817563726,0.106343760703,0.304341729079,1.0,-0.157068,-0.206432228571,2.225
0.310528189885,0.0357529801112,-0.1268746123,-2.08572278517,0.0178049111593,2.11526004655,0.000165054308037,-0.296146955416,-0.570044114436,-0.00441726490593,-0.697529991928,-0.0785326103371,0.145575476494,-0.258358209232,0.573784374168,0.818987929269,0.00331821845748,0.0,0.818958310974,-0.57371603843,-0.0117447450067,0.0,-0.00771523778699,0.00945661581597,-0.999925520988,0.0,0.541169783564,0.102867767157,0.304441618196,1.0,-0.158972,-0.208934628571,2.242
0.305456484702,0.0261348454602,-0.126987548002,-2.09767723376,0.0163229921909,2.11759074139,-0.00429686595468,-0.300769027446,-0.574805520934,-0.0100100361494,-0.70753441219,-0.0853382609909,0.130680995294,-0.274658189736,0.5737991875,0.818977781199,0.00326086305494,0.0,0.818947653851,-0.573731332052,-0.011740774061,0.0,-0.00774472289577,0.00940750388877,-0.999925756313,0.0,0.538458198104,0.099281216811,0.304420744655,1.0,-0.15998,-0.210259428571,2.259
0.299640057777,0.0153120351198,-0.12711504927,-2.11085491989,0.0147111897152,2.12003636183,-0.00940325995867,-0.305884395077,-0.586404835369,-0.0133183329522,-0.692329900873,-0.0897355553088,0.130954451136,-0.270620863805,0.573840241387,0.818948834812,0.00330608934068,0.0,0.818919395689,-0.573772351328,-0.0117072250428,0.0,-0.00769082372515,0.00942567900302,-0.999926001165,0.0,0.53543132707,0.095248481627,0.304473417935,1.0,-0.15998,-0.210259428571,2.278
0.294644104135,0.00633658227331,-0.127207579384,-2.12190423014,0.0134187290393,2.12200969083,-0.0137576751446,-0.306773756374,-0.565165950554,0.00118131123255,-0.685453981049,-0.0753273845022,0.114672878985,-0.271483023303,0.573912676443,0.818898288785,0.00325259043661,0.0,0.818867366784,-0.573844001478,-0.0118340392698,0.0,-0.00782454564286,0.00945532736085,-0.999924683799,0.0,0.532850208426,0.0918518767447,0.304429969827,1.0,-0.15998,-0.210259428571,2.294
0.28931481453,-0.00320522379991,-0.127219240434,-2.13345394663,0.012033518244,2.12403472653,-0.0184458623522,-0.312931014201,-0.560648422899,0.00151449555594,-0.661050281176,-0.0806432101912,0.119748314472,-0.272266664096,0.5738659752,0.818930900393,0.00328173593749,0.0,0.818899912316,-0.573796664162,-0.011877234778,0.0,-0.00784373645359,0.00950353716257,-0.999924076408,0.0,0.530119425635,0.0883216640158,0.304440145862,1.0,-0.15998,-0.210259428571,2.311
0.284594809583,-0.0116120325024,-0.127217064082,-2.14345364575,0.0107539418383,2.12589457506,-0.0226075404766,-0.318865950591,-0.553943890755,0.000698067583318,-0.668665053387,-0.0751703916497,0.114935715219,-0.274140599076,0.573772403403,0.818995774278,0.00344930572761,0.0,0.818967741341,-0.573703487261,-0.011700181588,0.0,-0.00760366694841,0.00953829507264,-0.99992559982,0.0,0.527764893652,0.0852400578709,0.304512734883,1.0,-0.15998,-0.210259428571,2.326
0.279423012201,-0.0204855003778,-0.127245303427,-2.1542482151,0.00938488352797,2.12748504406,-0.0271942897235,-0.323287173417,-0.559119900145,-0.00347298898894,-0.675851998877,-0.0813807713748,0.0945462909787,-0.29147572864,0.573664372168,0.819072487254,0.00319305952095,0.0,0.819040024461,-0.573595029777,-0.0119552099961,0.0,-0.00796081378647,0.00947370398284,-0.999923434257,0.0,0.52494751901,0.0816683087028,0.304425324913,1.0,-0.15998,-0.210259428571,2.343
0.273453019616,-0.030527510786,-0.127419062374,-2.16589934004,0.00786582860656,2.12952267985,-0.0322813730855,-0.336347301984,-0.555980405292,-0.0122795080513,-0.650016243444,-0.0852776618209,0.108527412854,-0.286477798136,0.573860221436,0.818934084625,0.00348686011269,0.0,0.818906676318,-0.573791343655,-0.0116660331393,0.0,-0.00755312744208,0.00955026925856,-0.999925868564,0.0,0.522337994683,0.0780163010648,0.304572149505,1.0,-0.15998,-0.210259428571,2.36
0.26775200811,-0.0398584553914,-0.127517652186,-2.17705695955,0.00648006023051,2.1311525678,-0.0372397729088,-0.338491419911,-0.548525358732,-0.00235728407546,-0.649371871454,-0.0772790819333,0.0889138158825,-0.298398965068,0.573914948821,0.818896221806,0.00336991577252,0.0,0.818866258718,-0.57384516734,-0.0118541619288,0.0,-0.007773668203,0.00956297517445,-0.999924056911,0.0,0.519564900612,0.074401444784,0.304507932475,1.0,-0.15998,-0.210259428571,2.377
0.262398078256,-0.0486279449997,-0.127521650584,-2.18729278423,0.00519707067579,2.13272213912,-0.0419077827959,-0.335599763717,-0.560159169481,0.000138462336306,-0.618742566038,-0.0839945535149,0.110817168738,-0.287017736155,0.573881625844,0.818919157124,0.003469944441,0.0,0.818890334094,-0.573811298707,-0.0118305157788,0.0,-0.00769729088048,0.00963100501898,-0.999923994839,0.0,0.517016727675,0.0711033097483,0.304540360975,1.0,-0.15998,-0.210259428571,2.393
0.256586952941,-0.057859664881,-0.12755391084,-2.19803146966,0.00371555456766,2.13433472726,-0.047014520943,-0.34425061869,-0.540020218778,-0.00460591167115,-0.637464347604,-0.0823981682416,0.0807384364389,-0.291866882756,0.573785469923,0.81898641585,0.00349743607944,0.0,0.818958590881,-0.573715868209,-0.0117335369261,0.0,-0.00760321916108,0.00959697309381,-0.999925041774,0.0,0.514325514576,0.0675474736733,0.304561550954,1.0,-0.15998,-0.210259428571,2.41
0.251079231725,-0.0664950786998,-0.127588777837,-2.20825043681,0.00240164404824,2.13560191534,-0.0518671876591,-0.349243051353,-0.536489804355,-0.00339870176257,-0.625018589891,-0.0904990639836,0.0811614490897,-0.304213446937,0.573717391915,0.819034933997,0.00329818253616,0.0,0.819003222712,-0.573646907229,-0.0119872396795,0.0,-0.00792612845089,0.00957869443093,-0.999922709563,0.0,0.511515093971,0.0640031334303,0.304463859372,1.0,-0.15998,-0.210259428571,2.427
0.245020296418,-0.0757012206261,-0.127752195756,-2.21860205864,0.00100309055249,2.13709825837,-0.0570758830234,-0.359346999609,-0.533663520832,-0.00931408752407,-0.613280678078,-0.0765626160789,0.0852022415938,-0.312774720037,0.573860400537,0.818933708543,0.00354522347698,0.0,0.818906092362,-0.573790106724,-0.0117674219277,0.0,-0.00760267069697,0.00965624847749,-0.99992447528,0.0,0.509054106728,0.060565196033,0.304579229549,1.0,-0.15998,-0.210259428571,2.443
0.238266622054,-0.0858506546894,-0.127817578412,-2.2303781703,-0.000519897124209,2.13848395032,-0.0629776905236,-0.358715898466,-0.532605177153,-0.000407211843356,-0.624363167874,-0.0739750110337,0.0670339688329,-0.302590102112,0.573848637655,0.818942493221,0.00341771274207,0.0,0.818911903623,-0.573777154759,-0.0119924010416,0.0,-0.00786023264966,0.00968081503328,-0.999922246259,0.0,0.505945521211,0.0565935023365,0.304495075611,1.0,-0.15998,-0.210259428571,2.462
0.233620822306,-0.0928214485771,-0.127817853025,-2.23823452139,-0.00156502448662,2.13938602871,-0.0670821559013,-0.365037090149,-0.548418837292,-0.00752272611321,-0.58848397965,-0.0851105911432,0.082449488843,-0.319288020581,0.573743786415,0.819015405298,0.00354687686398,0.0,0.818986717425,-0.573672119882,-0.0119080835434,0.0,-0.00771830810149,0.0097372214528,-0.99992280414,0.0,0.503247622094,0.05308194013,0.304562991957,1.0,-0.15998,-0.210259428571,2.479
0.22628289848,-0.103450284886,-0.12790278175,-2.25011591654,-0.0032756607365,2.14079180111,-0.0734537574633,-0.365090223535,-0.523200937932,-0.00538349277139,-0.60894232765,-0.0855674949413,0.0624241935233,-0.319751612992,0.573749564526,0.819011464437,0.00352210553948,0.0,0.818982772207,-0.573678386065,-0.0118775036195,0.0,-0.00770740420327,0.00969944303243,-0.999923255418,0.0,0.500699418581,0.0497099032335,0.304573741604,1.0,-0.15998,-0.210259428571,2.495
0.219524643131,-0.112940551356,-0.128072918403,-2.26090220043,-0.0047677419676,2.14182427447,-0.0792872697617,-0.377357669269,-0.514595496437,-0.0138604962257,-0.586941763484,-0.0846031255889,0.0588958378869,-0.331657154047,0.573866832671,0.818929989663,0.00335816790051,0.0,0.818898034535,-0.573794853764,-0.0120922177654,0.0,-0.00797593387167,0.00968950635538,-0.999921245872,0.0,0.497749249567,0.0458447714686,0.304491445224,1.0,-0.15998,-0.210259428571,2.513
0.213487396751,-0.121409102619,-0.128152219648,-2.2700440894,-0.00604754404167,2.14289852874,-0.0845335220573,-0.376795328897,-0.522175522679,0.000102050172085,-0.573117256082,-0.0794001834398,0.0623380131322,-0.328875453179,0.573902449326,0.81890376527,0.00365359906473,0.0,0.818876792784,-0.573830802683,-0.0118218032934,0.0,-0.00758451757071,0.00977659757957,-0.999923443686,0.0,0.495286131704,0.0424900057328,0.304626626815,1.0,-0.15998,-0.210259428571,2.529
0.207051270526,-0.130256991519,-0.128164324158,-2.27987853254,-0.00739918099634,2.14373104384,-0.0902284798864,-0.379951419021,-0.522606294057,-0.00118321805284,-0.567449319022,-0.0778300481591,0.0571708869578,-0.342436953565,0.573792160769,0.818981363273,0.00358186443119,0.0,0.818952606928,-0.573719698386,-0.0119616968048,0.0,-0.0077415696243,0.00979709369407,-0.999922039489,0.0,0.492527053873,0.0389819150215,0.304590725001,1.0,-0.15998,-0.210259428571,2.546
0.201220406944,-0.138043770658,-0.128221615717,-2.28847325612,-0.0086527054736,2.14446858946,-0.0953182039951,-0.385252072473,-0.520553720138,-0.00260541528823,-0.568743720561,-0.0773006057727,0.0478756633837,-0.351578624792,0.573769322752,0.818997603037,0.00352666821941,0.0,0.818967968209,-0.573696867104,-0.01200494165,0.0,-0.00780893027328,0.00977648377401,-0.999921717422,0.0,0.490105968042,0.0358181176303,0.304565848259,1.0,-0.15998,-0.210259428571,2.561
0.194561578946,-0.146895302629,-0.128358118269,-2.2978813833,-0.0099917824344,2.14539125805,-0.101122119421,-0.396860037037,-0.510485025613,-0.00965233830382,-0.555862135426,-0.0822663066219,0.0450123016554,-0.341013152913,0.573845166056,0.818943197995,0.00380929830012,0.0,0.818918203341,-0.573772943688,-0.0117614722483,0.0,-0.00744644876431,0.00986895772333,-0.999923574117,0.0,0.487473972368,0.0322311839601,0.304684690052,1.0,-0.15998,-0.210259428571,2.578
0.186975373522,-0.156640783755,-0.128491513667,-2.30854348296,-0.0115503948925,2.14604022587,-0.107763026585,-0.393146694325,-0.520496073911,-0.00409907370564,-0.559833758048,-0.0835372864779,0.0303192841248,-0.349341511885,0.573865807205,0.818929433177,0.00365591282128,0.0,0.818901417343,-0.573792778579,-0.0119608873102,0.0,-0.00769753449069,0.0098579662386,-0.999921781173,0.0,0.484530418151,0.0284035645789,0.304618676757,1.0,-0.15998,-0.210259428571,2.596
0.180579074028,-0.164810766748,-0.128505091936,-2.31722172024,-0.0127996688699,2.14662387905,-0.113346264018,-0.40610940688,-0.509172479179,-0.00292573453755,-0.529596264028,-0.0700108638606,0.0464227085972,-0.350490021843,0.573837004282,0.818949295846,0.00372696266197,0.0,0.81892226061,-0.573763794972,-0.0119241585968,0.0,-0.00762703188978,0.00989480664182,-0.999921957548,0.0,0.48182993937,0.0248945577801,0.304659694611,1.0,-0.15998,-0.210259428571,2.613
0.173655837946,-0.173440484457,-0.128543149856,-2.32637214248,-0.0140779626472,2.14725081344,-0.119482432915,-0.410765078807,-0.504245508357,-0.00522282360399,-0.541607121061,-0.0811681925792,0.032177479401,-0.360337749878,0.573779502522,0.81898896737,0.00386014414857,0.0,0.818963585412,-0.573705726453,-0.0118799034422,0.0,-0.00751506773793,0.00997795468573,-0.999921979045,0.0,0.479136810778,0.0213625376248,0.304689336337,1.0,-0.15998,-0.210259428571,2.63
0.166561480947,-0.182017408287,-0.128727479827,-2.3355410703,-0.0155045846305,2.1476382006,-0.125660902166,-0.424467769049,-0.506191866573,-0.0115356572065,-0.542435138857,-0.0829894254021,0.0277152554204,-0.364861048157,0.573868372805,0.818927344255,0.00372054113908,0.0,0.81889953669,-0.573794291219,-0.0120169494682,0.0,-0.00770633161896,0.00994308808769,-0.999920870595,0.0,0.476363753814,0.0177024654838,0.304639316489,1.0,-0.15998,-0.210259428571,2.647
0.159853386935,-0.190067594434,-0.128802962368,-2.34386546255,-0.0167099951693,2.14807488295,-0.131554040723,-0.419443025823,-0.507181700322,-0.00185529490716,-0.504977653384,-0.0795589311385,0.0305527160634,-0.361346160529,0.573893578779,0.818908926863,0.00388286517343,0.0,0.818883476797,-0.573819222046,-0.0119205176137,0.0,-0.0075339006645,0.0100209155811,-0.999921407707,0.0,0.473847869766,0.0143482844652,0.304705739443,1.0,-0.15998,-0.210259428571,2.663
0.152731859268,-0.198549287685,-0.128816779263,-2.35266544374,-0.0180824474411,2.14847095438,-0.137923942848,-0.431034502526,-0.490330409155,0.00081837294624,-0.523536612444,-0.0771661735216,0.00949958517128,-0.375083571918,0.573724630458,0.819027113091,0.00392215884272,0.0,0.819002721938,-0.57365089505,-0.0118295801799,0.0,-0.00743894019578,0.00999937280414,-0.99992233434,0.0,0.471146771482,0.010846996506,0.304735081676,1.0,-0.15998,-0.210259428571,2.68
0.145418857441,-0.206917953804,-0.128922850141,-2.36152803106,-0.019386368813,2.14865650494,-0.144340664671,-0.437086589031,-0.495519454439,-0.002627117383,-0.522622820023,-0.081550101084,0.00970595803752,-0.380714854126,0.573769371432,0.818996439357,0.00377989786679,0.0,0.818968683922,-0.573694147172,-0.0120858245901,0.0,-0.00772989084722,0.0100302870737,-0.99991981785,0.0,0.468350642409,0.00726477793817,0.304641361647,1.0,-0.15998,-0.210259428571,2.697
0.137934655602,-0.215324629495,-0.129107697186,-2.36996611777,-0.0206527571912,2.1489276904,-0.150858852368,-0.444636172301,-0.493116590904,-0.00278519822644,-0.4840047966,-0.0787293024608,0.0204077342237,-0.381146861686,0.573950964881,0.818868118384,0.00400518518678,0.0,0.818843817031,-0.573875569217,-0.0119323621448,0.0,-0.00747269688109,0.0101284068958,-0.99992078395,0.0,0.465696788286,0.00361528037211,0.304740991267,1.0,-0.15998,-0.210259428571,2.714
0.130116329169,-0.224091260722,-0.12912887224,-2.37891809622,-0.0220734624653,2.14912513412,-0.157860142928,-0.437809832943,-0.488194955373,-0.000291545114812,-0.502495392784,-0.0780162363868,0.00819206680683,-0.389782378279,0.573790319002,0.818980675562,0.00400871258052,0.0,0.818956731098,-0.573715357697,-0.0118872971317,0.0,-0.00743574982472,0.0101039726969,-0.999921306584,0.0,0.462826592628,-8.39198409247e-05,0.304746461552,1.0,-0.15998,-0.210259428571,2.732
0.122954627523,-0.231779087876,-0.129203279384,-2.38686218666,-0.0233010721456,2.14915702494,-0.164200228528,-0.450489452227,-0.484811554217,-0.0028994731701,-0.489246318016,-0.0766347523065,0.00261803265426,-0.400837358106,0.573778901136,0.818989201836,0.00389958815276,0.0,0.818962888616,-0.573703066262,-0.0120551123064,0.0,-0.00763594814116,0.0101107817341,-0.999919728973,0.0,0.460220706373,-0.00344931055886,0.304675719932,1.0,-0.15998,-0.210259428571,2.748
0.115247155351,-0.239991794233,-0.129358793319,-2.39500640011,-0.0246086003818,2.14918499453,-0.170995294277,-0.457495326322,-0.475833986977,-0.00897039718576,-0.464634480631,-0.0834677151316,0.00576410957997,-0.395611986515,0.573857141631,0.818933934994,0.00399224435857,0.0,0.818909196472,-0.57378144358,-0.0119720440052,0.0,-0.00751378203954,0.0101397237932,-0.999920361369,0.0,0.457528784492,-0.00706421273185,0.304732209954,1.0,-0.15998,-0.210259428571,2.765
0.107931793172,-0.247681372635,-0.129475870078,-2.40253925367,-0.0257633060478,2.14925125745,-0.177518145756,-0.452323469171,-0.471297565251,-0.00735432795609,-0.469146183727,-0.0721667483418,-0.00870670712266,-0.401185805235,0.573884153898,0.8189139791,0.00419757541351,0.0,0.818892518181,-0.573808570409,-0.0118116507368,0.0,-0.00726426101692,0.010216078981,-0.999921428034,0.0,0.455023194386,-0.0104332786919,0.304811218349,1.0,-0.15998,-0.210259428571,2.781
0.100086212843,-0.255671629133,-0.129519669648,-2.41068566428,-0.0270202603676,2.14916444952,-0.184530969723,-0.466169788055,-0.469008708771,-0.00392611387622,-0.476022536362,-0.0776275445956,-0.00589237666962,-0.410844589614,0.573817811533,0.818960992967,0.00409366188347,0.0,0.818937113941,-0.573741123393,-0.0119947337937,0.0,-0.00747466084061,0.0102354406077,-0.999919679375,0.0,0.452245320805,-0.0139682409425,0.304716719176,1.0,-0.15998,-0.210259428571,2.798
0.0921221451581,-0.263665406433,-0.129629325983,-2.41854441288,-0.0282864787168,2.14905938305,-0.191560017592,-0.473400838614,-0.471345620562,-0.0101449819265,-0.458764568209,-0.0703423721405,-0.00533103582569,-0.418746155207,0.57388278438,0.81891518979,0.00414832791667,0.0,0.818892160414,-0.573806077632,-0.0119566628233,0.0,-0.00741129972508,0.0102589536794,-0.999919910046,0.0,0.449535244079,-0.0175471561193,0.304730670416,1.0,-0.15998,-0.210259428571,2.815
0.0844889034709,-0.271159735899,-0.129794796863,-2.42562423594,-0.029456976041,2.14897236963,-0.198377843663,-0.475349462583,-0.464776842581,-0.00868156011803,-0.440504353213,-0.0799950766647,-0.00354540582107,-0.422617802673,0.573951445059,0.818865818679,0.0043882360322,0.0,0.818847222112,-0.57387578833,-0.0116856026329,0.0,-0.00705077390362,0.0103004617183,-0.999922090503,0.0,0.447068840223,-0.0209685048579,0.304855188813,1.0,-0.15998,-0.210259428571,2.831
0.0759535400317,-0.279400335126,-0.129819355842,-2.43383143433,-0.0307862559664,2.14867816168,-0.206104920268,-0.48356730291,-0.445818323783,-0.0006230032036,-0.450970018487,-0.0752279750899,-0.0278436225379,-0.431129850503,0.573793744183,0.818977035836,0.00425450465381,0.0,0.818955807525,-0.573717265875,-0.0118587966861,0.0,-0.00727133937675,0.0102889527406,-0.999920629388,0.0,0.44413657925,-0.0246713169256,0.304765784107,1.0,-0.15998,-0.210259428571,2.849
0.0681705405334,-0.286729212206,-0.129895227969,-2.44091102086,-0.0319686689567,2.14840955588,-0.213044430654,-0.491159249637,-0.453242890188,-0.00747156962508,-0.444944336779,-0.0727177993379,-0.0208358760638,-0.43998917356,0.57379767428,0.818974245658,0.00426155375813,0.0,0.818953212914,-0.573721318455,-0.0118419047865,0.0,-0.00725341044953,0.0102850685872,-0.999920799564,0.0,0.441573075099,-0.028036332321,0.304765721256,1.0,-0.15998,-0.210259428571,2.865
0.0597824662605,-0.294463169534,-0.130085196112,-2.44817509576,-0.0330821997139,2.14812976192,-0.220571213984,-0.496789610148,-0.451485281154,-0.00699126160304,-0.423770160573,-0.067583667458,-0.0113443836935,-0.444524635279,0.573924720864,0.81888394653,0.00449931087796,0.0,0.818866235292,-0.573847896796,-0.0117229238302,0.0,-0.00701792916352,0.010412610022,-0.999921160004,0.0,0.438906898805,-0.0316559594375,0.304839055229,1.0,-0.15998,-0.210259428571,2.882
0.0514201032902,-0.302125068098,-0.130141531028,-2.45534608311,-0.0342966914458,2.14776911772,-0.228168120128,-0.5003316842,-0.455905757998,-0.00395268082791,-0.43108755257,-0.0694708319853,-0.0197953523195,-0.448746537673,0.573819622756,0.81895706496,0.00459490946525,0.0,0.818941356864,-0.57374366679,-0.0115760847541,0.0,-0.00684414795984,0.0104057463216,-0.999922436033,0.0,0.436230746848,-0.0351796406662,0.304899142194,1.0,-0.15998,-0.210259428571,2.899
0.0433686520048,-0.30913615731,-0.130210616813,-2.46218499469,-0.0354839741581,2.14724456773,-0.235358782396,-0.501030693452,-0.44136557573,-0.00564176858135,-0.424256900561,-0.0692093051937,-0.029358962642,-0.449406653096,0.573821019663,0.818957204615,0.00439104817886,0.0,0.818937722743,-0.573744032889,-0.0118126158675,0.0,-0.00715482693186,0.0103745220197,-0.999920585719,0.0,0.433603338031,-0.0385391486375,0.304795328384,1.0,-0.15998,-0.210259428571,2.915
0.0347078518935,-0.316646226349,-0.130391035427,-2.46921860945,-0.0366116614697,2.14677621678,-0.243172320013,-0.518642367015,-0.434266745084,-0.00351056569807,-0.406024264579,-0.0732951003998,-0.0268792450354,-0.462531859997,0.573912351221,0.8188926109,0.00450020346323,0.0,0.818874240116,-0.573834533271,-0.0118175378208,0.0,-0.00709505884839,0.0104675331402,-0.999920042248,0.0,0.430879444251,-0.0421466500234,0.304804992206,1.0,-0.15998,-0.210259428571,2.932
0.0250399987294,-0.324942370858,-0.130469148416,-2.47671518064,-0.0379150243119,2.14627398435,-0.252023895632,-0.515992457039,-0.432453550602,-0.00259201532337,-0.396024228298,-0.0723242371119,-0.0272743760909,-0.470767496285,0.573796680586,0.818972581841,0.00469323373386,0.0,0.818958270619,-0.573720630383,-0.0115211179718,0.0,-0.0067430045385,0.0104545431135,-0.999922614215,0.0,0.427936553688,-0.0460938559687,0.304921544948,1.0,-0.15998,-0.210259428571,2.951
0.0172144262131,-0.331326501175,-0.130527185003,-2.48273693784,-0.0389233270271,2.14572500453,-0.259072307156,-0.521154932749,-0.420240999048,-0.00354382349937,-0.408853380837,-0.0753069849502,-0.0439829638301,-0.476874609795,0.573813501637,0.818961146546,0.00463170459841,0.0,0.818945331433,-0.573736546787,-0.0116475708342,0.0,-0.00688166225615,0.0104768479752,-0.999921436104,0.0,0.425507183868,-0.0492402577825,0.304868013727,1.0,-0.15998,-0.210259428571,2.966
0.00823881369468,-0.338553055238,-0.130714342283,-2.48943474604,-0.0400053504742,2.14502672994,-0.267199891819,-0.532911441182,-0.427347443296,-0.0131424501306,-0.385052182861,-0.0628023892531,-0.037645414877,-0.469206965683,0.573925903613,0.818882222954,0.0046592909722,0.0,0.818865644755,-0.573847138917,-0.011801012612,0.0,-0.00699005322723,0.0105884439933,-0.999919508765,0.0,0.422744800053,-0.0528522687378,0.304836492091,1.0,-0.15998,-0.210259428571,2.983
0.000363059820694,-0.344861528913,-0.130785255807,-2.49518887043,-0.0409707595419,2.1444535151,-0.274456328268,-0.528512478821,-0.41501033111,0.00156113946823,-0.380888853936,-0.0618655031182,-0.0378142446185,-0.497546332265,0.573843096266,0.818939973479,0.00470824880531,0.0,0.81892395788,-0.573764069842,-0.0117936537585,0.0,-0.00695700444377,0.0106236090728,-0.999919366259,0.0,0.420352222305,-0.0559564592821,0.304842119857,1.0,-0.15998,-0.210259428571,2.998
-0.00877871105609,-0.351949316508,-0.130876451158,-2.50141105025,-0.042120414461,2.14378399082,-0.282732639606,-0.535558999313,-0.41578334891,-0.00194643769382,-0.36068256321,-0.0619756202162,-0.0332688872232,-0.487523834185,0.573872157578,0.818918963607,0.00481920150331,0.0,0.818905682131,-0.573794785841,-0.0115660890573,0.0,-0.00670658609184,0.0105841317538,-0.999921495848,0.0,0.417698802113,-0.0595519706505,0.304940573695,1.0,-0.15998,-0.210259428571,3.015
-0.0174683922284,-0.35845150887,-0.131048202278,-2.50729620659,-0.0431433716092,2.14309587777,-0.290662774573,-0.543995388029,-0.393417611712,-0.00816038159738,-0.371754443716,-0.0632351719942,-0.0516002864692,-0.496117919148,0.573942786889,0.818869258375,0.0048540672101,0.0,0.818856086087,-0.573864757212,-0.0116059299537,0.0,-0.0067182905008,0.0106361270377,-0.999920865556,0.0,0.415138747955,-0.0629512826195,0.304928775587,1.0,-0.15998,-0.210259428571,3.031
-0.0266492947767,-0.365320522428,-0.131112175749,-2.51356234792,-0.0442663726934,2.14225963744,-0.299215190384,-0.541890785648,-0.410376737665,-0.00162576343927,-0.365908634284,-0.0701172297898,-0.047744857895,-0.505544538477,0.573759818942,0.818998052158,0.00475474818326,0.0,0.818982845991,-0.573680968154,-0.0117469847831,0.0,-0.00689318183012,0.0106342098029,-0.999919695589,0.0,0.41237309179,-0.0664518834719,0.304872385472,1.0,-0.15998,-0.210259428571,3.048
-0.0366571431127,-0.37247251625,-0.131223719483,-2.51995488963,-0.0453897930398,2.14140837512,-0.308322324231,-0.56159573805,-0.395201108859,-0.00707747021778,-0.35611173015,-0.0583953489788,-0.0516853749137,-0.506843580318,0.57382612866,0.818951509513,0.00476928019931,0.0,0.818936202746,-0.573746772418,-0.0117849001946,0.0,-0.0069150358186,0.0106684252718,-0.999919180225,0.0,0.409480494771,-0.0702520171502,0.304858186085,1.0,-0.15998,-0.210259428571,3.066
-0.0462249156358,-0.379120377604,-0.131380999401,-2.52568631285,-0.0463870206416,2.14057761039,-0.317000003959,-0.560088395988,-0.394206617044,-0.00899762900783,-0.327367541351,-0.0585714324585,-0.0473686469556,-0.51307587973,0.573996104935,0.818831556399,0.0049092428875,0.0,0.818818397293,-0.573916780644,-0.0116922218664,0.0,-0.00675659344059,0.0107312748127,-0.99991959086,0.0,0.406804458157,-0.0738740590554,0.304921218907,1.0,-0.15998,-0.210259428571,3.083
-0.055677770009,-0.385660666821,-0.131456074986,-2.53136855319,-0.0474307020668,2.13976570691,-0.325882783088,-0.560081600268,-0.387655936072,-0.00485377070538,-0.336975462627,-0.0638722233413,-0.0543715131201,-0.515161317146,0.573819461819,0.818955042837,0.00496084174899,0.0,0.818943091959,-0.573740869528,-0.0115919656198,0.0,-0.00664718902107,0.0107145488423,-0.999920503501,0.0,0.404130283365,-0.0773837654315,0.304951918982,1.0,-0.15998,-0.210259428571,3.1
-0.0643049201141,-0.391353889597,-0.131564843277,-2.53645326358,-0.0483690343267,2.13891416098,-0.333777393033,-0.57867734816,-0.383392860869,-0.00786976049739,-0.33125764896,-0.057607276673,-0.0490092981509,-0.527136993847,0.573870631117,0.818919692828,0.00487671405943,0.0,0.81890573665,-0.573790841373,-0.011756348942,0.0,-0.00682942328863,0.0107403992922,-0.99991899812,0.0,0.401666415592,-0.0805647267798,0.304891623543,1.0,-0.15998,-0.210259428571,3.115
-0.0740940557956,-0.397756907683,-0.131689936495,-2.54195531832,-0.0493735888797,2.1379921467,-0.342821666922,-0.569285985044,-0.372016620153,-0.00178871138307,-0.325182136719,-0.0584839740345,-0.0528320187398,-0.533108836756,0.573889644392,0.818905985548,0.00494062689289,0.0,0.818892943761,-0.573809775943,-0.0117232500558,0.0,-0.00676538988509,0.010773903737,-0.999919072974,0.0,0.398784009581,-0.0843523429161,0.304916841248,1.0,-0.15998,-0.210259428571,3.133
-0.0849813262541,-0.404692626083,-0.131763919382,-2.54794815043,-0.05046721117,2.13693266439,-0.353071937423,-0.588822515305,-0.367274689707,-0.00495373090231,-0.307684401836,-0.0587504894261,-0.0625934717075,-0.547564363,0.573724031556,0.819022114856,0.0049252302397,0.0,0.819008570316,-0.573643761391,-0.0117704574057,0.0,-0.00681506852797,0.0107870077365,-0.999918594339,0.0,0.395914948502,-0.0880600923812,0.304901989106,1.0,-0.15998,-0.210259428571,3.151
-0.0944938560827,-0.41041606281,-0.131919292486,-2.55273726338,-0.0514083502061,2.1360740002,-0.361770307869,-0.593050763863,-0.362406512079,-0.00840422688719,-0.295363590302,-0.0538374840968,-0.0539217182149,-0.541001612768,0.573877852808,0.818913921966,0.00499453376933,0.0,0.81890196149,-0.573798426641,-0.0116486030852,0.0,-0.00667347610438,0.0107751162816,-0.999919677567,0.0,0.393388883441,-0.0915080321382,0.304951803421,1.0,-0.15998,-0.210259428571,3.167
-0.10506143252,-0.416765579645,-0.132002823177,-2.55810553786,-0.0523242960833,2.13509034535,-0.371687113214,-0.584032933132,-0.348585632775,-0.000523797073091,-0.301474627705,-0.0554325628383,-0.0609106914212,-0.555079438166,0.573826743186,0.818949053172,0.00510529289579,0.0,0.818938496449,-0.573746928005,-0.0116167353162,0.0,-0.00658449504459,0.0108471231217,-0.999919488931,0.0,0.390538421662,-0.0952364608693,0.304969417451,1.0,-0.15998,-0.210259428571,3.185
-0.11400148089,-0.422008376805,-0.13210811736,-2.5625868408,-0.0531435161604,2.13411075137,-0.380079493091,-0.598796418368,-0.346963964981,-0.00452531389273,-0.29014799364,-0.0571957542622,-0.0587260150209,-0.553902382159,0.573787608535,0.818976639664,0.00507847196603,0.0,0.818964750576,-0.573706277812,-0.0117724684614,0.0,-0.00672795494641,0.0109141961841,-0.999917804094,0.0,0.388083385713,-0.0983679054734,0.304937098078,1.0,-0.15998,-0.210259428571,3.2
-0.124377291607,-0.427755594269,-0.132282873599,-2.56743075144,-0.0541040323825,2.1331096364,-0.389593873927,-0.611820841569,-0.330955626244,-0.00573910486938,-0.283444454301,-0.0592164759899,-0.0605484283682,-0.561541904101,0.573975491851,0.818844956477,0.0050812309962,0.0,0.818832917021,-0.573893816807,-0.0118020309718,0.0,-0.00674807640835,0.0109349662626,-0.999917441581,0.0,0.385337664838,-0.102018843551,0.304927700082,1.0,-0.15998,-0.210259428571,3.217
-0.133915126935,-0.43298642379,-0.132303741171,-2.57180898073,-0.0549138277733,2.1322324945,-0.398691493581,-0.606239775744,-0.321285513005,-0.00257345072398,-0.274906183167,-0.0445959333408,-0.057703799775,-0.575210762797,0.573789647613,0.818975006492,0.00511135355011,0.0,0.81896355385,-0.573708221416,-0.0117609968488,0.0,-0.00669966590568,0.01093456103,-0.999917771545,0.0,0.382833026039,-0.105286965896,0.304930043017,1.0,-0.15998,-0.210259428571,3.233
-0.144356678405,-0.438439337136,-0.132435616708,-2.57637194033,-0.0557697809153,2.13116848216,-0.408487456737,-0.616875003978,-0.319549918115,-0.010045160078,-0.264758940427,-0.0465708447894,-0.0671923448154,-0.577150391358,0.573822988942,0.818951578485,0.0051221440733,0.0,0.818939504801,-0.573740280778,-0.0118711663169,0.0,-0.00678326061367,0.0110068861858,-0.999916414423,0.0,0.38009916607,-0.108873000833,0.304908578107,1.0,-0.15998,-0.210259428571,3.25
-0.155513067694,-0.444215961413,-0.132564552048,-2.58094558169,-0.0566966232981,2.13013660046,-0.41893405558,-0.597736553194,-0.319226227775,-0.00486992140879,-0.259620520705,-0.0488857517605,-0.0544177212006,-0.594494263363,0.573871200016,0.818917074511,0.00523619787098,0.0,0.818907763719,-0.573790215474,-0.0116451727732,0.0,-0.00653207747772,0.0109710035885,-0.999918481199,0.0,0.377263781664,-0.112692286074,0.305002052749,1.0,-0.15998,-0.210259428571,3.268
-0.165383476855,-0.449214768877,-0.132638232876,-2.58505401077,-0.0575208881122,2.12916805857,-0.428310116362,-0.623205096056,-0.300027513401,-0.00760727799391,-0.258661801579,-0.0501421244795,-0.0614551865134,-0.58552270042,0.57376873709,0.818988924506,0.00522731065995,0.0,0.818979503233,-0.573687806969,-0.0116456137639,0.0,-0.0065389101971,0.0109631604643,-0.999918522564,0.0,0.374694626734,-0.11600560909,0.305000665927,1.0,-0.15998,-0.210259428571,3.284
-0.176803984021,-0.454567575409,-0.132816530708,-2.58951678053,-0.0583587982947,2.1280328209,-0.439001994912,-0.638274172127,-0.2917890184,-0.00726425144014,-0.234912579138,-0.0474235228187,-0.0605142063278,-0.58787671927,0.573910156757,0.818889706886,0.00524660171424,0.0,0.818879315222,-0.573827099837,-0.0118268125436,0.0,-0.00667434131328,0.0110840748626,-0.999916294723,0.0,0.371762239608,-0.119838426166,0.304951174856,1.0,-0.15998,-0.210259428571,3.302
-0.186142407449,-0.458922574367,-0.132843377894,-2.59299508972,-0.0589976927559,2.12717600164,-0.447988883285,-0.628685319898,-0.291526221847,-0.00446465230362,-0.230416365493,-0.0434188940448,-0.0547151222913,-0.603254262132,0.573764565677,0.818991230772,0.00532296850303,0.0,0.818982146018,-0.573681799132,-0.011755201011,0.0,-0.00657384296325,0.0111043477634,-0.999916735558,0.0,0.369420987616,-0.122915774812,0.304982047988,1.0,-0.15998,-0.210259428571,3.317
-0.195080110866,-0.46281608999,-0.132942319847,-2.59621283133,-0.0596340892376,2.12637478307,-0.456462623153,-0.646080358132,-0.281265323183,-0.00797146506207,-0.231567492792,-0.0442159474464,-0.0618112186344,-0.615032678043,0.573785381866,0.818976584921,0.00533252373759,0.0,0.818967099462,-0.573701693628,-0.0118323128852,0.0,-0.00663123697071,0.0111565844642,-0.999915775113,0.0,0.367016898857,-0.126081973591,0.30494861811,1.0,-0.15998,-0.210259428571,3.332
-0.209204487083,-0.468883518038,-0.133105212849,-2.601119192,-0.0606370205458,2.1250382312,-0.46979046305,-0.626219024112,-0.270168409669,-0.00313509319629,-0.212967856073,-0.0404131174326,-0.0572557865574,-0.6110495323,0.573861957588,0.818922865471,0.00534237247401,0.0,0.818913056448,-0.573777461152,-0.0118986534742,0.0,-0.00667887507268,0.0112033388457,-0.999914935295,0.0,0.36363597086,-0.130499354526,0.304934127864,1.0,-0.15998,-0.210259428571,3.353
-0.219510751125,-0.473232047703,-0.133207541426,-2.60442702904,-0.0613476102251,2.12414075089,-0.47965535534,-0.652525834684,-0.271580723544,-0.0108758549226,-0.204669600745,-0.0484769022491,-0.0488338071167,-0.619449390233,0.573817195351,0.818953649827,0.00543071419855,0.0,0.818946158406,-0.573734389568,-0.0116955872124,0.0,-0.00646248076158,0.0111588064241,-0.999916855234,0.0,0.361117501659,-0.133864300896,0.305015293257,1.0,-0.15998,-0.210259428571,3.369
-0.231365396356,-0.477878505161,-0.133350790364,-2.60805499542,-0.062125284874,2.12313082809,-0.490845557581,-0.652372724644,-0.251082777191,-0.00525826116462,-0.200518191663,-0.0459465989243,-0.0530124575908,-0.628902840426,0.573938360806,0.818868354965,0.00548836348659,0.0,0.818862043353,-0.5738560968,-0.011613828955,0.0,-0.00636078862791,0.011160049358,-0.99991749343,0.0,0.358233517152,-0.137715083679,0.30504798695,1.0,-0.15998,-0.210259428571,3.387
-0.240997965306,-0.481540399497,-0.133372329103,-2.61103292374,-0.0626920696555,2.1222874522,-0.500258948045,-0.651473182415,-0.243808804442,-0.00792441091206,-0.201545255986,-0.0411475527168,-0.0568428958942,-0.630428532961,0.57373178283,0.8190130645,0.0054944017515,0.0,0.819006235667,-0.573648495658,-0.0117019771392,0.0,-0.00643234070068,0.011213961406,-0.99991643254,0.0,0.355858694459,-0.140763659768,0.305013367594,1.0,-0.15998,-0.210259428571,3.402
-0.251652075501,-0.485348099059,-0.133500384844,-2.61410071807,-0.0633709715942,2.12135539699,-0.51033460933,-0.673767187113,-0.237762517246,-0.0132600808231,-0.190855611475,-0.0394287148216,-0.0578224191195,-0.635445778375,0.573842058032,0.818935964101,0.00547046950619,0.0,0.818928151012,-0.573757665909,-0.0118140252698,0.0,-0.00653633220356,0.011259522833,-0.999915246162,0.0,0.353252369094,-0.144167567648,0.304978662952,1.0,-0.15998,-0.210259428571,3.418
-0.264843127986,-0.489837587946,-0.133568817526,-2.61770688185,-0.0641081534803,2.12024453194,-0.523078742759,-0.656430569475,-0.217693309241,-0.00433128489793,-0.174427536287,-0.0325299527432,-0.0548584059988,-0.630586524782,0.573746498147,0.819002918028,0.00547019440956,0.0,0.818994228856,-0.573660629527,-0.0119449626595,0.0,-0.00664505204309,0.0113336563565,-0.999913692034,0.0,0.350060832732,-0.14831862611,0.304938037582,1.0,-0.15998,-0.210259428571,3.438
-0.274865748105,-0.493078332967,-0.133689785059,-2.62024324941,-0.0646592808327,2.11949242929,-0.532700142108,-0.673272355738,-0.213735119654,-0.0123270828189,-0.16999340594,-0.0358228092649,-0.0490123753888,-0.645836630988,0.573787699017,0.818973717756,0.0055202338833,0.0,0.818965688193,-0.573701648002,-0.0119317870622,0.0,-0.0066049798999,0.0113674136427,-0.999913574339,0.0,0.347672544031,-0.151490182216,0.304937696379,1.0,-0.15998,-0.210259428571,3.453
-0.286317192281,-0.496701899535,-0.133777526968,-2.62300617506,-0.065256447483,2.11859187923,-0.543686626117,-0.6640506718,-0.214567088071,-0.00123266393956,-0.159950646986,-0.0327968489736,-0.0551658893067,-0.658107953613,0.573823645408,0.81894816903,0.005573806032,0.0,0.818940969162,-0.57373761598,-0.0118989049054,0.0,-0.00654681024742,0.011392710448,-0.999913668986,0.0,0.344949421846,-0.155072708681,0.304962747282,1.0,-0.15998,-0.210259428571,3.47
-0.297680809416,-0.500148437684,-0.133809783156,-2.62563079787,-0.0658107490056,2.11773408307,-0.554712298004,-0.673023172779,-0.196609450629,-0.00301161204505,-0.155433464434,-0.0392611306937,-0.0483739564552,-0.66117302026,0.573741006568,0.819005756312,0.00561920020652,0.0,0.818999335855,-0.573655155274,-0.0118573857644,0.0,-0.00648790894118,0.0114054092704,-0.999913908133,0.0,0.342260049269,-0.158586240303,0.304985544158,1.0,-0.15998,-0.210259428571,3.487
-0.308007606247,-0.503006800269,-0.133942504131,-2.62782451786,-0.0663140167105,2.11702166512,-0.564544373609,-0.689962715183,-0.192988231282,-0.00846575513434,-0.144995196472,-0.0302270197112,-0.0410455708958,-0.66256517742,0.573904034689,0.818891151433,0.00567344455671,0.0,0.818885456179,-0.573817987583,-0.0118437192297,0.0,-0.00644331639283,0.0114432798041,-0.999913763792,0.0,0.33983549075,-0.161808532533,0.304991249131,1.0,-0.159868,-0.210112228571,3.502
-0.320093714549,-0.50619302407,-0.133959348437,-2.63026822099,-0.0668609682269,2.11626044694,-0.576374108799,-0.671090223972,-0.173123284617,-0.00195616197164,-0.137694773272,-0.0334710116971,-0.0442793329381,-0.650372456645,0.573755763702,0.818994844398,0.00570222495411,0.0,0.818989910214,-0.573670331709,-0.0117738857717,0.0,-0.00637167713921,0.0114256195045,-0.999914424813,0.0,0.337029220216,-0.165519258487,0.305001502563,1.0,-0.157852,-0.207462628571,3.52
-0.331043264623,-0.508879513897,-0.134034433282,-2.63228370606,-0.0673432247354,2.1155791427,-0.58683221813,-0.686865309255,-0.162251051413,-0.00151681133017,-0.121157526472,-0.0253078134063,-0.0460317859833,-0.65209513215,0.573892389986,0.81889883976,0.00574124175931,0.0,0.81889475914,-0.573807419987,-0.0117117514728,0.0,-0.0062964937982,0.011422977759,-0.999914931254,0.0,0.334500335247,-0.16889190209,0.30502326106,1.0,-0.15606,-0.205107428571,3.536
-0.341739826459,-0.511418805976,-0.133990841183,-2.63423304861,-0.0677342977653,2.11490107404,-0.597285827372,-0.668478937781,-0.16111186061,0.00110852025326,-0.114825197612,-0.0138915070102,-0.0370297116968,-0.642501855979,0.573783631058,0.818974841506,0.00577066818222,0.0,0.818971016608,-0.573698349966,-0.0117228026883,0.0,-0.00629017876476,0.0114525827781,-0.999914632356,0.0,0.33202070704,-0.172111790131,0.305021690642,1.0,-0.154268,-0.202752228571,3.552
-0.353804406114,-0.513970175189,-0.134012248739,-2.63623448292,-0.06816738053,2.11415234359,-0.608963916758,-0.673668848901,-0.129989467768,-0.00375831889858,-0.105669084733,-0.0239255304424,-0.0324498639574,-0.647772092132,0.573817840339,0.81895071055,0.00579367747131,0.0,0.818946423255,-0.573731086953,-0.0118381840837,0.0,-0.00637099905539,0.0115378948073,-0.999913139905,0.0,0.329230312871,-0.175756044167,0.304991245384,1.0,-0.152252,-0.200102628571,3.57
-0.364521899591,-0.516059478324,-0.133997140029,-2.63786624647,-0.0685180832914,2.11354315313,-0.619259516458,-0.654749046755,-0.12875038246,0.00159956180316,-0.0974652701333,-0.0221921464512,-0.03768532927,-0.646402789744,0.573910776822,0.818885449407,0.00581273592969,0.0,0.818880903279,-0.573823016251,-0.0119146618494,0.0,-0.00642138519083,0.0115981145858,-0.999912120914,0.0,0.326774298157,-0.178975180241,0.304969283689,1.0,-0.15046,-0.197747428571,3.586
-0.376271750546,-0.518206844831,-0.13395792424,-2.63955107443,-0.0688504505458,2.11292946349,-0.630738554345,-0.653129955842,-0.121623578952,0.00275934743777,-0.090250555443,-0.0207787786115,-0.0321267838464,-0.649515811553,0.573867654272,0.818915346899,0.00585806244124,0.0,0.818910869593,-0.573778781466,-0.0119851784641,0.0,-0.00645373890474,0.011675362046,-0.999911013628,0.0,0.324089363796,-0.182478177292,0.30494352569,1.0,-0.148444,-0.195097828571,3.604
