nelsonifechukwu/NELSON_IML_WORK/CNN-GradCAM/train2dof/data_sample_2022-02-22-08-59-10/robot_state.csv
position_joint1,position_joint2,position_joint3,position_joint4,position_joint5,position_joint6,position_joint7,velocity_joint1,velocity_joint2,velocity_joint3,velocity_joint4,velocity_joint5,velocity_joint6,velocity_joint7,ee_T_00,ee_T_10,ee_T_20,ee_T_30,ee_T_01,ee_T_11,ee_T_21,ee_T_31,ee_T_02,ee_T_12,ee_T_22,ee_T_32,ee_T_03,ee_T_13,ee_T_23,ee_T_33,v_x,v_y,time
0.46507833966,0.547790985772,-0.123996664013,-1.35583187936,0.0795211703115,1.89410820452,0.159151795828,7.59474811554e-05,-0.00411793169251,-0.000259926573977,-0.000910397556745,-0.000282857520987,-5.34398825408e-06,0.000869032564681,0.573807192594,0.818976336963,0.00195246595336,0.0,0.818933077363,-0.573748468528,-0.0119187483731,0.0,-0.0086411149014,0.00843816495564,-0.999927061593,0.0,0.661678070492,0.260892797659,0.303208944867,1.0,0.0,0.0,0.0
0.465076671593,0.547794471097,-0.123996585417,-1.35583446447,0.0795211834752,1.89410927577,0.159147818191,0.000679798706488,-0.000738868602495,0.00305984796224,-0.00104488717005,-0.000194734401888,-0.000176526096901,0.000734511763299,0.573805404514,0.81897759989,0.0019482119769,0.0,0.818934282465,-0.573746696028,-0.0119212709569,0.0,-0.00864564014634,0.00843610970237,-0.999927039818,0.0,0.661678014806,0.260891460525,0.303205335942,1.0,-0.00014,-0.000184,0.008
0.465075837592,0.54779527123,-0.123995269742,-1.35583511125,0.0795218823883,1.89411008972,0.159144865544,0.000449747395371,0.00259418543612,0.00049360906481,-0.00065326843927,-6.41404398613e-06,9.83032415147e-05,-0.000925799516545,0.57380297787,0.818979299678,0.00194838084177,0.0,0.81893597138,-0.573744256222,-0.0119226730537,0.0,-0.00864671658697,0.00843702689855,-0.999927022772,0.0,0.66167788373,0.26089175122,0.30320448972,1.0,-0.00048,-0.000630857142857,0.025
0.465075472995,0.547775471127,-0.123994708178,-1.35584687226,0.0795223744504,1.89411321284,0.159152812978,0.000765834629438,0.00130402186877,0.00144703611643,-0.00369314194476,0.000399581914756,9.4790914279e-07,0.000699815171848,0.573810152085,0.818974247884,0.00195897132807,0.0,0.81893104358,-0.57375137183,-0.0119187283019,0.0,-0.00863733535541,0.0084435122974,-0.999927049108,0.0,0.66167627461,0.260890993365,0.303213172257,1.0,-0.0008,-0.00105142857143,0.041
0.465074758471,0.547709843788,-0.123994918093,-1.35591917372,0.0795224927399,1.8941291197,0.159151012546,0.0014926657876,-0.00500215304844,-0.00284100369435,-0.00689579563674,0.000187977176206,0.00073025878503,0.00096504450547,0.573813383288,0.818971957179,0.00197013094196,0.0,0.818928844868,-0.573754504042,-0.0119190199157,0.0,-0.00863113774268,0.00845285294346,-0.999927023706,0.0,0.661664836934,0.260883780245,0.303226639895,1.0,-0.00116,-0.00152457142857,0.059
0.465060985594,0.5475747365,-0.123992439732,-1.35609642243,0.0795197365244,1.8941589012,0.159143693843,-0.00545759808311,-0.00944510103828,-0.00025533407766,-0.011025827655,0.00020810045184,0.00571141248778,-0.000409242951881,0.573825851614,0.818963229996,0.00196642673448,0.0,0.818919937137,-0.573766856769,-0.0119363953691,0.0,-0.00864736490807,0.00845992117537,-0.99992682373,0.0,0.66163688778,0.260858409589,0.303240485663,1.0,-0.0015,-0.00197142857143,0.076
0.465050262755,0.547426973331,-0.123997963286,-1.35631205237,0.0795143487631,1.89424348383,0.159138916441,-0.000832154789203,-0.00679679763927,-0.00406362850808,-0.0143209459959,-0.00036316442592,0.00647633357299,-0.00112094945521,0.573845250958,0.818949596598,0.0019832013001,0.0,0.818906488514,-0.57378615068,-0.011931607539,0.0,-0.00863361796474,0.00847111583048,-0.999926847743,0.0,0.661612588985,0.260829336726,0.303250044387,1.0,-0.00184,-0.00241828571429,0.093
0.465030785632,0.547271637648,-0.124000097075,-1.35650163562,0.0795148316192,1.89435351381,0.159133340418,-0.000717414270617,-0.0105695916652,-0.00095628294424,-0.00979479148606,0.000540437484967,0.00653189815566,-0.000919081100035,0.573866826431,0.818934290609,0.00205914749777,0.0,0.818892129011,-0.573807368371,-0.0118967200701,0.0,-0.00856124283486,0.00851351658155,-0.999927109922,0.0,0.661598405353,0.260802712326,0.30328302554,1.0,-0.00216,-0.00283885714286,0.109
0.465007622899,0.547052966607,-0.123997966209,-1.35676883316,0.0795107469794,1.89448465371,0.159123586088,-0.00370524673416,-0.0186081503714,-0.00174818619375,-0.0147071261346,-8.75276878773e-05,0.00496629480839,0.000105264189345,0.573892600595,0.818916047817,0.00212990879519,0.0,0.818874740856,-0.573832786719,-0.0118675429161,0.0,-0.00849647342623,0.00855498828957,-0.999927308415,0.0,0.661577152723,0.260767636815,0.303318488431,1.0,-0.0025,-0.00328571428571,0.126
0.464971908396,0.546831478946,-0.123995659031,-1.35710599997,0.07950468964,1.89460944156,0.159099740234,-0.00583539013549,-0.0115793945489,0.000394065377656,-0.0238494726808,0.000291163946738,0.0125626966797,-0.000873146050535,0.573917970987,0.818898226083,0.00214587891313,0.0,0.818856987814,-0.573857949661,-0.011875774541,0.0,-0.00849378456337,0.00857305342934,-0.999927176538,0.0,0.661539665868,0.260715723008,0.303325628607,1.0,-0.00284,-0.00373257142857,0.143
0.464942423457,0.546577384896,-0.123993259621,-1.35747581589,0.0795010497869,1.89474739276,0.159052678516,-0.00180715398945,-0.016146522098,0.000236022310938,-0.0235039163549,0.000500502457752,0.0118264919984,-0.00238264329468,0.573921612492,0.818895594557,0.00217596646489,0.0,0.818854569889,-0.57386129006,-0.0118810792674,0.0,-0.0084808238301,0.00860077384652,-0.999927048497,0.0,0.661496373472,0.26066582475,0.303341453649,1.0,-0.00316,-0.00415314285714,0.159
0.464898779651,0.546271811359,-0.123995904616,-1.3579520805,0.0794873965,1.89491499989,0.158922117214,0.000249614852811,-0.0191760491859,0.000302239691169,-0.0291525655822,0.00036569646421,0.0041978226712,-0.00310821051528,0.573875257195,0.818928064636,0.00218197876637,0.0,0.818886975108,-0.573814771257,-0.0118944183241,0.0,-0.00848878476679,0.00861287219113,-0.999926876809,0.0,0.661441302069,0.260592068088,0.303345775188,1.0,-0.00352,-0.00462628571429,0.177
0.464848335339,0.545947353174,-0.123996348012,-1.35850642325,0.0794636532197,1.89510694044,0.158902721694,-0.00105753253019,-0.0154096039912,-0.00410420775681,-0.0315360821581,-0.00386257570518,0.00773988869523,0.00125520435013,0.573925665017,0.818892813187,0.00215370525609,0.0,0.818851248685,-0.573865179007,-0.0119220699115,0.0,-0.0085271250901,0.0086061118349,-0.999926608795,0.0,0.66137543962,0.260506081588,0.303328307606,1.0,-0.00388,-0.00509942857143,0.195
0.464799422684,0.545648800564,-0.123992482151,-1.35903052848,0.0794060664594,1.89528089516,0.158830739498,-0.00658568565082,-0.0212526903332,0.000587462559018,-0.034926344529,-0.00463425654954,0.0189299688665,-0.00594929845471,0.573918001075,0.818898334263,0.00209596864318,0.0,0.818856194053,-0.573857929154,-0.011931366648,0.0,-0.00856795300806,0.00856408788797,-0.999926620598,0.0,0.661312703272,0.260420151627,0.303305102165,1.0,-0.00418,-0.00549371428571,0.21
0.464740382208,0.545281362846,-0.124005813349,-1.35966041572,0.079320465018,1.89548038185,0.158719964992,-0.00286050307695,-0.0229701453374,0.00104418511383,-0.0406177554489,-0.000419509287314,0.01132478016,-0.00915975192108,0.573890426231,0.818917877778,0.00200874006037,0.0,0.818874950283,-0.573831064562,-0.0119361653487,0.0,-0.00862222775354,0.00849512149403,-0.999926742366,0.0,0.661233569818,0.26029905272,0.303277540863,1.0,-0.00452,-0.00594057142857,0.227
0.46466980361,0.544838540703,-0.123996570338,-1.36041355169,0.079309361038,1.89573143205,0.158671375996,-0.00491116868975,-0.0228726945797,0.00163533411205,-0.0425169877967,0.000396764817567,0.0136825172867,-0.00401244530749,0.573947733191,0.818877777056,0.00198310600126,0.0,0.818834202197,-0.573888164122,-0.0119862960778,0.0,-0.00867739749181,0.00850350620249,-0.999926193854,0.0,0.661146138544,0.260193448567,0.30325948967,1.0,-0.00486,-0.00638742857143,0.244
0.464606248848,0.544424321213,-0.124006334503,-1.36109972764,0.0792858049081,1.89598854532,0.158559995967,-0.00104706010188,-0.0313160079853,-0.00131408462166,-0.0451055750456,-0.00705369743787,0.0207632168196,-0.0123223316436,0.573947487459,0.818877963963,0.00197703728437,0.0,0.818834190162,-0.573887826868,-0.012003253571,0.0,-0.00869476961568,0.00850826676259,-0.999926002451,0.0,0.661070611129,0.260083397209,0.303248668247,1.0,-0.00518,-0.006808,0.26
0.464535517458,0.543926273885,-0.124004535258,-1.36190159476,0.0792531642056,1.89626546293,0.158464931372,-0.00150616190398,-0.0287851149023,-0.000420766915836,-0.0467869427821,-0.00178201751043,0.0175027849932,-0.00280293176506,0.573962205108,0.818867681519,0.0019632048444,0.0,0.818823537,-0.573902415976,-0.0120324183961,0.0,-0.00872643856284,0.0085138356477,-0.999925679174,0.0,0.660974251381,0.259962545616,0.303243380879,1.0,-0.00552,-0.00725485714286,0.277
0.464454366866,0.543405576693,-0.124010505496,-1.36275015745,0.0792078507249,1.89655727742,0.158352410723,-0.00637684246866,-0.0327192167309,-0.000497263233775,-0.0521489363205,-0.00896393423507,0.0222616583756,-0.00932503433366,0.573975777036,0.818858237385,0.00193425527131,0.0,0.818813648644,-0.573916046772,-0.0120551629173,0.0,-0.00876153800586,0.00850332983432,-0.999925461639,0.0,0.660875787113,0.259824026029,0.303233365749,1.0,-0.00586,-0.00770171428571,0.294
0.46437519775,0.542880535247,-0.124010953064,-1.36357182365,0.0791572924682,1.8968513568,0.158249966477,-0.00643483711421,-0.0320518187479,0.000194347157342,-0.0530712943164,-0.000887775334079,0.0214963607196,-0.0143149005753,0.573989211976,0.818848826675,0.00193144725384,0.0,0.818804191379,-0.573929482632,-0.0120578624613,0.0,-0.00876522076319,0.00850272378294,-0.999925434517,0.0,0.660782477834,0.259692584033,0.30323916548,1.0,-0.00618,-0.00812228571429,0.31
0.464301896236,0.54228544201,-0.124016827833,-1.36448817897,0.079106204068,1.89718196265,0.158127777473,-0.00686592512781,-0.0379945996681,-0.000348509752391,-0.0513434893891,-0.0109471431746,0.0237736825763,-0.00801624066711,0.573990547777,0.818847868769,0.00194056082932,0.0,0.818803323703,-0.573930750749,-0.0120564230972,0.0,-0.00875879745847,0.00850937438652,-0.999925434227,0.0,0.660676098661,0.25955395553,0.303252725491,1.0,-0.00652,-0.00856914285714,0.327
0.464217693357,0.541628954842,-0.124014447959,-1.36551346657,0.0790425954016,1.89756188136,0.157986560534,-0.00175611320607,-0.034410707953,-0.000483784666479,-0.0541457214582,-0.00323735843384,0.0256196508019,-0.00625174620424,0.573982164766,0.818853724121,0.00194933978789,0.0,0.81880928738,-0.573922324597,-0.0120525155682,0.0,-0.00875064611256,0.00851423042458,-0.999925464259,0.0,0.660557525597,0.259402111754,0.303261758993,1.0,-0.00688,-0.00904228571429,0.345
0.464139419178,0.541046137856,-0.124018028108,-1.36641176862,0.0789927498722,1.89789400321,0.157876318615,-0.00836190093911,-0.0404515220193,0.000255387393289,-0.0618186449502,-5.38332817413e-05,0.0210645346031,-0.00959297820013,0.573995014212,0.818844679956,0.00196485839937,0.0,0.818800416782,-0.573935077025,-0.0120478935415,0.0,-0.00873782060446,0.00852442182242,-0.999925489586,0.0,0.660455678975,0.259263827906,0.303275124973,1.0,-0.00718,-0.00943657142857,0.36
0.46404353778,0.540296034895,-0.124021048707,-1.36754820978,0.0789291693781,1.89830517637,0.157736865712,-0.00463530435066,-0.0377511522821,-0.00187631820771,-0.0648166219745,-0.00448956671685,0.020658451742,-0.00605504805929,0.574007623003,0.818835771483,0.0019937340423,0.0,0.818791838282,-0.573947513994,-0.01203842369,0.0,-0.00871336101167,0.00854276460323,-0.999925546485,0.0,0.660332657726,0.259100669591,0.303302645822,1.0,-0.00752,-0.00988342857143,0.377
0.463930943858,0.539504653439,-0.124016470367,-1.36876789948,0.0788479478484,1.89876972217,0.157578800569,-0.0117640730281,-0.0464808186041,0.00146883278164,-0.0692604672076,-0.00547244886315,0.0207767234347,-0.00898573805689,0.574012749763,0.818832123966,0.00201563201782,0.0,0.818788527958,-0.573952596987,-0.0120212227693,0.0,-0.00868665338662,0.00855087614095,-0.999925709526,0.0,0.660188229561,0.258903626911,0.303318896426,1.0,-0.0079,-0.0103828571429,0.396
0.463846450348,0.538837411396,-0.124031102555,-1.36980268138,0.0787945429423,1.89917087093,0.157454960918,-0.0064040419939,-0.0475869479084,-0.00428510875891,-0.0715724573557,-0.00531950955084,0.0285310621347,-0.0103127235364,0.574033844157,0.81881726438,0.00204455775752,0.0,0.818774054825,-0.57397357497,-0.0120053856066,0.0,-0.00865686154629,0.00856569341192,-0.999925841072,0.0,0.660074615647,0.258743863886,0.303333020213,1.0,-0.0082,-0.0107771428571,0.411
0.463730323789,0.538051658369,-0.124029049275,-1.37101540267,0.0787282890768,1.89964045328,0.15730244358,-0.00545032706132,-0.043756774695,-0.00028812399177,-0.0715570943254,-0.00172215648662,0.0283381833116,-0.00924800766173,0.574051953998,0.818804468446,0.00208409790169,0.0,0.818761721703,-0.573991463672,-0.0119912304228,0.0,-0.00862238465495,0.00859013422794,-0.999925929295,0.0,0.659941449229,0.258555910287,0.303351425221,1.0,-0.00854,-0.011224,0.428
0.463618739974,0.53719957127,-0.124036045538,-1.37235027548,0.0786518686243,1.90013575249,0.1571399677,-0.00542526812243,-0.0484479611094,-0.000382822472488,-0.0728204373412,0.000200921207982,0.0266248143827,-0.00680124217989,0.574068334494,0.818792957128,0.00209465756734,0.0,0.818750333391,-0.574007783275,-0.0119876274672,0.0,-0.00861320102665,0.00859688443289,-0.999925950431,0.0,0.659788032925,0.258352192607,0.30336090574,1.0,-0.0089,-0.0116971428571,0.446
0.463517607975,0.536448768699,-0.12404167054,-1.3735258565,0.0785839680218,1.90058159256,0.156994813394,-0.00494422630942,-0.0434474652261,-0.00102819466006,-0.080704298099,-0.00469985613081,0.0404969181987,-0.00695890434601,0.574082840167,0.818782742362,0.00211195109162,0.0,0.818740347674,-0.57402221859,-0.0119784204506,0.0,-0.00859558258616,0.00860591089449,-0.999926024393,0.0,0.65965525259,0.258171780006,0.303370218937,1.0,-0.0092,-0.0120914285714,0.461
0.463404400837,0.535528864693,-0.124042854976,-1.37497630846,0.0784978588831,1.90110323246,0.156817441803,-0.00418614190918,-0.0501305954767,-0.000364241907682,-0.0844722352285,-0.00150553449615,0.0276750934267,-0.0127092828209,0.574087677036,0.818779369627,0.00210472079422,0.0,0.818736833163,-0.574027037449,-0.0119877103799,0.0,-0.00860728902295,0.00860537492286,-0.999925928306,0.0,0.659481067304,0.257957790134,0.303374324204,1.0,-0.00956,-0.0125645714286,0.479
0.463278618457,0.534632451055,-0.12404390872,-1.37642172296,0.0784272619894,1.9016283836,0.156637067044,-0.00794921817999,-0.049154171895,-0.000338570666354,-0.0837663217664,-0.00851173512233,0.0320794343951,-0.0096628640238,0.574104108192,0.818767880055,0.00209247426518,0.0,0.818725001879,-0.574043336207,-0.0120152550884,0.0,-0.00863670031219,0.00861133409878,-0.9999256234,0.0,0.659310122445,0.257738628063,0.303364405882,1.0,-0.0099,-0.0130114285714,0.496
0.463154501661,0.533720757877,-0.124048853999,-1.37791735581,0.0783358228178,1.9021643814,0.156462633438,-0.00763501784609,-0.0527816254993,-0.000589896342931,-0.0819620701171,-0.00677525836524,0.0337218818826,-0.0162984566958,0.574123725485,0.818754235241,0.00204866080446,0.0,0.818710767843,-0.574063119462,-0.0120399498664,0.0,-0.00868186648588,0.00858984691337,-0.999925417081,0.0,0.659131296943,0.257509940271,0.303342224189,1.0,-0.01024,-0.0134582857143,0.513
0.463014858861,0.532777084411,-0.124047060997,-1.37943643055,0.0782627952887,1.9027477323,0.156262817615,-0.00754443855402,-0.0517917075664,0.000373728810779,-0.0933567097252,-0.00236087683415,0.0327500315587,-0.0153048805254,0.574136891477,0.818744964029,0.00206412802266,0.0,0.818701526391,-0.574076047224,-0.0120519537518,0.0,-0.00868267715322,0.00860954178646,-0.999925240659,0.0,0.658958362454,0.257278760424,0.30333516881,1.0,-0.01058,-0.0139051428571,0.53
0.462874599059,0.531740397815,-0.124046057777,-1.38108967987,0.0781596095512,1.9033501932,0.156058199409,-0.00742860773489,-0.0603597844102,0.000143419040338,-0.0929435180649,-0.00405683161208,0.0334252066524,-0.0131395071021,0.574145944463,0.81873865163,0.00204980108107,0.0,0.81869501252,-0.57408514616,-0.0120610253925,0.0,-0.0086982347819,0.00860311637358,-0.99992516075,0.0,0.658761983833,0.257028483862,0.303331241409,1.0,-0.01094,-0.0143782857143,0.548
0.462758108855,0.530855148691,-0.124044638496,-1.38253049816,0.0780711270298,1.90385103369,0.155873210181,-0.00479510337006,-0.061081206876,0.00684371481324,-0.0992493027279,-0.00768289967146,0.0298995285098,-0.0169181727882,0.574143380657,0.818740565939,0.00200275659023,0.0,0.818696241056,-0.574082715887,-0.0120932667579,0.0,-0.00875166862355,0.00858308360268,-0.999924866664,0.0,0.658583447317,0.256812853231,0.30331267283,1.0,-0.01124,-0.0147725714286,0.563
0.4626054145,0.529763686677,-0.124046857296,-1.3842688192,0.0779704410423,1.90448379061,0.155644344731,-0.00859498191126,-0.0564372105036,-0.000135092952437,-0.0944691671997,-0.00230593219872,0.0380863011688,-0.0139099608804,0.574149973954,0.818735968231,0.00199214307864,0.0,0.818691430722,-0.57408928226,-0.0121071944694,0.0,-0.00876909642856,0.00858246109549,-0.999924719321,0.0,0.658377564698,0.256545649098,0.303309137963,1.0,-0.0116,-0.0152457142857,0.581
0.462471557114,0.528686959896,-0.124055259737,-1.3859518527,0.0778557361214,1.90512224324,0.155413182408,-0.00764448801503,-0.0678791158829,-0.000131849641326,-0.0967404322542,-0.0170342576579,0.0354216496494,-0.0165652808119,0.574136724932,0.818745216889,0.00200942953849,0.0,0.818701064031,-0.574076115279,-0.0120800878295,0.0,-0.00873711684322,0.00858090937369,-0.99992501258,0.0,0.658182205145,0.256291774058,0.303321928091,1.0,-0.01194,-0.0156925714286,0.598
0.462345943982,0.527714375297,-0.12405342765,-1.38746749114,0.0777686001645,1.9057084354,0.155192511703,-0.00552213170879,-0.0748703165048,-0.000406356543987,-0.100614480759,-0.00481874409691,0.0366969850767,-0.0182197847098,0.574116386687,0.818759382847,0.00204803286386,0.0,0.818715698693,-0.574055578015,-0.012064201818,0.0,-0.0087021612892,0.00860317825096,-0.999925126053,0.0,0.658006449293,0.256068696313,0.303335998489,1.0,-0.01224,-0.0160868571429,0.613
0.462189294705,0.526487044117,-0.124055658761,-1.38935861138,0.0776507680998,1.90643069157,0.15494359801,-0.0050932355908,-0.0684033799187,-0.000674847276912,-0.109131952574,-0.000771073134302,0.0428828088126,-0.0112131875945,0.574112950755,0.818761674515,0.00209452186508,0.0,0.818718649399,-0.574051995865,-0.012034370414,0.0,-0.00865108337502,0.0086240780616,-0.999925389234,0.0,0.657786636717,0.255785915255,0.303362289617,1.0,-0.0126,-0.01656,0.631
0.462039461483,0.52537211051,-0.124057906635,-1.39107443573,0.0775399574808,1.90704487972,0.154695749621,-0.01076188119,-0.0678803650218,0.000483662117251,-0.105167518019,-0.00514460611389,0.0398950592963,-0.0136415877884,0.574096692931,0.818773053037,0.00210278103977,0.0,0.81873015431,-0.574035723707,-0.0120278523756,0.0,-0.00864117634453,0.00862692661214,-0.999925450325,0.0,0.657580711374,0.255520812419,0.303383239411,1.0,-0.01292,-0.0169805714286,0.647
0.461890409857,0.524259728566,-0.124058863867,-1.39283573097,0.0774352094612,1.90767483608,0.154465669813,-0.0094346707938,-0.066722709853,0.000737824524148,-0.11335331762,-0.00727005029019,0.0388607702666,-0.0162765916333,0.574097390954,0.818772602245,0.00208768139955,0.0,0.818729430325,-0.574036409782,-0.0120443789637,0.0,-0.00866336916789,0.00862405878154,-0.999925283031,0.0,0.657365826463,0.255253619848,0.303381840048,1.0,-0.01324,-0.0174011428571,0.663
0.461733789795,0.523060841712,-0.124062750699,-1.39475780386,0.077314465147,1.90839960794,0.154210311687,-0.00739124313027,-0.0735425730256,0.00124761538828,-0.116219474105,-0.0024973583141,0.0454555898448,-0.0158458826612,0.574089983181,0.818777805733,0.00208397485523,0.0,0.818734626047,-0.574029059134,-0.0120415232438,0.0,-0.00866323664801,0.00861930619865,-0.999925325158,0.0,0.657137228939,0.254965663652,0.303372761603,1.0,-0.01358,-0.017848,0.68
0.461560189006,0.52174634584,-0.124068451694,-1.39682101217,0.0771894175527,1.90921282203,0.153917391577,-0.0124124319362,-0.072492546855,0.000962527711006,-0.111845907989,-0.00748748775655,0.039692185572,-0.0170481122668,0.57407335818,0.818789330492,0.00213508828789,0.0,0.81874688541,-0.574012288213,-0.0120073941091,0.0,-0.00860612496441,0.00864138831846,-0.999925627745,0.0,0.656900402608,0.254655571199,0.303385122752,1.0,-0.01394,-0.0183211428571,0.698
0.461411066344,0.520632118197,-0.124075127105,-1.39860884991,0.0770792164033,1.90987428854,0.153691565043,-0.00680367999501,-0.0768567099642,-0.00311977034108,-0.124733570637,-0.00479294846862,0.0395190929553,-0.0139064009404,0.574081026819,0.818783990482,0.00212096150887,0.0,0.818741374177,-0.574020028203,-0.0120131733235,0.0,-0.00861888554726,0.00863322003348,-0.999925588393,0.0,0.656685450721,0.254383233265,0.303374408297,1.0,-0.01424,-0.0187154285714,0.713
0.46123146621,0.519227973406,-0.124077942172,-1.40079223387,0.0769405594049,1.91065492324,0.153395997834,-0.00991463944637,-0.0776361921915,0.000289158026579,-0.118603008159,-0.00198878276606,0.0368220409419,-0.0216111229745,0.574066636466,0.818794084427,0.00211922285797,0.0,0.818751437352,-0.574005638876,-0.0120148772273,0.0,-0.00862143051761,0.00863262312323,-0.999925571607,0.0,0.656416275772,0.254053557252,0.30338882755,1.0,-0.0146,-0.0191885714286,0.731
0.46105561475,0.517880279209,-0.12408947799,-1.4029091697,0.0768021697275,1.9114151993,0.153103729937,-0.00768956951486,-0.085980327956,-0.00125330436022,-0.123980121694,-0.00823174133208,0.0473464179243,-0.020542402801,0.574054302636,0.818802770719,0.0021040885882,0.0,0.818759996551,-0.573993440612,-0.0120143698817,0.0,-0.00862983245054,0.00861981024734,-0.999925609665,0.0,0.656157468737,0.253727122763,0.303393342007,1.0,-0.01494,-0.0196354285714,0.748
0.460885857472,0.51660600021,-0.124092831056,-1.40492121662,0.0766737057604,1.91215572225,0.152835267655,-0.0110751351863,-0.0790427202668,-0.00103357039105,-0.125077801852,-0.00528441768406,0.0493330777013,-0.0193793743534,0.574047635746,0.818807450731,0.00210176670251,0.0,0.818764674104,-0.573986812131,-0.0120122786949,0.0,-0.0086295230713,0.00861663841096,-0.999925639672,0.0,0.655912940172,0.253421236127,0.303393920832,1.0,-0.01526,-0.020056,0.764
0.460702628589,0.515229384221,-0.124099876271,-1.40710651612,0.0765390752999,1.9129789097,0.152534746836,-0.00870352563563,-0.0768949572003,0.000346978704642,-0.131515794491,-0.00943460865407,0.0465251053915,-0.0163223705449,0.574035735134,0.818815772512,0.00211006541982,0.0,0.818773131577,-0.57397490558,-0.0120047354125,0.0,-0.00861870803736,0.00861897793128,-0.999925712786,0.0,0.655650361082,0.253089780628,0.303390723382,1.0,-0.0156,-0.0205028571429,0.781
0.460500984356,0.513741786643,-0.124100141874,-1.40949994556,0.0763930152156,1.91381065335,0.152208539814,-0.0166477242003,-0.0873591715955,-0.00019776758457,-0.134230927684,-0.00115351469065,0.04741522478,-0.0166320073352,0.574020133456,0.818826868194,0.00204773343035,0.0,0.818783281551,-0.573959438529,-0.0120518744614,0.0,-0.00869325006314,0.00859483396175,-0.999925275324,0.0,0.655345797503,0.252725841727,0.303366352302,1.0,-0.01596,-0.020976,0.799
0.460321750149,0.512427415853,-0.124103189491,-1.4116327215,0.0762691714118,1.91456508637,0.151905347393,-0.0122511811718,-0.0868707398001,-0.000365407719779,-0.133124574671,-0.00793136526111,0.0472029778793,-0.0163487512421,0.573999154146,0.81884170238,0.00199609224293,0.0,0.818797293398,-0.573938539627,-0.0120951211874,0.0,-0.00875852398544,0.00857714939345,-0.99992485756,0.0,0.655076104165,0.252402002651,0.303337627662,1.0,-0.01628,-0.0213965714286,0.815
0.460120309593,0.510979814119,-0.124106381246,-1.41393434988,0.0761278250273,1.91543808622,0.15158158529,-0.0135288673755,-0.0800607209156,-0.000393659184533,-0.135638812959,-0.00454659971148,0.0456560943156,-0.0267895895158,0.57398365523,0.818852534707,0.00200918731458,0.0,0.818808304819,-0.573922993498,-0.0120873650787,0.0,-0.00874481909942,0.00858325450334,-0.999924925122,0.0,0.654799138061,0.252050475823,0.303331667717,1.0,-0.01662,-0.0218434285714,0.832
0.459915816219,0.509486720854,-0.124104652261,-1.41630420753,0.0759817781441,1.91632119617,0.151260226487,-0.0142814854014,-0.0913729151553,0.00149799361134,-0.139538004272,-0.01200388839,0.0448075270012,-0.0202470470094,0.573970889524,0.818861473361,0.00201303890014,0.0,0.818817257583,-0.573910177117,-0.0120894245684,0.0,-0.00874442885983,0.00858745410011,-0.999924892477,0.0,0.654508071436,0.251692349646,0.303325308497,1.0,-0.01696,-0.0222902857143,0.849
0.459720908483,0.508068214474,-0.124112780944,-1.41853700613,0.0758374745752,1.91711580249,0.150936173546,-0.0114542409183,-0.0893639172434,7.97645021414e-05,-0.142113194068,-0.0118599423531,0.0611052191828,-0.025131391065,0.573947690381,0.818877787463,0.0019911823469,0.0,0.818833300681,-0.573887090467,-0.0120987599315,0.0,-0.00876486067085,0.00857466682145,-0.999924823327,0.0,0.65422889884,0.251344440345,0.30332411317,1.0,-0.01728,-0.0227108571429,0.865
0.45950122753,0.50653422342,-0.124121325283,-1.42095559243,0.075680619423,1.91800056216,0.150608291038,-0.0124400752024,-0.0986533120146,-0.00156011202792,-0.14602331428,-0.0113570651798,0.0536313500456,-0.0219353436958,0.573947931475,0.818877635454,0.00198419016193,0.0,0.818833114834,-0.573887418335,-0.012095785619,0.0,-0.00876643533817,0.00856723669216,-0.999924873211,0.0,0.6539323771,0.250963701056,0.30332260375,1.0,-0.01762,-0.0231577142857,0.882
0.459280793479,0.504935375506,-0.124125466833,-1.42341182686,0.0755324794123,1.91895560906,0.150267521574,-0.0140514323528,-0.095959219006,-0.000872111875641,-0.144475789701,-0.00780078489969,0.0510364664237,-0.0201440124068,0.57393942552,0.818883395006,0.00206594270946,0.0,0.818839974023,-0.573878591555,-0.0120501451415,0.0,-0.00868223063131,0.00860789558317,-0.999925258709,0.0,0.65364030654,0.250587586276,0.303353869389,1.0,-0.01796,-0.0236045714286,0.899
0.459067304826,0.503357578717,-0.124126050107,-1.42573997124,0.0753875641542,1.91983633316,0.149939905631,-0.012033207527,-0.100263453337,0.00153268136708,-0.149330564704,-0.00782177462096,0.0551380577594,-0.0265042134171,0.5739269346,0.818891862411,0.00217676781925,0.0,0.818849919393,-0.573865667757,-0.0119896531003,0.0,-0.00856922202292,0.00866379780907,-0.999925750764,0.0,0.65335986932,0.250228626237,0.303424138128,1.0,-0.01828,-0.0240251428571,0.915
0.458814506256,0.501444137473,-0.124135242606,-1.42856996797,0.0752049581529,1.92086688254,0.149544940978,-0.0126658176715,-0.096996129209,-2.85929949741e-05,-0.152326561274,-0.00804696439388,0.0560583358019,-0.0215001111696,0.57391236399,0.81890182144,0.00226984621808,0.0,0.81886116239,-0.573850790759,-0.0119337159078,0.0,-0.00847015172299,0.00870776367186,-0.999926212969,0.0,0.65301015015,0.24978808679,0.303502447282,1.0,-0.01866,-0.0245245714286,0.934
0.458601469693,0.499939746208,-0.124134866102,-1.43085820301,0.0750592723431,1.92167818746,0.149228900766,-0.0165190165784,-0.0995273913796,-0.000222547968294,-0.15740034514,-0.0106996000841,0.0629366778191,-0.0210796732141,0.573904823039,0.818907042236,0.00229285199338,0.0,0.81886664002,-0.573843114141,-0.0119269910648,0.0,-0.00845152236553,0.00872266564269,-0.999926240717,0.0,0.65272111911,0.249429214143,0.303533252519,1.0,-0.01896,-0.0249188571429,0.949
0.458365237925,0.498354514915,-0.124137956432,-1.43333626584,0.0749097133967,1.92260381955,0.148885278288,-0.0166734818217,-0.098391389201,0.00061990088995,-0.151334148732,-0.00565207676465,0.0564932551387,-0.00883391831469,0.573904900784,0.818906908864,0.00232085617258,0.0,0.818866828911,-0.573843035954,-0.011917780758,0.0,-0.00842790811227,0.00874031319596,-0.999926285928,0.0,0.652417059204,0.249038860261,0.303539669444,1.0,-0.01928,-0.0253394285714,0.965
0.45808709261,0.496569277588,-0.12414153958,-1.43616305362,0.0747328707468,1.92361213489,0.148460046915,-0.0135062152297,-0.0970379985181,-0.00115374396774,-0.157893619367,-0.0122853356487,0.0514275594419,-0.0279323996996,0.573882291406,0.818922836588,0.00229133750962,0.0,0.818882292099,-0.573820465038,-0.011942047211,0.0,-0.00846496179812,0.00872983320572,-0.999926064484,0.0,0.652061258859,0.248583593169,0.303526111151,1.0,-0.01964,-0.0258125714286,0.983
0.457814251216,0.494887565606,-0.124136250838,-1.43890535223,0.0745552387253,1.92455166058,0.148061007306,-0.0138838290724,-0.0961521609912,0.000432307606463,-0.162518771314,-0.018640865921,0.0579028771149,-0.0233674713661,0.573865071291,0.818935191069,0.00218624831719,0.0,0.818893133465,-0.573803531945,-0.01201206027,0.0,-0.00858278711147,0.00868377274773,-0.99992546115,0.0,0.651704775641,0.248141098991,0.303473793389,1.0,-0.01998,-0.0262594285714,1.0
0.457531737373,0.493048571432,-0.124185402838,-1.44176190108,0.0743852609481,1.925590378,0.147662990149,-0.0200182916007,-0.133327544909,-0.00477277534607,-0.193246176064,-0.00560898505373,0.0664468441861,-0.0262999642307,0.573903586099,0.818908171063,0.00219730070986,0.0,0.818866347629,-0.573842087077,-0.011996279483,0.0,-0.00856311253218,0.00868417061929,-0.999925626376,0.0,0.651357417651,0.247656869575,0.303486070172,1.0,-0.0287571428571,-0.0377951020408,1.016
0.457192888543,0.490307511776,-0.124237846156,-1.44601968484,0.0741595712923,1.9272114696,0.147023730973,-0.0221649170443,-0.176739735016,-0.00149985351465,-0.279407779201,-0.0144147171975,0.100501232688,-0.0450800638945,0.573848505884,0.818946506543,0.00229316769017,0.0,0.818905828745,-0.573786514376,-0.0119593674046,0.0,-0.00847845669716,0.00874092179403,-0.99992585328,0.0,0.650825135976,0.247010270391,0.303508629832,1.0,-0.0387045714286,-0.0508688653061,1.033
0.456631533803,0.486534382591,-0.124276991354,-1.45205243539,0.0738256097282,1.92946518853,0.146138525078,-0.0381515011981,-0.229624529172,-0.00332134406161,-0.363578892782,-0.0256684356024,0.133486361316,-0.0468153423022,0.573822226537,0.818964907424,0.00229774691153,0.0,0.818923999751,-0.573759921249,-0.0119909258388,0.0,-0.00850195607151,0.00876250855972,-0.999925464816,0.0,0.65006696846,0.246055822391,0.30345621367,1.0,-0.0492371428571,-0.0647116734694,1.051
0.456041379628,0.482622352587,-0.124387767158,-1.4581725014,0.0734415481408,1.93167266291,0.14518825736,-0.0377949500072,-0.269827756659,-0.0107353110497,-0.439051244781,-0.0284526789971,0.152187629585,-0.0627912723105,0.573804723914,0.818977239244,0.0022731728549,0.0,0.818936313864,-0.573742832658,-0.0119675690572,0.0,-0.00849711362982,0.0087287995138,-0.999925800807,0.0,0.649301073423,0.245021872356,0.30345318248,1.0,-0.0580142857143,-0.0762473469388,1.066
0.455162852407,0.477052969837,-0.124529820871,-1.46696036397,0.0729175060429,1.93474218744,0.143884397806,-0.0562286730377,-0.328831725665,-0.00820367719724,-0.50591882961,-0.0342500925752,0.182651632599,-0.0792006983425,0.573845612741,0.818948960504,0.00213535228705,0.0,0.818906152038,-0.573784202582,-0.0120478181856,0.0,-0.00864148314554,0.00866240751175,-0.999925140931,0.0,0.64817073111,0.243525469085,0.303400375421,1.0,-0.0685468571429,-0.090090155102,1.084
0.454186827109,0.470959891443,-0.124653760554,-1.47642844609,0.072364899537,1.93813819338,0.142513873282,-0.059274367883,-0.365263127646,-0.00620589928163,-0.573597605516,-0.034506772624,0.204262049202,-0.0810167232181,0.573919047945,0.818897450658,0.00215374403186,0.0,0.818854694036,-0.573857361381,-0.0120609180871,0.0,-0.00864087957059,0.00868576126393,-0.999924943559,0.0,0.646957942925,0.241922003915,0.303405928995,1.0,-0.0784942857143,-0.103163918367,1.101
0.453188971036,0.464851163868,-0.124701551839,-1.48560911586,0.0718028300654,1.94159029351,0.141006213605,-0.0713004300351,-0.418704267037,-0.00276831965056,-0.627505208418,-0.0403056468029,0.225711448436,-0.111408944368,0.573820185715,0.818965807794,0.00247932085404,0.0,0.818927326461,-0.573757219842,-0.0118925840715,0.0,-0.00831725161343,0.00885475888052,-0.999926205563,0.0,0.645801836792,0.240387372789,0.303552193857,1.0,-0.0872714285714,-0.114699591837,1.116
0.4518738139,0.457290998151,-0.124772891771,-1.49743187625,0.0710436011615,1.94564562869,0.139237469925,-0.0849608298337,-0.468264649836,-0.00794154733623,-0.734223907574,-0.0573598163913,0.246505173968,-0.103222632771,0.573848230007,0.818946732004,0.00228165691008,0.0,0.81890521665,-0.573785578774,-0.0120458555451,0.0,-0.00855589692967,0.00878112269358,-0.999924841432,0.0,0.644115993325,0.238228551837,0.30347887637,1.0,-0.097804,-0.1285424,1.134
0.450320326416,0.448275594031,-0.12491958396,-1.51099324492,0.0700933897325,1.95051151771,0.137093424673,-0.0888821799248,-0.516100683452,-0.00928019295317,-0.760871080343,-0.052942140184,0.28764494227,-0.117541488705,0.573826627579,0.818961216605,0.00250481100949,0.0,0.81892355593,-0.573764085558,-0.0118207684889,0.0,-0.00824373906207,0.00883449054754,-0.999926993607,0.0,0.642446506842,0.235966714275,0.303643986767,1.0,-0.107751428571,-0.141616163265,1.151
0.448784024807,0.439694527234,-0.124986357919,-1.5241063139,0.0692568561737,1.95509842511,0.135058535031,-0.0985589982796,-0.548785565225,-0.00570734251697,-0.824105220924,-0.0593398635677,0.289007708292,-0.127896283388,0.57382520192,0.818962054011,0.00255707504887,0.0,0.818924624732,-0.573761979982,-0.0118488917472,0.0,-0.00823679886392,0.00889341564997,-0.999926528452,0.0,0.640664756466,0.233689167042,0.303675095012,1.0,-0.117113714286,-0.153920881633,1.167
0.446959887226,0.429785552755,-0.125062170197,-1.53895599762,0.068257146565,1.96033990365,0.132603918632,-0.111359906845,-0.601426096175,-0.00669720078563,-0.88738655998,-0.0684020857776,0.310648858094,-0.142596907395,0.573737869367,0.819022455349,0.00279674647485,0.0,0.818988162966,-0.573673805593,-0.0117260649601,0.0,-0.00799964433966,0.00901836341544,-0.999927334766,0.0,0.638646781434,0.231060394947,0.303822419179,1.0,-0.127061142857,-0.166994644898,1.184
0.444800244068,0.418696076912,-0.125163505984,-1.55582741416,0.0670653723601,1.96613048349,0.1298031403,-0.128742098823,-0.625772070402,-0.00834971884972,-0.943158428953,-0.0571302355151,0.326020340634,-0.154725616029,0.573672846999,0.819068118715,0.00276195985337,0.0,0.819033463995,-0.573609015243,-0.0117315552663,0.0,-0.00802481233247,0.00899238538677,-0.999927367058,0.0,0.636294454757,0.227998336058,0.303833502658,1.0,-0.137593714286,-0.180837453061,1.202
0.442698925631,0.408121144564,-0.125285150916,-1.57166228118,0.0659408329644,1.97171554135,0.127179779773,-0.13836161962,-0.654013417017,-0.00864013384519,-1.00831376877,-0.0660520255671,0.333096909378,-0.175362853921,0.573675677763,0.819065337155,0.00298950103137,0.0,0.819034103958,-0.573611614639,-0.0115585036353,0.0,-0.00775250642328,0.00907951051415,-0.999928728027,0.0,0.634097335993,0.225082723952,0.303942129848,1.0,-0.146956,-0.193142171429,1.218
0.44019825128,0.396235875472,-0.125402917106,-1.58946340413,0.0647424157393,1.97775388774,0.124160824424,-0.15013186482,-0.727675230354,-0.00932800124229,-1.05465118495,-0.0722686336525,0.371444604438,-0.178620704227,0.573717860004,0.819035381453,0.00309966799511,0.0,0.819005015312,-0.573652775985,-0.0115768907565,0.0,-0.00770389831065,0.00918068938083,-0.999928179868,0.0,0.631548426145,0.221737324178,0.304008208069,1.0,-0.156903428571,-0.206215934694,1.235
0.437483211101,0.383881959505,-0.125536861615,-1.60820897708,0.0633089918592,1.98397880486,0.120896304661,-0.165153728369,-0.742687309685,-0.0119442054306,-1.10872840113,-0.0771117204416,0.358693896411,-0.199426281836,0.573683436938,0.819060294836,0.00288001881313,0.0,0.81902740149,-0.57361945453,-0.011644049737,0.0,-0.00788529580645,0.00903898682627,-0.999928056826,0.0,0.628798456512,0.218138071678,0.303921070463,1.0,-0.166850857143,-0.219289697959,1.252
0.434694957898,0.371539207038,-0.1256638451,-1.62650368316,0.0619548686928,1.99010468922,0.117611511941,-0.184466864062,-0.797830803282,-0.00479208500163,-1.16516599329,-0.0842822811009,0.387194047614,-0.204109062021,0.573667090382,0.819071358571,0.00298762156996,0.0,0.819039922611,-0.57360282564,-0.0115823351952,0.0,-0.00777320050746,0.00909156091142,-0.999928457878,0.0,0.626097364535,0.214572367941,0.303992189818,1.0,-0.176213142857,-0.231594416327,1.268
0.431441689242,0.35792355064,-0.125853766872,-1.64665556562,0.0603777590945,1.9967583487,0.114001338652,-0.198673670201,-0.791571601039,-0.00972326596041,-1.1993573905,-0.101595886628,0.378824187097,-0.22570592372,0.573782491372,0.818990473324,0.00300068350955,0.0,0.818959797606,-0.573718863416,-0.0115005464147,0.0,-0.00769743741864,0.0090564256979,-0.999929362811,0.0,0.623084540504,0.210506046571,0.304031992851,1.0,-0.186160571429,-0.244668179592,1.285
0.42764572485,0.342858870599,-0.126057780517,-1.66881081914,0.0587319156914,2.00392299975,0.109791818599,-0.213344015378,-0.867736590849,-0.0083755325819,-1.23933186416,-0.0915001913515,0.408328896364,-0.231953160897,0.573880081238,0.81892193453,0.00304374851323,0.0,0.818891364139,-0.573815771637,-0.0115386680788,0.0,-0.0077028657872,0.00911448662862,-0.999928793461,0.0,0.619697198935,0.205937848589,0.304070232318,1.0,-0.196693142857,-0.258510987755,1.303
0.424330864636,0.329946618269,-0.126155357664,-1.68786289253,0.0572601474315,2.01001594664,0.106140766813,-0.221308425219,-0.866556430696,-0.00263872249785,-1.26903342179,-0.0957746071724,0.40354506159,-0.247132682573,0.573868430803,0.818930324759,0.00298231769488,0.0,0.818898460763,-0.573803737511,-0.0116330855703,0.0,-0.00781557197822,0.00911825148605,-0.999927884562,0.0,0.616692871041,0.202039134203,0.304021361395,1.0,-0.205470285714,-0.270046661224,1.318
0.420365495671,0.314708687176,-0.126286682305,-1.71004226098,0.0553702784592,2.01708165817,0.101781753912,-0.2366369457,-0.887951809685,-0.00619414484878,-1.32542801794,-0.106170619001,0.411206416858,-0.259866622737,0.573765349047,0.819002572245,0.00297620411494,0.0,0.818971349097,-0.573701530273,-0.0115425483254,0.0,-0.00774607304953,0.00906031460715,-0.999928952002,0.0,0.613141864626,0.197433660385,0.304040159007,1.0,-0.215417714286,-0.28312042449,1.335
0.416055660498,0.298909132471,-0.126404397089,-1.73278022438,0.0534532765517,2.02419337608,0.0970631856197,-0.268503476456,-0.924307575151,-0.00754171830344,-1.36179748416,-0.117041768469,0.423800581988,-0.271496324689,0.573604525407,0.819114949107,0.00304884960011,0.0,0.819084864028,-0.573540732428,-0.011478704982,0.0,-0.00765388677548,0.00908167853409,-0.999929468079,0.0,0.609427083402,0.192611187776,0.304097741184,1.0,-0.225365142857,-0.296194187755,1.352
0.411667334415,0.283594687041,-0.12654721836,-1.75466273206,0.0516900453414,2.03086587357,0.0925073366131,-0.277904479144,-0.953136547401,-0.0101887155074,-1.37769596643,-0.116900717252,0.405120206037,-0.291413575596,0.573644761281,0.819086452841,0.00313329353446,0.0,0.819056700472,-0.573579793461,-0.0115364138855,0.0,-0.00765227379959,0.00918432528004,-0.999928542884,0.0,0.605775483885,0.187852508301,0.304145640784,1.0,-0.234727428571,-0.308498906122,1.368
0.406342436231,0.265832706633,-0.12674184703,-1.77990223058,0.0495182884903,2.0384066874,0.0870169640048,-0.30238648749,-1.00558675138,-0.011152299943,-1.4054859784,-0.123795238851,0.395897486132,-0.303646470218,0.573634827014,0.819093420432,0.00313061380737,0.0,0.819063384427,-0.573569570498,-0.0115700903335,0.0,-0.00768150794193,0.009201355062,-0.99992816217,0.0,0.601480042194,0.182216287351,0.304171292553,1.0,-0.24526,-0.322341714286,1.386
0.400854332376,0.248572113353,-0.126967344408,-1.80424295041,0.04734088325,2.04555665468,0.081597706996,-0.324685307069,-1.01932526334,-0.0058688896726,-1.44102268593,-0.122215654765,0.408840070901,-0.323134600403,0.573757747037,0.819007394639,0.00311161417182,0.0,0.818977188147,-0.573692625372,-0.0115708162926,0.0,-0.00769162208987,0.00918736339769,-0.999928213075,0.0,0.597271713886,0.17659231387,0.304186506757,1.0,-0.255207428571,-0.335415477551,1.403
0.395425000087,0.231847062191,-0.127150377368,-1.82749695247,0.0452268591042,2.05231914483,0.0761716203156,-0.344666088219,-1.05704847052,-0.00820566345347,-1.46926498387,-0.12971711051,0.435962720234,-0.341975401438,0.573735623388,0.819022380353,0.00324373826242,0.0,0.818993964652,-0.573670190013,-0.0114954710646,0.0,-0.00755435757406,0.00925214144963,-0.999928662236,0.0,0.593162217484,0.17118359027,0.304262848742,1.0,-0.264569714286,-0.347720195918,1.419
0.38935852836,0.21368346737,-0.127330157043,-1.85262952851,0.0428389592898,2.05943894822,0.0700951161077,-0.365586112371,-1.10222223675,-0.0165963027964,-1.48042075563,-0.147403352521,0.429663124067,-0.361439127061,0.57359070476,0.819123737997,0.00327904925332,0.0,0.819096009572,-0.573525468187,-0.0114460187211,0.0,-0.00749523168821,0.00925136422093,-0.999929114369,0.0,0.588598356455,0.165280081001,0.304294824559,1.0,-0.274517142857,-0.360793959184,1.436
0.382390153771,0.193987468268,-0.127544419515,-1.87965056066,0.0402534634845,2.06678719162,0.0633204465571,-0.399591664443,-1.12420069296,-0.0177144452366,-1.52861656768,-0.151482090737,0.427712262547,-0.38384068255,0.573545718299,0.819155404939,0.00323704834282,0.0,0.819126775912,-0.573480175492,-0.0115134792005,0.0,-0.00757509150898,0.00925523786269,-0.999928476723,0.0,0.583569632495,0.158733115615,0.304301140594,1.0,-0.285049714286,-0.374636767347,1.454
0.376095221091,0.177254961065,-0.127837470708,-1.90231946574,0.038100835441,2.07282589294,0.0573631433248,-0.434421861872,-1.13872661737,-0.0210711802597,-1.50309305701,-0.138763982273,0.420424521599,-0.403864454008,0.573696520369,0.819049542195,0.00330103743186,0.0,0.819021217226,-0.573630116147,-0.0115534619957,0.0,-0.00756942900786,0.00933198031023,-0.999927806338,0.0,0.579303178562,0.152990914687,0.304337099727,1.0,-0.293826857143,-0.386172440816,1.469
0.368176371457,0.1566011689,-0.128105760318,-1.92999377069,0.0352675931483,2.07999059625,0.0498287889049,-0.443990348469,-1.18464110374,-0.0167796441492,-1.53100654371,-0.167810614806,0.414944178006,-0.435458857078,0.573637892647,0.819090489817,0.00332934102385,0.0,0.819062671849,-0.573571582919,-0.0115206663517,0.0,-0.00752699776196,0.00933580946565,-0.999928090898,0.0,0.573940992983,0.145966965669,0.304386747059,1.0,-0.304359428571,-0.40001524898,1.487
0.360216603406,0.136771837977,-0.128372410086,-1.95634569059,0.0325133828707,2.08659404865,0.0423955813483,-0.479936474212,-1.19871096675,-0.0156025504643,-1.54310800873,-0.162844122197,0.396860019155,-0.452765532923,0.573630798995,0.819095491093,0.00332111683064,0.0,0.819067493463,-0.57356442472,-0.0115342424842,0.0,-0.00754291677211,0.00933679533222,-0.999927961735,0.0,0.568709311462,0.13913087708,0.304395477812,1.0,-0.314306857143,-0.413089012245,1.504
0.352204957261,0.117746392734,-0.128701516243,-1.98132682833,0.029854400108,2.09264635682,0.0349756088157,-0.507487227864,-1.21819058812,-0.0308074269702,-1.57529673821,-0.167363828077,0.387495705879,-0.464713196466,0.573679220691,0.819061497831,0.00334087101929,0.0,0.819033616421,-0.573612606081,-0.0115438389609,0.0,-0.00753889344512,0.00935892640012,-0.999927785184,0.0,0.563652397026,0.132441040659,0.304411752286,1.0,-0.323669142857,-0.425393730612,1.52
0.343095642641,0.0970804302142,-0.129082277311,-2.00805817862,0.0268451377049,2.09889318122,0.0266226260508,-0.543719951974,-1.23447872106,-0.0151324964451,-1.57506793316,-0.179545822202,0.376023331645,-0.502384614125,0.573718442087,0.81903387225,0.00337819738739,0.0,0.819007009872,-0.573652378758,-0.0114548254804,0.0,-0.00744412242443,0.00933879177069,-0.999928683462,0.0,0.558129113496,0.125066562017,0.304466086652,1.0,-0.333616571429,-0.438467493878,1.537
0.333524556654,0.0760679675521,-0.129441344815,-2.03495457486,0.0238978221732,2.10484285121,0.0177881607414,-0.576444070908,-1.25789355842,-0.0272646731486,-1.57487173389,-0.186410002588,0.37476046272,-0.532528776313,0.573678981912,0.819061292296,0.00343104608846,0.0,0.819034221388,-0.573611643493,-0.0115487464851,0.0,-0.00749118746333,0.00943559895204,-0.999927423158,0.0,0.552392427393,0.117579870673,0.304486320993,1.0,-0.33998,-0.446830857143,1.554
0.323981164137,0.0564169465205,-0.12982403356,-2.05997825092,0.0209253166083,2.11013938702,0.00925529681189,-0.611123334854,-1.24292492141,-0.0325303360885,-1.53925468718,-0.184450717716,0.33838714447,-0.546867706023,0.573785311985,0.818987419679,0.00328162440186,0.0,0.818958402262,-0.573718415241,-0.0116216298083,0.0,-0.00763538726276,0.00935601449457,-0.999927080268,0.0,0.546947056163,0.110338122661,0.304421893049,1.0,-0.33998,-0.446830857143,1.57
0.312197808427,0.0331267864574,-0.130167996534,-2.089023251,0.0175104451251,2.11593123907,-0.00112362585464,-0.631577553597,-1.24235682286,-0.023226204221,-1.51523091411,-0.190430363586,0.317993926146,-0.557158852857,0.573948816932,0.818872760141,0.00330229352047,0.0,0.818843161655,-0.573880789786,-0.0117244456654,0.0,-0.00770585473112,0.00943347380947,-0.999925811935,0.0,0.540447254682,0.101783871334,0.304432646075,1.0,-0.33998,-0.446830857143,1.589
0.301983365739,0.0137896842603,-0.130432655167,-2.11267345609,0.0145205412153,2.12042939626,-0.0101753557721,-0.648089669938,-1.24095299287,-0.0163678012725,-1.46567662503,-0.182930600318,0.292192620738,-0.573323389074,0.573935151148,0.818882081613,0.0033653516785,0.0,0.818853973515,-0.573867749582,-0.0116070215625,0.0,-0.00757366100061,0.0094175905869,-0.999926971657,0.0,0.534698399712,0.0941582448927,0.304504929437,1.0,-0.33998,-0.446830857143,1.606
0.291417140823,-0.00531606258543,-0.13072871603,-2.13578750813,0.0116845059169,2.12448385308,-0.0194815854775,-0.664731809109,-1.19261873825,-0.0140275945084,-1.40808615156,-0.168231411592,0.258820740322,-0.59851567101,0.57402057408,0.818821937191,0.00342966604518,0.0,0.818793610067,-0.573951638924,-0.0117169616833,0.0,-0.00762578963604,0.00953414927632,-0.999925470888,0.0,0.52960705911,0.0874334417691,0.30453837379,1.0,-0.33998,-0.446830857143,1.621
0.279990069569,-0.0254671371796,-0.13092803588,-2.15984270185,0.00854303080311,2.12847998541,-0.0296101784845,-0.680039777822,-1.17625087368,-0.0139029276571,-1.37532864695,-0.175277711383,0.205044173568,-0.589037910791,0.573872318736,0.818925723432,0.00345950733993,0.0,0.81889776666,-0.573803284443,-0.0117040771713,0.0,-0.00759983951089,0.00954981260287,-0.999925518986,0.0,0.52380691418,0.0799211244736,0.304578285557,1.0,-0.33998,-0.446830857143,1.638
0.268031524391,-0.045375901438,-0.13129353427,-2.18339595741,0.00544643680433,2.13214920176,-0.0400332675551,-0.705407829695,-1.15213187945,-0.0125978771454,-1.36364980223,-0.166437452201,0.192801504511,-0.626277737691,0.574012723959,0.818827245719,0.00347581692313,0.0,0.818799028522,-0.573943022138,-0.0117603202658,0.0,-0.0076348967782,0.00959675375763,-0.999924802507,0.0,0.518013061428,0.0722395026739,0.304566157068,1.0,-0.33998,-0.446830857143,1.655
0.256604481933,-0.0640218712543,-0.131480330957,-2.20491776723,0.00253603288227,2.13529640308,-0.0501152577332,-0.725105245388,-1.15397018996,-0.00947900644166,-1.35510342069,-0.191978670308,0.190883357302,-0.635158950633,0.57388330799,0.818917110237,0.00366909698868,0.0,0.818891735512,-0.573813424322,-0.0116286920765,0.0,-0.00741770061763,0.0096782918144,-0.999925651429,0.0,0.512587020597,0.065186106601,0.304662225811,1.0,-0.33998,-0.446830857143,1.671
0.243977409233,-0.0834717446005,-0.131842962354,-2.22712337976,-0.000554598277159,2.13818384046,-0.0611885149441,-0.760164441542,-1.12534055794,-0.026545134458,-1.29741157148,-0.183743597478,0.163925046582,-0.658698557948,0.573930961746,0.818883288248,0.00376274874794,0.0,0.81885914089,-0.573860799964,-0.0115860496678,0.0,-0.00732846953894,0.00973094118655,-0.999925798406,0.0,0.506852688989,0.0575472935467,0.304721725471,1.0,-0.33998,-0.446830857143,1.688
0.231142014467,-0.102726786099,-0.132046739249,-2.24886321863,-0.00364159237665,2.14070456082,-0.0725420336644,-0.763309861948,-1.12541665751,-0.0112557267048,-1.25964710054,-0.176645437542,0.130497188815,-0.66928138801,0.573740676002,0.819016511179,0.00378655767825,0.0,0.818992508345,-0.573670250812,-0.0115957539761,0.0,-0.00732501950233,0.00975430589652,-0.999925596035,0.0,0.501064820076,0.0500733878617,0.304744945678,1.0,-0.33998,-0.446830857143,1.705
0.218554351254,-0.120579268407,-0.132401388917,-2.26889214678,-0.00656390475552,2.14278435389,-0.0835079863402,-0.800276014248,-1.13078473865,-0.0290366895001,-1.23526650273,-0.179262460043,0.139579917946,-0.706720866629,0.57382911435,0.818954873947,0.00371602810898,0.0,0.818929507199,-0.573758304052,-0.0116883562472,0.0,-0.00744027757982,0.00975047190834,-0.999924782455,0.0,0.49561041451,0.0428781287021,0.304695781307,1.0,-0.33998,-0.446830857143,1.721
0.204066172437,-0.140380526047,-0.132703071836,-2.29088137871,-0.00977838189339,2.14464588918,-0.0962693225931,-0.82016976344,-1.11232390585,-0.0178240145959,-1.19609247529,-0.174542570899,0.0994078475169,-0.727204662103,0.573754533795,0.819007940605,0.00353200752793,0.0,0.818978600968,-0.573682343301,-0.0119735977393,0.0,-0.00778037106716,0.00976273253543,-0.999922074404,0.0,0.489423822792,0.0348843234714,0.304587351543,1.0,-0.33998,-0.446830857143,1.739
0.18987831503,-0.15901145888,-0.133150652653,-2.31109301198,-0.0128795178171,2.14618947005,-0.108711214783,-0.843991859069,-1.08120264804,-0.0258701794842,-1.18207084922,-0.185075366492,0.0817994872248,-0.73360811635,0.573838282303,0.818949322892,0.00351840884131,0.0,0.818919528387,-0.573765782338,-0.0120158206234,0.0,-0.00782175615518,0.00977661980624,-0.999921615846,0.0,0.483616794711,0.0272084951246,0.304567859632,1.0,-0.33998,-0.446830857143,1.756
0.176274682803,-0.176326124577,-0.133434281091,-2.32948033951,-0.0156315612047,2.14729995641,-0.120730081576,-0.858310937323,-1.07745030214,-0.0222422949075,-1.14688736178,-0.186359405721,0.0620681079957,-0.766281682494,0.573800159149,0.818975520581,0.0036360625789,0.0,0.818946590882,-0.573726378226,-0.0120528466065,0.0,-0.00778503119563,0.00989385684165,-0.999920749303,0.0,0.478179900329,0.0201312989475,0.304602880945,1.0,-0.33998,-0.446830857143,1.772
0.161255879198,-0.194540488633,-0.133902246045,-2.348436773,-0.0186992899439,2.14821612877,-0.133904063002,-0.883940560268,-1.07755459947,-0.0236220495863,-1.104372201,-0.176066390859,0.0676656479546,-0.779558031184,0.573928520262,0.818884994564,0.00376380239374,0.0,0.818858404071,-0.57385512065,-0.0119147592028,0.0,-0.00759708651569,0.00992043233897,-0.999921931602,0.0,0.472437197774,0.0124378746707,0.304686590792,1.0,-0.33998,-0.446830857143,1.789
0.146011770468,-0.212410258731,-0.134215369513,-2.36696658799,-0.0215376400217,2.1487391506,-0.147512083237,-0.911357707339,-1.05640078129,-0.0250463961038,-1.07456294616,-0.166696390305,0.0275833400512,-0.810439772281,0.573831882946,0.818952486944,0.00381328530209,0.0,0.818925040993,-0.57375635757,-0.012089924926,0.0,-0.0077133259052,0.0100605729045,-0.999919641509,0.0,0.466624460804,0.0049346370251,0.304665329501,1.0,-0.33998,-0.446830857143,1.806
0.13118508063,-0.228976361157,-0.134631394088,-2.38375666201,-0.0243971934035,2.14905694979,-0.160577759732,-0.930813113258,-1.0215257196,-0.018462165184,-1.03620442077,-0.178094427331,0.0117410617884,-0.828121600634,0.57391196333,0.818896114178,0.0038677424738,0.0,0.818870101689,-0.573837173219,-0.0119750613021,0.0,-0.00758702283316,0.0100400029169,-0.999920814578,0.0,0.461227968475,-0.0022516202091,0.304712771723,1.0,-0.33998,-0.446830857143,1.822
0.11506031941,-0.246420805644,-0.135048852422,-2.40107020209,-0.0272599812339,2.1491675225,-0.174988264319,-0.966017205499,-1.03912703027,-0.0300652823951,-1.00298289577,-0.168440703493,0.00684553602339,-0.854831436789,0.573904087756,0.818900441669,0.00411237069331,0.0,0.818878194258,-0.573829234681,-0.0118008175282,0.0,-0.00730403678358,0.0101402633373,-0.999921910004,0.0,0.455503598982,-0.00983554973642,0.304813994411,1.0,-0.33998,-0.446830857143,1.839
0.0976116821207,-0.264433703487,-0.13543480889,-2.41901440299,-0.0303097762061,2.14900497519,-0.190676527981,-0.978754118814,-1.00717505243,-0.0203020489767,-0.971526384666,-0.167250241398,-0.0158919822565,-0.882166734111,0.573770184662,0.818994271881,0.00411153490235,0.0,0.818971687824,-0.573694903451,-0.0118439519857,0.0,-0.00734150356055,0.0101631328683,-0.999921403439,0.0,0.449368522076,-0.0178000988551,0.304762398974,1.0,-0.33998,-0.446830857143,1.857
0.0815757391337,-0.28012055336,-0.135886909613,-2.4343104748,-0.033001926012,2.14864092713,-0.205062886502,-1.00809891237,-0.95795212775,-0.0290430405898,-0.968075932017,-0.170421853873,-0.0320316088313,-0.904824348248,0.573801270818,0.818972150802,0.00417908116838,0.0,0.818950663388,-0.573726062373,-0.0117882650049,0.0,-0.00725675267722,0.0101867788628,-0.999921781479,0.0,0.443961891009,-0.0249828875606,0.304760786164,1.0,-0.33998,-0.446830857143,1.873
0.0641921597674,-0.296620185764,-0.136328131722,-2.45001075941,-0.0357248008915,2.1479287846,-0.220797136448,-1.04173842062,-0.958609484656,-0.0367935731148,-0.893856088245,-0.163885890291,-0.034827056522,-0.944983195998,0.573765366587,0.818996387472,0.00435526283766,0.0,0.818977224371,-0.573689641941,-0.0117152718077,0.0,-0.00709633273728,0.0102888763864,-0.999921887491,0.0,0.438209060509,-0.0325482252495,0.304821354584,1.0,-0.33998,-0.446830857143,1.89
0.0463637311674,-0.312773951278,-0.136778523157,-2.46526619081,-0.0384452744317,2.14696605606,-0.236873790022,-1.04925768831,-0.963846538595,-0.0285207335,-0.895823040861,-0.15406432447,-0.0644902043731,-0.947884827858,0.573805859285,0.818967655306,0.004422930396,0.0,0.818949011211,-0.573729386967,-0.0117411442449,0.0,-0.00707818850519,0.0103594912892,-0.999921286996,0.0,0.432410064384,-0.0401181836227,0.304824940982,1.0,-0.33998,-0.446830857143,1.907
0.029109812412,-0.327654173952,-0.137270385701,-2.47894607532,-0.0409437806222,2.14596606597,-0.252504302207,-1.08796407987,-0.944504822635,-0.0243389053815,-0.850758176554,-0.157945703393,-0.060522288389,-0.97474412719,0.573900626817,0.818899998088,0.00464871723934,0.0,0.818885039744,-0.573824579954,-0.0115494599913,0.0,-0.00679043528454,0.0104352082398,-0.999922495205,0.0,0.427024166833,-0.047306339435,0.304911442299,1.0,-0.33998,-0.446830857143,1.923
0.0104545779837,-0.343001717399,-0.137754851843,-2.49307022152,-0.0435687800659,2.14463117647,-0.269575062267,-1.12240169167,-0.899202321359,-0.0456417465177,-0.849766842493,-0.159815227272,-0.0837560909137,-1.00418842877,0.573859508329,0.818928563908,0.00469242112802,0.0,0.818913766698,-0.57378271489,-0.0115924849014,0.0,-0.00680111782076,0.0104953480147,-0.999921793175,0.0,0.421237583714,-0.0548757414722,0.304893972939,1.0,-0.33998,-0.446830857143,1.94
-0.00863291887592,-0.357929382368,-0.13818391516,-2.50637858365,-0.0461376615276,2.14308949778,-0.287095996394,-1.12089005837,-0.875799824885,-0.0226341066069,-0.76298100205,-0.138557502933,-0.0806003974749,-1.04512845751,0.573791424878,0.818975612938,0.00480552291794,0.0,0.818962982412,-0.573715416054,-0.0114455983779,0.0,-0.00661679076045,0.0105031338006,-0.999922948162,0.0,0.415532218122,-0.0624353312398,0.30497875721,1.0,-0.33998,-0.446830857143,1.957
-0.027066127131,-0.371595218744,-0.138640769869,-2.51868020286,-0.0485391558265,2.14152459824,-0.304083441069,-1.15302386755,-0.843141563447,-0.0239122074053,-0.757243459438,-0.155051014798,-0.0966548606546,-1.07092681242,0.573741526353,0.8190107464,0.00477547069836,0.0,0.818997183234,-0.573664752771,-0.011537425384,0.0,-0.00670988534384,0.0105307998511,-0.999922036807,0.0,0.410055493228,-0.0695828046237,0.304926146056,1.0,-0.33998,-0.446830857143,1.973
-0.0482081779179,-0.386504420357,-0.139164938482,-2.5316353465,-0.051157444703,2.13958406778,-0.323570234824,-1.18541950212,-0.854450160262,-0.0291980325683,-0.706242900845,-0.143846931582,-0.105559371385,-1.09968426767,0.573766676669,0.81899262637,0.00486061702691,0.0,0.818980697222,-0.573690502888,-0.0114267832646,0.0,-0.00657008790484,0.0105372618553,-0.999922897056,0.0,0.40398184964,-0.0776211076117,0.304991039589,1.0,-0.33998,-0.446830857143,1.991
-0.0673971051211,-0.399208206648,-0.139636635353,-2.54277263442,-0.0532828616387,2.13776460362,-0.341456641016,-1.22512368211,-0.7655685274,-0.0454776357765,-0.685700722138,-0.122617270119,-0.125548871984,-1.134644136,0.573773111283,0.818987714256,0.00492824191713,0.0,0.818975100849,-0.573694241752,-0.0116382159479,0.0,-0.00670438094745,0.0107140090732,-0.999920127453,0.0,0.398174316003,-0.0851924910791,0.304921605641,1.0,-0.33998,-0.446830857143,2.008
-0.0881525861943,-0.412291101533,-0.140072414647,-2.55389757185,-0.0555989713486,2.13570103414,-0.36084381801,-1.2309640981,-0.762801888996,-0.0157380339009,-0.628025050414,-0.131973099228,-0.105772640786,-1.16051644411,0.573646507767,0.819076290206,0.00494589224778,0.0,0.819064197697,-0.573568073794,-0.0115867026016,0.0,-0.00665371559755,0.0106978807171,-0.999920638559,0.0,0.392775416031,-0.0922742502327,0.304957611299,1.0,-0.33998,-0.446830857143,2.024
-0.109432158332,-0.424817061146,-0.140598921298,-2.56449017049,-0.0578890411435,2.13363148712,-0.380775740825,-1.24782236054,-0.717623994188,-0.0347744381253,-0.616369485874,-0.124576614071,-0.129023462421,-1.1836427347,0.573620721234,0.819094318152,0.00495106494216,0.0,0.81908226569,-0.573542232582,-0.0115886314289,0.0,-0.00665266540238,0.010703014675,-0.999920590607,0.0,0.38699590305,-0.099893045375,0.304948090549,1.0,-0.33998,-0.446830857143,2.041
-0.133627479321,-0.438177186222,-0.141121986862,-2.57575059592,-0.0602256004825,2.13111112289,-0.403476444504,-1.28484937233,-0.702578134057,-0.0262955797245,-0.582571084237,-0.122078805642,-0.128392527936,-1.21051761724,0.573642940876,0.819078826683,0.00493953070385,0.0,0.819064771529,-0.5735615359,-0.0118664011802,0.0,-0.00688652572547,0.0108530818135,-0.999917389777,0.0,0.380476171673,-0.108319612514,0.304874833346,1.0,-0.33998,-0.446830857143,2.06
-0.153091799401,-0.448278052298,-0.141589361556,-2.58376592926,-0.0620180527038,2.1293042488,-0.421918625776,-1.29688509881,-0.653726445263,-0.020087176454,-0.537967611284,-0.122966877753,-0.123979694646,-1.2362201713,0.573624851268,0.819090141675,0.00515913936623,0.0,0.819080812646,-0.573545788706,-0.0115150993963,0.0,-0.00647302636492,0.0108313077795,-0.999920388182,0.0,0.375476169984,-0.115048707934,0.305014806745,1.0,-0.33998,-0.446830857143,2.075
-0.175540225439,-0.459054671264,-0.142101033153,-2.59261282965,-0.063991457463,2.1269945356,-0.443174403668,-1.33273795044,-0.616817879534,-0.0399708740311,-0.495059200124,-0.11921960855,-0.128491339054,-1.26661587983,0.573647758571,0.819074237936,0.0051369968214,0.0,0.819063120773,-0.573566275667,-0.0117506811758,0.0,-0.00667840067427,0.0109484873584,-0.999917761413,0.0,0.369637881781,-0.122627978389,0.304962079309,1.0,-0.33998,-0.446830857143,2.092
-0.198188238514,-0.469088978036,-0.142471648416,-2.60075542955,-0.0657109267245,2.12487655332,-0.464826102799,-1.33747785057,-0.565360887753,-0.0202577569514,-0.456031332769,-0.0923755419046,-0.121410554203,-1.27776204943,0.57355043743,0.819141637424,0.00525551736123,0.0,0.819131169713,-0.573467095781,-0.0118475213803,0.0,-0.00669106060853,0.0111003228693,-0.999916002742,0.0,0.363573181033,-0.130546019531,0.30493012098,1.0,-0.331056571429,-0.435102922449,2.11
-0.219612976904,-0.477749409801,-0.142720114165,-2.6074437037,-0.0672252635329,2.12303506652,-0.485020171193,-1.34147454916,-0.525456464346,-0.0083965771666,-0.406705667251,-0.0923661515564,-0.115983671109,-1.26956670717,0.573704152517,0.819033212702,0.00537482811302,0.0,0.819025698246,-0.573622758303,-0.0116010202564,0.0,-0.006418620742,0.0110578887414,-0.999918258861,0.0,0.358693086025,-0.13709384717,0.305030513053,1.0,-0.322279428572,-0.42356724898,2.125
-0.243387251685,-0.486528297928,-0.142858240848,-2.61438664394,-0.0686722109894,2.12095490606,-0.507601865279,-1.30734138444,-0.463774202996,-0.00301229550071,-0.366521578476,-0.0694399823944,-0.114992390246,-1.21957373667,0.573762832739,0.818991600695,0.00545129879904,0.0,0.818984342759,-0.573679910306,-0.0116941750082,0.0,-0.00645025469012,0.0111744264857,-0.999916759739,0.0,0.352911864463,-0.144656309718,0.30502041911,1.0,-0.311746857143,-0.409724440816,2.143
-0.264315569528,-0.493442249871,-0.142829978326,-2.61987562237,-0.0697947100712,2.11924897989,-0.527447710819,-1.29829522772,-0.418832061969,0.0110162398469,-0.322332545525,-0.0659703301958,-0.0977222513125,-1.22590490152,0.573830266839,0.818944240804,0.00546829167655,0.0,0.818936341055,-0.573745784194,-0.0118233379259,0.0,-0.00654537122401,0.0112629887818,-0.999915148,0.0,0.347918879766,-0.151190312313,0.304984205515,1.0,-0.302384571429,-0.397419722449,2.159
-0.284810332929,-0.499643161707,-0.142741816752,-2.62467333535,-0.0707333835467,2.11776144366,-0.546962323721,-1.26617093897,-0.36513259183,0.0246489257558,-0.284914053115,-0.0649384649157,-0.104686517106,-1.20781224049,0.573886998214,0.818903809596,0.00556873520306,0.0,0.818897384032,-0.573802443768,-0.011771867023,0.0,-0.00644479696531,0.0113161619906,-0.999915200939,0.0,0.343129769855,-0.157517067398,0.305001610724,1.0,-0.293022285714,-0.385115004082,2.175
-0.307350999365,-0.505696662305,-0.142577564676,-2.62933629771,-0.0715313782129,2.11623578484,-0.568456351702,-1.25121154251,-0.323059317626,0.00245149439227,-0.246655586197,-0.0400012550442,-0.0806950971466,-1.20356001051,0.574010284045,0.818816207892,0.00574094104864,0.0,0.818811775569,-0.573924662631,-0.0117688026014,0.0,-0.00634174076112,0.0114563844285,-0.999914263115,0.0,0.337941566724,-0.164383948949,0.305012708878,1.0,-0.282489714286,-0.371272195918,2.193
-0.328142079444,-0.510719226549,-0.142261011726,-2.63314058373,-0.0722084480025,2.11498666461,-0.58836474341,-1.21945242479,-0.280571753124,0.0151898036405,-0.21841835928,-0.0348363502894,-0.0730880155104,-1.14768409216,0.573991566792,0.818828751912,0.00582264509449,0.0,0.818826035629,-0.57390686274,-0.0116440189709,0.0,-0.00619292077504,0.0114515225697,-0.99991525159,0.0,0.33322785892,-0.170627244347,0.305049086215,1.0,-0.272542285714,-0.358198432653,2.21
-0.347143023518,-0.514741713451,-0.141949503452,-2.63633510046,-0.0727139379014,2.11377568735,-0.606679885082,-1.16661616428,-0.23491639361,0.0156691181966,-0.191879584158,-0.0216893444528,-0.0699459150144,-1.1224250972,0.573925803084,0.818874617248,0.00585497076404,0.0,0.818870775262,-0.573838157633,-0.0118814631746,0.0,-0.00636974561059,0.011613766344,-0.999912269538,0.0,0.328885631256,-0.176245961764,0.304989188568,1.0,-0.26318,-0.345893714286,2.226
-0.366899757983,-0.518374992942,-0.141540214784,-2.63928912482,-0.0732290237572,2.1127382648,-0.625626474357,-1.15088037561,-0.195997465436,0.0335343283737,-0.160614290354,-0.0295341065578,-0.047275673476,-1.10549044351,0.573903211654,0.818890774956,0.00580941021284,0.0,0.818885168605,-0.573813640885,-0.012071995439,0.0,-0.00655225302586,0.0116856217996,-0.999910253084,0.0,0.324419948552,-0.182040749377,0.304907946526,1.0,-0.253232571429,-0.332819951021,2.243
-0.386049302174,-0.521410840969,-0.141170269299,-2.64165550682,-0.0735466409185,2.11186880324,-0.64399504195,-1.11303168687,-0.165450544042,0.0262362874802,-0.124322512368,-0.0143095677405,-0.0544358092685,-1.07151402543,0.57400361843,0.818819763359,0.00589814056122,0.0,0.81881481152,-0.573912751991,-0.0121327836135,0.0,-0.00654967102766,0.0117939736183,-0.999908997857,0.0,0.320156929214,-0.187646461168,0.304883989965,1.0,-0.243285142857,-0.319746187755,2.26
-0.403368253823,-0.523810682856,-0.140660934338,-2.64346077243,-0.0737755673285,2.11115467203,-0.660819565225,-1.07026230534,-0.145248372631,0.0310415231716,-0.107762637037,-0.00933270890058,-0.046825952983,-1.02720576934,0.57384188387,0.818933016264,0.00591219841661,0.0,0.818928368209,-0.573751207763,-0.0121089320253,0.0,-0.00652439886007,0.0117905063707,-0.999909203968,0.0,0.316349521982,-0.192651984983,0.304896301631,1.0,-0.233922857143,-0.307441469388,2.276
-0.421334920748,-0.525873701818,-0.140240199081,-2.64498438384,-0.0739481900453,2.11052939869,-0.678077119448,-1.03285408126,-0.105913403136,0.0274551934794,-0.0824172030936,-0.000384684456083,-0.0375996986168,-0.991834180833,0.573959894196,0.818849773222,0.00598628853585,0.0,0.818846323853,-0.573869303212,-0.0120609967802,0.0,-0.00644092125509,0.0118246064573,-0.999909342498,0.0,0.312411350471,-0.197864369292,0.304916973104,1.0,-0.223975428572,-0.294367706123,2.293
-0.438614286713,-0.527503191368,-0.139798590439,-2.646179617,-0.0740429688053,2.11003756055,-0.694719644063,-1.00564619815,-0.0896621222782,0.028946652921,-0.0663054167746,-0.01175010775,-0.021898781697,-0.977335276561,0.574057206323,0.818781002237,0.00606144750441,0.0,0.818778912167,-0.573966985011,-0.0119891621805,0.0,-0.00633754949471,0.0118456784073,-0.999909753613,0.0,0.308639255254,-0.202849375591,0.30493924819,1.0,-0.214028,-0.281293942857,2.31
-0.454102891921,-0.528622490808,-0.139241581222,-2.64704556712,-0.0740759401517,2.10965914807,-0.709749408128,-0.952918215937,-0.0599751318214,0.0345111059166,-0.048661024396,-0.00125487760322,-0.0172109502879,-0.921583988459,0.573974095132,0.818839343677,0.00605097230012,0.0,0.818837143279,-0.573883983137,-0.0119855574493,0.0,-0.0063418120095,0.0118343882126,-0.999909860275,0.0,0.305280381411,-0.207257592453,0.304936920896,1.0,-0.204665714286,-0.26898922449,2.326
-0.470060530656,-0.529472160719,-0.138714120942,-2.64769245333,-0.0740737598514,2.10933325916,-0.725089470977,-0.907679418685,-0.0409187113316,0.0364520226289,-0.0342645208207,-0.000262597400763,-0.0210220626997,-0.890585088231,0.574070089758,0.818771988317,0.00605888560202,0.0,0.818769907424,-0.573979955861,-0.0119831493505,0.0,-0.006333910077,0.0118402287878,-0.999909841218,0.0,0.301817812466,-0.211805705548,0.304939120531,1.0,-0.194718285714,-0.255915461225,2.343
-0.485157482534,-0.529966205986,-0.138115301749,-2.6480911483,-0.0740634624224,2.10911028769,-0.739755482261,-0.879235793066,-0.0212369132115,0.0292049901211,-0.0188690471009,-0.000223470903749,-0.00986219359508,-0.834219105362,0.573981586247,0.818834526208,0.00599201472163,0.0,0.818831629839,-0.573891848289,-0.0119856307239,0.0,-0.00637560260165,0.0117862094367,-0.999910214449,0.0,0.298561957303,-0.21608305992,0.30493484982,1.0,-0.184770857143,-0.242841697959,2.36
-0.49873942869,-0.530164527009,-0.13753065539,-2.64826727155,-0.0739954330481,2.10895189712,-0.752960308083,-0.830696363819,-0.00391131543826,0.0349399302898,-0.00561742167622,0.00949501990771,-0.00627606503973,-0.8115371765,0.573887828945,0.818900647138,0.00593605980808,0.0,0.818896912863,-0.573798139028,-0.012012021175,0.0,-0.00643067565307,0.0117548001211,-0.999910231513,0.0,0.295467014285,-0.220141232108,0.304927683544,1.0,-0.174823428572,-0.229767934694,2.377
-0.513287849332,-0.530234358277,-0.136913634378,-2.64833236758,-0.0738649345154,2.10886417278,-0.767009862358,-0.80075040523,-0.00536356540516,0.0283146451162,-0.000316809649057,0.0104475146946,-0.00206339333714,-0.769832263791,0.573922213329,0.818876754275,0.00590772850278,0.0,0.81887288593,-0.573833060762,-0.0119817346871,0.0,-0.00642163771868,0.0117144879197,-0.999910762689,0.0,0.292506662897,-0.224004060434,0.304933566028,1.0,-0.164876,-0.216694171429,2.394
-0.526206156785,-0.530079677624,-0.136231542622,-2.64827438607,-0.0736328078504,2.10885328604,-0.779571330759,-0.739963275509,0.00934084997871,0.0431530054806,0.00638315291178,0.0198856978288,-0.000706816061022,-0.718118190852,0.573836081248,0.818937192736,0.00589687310414,0.0,0.8189331585,-0.573746945334,-0.0119863059494,0.0,-0.00643284266713,0.0117075451576,-0.99991077198,0.0,0.289744737416,-0.227585870949,0.304920475936,1.0,-0.154928571429,-0.203620408163,2.411
-0.53773164292,-0.529812814356,-0.135658047762,-2.64811308651,-0.073382089881,2.10885362941,-0.79066598739,-0.716208568366,0.0207134861161,0.0289678520655,0.0127486421709,0.020555408265,-0.000210547487851,-0.672378153612,0.573900835522,0.818891594469,0.00592742751502,0.0,0.818887815172,-0.573811301514,-0.0120034711038,0.0,-0.00642844046169,0.0117429263507,-0.999910385402,0.0,0.287266550044,-0.230781113059,0.304911489743,1.0,-0.145566285714,-0.191315689796,2.427
-0.549866816025,-0.52935447094,-0.134934575331,-2.64781949865,-0.0730427940888,2.10888539837,-0.802399643502,-0.645188053231,0.026648551291,0.0476356425727,0.0190811670298,0.0247980401137,-0.00080972842221,-0.635091201116,0.573881112149,0.818905272517,0.0059473240296,0.0,0.818901490139,-0.573791020915,-0.0120399612374,0.0,-0.00644719073993,0.0117800056569,-0.999909828534,0.0,0.284680550102,-0.23411047337,0.304899257605,1.0,-0.135033714286,-0.177472881633,2.445
-0.560518207786,-0.528785998649,-0.134260895628,-2.6474578048,-0.0726920181465,2.10897282629,-0.812753831135,-0.61418050196,0.0348039466869,0.0383441812006,0.020156744258,0.0217752203365,0.00541814322596,-0.599251142341,0.573819760757,0.818948054294,0.0059760718161,0.0,0.81894438748,-0.573729087558,-0.0120735746975,0.0,-0.00645910863447,0.0118223538343,-0.999909251815,0.0,0.282422789537,-0.2370239307,0.30488107958,1.0,-0.125086285714,-0.164399118367,2.462
-0.56945558402,-0.528236372312,-0.133732998247,-2.64704558402,-0.072397482541,2.10905989031,-0.821209951927,-0.578915103006,0.0389751284338,0.0313299014618,0.0312733499479,0.0193080629692,0.00981492268314,-0.555200497384,0.573990284672,0.818828323898,0.00600632884406,0.0,0.818825151901,-0.57389963251,-0.012055261083,0.0,-0.00642428299778,0.0118379637864,-0.999909291487,0.0,0.280525288941,-0.239487096365,0.304888776364,1.0,-0.116309142857,-0.152863444898,2.477
-0.579071045135,-0.527424406881,-0.132951393177,-2.64651736386,-0.0719644228376,2.10920025175,-0.83064220425,-0.524808575882,0.0465003983563,0.0377819288059,0.0259727911211,0.0208236100583,0.00501019540382,-0.501808028365,0.573803485232,0.818959145505,0.00601873989921,0.0,0.818955708151,-0.573712033083,-0.0121160258979,0.0,-0.00646963127255,0.01188152804,-0.999908482394,0.0,0.278535865575,-0.242081982391,0.304864202292,1.0,-0.105776571429,-0.139020636735,2.495
-0.587603504823,-0.526715130177,-0.132294169339,-2.64601349722,-0.0716092494171,2.10931747463,-0.838771218348,-0.483971652596,0.0404132777498,0.0359103125953,0.026303560175,0.0224901597066,-4.56825962492e-06,-0.466654435511,0.573849612774,0.818926815181,0.00601998318585,0.0,0.818923274537,-0.573757926196,-0.0121350504725,0.0,-0.00648383000091,0.0118938273509,-0.9999082442,0.0,0.27674829462,-0.244389895755,0.304860632341,1.0,-0.0958291428572,-0.12594687347,2.512
-0.594972990995,-0.526010473488,-0.131719360589,-2.64549709319,-0.0712338602171,2.10943952342,-0.84572953728,-0.440961807395,0.0476072059306,0.0345850256516,0.0338755671023,0.0230643750173,0.0137397167057,-0.42219862618,0.573971226693,0.818841224886,0.0060684641918,0.0,0.818838308675,-0.573879287318,-0.0121299107524,0.0,-0.00645002925579,0.0119315404284,-0.999908013502,0.0,0.275129705891,-0.246504171652,0.30486532191,1.0,-0.0858817142858,-0.112873110204,2.529
-0.601814097478,-0.525249076515,-0.130995403517,-2.64498329659,-0.0708050768117,2.10957700969,-0.852373940368,-0.385793693714,0.0426997497937,0.0440761393407,0.0237484891737,0.0239501776226,0.00681482984312,-0.371068341287,0.573830259282,0.818939951349,0.00607754205119,0.0,0.818936759791,-0.573737582204,-0.0121867604305,0.0,-0.00649343573061,0.0119704849615,-0.999907267091,0.0,0.273839022857,-0.248187048038,0.304847364975,1.0,-0.0765194285715,-0.100568391837,2.545
-0.608119663584,-0.524613895992,-0.130323399349,-2.64448113148,-0.0704091131789,2.10970449989,-0.8582891264,-0.360822076372,0.0385756689475,0.0371069440086,0.0354984454257,0.0212824330119,0.00788681719276,-0.32851487922,0.57388243383,0.818903366258,0.00608077088948,0.0,0.818900586391,-0.573790414335,-0.0121300011193,0.0,-0.00644433477458,0.0119409713125,-0.999907937639,0.0,0.272498417215,-0.249941599101,0.304872743129,1.0,-0.065986857143,-0.0867255836736,2.563
-0.613316945874,-0.524012768207,-0.129665950972,-2.64402452596,-0.0700076848264,2.10985185506,-0.863128985838,-0.305103729255,0.0418291302809,0.0392365015228,0.0352520510171,0.0262337831303,0.0103617092157,-0.294483086475,0.573895008881,0.818894477923,0.00609095312229,0.0,0.818892122144,-0.57380348352,-0.0120831077029,0.0,-0.00639990327248,0.0119224982757,-0.999908443445,0.0,0.271556242996,-0.251196860641,0.304886883157,1.0,-0.0572097142858,-0.0751899102042,2.578
-0.618613468023,-0.5233466689,-0.128952969526,-2.64353632768,-0.0695290350178,2.10999155499,-0.868025274409,-0.261943760358,0.0309199237114,0.0407391941689,0.0218116862131,0.0191780395718,0.00485333643852,-0.246481928889,0.573949063871,0.818856262877,0.00613512272192,0.0,0.818854546648,-0.573857455382,-0.0120664509012,0.0,-0.0063601254296,0.0119495313996,-0.999908374554,0.0,0.270536033045,-0.252553507912,0.304894159444,1.0,-0.0460920000001,-0.060578057143,2.597
-0.622336085877,-0.522886009832,-0.128257730703,-2.64321137136,-0.0691258453754,2.11007444986,-0.871457621469,-0.21744899248,0.0313809035285,0.0438100924086,0.0206231954301,0.0274917973758,0.010008574312,-0.192192125849,0.573884376687,0.818901640281,0.00612965268654,0.0,0.818899785222,-0.573792678867,-0.0120768515455,0.0,-0.00637272639924,0.0119505177745,-0.999908282536,0.0,0.269855307797,-0.253447910832,0.304897077314,1.0,-0.0367297142858,-0.0482733387756,2.613
-0.625335750496,-0.522551231122,-0.127520059305,-2.6429598598,-0.0687347151156,2.11014835539,-0.874144437086,-0.176750516713,0.0196691847881,0.0489502317343,0.0148692361875,0.0268674185056,0.000990584164331,-0.162097156492,0.573798685305,0.818961962846,0.00609254092345,0.0,0.818959832521,-0.573707555388,-0.0120490874711,0.0,-0.00637253025751,0.0119035260241,-0.999908844308,0.0,0.269347658906,-0.254119972718,0.304912915074,1.0,-0.0273674285715,-0.0359686204083,2.629
-0.627851212987,-0.522270819689,-0.126787678102,-2.64276316962,-0.0683542809774,2.11023270558,-0.876328705901,-0.130956339605,0.0131876364312,0.0485017139009,0.0164086003667,0.0296837166606,0.00308350311527,-0.111585274488,0.57372416697,0.819014496328,0.006048300538,0.0,0.819012049309,-0.573633723518,-0.0120150418877,0.0,-0.00637110698498,0.0118471790115,-0.99990952258,0.0,0.268949767904,-0.254651577827,0.304924415456,1.0,-0.0198925,-0.0261444285714,2.646
-0.629852717889,-0.522028159679,-0.126342116965,-2.64258859218,-0.0680457705258,2.11025080132,-0.878040714139,-0.109151998041,0.00931135045013,0.0288504899653,0.00949514233102,0.0190029681371,0.00522122572754,-0.0964230447292,0.573786636518,0.818970432109,0.00608884106248,0.0,0.818968332777,-0.573695672851,-0.0120370993864,0.0,-0.00636500926177,0.011893523771,-0.999909011235,0.0,0.26859967166,-0.255101404421,0.304927047001,1.0,-0.0195525,-0.0256975714286,2.663
-0.631503767393,-0.521822531054,-0.126071468726,-2.64241133644,-0.0678754115513,2.11028836692,-0.879556741723,-0.102371640161,0.0132691955508,0.011511798973,0.00565284420849,0.00236100353927,0.00489388310238,-0.094238205885,0.573787457378,0.818969815877,0.00609436948741,0.0,0.818967953455,-0.573696778779,-0.0120101679505,0.0,-0.00633976695158,0.0118826058147,-0.999909301404,0.0,0.268293583166,-0.255513624269,0.304941841371,1.0,-0.0192325,-0.025277,2.679
-0.633228573985,-0.521559505431,-0.125872062047,-2.64220282087,-0.0677311560199,2.11037133535,-0.881159832495,-0.090626948918,0.0148428589228,0.0081209770519,0.0177115968279,0.00596466026387,0.00095175972275,-0.0801475261842,0.573818387204,0.818948049626,0.00610716147246,0.0,0.818946626248,-0.573728161031,-0.0119652621712,0.0,-0.00629519879972,0.0118675552126,-0.999909761731,0.0,0.267963781223,-0.255976874998,0.304951883036,1.0,-0.0188725,-0.0248038571429,2.697
-0.634717544017,-0.521285123441,-0.125731669796,-2.64202475446,-0.0676802928383,2.11041330676,-0.882637887437,-0.085172143228,0.0153102172429,0.00460214402752,0.00905305346052,0.000699407730558,-8.88358173908e-05,-0.0877338885935,0.573759198322,0.818989743817,0.00607690413936,0.0,0.818987670809,-0.573668630533,-0.0120101751632,0.0,-0.00635020326569,0.0118680865376,-0.999909407617,0.0,0.267658897503,-0.256385661163,0.304938918329,1.0,-0.0185325,-0.024357,2.714
-0.636124975734,-0.521055268079,-0.125651782719,-2.64188248343,-0.0676521676396,2.11040859863,-0.884044798096,-0.0817947736145,0.00921393708836,0.00451889486303,0.0062342465751,0.000278040717315,0.000262388991198,-0.0747681029822,0.57372278402,0.819015340925,0.00606509088103,0.0,0.819012587461,-0.573631294464,-0.0120940685378,0.0,-0.00642622545831,0.0119062576797,-0.999908468138,0.0,0.267344565554,-0.256773189126,0.304920594129,1.0,-0.0181925,-0.0239101428571,2.731
-0.637483277831,-0.52083224785,-0.125569304308,-2.6417123406,-0.0676160613004,2.11044146337,-0.885406456006,-0.0784054511395,0.0122387312743,0.00273907218097,0.0051710691517,-0.000152514394558,0.000459632674548,-0.0873434223588,0.573685987482,0.819041221599,0.00605078414164,0.0,0.819038217604,-0.573594449349,-0.0121058945288,0.0,-0.00644465452517,0.0119010346474,-0.999908411707,0.0,0.267056222286,-0.257158207026,0.304920704168,1.0,-0.0178525,-0.0234632857143,2.748
-0.638735618757,-0.520624525665,-0.125547698705,-2.641539999,-0.0675808095755,2.11052925658,-0.886728755992,-0.0806223650863,0.0134369232797,-0.000368126783912,0.0156328802483,0.00165456981832,0.00857916653888,-0.0697929129314,0.573637392843,0.819075193689,0.00605933298967,0.0,0.819072675839,-0.573546522246,-0.0120451406754,0.0,-0.00639068960895,0.0118728057674,-0.999909093653,0.0,0.266791092287,-0.257536553405,0.304930664384,1.0,-0.0175325,-0.0230427142857,2.764
-0.640010766505,-0.520445291103,-0.125555584794,-2.64138942208,-0.067555773916,2.11054700793,-0.887970106122,-0.0809544856492,0.0055483986176,-0.000301440597577,0.00807718701672,0.00073842736621,-0.000334361681315,-0.0800845189136,0.573689215935,0.819038728281,0.00608210465905,0.0,0.819036468394,-0.573598165535,-0.0120480220728,0.0,-0.00637923542182,0.0118935148439,-0.999908920682,0.0,0.266496712232,-0.25791347395,0.304934515291,1.0,-0.0172125,-0.0226221428571,2.78
-0.641351145768,-0.520264038722,-0.125561252642,-2.64122954214,-0.0675308799396,2.11055789419,-0.889291481741,-0.0758697327864,0.00815654769245,0.000291817754979,0.00921958699563,0.00525337747804,0.000818329748211,-0.0700743496446,0.573726575027,0.819012380021,0.00610617564068,0.0,0.819010381783,-0.573635316775,-0.0120525840181,0.0,-0.00636862013985,0.0119161384142,-0.999908718995,0.0,0.266167992717,-0.258331601054,0.304940966525,1.0,-0.0168525,-0.022149,2.798
-0.642626179451,-0.520084269719,-0.125560438536,-2.64106537593,-0.0675044827701,2.11060679607,-0.890573524393,-0.0725882229038,0.0155468509018,0.000287602761285,0.00817542324878,-0.000585105921231,0.000138453974793,-0.0652934751699,0.573741157549,0.819002068345,0.00611907525077,0.0,0.819000503406,-0.573650339111,-0.0120087784279,0.0,-0.00632512655635,0.011901685291,-0.999909167205,0.0,0.265901101919,-0.258690290731,0.304953983287,1.0,-0.0165325,-0.0217284285714,2.814
-0.643796360573,-0.519905674147,-0.12553926619,-2.64090969255,-0.0674723613691,2.11065207129,-0.891700246083,-0.07157168437,0.0115321356499,0.000957931010444,0.0115594823501,0.000907064584417,0.00458980268838,-0.0789752587729,0.5737835204,0.818972320535,0.00612836160234,0.0,0.818971058312,-0.573692996884,-0.0119790598523,0.0,-0.00629484150665,0.0118925668891,-0.999909466813,0.0,0.265644796285,-0.25903638554,0.304963402957,1.0,-0.0162125,-0.0213078571429,2.83
-0.645099867665,-0.519704736302,-0.125476533709,-2.64073216718,-0.0674487857246,2.11068358397,-0.893055841712,-0.0710027497013,0.010903291524,0.00199594268878,0.00832280092067,4.21379158272e-05,0.00107309826235,-0.0709960240467,0.573715647752,0.819019994158,0.0061115951109,0.0,0.81901862111,-0.573625410869,-0.0119638280565,0.0,-0.00629296928758,0.0118695740896,-0.999909751802,0.0,0.265364064297,-0.259412657549,0.304974320372,1.0,-0.0158525,-0.0208347142857,2.848
-0.646281151643,-0.519496402359,-0.125414332502,-2.64057545492,-0.06742788415,2.11072117135,-0.894224926723,-0.0708727053564,0.00915043599557,0.00605792850424,0.0115953650595,0.00264880748839,0.00728232482626,-0.0689878955203,0.573698714235,0.8190319929,0.00609317590743,0.0,0.819030348333,-0.573608497228,-0.0119719388107,0.0,-0.00631042492265,0.0118590102112,-0.999909767136,0.0,0.265110213859,-0.259752017656,0.30497354881,1.0,-0.0155125,-0.0203878571429,2.865
-0.647361052682,-0.519297211687,-0.125370554589,-2.64043385922,-0.0674009669898,2.11076348077,-0.895336475884,-0.0691995133496,0.0147978021458,0.00539301823714,0.0115165766524,0.000678138131138,0.00010355767001,-0.0732460616312,0.57366073786,0.819058618529,0.00608967580328,0.0,0.81905687309,-0.573570439421,-0.011980674777,0.0,-0.00632013858772,0.0118608619125,-0.999909683823,0.0,0.264876315002,-0.260064645927,0.304969230947,1.0,-0.0151925,-0.0199672857143,2.881
-0.648502080875,-0.519112755533,-0.12535074364,-2.64029315601,-0.0673807851537,2.11079919375,-0.896488469829,-0.0641500574953,0.00904780124507,-0.0010669713297,0.00948616666758,0.00086989859264,0.00124157599394,-0.0681206733345,0.573653712539,0.819063512821,0.00609318931391,0.0,0.819061799458,-0.573563375332,-0.0119820719718,0.0,-0.00631936939809,0.0118644871025,-0.999909645676,0.0,0.264619399557,-0.260398265092,0.304968785505,1.0,-0.0148525,-0.0195204285714,2.898
-0.64961414126,-0.518920605416,-0.125341826828,-2.64015156778,-0.067357925767,2.11082934886,-0.897577069285,-0.0724259391314,0.00822878195144,0.000707984283441,0.0100012396598,0.00320610039601,7.77118542384e-05,-0.0659041451313,0.573683832461,0.819042333118,0.0061044110412,0.0,0.819040669901,-0.573593261931,-0.0119957415893,0.0,-0.00632369288814,0.0118817526772,-0.999909413328,0.0,0.264366640928,-0.260725403072,0.304965168205,1.0,-0.0145125,-0.0190735714286,2.915
-0.650654449878,-0.518741508107,-0.125333607501,-2.64000983993,-0.0673278895215,2.11087595811,-0.898631927321,-0.0655149442832,0.00760329321627,0.00222289297666,0.00592674138171,0.000147619339225,0.00600491136316,-0.0646470242712,0.573686304185,0.819040490853,0.00611928386744,0.0,0.819039107858,-0.573595834034,-0.0119793938926,0.0,-0.00630173424817,0.011884575823,-0.999909518408,0.0,0.264135631115,-0.261035343362,0.304967802582,1.0,-0.0141925,-0.018653,2.931
-0.651813295852,-0.518562292931,-0.125334065461,-2.63984838804,-0.0673095542426,2.11091530196,-0.899807969334,-0.0611717322761,0.00681094892718,0.000754313598648,0.0114853243513,0.00226417456983,1.47952689316e-05,-0.0608887775432,0.573688690614,0.819038755073,0.00612787497216,0.0,0.819037652399,-0.573598502737,-0.0119510883257,0.0,-0.00627358538104,0.0118753931825,-0.999909804514,0.0,0.263873706164,-0.261383488689,0.304978512895,1.0,-0.0138325,-0.0181798571429,2.949
-0.65282191375,-0.51839716634,-0.125327521213,-2.6397160907,-0.0672904380593,2.11094438453,-0.900776682579,-0.0625235331117,0.00905028239787,-0.000807439764633,0.00600506746524,0.000323682726466,0.000408774700102,-0.0569981035396,0.5737317944,0.819008500193,0.00613609057315,0.0,0.819007512926,-0.57364157971,-0.0119490041101,0.0,-0.00626653989567,0.0118812565998,-0.99990977904,0.0,0.263644272903,-0.261681463629,0.304980447,1.0,-0.0135125,-0.0177592857143,2.965
-0.653773990456,-0.51821648685,-0.125320887368,-2.63957535192,-0.0672747258201,2.11098524645,-0.90174852459,-0.0570701589816,0.00870051141014,0.00121430437397,0.00977447221424,0.000217244676613,0.000724731392915,-0.0679516833498,0.573724967119,0.819013257654,0.00613944555976,0.0,0.819012348753,-0.57363480589,-0.0119427368095,0.0,-0.00625958063407,0.011880356745,-0.999909833322,0.0,0.263432476662,-0.261968240429,0.304981483265,1.0,-0.0131925,-0.0173387142857,2.981
-0.654828036672,-0.518015901919,-0.125309778886,-2.63943384755,-0.0672575964079,2.11100609726,-0.902819130611,-0.0577098405594,0.00672213623099,0.000718930532896,0.00990756845666,0.00442773846093,0.000327400594392,-0.0618019830854,0.573718338231,0.819017851622,0.00614605587276,0.0,0.81901681935,-0.573627753892,-0.0119748272663,0.0,-0.00628217002681,0.0119041303237,-0.999909408907,0.0,0.263191321758,-0.262277607789,0.304973921439,1.0,-0.0128325,-0.0168655714286,2.999
-0.655804206825,-0.517832008266,-0.125291589239,-2.63930194127,-0.067247020272,2.11103273328,-0.903728525406,-0.053769470554,0.0120417044226,0.00184969954516,0.00488675495533,3.40266910495e-05,3.7957622322e-05,-0.0550560349375,0.573771606345,0.818980566865,0.00614180357092,0.0,0.818979358161,-0.573680799428,-0.0119957565019,0.0,-0.00630097799075,0.0119130641873,-0.999909184165,0.0,0.262970315909,-0.262564026044,0.304968795165,1.0,-0.0124925,-0.0164187142857,3.016
-0.656708984554,-0.517668001745,-0.125262638644,-2.63918167634,-0.0672324446492,2.11107494831,-0.90461180972,-0.0589342999722,0.00898260711869,0.000830717596704,0.00818503880968,-0.000295540501883,0.00468932304164,-0.0545973530764,0.573781205172,0.81897389759,0.00613437518675,0.0,0.818972619745,-0.573690479572,-0.0119928586143,0.0,-0.00630272686689,0.0119053914021,-0.999909264528,0.0,0.262770735874,-0.262828298732,0.30496728578,1.0,-0.0121725,-0.0159981428571,3.032
-0.65762283113,-0.517497932299,-0.125231752356,-2.63903844518,-0.0672229213358,2.11111071242,-0.905571440756,-0.053883713258,0.0125842383421,0.000997932990968,0.0103278405861,0.000511569006273,0.00197471901875,-0.0557844736733,0.573733264685,0.819007589526,0.00612014654023,0.0,0.819006218916,-0.573642783254,-0.0119798789083,0.0,-0.00630095516513,0.0118859219545,-0.999909507317,0.0,0.262572562756,-0.263099808678,0.304973459276,1.0,-0.0118325,-0.0155512857143,3.049
-0.65855524973,-0.517323464415,-0.1252001443,-2.63890906125,-0.0672095080683,2.11115624979,-0.906523250445,-0.0521044590255,0.00940422815207,0.0041399603364,0.00538173212482,0.000371615155713,-0.000121657597055,-0.0541412886031,0.573707454271,0.819025746018,0.00610992433059,0.0,0.819024282152,-0.573617095825,-0.0119749539857,0.0,-0.00630315992682,0.0118745253764,-0.999909628828,0.0,0.262368024501,-0.263373226982,0.304972564344,1.0,-0.0114725,-0.0150781428571,3.067
-0.659337341936,-0.517167982901,-0.125159500508,-2.63880448984,-0.0671921696479,2.11118181107,-0.907288745827,-0.0543782841309,0.0112053891418,0.0031669016371,0.0036284170596,0.000238408441936,0.000398977419683,-0.050801350434,0.573705149183,0.81902742184,0.00610171918615,0.0,0.819025725245,-0.573614588587,-0.0119963348101,0.0,-0.00632541381426,0.0118800527614,-0.999909422641,0.0,0.262196833516,-0.26359579581,0.304965898845,1.0,-0.0111725,-0.0146838571429,3.082
-0.660206586205,-0.517010968311,-0.125144691142,-2.63870508149,-0.0671799556881,2.11121266674,-0.908130742029,-0.0517631713956,0.0113577623731,0.00285951342819,0.00665420574344,0.000143218329487,0.00668372014173,-0.0541020154212,0.573727485851,0.819011764595,0.00610314149403,0.0,0.8190099468,-0.573636652365,-0.0120185276803,0.0,-0.00634245201962,0.0118941222587,-0.999909147452,0.0,0.261995919689,-0.263846593314,0.304956153997,1.0,-0.0108325,-0.014237,3.099
-0.661077442222,-0.51684467049,-0.125140522565,-2.63859644793,-0.0671634047357,2.11125057542,-0.909026916025,-0.0479306464689,0.0102914764298,7.65681895534e-05,0.00666348662373,0.0022983409098,-0.000171060986036,-0.0451855162061,0.573716640259,0.819019293569,0.00611231153436,0.0,0.8190174927,-0.573625577896,-0.0120328689604,0.0,-0.00634909583914,0.0119097765202,-0.999908918955,0.0,0.261795377515,-0.26410276513,0.304947522783,1.0,-0.0104725,-0.0137638571429,3.117
-0.661837165151,-0.516693320495,-0.125143223747,-2.63848745991,-0.0671503939301,2.1112795469,-0.9097570662,-0.0448109384815,0.00976092909418,-0.000264492003363,0.00825844761339,0.00208975587164,0.00179934211117,-0.050203884513,0.573754068238,0.818993015344,0.00612020413886,0.0,0.81899125468,-0.573662846818,-0.0120420031592,0.0,-0.00635150503487,0.0119217714999,-0.999908760712,0.0,0.261621137204,-0.264330635707,0.304943631063,1.0,-0.0101525,-0.0133432857143,3.133
-0.662613314085,-0.516525106845,-0.125139993878,-2.63836933739,-0.0671265404741,2.1113020025,-0.910492654897,-0.0446822180948,0.0114932124715,0.000337010724381,0.00827343782599,0.00507209283382,0.00107087054234,-0.0441001716231,0.573801415645,0.818959735643,0.00613463123319,0.0,0.818958009889,-0.573709834752,-0.0120644290844,0.0,-0.00636090584975,0.0119468218871,-0.999908401967,0.0,0.261445331594,-0.264561472329,0.304937252241,1.0,-0.0098125,-0.0128964285714,3.15
-0.663348581143,-0.516370593797,-0.125121368006,-2.63826157014,-0.0671107762731,2.1113370474,-0.911238488085,-0.0393899656667,0.0112066590482,0.000753770166196,0.00429945071392,0.00154647962817,-0.000290960625807,-0.0474757303784,0.573791948147,0.818966372468,0.00613415924418,0.0,0.818964591505,-0.573700279202,-0.0120720505869,0.0,-0.00636755720153,0.0119507347327,-0.999908312874,0.0,0.261282757969,-0.264778334361,0.304932647306,1.0,-0.0094725,-0.0124495714286,3.167
-0.664022206243,-0.51623283254,-0.125092492212,-2.63817054539,-0.0670928285135,2.1113584794,-0.911931299587,-0.0454449957756,0.00748392618039,0.00153325913758,0.00804412845539,0.000335951924669,0.000324921999931,-0.0508708528272,0.573768227074,0.818982997472,0.00613338022486,0.0,0.818981068963,-0.573676308949,-0.0120933093699,0.0,-0.00638576277404,0.0119621092772,-0.999908060761,0.0,0.261133271943,-0.264970567632,0.304925691884,1.0,-0.0091525,-0.012029,3.183
-0.664712082541,-0.516094291957,-0.12505783144,-2.63808750026,-0.0670725759764,2.11137708843,-0.912641675458,-0.0361451500649,0.010629432897,0.00210651113868,0.00365457603473,0.00293144616475,0.00040657009594,-0.0358341413973,0.573739939383,0.819002812803,0.00613363506913,0.0,0.819000676144,-0.573647630542,-0.0121258133556,0.0,-0.00641265348522,0.011980745355,-0.999907665545,0.0,0.260978570956,-0.265162987878,0.304914715288,1.0,-0.0088125,-0.0115821428571,3.2
-0.665424442616,-0.51597081008,-0.125021459401,-2.63800440873,-0.0670509636552,2.11140000589,-0.913320796795,-0.0420124330072,0.00878940253146,-0.000116001893794,0.00238379884888,0.000330846184605,-0.000270876038003,-0.0373060287538,0.573754950179,0.818992305548,0.00613249535178,0.0,0.818990071882,-0.573662489824,-0.0121390621533,0.0,-0.00642393962855,0.0119875306071,-0.999907511778,0.0,0.260819284783,-0.2653615656,0.304909719375,1.0,-0.0084525,-0.011109,3.218
-0.665990825023,-0.515869528606,-0.125012523707,-2.63794115868,-0.0670328036754,2.11143630901,-0.913895783153,-0.0400658148724,0.01194385141,-0.00130586257516,0.00076538065337,-0.00018435275272,0.00128670601871,-0.0426427628697,0.573752678279,0.818993833336,0.00614101180252,0.0,0.818991716834,-0.573660191823,-0.0121366789645,0.0,-0.00641713477023,0.0119931207653,-0.999907488439,0.0,0.260690295535,-0.265525395624,0.304904392547,1.0,-0.0081525,-0.0107147142857,3.233
-0.666641306399,-0.515742026041,-0.124997329113,-2.63785532757,-0.0670099130593,2.11145331121,-0.914544450536,-0.0323609105408,0.0110668292799,0.00107072928563,0.0062299153431,0.000244642925759,0.000239175483964,-0.0331797468648,0.573757691402,0.818990241988,0.00615158405916,0.0,0.818988125103,-0.573664898068,-0.0121565853395,0.0,-0.00642730067211,0.0120132399268,-0.999907181629,0.0,0.260542191652,-0.265711920471,0.304898146264,1.0,-0.0077925,-0.0102415714286,3.251
-0.667229671688,-0.515661679007,-0.12499086199,-2.63778567431,-0.0669873699367,2.11146479857,-0.915159176004,-0.0322729619562,0.00535722648224,0.000163562903414,0.0035189404156,0.000597091824263,-0.00031598091635,-0.0379612253301,0.573744714899,0.818999220605,0.00616649616236,0.0,0.818997318582,-0.573651895316,-0.0121508048,0.0,-0.0064142009432,0.0120220353192,-0.999907160037,0.0,0.260405030723,-0.265879921799,0.304901275718,1.0,-0.0074525,-0.00979471428572,3.268
-0.667788136559,-0.51558281326,-0.124972225687,-2.63771525939,-0.0669654931581,2.11148102413,-0.915681027563,-0.0345237579645,0.00399830401764,0.00089114052232,0.00306547449825,-0.000511186805574,0.000358106697934,-0.0317784612971,0.573774403466,0.818978373432,0.00617289878437,0.0,0.818976626935,-0.573681683863,-0.0121390706475,0.0,-0.00640048059403,0.0120207792815,-0.999907263057,0.0,0.260279311592,-0.266038417019,0.304905985892,1.0,-0.00713250000001,-0.00937414285715,3.284
-0.668332665957,-0.515499675971,-0.124948730878,-2.63761979094,-0.0669427900528,2.11149887822,-0.91621029557,-0.0302184307225,0.00820310143826,0.00232075355107,0.00548915623719,7.49167296993e-05,0.000939306194758,-0.0299367463959,0.573784673167,0.818971173214,0.00617358763945,0.0,0.81896965169,-0.573692354524,-0.0121053241561,0.0,-0.00637229418393,0.0120020614601,-0.999907667931,0.0,0.26016416914,-0.266198792015,0.304920750864,1.0,-0.00679250000001,-0.00892728571429,3.301
-0.668840671502,-0.515416778848,-0.124914679128,-2.63752233604,-0.0669141528353,2.11152213319,-0.916689115531,-0.0268328521005,0.00119386150524,-0.000733162092753,0.00640630142104,0.00194766317863,0.000868069935236,-0.03098280157,0.573801459908,0.81895942085,0.00617239901971,0.0,0.81895814965,-0.573709644355,-0.0120639958734,0.0,-0.00633888027026,0.0119775055286,-0.999908174763,0.0,0.260062850278,-0.26634805205,0.304937217352,1.0,-0.00645250000001,-0.00848042857144,3.318
-0.669304772919,-0.515323238041,-0.124863947487,-2.6374367114,-0.0668925760948,2.11155038034,-0.917152483561,-0.0277513086726,0.00344819884461,-0.00130876441552,0.0056082429453,0.000312745165512,3.51757556157e-05,-0.0250979106624,0.573779576873,0.818974855422,0.00615875412202,0.0,0.818973562033,-0.573688118936,-0.0120413364949,0.0,-0.00632846959035,0.0119531598954,-0.999908532037,0.0,0.259974109477,-0.266480414579,0.304945191629,1.0,-0.00613250000001,-0.00805985714286,3.334
-0.669769425803,-0.515238389417,-0.124820617893,-2.63736857231,-0.0668732797901,2.11157248845,-0.917625821886,-0.0255142806374,0.00495897564159,0.00202426463564,0.00370516088511,-0.000341057436899,0.00255337177072,-0.0329654472477,0.573753423675,0.818993242631,0.00615014200258,0.0,0.818991894398,-0.573662116512,-0.0120332825718,0.0,-0.00632719545306,0.0119412834299,-0.999908682004,0.0,0.259878600247,-0.266609418325,0.304947730483,1.0,-0.00579250000001,-0.00761300000001,3.351
-0.670226980015,-0.515147508011,-0.124784410865,-2.63730391264,-0.0668467841189,2.11159897412,-0.918110174964,-0.0292630918877,0.00725581722411,-0.000233913544153,0.00279506654122,0.00508507402292,0.00063822359903,-0.0291691497866,0.573720434687,0.819016341475,0.00615159493886,0.0,0.819015032255,-0.573629166221,-0.0120292769162,0.0,-0.00632356184298,0.0119399205891,-0.999908721265,0.0,0.259783754848,-0.266736975916,0.30494666896,1.0,-0.00543250000001,-0.00713985714286,3.369
-0.670589062626,-0.515072287563,-0.124768332391,-2.63726765024,-0.0668285858876,2.11161186425,-0.918490566156,-0.0231829137736,0.00535004166059,0.000559653971681,0.00265947035365,0.000187531338991,0.000668037777609,-0.020834177151,0.573707522627,0.819025333439,0.00615861738781,0.0,0.819024021022,-0.573616048019,-0.0120428130481,0.0,-0.00633080909267,0.011953338155,-0.999908515097,0.0,0.259696967841,-0.266844641559,0.304939597037,1.0,-0.00511250000001,-0.00671928571429,3.385
-0.671012073711,-0.515020042147,-0.124761881182,-2.63723628156,-0.0668072506913,2.11163018046,-0.918903302833,-0.0202770775084,-0.000223801870957,-0.000767430677343,0.00312726596973,0.000362756505707,0.00504379089928,-0.0214248345983,0.573718411218,0.81901757864,0.00617554931028,0.0,0.819016421749,-0.573626738231,-0.0120504354013,0.0,-0.00632718003413,0.011971663443,-0.999908318831,0.0,0.259600156372,-0.266952007753,0.304933533159,1.0,-0.00477250000001,-0.00627242857144,3.402
-0.671403746698,-0.514968742881,-0.124749719069,-2.63721212062,-0.0667902259494,2.11163351693,-0.919252352717,-0.0253498829837,0.000464877528868,0.00109240485857,-0.000606757593732,-0.000520011952305,4.75954970068e-05,-0.0209875299226,0.573753296924,0.818993055909,0.00618672314875,0.0,0.818991907398,-0.57366130822,-0.0120708727829,0.0,-0.00633699929973,0.0119928101468,-0.999908003241,0.0,0.259504675301,-0.267055260093,0.304926143077,1.0,-0.00443250000001,-0.00582557142858,3.419
-0.671743971717,-0.514920152862,-0.124738561347,-2.63716567953,-0.0667718688578,2.11163696243,-0.919579538043,-0.0280077472856,0.00191446908627,1.97859110213e-05,0.0053962808815,-0.000239240617633,-0.000379364320923,-0.0181629489935,0.573766243216,0.818983920978,0.00619533911548,0.0,0.818982904775,-0.573674252018,-0.0120665305525,0.0,-0.00632830981097,0.0119974757172,-0.999908002304,0.0,0.25942787274,-0.267151104844,0.304929859537,1.0,-0.00411250000001,-0.00540500000001,3.435
-0.672073879662,-0.514861189419,-0.124716214916,-2.63712412682,-0.0667557015203,2.11164152731,-0.919879323381,-0.0168693500558,0.00862064155703,0.001581494159,0.000341518858332,0.000112128585515,-0.000264918319416,-0.0121067972773,0.573784115605,0.818971382619,0.00619758272119,0.0,0.818970329136,-0.57369198467,-0.0120769872615,0.0,-0.00633532539859,0.0120054509582,-0.999907862155,0.0,0.259354947124,-0.267240765824,0.304927880153,1.0,-0.00377250000001,-0.00495814285715,3.452
-0.672395793449,-0.514810083792,-0.124694070405,-2.63707048775,-0.0667416852378,2.11164820656,-0.920198732188,-0.0168891631548,0.000830485419341,0.00134188526998,0.00173539570706,-7.84370654486e-05,0.00209848509432,-0.0166455735435,0.573779106997,0.818974907068,0.00619555234112,0.0,0.81897389993,-0.573687124032,-0.0120657306042,0.0,-0.0063273438169,0.0119972907794,-0.999908010636,0.0,0.259287097814,-0.267332194725,0.304934466115,1.0,-0.00341250000001,-0.00448500000001,3.47
-0.672622763724,-0.514771039254,-0.124680336318,-2.637032028,-0.066731919396,2.11166165874,-0.920418785467,-0.0151092130512,0.00192964630417,0.00342540211235,0.000706186430384,0.00107862929402,0.0033686979902,-0.00888473066764,0.573781115966,0.818973512965,0.00619378103848,0.0,0.818972574806,-0.573689314915,-0.012051496587,0.0,-0.00631667211118,0.0119876887658,-0.999908193272,0.0,0.259240242279,-0.267398435917,0.30493898931,1.0,-0.00311250000001,-0.00409071428572,3.485
-0.672884286775,-0.514717031122,-0.12464127787,-2.6369969774,-0.0667152198572,2.11167643661,-0.920676982392,-0.0111827891808,0.000492345870658,0.000534112822706,0.00269945707867,0.00074666184159,0.00250926803822,-0.0192210421985,0.573765055233,0.818984814872,0.00618718861591,0.0,0.818983780124,-0.573673265956,-0.0120539919978,0.0,-0.0063227334366,0.0119835972268,-0.999908204006,0.0,0.259189555154,-0.267466534539,0.304937147234,1.0,-0.00275250000001,-0.00361757142858,3.503
-0.673118479098,-0.51468721837,-0.124606695755,-2.63698079743,-0.0667026193784,2.1116915376,-0.920889346479,-0.013474310151,0.00253747694148,0.00229237265421,0.00199707128744,0.00442988246173,0.00021927054706,-0.0157738733831,0.573764597731,0.818985186295,0.00618044661108,0.0,0.818984088425,-0.573672884627,-0.012051192982,0.0,-0.00632431565646,0.0119764659114,-0.999908279442,0.0,0.259141133645,-0.26752443883,0.304935590435,1.0,-0.00241250000001,-0.00317071428572,3.52
-0.673310334964,-0.514667145365,-0.124589277599,-2.6369613047,-0.0666915939126,2.11170047053,-0.92107224594,-0.00585712080682,0.000553305101387,0.000619933753608,0.00361044584244,7.40815760742e-05,-0.000488785084121,-0.0115620865803,0.573765238237,0.818984740023,0.00618012149078,0.0,0.818983700461,-0.573673644886,-0.0120413638596,0.0,-0.0063164420397,0.0119705652419,-0.999908399869,0.0,0.259100033853,-0.267575356668,0.304938206438,1.0,-0.00209250000001,-0.00275014285715,3.536
-0.673500369876,-0.514634835818,-0.124556326715,-2.63694799867,-0.0666800937087,2.11171638756,-0.921258912851,-0.00494963033141,0.00502562196914,0.00161139103418,0.00229012823676,0.00445137285273,0.000260864650672,-0.0137061315836,0.573750230712,0.818995303923,0.00617347634224,0.0,0.818994170832,-0.573658656051,-0.012043312781,0.0,-0.00632207018913,0.0119661250097,-0.999908417447,0.0,0.259062367089,-0.267621585953,0.304934451745,1.0,-0.00175250000001,-0.00230328571429,3.553
-0.67368159331,-0.514625676405,-0.1245411025,-2.63692794305,-0.066675603073,2.11172557598,-0.921411016439,-0.00923059978672,0.00057681484216,-0.000204355049909,0.0010972287182,-0.000466309114791,-9.61493092426e-05,-0.00646309982286,0.573766125995,0.818984212969,0.00616753348384,0.0,0.818983141093,-0.57367483596,-0.0120226491804,0.0,-0.00630832257199,0.0119495248552,-0.999908702793,0.0,0.259023407792,-0.267671231406,0.304941321116,1.0,-0.00141250000001,-0.00185642857144,3.57
