nelsonifechukwu/NELSON_IML_WORK/CNN-GradCAM/train2dof/data_sample_2022-02-21-15-13-32/robot_state.csv
position_joint1,position_joint2,position_joint3,position_joint4,position_joint5,position_joint6,position_joint7,velocity_joint1,velocity_joint2,velocity_joint3,velocity_joint4,velocity_joint5,velocity_joint6,velocity_joint7,ee_T_00,ee_T_10,ee_T_20,ee_T_30,ee_T_01,ee_T_11,ee_T_21,ee_T_31,ee_T_02,ee_T_12,ee_T_22,ee_T_32,ee_T_03,ee_T_13,ee_T_23,ee_T_33,v_x,v_y,time
0.465062013758,0.547840263745,-0.12396045679,-1.35585575477,0.0794728530916,1.89409597171,0.159167496721,-0.0011246177353,-0.00323314721049,-0.000275535750433,-0.00231428437292,0.000263067596164,0.0093022074469,0.000983313986901,0.573796619451,0.818983956354,0.00186162355425,0.0,0.818939728292,-0.573738486583,-0.0119422501709,0.0,-0.00871259395654,0.00837714155033,-0.999926954435,0.0,0.661667493734,0.260890785986,0.303160322634,1.0,0.0,0.0,0.0
0.465061638324,0.547847825109,-0.123960829625,-1.35584616897,0.0794715304529,1.89409314601,0.159161330849,-0.00291074876795,-9.04206990024e-05,0.000174418392036,0.00110791703511,-9.48280293438e-05,0.000422219492765,-0.00112199097249,0.573791257801,0.818987716899,0.00185982256143,0.0,0.818943485219,-0.573733152303,-0.0119408905272,0.0,-0.00871256855368,0.00837482940663,-0.999926974024,0.0,0.661669185397,0.260890953788,0.303159292776,1.0,-0.00024,-0.000315428571429,0.013
0.465063116347,0.547844192949,-0.123958057567,-1.35585674485,0.0794715306673,1.89409303298,0.159160530205,0.00013078580598,9.70716156765e-05,0.000516535399023,-0.000543856405785,3.67852729419e-06,-0.000289630978017,-0.00383316382476,0.573788024185,0.818989993522,0.00185491579416,0.0,0.818945671921,-0.573729914938,-0.0119464659055,0.0,-0.00871998324043,0.00837397555427,-0.999926916542,0.0,0.661665810792,0.260892319118,0.303156730937,1.0,-0.00052,-0.000683428571429,0.027
0.465057421737,0.547818496031,-0.123960429358,-1.35588081133,0.0794675140936,1.89410133912,0.15915578694,-0.000107971590639,-0.00445616227658,0.00119248260646,-0.00512944228237,0.000109389159703,0.000407567578381,-0.00251296393147,0.573790723272,0.818988087125,0.00186170202795,0.0,0.818943889463,-0.573732619039,-0.011938788155,0.0,-0.00870977378341,0.00837515663795,-0.999926995631,0.0,0.661664887648,0.260884575028,0.303164273176,1.0,-0.0009,-0.00118285714286,0.046
0.465062679811,0.547724467189,-0.123961470688,-1.35598114397,0.0794687121565,1.89411881315,0.159156547637,0.000615138718275,-0.00865919400983,-0.00104629642834,-0.00594419060418,0.000296742675532,0.00167045022852,-0.00175804965431,0.573793517607,0.818986095816,0.00187640996916,0.0,0.818942002897,-0.573735267132,-0.0119409397222,0.0,-0.00870306858957,0.00838846624909,-0.999926942447,0.0,0.661646660276,0.260878161314,0.303184685241,1.0,-0.00124,-0.00162971428571,0.063
0.465061903865,0.547597335696,-0.123958382003,-1.35615502307,0.0794659281447,1.89414449156,0.159158770621,0.00101397364195,-0.011773467255,-0.00026198573349,-0.00899337796725,0.000509821808857,-0.000982065882531,0.000162173013414,0.573802518016,0.818979815633,0.00186515572629,0.0,0.818935437709,-0.57374418105,-0.011962879105,0.0,-0.00872740230869,0.008391933845,-0.999926701261,0.0,0.661614922555,0.260861754405,0.303194109501,1.0,-0.00156,-0.00205028571429,0.079
0.465045716097,0.547431264824,-0.123955648357,-1.35638045478,0.0794604201298,1.89424432402,0.159147667736,-0.00153114788666,-0.0113527606523,0.00170951919358,-0.0144754681494,-0.000120409342836,0.00798886610585,-0.0022604654549,0.573816017082,0.818970267342,0.00190437674974,0.0,0.818926335098,-0.573757448784,-0.0119496673099,0.0,-0.00869393927126,0.00841661681948,-0.99992678531,0.0,0.66159143933,0.260833944887,0.303213022461,1.0,-0.00192,-0.00252342857143,0.097
0.465023742327,0.547253944029,-0.123958390778,-1.3565844342,0.0794579004868,1.89436708416,0.159141688425,-0.00215358895822,-0.0073001203396,0.000237895933034,-0.00715685169298,2.0509227608e-05,0.00567968632502,0.0014605955258,0.573842036498,0.818951832565,0.00198997147249,0.0,0.818909007684,-0.573783100083,-0.0119053808827,0.0,-0.00860828722695,0.00846157648646,-0.999927146903,0.0,0.66158034476,0.260803884597,0.303252285634,1.0,-0.00224,-0.002944,0.113
0.464994611782,0.547065082346,-0.123958390826,-1.35683455193,0.0794508834535,1.89449124958,0.159122828253,-0.00347298094688,-0.0114964495693,-0.000297837449004,-0.0200584668165,-0.00285464205465,0.00303368913165,-0.000922486298177,0.573862757608,0.818937171703,0.0020472261952,0.0,0.818895063635,-0.573803555993,-0.0118785851654,0.0,-0.00855327394549,0.00849330458732,-0.999927350002,0.0,0.661560726651,0.260764710626,0.303277780451,1.0,-0.00256,-0.00336457142857,0.129
0.464956981296,0.546833624927,-0.123955885088,-1.3571773664,0.0794423625519,1.89461438464,0.159099273876,-0.000253835231253,-0.0153080959077,0.000380479998758,-0.0186931044464,-0.00135959485142,0.00820565418041,-0.00528729866531,0.573889412876,0.818918448836,0.00206466625869,0.0,0.818876440974,-0.573830011045,-0.0118844327911,0.0,-0.00854777837581,0.00851122058195,-0.999927244658,0.0,0.661522466044,0.260710597189,0.303289139511,1.0,-0.0029,-0.00381142857143,0.146
0.464913267495,0.546546297285,-0.123960516681,-1.35760865282,0.079430016557,1.89477969052,0.158955019069,-0.00129424648451,-0.0171764954268,0.000178212969078,-0.0274472023343,-0.000566255159741,0.00459522831702,-0.00616049968095,0.573831193119,0.818959180843,0.00209017157442,0.0,0.818917402721,-0.573771593054,-0.0118824840028,0.0,-0.00853215256164,0.00853038208578,-0.999927214828,0.0,0.661477205305,0.260640806702,0.303301834605,1.0,-0.00326,-0.00428457142857,0.164
0.464865419167,0.546262561781,-0.123959335622,-1.35807570079,0.07940910172,1.89494479651,0.158932891041,-0.00568760337199,-0.021018880755,-0.000167529330508,-0.0315003074342,0.000301714763233,0.00529228797463,-0.00159745678315,0.57387197583,0.818930634099,0.00207817037007,0.0,0.818888616674,-0.573812336491,-0.0118988601555,0.0,-0.00855202594953,0.0085303766833,-0.999927045102,0.0,0.661423783697,0.26056594737,0.303294721887,1.0,-0.0036,-0.00473142857143,0.181
0.464817196456,0.545949052985,-0.123960870665,-1.35862126508,0.0793538000939,1.89512846384,0.158879805352,-0.00452622738515,-0.0220441481088,0.000658977261484,-0.0357891984961,-0.0117811028179,0.0121333604671,-0.00393497431933,0.573884814259,0.818921774238,0.00202349776058,0.0,0.818879224513,-0.573825575391,-0.0119067874878,0.0,-0.00858975814769,0.00849028826722,-0.99992706287,0.0,0.661359420647,0.260476027183,0.303272940649,1.0,-0.00394,-0.00517828571429,0.198
0.46475884016,0.545602869923,-0.123964146008,-1.35922495827,0.0792774287656,1.89533326978,0.15877220751,-0.00339449406538,-0.0214384559483,0.000196441257693,-0.0396640038603,-0.000794277233475,0.0131903885361,-0.00721337555092,0.573860148379,0.818939224371,0.00195545159329,0.0,0.818896133793,-0.573801532572,-0.0119025282414,0.0,-0.00862557219397,0.00843186071171,-0.999927248968,0.0,0.661290942574,0.260369953442,0.303248458939,1.0,-0.00428,-0.00562514285714,0.215
0.464698519032,0.545233401747,-0.123962243802,-1.35987424858,0.0792695570323,1.89553793434,0.158720731816,-0.00534754040664,-0.0210844585018,0.000953684701028,-0.0386109112723,-0.00199712205197,0.0121362553618,-2.47911675585e-05,0.573900047106,0.818911374809,0.0019086751462,0.0,0.818867324048,-0.573841281247,-0.0119681428988,0.0,-0.00870573937627,0.0084316318179,-0.999926556146,0.0,0.661207986036,0.260271556706,0.303218677427,1.0,-0.0046,-0.00604571428571,0.231
0.464636296962,0.544831314147,-0.123967559935,-1.36055003528,0.0792466743112,1.89576335791,0.158643097546,-0.00303038775649,-0.0255270076041,-0.00119759960641,-0.0461216237771,-0.00232250244005,0.00993583330837,-0.00531625232759,0.573922642787,0.81889561491,0.00187586745926,0.0,0.818850957091,-0.573863841469,-0.0120061828081,0.0,-0.00875548651737,0.00842683827416,-0.9999261622,0.0,0.661126858374,0.260163993401,0.303201355201,1.0,-0.00492,-0.00646628571429,0.247
0.464564584792,0.54435689211,-0.123965226597,-1.36134402228,0.0792102970331,1.89605503642,0.158520588824,-0.00437316006902,-0.0230553532055,0.00112793269486,-0.0411317038001,-0.00655108552931,0.0168624535352,-0.00483752307046,0.573914041903,0.81890168334,0.00185807182677,0.0,0.818856659264,-0.573855189919,-0.0120307723126,0.0,-0.00878592469387,0.00842628588597,-0.999925899871,0.0,0.661035046422,0.260043826007,0.303184406986,1.0,-0.00528,-0.00693942857143,0.265
0.464513288963,0.54389174264,-0.123970842643,-1.36206707953,0.0791782997809,1.89630897135,0.158456369438,0.000247206801396,-0.0272170186311,-0.00140085812915,-0.0447536751295,-0.00502953533048,0.0106201102047,-0.00575337228087,0.573939053574,0.818884150057,0.00185969635518,0.0,0.818839045067,-0.57388009347,-0.0120417396759,0.0,-0.00879371634786,0.00843417904464,-0.999925764833,0.0,0.660947959478,0.259939005015,0.303191593549,1.0,-0.00558,-0.00733371428571,0.28
0.464430639182,0.543355454448,-0.123976110904,-1.36292302962,0.0791301415414,1.89660082299,0.158326545591,-0.00589456707717,-0.028444863458,-0.00127175074904,-0.049375848719,-0.000921532307516,0.00955516513639,-0.0128090772358,0.57393547521,0.818886709609,0.0018368511112,0.0,0.81884120945,-0.57387652296,-0.0120647006982,0.0,-0.00882566724969,0.00842861139082,-0.999925530281,0.0,0.660859063416,0.259819320434,0.303185043755,1.0,-0.00588,-0.007728,0.295
0.46434949501,0.542764398937,-0.123971549798,-1.36386544492,0.0790652854683,1.8969360003,0.158215396423,-0.000617614034619,-0.0300660224793,0.000735490150945,-0.0528380319303,-0.00606866813813,0.0190442837936,-0.00647114593623,0.573946040642,0.818879342424,0.00181985830326,0.0,0.818833688231,-0.573887226732,-0.0120660230972,0.0,-0.00883639375281,0.00841556949526,-0.999925545396,0.0,0.660737503854,0.25965595333,0.303187462493,1.0,-0.00628,-0.00825371428571,0.315
0.464281298598,0.542192955768,-0.123974372594,-1.36473433214,0.0790183143086,1.89726098504,0.158095419762,-0.00557409890303,-0.0367633849896,-0.000214276088474,-0.0547109689893,-0.00149487002903,0.0178546636545,-0.00789431611117,0.573941359871,0.818882565372,0.00184565989122,0.0,0.818837208955,-0.573882395607,-0.0120568712514,0.0,-0.00881413964033,0.00843139440627,-0.999925608498,0.0,0.660638031011,0.259528086529,0.303206293601,1.0,-0.0066,-0.00867428571429,0.331
0.464190530831,0.541557346662,-0.123972220775,-1.36569567692,0.0789699059314,1.89762011344,0.157964166035,-0.00429470178896,-0.0406074369746,2.40483414578e-05,-0.0589324390181,-0.000782179892623,0.0198883592512,-0.0137110413163,0.573947127757,0.818878444474,0.0018800574351,0.0,0.818833434516,-0.573887913753,-0.0120505546973,0.0,-0.00878916646511,0.00845599794722,-0.99992562056,0.0,0.660530387617,0.259380151831,0.303229212349,1.0,-0.00694,-0.00912114285714,0.348
0.464107834319,0.54087587014,-0.123974683151,-1.36673036452,0.078903624291,1.89800920892,0.157829543317,-0.00524924255568,-0.0441870561606,-0.00138480351933,-0.0600329592036,-0.00319574135818,0.0238474300954,-0.00225548845787,0.573945999694,0.818879171012,0.00190777876351,0.0,0.818834571622,-0.573886712381,-0.0120304850244,0.0,-0.00875683331732,0.00846716697993,-0.999925809725,0.0,0.660412788413,0.259225922087,0.303252277679,1.0,-0.00728,-0.009568,0.365
0.46402424649,0.540203217231,-0.123985719111,-1.36777416333,0.0788418037797,1.89839185981,0.157703767018,-0.0031705986213,-0.0451321024052,-0.00201910506373,-0.0651119642317,-0.00568162967937,0.0187683686059,-0.00994113548989,0.57396044121,0.818869031325,0.00191529735443,0.0,0.818824561016,-0.573901149592,-0.0120231308724,0.0,-0.00874634657171,0.00846925707512,-0.999925883807,0.0,0.660293318796,0.259065223602,0.303264401064,1.0,-0.0076,-0.00998857142857,0.381
0.463914980904,0.539414754185,-0.123984488532,-1.3689847142,0.0787658730906,1.89885141274,0.157556517555,-0.0050480414535,-0.0434144497018,-0.00110864441604,-0.0693408450128,-0.00621428880322,0.0269162517737,-0.011138840594,0.573975170454,0.818858636515,0.00194525252217,0.0,0.81881458376,-0.573915774378,-0.0120045093071,0.0,-0.00871375278235,0.00848325473894,-0.999926049716,0.0,0.660158109745,0.258879359352,0.303285132675,1.0,-0.00796,-0.0104617142857,0.399
0.463808109581,0.538647667595,-0.12398371659,-1.37017525723,0.0787048591228,1.89931136449,0.157399972068,-0.00894082068436,-0.0484622516872,-0.000325773516033,-0.0722035632366,-0.0028366461049,0.0351280300413,-0.0130592792461,0.573983517218,0.818852699087,0.00198142923477,0.0,0.818809030471,-0.573923880363,-0.0119957521456,0.0,-0.00868573169415,0.00850793996307,-0.999926083779,0.0,0.660025446297,0.258699352372,0.303300228216,1.0,-0.0083,-0.0109085714286,0.416
0.463701863174,0.537909968791,-0.123989223339,-1.37132390463,0.0786440207986,1.89975342935,0.15726355416,-0.00234537487541,-0.0472271889207,-0.000470362245119,-0.0696858328142,-0.00315770283194,0.0254460300789,-0.00396406146292,0.574009871269,0.818834155484,0.00201007431984,0.0,0.818790824552,-0.573950074713,-0.011985168688,0.0,-0.00866034991347,0.00852559968969,-0.999926153518,0.0,0.659899162592,0.258519529777,0.303313031777,1.0,-0.00862,-0.0113291428571,0.432
0.463583122574,0.537090960377,-0.123987839251,-1.37261294765,0.0785626157259,1.9002300451,0.157109866991,-0.00850370395551,-0.0533967783837,0.000553510365653,-0.0817288249304,-0.00257894599923,0.0319367271675,-0.00631290307658,0.574029472792,0.81882040641,0.0020132844227,0.0,0.81877712878,-0.573969671534,-0.011982338966,0.0,-0.00865598611764,0.00852681112606,-0.999926180974,0.0,0.659751909992,0.258318903198,0.303319041455,1.0,-0.00896,-0.011776,0.449
0.463469004477,0.53625626131,-0.123996334078,-1.37391252518,0.0784859685053,1.90072613594,0.156954759933,-0.00329842979568,-0.0477414264035,0.00101230978018,-0.0764715532287,-0.0012312390962,0.0291388831998,-0.00787797270345,0.574052909576,0.818803915418,0.00203764686258,0.0,0.818760990286,-0.573993037638,-0.0119658025603,0.0,-0.00862821699513,0.00853751391181,-0.99992632965,0.0,0.659607023838,0.258116651921,0.303332982558,1.0,-0.0093,-0.0122228571429,0.466
0.463361741081,0.535407989231,-0.124005115745,-1.37524718543,0.0784060781663,1.90120294341,0.156776082094,-0.00177797334246,-0.0569949728406,-0.000111260239613,-0.0847994659849,-0.00844488347208,0.0335690729928,-0.0100333760541,0.5740610528,0.818798241858,0.00202328702947,0.0,0.818755148748,-0.57400125893,-0.0119711338954,0.0,-0.00864074044555,0.0085289026078,-0.999926294996,0.0,0.659441125936,0.257897598974,0.303335155543,1.0,-0.00964,-0.0126697142857,0.483
0.463244960487,0.534580390984,-0.124006625861,-1.37660079677,0.0783357641004,1.90170253652,0.156621461557,-0.00511506255989,-0.0569094695092,-0.0010258715871,-0.0901481295939,-0.00335514536694,0.0345662650283,-0.00561865678041,0.574074432031,0.818788904824,0.0020056737935,0.0,0.818745417418,-0.574014548512,-0.0119994355841,0.0,-0.00867388578254,0.00853086964056,-0.999925991246,0.0,0.659267650228,0.257678904345,0.303319114096,1.0,-0.00996,-0.0130902857143,0.5
0.463112787196,0.533599328998,-0.124011537481,-1.37818046347,0.0782382470688,1.90227842019,0.156423491325,-0.0068752730405,-0.0550167464494,-0.000556939659082,-0.0891042174694,-0.0106692804899,0.0370594994398,-0.00599979502237,0.574087714421,0.818779637545,0.00198700611746,0.0,0.818735935544,-0.574027936864,-0.0120059339534,0.0,-0.00868978453387,0.00851945652122,-0.999925950511,0.0,0.659103605615,0.257466484052,0.303311171282,1.0,-0.0103,-0.0135371428571,0.516
0.46298303727,0.532714286052,-0.124003822158,-1.37961551607,0.0781700192661,1.90282253168,0.156240722725,-0.00801143371028,-0.054633372975,0.000727076330755,-0.0897927683103,-0.000104319535749,0.0341313876317,-0.0157954075748,0.574099139609,0.818771614234,0.0019921161764,0.0,0.81872776709,-0.574039131131,-0.01202772749,0.0,-0.00870457680361,0.00853627318205,-0.99992567843,0.0,0.6589366355,0.257252602952,0.303299156793,1.0,-0.01062,-0.0139577142857,0.532
0.46284915001,0.531734262242,-0.124006577242,-1.38117338589,0.0780717842816,1.90339486266,0.156042487434,-0.0089083628747,-0.0603076020567,0.000732474391896,-0.0873116446066,-0.00256111499795,0.0337288677713,-0.0114483853363,0.574106933514,0.818766169684,0.00198372732123,0.0,0.818722234999,-0.574046981472,-0.0120296252327,0.0,-0.00871086520485,0.00853057715978,-0.999925672278,0.0,0.658753895388,0.257013691368,0.303298188379,1.0,-0.01096,-0.0144045714286,0.549
0.462720111053,0.530724482627,-0.124007070996,-1.38281353457,0.0779703525676,1.903963907,0.155831374445,-0.00574940039662,-0.0622220970741,-0.0014940795116,-0.0916665190669,-0.00198393785552,0.0282807527366,-0.00703184708921,0.574101863459,0.818769852635,0.00193020500694,0.0,0.818725156716,-0.57404208233,-0.0120645089447,0.0,-0.00877020616293,0.00850672824457,-0.999925356743,0.0,0.658550042382,0.256769210237,0.303278463599,1.0,-0.0113,-0.0148514285714,0.566
0.462582667993,0.529687697986,-0.124011886218,-1.38444899657,0.0778699988841,1.90456853066,0.155618288846,-0.00677745599597,-0.0615532470482,0.000602843103416,-0.0974106367628,-0.00342220832948,0.0380986588553,-0.0189279281408,0.574105165162,0.818767531786,0.00193264840392,0.0,0.818722879657,-0.574045384512,-0.0120619131508,0.0,-0.008766643748,0.00850727389962,-0.99992538334,0.0,0.658357730992,0.256520195185,0.303282975627,1.0,-0.01164,-0.0152982857143,0.583
0.462444340759,0.528585630383,-0.12400737169,-1.38613657695,0.0777626575401,1.90520661644,0.15539022601,-0.00779582850859,-0.0710120164107,0.00634129467297,-0.101878936913,-0.0062628122925,0.0357166152326,-0.0117354323272,0.574091113933,0.818777282285,0.00197530199622,0.0,0.818733211294,-0.574031174252,-0.0120368855153,0.0,-0.00872181140689,0.00852767854462,-0.999925601585,0.0,0.658159645824,0.256271864587,0.303310975513,1.0,-0.01198,-0.0157451428571,0.6
0.462299097566,0.527474653542,-0.124010207271,-1.38785910966,0.077651379873,1.90587777512,0.15513930882,-0.0109032119338,-0.0623261584956,0.000970491309693,-0.101661653719,-0.0136059968383,0.0392991049776,-0.0188984996284,0.574069978087,0.818791991988,0.00202015267636,0.0,0.818748608254,-0.574009949946,-0.0120016976785,0.0,-0.00866747308852,0.00854397601356,-0.999925934949,0.0,0.657963374927,0.256012301163,0.303331451054,1.0,-0.01232,-0.016192,0.617
0.462155406677,0.526317706344,-0.124015671372,-1.38966323687,0.0775447991533,1.90655562933,0.154897779277,-0.00751995852436,-0.0660206822674,-0.000224643362011,-0.102711372222,-0.00526065957976,0.0320792436899,-0.0111507939098,0.574062455738,0.818797202591,0.00204568863239,0.0,0.818754142762,-0.574002311796,-0.011989439745,0.0,-0.00864285612141,0.00855776802908,-0.999926030086,0.0,0.657749924684,0.255744395376,0.303345840569,1.0,-0.01266,-0.0166388571429,0.634
0.462014754462,0.525193937679,-0.124018836126,-1.39140168844,0.0774297659305,1.90717527837,0.154664621285,-0.00520716585654,-0.0732231006727,-0.00187643519912,-0.114068894457,-0.0107676410938,0.0372521949387,-0.0154772909759,0.574051312173,0.818805017501,0.00204480060022,0.0,0.818761989888,-0.573991216721,-0.0119847378962,0.0,-0.00863963227804,0.00855422421903,-0.99992608827,0.0,0.657538004082,0.255481939453,0.30336269671,1.0,-0.01298,-0.0170594285714,0.65
0.461847434914,0.523957128774,-0.124029749531,-1.39340707086,0.0773053047088,1.90789257548,0.154387709339,-0.00943754943109,-0.0671529693132,-0.0027478951972,-0.108057095868,-0.00952887065144,0.0420660282246,-0.0206722947937,0.574043358241,0.8188107131,0.00199646524313,0.0,0.818767058117,-0.573983471066,-0.0120094290259,0.0,-0.00868767835922,0.00852873714695,-0.999925889698,0.0,0.657294309879,0.25517236787,0.303340469706,1.0,-0.01334,-0.0175325714286,0.668
0.461704062933,0.52287183763,-0.124022548994,-1.39511550803,0.0771980186697,1.90854379288,0.154163797578,-0.0100632761681,-0.0730638598903,-0.000731178734107,-0.120297860767,-0.00986295536331,0.0449358416406,-0.0122395805901,0.574035902789,0.818815860841,0.00202860663368,0.0,0.81877264744,-0.573975902481,-0.0119900824085,0.0,-0.00865346493156,0.00854386989993,-0.999926057182,0.0,0.657081112814,0.254903939102,0.303351330094,1.0,-0.01366,-0.0179531428571,0.684
0.461530719666,0.521568882176,-0.1240231086,-1.39719109507,0.0770853736939,1.90935624189,0.153868228918,-0.0104908488027,-0.0668377616618,0.00683904003388,-0.118351231956,-0.00256921182105,0.0447372817185,-0.014366990555,0.574016354656,0.818829494214,0.00205691377152,0.0,0.818786533553,-0.573956122544,-0.0119886933201,0.0,-0.00863628371006,0.00856604425637,-0.999926016008,0.0,0.656849288251,0.25461406115,0.303344531841,1.0,-0.014,-0.0184,0.701
0.461354628929,0.520275522985,-0.124028615233,-1.39921609535,0.0769497919678,1.91010031493,0.153601192933,-0.0075142468576,-0.081260551074,0.00227984557858,-0.121143167975,-0.00869992040737,0.0394510990965,-0.0163107996517,0.574017032226,0.818829014101,0.00205895158493,0.0,0.818786180419,-0.573956891115,-0.0119760092249,0.0,-0.00862472042843,0.00856043919205,-0.999926163813,0.0,0.65660739991,0.254300448407,0.303353762975,1.0,-0.01434,-0.0188468571429,0.718
0.46118846708,0.519031883684,-0.124037969642,-1.40116321551,0.0768247624753,1.91078882824,0.153330562223,-0.011766066835,-0.0829235585588,-0.000104462562252,-0.123561450254,-0.0123725228855,0.0447980082879,-0.0123646815865,0.574007638158,0.81883564342,0.0020413973431,0.0,0.818792606194,-0.57394759687,-0.0119821112619,0.0,-0.00863989103001,0.00854946904019,-0.999926126702,0.0,0.656368579674,0.253997704381,0.303360097811,1.0,-0.01466,-0.0192674285714,0.734
0.46102541881,0.517671402844,-0.124040376876,-1.40327919699,0.076690284955,1.91155527933,0.153045481685,-0.00636939867407,-0.0850749197333,-0.000820412279817,-0.120466335549,-0.00633409267435,0.0519139060401,-0.0225368310901,0.573985138173,0.818851400357,0.00204748386059,0.0,0.818808446591,-0.573925078235,-0.0119782830271,0.0,-0.00863349771729,0.00855201817053,-0.999926160125,0.0,0.656105898679,0.253686344007,0.303374218576,1.0,-0.015,-0.0197142857143,0.751
0.46082871513,0.516243116412,-0.124045941983,-1.40555107265,0.0765372968015,1.91240521104,0.152725203668,-0.0149130305129,-0.0787195639263,-0.00165619177856,-0.128833277102,-0.00762156870363,0.0541346175284,-0.0214385116146,0.573966680742,0.818864351499,0.00204209263749,0.0,0.818821456366,-0.573906773327,-0.0119659945437,0.0,-0.0086267216568,0.00854035586582,-0.999926318283,0.0,0.655834177417,0.253336169429,0.303368636583,1.0,-0.01536,-0.0201874285714,0.769
0.460653394418,0.514948443952,-0.12404700668,-1.40762137565,0.0764120377231,1.91317720158,0.152453973581,-0.011514858113,-0.0787733107981,-0.000447481509134,-0.133365091788,-0.00602442899688,0.0444069399962,-0.0097156100228,0.573964298516,0.818866032282,0.00203767117307,0.0,0.818823045062,-0.573904375801,-0.0119722685411,0.0,-0.00863442187436,0.00854031125705,-0.999926252202,0.0,0.655582422569,0.253024040802,0.303358007931,1.0,-0.01568,-0.020608,0.785
0.460468540261,0.513531558009,-0.12404460385,-1.40989639522,0.0762794736225,1.91395267024,0.152141809057,-0.00629123792424,-0.0775947917393,0.00398017256592,-0.128539085103,-0.00504005843838,0.048464585988,-0.0183712701927,0.573941755206,0.818881991698,0.00197286718146,0.0,0.818837944121,-0.573881898648,-0.0120305683034,0.0,-0.00871959084881,0.00852046804048,-0.999925682418,0.0,0.655287131905,0.252684187013,0.303335401994,1.0,-0.01602,-0.0210548571429,0.802
0.460267064957,0.512095390373,-0.124050628655,-1.41217954467,0.0761330578651,1.9147734684,0.15181751109,-0.0121798765649,-0.0917763459104,-0.000137338412921,-0.140049431212,-0.00827893964875,0.0506546657717,-0.0162376414443,0.573925335435,0.818893565406,0.00194545178886,0.0,0.818849170792,-0.57386560956,-0.0120434446134,0.0,-0.00874603981095,0.00850523332578,-0.999925581128,0.0,0.655005441671,0.252328698753,0.303326140588,1.0,-0.01636,-0.0215017142857,0.819
0.460096322636,0.510832193453,-0.124058780828,-1.41421295199,0.0760168916414,1.91554911172,0.151525455822,-0.00924810812837,-0.082468514307,-0.0018836262311,-0.140018670589,-0.0147153363811,0.0527145050821,-0.0178986301059,0.573906964231,0.818906428914,0.00195038227512,0.0,0.81886205397,-0.573847175863,-0.0120458384496,0.0,-0.00874536156294,0.00851044846459,-0.999925542687,0.0,0.654759978383,0.25202125671,0.30331039929,1.0,-0.01666,-0.021896,0.834
0.459880994032,0.509244440135,-0.124061710634,-1.41671369338,0.0758570126309,1.91647716212,0.151189427416,-0.0136172234472,-0.0855258495949,-0.000378453379677,-0.136775638021,-0.0101408308604,0.0554200728534,-0.0138441622218,0.573897198445,0.818913255417,0.00195770803959,0.0,0.818869010234,-0.573837412915,-0.0120380446298,0.0,-0.00873487637344,0.00851187041242,-0.999925622232,0.0,0.654453512957,0.25163989353,0.303311950738,1.0,-0.01702,-0.0223691428571,0.852
0.459678065,0.507731214945,-0.124067248735,-1.41910060689,0.0757066730287,1.91732594917,0.150846018282,-0.011730093598,-0.0873848181573,5.88051868654e-05,-0.140142467742,-0.00512508874966,0.050333862044,-0.0256955841597,0.573869093222,0.818933007589,0.0019338631308,0.0,0.818888415256,-0.573809379501,-0.0120543045261,0.0,-0.00876216775568,0.00850137460011,-0.999925472746,0.0,0.654152361315,0.251273940281,0.30330820002,1.0,-0.01736,-0.022816,0.869
0.459473933229,0.506262037242,-0.124074837944,-1.42139008413,0.0755593024479,1.91818419762,0.150543560421,-0.0103441703713,-0.0979711555866,-0.00210477308529,-0.138386132812,-0.0121386020207,0.0574644975566,-0.0186591625369,0.573872580113,0.818930503117,0.00195953075809,0.0,0.818886323485,-0.573812830516,-0.0120321089188,0.0,-0.00872922518432,0.00850969416568,-0.999925690105,0.0,0.653874940685,0.25091812789,0.303320369346,1.0,-0.01768,-0.0232365714286,0.885
0.459237565351,0.50454544401,-0.124078702932,-1.42399886091,0.0753969301815,1.91919626778,0.150184105124,-0.0145842598636,-0.101663051668,-0.00159393887072,-0.146290314022,-0.002310599053,0.0660971085158,-0.0162476388057,0.573865350477,0.818935327794,0.00205798784677,0.0,0.81889250441,-0.573805255065,-0.0119725679122,0.0,-0.00862404062587,0.00855607743393,-0.999926207008,0.0,0.653565245609,0.250516828047,0.30336608884,1.0,-0.01804,-0.0237097142857,0.903
0.459010559123,0.502876674915,-0.124079422623,-1.42647725604,0.0752355281202,1.92012407591,0.149839419309,-0.0100556221809,-0.104142819823,2.02957598179e-05,-0.145559121317,-0.0103127000721,0.0593207916389,-0.0155087129263,0.573852946229,0.818943771542,0.00215454355026,0.0,0.818902279866,-0.573792528406,-0.0119137431911,0.0,-0.00852058883854,0.00860126285714,-0.999926706236,0.0,0.653264522341,0.250132934642,0.303432308664,1.0,-0.01838,-0.0241565714286,0.92
0.458803052327,0.501364547569,-0.12409040707,-1.42873032508,0.0750835706986,1.92093035487,0.149501299128,-0.0172789832476,-0.10568537184,-0.00204694070579,-0.152953515155,-0.0108154026774,0.053562731084,-0.0237775184463,0.573827584851,0.818961412951,0.00220314845694,0.0,0.818920654549,-0.573767076638,-0.0118764565271,0.0,-0.00846242849667,0.00861940809225,-0.999927043893,0.0,0.652985522842,0.249773883613,0.303485605737,1.0,-0.01868,-0.0245508571429,0.935
0.458550368941,0.499562439337,-0.124089004443,-1.43148953531,0.0749138383131,1.92190986174,0.149131857687,-0.0119676893111,-0.101493526492,0.000402456328303,-0.156461527092,-0.00675578633819,0.0490484996089,-0.0219488717585,0.573825445087,0.81896285382,0.0022247550463,0.0,0.818922266209,-0.573764738445,-0.0118782879794,0.0,-0.00845155334345,0.00863813164174,-0.999926974298,0.0,0.652635161493,0.24934535209,0.303514451275,1.0,-0.01904,-0.025024,0.953
0.458298242389,0.497878343721,-0.124089416675,-1.43413471603,0.0747593506381,1.92289467748,0.148737516219,-0.0117322244891,-0.105006587464,0.000363202393187,-0.156563116493,-0.0067207219462,0.0559741516029,-0.0197230513401,0.573802093465,0.818979149437,0.00224882702387,0.0,0.818938759435,-0.573741175632,-0.0118793341545,0.0,-0.00843884479521,0.00865820511724,-0.99992690802,0.0,0.65230847288,0.248930940085,0.303515186963,1.0,-0.01938,-0.0254708571429,0.97
0.458061778907,0.496407048139,-0.124091889906,-1.43649148435,0.074607953464,1.92373285562,0.148386123458,-0.0170139910117,-0.0992711218308,0.00109133133253,-0.163990201613,-0.0167902496814,0.0591725557494,-0.0252383541206,0.573789268235,0.818988275413,0.00219711090626,0.0,0.818947146329,-0.573728491874,-0.011913691004,0.0,-0.00849679171203,0.00863543200884,-0.99992661423,0.0,0.651988143636,0.248523677324,0.303487834539,1.0,-0.0197,-0.0258914285714,0.986
0.457762402992,0.494527968875,-0.124092612987,-1.4395456966,0.0744178380052,1.92478922851,0.147955075441,-0.0124107653849,-0.0989899875108,-0.00360745284289,-0.155827101319,-0.00978352607925,0.0573358103333,-0.0262020749916,0.573782758743,0.818993080424,0.0021040171215,0.0,0.818950592107,-0.573722217761,-0.0119787910734,0.0,-0.0086035912776,0.00859647536476,-0.999926036679,0.0,0.651616712212,0.248055965654,0.303438600707,1.0,-0.020736,-0.0272530285714,1.004
0.457491698311,0.492616374727,-0.124148554575,-1.44255081769,0.0742333794239,1.92590312416,0.147525552242,-0.0125984119767,-0.124823340733,0.000692943114016,-0.185072503046,-0.0134260838734,0.0723743478148,-0.0260644027063,0.57379407554,0.818985140344,0.00210847622877,0.0,0.818942897925,-0.573733702388,-0.0119547305799,0.0,-0.00858120804348,0.00858644053001,-0.999926315239,0.0,0.651249224983,0.247561587203,0.303437313177,1.0,-0.02502,-0.0328834285714,1.021
0.457199219494,0.490654718885,-0.124162335043,-1.44568617822,0.0740501576927,1.92704844533,0.14706209844,-0.0239323792003,-0.139700297583,-0.000489741745934,-0.214075863283,-0.011294009727,0.0776189197868,-0.0361799715296,0.57377138498,0.819001093579,0.00208647918628,0.0,0.818958432783,-0.573710974647,-0.0119812288196,0.0,-0.00861576937836,0.00858339123487,-0.999926044222,0.0,0.650851880953,0.247065467391,0.303409520945,1.0,-0.0288,-0.0378514285714,1.036
0.456789051664,0.488092758297,-0.124176722178,-1.44980816654,0.0738097452814,1.92852376747,0.146486918625,-0.0308023200082,-0.165523400782,-0.00259123878104,-0.255874778245,-0.0134041544683,0.093160564988,-0.0382263129666,0.573786717171,0.818990520648,0.0020192048204,0.0,0.818946733246,-0.573726343319,-0.0120448324676,0.0,-0.00870630023902,0.00856495097376,-0.999925418194,0.0,0.650325812811,0.246396865604,0.303357134385,1.0,-0.033084,-0.0434818285714,1.053
0.456267467566,0.484714717911,-0.124227744144,-1.45498230512,0.0734835406421,1.93050695893,0.145698907276,-0.0335159351234,-0.185637632423,-0.00268529169822,-0.28697188233,-0.0111343034417,0.104745103403,-0.0462177277909,0.573774313699,0.818998895016,0.00214331595625,0.0,0.818956958464,-0.573713650666,-0.011953833067,0.0,-0.00856069127111,0.00861425173169,-0.999926251897,0.0,0.649733518411,0.245592500295,0.303399520459,1.0,-0.03762,-0.0494434285714,1.071
0.455786036903,0.481756446023,-0.124276063132,-1.45961303574,0.0732137855479,1.93208048119,0.145002451071,-0.0357376551866,-0.205773808103,-0.00137515014717,-0.317775214048,-0.019450479331,0.108288587136,-0.0335420889789,0.573781497272,0.818994044076,0.00207269353349,0.0,0.818950986472,-0.573720927729,-0.0120135649942,0.0,-0.00865005706184,0.00859076112261,-0.999925684907,0.0,0.649057352914,0.244701326404,0.303393490713,1.0,-0.041904,-0.0550738285714,1.088
0.455202465639,0.478043889777,-0.12434275637,-1.46539493046,0.0728579825106,1.93416052705,0.144152679134,-0.0333675518187,-0.22501136229,-0.000412850396064,-0.345397934812,-0.0241243079595,0.125072806402,-0.0446905730582,0.573800882373,0.818980435048,0.00208357790708,0.0,0.818937553833,-0.573740298692,-0.0120041442989,0.0,-0.00863589297725,0.00859447425555,-0.999925775428,0.0,0.648366552515,0.243784962689,0.303402903607,1.0,-0.045936,-0.0603730285714,1.104
0.454517967338,0.473956269019,-0.124383064057,-1.47163832542,0.0724841169006,1.93646104062,0.143257362184,-0.0386798450881,-0.247146956027,-0.00421931296349,-0.38340411792,-0.0218494897921,0.130487081429,-0.0620064859312,0.573857798004,0.818940227154,0.00220882777214,0.0,0.818898889395,-0.57379659806,-0.0119507281781,0.0,-0.0085196782177,0.00866699203276,-0.999926146439,0.0,0.647585603369,0.242728651016,0.303460558313,1.0,-0.05022,-0.0660034285714,1.121
0.453827199735,0.469813962065,-0.124412547986,-1.47798026484,0.0720946969403,1.93871427406,0.142291481977,-0.0434099323569,-0.275227079672,-0.00112059197376,-0.403304976533,-0.0294769095642,0.15399417733,-0.0634466507885,0.573851088907,0.818944791652,0.00225895711897,0.0,0.818903897283,-0.573789471532,-0.0119497395385,0.0,-0.00849017460733,0.00870740747942,-0.99992604626,0.0,0.646765039514,0.241659277975,0.303500723146,1.0,-0.054252,-0.0713026285714,1.137
0.45298463711,0.464764860999,-0.12443454962,-1.48560348595,0.0715910198018,1.94153153213,0.141057214865,-0.0528505267015,-0.289666029533,-0.00165273280846,-0.443525701411,-0.0275631438911,0.15245851587,-0.0763108409373,0.573769272001,0.819001560555,0.00245218638388,0.0,0.818963359369,-0.573707090393,-0.0118295116521,0.0,-0.00828171123684,0.00879583043446,-0.99992702065,0.0,0.645794720424,0.240377631612,0.303600597261,1.0,-0.058788,-0.0772642285714,1.155
0.452101409578,0.459672243764,-0.124453231283,-1.49346894454,0.0710875283001,1.94422468513,0.139898802069,-0.0562975185081,-0.308763523385,-0.00134863791038,-0.47560258555,-0.0301204072242,0.161914701654,-0.070507816723,0.573786685162,0.818989551024,0.00238791663543,0.0,0.818950146576,-0.573724363335,-0.0119062689549,0.0,-0.00838126527972,0.00878741245981,-0.999926265169,0.0,0.644738379888,0.23903762027,0.303598637437,1.0,-0.063072,-0.0828946285714,1.172
0.451278331409,0.454972842553,-0.124491396307,-1.50080132487,0.0705868171032,1.94678412218,0.138768992599,-0.0568045559705,-0.320813379973,-0.00129419103705,-0.499492564558,-0.0234281652319,0.172156465215,-0.0749713827064,0.573770026187,0.819001428347,0.00231609931583,0.0,0.818961141614,-0.573708047509,-0.0119361488894,0.0,-0.00844712080635,0.00874556817994,-0.999926077861,0.0,0.643695062446,0.237688627529,0.303569907566,1.0,-0.067104,-0.0881938285714,1.188
0.450204767334,0.448865304209,-0.124532827666,-1.50985591527,0.0699732041554,1.95021779609,0.137311259508,-0.061377047863,-0.338990699105,-0.000823379884379,-0.513918243843,-0.0351067019813,0.194827298767,-0.0794067496174,0.573723862731,0.819032620494,0.00269124541827,0.0,0.818997735029,-0.573661040336,-0.0116819398948,0.0,-0.00802418168842,0.00890650306039,-0.999928140774,0.0,0.642609813943,0.236208279889,0.303743379234,1.0,-0.071388,-0.0938242285714,1.205
0.449115622788,0.442873577026,-0.124559443869,-1.5191013843,0.0693627623058,1.95335873411,0.13592620947,-0.0645855558234,-0.35622374891,-0.000273140628746,-0.554023846079,-0.0413026252438,0.182269330481,-0.0835861756165,0.573747205904,0.819016583313,0.00259362235174,0.0,0.818980067457,-0.573684332586,-0.0117763557599,0.0,-0.00815726720323,0.00888094720734,-0.999927291241,0.0,0.641336238271,0.234600466696,0.303719639366,1.0,-0.075672,-0.0994546285714,1.222
0.448025448014,0.436972133359,-0.124586098626,-1.5283021995,0.068738947924,1.95643947723,0.134431678186,-0.070918803675,-0.374848899643,-0.000845871979509,-0.574127216603,-0.0387304367531,0.192892136959,-0.0867782808024,0.573668892558,0.819072025957,0.00240102220035,0.0,0.819032627382,-0.573606361168,-0.0119182469867,0.0,-0.00838482253167,0.00880381257194,-0.999926091086,0.0,0.640045318292,0.232993085405,0.303642025965,1.0,-0.079704,-0.104753828571,1.238
0.446769230696,0.430310826395,-0.124610015943,-1.53822818409,0.068045446328,1.96008363173,0.1328112376,-0.0749582499454,-0.392775782136,0.000159157158077,-0.598696044032,-0.0484388837849,0.212785249498,-0.0915152439011,0.573627485147,0.819100106697,0.00269636695235,0.0,0.81906493482,-0.573564265482,-0.0117223210896,0.0,-0.00805536981555,0.00893291717512,-0.999927654387,0.0,0.6387265594,0.231234882452,0.303775934143,1.0,-0.083988,-0.110384228571,1.255
0.445402351318,0.423444873676,-0.12468393757,-1.54878853531,0.0672872881679,1.96364840808,0.131079857241,-0.0825486184679,-0.418017068169,-0.00453734470834,-0.627298852673,-0.0455949151293,0.214012507841,-0.110260493535,0.573622040187,0.819104387153,0.0025504626976,0.0,0.819067424771,-0.573559466294,-0.0117830049026,0.0,-0.00818882664622,0.00884816258002,-0.999927323928,0.0,0.637253724893,0.229294898323,0.303731756192,1.0,-0.088272,-0.116014628571,1.272
0.444032206045,0.416665854803,-0.124792170074,-1.55906139302,0.0665479551282,1.96715754457,0.129443347135,-0.0867288752254,-0.429726934877,-0.00541470902483,-0.640351383441,-0.049635600833,0.23438630518,-0.0997389644395,0.57370740761,0.81904468615,0.00252179383918,0.0,0.81900768212,-0.57364528566,-0.0117579662205,0.0,-0.00818384216993,0.0088111704885,-0.999927691387,0.0,0.63582957671,0.227368472601,0.303749638446,1.0,-0.092304,-0.121313828571,1.288
0.442390572948,0.408759888878,-0.124837291437,-1.57099101261,0.0657545394398,1.97131879748,0.127419755005,-0.0906436823641,-0.443076985599,-0.000187923645078,-0.684405472818,-0.0428154370486,0.229243307766,-0.108182313275,0.573698109412,0.819050818672,0.00264245924123,0.0,0.819015026901,-0.573635162463,-0.0117402298494,0.0,-0.0081001932872,0.00889973284263,-0.99992758819,0.0,0.634161035796,0.225168457331,0.30378426763,1.0,-0.09684,-0.127275428571,1.306
0.440707101693,0.401081542499,-0.124937699221,-1.58275031925,0.0649295116233,1.97522306611,0.125451410635,-0.105325273732,-0.457428353053,-0.00402668800886,-0.68384753816,-0.0554093082392,0.242182785317,-0.124195989763,0.573780535524,0.818993607245,0.00247290234155,0.0,0.818955379492,-0.573717958447,-0.0118548495769,0.0,-0.00829045715248,0.00882744857008,-0.999926669547,0.0,0.63247649395,0.22291164467,0.303711116409,1.0,-0.101124,-0.132905828571,1.323
0.43916332974,0.393936975966,-0.124997578242,-1.59323695735,0.0641398362082,1.97898410521,0.123656545756,-0.103887980897,-0.471185554992,-0.00553343722501,-0.71565018225,-0.0539503241023,0.249053453458,-0.126282446469,0.573809620369,0.818972255069,0.00277703081906,0.0,0.818938711585,-0.573746748812,-0.011610417573,0.0,-0.00791544985518,0.00893655939733,-0.999928739241,0.0,0.63091736143,0.220766493887,0.303855742696,1.0,-0.105156,-0.138205028571,1.339
0.437093219647,0.38475801089,-0.125043753583,-1.60726576417,0.0630853022813,1.98348961564,0.121199946398,-0.11198018835,-0.491540855302,-0.00203313207728,-0.741846892272,-0.0550344484678,0.226990820398,-0.128189364725,0.573763219465,0.819005790511,0.0024556059213,0.0,0.818967692705,-0.573701088213,-0.0118206002346,0.0,-0.0082725155217,0.00879345686345,-0.999927117646,0.0,0.628923940855,0.218217559987,0.303729537366,1.0,-0.109692,-0.144166628571,1.357
0.435273056539,0.376663686058,-0.125101262747,-1.6191738084,0.0622232939402,1.98755738857,0.119091998609,-0.111533204703,-0.498242638167,-0.00445209051614,-0.757435552832,-0.0475515677006,0.256812543415,-0.131698389617,0.573771199991,0.818999580489,0.00265407622446,0.0,0.818964070878,-0.573708346438,-0.0117188199449,0.0,-0.00807519840922,0.00889768575948,-0.999927808574,0.0,0.627187237005,0.215915130079,0.303828512037,1.0,-0.113724,-0.149465828571,1.373
0.433294869522,0.368419967106,-0.125172928897,-1.6315869279,0.0612661591789,1.99157741351,0.116910890903,-0.124165242495,-0.516104148549,-0.00275851192987,-0.803575902442,-0.0601369321049,0.241532079446,-0.130345878149,0.573835227072,0.818955242785,0.00248784788752,0.0,0.818917558551,-0.573772958772,-0.0118055487067,0.0,-0.00824091482706,0.0088119516983,-0.999927215766,0.0,0.62532170897,0.213441780087,0.303767732468,1.0,-0.117756,-0.154765028571,1.389
0.431142146398,0.359331874793,-0.125293890294,-1.64490385661,0.060200361263,1.99601648607,0.114481137429,-0.127613681847,-0.534063523577,-0.00473569072912,-0.797426439694,-0.0691931176125,0.263186028008,-0.149856277986,0.573862120837,0.818936066167,0.00259474474494,0.0,0.81890049126,-0.573800239732,-0.0116626411897,0.0,-0.00806224756359,0.00881775552314,-0.999928621128,0.0,0.623337539017,0.210758404476,0.303855354013,1.0,-0.12204,-0.160395428571,1.406
0.428816484322,0.350119236668,-0.125337854756,-1.65874784255,0.059213129687,2.00037147238,0.111906285728,-0.139271926756,-0.547825216128,-0.00217920658433,-0.84097048843,-0.0627576499563,0.253891114615,-0.148054522109,0.573884315422,0.818921146273,0.00238654593276,0.0,0.818881686257,-0.573821946968,-0.0119123461863,0.0,-0.00838598121616,0.00879077664365,-0.999926196059,0.0,0.621177521462,0.207974558772,0.303746614093,1.0,-0.126324,-0.166025828571,1.423
0.426409794203,0.340495656407,-0.125427388503,-1.67257664096,0.0581428652957,2.00500522151,0.109310167719,-0.140898856019,-0.56115270821,-0.00273218103437,-0.83925300667,-0.0694715404622,0.272479184298,-0.152699330603,0.57394668069,0.818876423577,0.00271247765582,0.0,0.818841560445,-0.573883473536,-0.011704896064,0.0,-0.00802837189926,0.00893924778833,-0.999927814941,0.0,0.619082736349,0.205137102436,0.303915207077,1.0,-0.130608,-0.171656228571,1.44
0.424372950111,0.332561444213,-0.12542464889,-1.68442909258,0.0571835644884,2.00870627294,0.107004466777,-0.145563928686,-0.581387282744,-4.10730618513e-06,-0.821559045918,-0.0680276516389,0.261886894052,-0.16951216077,0.573795765459,0.818982740258,0.00253724300699,0.0,0.818945298264,-0.573732886798,-0.0118287767329,0.0,-0.00823202271967,0.00886533591623,-0.999926817133,0.0,0.616642150214,0.202068313926,0.303848713154,1.0,-0.135144,-0.177617828571,1.458
0.421320121079,0.320756419456,-0.125423012279,-1.70142670773,0.0557822288411,2.01415440809,0.103661767988,-0.159384008918,-0.593796181545,3.65460326536e-05,-0.860486214554,-0.066545669119,0.277810068773,-0.171226991613,0.573696262467,0.819052015025,0.00267245488163,0.0,0.819016406705,-0.573632980453,-0.0117505823366,0.0,-0.00809148566778,0.00893022149698,-0.999927386866,0.0,0.614465209386,0.199279791049,0.303923208947,1.0,-0.139176,-0.182917028571,1.474
0.41872491753,0.311168459536,-0.125464740628,-1.71535348878,0.054663121846,2.0185304784,0.100853350297,-0.162422682737,-0.608286886772,-0.00423355221115,-0.851592395008,-0.0653610645637,0.285570937675,-0.184322637768,0.573637142866,0.819093383536,0.00268407786421,0.0,0.819057639426,-0.573573509657,-0.0117796103286,0.0,-0.00810924104803,0.00895580891953,-0.999927014185,0.0,0.612209101677,0.196365652793,0.303926396651,1.0,-0.143208,-0.188216228571,1.49
0.415823639335,0.300718664647,-0.125525383996,-1.73039262472,0.0533620506708,2.02323130824,0.0977638936879,-0.178554538226,-0.616673926702,-0.00377261818876,-0.879608442148,-0.0711672347425,0.273808103397,-0.176454732328,0.573567611791,0.819141987221,0.0027104203288,0.0,0.819106990077,-0.57350434127,-0.0117156413536,0.0,-0.00804249075762,0.00894000879204,-0.999927694679,0.0,0.60975517426,0.193153398019,0.303961974528,1.0,-0.147492,-0.193846628571,1.507
0.413279714727,0.291934363295,-0.125612647009,-1.74300421892,0.0523742782637,2.02702038136,0.0952148481394,-0.179815076834,-0.645061454719,-0.00357915085644,-0.899424170259,-0.0718896451582,0.284204468001,-0.183922838942,0.573684514479,0.819060189285,0.00268906603011,0.0,0.819024188126,-0.573620501384,-0.0118172144178,0.0,-0.00813666312937,0.00898193596797,-0.999926557073,0.0,0.607657449563,0.190392541905,0.303970708103,1.0,-0.15102,-0.198483428571,1.521
0.409527421475,0.279208155191,-0.125764801365,-1.76129309024,0.0507984651441,2.03258309325,0.0912919918179,-0.190174629047,-0.636987512018,-0.00720567211979,-0.934047901506,-0.074192074644,0.264658061831,-0.206472219464,0.573664773174,0.819074223562,0.00262511252694,0.0,0.819037521157,-0.573601143853,-0.011832734673,0.0,-0.00818627802793,0.00893826079826,-0.999926543475,0.0,0.604596647554,0.186344493712,0.303945316421,1.0,-0.15606,-0.205107428571,1.541
0.406124131985,0.268075867968,-0.12588455681,-1.77695726894,0.0494225113558,2.03734778706,0.0878840912869,-0.204169292777,-0.663555633217,-0.0105621740665,-0.923790343237,-0.0888161366367,0.284534980899,-0.197340067486,0.573722264533,0.819033502357,0.00276262505363,0.0,0.818998959693,-0.573658539949,-0.011718808265,0.0,-0.00801344740575,0.00898610127067,-0.999927514695,0.0,0.601963837841,0.182793956763,0.304034347348,1.0,-0.160344,-0.210737828571,1.558
0.402495323351,0.256888392682,-0.126057149867,-1.79291657338,0.0480146745519,2.04203409607,0.0843827242491,-0.220396953881,-0.673710153118,-0.00868424683291,-0.934459423219,-0.0828761776554,0.276734781537,-0.21104844448,0.573904322145,0.81890635033,0.0026391879689,0.0,0.818870167943,-0.573840978445,-0.0117867048954,0.0,-0.00813788996152,0.00892576502726,-0.999927050072,0.0,0.59923159517,0.179064468582,0.303980826245,1.0,-0.164628,-0.216368228571,1.575
0.399000608137,0.246108744696,-0.126146424936,-1.80803977339,0.0466246576722,2.04648112535,0.0809471786973,-0.226022041701,-0.679665598383,-0.000299662757252,-0.934385880396,-0.0849978892893,0.272899933209,-0.216309420747,0.573925542936,0.818891396234,0.00266444008225,0.0,0.818855819455,-0.573862409997,-0.0117400271988,0.0,-0.00808494091791,0.00891986548614,-0.999927532239,0.0,0.596600603956,0.175560627238,0.304008216178,1.0,-0.16866,-0.221667428571,1.591
0.395190771078,0.234359908569,-0.126197270847,-1.82427948774,0.0452211205543,2.05124479084,0.077161959019,-0.228699949276,-0.699946994477,-0.00871770768526,-0.943598248289,-0.0831063581238,0.289056980741,-0.221367653248,0.573891490362,0.818914484833,0.00289322001645,0.0,0.818881422455,-0.573827045628,-0.0116826608657,0.0,-0.00790704454507,0.00907395848,-0.999927568339,0.0,0.593726246496,0.171833158907,0.304107177267,1.0,-0.172944,-0.227297828571,1.608
0.390999168302,0.221889760806,-0.126215642687,-1.84183043642,0.0435395295002,2.05616457016,0.0729953251207,-0.237332369756,-0.686692206389,-0.00149438032989,-0.97306093952,-0.0995781559675,0.262684103811,-0.228031184229,0.573733571115,0.819025812589,0.00269343463398,0.0,0.818990027069,-0.57366971104,-0.0117959780329,0.0,-0.00811622488795,0.00897381747917,-0.999926796067,0.0,0.590521340581,0.167779256042,0.304012104192,1.0,-0.17748,-0.233259428571,1.626
0.387294849388,0.211128824827,-0.126316725866,-1.85642213234,0.042201021885,2.06032689675,0.0694225731787,-0.25388475968,-0.708118502098,-0.00864604103045,-0.980084789357,-0.0905827098871,0.272454270891,-0.241086079182,0.573762688028,0.819004551265,0.00294444129135,0.0,0.818972102127,-0.573698026522,-0.0116626413629,0.0,-0.00786268757901,0.00910317899624,-0.999927652521,0.0,0.587884432614,0.164274748186,0.304146782981,1.0,-0.18126,-0.238227428571,1.641
0.383192224159,0.199673206704,-0.126423095545,-1.87221260316,0.0406876517965,2.06457128487,0.0654400481824,-0.257685293263,-0.723177224208,-0.00592677640283,-0.980589788042,-0.095821825363,0.261288663084,-0.249491915191,0.573725551594,0.819030963409,0.00283184150806,0.0,0.818996742769,-0.573660931123,-0.0117566295449,0.0,-0.00800468090124,0.00906452226184,-0.999926877086,0.0,0.584941124141,0.160436252512,0.304119132247,1.0,-0.185292,-0.243526628571,1.657
0.378337982622,0.186498972142,-0.126585447633,-1.89013931285,0.0390230892261,2.06943731066,0.0608322691358,-0.277888056838,-0.731826060442,-0.00765699117948,-1.00825667675,-0.0823205406111,0.261259814381,-0.258273628143,0.573800552711,0.818978118752,0.00291781003463,0.0,0.818944501781,-0.573735031208,-0.0117798076877,0.0,-0.00797350842283,0.009148960793,-0.999926357128,0.0,0.58158827824,0.155992865784,0.304148951708,1.0,-0.189828,-0.249488228571,1.675
0.37378644075,0.174567730749,-0.126732969687,-1.90611784026,0.0375001305803,2.07370719347,0.0566123005533,-0.28601632726,-0.759811471355,-0.00364386787321,-1.00645249722,-0.10127627553,0.263273998771,-0.257295469467,0.573920405539,0.818893508713,0.00308810535333,0.0,0.818861909584,-0.573854047268,-0.0117240082085,0.0,-0.00782874319022,0.00925755762887,-0.999926501502,0.0,0.578571454762,0.151932810625,0.304240394214,1.0,-0.19386,-0.254787428571,1.691
0.368563161105,0.161094100888,-0.126804623568,-1.92437004388,0.035603237258,2.07834466155,0.05163047955,-0.296515012521,-0.754065436751,-0.00451719365667,-1.00411752297,-0.0946085143492,0.259532278321,-0.2884136509,0.573773948032,0.818996808091,0.00290375576438,0.0,0.818962678552,-0.573708102936,-0.0118275384281,0.0,-0.00802096243761,0.00916457746457,-0.99992583459,0.0,0.575000866839,0.147349728239,0.304181312409,1.0,-0.198396,-0.260749028571,1.709
0.363107262697,0.147378547285,-0.126857095759,-1.94267181916,0.0336928248345,2.08304479289,0.0465510652385,-0.31437031801,-0.753847184896,-0.00360463550035,-1.0334553181,-0.104489110451,0.24572376481,-0.287004336673,0.573685919642,0.819058364647,0.00293390654881,0.0,0.819024792494,-0.573620167194,-0.0117915211157,0.0,-0.00797514958301,0.00916774834514,-0.999926171964,0.0,0.571396699773,0.142695908904,0.304194386149,1.0,-0.202932,-0.266710628571,1.727
0.358348659812,0.135711904161,-0.126979295109,-1.95793713868,0.0321565167047,2.08691168894,0.0421335994496,-0.31910797421,-0.772473704464,-0.00725489861431,-1.03564211561,-0.0990229945554,0.26450438676,-0.30552348326,0.573696249888,0.81905035482,0.00314261587683,0.0,0.819019398328,-0.573629659181,-0.0117041092179,0.0,-0.00778370699391,0.00928864576645,-0.999926564786,0.0,0.56837079041,0.138701088565,0.304291784789,1.0,-0.206712,-0.271678628571,1.742
0.352360235993,0.12170402669,-0.127183404372,-1.97645412433,0.030151573207,2.09136005602,0.0366628024898,-0.338974714175,-0.779931747256,-0.0130119188917,-1.01392544051,-0.107014820615,0.255743625052,-0.307592811076,0.573750744108,0.819012630855,0.00302341491133,0.0,0.818980159811,-0.573684594963,-0.0117571356401,0.0,-0.00789490803457,0.00922195970066,-0.999926310228,0.0,0.564620841794,0.133724822268,0.304253026962,1.0,-0.211248,-0.277640228571,1.76
0.346048080715,0.107378584583,-0.127359167972,-1.99506889334,0.0280942459686,2.09579359888,0.0309362745878,-0.349746289735,-0.815418023535,-0.0034414538336,-1.04471468853,-0.113619776163,0.238653099888,-0.314747375094,0.573793895915,0.818982213853,0.0030733214254,0.0,0.818950850699,-0.57372811048,-0.0116750283283,0.0,-0.0077985397989,0.00921613662441,-0.999927120146,0.0,0.561033853702,0.128911054405,0.304292495939,1.0,-0.215532,-0.283270628571,1.777
0.341090692819,0.0961224930758,-0.12744888031,-2.00949949567,0.0265006262957,2.09917714521,0.0263357950391,-0.353640996598,-0.804068592607,-0.004587160819,-1.03121950518,-0.112149879122,0.246829572413,-0.329613657099,0.573668276625,0.819069733757,0.00319789597006,0.0,0.819040145092,-0.573602289943,-0.011593127318,0.0,-0.0076614067602,0.00926999302464,-0.999927682423,0.0,0.557798599143,0.124722964686,0.304360840761,1.0,-0.219312,-0.288238628571,1.792
0.333996931455,0.0807351864871,-0.127613803411,-2.02931444181,0.0243937543732,2.10346881006,0.0198612317851,-0.383914698576,-0.799829092086,-0.0157778156095,-1.03632716925,-0.118347633109,0.221318531649,-0.348836581466,0.573649047114,0.819083491543,0.00312274378337,0.0,0.81905154653,-0.57358166327,-0.011806209753,0.0,-0.00787927463361,0.00933048874085,-0.999925426725,0.0,0.553552182402,0.1192344435,0.304325427205,1.0,-0.2241,-0.294531428571,1.811
0.327737514526,0.0675648037492,-0.127790118285,-2.0460195154,0.0224613261437,2.10716208882,0.014265402706,-0.393974417417,-0.806795106307,-0.0160457536062,-1.06223425841,-0.114541586862,0.208992819774,-0.357023476709,0.573697785856,0.819049237319,0.00315345074652,0.0,0.819017972224,-0.573630621908,-0.0117566017747,0.0,-0.00782047037247,0.00932764882942,-0.999925914861,0.0,0.549726565646,0.114171504199,0.304341015477,1.0,-0.228384,-0.300161828571,1.828
0.321121035923,0.0542240872572,-0.128031502462,-2.06269128651,0.0205102455181,2.11064056216,0.00843752839688,-0.411125487484,-0.822893619648,-0.00944718157367,-1.04643337047,-0.123060160838,0.224231385559,-0.363721602454,0.573841197921,0.81894827302,0.00327911388947,0.0,0.818918905967,-0.573773913637,-0.0116648352368,0.0,-0.00767157436416,0.00937927196477,-0.999926585407,0.0,0.546108457738,0.109250324264,0.30443570884,1.0,-0.22998,-0.302259428571,1.844
0.314074458214,0.0403043686633,-0.128137101241,-2.08034319835,0.0185004588093,2.11411776963,0.00217009358011,-0.420118381668,-0.817410278325,-0.00365176328173,-1.01175978546,-0.114449082852,0.190200625987,-0.368091520402,0.573822577053,0.818962068669,0.00308659152347,0.0,0.81892886732,-0.573754374487,-0.0119237129003,0.0,-0.00799427710884,0.00936997496576,-0.999924144674,0.0,0.542358076784,0.104464500889,0.304315027859,1.0,-0.22998,-0.302259428571,1.86
0.306799367702,0.0262926105225,-0.128286276062,-2.09759413379,0.0163629350659,2.11753684276,-0.00426159359097,-0.428366023148,-0.8214708109,-0.0118517968443,-1.00192163383,-0.118329538979,0.187078857579,-0.383160980679,0.573808407088,0.818971718766,0.00315954397791,0.0,0.818940072497,-0.573740658,-0.0118136326626,0.0,-0.00786242358167,0.00936641924695,-0.999925223447,0.0,0.538465615485,0.0993115208291,0.304370670681,1.0,-0.22998,-0.302259428571,1.877
0.298902871473,0.0115551904286,-0.128466976945,-2.11551378769,0.0141556810936,2.12089389656,-0.0111968909642,-0.44215520822,-0.800384697545,-0.0142469889217,-0.986539191708,-0.118456186549,0.182105821932,-0.386451057712,0.573856347202,0.818937722729,0.00326281616047,0.0,0.818907617833,-0.573788473724,-0.0117408593255,0.0,-0.00774301537116,0.00940969282067,-0.99992574894,0.0,0.534346306157,0.0938412135781,0.30444646383,1.0,-0.22998,-0.302259428571,1.895
0.292141457878,-0.000561333221864,-0.128603164255,-2.13030236482,0.0123844407429,2.12345039904,-0.0171329131441,-0.446899451238,-0.785630441605,-0.00364670050396,-0.96804544998,-0.119861556399,0.169678762175,-0.393955554966,0.573907831275,0.818901877847,0.00320352309903,0.0,0.818869990705,-0.573838940356,-0.0118977205768,0.0,-0.00790491161593,0.00945164591714,-0.999924086499,0.0,0.530861943933,0.0892685801664,0.304415817748,1.0,-0.22998,-0.302259428571,1.91
0.283990922769,-0.0150104402995,-0.128669718511,-2.14757465244,0.0101717152677,2.12655683257,-0.0243293796024,-0.45857412464,-0.780826809244,-0.00935136635961,-0.954432769467,-0.129028936976,0.158038146258,-0.400874245684,0.573792834504,0.818981768071,0.00337543194949,0.0,0.818952815553,-0.573724209787,-0.011728763925,0.0,-0.00766922444498,0.00949438299276,-0.99992551707,0.0,0.526774207744,0.0839090522425,0.304490733918,1.0,-0.22998,-0.302259428571,1.928
0.277013755386,-0.0270331561491,-0.128792607955,-2.16179674451,0.00832477173621,2.12879777634,-0.0304539567723,-0.470505150461,-0.814105795108,-0.00935187076418,-0.929364451323,-0.118383585429,0.156743974992,-0.411360629605,0.573772563858,0.818995913141,0.00338911846115,0.0,0.818967083851,-0.573703828621,-0.0117294285755,0.0,-0.00766215135018,0.00950578378512,-0.999925462978,0.0,0.523317702565,0.0793747403995,0.304542171212,1.0,-0.22998,-0.302259428571,1.943
0.266898518228,-0.0436146948293,-0.129031759692,-2.18151839814,0.00582528553177,2.13184304977,-0.0392166247588,-0.486119903143,-0.791312320473,-0.01173619779,-0.940222651937,-0.108101467043,0.129660316017,-0.424091735965,0.573932493707,0.818884009218,0.00334947991586,0.0,0.81885367214,-0.573862649687,-0.0118772815488,0.0,-0.00780412476732,0.00955967580002,-0.999923851218,0.0,0.518460530178,0.0729327878875,0.304486755264,1.0,-0.22998,-0.302259428571,1.964
0.260154044263,-0.0546859122682,-0.129102774109,-2.19419445845,0.00413181483178,2.13380879963,-0.0451058023979,-0.479770256398,-0.773362920939,-0.0062569170586,-0.905493522115,-0.131985168932,0.136864520386,-0.422203087508,0.57389511731,0.818909137596,0.00360077642658,0.0,0.818882935956,-0.573825523975,-0.0116512718904,0.0,-0.00747525951785,0.00963540793173,-0.99992563694,0.0,0.515310522181,0.0687686863975,0.304620004336,1.0,-0.22998,-0.302259428571,1.978
0.252760124667,-0.0662576562253,-0.129204488966,-2.20790826076,0.0022974614077,2.13562106378,-0.0516419824083,-0.490966413427,-0.773410666128,-0.00289746088714,-0.911073318922,-0.118169891626,0.107622389308,-0.438949273017,0.573814815909,0.818966401773,0.00336700340327,0.0,0.818936040782,-0.573744616782,-0.0119005346063,0.0,-0.0078144883815,0.00958624807569,-0.999923515885,0.0,0.511560528555,0.0639479878583,0.304493415173,1.0,-0.22998,-0.302259428571,1.994
0.243590245289,-0.0802522814621,-0.129462264517,-2.22383120619,0.00013702031301,2.13773143701,-0.059590382231,-0.516682196866,-0.768385818612,-0.0104113603037,-0.890510290294,-0.125384388189,0.113513552316,-0.450806302335,0.573946963622,0.818873230316,0.00350178838973,0.0,0.818844801814,-0.573876492281,-0.0118198583036,0.0,-0.00766951917514,0.00965157882658,-0.999924009864,0.0,0.507691584003,0.0587209073362,0.304560800965,1.0,-0.22998,-0.302259428571,2.011
0.234913018764,-0.0932805561152,-0.129527493131,-2.23874660935,-0.0018251637351,2.13945833398,-0.0672215941272,-0.508676910552,-0.764974529278,-0.00452737994507,-0.86414624529,-0.117676347942,0.103541827142,-0.448304549789,0.57386297103,0.818932314718,0.0034498248338,0.0,0.818901905849,-0.573791072358,-0.0120091956621,0.0,-0.00785539095127,0.00971688791379,-0.999921934414,0.0,0.503730840261,0.0536732559285,0.304513669397,1.0,-0.22998,-0.302259428571,2.028
0.226535050902,-0.105497286993,-0.129646115883,-2.25242432613,-0.00384274109013,2.14103322168,-0.074538733776,-0.523509315374,-0.740557734075,-0.00490745205197,-0.853909539752,-0.117833463416,0.0937560370897,-0.447940058,0.573798134512,0.818977644003,0.00347366592388,0.0,0.818948356414,-0.573727165206,-0.0118943823836,0.0,-0.00774844593961,0.00966991359778,-0.999923224231,0.0,0.500077725212,0.0488526860669,0.30455636651,1.0,-0.22998,-0.302259428571,2.044
0.216810438767,-0.119172023313,-0.129868196082,-2.26763831998,-0.0060191449495,2.1425791332,-0.0829496157359,-0.546652663264,-0.768848206846,-0.00667439547579,-0.809747714292,-0.126988236038,0.0904865396921,-0.480191624971,0.57391424942,0.818896220022,0.00348741281378,0.0,0.818866942357,-0.573843002984,-0.0119115717688,0.0,-0.00775326292862,0.00969213444227,-0.999922971755,0.0,0.495930845757,0.0433394959643,0.304572276326,1.0,-0.22998,-0.302259428571,2.062
0.207600962665,-0.131953492281,-0.129973939055,-2.28174231909,-0.00795994586463,2.14388961582,-0.0910838911725,-0.543256085722,-0.754839441468,-0.00423085864686,-0.803476149912,-0.11946749571,0.0769095808871,-0.478605543446,0.573833794173,0.818952429991,0.00352717716036,0.0,0.818922863938,-0.573761404982,-0.011997498653,0.0,-0.00780177276084,0.00977324435965,-0.999921804961,0.0,0.49176654069,0.0379695251764,0.304565589317,1.0,-0.22998,-0.302259428571,2.08
0.196412155806,-0.146887078116,-0.130192895605,-2.29788743111,-0.0103488118848,2.14533531708,-0.10087968271,-0.565397528311,-0.74947007395,-0.0130347695736,-0.776923939659,-0.121030533951,0.0830388266288,-0.488802382004,0.573853832458,0.818937548285,0.00371724127779,0.0,0.818911210499,-0.573781725504,-0.0118198010935,0.0,-0.00754693911617,0.00982711791336,-0.999923232785,0.0,0.487460573647,0.0322091734244,0.304655708098,1.0,-0.22998,-0.302259428571,2.099
0.188957818571,-0.156492958401,-0.130347103536,-2.30832682497,-0.0119201540352,2.14603949312,-0.107372025975,-0.574008816184,-0.736506063182,-0.00366754224118,-0.804993142783,-0.126958169248,0.0491025215232,-0.511280120319,0.573898385109,0.818906703395,0.00363340132233,0.0,0.81887882687,-0.573825986355,-0.0119143270652,0.0,-0.00767192991094,0.00981311740767,-0.9999224191,0.0,0.484435224611,0.0282306519797,0.304625512297,1.0,-0.22998,-0.302259428571,2.112
0.176914484748,-0.171891158374,-0.130500386996,-2.32467763892,-0.0142532462141,2.14709282426,-0.118051667214,-0.581162381429,-0.723243154019,-0.0101298930044,-0.768075354107,-0.112753993999,0.0480254934964,-0.516261938318,0.573812110899,0.818966360452,0.00380903327604,0.0,0.818940236062,-0.573738407499,-0.0119111888669,0.0,-0.00756962004771,0.00995434668931,-0.99992180286,0.0,0.479630574524,0.0219894707287,0.304683754852,1.0,-0.22998,-0.302259428571,2.133
0.169814382791,-0.180577407212,-0.130635633839,-2.33394974467,-0.0157461092803,2.14756244982,-0.124236809097,-0.595377773233,-0.740795317443,-0.0140899717815,-0.752399953217,-0.122830037136,0.037051135071,-0.523055166775,0.573828220997,0.818955588578,0.00369643408801,0.0,0.818927985721,-0.573754903074,-0.0119587751424,0.0,-0.00767300628265,0.00988958639247,-0.999921657459,0.0,0.47684613497,0.0183354830575,0.304649679466,1.0,-0.22998,-0.302259428571,2.145
0.156591191168,-0.196493063875,-0.130832430527,-2.35043046578,-0.018262465203,2.14836868894,-0.135927668012,-0.594083291038,-0.70815811313,-0.0028328613599,-0.749029238862,-0.110519401247,0.0309589308778,-0.535040101115,0.57378155592,0.818987295762,0.00390926689832,0.0,0.818963077642,-0.573708313324,-0.0117896387855,0.0,-0.00741292819026,0.00996641442083,-0.999922856564,0.0,0.471837782906,0.0117090411731,0.304750540792,1.0,-0.22998,-0.302259428571,2.167
0.148638158317,-0.205717627288,-0.130994644109,-2.36015183051,-0.0197120310361,2.14864939064,-0.142988983516,-0.620878169805,-0.720533697446,-0.00783845877825,-0.737352582558,-0.115825023085,0.0212158046112,-0.536691776079,0.573782616874,0.818986892433,0.0038373815548,0.0,0.818960486374,-0.573707959739,-0.0119852239105,0.0,-0.00761435154293,0.0100197699153,-0.999920809795,0.0,0.468794075103,0.00778135621277,0.304678557338,1.0,-0.22998,-0.302259428571,2.18
0.137303787698,-0.218466956134,-0.131257740607,-2.37307129072,-0.0217301757518,2.14897475529,-0.152849240696,-0.63436813711,-0.707680206761,-0.0114541569477,-0.707244584376,-0.122734919854,0.02372956764,-0.541225651382,0.573998941082,0.818834480672,0.00400696887003,0.0,0.8188105434,-0.573923994412,-0.0118865283952,0.0,-0.00743354684493,0.0101039976031,-0.999921322712,0.0,0.464702765292,0.00226005196603,0.304761536749,1.0,-0.22998,-0.302259428571,2.198
0.127971259914,-0.228917036012,-0.131326468032,-2.38378451871,-0.0234317547154,2.14913803439,-0.16125579645,-0.629758292828,-0.709032055313,-0.0126149919106,-0.701938420956,-0.0985615627328,0.00172080783607,-0.56365015811,0.573789454776,0.818981502294,0.00396325476116,0.0,0.818956691427,-0.573714282665,-0.0119417894191,0.0,-0.0075064732991,0.0100980012641,-0.999920838481,0.0,0.461234649818,-0.00214644957846,0.304727674615,1.0,-0.22998,-0.302259428571,2.213
0.11695938647,-0.24068160566,-0.131557310322,-2.39558849616,-0.025374328598,2.14919591415,-0.171007655003,-0.656246721025,-0.69225154323,-0.01894001877,-0.684649379901,-0.103810300838,0.00293847532446,-0.57769863742,0.573831898724,0.818951582562,0.00400054076544,0.0,0.818927431679,-0.573756823775,-0.0119044410699,0.0,-0.00745396680274,0.0101074951974,-0.99992113535,0.0,0.457339623397,-0.00732852376708,0.304750589716,1.0,-0.22998,-0.302259428571,2.23
0.106443229713,-0.251615433967,-0.131705926958,-2.40642858766,-0.0270704303283,2.14921780264,-0.180369080064,-0.644902398865,-0.670238936222,-0.00491861884028,-0.688667162913,-0.10477536486,0.000770673412365,-0.592929829853,0.573843939182,0.818942366977,0.00415691423374,0.0,0.818920372313,-0.573768491582,-0.011827458708,0.0,-0.00730104118781,0.0101914934653,-0.999921411041,0.0,0.453704625294,-0.0121481737166,0.304789223252,1.0,-0.22998,-0.302259428571,2.246
0.0952303920831,-0.263117068699,-0.131879487211,-2.4179286648,-0.0289303954059,2.14908154605,-0.190469501059,-0.673898766713,-0.672647841142,-0.00922481068109,-0.664268619763,-0.117593164489,-0.00490822712019,-0.5859162003,0.573735173869,0.819018692142,0.00413268528286,0.0,0.818995749898,-0.573658948353,-0.0119213893305,0.0,-0.00739323114737,0.0102245689173,-0.999920395993,0.0,0.449755825655,-0.0172105155637,0.304730478703,1.0,-0.22998,-0.302259428571,2.263
0.0828696592405,-0.275170203146,-0.132128957877,-2.42950579764,-0.0309119356661,2.14887352883,-0.201396244946,-0.681375481298,-0.655081389893,-0.00798587561414,-0.64692800307,-0.102879189609,-0.0153519343011,-0.612943517817,0.57387539479,0.818919453929,0.00432505861956,0.0,0.818900317394,-0.573800354482,-0.0116692017606,0.0,-0.00707455237159,0.0102386567694,-0.999922557309,0.0,0.445697234869,-0.0227330104242,0.304830830812,1.0,-0.22998,-0.302259428571,2.281
0.0727034159559,-0.28506303415,-0.132267228474,-2.4391581239,-0.0324866337797,2.14849930168,-0.210743577921,-0.684490765635,-0.650104272969,-0.0176553180834,-0.63964460258,-0.101146925474,-0.0240621724802,-0.621798486068,0.573652239795,0.819075837485,0.00431591562756,0.0,0.8190558904,-0.573576266349,-0.0117669870282,0.0,-0.00716268588718,0.0102853326061,-0.999921450847,0.0,0.442222480513,-0.0271540825399,0.30479406711,1.0,-0.22998,-0.302259428571,2.296
0.0599262495462,-0.29680097231,-0.13255757125,-2.45028094856,-0.0343531559615,2.14802429709,-0.222099892428,-0.717247416422,-0.646443039495,-0.0184553035539,-0.605379843343,-0.11932621597,-0.0230277126045,-0.635975451253,0.573850637576,0.818935886632,0.00449513520031,0.0,0.818918643416,-0.573774614742,-0.0116487701101,0.0,-0.00696053542237,0.0103660037525,-0.999922045418,0.0,0.438127764781,-0.0326822505033,0.304853864324,1.0,-0.22998,-0.302259428571,2.314
0.0478702405,-0.307696490539,-0.132690448513,-2.46063644767,-0.0361283872242,2.14740697227,-0.233016293727,-0.719284516162,-0.645841479531,-0.00860301269233,-0.610209875977,-0.0953948439067,-0.0368346409698,-0.646866767862,0.573747632121,0.81900806282,0.00449383723625,0.0,0.818990676315,-0.573671441559,-0.011666025447,0.0,-0.00697671714011,0.0103739650048,-0.99992185008,0.0,0.434217203564,-0.0377479999795,0.3048429217,1.0,-0.22998,-0.302259428571,2.331
0.0369635597011,-0.317186236827,-0.1329437248,-2.46961747683,-0.0377155922838,2.14672161005,-0.242845170794,-0.735123250814,-0.624908452739,-0.0194353222766,-0.591885597835,-0.102705919165,-0.0470200284707,-0.658871799635,0.573807298076,0.818966533565,0.00444392589647,0.0,0.818947836726,-0.573730280366,-0.0117793469074,0.0,-0.00709741270108,0.0103986189272,-0.999920744588,0.0,0.430725430333,-0.0423176211283,0.304804509328,1.0,-0.22998,-0.302259428571,2.346
0.0230078504957,-0.329052943639,-0.133119665607,-2.48040883982,-0.0395630918547,2.14595954996,-0.255576576761,-0.731157859017,-0.616457475595,-0.00694603309072,-0.566976831386,-0.0877091939524,-0.0496262135664,-0.668302628725,0.573734018875,0.819016356508,0.00471489749214,0.0,0.81900249773,-0.573658184494,-0.0114866433585,0.0,-0.00670313831274,0.0104519921133,-0.999922908927,0.0,0.426461925046,-0.0480117181405,0.30492530622,1.0,-0.22998,-0.302259428571,2.365
0.0102578145173,-0.339414669522,-0.133395366767,-2.49003365415,-0.0412394716387,2.14497150598,-0.267169394602,-0.758477214188,-0.606769376081,-0.0218394104469,-0.550970865459,-0.0958721898951,-0.0575629024997,-0.677701932451,0.573790026544,0.818977313925,0.00468098453492,0.0,0.818961816597,-0.573712431203,-0.0116763067662,0.0,-0.00687722374186,0.01053349877,-0.999920871468,0.0,0.422506517339,-0.0531633130821,0.304872488853,1.0,-0.22998,-0.302259428571,2.382
-0.00115533626374,-0.348426318567,-0.133535665985,-2.49826944073,-0.0427904738827,2.14407364474,-0.277575304831,-0.758092835685,-0.594074912383,-0.00809767381176,-0.538906197583,-0.0934282472049,-0.0612860656371,-0.6937378918,0.573716406442,0.819029301373,0.0046081854109,0.0,0.819012890289,-0.573639099761,-0.011696822905,0.0,-0.00693673891526,0.0104850243254,-0.999920969836,0.0,0.41904375337,-0.057680853417,0.304858162893,1.0,-0.22998,-0.302259428571,2.397
-0.0150461649223,-0.359097071845,-0.133813653895,-2.50770638157,-0.0445215815496,2.1430373552,-0.290304709349,-0.786427516821,-0.579316777873,-0.0223843121574,-0.528584022482,-0.0973310933466,-0.0623170841414,-0.715120648242,0.573737872757,0.819013213133,0.00479134419692,0.0,0.819000200696,-0.573661597892,-0.0114799506164,0.0,-0.00665374917816,0.0105107966703,-0.999922622394,0.0,0.414971765681,-0.0631403451193,0.304950470212,1.0,-0.22998,-0.302259428571,2.415
-0.0275750064671,-0.368342938557,-0.133970261044,-2.5160740894,-0.0459931967858,2.14189986657,-0.30183302886,-0.776417584498,-0.580519775085,-0.012051234407,-0.525846382446,-0.0825677523741,-0.071442574442,-0.727016191479,0.57368416754,0.819051067487,0.00475096451816,0.0,0.819036391379,-0.573606236995,-0.011662820344,0.0,-0.0068273940218,0.0105821919547,-0.999920698808,0.0,0.411246598666,-0.0679306863733,0.304895943524,1.0,-0.22998,-0.302259428571,2.431
-0.0402800650436,-0.377404901702,-0.134218267054,-2.52413816288,-0.0475161911372,2.14072632005,-0.313503286948,-0.809266372037,-0.568977878393,-0.0225799662482,-0.494436741459,-0.0974710050182,-0.0740501580782,-0.737169220677,0.573726189806,0.81902176074,0.00472879121944,0.0,0.819006349369,-0.573647632173,-0.0117362982597,0.0,-0.00689975662083,0.0106065359252,-0.999919944173,0.0,0.407319359561,-0.0730812242584,0.30488020238,1.0,-0.22998,-0.302259428571,2.448
-0.0547968756946,-0.387380049583,-0.134424048776,-2.53273316617,-0.0491761683061,2.13951783974,-0.32688819871,-0.808687194197,-0.549969051327,-0.011460015217,-0.483816375924,-0.0861338076152,-0.0687000910187,-0.748572028559,0.573688519224,0.819047489388,0.00484148101374,0.0,0.819034732949,-0.57361148696,-0.0115202062801,0.0,-0.00665859510612,0.0105745547841,-0.999921917903,0.0,0.403481987734,-0.0782097816416,0.30494975786,1.0,-0.22998,-0.302259428571,2.465
-0.0695894383924,-0.397095231762,-0.134741187757,-2.54126828794,-0.0508022585153,2.13806395647,-0.340564353136,-0.825577373098,-0.532601855401,-0.0210159638824,-0.467088770299,-0.0971674141522,-0.085528565518,-0.77511710829,0.573749121687,0.819005253857,0.00480483281709,0.0,0.818990885099,-0.573670401228,-0.0117024689949,0.0,-0.00682812468245,0.0106496006268,-0.999919978158,0.0,0.399285927759,-0.0836858743982,0.30489551642,1.0,-0.22998,-0.302259428571,2.483
-0.0819619301004,-0.405003242413,-0.134877291502,-2.5481386046,-0.0520895350217,2.13680557537,-0.352082211844,-0.818638949564,-0.529284922664,-0.0170134567765,-0.443298227452,-0.068999134518,-0.0882771943891,-0.771122633957,0.573674666123,0.819057619834,0.00476862055594,0.0,0.819041938149,-0.573594773527,-0.011835803147,0.0,-0.00695908291047,0.0106958065685,-0.999918582129,0.0,0.395812038418,-0.0881492369929,0.304860504875,1.0,-0.22998,-0.302259428571,2.498
-0.0971650690179,-0.414245964972,-0.135186909508,-2.55584128566,-0.0535358836944,2.13546667504,-0.366210368132,-0.85706190674,-0.51725595385,-0.0177517125994,-0.415536476271,-0.0860068201886,-0.0731159062046,-0.787697013228,0.573788188974,0.81897663947,0.00501249420416,0.0,0.818965184977,-0.573709164927,-0.0116002920364,0.0,-0.00662478187238,0.0107613759921,-0.999920149338,0.0,0.39152446693,-0.0939482703874,0.304955868824,1.0,-0.22998,-0.302259428571,2.517
-0.111581970299,-0.422757560814,-0.135349650398,-2.56305429471,-0.0550266360735,2.13399199382,-0.379801959482,-0.849276859262,-0.502198483426,-0.0131296248269,-0.42579823293,-0.0789077244926,-0.0950136011671,-0.813073081624,0.573598057932,0.819110310225,0.00493097561288,0.0,0.819097557045,-0.573518929727,-0.0116608828514,0.0,-0.00672367096543,0.0107278163794,-0.99991984989,0.0,0.387824293498,-0.0987283736596,0.304937959332,1.0,-0.22998,-0.302259428571,2.533
-0.125447805166,-0.430491143972,-0.135628542052,-2.56964783898,-0.056313084189,2.13256422625,-0.392683450772,-0.86580829985,-0.480293043702,-0.0153611715365,-0.407813548999,-0.0831574605064,-0.0765073026898,-0.810561060435,0.573731646053,0.819016831374,0.00491682267974,0.0,0.819002536951,-0.573650393202,-0.0118666653886,0.0,-0.00689859424134,0.0108353803297,-0.999917498562,0.0,0.38408328966,-0.1035859569,0.304878073086,1.0,-0.22998,-0.302259428571,2.549
-0.140174553177,-0.438422698956,-0.135782072564,-2.57624630652,-0.0576500015615,2.13113329124,-0.40664263521,-0.868289959803,-0.464633613601,-0.0147923041286,-0.373846276144,-0.0793894469239,-0.0809824618636,-0.825597281387,0.573565894174,0.819132889825,0.00492145804695,0.0,0.819118680569,-0.573484692978,-0.0118592142619,0.0,-0.00689202428515,0.0108335076328,-0.999917564159,0.0,0.380206830724,-0.108648677143,0.304877329056,1.0,-0.22998,-0.302259428571,2.566
-0.155352450153,-0.446180988039,-0.136045824489,-2.58237326332,-0.0589209142657,2.12974379805,-0.420792567077,-0.875817105588,-0.450792321207,-0.00636292362854,-0.361340652181,-0.0737316708598,-0.0794754165235,-0.83274956629,0.573740475372,0.819009442281,0.00511344067439,0.0,0.818999312062,-0.573661180195,-0.0115639128314,0.0,-0.00653769725747,0.0108227976121,-0.999920059588,0.0,0.376366827657,-0.113874439372,0.305004269751,1.0,-0.22998,-0.302259428571,2.583
-0.169566088746,-0.453144004642,-0.136238788402,-2.5881713253,-0.0600507926789,2.12828489472,-0.4343338514,-0.899641339147,-0.43578424515,-0.018949982262,-0.358781148483,-0.0741629545451,-0.097209316951,-0.850334989503,0.573647196302,0.819074785012,0.00511249771624,0.0,0.819063283691,-0.573565687711,-0.0117680113578,0.0,-0.0067066572283,0.010938356486,-0.999917683165,0.0,0.37265761396,-0.118640798769,0.304949529858,1.0,-0.22998,-0.302259428571,2.599
-0.185813278796,-0.460707343067,-0.136463612166,-2.5943367849,-0.0613934948048,2.12669426595,-0.44975951715,-0.903320015655,-0.409236325709,-0.0101659326274,-0.32741459665,-0.0714032383734,-0.0801239761413,-0.858917936136,0.573582667551,0.819120191401,0.0050776397506,0.0,0.819107840641,-0.57350064625,-0.0118364290371,0.0,-0.00678355894451,0.0109485158659,-0.999917053224,0.0,0.368501123729,-0.124057845713,0.304932081489,1.0,-0.22998,-0.302259428571,2.617
-0.200516045795,-0.467076177649,-0.136738105446,-2.5995317774,-0.0624695574167,2.12539788274,-0.463686688199,-0.932557630968,-0.399607432343,-0.017476303289,-0.319157554803,-0.0599892797786,-0.0847594645699,-0.873297861059,0.573679718939,0.819051758134,0.00515213321843,0.0,0.819039917235,-0.573596674153,-0.0118834454984,0.0,-0.00677804094754,0.0110373069407,-0.99991611449,0.0,0.364812855454,-0.128932734652,0.304903887389,1.0,-0.22998,-0.302259428571,2.633
-0.215245992061,-0.473271886355,-0.136882722435,-2.60431735473,-0.0635245349603,2.12406588084,-0.477718652331,-0.916427397242,-0.384924189438,-0.0100927653805,-0.2913651039,-0.0605463084598,-0.0795091294802,-0.885817127202,0.573643889455,0.819076390683,0.0052250567506,0.0,0.819066494493,-0.573562243672,-0.0117122642466,0.0,-0.00659647085517,0.0109985494892,-0.999917755859,0.0,0.361194821108,-0.133746338747,0.304982931899,1.0,-0.22998,-0.302259428571,2.649
-0.232067816378,-0.479865846166,-0.137163173799,-2.60949625288,-0.0646947033928,2.12261218442,-0.493773632606,-0.940933391233,-0.349933029329,-0.00493476700704,-0.282551262924,-0.0647203805884,-0.0834482031192,-0.890476180832,0.573689978073,0.819043673611,0.00529307825445,0.0,0.819034937151,-0.573608568839,-0.0116502524485,0.0,-0.00650603578301,0.0110190612383,-0.999918122542,0.0,0.3570679163,-0.139221078302,0.305008986926,1.0,-0.22998,-0.302259428571,2.667
-0.247932451519,-0.485720776896,-0.137290622109,-2.61421008867,-0.0656126469148,2.12118989239,-0.509028506964,-0.944758823957,-0.332653162904,-0.0102857886583,-0.268030081835,-0.0591372768193,-0.0743971956175,-0.900457580506,0.573628646947,0.81908628593,0.00534588660745,0.0,0.819076906602,-0.573544826438,-0.0118363862005,0.0,-0.00662904363498,0.0111685974965,-0.999915655548,0.0,0.353162292334,-0.144246246729,0.304960404888,1.0,-0.225864,-0.296849828571,2.684
-0.262992503137,-0.490772705305,-0.137405277016,-2.61827958856,-0.0664823503775,2.11994499544,-0.523378743247,-0.932671297444,-0.310542844287,-0.00467661442493,-0.247926788363,-0.0493808279749,-0.0763947201748,-0.890686934605,0.573693833336,0.819040646088,0.00534345852803,0.0,0.81903019719,-0.573608270883,-0.0119931049616,0.0,-0.00675791854039,0.0112570409838,-0.999913801068,0.0,0.349526351193,-0.148999646937,0.304907350557,1.0,-0.221832,-0.291550628571,2.7
-0.278846966265,-0.495790843481,-0.137486604914,-2.62218229733,-0.0673072397199,2.11879562889,-0.538521201863,-0.941730740194,-0.287565214548,-0.0144237015284,-0.216547407758,-0.0558104704798,-0.0698738862802,-0.889133854561,0.573762894557,0.818991738623,0.0054240020268,0.0,0.818982640579,-0.573677523233,-0.0119281461089,0.0,-0.0066575532501,0.011286308437,-0.999914144428,0.0,0.345782881517,-0.153969561633,0.304918633737,1.0,-0.217548,-0.285920228571,2.717
-0.294426495731,-0.500458004207,-0.137451399709,-2.62574265571,-0.0679798097012,2.11758308212,-0.553476665193,-0.916634915768,-0.259785847307,0.00307749794975,-0.202293614239,-0.036691677507,-0.0623914435274,-0.873392848193,0.573758974015,0.818993876668,0.00551512639294,0.0,0.818985754576,-0.573672902939,-0.0119365462128,0.0,-0.00661220699437,0.0113657292843,-0.999913545721,0.0,0.342120750127,-0.158761073642,0.304944345663,1.0,-0.213264,-0.280289828571,2.734
-0.309134480252,-0.504423919272,-0.137468219588,-2.62879158754,-0.0686325137427,2.11659417428,-0.567477561006,-0.915233079052,-0.234354383362,-2.36363474352e-05,-0.186696080182,-0.0422302310303,-0.0597069581781,-0.873881916944,0.573897106492,0.818896741495,0.0055664019067,0.0,0.818889393778,-0.573811001122,-0.0119097711956,0.0,-0.00655893645317,0.0113934700707,-0.999913580862,0.0,0.338709458022,-0.163293394992,0.304952631915,1.0,-0.209232,-0.274990628571,2.75
-0.324348394777,-0.508301106072,-0.137363458007,-2.63170414605,-0.0691540732619,2.11565321105,-0.582213674518,-0.895895935947,-0.225675402589,0.0060903425329,-0.168086138983,-0.0276027174959,-0.0559146765953,-0.858048226319,0.573823525638,0.818947490239,0.00568476533077,0.0,0.818942264433,-0.573738027051,-0.0117894335114,0.0,-0.00639348403474,0.0114207687807,-0.999914341032,0.0,0.335226961987,-0.167906611992,0.304992529159,1.0,-0.204948,-0.269360228571,2.767
-0.34034368499,-0.511990822816,-0.137287470841,-2.63454469932,-0.0697906093854,2.11463828582,-0.597593498184,-0.866315503373,-0.195637910035,0.0129068328881,-0.155178260189,-0.0339876464623,-0.0597944973215,-0.855571857198,0.573837930748,0.818937494167,0.00567069514358,0.0,0.81893184169,-0.573752045979,-0.0118311158736,0.0,-0.00643549534921,0.0114332759949,-0.999913928596,0.0,0.331540065393,-0.172738251053,0.304984041695,1.0,-0.200412,-0.263398628571,2.785
-0.354341140332,-0.514897940817,-0.137181853151,-2.63684130928,-0.0701866509731,2.11381396303,-0.611113708406,-0.881292151133,-0.174970533341,0.006627343269,-0.137823219511,-0.0242867202397,-0.0503190839171,-0.840097936006,0.573852481875,0.818926877752,0.00573104193824,0.0,0.818921149795,-0.573764837364,-0.0119502603864,0.0,-0.00649824419231,0.0115511804314,-0.999912167669,0.0,0.32833188738,-0.176912598851,0.30494704169,1.0,-0.19638,-0.258099428571,2.801
-0.368969079706,-0.517594517871,-0.137017703227,-2.63900240954,-0.0705909363558,2.11306092683,-0.625226413067,-0.842866891112,-0.151453809739,0.00719076725683,-0.123476115854,-0.0196319217247,-0.0348259105916,-0.823935019013,0.573860843771,0.818920927907,0.00574392923297,0.0,0.81891464668,-0.573771868201,-0.012057844526,0.0,-0.00657884288409,0.0116235364012,-0.999910802136,0.0,0.325013763134,-0.181251636277,0.30489910657,1.0,-0.192096,-0.252469028571,2.818
-0.384226287013,-0.520165863576,-0.136916389691,-2.64098373876,-0.0709568994306,2.11234401525,-0.639964841337,-0.858615757563,-0.137325545682,0.00290874127428,-0.100017502827,-0.0221824012569,-0.0338238613936,-0.812440936275,0.573942864885,0.818862863524,0.0058262758723,0.0,0.818857384458,-0.573853050659,-0.0120833385359,0.0,-0.00655129714392,0.0117062603404,-0.999910017939,0.0,0.321569998181,-0.185783295423,0.304886159089,1.0,-0.18756,-0.246507428571,2.836
-0.396617850723,-0.522041606637,-0.136704124866,-2.64239148709,-0.07118751622,2.11178761184,-0.652071819523,-0.81229858787,-0.123352235112,0.00492755028892,-0.0986511797136,-0.021387949949,-0.0368033403477,-0.803529601196,0.573845129282,0.818931076315,0.005865726394,0.0,0.818926075639,-0.573755105577,-0.0120792534585,0.0,-0.00652671122876,0.0117354430028,-0.999909836644,0.0,0.318808380079,-0.189415383513,0.304893284154,1.0,-0.18378,-0.241539428571,2.851
-0.410586822851,-0.523968017744,-0.136580651506,-2.64375814069,-0.0714629807298,2.11119964326,-0.665531780559,-0.8211824285,-0.105038121972,0.00510401192381,-0.0803020203266,-0.0196508104757,-0.0291754949249,-0.788577047497,0.573976824653,0.818838267612,0.00593659463274,0.0,0.818834544683,-0.573887122318,-0.012012750369,0.0,-0.00642968828271,0.0117563554215,-0.999910219578,0.0,0.315691068594,-0.193540312642,0.304931595631,1.0,-0.179496,-0.235909028571,2.868
-0.424930785797,-0.525642484828,-0.136347941079,-2.6449894464,-0.0716766172583,2.11071234334,-0.679582992328,-0.792565260348,-0.0902905289454,0.00918812027999,-0.0626440538315,-0.0134469743779,-0.027211771074,-0.780286044052,0.573888927806,0.818899523389,0.00598465007028,0.0,0.818896749142,-0.573799642081,-0.0119512297867,0.0,-0.00635298862264,0.0117597153465,-0.999910670325,0.0,0.312518529678,-0.197732193012,0.304949574882,1.0,-0.17496,-0.229947428571,2.886
-0.437571184288,-0.526880351482,-0.136225058301,-2.64591560542,-0.071850401602,2.11030436827,-0.691771454938,-0.783946519502,-0.07328600865,0.0142220902728,-0.0553150482335,-0.0151328479682,-0.0198627619094,-0.757617788444,0.574044066146,0.818790327514,0.00604620489717,0.0,0.818788229024,-0.573954265388,-0.0119617789674,0.0,-0.0063240655861,0.011817377158,-0.999910173861,0.0,0.309705615513,-0.201435741602,0.304949737003,1.0,-0.170928,-0.224648228571,2.902
-0.45049083823,-0.527951172199,-0.135956060932,-2.64674599896,-0.0719762320181,2.1099567905,-0.704485477224,-0.762363915036,-0.0557787312837,0.00581982700729,-0.0488041389544,-0.00966264893699,-0.0188673489177,-0.742346303841,0.57392066387,0.818876689792,0.0060650968774,0.0,0.818874747608,-0.573830643717,-0.0119702532582,0.0,-0.0063219446357,0.0118367582656,-0.999909958031,0.0,0.306852861791,-0.205167792695,0.304940900557,1.0,-0.166644,-0.219017828571,2.919
-0.463352619551,-0.52875693258,-0.1357945551,-2.64739049263,-0.0721065396112,2.10964957247,-0.716917749369,-0.758302734772,-0.0505026708337,0.00964959892494,-0.0375189242181,-0.0068465054884,-0.019759891449,-0.725342966284,0.574065617489,0.818774815657,0.00610040680005,0.0,0.818772954927,-0.573974710725,-0.0120260812579,0.0,-0.00634529540328,0.0118988369547,-0.999909073319,0.0,0.303999041165,-0.208910673718,0.304920100162,1.0,-0.16236,-0.213387428571,2.936
-0.475689672067,-0.529316174309,-0.135498066894,-2.64784706622,-0.0721475965345,2.10941121287,-0.72909704833,-0.720627345587,-0.0296962487467,0.00859979699225,-0.0257931767024,-0.000987795926327,-0.0137357810189,-0.714964824924,0.573941832873,0.818861465985,0.00611709943116,0.0,0.818859524899,-0.573850322641,-0.01206783277,0.0,-0.00637170642616,0.0119355089883,-0.999908468302,0.0,0.301297732668,-0.212457869376,0.304903979714,1.0,-0.158076,-0.207757028571,2.953
-0.487175067121,-0.529676211825,-0.13534208689,-2.64814993068,-0.0721741722209,2.10921656814,-0.740251340416,-0.722207577334,-0.0201969764367,0.00540963519376,-0.0124203332542,-0.000456780123677,-0.0111838113929,-0.690268274372,0.57407425285,0.818768132526,0.00618419565701,0.0,0.81876663107,-0.573981602084,-0.0121272922252,0.0,-0.0063799487108,0.0120256107975,-0.999907336176,0.0,0.298758160745,-0.215784998564,0.304885074042,1.0,-0.154044,-0.202457828571,2.969
-0.498958544726,-0.529901404711,-0.135041224338,-2.64832180008,-0.0721913582936,2.10906789125,-0.751885856669,-0.675662571374,-0.0108919375565,0.0183154691393,-0.00684960165825,0.00298513282642,-0.015149728268,-0.665863034093,0.573966820136,0.818843477963,0.00618020074018,0.0,0.818841878636,-0.573874124126,-0.0121331921671,0.0,-0.00638865098756,0.0120248884271,-0.999907289301,0.0,0.29618272125,-0.219166609965,0.304884126463,1.0,-0.14976,-0.196827428571,2.986
-0.509835620396,-0.530014792287,-0.134815153657,-2.64841949072,-0.072201275594,2.10896488888,-0.762545971487,-0.686692377436,-0.00697213074843,0.0118435746392,-0.00546265688324,-0.000152777588358,-0.0132152171364,-0.662261626282,0.573975312487,0.818837393225,0.00619766194451,0.0,0.818835946018,-0.573882393773,-0.0121424267678,0.0,-0.006386066961,0.0120445534748,-0.999907069122,0.0,0.293781801259,-0.222289165499,0.304878073816,1.0,-0.145728,-0.191528228572,3.002
-0.521146968769,-0.530001997865,-0.134558980509,-2.64840550655,-0.0722024838694,2.10888798887,-0.773561853515,-0.647530880304,0.00227973623609,0.0192427766764,0.00231130268457,0.000877819110324,-0.000421314454006,-0.63961002308,0.574036930335,0.818794190698,0.00619861208135,0.0,0.818792794,-0.573944065966,-0.0121374023736,0.0,-0.0063805007768,0.0120429279695,-0.999907124235,0.0,0.291286498235,-0.225530662968,0.304879742809,1.0,-0.141444,-0.185897828572,3.019
-0.531946836217,-0.52984499856,-0.134294508046,-2.64828909618,-0.072201445106,2.10889364839,-0.784278506346,-0.643090073256,0.00934544724421,0.0145722071211,0.0078639932888,-0.00100713139269,0.0026751130487,-0.629302983738,0.573925806834,0.818872231904,0.00617923686284,0.0,0.818870863254,-0.573833582402,-0.0120944583457,0.0,-0.00635808488656,0.0120015498554,-0.999907764525,0.0,0.28891097317,-0.22862587239,0.304882606947,1.0,-0.13716,-0.180267428572,3.036
-0.542045578812,-0.52964205153,-0.134100260663,-2.64811983928,-0.072190922374,2.10888694812,-0.794074114463,-0.627791540786,0.0145705603953,0.0184111276377,0.0122824310076,-5.39558204795e-05,0.000310380731175,-0.604713903274,0.57405052341,0.818784766438,0.00618463607322,0.0,0.81878366677,-0.573958624202,-0.0120644782465,0.0,-0.00632860763681,0.0119897298932,-0.999908093328,0.0,0.286524596505,-0.23170199367,0.304889636492,1.0,-0.132876,-0.174637028572,3.053
-0.552749786005,-0.529191696741,-0.13373246764,-2.6477940752,-0.0721249063285,2.10892583269,-0.804786331682,-0.587548940395,0.0289979407783,0.0197113852607,0.0186250572208,0.00369888623794,0.000483452412909,-0.593871810175,0.57383213268,0.818938167983,0.00614063729492,0.0,0.818936453589,-0.573740393538,-0.0120744651011,0.0,-0.0063652312215,0.0119577380125,-0.999908243957,0.0,0.284321789114,-0.234558075392,0.304886272568,1.0,-0.128592,-0.169006628572,3.07
-0.562735189826,-0.52868629002,-0.133489560198,-2.64744297014,-0.0720798348067,2.10898922788,-0.81457030517,-0.587706356359,0.0268617836948,0.0129198462506,0.0245839858299,0.0113313266329,0.000850816740452,-0.569976598251,0.573865200671,0.818915116058,0.00612462667469,0.0,0.818913058694,-0.573773272659,-0.0120987926435,0.0,-0.00639386019247,0.0119588430765,-0.999908048084,0.0,0.282102642603,-0.237408510798,0.304872911076,1.0,-0.124308,-0.163376228572,3.087
-0.571306931456,-0.52813244235,-0.133268734208,-2.64700696151,-0.071996161386,2.10908793384,-0.822924394102,-0.560052867211,0.0375164065992,0.0219599864085,0.0340481406275,0.0110640534031,0.0143350894164,-0.559212539407,0.573947941168,0.818857111346,0.00612690199019,0.0,0.818855329583,-0.573856446548,-0.0120612963537,0.0,-0.00636063854881,0.0119398324373,-0.999908487152,0.0,0.280218699016,-0.239867206727,0.304882835612,1.0,-0.120528,-0.158408228572,3.102
-0.581006354233,-0.527307070669,-0.132938951047,-2.6464209734,-0.0718356881716,2.10921704927,-0.832635746689,-0.53920556258,0.0474514787431,0.0181910678833,0.0363655529072,0.0110608277797,0.0105179809363,-0.526243130295,0.573807194906,0.818955693172,0.00613372608672,0.0,0.818953706943,-0.573715150444,-0.0121036744751,0.0,-0.00639348462946,0.0119686436482,-0.999907933224,0.0,0.278103524669,-0.242627722254,0.304866953646,1.0,-0.115992,-0.152446628572,3.12
-0.59006707302,-0.526494921753,-0.132690640081,-2.64581424814,-0.0716728639948,2.1093416972,-0.841452235566,-0.523260281491,0.0484515221457,0.0147851346513,0.0344857529253,0.00920054193495,0.0014947438597,-0.510854466807,0.573935507228,0.818865480089,0.00617300275828,0.0,0.818863849718,-0.573842968309,-0.0121239535399,0.0,-0.00638567575389,0.0120134475236,-0.999907445829,0.0,0.276106101437,-0.245216235197,0.304862669508,1.0,-0.111708,-0.146816228572,3.137
-0.598188689533,-0.525604574684,-0.132415318819,-2.6451606885,-0.0715101672973,2.10949694924,-0.849487388459,-0.493093615916,0.0612516353221,0.018482002912,0.0405449535852,0.00742067289384,0.0133110045132,-0.495334402868,0.57391801766,0.81887766633,0.0061825151392,0.0,0.818875979817,-0.573825100961,-0.0121503121916,0.0,-0.0064020601782,0.012036227964,-0.999907067103,0.0,0.274337299066,-0.247539144994,0.304854113467,1.0,-0.107676,-0.141517028572,3.153
-0.606354008995,-0.524621854947,-0.132063082904,-2.64444309194,-0.0713105770822,2.10966548336,-0.857688393868,-0.484123363819,0.0584118527196,0.0177966960496,0.0398112857387,0.00995043816289,0.0152717303689,-0.474563974569,0.573765795077,0.818984306535,0.00618586690842,0.0,0.818982273192,-0.573672163335,-0.0122078709601,0.0,-0.00644951925435,0.0120708065304,-0.99990634528,0.0,0.27246211633,-0.249992692623,0.304836558196,1.0,-0.10314,-0.135555428572,3.171
-0.614890300833,-0.523608779217,-0.131757998645,-2.64366695513,-0.0711043704106,2.10984397845,-0.865986499248,-0.467232783054,0.0561029698198,0.0108874051059,0.0446127137823,0.0121233681079,0.0174945444559,-0.453888327816,0.573875653001,0.81890721568,0.00620112097101,0.0,0.818905488409,-0.573782127889,-0.0121908846939,0.0,-0.00642523476101,0.0120744163818,-0.999906458039,0.0,0.270700437287,-0.252286840191,0.304847982108,1.0,-0.0988560000001,-0.129925028572,3.188
-0.621675767679,-0.522691542436,-0.131518878942,-2.64293186752,-0.0709342598465,2.1100078096,-0.872651582761,-0.444602166995,0.0612204525667,0.0187866442969,0.0476032958092,0.0117907789137,0.00617860439372,-0.437218022036,0.57391814115,0.818877362501,0.00621122726342,0.0,0.818875931151,-0.573824869495,-0.0121645152761,0.0,-0.0063972126777,0.0120678928485,-0.999906716465,0.0,0.269225417698,-0.254239945681,0.304865585194,1.0,-0.0950760000001,-0.124957028572,3.203
-0.629247637167,-0.521598071382,-0.131149147063,-2.64207879997,-0.0706950187957,2.11023133988,-0.880306679397,-0.416229002168,0.0598472272817,0.0181325422801,0.0448099660254,0.00961595340511,0.013173712134,-0.421970079773,0.573737242604,0.819004133035,0.00620914013179,0.0,0.819002887673,-0.573644422116,-0.0121282257512,0.0,-0.00637135108211,0.0120439503814,-0.999907170264,0.0,0.267602013898,-0.256394300904,0.304880179858,1.0,-0.0905400000001,-0.118995428572,3.221
-0.636330169772,-0.520575895507,-0.130868092251,-2.64126882883,-0.0704838000942,2.11042281837,-0.887175770796,-0.409464344061,0.0594597652964,0.0179900994044,0.051644784859,0.00873757154883,0.0145106802415,-0.396986435486,0.573847407503,0.818926822499,0.00622568833009,0.0,0.818925955763,-0.573754797896,-0.0121019738412,0.0,-0.00633873447439,0.0120432959512,-0.999907385445,0.0,0.266053099194,-0.258416298092,0.304896050225,1.0,-0.0862560000001,-0.113365028572,3.238
-0.6426366391,-0.519568441859,-0.130621502546,-2.64046701128,-0.0702679429983,2.11062440349,-0.893395166412,-0.383883160772,0.0627712124629,0.00933003711845,0.0544536872103,0.00642707805367,0.0142288084605,-0.374245728144,0.573879750571,0.818903931618,0.00625536309016,0.0,0.818903675665,-0.573787429912,-0.0120624275548,0.0,-0.00628884171848,0.0120451546501,-0.999907678098,0.0,0.264684194836,-0.260230335032,0.304913303592,1.0,-0.0822240000001,-0.108065828572,3.254
-0.648966524556,-0.518483736538,-0.130347181176,-2.63967209657,-0.0700290484586,2.11084164663,-0.899607944937,-0.35944778679,0.0635009518693,0.0224264290365,0.0435260204897,0.0180078265781,0.00846687964484,-0.364272232224,0.573926644129,0.818870779156,0.0062929407571,0.0,0.818870810012,-0.573833757013,-0.0120897776305,0.0,-0.00628898487329,0.0120919838071,-0.999907111984,0.0,0.263304370234,-0.262034153263,0.304900685148,1.0,-0.0779400000001,-0.102435428572,3.271
-0.655223719296,-0.51737961592,-0.129977800904,-2.63886381283,-0.0697694173439,2.11105656923,-0.905886700495,-0.343890325096,0.0583740802957,0.0175766745652,0.0474700489205,0.0153015634127,0.0109468541633,-0.33218439243,0.573801842978,0.818958166408,0.00630187036348,0.0,0.818958067938,-0.573708470778,-0.0121251976609,0.0,-0.00631471481222,0.0121186616633,-0.999906626849,0.0,0.261956796056,-0.26379186321,0.304888750789,1.0,-0.0734040000001,-0.0964738285715,3.289
-0.660296739964,-0.516482181808,-0.129710081998,-2.6381831559,-0.069583793121,2.11124584026,-0.910851763055,-0.331172959723,0.0651645632577,0.0173951101162,0.0460861276798,0.0158196131863,0.0118828612331,-0.333163948332,0.573816292624,0.818948077138,0.00629731470042,0.0,0.818947963193,-0.573723022247,-0.012119167713,0.0,-0.00631217620205,0.0121115821198,-0.999906728655,0.0,0.260854565053,-0.265229959561,0.304889936563,1.0,-0.0696240000001,-0.0915058285715,3.304
-0.665954919808,-0.515362030989,-0.129390949745,-2.63734239611,-0.0693247923419,2.11147661904,-0.916430152693,-0.313459501172,0.0623974805675,0.0148847684969,0.0434374590889,0.0167524430889,0.00867988881092,-0.296744261955,0.573810945616,0.818951669386,0.00631734144274,0.0,0.818951750135,-0.573717457672,-0.0121266901397,0.0,-0.00630692549013,0.0121322589506,-0.999906511122,0.0,0.259644193756,-0.266841114219,0.304886223354,1.0,-0.0650880000001,-0.0855442285715,3.322
-0.671043707228,-0.5143613363,-0.129165600542,-2.63661639517,-0.0690965630698,2.11167340365,-0.921357958941,-0.29518372157,0.0608408424518,0.011046123226,0.0397844043214,0.0182368648887,0.0183963704237,-0.283601394767,0.573919326637,0.818875331823,0.00636744418147,0.0,0.818875783848,-0.573825039289,-0.0121664215376,0.0,-0.00630910503594,0.0121969251303,-0.99990571066,0.0,0.258524852018,-0.268289840737,0.304868906228,1.0,-0.0608040000001,-0.0799138285715,3.339
-0.675472743424,-0.513501255017,-0.128873716887,-2.63595936857,-0.0688823991056,2.11185838491,-0.925712014623,-0.260140960946,0.0517687747532,0.0206892701053,0.0432741197564,0.0083181685007,0.0117742389307,-0.257765521847,0.573899812187,0.818888975928,0.00637162276112,0.0,0.818889564594,-0.573805668624,-0.0121524711367,0.0,-0.00629557259475,0.012192191029,-0.99990585369,0.0,0.257575258184,-0.269533839346,0.304872510674,1.0,-0.0567720000001,-0.0746146285715,3.355
-0.679821613732,-0.512603162504,-0.128498675578,-2.63530011545,-0.0686720225387,2.11205087552,-0.930034724318,-0.25014023891,0.0526132495068,0.0180820343822,0.0378956014934,0.0194477859703,0.00841648439907,-0.249212646278,0.573782726369,0.818971288886,0.00633701833655,0.0,0.818971323689,-0.573688572047,-0.0121712850028,0.0,-0.00633257988744,0.01217374377,-0.999905844765,0.0,0.256610306802,-0.270806774736,0.304867092298,1.0,-0.0522360000001,-0.0686530285715,3.373
-0.684165225762,-0.511693608886,-0.128173660255,-2.63458774001,-0.06844577928,2.11224374173,-0.934242909021,-0.234333720304,0.0451984559449,0.0151209208083,0.0366908440403,0.00743920768553,0.0133589603842,-0.228557285046,0.57379352899,0.818963831884,0.00632258308398,0.0,0.81896385957,-0.573699787379,-0.0121448581632,0.0,-0.00631905666947,0.0121468419338,-0.999906257483,0.0,0.255744261434,-0.271960077022,0.304876848927,1.0,-0.0479520000001,-0.0630226285715,3.39
-0.687508189462,-0.510974141164,-0.127940714848,-2.63404959679,-0.068259280212,2.11240172761,-0.937441348748,-0.217501808944,0.0486215822884,0.0154777183035,0.0347556896118,0.0111281773432,0.00853146378024,-0.214836890542,0.573854238197,0.818921197723,0.00633499208812,0.0,0.81892139319,-0.573760437539,-0.0121432694231,0.0,-0.00630973438989,0.0121565612221,-0.999906198236,0.0,0.255030978684,-0.272899624723,0.304874030117,1.0,-0.0441720000001,-0.0580546285715,3.405
-0.691161117836,-0.510215652312,-0.127662619378,-2.63349226968,-0.0680329686456,2.11257533721,-0.94099935817,-0.199532729699,0.0349925463086,0.0190194338642,0.0258953961373,0.0210399410218,0.00667896943386,-0.18711603685,0.573860105608,0.81891688792,0.00636056382488,0.0,0.818917411436,-0.573766175183,-0.0121406903988,0.0,-0.00629286117782,0.0121760687642,-0.999906067212,0.0,0.254249343465,-0.273909479351,0.304867725446,1.0,-0.0396360000001,-0.0520930285715,3.423
-0.69432242065,-0.509566946499,-0.127391009937,-2.63298445176,-0.0678311637174,2.11272902068,-0.943959079101,-0.175529499053,0.0292850801337,0.0152754775778,0.0338345147217,0.00840323610322,0.00767008270426,-0.161275953057,0.573944489992,0.81885771119,0.00636538549739,0.0,0.818858535796,-0.57385098067,-0.0121036043592,0.0,-0.00625846754757,0.0121593813849,-0.999906486142,0.0,0.253583759224,-0.274782028825,0.304877575649,1.0,-0.0353520000001,-0.0464626285715,3.44
-0.696986209421,-0.508998185588,-0.127124748833,-2.63253848121,-0.0676311261941,2.11285459241,-0.946536313165,-0.162227667485,0.0344749019789,0.0132984553058,0.0310080413323,0.011496284613,0.00610788207906,-0.16162705223,0.573934378025,0.818864711927,0.00637653375324,0.0,0.818865832969,-0.573841114547,-0.0120776551014,0.0,-0.00623096829492,0.0121535410853,-0.999906728887,0.0,0.253035052164,-0.27550913294,0.304886323086,1.0,-0.0313200000001,-0.0411634285715,3.456
-0.699481999141,-0.508449145332,-0.126810559603,-2.63211949934,-0.0674294584646,2.11298127322,-0.948952848663,-0.135661527959,0.0243221842284,0.0217532566118,0.0173780321227,0.0144851790272,0.00505922505843,-0.136550509016,0.573883340347,0.818900552358,0.00636741080616,0.0,0.818901665257,-0.57379034515,-0.0120602385263,0.0,-0.00622269695277,0.012135686933,-0.999906997248,0.0,0.252536807164,-0.276175790291,0.304891249451,1.0,-0.0270360000001,-0.0355330285715,3.473
-0.701639134528,-0.507964595804,-0.126490991648,-2.63176601234,-0.0672283011608,2.11306347152,-0.950927433071,-0.119235876458,0.0227721179224,0.0211538839165,0.0215855691928,0.0159345014182,0.00432899864668,-0.110318161652,0.57390943319,0.818882286992,0.00636470322629,0.0,0.818883186045,-0.573816096702,-0.012089734491,0.0,-0.00624802056092,0.012150595062,-0.999906658283,0.0,0.25211236828,-0.276732058378,0.304886597766,1.0,-0.0227520000001,-0.0299026285715,3.49
-0.703403344742,-0.507579898757,-0.126200126293,-2.63146658824,-0.0670457278546,2.11315530046,-0.952618372439,-0.109708942372,0.0246617860222,0.0143161912996,0.0187819583338,0.0138816377029,0.00872658808677,-0.102813725622,0.573855493618,0.818920145073,0.00635730593121,0.0,0.818921094294,-0.573762487481,-0.0120663242802,0.0,-0.00623389238705,0.0121306919594,-0.999906988124,0.0,0.251779165764,-0.277185252173,0.304894516561,1.0,-0.01988,-0.026128,3.506
-0.705091427762,-0.507194926967,-0.125976062783,-2.63120191761,-0.0668777394993,2.11322326306,-0.954199142001,-0.0975550060124,0.0181862445942,0.00894220504909,0.0195203356516,0.00632466073385,0.00239305375158,-0.0982550764624,0.573869232273,0.818910342342,0.00637983989963,0.0,0.81891135398,-0.573775670974,-0.0121004389248,0.0,-0.00624869797009,0.012168827214,-0.999906432332,0.0,0.25143825508,-0.27762136155,0.304882875106,1.0,-0.01954,-0.0256811428572,3.523
-0.70644428176,-0.506878369873,-0.1258367875,-2.63094918229,-0.0667817638255,2.11326268481,-0.955555897089,-0.0907090964397,0.0217792105581,0.00670445486737,0.0181493557561,0.00075315023442,0.00662244980282,-0.0877607564214,0.57382070419,0.818944335942,0.00638129868083,0.0,0.818945275493,-0.573726969636,-0.0121139159992,0.0,-0.00625962025621,0.0121773846677,-0.999906259835,0.0,0.251157753913,-0.277991263977,0.304886708119,1.0,-0.01924,-0.0252868571429,3.538
-0.708014115594,-0.506496669844,-0.125710906816,-2.63065933479,-0.0667204123107,2.11336657838,-0.957033703201,-0.0852467134552,0.0166843414144,0.00431532921555,0.0167472871712,0.00369681272318,0.0135816276331,-0.0856296288272,0.573847375031,0.81892589475,0.00634948657257,0.0,0.818926562593,-0.573754057351,-0.0120960180939,0.0,-0.00626281933606,0.0121412652016,-0.999906679032,0.0,0.250826149459,-0.278439893099,0.304888306293,1.0,-0.01888,-0.0248137142857,3.556
-0.709584832998,-0.506117890415,-0.125656151656,-2.6303614746,-0.0666483624366,2.11340774909,-0.958696415202,-0.0808109278881,0.0199844533456,0.00297293671637,0.0139114642474,0.00125418945764,6.38767945963e-05,-0.0926840611922,0.573779099313,0.818973558001,0.0063720787747,0.0,0.818974322498,-0.57368530975,-0.0121231747691,0.0,-0.00627311236618,0.0121748276004,-0.999906206418,0.0,0.250470253244,-0.278895019433,0.30488756871,1.0,-0.0185,-0.0243142857143,3.575
-0.710775547186,-0.505819922411,-0.125630869717,-2.63011736361,-0.0666074268708,2.11346371563,-0.959884796721,-0.0764441060356,0.0174525236379,0.00130123124626,0.015746908809,0.00290930568995,0.00314119969364,-0.0772354714177,0.57379293938,0.818963817133,0.00637776180578,0.0,0.818964710446,-0.573699226951,-0.0121139151777,0.0,-0.00626206176083,0.0121742752403,-0.999906282411,0.0,0.250202201717,-0.279252901167,0.304892988567,1.0,-0.0182,-0.02392,3.59
-0.71213111073,-0.505492483023,-0.125610061581,-2.6298662712,-0.0665671382057,2.11356520679,-0.961269015504,-0.0751930108637,0.0158114917458,0.0023040027387,0.0135783210134,0.00231052263825,0.00511140018607,-0.0810144266639,0.573784719079,0.818969551503,0.00638096891364,0.0,0.818970688744,-0.573691387446,-0.0120809705786,0.0,-0.00623336015864,0.0121579368936,-0.99990666054,0.0,0.249894104768,-0.279660912218,0.304894365192,1.0,-0.01786,-0.0234731428572,3.607
