nelsonifechukwu/NELSON_IML_WORK/CNN-GradCAM/train2dof/data_sample_2022-02-22-15-33-03/robot_state.csv
position_joint1,position_joint2,position_joint3,position_joint4,position_joint5,position_joint6,position_joint7,velocity_joint1,velocity_joint2,velocity_joint3,velocity_joint4,velocity_joint5,velocity_joint6,velocity_joint7,ee_T_00,ee_T_10,ee_T_20,ee_T_30,ee_T_01,ee_T_11,ee_T_21,ee_T_31,ee_T_02,ee_T_12,ee_T_22,ee_T_32,ee_T_03,ee_T_13,ee_T_23,ee_T_33,v_x,v_y,time
0.465057791158,0.547785974754,-0.123984261921,-1.35583545156,0.079586489543,1.8941037958,0.15915561545,-0.00032773334162,-2.30806375214e-05,-0.00203367624894,-0.000432037753923,6.37738623424e-05,0.000310731160113,-3.4898219629e-05,0.57383594807,0.818956100019,0.00198943324176,0.0,0.818912652506,-0.573776410146,-0.0119768788345,0.0,-0.00866721498773,0.00850209936565,-0.999926294129,0.0,0.661675350778,0.260896307896,0.303210122463,1.0,0.0,0.0,0.0
0.465059551637,0.547786413788,-0.123988897575,-1.3558355307,0.0795859975002,1.89410323762,0.15914860047,0.000762986464468,-7.96379197307e-05,-0.00131274739618,0.000506080053419,-0.000303353190802,0.000252661784061,-0.00214518398852,0.573831871201,0.818958962065,0.00198719603573,0.0,0.818915512026,-0.57377236935,-0.0119749419389,0.0,-0.00866695470905,0.00849911263369,-0.999926321776,0.0,0.661675842565,0.260894656943,0.30320987783,1.0,-0.00018,-0.000236571428571,0.01
0.465059918417,0.54778135968,-0.123981184429,-1.35583635009,0.0795873274065,1.8941027239,0.159151767116,-0.00206425598637,-0.000638623960787,0.00122721712062,-0.00188491985174,0.000485504349401,0.0038574322991,0.00140644069032,0.57382915969,0.818960847488,0.00199315633495,0.0,0.818917422548,-0.573769581426,-0.0119778703749,0.0,-0.00866596124389,0.00850564550066,-0.999926274837,0.0,0.661673744733,0.26089951408,0.303212770769,1.0,-0.00056,-0.000736,0.029
0.465056712769,0.547770821387,-0.123984952636,-1.35584852365,0.0795828965435,1.89410264036,0.159161611808,0.000788290433385,-0.00289908063335,8.14876943654e-06,0.000976942297269,0.000348326753523,-0.000262281271579,0.00112681643196,0.573841950901,0.818951895276,0.0019888469026,0.0,0.818908462375,-0.573782436536,-0.0119746680814,0.0,-0.00866567854004,0.00850041411144,-0.999926321773,0.0,0.661673166361,0.260893181484,0.303214551453,1.0,-0.0008,-0.00105142857143,0.041
0.465053484576,0.547687186937,-0.1239849517,-1.35595363694,0.0795838575663,1.89412221974,0.159152976054,-0.00057571576564,-0.00713390032436,-0.000953457630521,-0.0120923558051,0.000548837499723,0.00131517567178,0.000440894859361,0.573843504668,0.818950797869,0.00199241571934,0.0,0.818907318924,-0.573783884223,-0.0119834936529,0.0,-0.00867084259849,0.00850841762428,-0.999926208937,0.0,0.66165597307,0.260881152744,0.303225472143,1.0,-0.0012,-0.00157714285714,0.061
0.465053189092,0.547578177359,-0.123982167644,-1.3561012111,0.0795838575115,1.89414755092,0.159151643808,-0.000179912716682,-0.00909239439804,-0.00123686635856,-0.0136488839349,-0.000154303131135,0.00107599229298,-0.000474331243247,0.573848750783,0.818947132373,0.00198809062489,0.0,0.818903461572,-0.573789015174,-0.0120013996123,0.0,-0.00868793450489,0.00851520641392,-0.999926002789,0.0,0.661629508319,0.260868200567,0.303234562836,1.0,-0.00148,-0.00194514285714,0.075
0.465035333336,0.547399070738,-0.123987170725,-1.35634557287,0.079581343061,1.89423413984,0.1591420541,0.000488990083291,-0.0108168556005,-0.000807119648297,-0.0112309839439,0.000275412871244,0.011875815406,-0.000246338034831,0.57387197795,0.818930797382,0.00201219406026,0.0,0.818887352863,-0.573812050656,-0.0119991976575,0.0,-0.00867205826955,0.00853392786552,-0.999925981001,0.0,0.661601430355,0.260832313705,0.303252810685,1.0,-0.00188,-0.00247085714286,0.095
0.465018425195,0.547246723641,-0.123982766681,-1.35652903228,0.0795763691932,1.89433501485,0.15913796583,-0.000749948637724,-0.0133389227578,6.12664519395e-05,-0.0117953429676,0.00035108630639,0.0126617089251,0.000390164841259,0.573888527672,0.818919042144,0.00207536060457,0.0,0.818876396419,-0.573828308364,-0.0119694113955,0.0,-0.00861124404324,0.00856873667076,-0.999926208891,0.0,0.661587189107,0.260809956672,0.303282009392,1.0,-0.00216,-0.00283885714286,0.109
0.464995639295,0.547013983427,-0.123979297317,-1.35681969295,0.0795730811028,1.89448768956,0.15911477286,-0.000100865628228,-0.00767293781679,0.000649811756751,-0.0122437594106,-0.000145779630357,0.00496116873606,-0.00241523764196,0.573901406948,0.818909787124,0.00216392165606,0.0,0.818868220798,-0.573840746138,-0.0119323903874,0.0,-0.00852996908265,0.00862014827259,-0.999926463632,0.0,0.66156246188,0.26077529465,0.303321653784,1.0,-0.00256,-0.00336457142857,0.129
0.464970078339,0.546827328069,-0.123979901786,-1.35708323088,0.0795705793071,1.8945963418,0.159107853487,-0.00125251990065,-0.0189475943003,0.000451546305394,-0.0201188456513,0.000390035710402,0.0037867466343,-0.00127325723954,0.573931233893,0.818888792972,0.00219781890683,0.0,0.818847571466,-0.573870333504,-0.0119265221122,0.0,-0.00850539598303,0.00864484866643,-0.999926459711,0.0,0.661535552234,0.260736179755,0.303337869774,1.0,-0.00282,-0.00370628571429,0.142
0.464932751465,0.5465085152,-0.123985359717,-1.35757139094,0.0795570800456,1.89476453807,0.159025079403,0.000532641559926,-0.0174450537263,-0.000633809877898,-0.0253010518737,2.26907927012e-05,0.0064897991507,-0.00706228005598,0.573921489272,0.818895603285,0.00220498840648,0.0,0.818854338052,-0.573860421582,-0.011938864957,0.0,-0.00851149231756,0.00865770216592,-0.99992629663,0.0,0.661477242383,0.260663798979,0.303346066397,1.0,-0.00324,-0.00425828571429,0.163
0.464896155698,0.546284091774,-0.12398286151,-1.35792845267,0.0795460592785,1.89488982274,0.158916482989,-0.00624640558288,-0.016947487866,-0.00322575399596,-0.0276298898086,-0.000215937715895,0.00324791196303,-0.00548293450385,0.573877806654,0.818926214007,0.0022058882007,0.0,0.818884835321,-0.573816613514,-0.0119527167615,0.0,-0.00852278187741,0.00866593412068,-0.999926129159,0.0,0.661435780313,0.260608318868,0.303345816959,1.0,-0.0035,-0.0046,0.176
0.464838069333,0.54591675237,-0.123977807699,-1.35854695583,0.0795270812401,1.89510495453,0.158893000949,-0.000312337464181,-0.0205662573751,0.000620049327498,-0.0367136642902,-0.000651788465243,0.00801368782828,-0.00356974285644,0.573932137516,0.818888193011,0.00218535452242,0.0,0.818846332409,-0.573870804543,-0.0119887653106,0.0,-0.00856351207781,0.00867037416818,-0.999925742679,0.0,0.661361406584,0.260515754195,0.303330015228,1.0,-0.0039,-0.00512571428571,0.196
0.464783825885,0.545632605443,-0.123985372688,-1.35903158952,0.0794978173681,1.89527037933,0.158832569717,-0.000338410040654,-0.0232945271214,0.00151198762872,-0.0362195331212,0.000354540544974,0.00591290531798,-0.00221142872449,0.573951642866,0.818874607183,0.00215319870404,0.0,0.818832337148,-0.573890451117,-0.0120041933976,0.0,-0.00859439444616,0.00865310184806,-0.999925627341,0.0,0.66130808257,0.260428187107,0.303315085158,1.0,-0.00418,-0.00549371428571,0.21
0.464704820736,0.545175890324,-0.123983578587,-1.35982345326,0.0794164031201,1.8955323247,0.158717229572,-0.00105483453143,-0.0258414342115,-0.000664319127111,-0.0409846208637,-0.002626495726,0.0129378336687,-0.00746590635378,0.573943117319,0.818880791187,0.00207239178879,0.0,0.818837699993,-0.57388249922,-0.0120185298853,0.0,-0.00865260047161,0.0085950705155,-0.999925625868,0.0,0.661215118011,0.26029356765,0.303284043874,1.0,-0.00458,-0.00601942857143,0.23
0.464647144717,0.544845481262,-0.123991362669,-1.36036262413,0.079400709462,1.89571721569,0.158642344252,-0.00464395805424,-0.0214066570651,-0.000578069653615,-0.0436516367837,-0.00571660520284,0.0115789984767,-0.00215172265042,0.573960334062,0.818868756571,0.00205945043643,0.0,0.818825354799,-0.573899628201,-0.0120416771889,0.0,-0.00867880248074,0.0085979408333,-0.999925374116,0.0,0.661154427063,0.260201267237,0.303277577626,1.0,-0.00484,-0.00636114285714,0.243
0.46456678995,0.544328227503,-0.123991750021,-1.36123402009,0.0793681638541,1.89602342412,0.158565592979,-0.00285757814734,-0.0285477663953,-0.00101975047796,-0.0447857767285,0.000199876765181,0.0124727710277,0.000129362904635,0.574003486484,0.818838586297,0.00202829874471,0.0,0.818794561417,-0.573942695403,-0.0120828593241,0.0,-0.00872995227742,0.00859652886968,-0.999924940995,0.0,0.661051518112,0.260066780468,0.303255454933,1.0,-0.00524,-0.00688685714286,0.263
0.464517751455,0.543905488624,-0.123995023315,-1.36190913231,0.0793364260555,1.89627102435,0.158464386905,0.000155344062515,-0.0304793234307,-0.000575306110501,-0.0543027391583,-0.000790841438037,0.0181915582064,-0.00670267785032,0.573992261738,0.818846455195,0.00202809774617,0.0,0.81880234962,-0.57393139609,-0.0120918046475,0.0,-0.00873751062579,0.00860137910113,-0.999924833268,0.0,0.660971962266,0.259969546664,0.303254823017,1.0,-0.00552,-0.00725485714286,0.277
0.464420557987,0.543286956104,-0.124000606988,-1.36290829631,0.0792801453551,1.89661117451,0.158353548626,-0.00258200236012,-0.0347939603579,-0.00107521217731,-0.0502572845594,-0.00496131677655,0.0112807172071,-0.0024050139058,0.574025502541,0.818823235777,0.00199446385953,0.0,0.818778627533,-0.573964717575,-0.0121164753515,0.0,-0.00877666864574,0.00858835558669,-0.999924602275,0.0,0.660855721766,0.259805561673,0.30324650309,1.0,-0.00592,-0.00778057142857,0.297
0.464367671264,0.542868490608,-0.12399978457,-1.36358563677,0.0792463175201,1.89686007561,0.158254195006,-0.00244380192818,-0.0335248002285,0.000788033702723,-0.0543742211559,-0.00636254609418,0.0181758991943,-0.0088071019978,0.574015583843,0.818830200969,0.00198956969734,0.0,0.818785446576,-0.573954741306,-0.0121282442907,0.0,-0.00878921896867,0.00859099734394,-0.999924469345,0.0,0.660775778395,0.259707594508,0.303241666124,1.0,-0.00618,-0.00812228571429,0.31
0.464276176163,0.542136101305,-0.124001653842,-1.36472654998,0.0791854615073,1.89727210298,0.158108664858,-0.00585012065495,-0.0349843209471,-0.00511778932289,-0.0549276337722,6.65772460288e-05,0.0163205735839,0.00100993726467,0.574019794003,0.818827232657,0.0019965101062,0.0,0.818782480191,-0.573958833467,-0.0121348473022,0.0,-0.00879059806987,0.00860051563172,-0.999924375399,0.0,0.660641821166,0.259538355407,0.303252362926,1.0,-0.0066,-0.00867428571429,0.331
0.464221658272,0.541684825049,-0.124007384355,-1.36540453853,0.0791432076878,1.89751978061,0.158035554941,-0.000370626713392,-0.0367074829487,-0.000868688501991,-0.0570950887536,-0.0124662168985,0.0217000972964,-0.0128121122103,0.574034923236,0.818816587547,0.00201240255808,0.0,0.818772079106,-0.573973926342,-0.0121227578455,0.0,-0.00877141749007,0.00860675110237,-0.999924490184,0.0,0.660564537852,0.25943443559,0.303270395729,1.0,-0.00684,-0.00898971428571,0.343
0.46411582717,0.540855571973,-0.123997192797,-1.36666421465,0.0790716555758,1.89799364803,0.157855160166,-0.00038284095208,-0.0425232292807,0.0022016236495,-0.063762575863,-0.00548667178335,0.0213192211123,-0.00322402471852,0.57401754019,0.81882866941,0.00205441180714,0.0,0.818784621652,-0.573956274754,-0.0121113549066,0.0,-0.00873815031177,0.00863441718539,-0.999924542938,0.0,0.660419238982,0.259252379564,0.3032977943,1.0,-0.00726,-0.00954171428571,0.364
0.46404175567,0.540312984738,-0.124002745578,-1.36749072821,0.0790172749283,1.89829490679,0.157745308814,-0.00563920823863,-0.0396153500305,0.00073708109009,-0.06592168879,-0.0135053419405,0.0250838140989,-0.00813435439949,0.574023361285,0.818824560435,0.00206563057265,0.0,0.818780717392,-0.573962103834,-0.0120990533389,0.0,-0.00872157628006,0.0086366040295,-0.999924668752,0.0,0.660326201671,0.259120902517,0.303314168416,1.0,-0.00752,-0.00988342857143,0.377
0.463916368037,0.539392000848,-0.124008333415,-1.36891935221,0.0789376496795,1.89883812377,0.157569268801,-0.00327627368617,-0.0397653124998,0.00070200708146,-0.0749920501289,-0.00298637390251,0.0297734046623,-0.0143472155775,0.574043706683,0.818810217143,0.00209714584167,0.0,0.818766765963,-0.57398229078,-0.0120855171818,0.0,-0.00869218772517,0.00865485503154,-0.999924766848,0.0,0.660166742072,0.258901353407,0.303332245923,1.0,-0.00794,-0.0104354285714,0.398
0.463830108133,0.538811834491,-0.124011956719,-1.3698097144,0.0788849209448,1.89918030367,0.157470284939,-0.0056678935162,-0.0470008672927,-0.000713430851219,-0.0685996671276,-0.000351935835845,0.0293057532259,-0.0112255212372,0.574071023568,0.818790998006,0.00212329582418,0.0,0.818747913355,-0.574009517008,-0.0120696172937,0.0,-0.0086638687853,0.00866742845423,-0.999924903711,0.0,0.660070373462,0.258758921095,0.303348094842,1.0,-0.0082,-0.0107771428571,0.411
0.463700149463,0.53789647846,-0.124022229096,-1.37124774336,0.0787979070718,1.89973459926,0.157287231341,-0.00637843664529,-0.0479287268866,-0.000110569433156,-0.0717338193739,-0.000205189187523,0.0312928207018,-0.00535249903282,0.574091039813,0.818776904685,0.00214598767702,0.0,0.81873418915,-0.574029507216,-0.0120498657268,0.0,-0.00863445775301,0.00867488044372,-0.999925093489,0.0,0.659912874855,0.258532031831,0.303358517906,1.0,-0.0086,-0.0113028571429,0.431
0.463611774028,0.537224283961,-0.124019404815,-1.37229008866,0.0787374378642,1.90011573499,0.157164016567,-0.00968679188113,-0.0542054825545,-0.00363797884415,-0.0773421460102,-0.00547757448726,0.0256877718049,-0.00530577087761,0.574101765855,0.818769354393,0.00215723186595,0.0,0.818726734227,-0.574040132594,-0.0120502172471,0.0,-0.00862817704847,0.00868440160271,-0.999925065057,0.0,0.659790593251,0.258376527018,0.303369974596,1.0,-0.00888,-0.0116708571429,0.445
0.463472700307,0.53623468179,-0.124031823262,-1.37384645829,0.0786532739367,1.9007030581,0.156977880975,-0.0101902591999,-0.0483626677069,-0.000497056330125,-0.0765327790204,-0.00174963438925,0.0266506358418,-0.0152855027022,0.574135203312,0.818745858763,0.00217577052169,0.0,0.818703455971,-0.574073462692,-0.012043982517,0.0,-0.00861207450051,0.00869635262832,-0.999925100007,0.0,0.65961622689,0.25813203884,0.303379099986,1.0,-0.00928,-0.0121965714286,0.465
0.463389134505,0.535567614935,-0.124035729549,-1.37490508072,0.0785890928851,1.90108169735,0.156844632883,-0.00717396058998,-0.0559044001249,-0.000338691370175,-0.0841745798364,-0.00251573418023,0.029246762522,-0.00349212403931,0.574138186889,0.818743798892,0.00216356938331,0.0,0.818701224291,-0.574076484737,-0.0120516354982,0.0,-0.00862531358864,0.00869078838155,-0.999925034271,0.0,0.659489555761,0.257973057326,0.303378943806,1.0,-0.00954,-0.0125382857143,0.478
0.463232267584,0.534457412361,-0.124038629458,-1.37670739148,0.0784994791611,1.90173612232,0.156619642077,-0.00422505866045,-0.0571380061388,0.00151319945862,-0.0907027368423,-0.00303890476413,0.0362597804806,-0.00446195427563,0.57415936143,0.818729011722,0.00214008147249,0.0,0.818685921377,-0.574097546452,-0.0120878533147,0.0,-0.00866822756588,0.00869257607139,-0.999924647637,0.0,0.659276547391,0.257698460094,0.303361250904,1.0,-0.00996,-0.0130902857143,0.499
0.463130737107,0.53376819672,-0.124039579763,-1.37782826353,0.0784326805432,1.90214723973,0.156476768093,-0.0111697571809,-0.0498212119283,0.000895742328377,-0.0842260596819,-0.00746098527809,0.0356990354015,-0.0138632389951,0.57416969007,0.818721815709,0.00212188309125,0.0,0.818678458343,-0.574107922678,-0.0121004902457,0.0,-0.00868891273972,0.00868504192595,-0.999924533573,0.0,0.659146020052,0.257524057614,0.303349554282,1.0,-0.01022,-0.013432,0.512
0.462977602283,0.532652022652,-0.124042870351,-1.37961503514,0.0783301770681,1.90282416242,0.156258435943,-0.00295297026795,-0.0610453776709,0.000456183022055,-0.0924770191692,-0.00251250117062,0.034694259404,-0.0103632265255,0.574188999597,0.818708259312,0.00212738767891,0.0,0.818664938387,-0.57412717052,-0.0121019679456,0.0,-0.00868675728928,0.00869060189192,-0.999924503993,0.0,0.658940205885,0.257253111635,0.303344959921,1.0,-0.01062,-0.0139577142857,0.532
0.462873964421,0.531908966306,-0.124038818166,-1.38080869033,0.0782630118315,1.90325812,0.156107372247,-0.0063618617431,-0.061129907287,0.000925141590211,-0.0928696033869,-0.0051609728121,0.0313417555765,-0.00978716840096,0.574194433282,0.818704477109,0.0021163297266,0.0,0.818660914329,-0.574132554024,-0.0121187730508,0.0,-0.00870680759567,0.00869125578657,-0.999924323924,0.0,0.658797526807,0.25707382202,0.303338114561,1.0,-0.01088,-0.0142994285714,0.545
0.462713724029,0.530664752016,-0.124045279425,-1.38281655263,0.0781437041096,1.90396631575,0.15584743165,-0.00550368768311,-0.0576083363038,-0.000431763828489,-0.0926850719681,-0.00958038433598,0.038371837129,-0.0109699620195,0.574194531318,0.818704530484,0.00206854330186,0.0,0.818660263567,-0.574132781886,-0.0121518937358,0.0,-0.00876136061845,0.00867115207951,-0.999924021955,0.0,0.658552221405,0.256771274513,0.303320847746,1.0,-0.0113,-0.0148514285714,0.566
0.462603318083,0.529878706793,-0.124040988151,-1.38407031478,0.0780655699888,1.90441745897,0.155680167831,-0.0110357696972,-0.0601405315531,0.00111987096523,-0.0985643090333,-0.0089198802433,0.0373471432233,-0.00935943499811,0.574192044099,0.818706311413,0.00205403176206,0.0,0.818661812707,-0.574130317499,-0.0121639568464,0.0,-0.00877959536861,0.0086661714623,-0.999923905193,0.0,0.658401673394,0.256580542203,0.303316811404,1.0,-0.01156,-0.0151931428571,0.579
0.46243971825,0.528609628234,-0.124041076186,-1.38605336671,0.0779441763261,1.90517643803,0.15540510553,-0.00864084645271,-0.0635078722977,0.00104829420451,-0.0999760981339,-0.00695553981498,0.0381940957948,-0.0082877192006,0.574175971834,0.818717491819,0.00209018173474,0.0,0.818673491904,-0.574114113987,-0.0121426799154,0.0,-0.00874158991226,0.00868337860252,-0.99992408889,0.0,0.658171375134,0.256285913223,0.303332468442,1.0,-0.01196,-0.0157188571429,0.599
0.462336973502,0.527770039398,-0.124041868331,-1.38735536517,0.0778571674986,1.90568016682,0.155218803279,-0.00688917127559,-0.0620406980371,0.000379791636279,-0.103961452343,-0.00334852738735,0.0335927043193,-0.0181302284671,0.574155312562,0.818731903988,0.00211975236248,0.0,0.818688386694,-0.574093424254,-0.0121166258553,0.0,-0.00870349983338,0.00869240910276,-0.999924342695,0.0,0.658020421552,0.256094410956,0.303347503075,1.0,-0.01222,-0.0160605714286,0.612
0.46214889531,0.526329031437,-0.124046769366,-1.38956606659,0.0777167310849,1.90652049766,0.154922865627,-0.00532636978347,-0.0716123020841,0.000295983401884,-0.107619388592,-0.0118593051376,0.0369542809925,-0.0187343435024,0.574152171449,0.818733963414,0.00217441360544,0.0,0.818691256747,-0.574090145608,-0.0120779858488,0.0,-0.00864051415734,0.00871494299878,-0.999924692806,0.0,0.657764754936,0.25575862925,0.303382351233,1.0,-0.01264,-0.0166125714286,0.633
0.462028303541,0.525437756721,-0.124051842618,-1.39098096663,0.0776308406126,1.90701727085,0.154743172295,-0.0124996555422,-0.0676091794988,-0.000566328115949,-0.106474016802,-0.00639261479672,0.0333059560361,-0.0126380838161,0.574160345141,0.818728294195,0.00215064007005,0.0,0.818685237878,-0.574098380488,-0.0120945319534,0.0,-0.00866762341267,0.0087050655175,-0.999924544223,0.0,0.657591922874,0.255539953452,0.303379129874,1.0,-0.0129,-0.0169542857143,0.646
0.461845289956,0.524045866257,-0.124059160869,-1.39318702209,0.0774965987194,1.9078132293,0.154434013067,-0.00675081032941,-0.0697424370573,-0.000377101133132,-0.111269559338,-0.00862362104529,0.042019268715,-0.0204503711426,0.574144610455,0.818739374027,0.00213321456415,0.0,0.818696059107,-0.574082691773,-0.0121067217024,0.0,-0.0086877754556,0.00869763082895,-0.999924434033,0.0,0.657324696154,0.255204101758,0.30337717239,1.0,-0.0133,-0.01748,0.666
0.461723558866,0.523127350771,-0.124059810859,-1.39465861901,0.0774019226956,1.90837123215,0.15423903883,-0.00404907932711,-0.0721223762389,0.000534459106606,-0.112751069944,-0.00968070252997,0.050383831224,-0.019564674111,0.574140133276,0.818742514027,0.00213306982049,0.0,0.818699235473,-0.574078254096,-0.0121023514343,0.0,-0.00868432784079,0.00869495570154,-0.999924487247,0.0,0.657137110431,0.254961975761,0.30337029046,1.0,-0.01358,-0.017848,0.68
0.461526073096,0.521598020796,-0.124064882052,-1.39707858269,0.0772512938463,1.90931488421,0.153909919283,-0.0100060448239,-0.0730734046103,0.000543350330897,-0.11938733297,-0.0106233422916,0.0446455473226,-0.02358779231,0.574123708299,0.818753930579,0.00217155025998,0.0,0.818711254274,-0.574061766625,-0.0120713348993,0.0,-0.00863701520693,0.00870847985882,-0.999924779344,0.0,0.656868448809,0.254623426261,0.303375624411,1.0,-0.01398,-0.0183737142857,0.7
0.461395077887,0.520626018181,-0.124069266429,-1.39862404073,0.0771563052685,1.9098891827,0.153693883844,-0.0088415900877,-0.0714883379394,6.37860391055e-05,-0.119826950354,-0.00982461814308,0.0407243460164,-0.0156757192645,0.574114108377,0.818760666607,0.00216985724005,0.0,0.818717974417,-0.574052181408,-0.0120713830782,0.0,-0.00863812868473,0.00870702009429,-0.999924782438,0.0,0.656683541307,0.254387772956,0.303372715141,1.0,-0.01424,-0.0187154285714,0.713
0.461190268378,0.519064927384,-0.124069498791,-1.40104901525,0.0770010924457,1.91075709867,0.153380059068,-0.012002489742,-0.0786313476205,0.0011560467841,-0.118916423421,-0.00912758753895,0.0444108841955,-0.0160261130779,0.574112888145,0.818761522073,0.00216991687702,0.0,0.818718864017,-0.574050994703,-0.0120674804298,0.0,-0.00863491195147,0.00870481551745,-0.999924829416,0.0,0.656371520219,0.253997748158,0.303392410595,1.0,-0.01466,-0.0192674285714,0.734
0.461049422618,0.517948922052,-0.124076968826,-1.40278955328,0.0768921212987,1.91138528551,0.15313247708,-0.0106526794269,-0.0802240313337,-0.00019993749927,-0.122942937105,-0.00773945898079,0.0484610115851,-0.023333801386,0.574092733692,0.818775653365,0.00217013364302,0.0,0.818732967153,-0.57403081068,-0.0120707823974,0.0,-0.00863770547228,0.00870667605151,-0.99992478909,0.0,0.656171866226,0.25375600717,0.303399263292,1.0,-0.01492,-0.0196091428571,0.747
0.460826318001,0.516262377235,-0.124080489445,-1.40543779583,0.0767232366473,1.91236095928,0.152766534953,-0.00871633841919,-0.0802499989405,0.00457070217432,-0.128506464168,-0.0130303474132,0.0449511805362,-0.018671269135,0.57407280265,0.81878961077,0.00217656931855,0.0,0.818747042514,-0.574010889086,-0.0120634358868,0.0,-0.00862820760436,0.00870751778823,-0.999924863761,0.0,0.655850084114,0.253354363107,0.303406577946,1.0,-0.01534,-0.0201611428571,0.768
0.460679318248,0.515207737503,-0.124091873118,-1.40710785425,0.076627094814,1.91298689549,0.152536316339,-0.0132734532095,-0.0784531846072,-0.00219073963955,-0.126961533875,-0.0123845478433,0.0420719951167,-0.0196922523853,0.574075096133,0.818787980385,0.0021849662876,0.0,0.818745508136,-0.574013132946,-0.0120608048664,0.0,-0.00862120869926,0.00871290679699,-0.999924877186,0.0,0.655651538779,0.25309388869,0.30340583739,1.0,-0.0156,-0.0205028571429,0.781
0.460443238971,0.513482976124,-0.124087278575,-1.40989986996,0.0764468829168,1.91396677939,0.15215136427,-0.015110998398,-0.0812555306637,2.45746533363e-06,-0.139243363703,-0.00695972498566,0.0426054897036,-0.0253556840614,0.574047839038,0.818807296026,0.00210650706969,0.0,0.818763715435,-0.573986131451,-0.0121097518514,0.0,-0.00870661495453,0.00867647548561,-0.999924453961,0.0,0.65529744042,0.252670585609,0.303370618406,1.0,-0.01602,-0.0210548571429,0.802
0.460309475048,0.512494196138,-0.124093029242,-1.41150135389,0.0763548726155,1.91453045717,0.151929560868,-0.0106594894115,-0.0807492109999,-5.99555018937e-05,-0.132886464538,-0.00631181364197,0.041835558725,-0.0221940100514,0.574038950547,0.818813628862,0.00206672369597,0.0,0.818769418865,-0.573977308986,-0.0121422568809,0.0,-0.00875616149706,0.008662465336,-0.999924142788,0.0,0.655094901381,0.25242593057,0.303350174128,1.0,-0.01626,-0.0213702857143,0.814
0.460055495425,0.510615418276,-0.124094729293,-1.41449809408,0.0761673812489,1.91566938999,0.151498698652,-0.0118254344604,-0.0890120698815,-0.00108918157939,-0.134477725936,-0.00744456427176,0.0546505844188,-0.0253971947666,0.57400165759,0.81883974091,0.00207910822214,0.0,0.818795724714,-0.573939998132,-0.0121320499488,0.0,-0.00874108956074,0.00866634855816,-0.999924241008,0.0,0.654732013305,0.251974635824,0.303338262839,1.0,-0.0167,-0.0219485714286,0.836
0.4599134974,0.50957128187,-0.124102123572,-1.41616124109,0.0760623370125,1.91628966269,0.151276160569,-0.0108514498058,-0.0924339577081,-0.000497209381314,-0.146951448854,-0.00387847169702,0.0520006468834,-0.0189399654863,0.573999351717,0.818841366427,0.00207551389817,0.0,0.818797342734,-0.573937747411,-0.0121293251998,0.0,-0.00874094573929,0.00866181683289,-0.999924281532,0.0,0.654529393724,0.25171884884,0.303331492436,1.0,-0.01694,-0.022264,0.848
0.459662019414,0.507715751225,-0.124098141822,-1.41909414201,0.0758794569487,1.917327312,0.150860705938,-0.0120120209806,-0.0845056662118,-0.000350023648964,-0.142321593375,-0.00651949418174,0.0471244706214,-0.0176059211279,0.573964903965,0.818865596945,0.00204207184965,0.0,0.818821010313,-0.573903327041,-0.0121602295496,0.0,-0.00878581095461,0.00865180289469,-0.999923975026,0.0,0.654156341018,0.251273951499,0.303323471645,1.0,-0.01736,-0.022816,0.869
0.45949266357,0.506547650699,-0.124106354543,-1.42095880028,0.0757589580421,1.91801261914,0.150610143783,-0.00781580778819,-0.0896697229271,-0.00385409722968,-0.145206243259,-0.0116119532728,0.061832187909,-0.0151987430155,0.573968232103,0.818863303328,0.00202630237636,0.0,0.818818559381,-0.573906772765,-0.0121626431577,0.0,-0.0087968028616,0.00864031113639,-0.999923977752,0.0,0.653928236571,0.250979563882,0.303312434556,1.0,-0.01762,-0.0231577142857,0.882
0.459227452705,0.504621809241,-0.124114929336,-1.42386556327,0.0755809177095,1.91913809038,0.15020483166,-0.0178263561994,-0.0990942415387,-0.00124351263411,-0.143188571635,-0.0120420212109,0.0567216004536,-0.0213934611977,0.573961818076,0.81886749288,0.00214648470101,0.0,0.818824410818,-0.573899925413,-0.0120915987751,0.0,-0.00866971668301,0.00869787754816,-0.999924588626,0.0,0.653584495122,0.250529171382,0.303372583832,1.0,-0.01802,-0.0236834285714,0.902
0.459058767057,0.503367810534,-0.124113607972,-1.42575379838,0.0754648924069,1.91984368699,0.149945085152,-0.011048102326,-0.095092866123,0.00119854412652,-0.140995445956,-0.0141442692031,0.0562569353994,-0.0134493319793,0.573952049422,0.818874176252,0.00220801550429,0.0,0.818831886216,-0.573889884401,-0.0120619069203,0.0,-0.00861019210372,0.00873111779807,-0.99992481326,0.0,0.653352946364,0.250241333588,0.303410835754,1.0,-0.01828,-0.0240251428571,0.915
0.458783656077,0.50135278524,-0.124128060326,-1.42874702296,0.0752650563016,1.9209315815,0.14952427245,-0.0181562431129,-0.102296288663,-0.000980973989853,-0.149965748558,-0.00769336099897,0.060035439537,-0.020690290068,0.573941974679,0.818881005936,0.00229231770391,0.0,0.818839973349,-0.57387962053,-0.0120010869451,0.0,-0.00851211162037,0.00876513766318,-0.999925355373,0.0,0.652985717639,0.249766251096,0.303487485651,1.0,-0.01868,-0.0245508571429,0.935
0.458607858666,0.500048015689,-0.124128752307,-1.43072750822,0.0751392532204,1.92162077479,0.149258863801,-0.0154313295243,-0.101662909824,-0.000841761467666,-0.153600391327,-0.00931031281127,0.0510506594895,-0.0183549548197,0.573935820939,0.818885286236,0.00230398141203,0.0,0.818844352206,-0.573873364485,-0.0120014705646,0.0,-0.00850579785692,0.00877484497078,-0.999925323961,0.0,0.65273109416,0.249459875049,0.303514938967,1.0,-0.01894,-0.0248925714286,0.948
0.458294941241,0.497960527927,-0.124128992119,-1.43398303425,0.0749395152037,1.92284392362,0.148777457298,-0.0127834435682,-0.10073118642,-0.00147853271488,-0.157328049766,-0.0181690463171,0.0618767580835,-0.0139329664475,0.573909840395,0.818903363258,0.00235024335165,0.0,0.818863000398,-0.573847165267,-0.0119818360765,0.0,-0.00846344832362,0.00880119040308,-0.999925451766,0.0,0.652333006754,0.248947638524,0.303527209728,1.0,-0.01936,-0.0254445714286,0.969
0.458100006658,0.496689198377,-0.124126322032,-1.43600839142,0.0748158668882,1.92355944769,0.148474036961,-0.0175123804926,-0.100611478726,-0.000488358802601,-0.155548043157,-0.010457301056,0.0478731713615,-0.0264936349807,0.573888180756,0.818918629861,0.00231960264565,0.0,0.818877743637,-0.573825505235,-0.0120115535556,0.0,-0.00850560157937,0.00879292888981,-0.999925166772,0.0,0.652073984321,0.248627285116,0.303511298222,1.0,-0.01962,-0.0257862857143,0.982
0.457778456578,0.494703507659,-0.124126918352,-1.43923958938,0.0746125043483,1.92467670306,0.14801280444,-0.0181278317282,-0.0981988590023,-0.000134913525453,-0.163392459844,-0.00880627246231,0.0582028637069,-0.0280507284374,0.573881997099,0.818923268329,0.00220927511404,0.0,0.818880762743,-0.573819600591,-0.0120875674757,0.0,-0.00863123107778,0.0087461386438,-0.999924500604,0.0,0.651657301454,0.24810352563,0.303453645269,1.0,-0.0209405714286,-0.0275218938776,1.002
0.457513386672,0.492900694687,-0.124187445012,-1.44193898398,0.0744570722144,1.92565765375,0.147630948401,-0.0153826826131,-0.158700616273,-0.00106405239652,-0.227913536469,-0.00482373682795,0.0823675764963,-0.0351717544975,0.573923659404,0.818893888206,0.00227594751506,0.0,0.818852380348,-0.573861106385,-0.0120397956216,0.0,-0.00855340197021,0.00877375752391,-0.999924927429,0.0,0.651332951701,0.247640554442,0.303510675016,1.0,-0.0343885714286,-0.0451964081633,1.016
0.45703274576,0.488766962833,-0.124269891942,-1.44831708784,0.0741299088963,1.92813468004,0.146651061668,-0.0333672866328,-0.239311232362,-0.00269713869441,-0.385157834529,-0.0178577715982,0.141081751635,-0.0632928971345,0.57380672704,0.818975210045,0.00248842028674,0.0,0.818936338976,-0.573743186257,-0.0119488840805,0.0,-0.00835828658851,0.00889437910984,-0.999925511759,0.0,0.650538403121,0.246692554937,0.303567200485,1.0,-0.0536,-0.0704457142857,1.036
0.456462402254,0.48476466167,-0.124324990437,-1.45461839219,0.0737833273529,1.93056159348,0.1456962453,-0.0442326087435,-0.31349973896,-0.0107652609178,-0.483589247726,-0.022003496869,0.181372995057,-0.0777908126955,0.573751910479,0.819013254949,0.00260390861363,0.0,0.818975775559,-0.573687804867,-0.0119049777584,0.0,-0.00825666293375,0.0089632143791,-0.999925741395,0.0,0.649759254696,0.245703764117,0.303560061487,1.0,-0.067048,-0.0881202285714,1.05
0.455348313786,0.477427875507,-0.124542907881,-1.46634076914,0.0730676360065,1.93460050827,0.143925286699,-0.0648522471603,-0.409001150687,-0.0140764211354,-0.646289389063,-0.0389152934318,0.227019812398,-0.0913212643401,0.573750731761,0.819015049984,0.00227872882415,0.0,0.818973344639,-0.573687949733,-0.0120641619603,0.0,-0.00857361601249,0.0087882091197,-0.999924627404,0.0,0.648235526014,0.243720273065,0.303423982403,1.0,-0.0862594285714,-0.113369534694,1.07
0.454429339929,0.471618952709,-0.124661786047,-1.47549822528,0.0725098266532,1.93775505081,0.142616714119,-0.0801621069924,-0.467659735069,-0.00621631759142,-0.726712002142,-0.0407708916086,0.249768112876,-0.106005036624,0.573807544637,0.818975710858,0.00210562205934,0.0,0.81893150757,-0.573745263698,-0.0121780620429,0.0,-0.00876561510002,0.00871239186724,-0.999923626193,0.0,0.647030583198,0.242172634225,0.303360690901,1.0,-0.0987468571428,-0.129781583673,1.083
0.452759707281,0.461163763307,-0.124817986563,-1.49147640687,0.0715577583468,1.94363432712,0.14005120193,-0.08923275316,-0.545911193305,-0.00459546675614,-0.82897577236,-0.0607153801283,0.296230499171,-0.136142053753,0.573687010308,0.819059298877,0.00241371678531,0.0,0.819018983744,-0.573623290307,-0.0120404312706,0.0,-0.00847742624715,0.00888448994097,-0.999924596699,0.0,0.644980069964,0.239496126243,0.303481351657,1.0,-0.117958285714,-0.155030889796,1.103
0.451427448733,0.453498683098,-0.124942592685,-1.50347521672,0.0708045979606,1.94774770443,0.138213891328,-0.115359723818,-0.611102514893,-0.0116982039784,-0.925970007276,-0.0667688712952,0.33591034631,-0.157272603053,0.573698702441,0.819051605955,0.0022388616599,0.0,0.819008657347,-0.573635360803,-0.0121671249383,0.0,-0.00868138014801,0.00881408056999,-0.999923469883,0.0,0.643244356574,0.237237099436,0.30342111243,1.0,-0.131406285714,-0.172705404082,1.117
0.448942785071,0.439400732224,-0.125159175779,-1.52496987657,0.0693239473934,1.95535853719,0.134866181166,-0.126661454883,-0.698492967184,-0.00985291001602,-1.08497193915,-0.0719021130712,0.368778955423,-0.171660819798,0.573727195113,0.81903140979,0.00232427787331,0.0,0.818990338926,-0.573664267228,-0.0120366171784,0.0,-0.00852517650975,0.00880946534513,-0.999924854519,0.0,0.64050049567,0.233619080065,0.303493861896,1.0,-0.150617714286,-0.197954710204,1.137
0.447157627058,0.429688840104,-0.125277966025,-1.53955688273,0.0683677158785,1.96042499511,0.132447605752,-0.142912749833,-0.757084558194,-0.00852439601508,-1.1456614443,-0.0701642253817,0.391343781794,-0.182444589256,0.573670785574,0.819070458958,0.00248192312794,0.0,0.819031247145,-0.573607016217,-0.0119814042423,0.0,-0.00839012728776,0.00890632565312,-0.999925138762,0.0,0.638506414287,0.231013138039,0.303617546339,1.0,-0.163105142857,-0.214366759184,1.15
0.443860778056,0.412674772492,-0.125525711735,-1.56502530695,0.0665292538322,1.96934317781,0.128198737011,-0.165189898483,-0.860226326975,-0.0125465336806,-1.25535972101,-0.0914321041513,0.449188855026,-0.21396672236,0.573637044116,0.819093160385,0.00277184582844,0.0,0.819058902685,-0.57357348371,-0.0116927164861,0.0,-0.0079877206203,0.00897785317689,-0.999927794629,0.0,0.635006944123,0.226323673175,0.303824044394,1.0,-0.183277142857,-0.240878530612,1.171
0.441545513572,0.401441732666,-0.125657486659,-1.58202868314,0.0654022455961,1.97511100373,0.125342112981,-0.188648186301,-0.866021083541,-0.0155100310553,-1.31082910834,-0.0846121724249,0.442069562539,-0.225602343722,0.573670715816,0.819069555715,0.00277841996455,0.0,0.819034704203,-0.5736063651,-0.0117744694028,0.0,-0.00805054504387,0.00903046452889,-0.99992681704,0.0,0.63257808793,0.223158012249,0.303821308232,1.0,-0.195764571429,-0.257290579592,1.184
0.437552328542,0.382804974934,-0.12588023777,-1.60968349009,0.0634211386942,1.98451322486,0.120491223353,-0.207379022698,-0.947101930232,-0.00621943359297,-1.40958350014,-0.102681300123,0.461725624756,-0.263711698296,0.573654302405,0.819080065761,0.00305517716619,0.0,0.819048922015,-0.573589132879,-0.0116239791057,0.0,-0.00776870272033,0.00917066175322,-0.999927770502,0.0,0.628588149268,0.217873934718,0.303995098686,1.0,-0.214976,-0.282539885714,1.204
0.434676398731,0.369868660104,-0.126054363362,-1.62879245204,0.0619725594619,1.99092000958,0.117057493058,-0.227649628318,-1.01164311368,-0.0162889838041,-1.50882785815,-0.107307417733,0.499147074933,-0.270666354113,0.573624654307,0.819100323186,0.00318801332911,0.0,0.819071361785,-0.573559619322,-0.0114984472438,0.0,-0.00759001227335,0.0092071805109,-0.999928807236,0.0,0.62576563864,0.214144618852,0.304095479525,1.0,-0.227463428571,-0.298951934694,1.217
0.429157708738,0.347017681808,-0.126354586421,-1.66260823426,0.0593919560998,2.00192489833,0.110799041604,-0.266112743929,-1.05679901829,-0.0145615653,-1.51749021155,-0.109565038891,0.49277223112,-0.300340189832,0.573689818224,0.819054868785,0.00314026853926,0.0,0.819025242166,-0.57362486523,-0.0115288155033,0.0,-0.0076415434751,0.00918610013217,-0.99992860864,0.0,0.620626642455,0.207313136945,0.304112965687,1.0,-0.248596,-0.326726171429,1.239
0.425835810704,0.33376837722,-0.126543349624,-1.68199767604,0.0578861313768,2.0082541179,0.107123601262,-0.290575778599,-1.10033959977,-0.010722306303,-1.67851810094,-0.128935565119,0.524973986436,-0.314807154201,0.573747087012,0.819014323926,0.00325026931894,0.0,0.818986259913,-0.5736819602,-0.0114569418395,0.0,-0.00751892336348,0.00923549073154,-0.999929083237,0.0,0.617628209193,0.20332208395,0.304159833977,1.0,-0.260122857143,-0.341875755102,1.251
0.419880040251,0.310913559557,-0.126773362719,-1.71520802861,0.0551704685529,2.01875905853,0.100504827004,-0.308885834994,-1.14503031386,-0.0122966362552,-1.64909888206,-0.129569801661,0.517489353725,-0.342396377732,0.573603373433,0.819114866684,0.00327903398236,0.0,0.81908729544,-0.573538329583,-0.0114251411127,0.0,-0.00747799524104,0.00923949244931,-0.999929353188,0.0,0.612305491814,0.196404976398,0.3042060936,1.0,-0.279334285714,-0.367125061224,1.271
0.415280371102,0.294055168469,-0.126965409967,-1.73948707587,0.0531176634616,2.02621343334,0.0954979019488,-0.34906071415,-1.19760474869,-0.0160773240472,-1.73465864593,-0.143444981206,0.509632956112,-0.359162392709,0.573495441429,0.819190627393,0.00323133918726,0.0,0.819162489729,-0.573430613854,-0.0114408661192,0.0,-0.00751944625305,0.00920845371043,-0.999929328657,0.0,0.608296059096,0.191219641685,0.304229263455,1.0,-0.292782285714,-0.38479957551,1.285
0.407671814805,0.267758578694,-0.127293911612,-1.77675200097,0.0500163711725,2.03764064521,0.0875038625143,-0.376103719629,-1.28566062583,-0.0175113168582,-1.81741773072,-0.1560388903,0.565523688799,-0.392148401159,0.573471870124,0.819205752275,0.0035632173271,0.0,0.819181562121,-0.573405679641,-0.01132438688,0.0,-0.0072339730963,0.00941332049384,-0.999929527032,0.0,0.602039383338,0.183023095084,0.304381073514,1.0,-0.312954285714,-0.411311346939,1.306
0.402429168477,0.250913716569,-0.12760611374,-1.80034551122,0.0478996771269,2.04467040121,0.0822628816654,-0.414056155423,-1.32168886325,-0.0314936209127,-1.82449551305,-0.158783875206,0.55845090786,-0.407781574033,0.573620261882,0.819101236002,0.00370232898019,0.0,0.819079410503,-0.573554450836,-0.0111784666598,0.0,-0.00703294399861,0.00944487825462,-0.999930663583,0.0,0.598003887954,0.177557610923,0.304485839249,1.0,-0.325441714286,-0.427723395918,1.319
0.393807447309,0.224094964513,-0.127947390402,-1.83759697191,0.044543380684,2.05545745735,0.0735411090684,-0.44179486741,-1.37525532614,-0.012372081405,-1.89247938555,-0.168747996976,0.519387102485,-0.444635378874,0.573542944372,0.819154357049,0.00392137593899,0.0,0.819135169486,-0.573476384389,-0.0110976376214,0.0,-0.00684199344475,0.0095772930939,-0.999930728892,0.0,0.591384552909,0.168922744155,0.304599197238,1.0,-0.344653142857,-0.452972702041,1.339
0.38772029217,0.206169573069,-0.128189551173,-1.86222489992,0.0421842246366,2.06235235697,0.0674931886754,-0.48013344239,-1.39621094143,-0.0137406670781,-1.900739054,-0.19253787922,0.521913040317,-0.464386153899,0.57346718917,0.819207042752,0.00399386427319,0.0,0.819189037866,-0.573400835704,-0.0110249152034,0.0,-0.00674173286772,0.00959434168468,-0.999931246459,0.0,0.586886867623,0.163038071988,0.304662116966,1.0,-0.357140571429,-0.46938475102,1.352
0.377385329699,0.177719092237,-0.128739873583,-1.90085471225,0.0384094151711,2.07270446487,0.0574778202223,-0.545497952009,-1.42575832023,-0.0347313123062,-1.92818730998,-0.194461520665,0.523843193102,-0.517872053053,0.573552587124,0.819147111102,0.00402331689802,0.0,0.819129524071,-0.573486216687,-0.0110058605662,0.0,-0.00670823125582,0.00960824244555,-0.999931338298,0.0,0.579653397665,0.153384442274,0.304739739609,1.0,-0.376352,-0.494634057143,1.372
0.370125117442,0.158627950975,-0.129129398492,-1.92637339173,0.035839098209,2.07931672782,0.0505666336585,-0.564246605843,-1.49561860494,-0.0313850108049,-1.94091749473,-0.19967015895,0.50665614846,-0.538982915327,0.573635024624,0.819088969786,0.00410670187252,0.0,0.819072488953,-0.573568525003,-0.010961380738,0.0,-0.00662299863373,0.00965170425889,-0.9999314879,0.0,0.57473847573,0.146845060806,0.304819907468,1.0,-0.388839428571,-0.511046106122,1.385
0.357470572274,0.127006432864,-0.129723662768,-1.9679852676,0.0313987985937,2.08973904525,0.038631523791,-0.6271046304,-1.48866293802,-0.0230670065233,-1.99933210502,-0.210140726891,0.469388109649,-0.59282478774,0.573623594221,0.819095994486,0.00429777516282,0.0,0.819082686169,-0.573557832604,-0.0107569873896,0.0,-0.00634610485834,0.00969088157384,-0.999932904633,0.0,0.566486155674,0.135921614938,0.30497631118,1.0,-0.409011428571,-0.537557877551,1.406
0.34886429154,0.106703877883,-0.130266905679,-1.99397495283,0.0284900906863,2.09601667929,0.03073067153,-0.670630276979,-1.59325096608,-0.0394027702967,-2.0227539348,-0.232985381974,0.459730154771,-0.619589508482,0.573822523295,0.818954746034,0.00464570867937,0.0,0.818946996489,-0.573758077145,-0.0104034971705,0.0,-0.00585459322331,0.00977453835713,-0.999935088962,0.0,0.561230308534,0.128739026307,0.305222270896,1.0,-0.421498857143,-0.553969926531,1.419
0.334789240861,0.0750300547766,-0.130918567832,-2.03393904204,0.0240692363344,2.10511041084,0.017659737396,-0.713061062448,-1.57949582477,-0.0336044421578,-1.96497751606,-0.209938353508,0.452427001823,-0.678381539334,0.573800907942,0.818966292756,0.00524178174105,0.0,0.818966282181,-0.573736417997,-0.0100746322414,0.0,-0.00524348409094,0.010073869585,-0.999935509434,0.0,0.552830394317,0.117578667771,0.305565718088,1.0,-0.42998,-0.565116571429,1.439
0.324197442873,0.0529516805137,-0.131427108922,-2.06145683538,0.0207351869979,2.11103454489,0.00822264064009,-0.779876436632,-1.5945560146,-0.0439489502915,-1.94781674587,-0.244040243964,0.422508327887,-0.674299213964,0.573997076819,0.81882719412,0.00548897743602,0.0,0.818831227214,-0.573934407223,-0.00977059087625,0.0,-0.00485020588259,0.0101030312465,-0.999937200159,0.0,0.54689119859,0.109516473947,0.305745867394,1.0,-0.42998,-0.565116571429,1.453
0.308504894414,0.0217547346692,-0.131968549341,-2.09964020285,0.0160874231555,2.11849730967,-0.00566279234703,-0.791109734552,-1.53717446132,-0.0240320965488,-1.88346643657,-0.238464329427,0.35096601432,-0.704751575199,0.574163816435,0.818708195447,0.00579219343393,0.0,0.818716179862,-0.574101578562,-0.00958859879568,0.0,-0.00452504414425,0.0102477862617,-0.999937251457,0.0,0.538736291306,0.0987176661112,0.305984730846,1.0,-0.42998,-0.565116571429,1.472
0.297872805537,0.00180790328559,-0.132353021131,-2.12352045191,0.0129739478696,2.12304228768,-0.0150670917325,-0.81472637259,-1.51054865515,-0.0363970204541,-1.83725625559,-0.245489480172,0.321641893777,-0.726863817899,0.574209493224,0.818673637001,0.00613847470812,0.0,0.818686963632,-0.574150086372,-0.00916955828885,0.0,-0.00398254652653,0.0102909347706,-0.999939116139,0.0,0.532822515328,0.0907494838518,0.306211002169,1.0,-0.42998,-0.565116571429,1.486
0.277481723138,-0.0341682738177,-0.132927007208,-2.16628261322,0.00742250328574,2.13027232683,-0.0330795492713,-0.8695329325,-1.4788654545,-0.0305645637561,-1.75234516586,-0.244301441194,0.304496694735,-0.75043131864,0.574207790668,0.818672773235,0.00640705864771,0.0,0.818689628638,-0.57414938573,-0.00897339000147,0.0,-0.00366773190611,0.0103981831097,-0.999939210918,0.0,0.522581137697,0.0772222253391,0.306357403339,1.0,-0.42998,-0.565116571429,1.51
0.26588800847,-0.0533537170531,-0.133341170164,-2.18888866742,0.00442354159035,2.13359095217,-0.0432332609158,-0.895137106022,-1.4590041254,-0.0292262694475,-1.70789860845,-0.226727076333,0.252733347373,-0.79030324588,0.574337604065,0.818582303666,0.00633052791407,0.0,0.818597848183,-0.574278033396,-0.00911318882739,0.0,-0.00382448561642,0.0104164041129,-0.999938434022,0.0,0.516948898851,0.0697982158739,0.306313735713,1.0,-0.42998,-0.565116571429,1.523
0.246606122855,-0.0838215638886,-0.133876657424,-2.22419334887,-0.000495397847481,2.13835131797,-0.0602711163227,-0.945382411963,-1.44311734727,-0.0376193302443,-1.6815139694,-0.246332138,0.205986838471,-0.826578008131,0.574226520157,0.818661091015,0.00621840066523,0.0,0.818675109318,-0.574166443567,-0.00920366048183,0.0,-0.00396435806293,0.0103760355464,-0.999938308973,0.0,0.50787885838,0.0579717902095,0.306233954625,1.0,-0.42998,-0.565116571429,1.544
0.234186204643,-0.102439264292,-0.134210170964,-2.24540197052,-0.00351804691893,2.14076739889,-0.0712181189703,-0.957278581467,-1.44891429598,-0.0177301058064,-1.63773032372,-0.242262291963,0.182352190049,-0.847999534833,0.574172677146,0.81869986395,0.00608411769837,0.0,0.818711855587,-0.574111538209,-0.00935874555098,0.0,-0.00416912180739,0.0103548746416,-0.999937695556,0.0,0.502230804458,0.050642318016,0.30616398227,1.0,-0.42998,-0.565116571429,1.557
0.214448108512,-0.130486143782,-0.134771685468,-2.27684002174,-0.00819552743517,2.14398384529,-0.0885599360234,-1.00153075205,-1.42452578122,-0.0212677535931,-1.55705811891,-0.234299968762,0.133379814934,-0.878870589925,0.574138191773,0.818725340632,0.00590764385042,0.0,0.81873499925,-0.574076573901,-0.00947814334017,0.0,-0.00436864030312,0.0102787567601,-0.999937629126,0.0,0.493623951096,0.0393876675599,0.306046211102,1.0,-0.42998,-0.565116571429,1.577
0.204311729897,-0.14420108889,-0.134995004308,-2.29207917838,-0.010508472619,2.1452913599,-0.0975921163467,-1.01791623131,-1.37085368838,-0.018718710174,-1.49938704313,-0.220664912376,0.124300103002,-0.910833843047,0.573972953641,0.818842412473,0.00573575853926,0.0,0.818849642702,-0.573910607195,-0.00962416215937,0.0,-0.00458894784609,0.010220929396,-0.99993723511,0.0,0.48931679009,0.033820699849,0.30593567737,1.0,-0.42998,-0.565116571429,1.587
0.184382954698,-0.170167619669,-0.13555150016,-2.32023861078,-0.0148393147911,2.14727037961,-0.115259370546,-1.05808368057,-1.37893385635,-0.0241343679046,-1.44163368737,-0.227508272741,0.108070452376,-0.941597714871,0.573842219651,0.818934926375,0.00560715705083,0.0,0.818940002573,-0.573778671999,-0.00980074724177,0.0,-0.0048089996827,0.0102162044547,-0.999936249312,0.0,0.480687562653,0.0226115875767,0.305831408462,1.0,-0.42998,-0.565116571429,1.607
0.169199524553,-0.189023753009,-0.135970184207,-2.34048780274,-0.0181015550831,2.14821050876,-0.128777224695,-1.10366920931,-1.31966986132,-0.0402913016801,-1.42250114979,-0.232953784641,0.0633762959781,-0.980948637887,0.573709749006,0.819029885308,0.00528372687943,0.0,0.819030128845,-0.573644726466,-0.0101055797918,0.0,-0.00524589079706,0.010125396098,-0.999934976378,0.0,0.475010314764,0.0153012331698,0.305667814464,1.0,-0.42998,-0.565116571429,1.62
0.146631492487,-0.215673933997,-0.136647624659,-2.36803299623,-0.0225289516482,2.14911414443,-0.148858775006,-1.14273540661,-1.31024950758,-0.0242129820785,-1.33852346837,-0.227080422176,0.0329722929741,-1.0244560273,0.573689065436,0.819043701354,0.00538687042657,0.0,0.819044906337,-0.57362333635,-0.0101220699597,0.0,-0.00520048318399,0.0102192063908,-0.999934259237,0.0,0.466002655114,0.00345242390307,0.305695008448,1.0,-0.42998,-0.565116571429,1.641
0.126724093598,-0.23806261132,-0.137373249586,-2.3906217839,-0.0263952723689,2.14941120412,-0.166519696826,-1.17401072147,-1.30747366277,-0.0343437304027,-1.31980944464,-0.207014641956,0.0142818284865,-1.05971825425,0.573795746091,0.818968420227,0.00546949172967,0.0,0.818970944209,-0.573730518935,-0.0100315045818,0.0,-0.00507756889041,0.0102355865289,-0.999934723401,0.0,0.459094135667,-0.00563159648971,0.305738711975,1.0,-0.42998,-0.565116571429,1.657
0.106057113065,-0.259965432972,-0.138125042677,-2.4121493856,-0.0301208890104,2.14935235682,-0.184978588869,-1.22489886753,-1.28917286617,-0.0433890944157,-1.27394113066,-0.229601030127,-0.0164214291322,-1.1091448417,0.573921636279,0.81887832029,0.00574446441939,0.0,0.818884935581,-0.573857701935,-0.00977482014889,0.0,-0.00470797379719,0.0103142347312,-0.999935723707,0.0,0.451840765988,-0.0153192533121,0.305857414411,1.0,-0.42998,-0.565116571429,1.674
0.0898492836029,-0.27644831867,-0.138639447632,-2.42796662005,-0.0329712268262,2.14917886982,-0.199497252563,-1.25240502995,-1.27706070282,-0.0487538286798,-1.21518364377,-0.212909280347,-0.0138852173539,-1.11637253209,0.573948549072,0.818857226496,0.00605413372892,0.0,0.818869016511,-0.573887841575,-0.00932877221353,0.0,-0.0041646189849,0.0103119763465,-0.999938157634,0.0,0.446344997703,-0.0226774369473,0.306007746676,1.0,-0.42998,-0.565116571429,1.687
0.0642079946576,-0.300954342641,-0.139446117292,-2.45128009003,-0.0371958555461,2.14813122253,-0.222759620326,-1.3044547177,-1.23412677437,-0.0490971238207,-1.12333797413,-0.202621271201,-0.0555241471392,-1.17668638143,0.573865069941,0.818914486391,0.00622032003816,0.0,0.818928719215,-0.573805560262,-0.0091476094929,0.0,-0.00392193121441,0.0103436914315,-0.99993881138,0.0,0.437815327403,-0.0339507758907,0.306092051971,1.0,-0.42998,-0.565116571429,1.707
0.0456744786589,-0.317628797848,-0.140030344974,-2.46696620821,-0.0401199523734,2.14712718557,-0.239502985698,-1.3349323091,-1.18792074486,-0.0439786878313,-1.11702137512,-0.20698144668,-0.0739813272178,-1.22934028109,0.573919468343,0.818876088013,0.00625645583643,0.0,0.818890900635,-0.573860356367,-0.00909566651743,0.0,-0.00385796611758,0.0103437339955,-0.999939059775,0.0,0.431811749688,-0.0418508859768,0.306093119299,1.0,-0.42998,-0.565116571429,1.721
0.0170697600009,-0.341767086562,-0.140869679113,-2.48921461714,-0.0444122658255,2.14516216976,-0.265730528925,-1.3784339395,-1.13182871992,-0.0264056302105,-1.03103957564,-0.203165967903,-0.0976434370391,-1.25062593736,0.573749407194,0.818995258594,0.00625548132536,0.0,0.819010336491,-0.573691070989,-0.00902057041004,0.0,-0.00379916376022,0.0102990490791,-0.999939746156,0.0,0.422845311074,-0.0536533238571,0.306100229852,1.0,-0.42998,-0.565116571429,1.742
0.000150675214359,-0.355146273549,-0.141425567546,-2.50140460078,-0.0468356043013,2.14376324629,-0.281200115543,-1.40923945282,-1.11414056114,-0.0410179945071,-0.979013277328,-0.195053491699,-0.129418012439,-1.30821886685,0.573789968138,0.818967447067,0.00617575993602,0.0,0.818981329746,-0.573730934487,-0.00911829158258,0.0,-0.00392443501727,0.0102900144359,-0.999939355367,0.0,0.4176615275,-0.0604609968765,0.306059247702,1.0,-0.42998,-0.565116571429,1.754
-0.0302004536376,-0.37772730276,-0.142420849535,-2.52178579074,-0.0509969129161,2.14106343357,-0.309242623607,-1.45660622599,-1.07092794256,-0.0455172280664,-0.961436974503,-0.197311348312,-0.151620601128,-1.35927329498,0.573718916531,0.819018749141,0.00596994740443,0.0,0.819029399407,-0.573657935505,-0.00938950695975,0.0,-0.00426555666731,0.0102766980551,-0.999938095336,0.0,0.408548332042,-0.0723299535273,0.305917118061,1.0,-0.42998,-0.565116571429,1.775
-0.049567245116,-0.391212590327,-0.14306182286,-2.53348860865,-0.0533778547598,2.13928334043,-0.327092127988,-1.49567848122,-1.02247026773,-0.0476120268834,-0.880551516568,-0.173640435246,-0.139199040757,-1.37424270769,0.573862544444,0.818917269044,0.00608551124218,0.0,0.81892939251,-0.573801744819,-0.00932494646526,0.0,-0.0041445625201,0.0103350405116,-0.999938002848,0.0,0.402984505784,-0.0797051769614,0.30595177927,1.0,-0.42998,-0.565116571429,1.788
-0.0832033774685,-0.412978890887,-0.144123349213,-2.55226208093,-0.0574191018506,2.13588350558,-0.35845981184,-1.54153619103,-0.975088540705,-0.0570593924566,-0.781968716214,-0.177803936635,-0.14444491339,-1.45810899529,0.573842289951,0.818932200994,0.00598526030743,0.0,0.818942516289,-0.573780041817,-0.00950607851024,0.0,-0.00435069465208,0.0103567733976,-0.99993690236,0.0,0.393456361078,-0.0921491201914,0.305892199232,1.0,-0.42998,-0.565116571429,1.81
-0.102018279189,-0.424324449917,-0.144695757134,-2.56165282048,-0.059478643524,2.13415644414,-0.376084315474,-1.57469969483,-0.916188647432,-0.0448115509712,-0.776810611826,-0.178372782481,-0.139178964503,-1.48264774978,0.573870537499,0.818911105061,0.00616077097539,0.0,0.818924481268,-0.573810634349,-0.00920851716734,0.0,-0.00400591819435,0.0103299017542,-0.999938620991,0.0,0.388365411031,-0.098950030968,0.305984459392,1.0,-0.42998,-0.565116571429,1.822
-0.134042903955,-0.442071625656,-0.14557396109,-2.57646164126,-0.0628312369959,2.1307712816,-0.406262728579,-1.6148901996,-0.865584991228,-0.033791923147,-0.700915923738,-0.159580140011,-0.175544266549,-1.54611228911,0.573799701005,0.818961638409,0.00604026845976,0.0,0.818972897137,-0.573738123926,-0.00941837617935,0.0,-0.00424783827693,0.0103512768898,-0.999937401509,0.0,0.379722076021,-0.110204253161,0.305934683423,1.0,-0.42998,-0.565116571429,1.842
-0.155305058221,-0.452924016749,-0.146197152556,-2.5851409684,-0.0649212830059,2.12880579277,-0.42643917854,-1.63485478209,-0.797225069523,-0.0355771872626,-0.674400497004,-0.168439358125,-0.15139008874,-1.55597945264,0.573769286237,0.818982121078,0.00615129462731,0.0,0.818995853924,-0.573710617971,-0.00909202859564,0.0,-0.00391722124086,0.0102548089907,-0.99993974532,0.0,0.374226468769,-0.117571447213,0.306033400383,1.0,-0.429652,-0.564685485714,1.855
-0.190109346531,-0.468763671169,-0.146867573473,-2.5981194886,-0.0677763619198,2.12538668732,-0.459493131672,-1.65572375842,-0.722972196502,-0.0341996797874,-0.580724464566,-0.115840905195,-0.149876820995,-1.56978600007,0.573735078793,0.819006322292,0.0061196658306,0.0,0.819018407322,-0.573673181918,-0.00941677851124,0.0,-0.00420179386457,0.0104150556451,-0.999936933783,0.0,0.365309163058,-0.129186980623,0.305929548443,1.0,-0.40948,-0.538173714286,1.876
-0.211574844939,-0.477464158947,-0.147027735055,-2.60502916485,-0.0693226909355,2.12345035682,-0.479719630539,-1.64326483329,-0.652395259948,6.66143933672e-05,-0.501223156124,-0.110229237267,-0.142284487629,-1.54593340816,0.573802781084,0.818959017071,0.00610275997039,0.0,0.818971010234,-0.573741151692,-0.00939798659558,0.0,-0.00419524210227,0.0103907743979,-0.999937213905,0.0,0.360032937037,-0.136168249013,0.305939621585,1.0,-0.396992571429,-0.521761665306,1.889
-0.244006850197,-0.489348573571,-0.147201745453,-2.61438541044,-0.0712366950758,2.12072589913,-0.510456311219,-1.5977769811,-0.552122889328,-0.00890562315496,-0.441668359373,-0.0715130720668,-0.130636016216,-1.52460155244,0.573946517707,0.818857226134,0.00624379059517,0.0,0.818870728807,-0.573884368529,-0.00939190946085,0.0,-0.00410749818834,0.01050351331,-0.999936400311,0.0,0.352194339926,-0.146498869052,0.305947864205,1.0,-0.377781142857,-0.496512359184,1.909
-0.267905134754,-0.497064761619,-0.147028744638,-2.620442605,-0.0723405417153,2.11880069826,-0.533042785219,-1.57874723948,-0.492168007885,0.00515555342327,-0.385271275403,-0.0595714099185,-0.109698141655,-1.49399992586,0.574062313035,0.818775558028,0.00630818761286,0.0,0.818789358022,-0.573998898653,-0.00948675055765,0.0,-0.00414670657638,0.0106112671539,-0.999935100811,0.0,0.346537628488,-0.153887066324,0.305932580908,1.0,-0.363372571429,-0.477575379592,1.924
-0.297097668025,-0.505342006649,-0.146654094314,-2.62695862921,-0.0734700102344,2.11673377731,-0.560915404386,-1.51312219182,-0.406936938532,0.0239312157306,-0.316763548594,-0.0425563039605,-0.0980093825759,-1.45750362878,0.573999318474,0.818819271029,0.00636637137908,0.0,0.81883335755,-0.573934819316,-0.00956570127929,0.0,-0.00417877879567,0.0107039093502,-0.999933979887,0.0,0.339751977743,-0.162752903542,0.305892948771,1.0,-0.345121714286,-0.453588538776,1.943
-0.316644540119,-0.510250270597,-0.146312806597,-2.63060087349,-0.0741577048824,2.115512741,-0.579517836831,-1.49082689096,-0.365163251941,0.0294128027139,-0.264438755456,-0.0514293433997,-0.0928150342197,-1.40949863685,0.574012509345,0.818809864535,0.0063868425322,0.0,0.818825024713,-0.573950153953,-0.00935663303015,0.0,-0.00399565109795,0.0106007349959,-0.999935827536,0.0,0.335331214072,-0.168646052324,0.305964221438,1.0,-0.332634285714,-0.437176489796,1.956
-0.347062327046,-0.516794092478,-0.145645225803,-2.6356268783,-0.0748395478379,2.11373118635,-0.608582392319,-1.42135363403,-0.289224314038,0.0375066103354,-0.219174629018,-0.0151495161973,-0.0795210801947,-1.34858499153,0.574047197026,0.818784804036,0.00648129361611,0.0,0.818800878226,-0.573984214342,-0.00938032004576,0.0,-0.00396037953588,0.0106918411855,-0.99993499785,0.0,0.328478279842,-0.1776347704,0.305963542348,1.0,-0.312462285714,-0.410664718367,1.977
-0.365199135284,-0.520082675987,-0.145089866598,-2.63820560255,-0.0751970962359,2.11279104089,-0.625908413782,-1.37427979383,-0.239553652602,0.0503472223849,-0.189084487016,-0.0264083822096,-0.0700195970004,-1.32268984166,0.574006719421,0.818813658834,0.00642067503591,0.0,0.818828834311,-0.573943317111,-0.00944223207798,0.0,-0.00404640297292,0.0106775440901,-0.999934806212,0.0,0.324434357144,-0.182909830256,0.305936448615,1.0,-0.299974857143,-0.394252669388,1.99
-0.391826719659,-0.524038706699,-0.144201985263,-2.64126385608,-0.0754958737829,2.11165114684,-0.651424856288,-1.28877244686,-0.176520227748,0.0518257319421,-0.130828219436,-0.0115918519944,-0.0482974741905,-1.2545277938,0.573972814927,0.818837597159,0.00639875801814,0.0,0.818852507671,-0.573909425998,-0.00944925039582,0.0,-0.00406517221494,0.0106634572024,-0.999934880407,0.0,0.318600049518,-0.190609433142,0.305924934706,1.0,-0.280763428572,-0.369003363265,2.01
-0.409674446566,-0.526132663344,-0.143575898162,-2.64293138857,-0.0755790711789,2.11100152775,-0.668544986609,-1.27303154086,-0.136301208891,0.0320322923595,-0.110813894485,-0.0116931546426,-0.0385281762861,-1.20972657486,0.573988572315,0.818826560055,0.00639767932117,0.0,0.818841175518,-0.57392444502,-0.00951880170438,0.0,-0.00412254247334,0.0107025727141,-0.999934227627,0.0,0.31471417854,-0.195732011654,0.305895089704,1.0,-0.267315428572,-0.35132884898,2.024
-0.433893543652,-0.528356150224,-0.142542743534,-2.64474831738,-0.0756210455095,2.11025836749,-0.691767279757,-1.18572040817,-0.0955648710981,0.0447683130778,-0.0797692329653,-0.00133901243745,-0.0251387170293,-1.1322854413,0.573946810858,0.81885662216,0.00629583608677,0.0,0.818869664579,-0.573881886444,-0.00963326244703,0.0,-0.00427527676986,0.010684655157,-0.999933777884,0.0,0.309478111421,-0.202605573701,0.305846336647,1.0,-0.248104,-0.326079542857,2.044
-0.448745606086,-0.529390975288,-0.14185202235,-2.64562415519,-0.0755923417709,2.10991251641,-0.706040315705,-1.1201622485,-0.0697655060316,0.0551120421229,-0.0624651987954,0.00856254755426,-0.0230238519619,-1.07274843946,0.573892903648,0.818894992832,0.00621874244799,0.0,0.818906987265,-0.57382776483,-0.00968449376456,0.0,-0.00436218035842,0.0106506389474,-0.999933765443,0.0,0.306282829955,-0.20679107962,0.305815068648,1.0,-0.235616571429,-0.309667493878,2.057
-0.471412778215,-0.530541901489,-0.140706653602,-2.64657867307,-0.0755293757728,2.10946064902,-0.727715216457,-1.03872204695,-0.0461754417851,0.0634932675506,-0.0373680017949,0.0129822283816,-0.0095560535595,-0.998742372782,0.573867014288,0.818914583361,0.00602511175116,0.0,0.818924309799,-0.573802218714,-0.00973321732677,0.0,-0.00451353802069,0.0105198853894,-0.999934477846,0.0,0.30141959092,-0.213144659186,0.305793144555,1.0,-0.215444571429,-0.283155722449,2.078
-0.484524283458,-0.530965084021,-0.139961297786,-2.64689412434,-0.0754114265576,2.10929375433,-0.740278625356,-0.996758682254,-0.0294452210191,0.0449623684133,-0.0221788960719,0.00628006838003,-0.0102314765621,-0.947508860267,0.57382134669,0.818947368493,0.0059174844872,0.0,0.81895622644,-0.573757640602,-0.00967553237923,0.0,-0.00452863703336,0.0103983879866,-0.999935680418,0.0,0.2986401703,-0.216798631342,0.30580979771,1.0,-0.202957142857,-0.26674367347,2.091
-0.503271981382,-0.531200595896,-0.138706828598,-2.64706216105,-0.0749968263863,2.10913533222,-0.758315830076,-0.893624221633,-0.00624715996309,0.0664116257819,-0.00457860989417,0.0288261372959,-0.0126722247078,-0.874193805863,0.573684570615,0.819043770176,0.00583634095754,0.0,0.819052113511,-0.573621996892,-0.00960140281613,0.0,-0.00451620255778,0.0102886421366,-0.999936871886,0.0,0.29472077955,-0.221955300116,0.30583939088,1.0,-0.183745714286,-0.241494367347,2.111
-0.514671141218,-0.531191020474,-0.137962528136,-2.6470664741,-0.0746523352892,2.10909151712,-0.76911498221,-0.864717438822,0.00273815728898,0.0537189153577,-0.000667948430472,0.0312063947833,-0.00462679237271,-0.812556985053,0.573797175343,0.818964739864,0.00585690429088,0.0,0.818973467281,-0.573734885612,-0.00956492675154,0.0,-0.00447311355683,0.0102851751885,-0.999937101235,0.0,0.292328245778,-0.225076762166,0.305850108849,1.0,-0.171258285714,-0.225082318368,2.124
-0.53057772051,-0.53092008489,-0.136604656205,-2.6469360115,-0.0740537911819,2.10909257528,-0.784364797327,-0.758798539051,0.0154568687233,0.0670364356348,0.00951162108748,0.0318641861954,0.000521721685036,-0.713327109976,0.573619873386,0.819089345453,0.00579930369417,0.0,0.819097496661,-0.573557904832,-0.00955864367042,0.0,-0.00450323341231,0.0102334201353,-0.999937497047,0.0,0.288889979071,-0.229535372274,0.305846798263,1.0,-0.151086285714,-0.198570546939,2.145
-0.540855948028,-0.530627390016,-0.135773297713,-2.6467785471,-0.0735919390223,2.10909630848,-0.794056082144,-0.718913392222,0.0207231988493,0.0571942251884,0.0125330904199,0.0363898092035,-0.00472428082713,-0.677020340313,0.57373978544,0.819005069904,0.00583960406146,0.0,0.819013442441,-0.573677177951,-0.00960330671216,0.0,-0.0045151962383,0.010292711524,-0.999936834551,0.0,0.286901643985,-0.232081104588,0.305833785434,1.0,-0.138598857143,-0.182158497959,2.158
-0.55387971867,-0.529996707745,-0.134411352511,-2.64647489812,-0.0728808410663,2.1091736606,-0.806462406112,-0.620962752937,0.0340375822981,0.0591088113551,0.0122305380295,0.0353242653564,0.00806747768279,-0.584552055767,0.573605305278,0.819099389178,0.00582162404484,0.0,0.819106987272,-0.573541473077,-0.00972979770439,0.0,-0.0046308176837,0.0103497957806,-0.999935716561,0.0,0.284252667264,-0.235474786605,0.305783840698,1.0,-0.119387428572,-0.156909191837,2.178
-0.561549281313,-0.529579698276,-0.133603452255,-2.64623771936,-0.0724409444044,2.10924957416,-0.813610105839,-0.575801571475,0.0315149076213,0.0612429499493,0.0189071989968,0.0367071864961,0.0138398912784,-0.532286096503,0.573663540944,0.819058615435,0.00582006648214,0.0,0.81906604842,-0.573599374094,-0.00976285130849,0.0,-0.004658050666,0.0103678103189,-0.99993540345,0.0,0.28269534563,-0.237472505973,0.305766856682,1.0,-0.1069,-0.140497142857,2.191
-0.572426909783,-0.528874726867,-0.132311803928,-2.64575443739,-0.0716975737045,2.10940086301,-0.823655730732,-0.472771367196,0.0345193737743,0.0666840390362,0.0204199526761,0.0384388772699,0.0115078766827,-0.448541031022,0.573776737708,0.818979248517,0.00583032280991,0.0,0.818986954865,-0.573712877654,-0.0097287551018,0.0,-0.0046228062687,0.0103572910982,-0.999935676023,0.0,0.280542318089,-0.240280731427,0.305775286935,1.0,-0.0867280000001,-0.113985371429,2.212
-0.578055929729,-0.528435345096,-0.131465638183,-2.64547608921,-0.0712215300735,2.10948777444,-0.828912009354,-0.421315735306,0.031770373871,0.05739160056,0.0155883243309,0.0359870218271,0.00335133163025,-0.395160955204,0.57370281574,0.819031107448,0.00581989235287,0.0,0.81903863418,-0.573638856155,-0.0097429632156,0.0,-0.00464136292067,0.0103564815086,-0.999935598447,0.0,0.279467223937,-0.241682401765,0.305770278844,1.0,-0.0742405714287,-0.0975733224491,2.225
-0.585926448756,-0.527849385214,-0.130131524084,-2.64504378427,-0.0704492554221,2.10960431632,-0.835878951583,-0.342457188904,0.0273809060574,0.0662092162525,0.0179051978034,0.0416944154695,0.0082366211122,-0.298821335417,0.573848090236,0.818929361697,0.0058152200692,0.0,0.818937073249,-0.573784649926,-0.00969497133092,0.0,-0.00460290129216,0.0103259388932,-0.999936092101,0.0,0.278060619128,-0.243521481119,0.30579696341,1.0,-0.0550291428573,-0.0723240163267,2.245
-0.589779876632,-0.527491713586,-0.129292458675,-2.64480086334,-0.069945113383,2.109701174,-0.839240084474,-0.280232992956,0.0273174898922,0.064907758543,0.0142278701661,0.0306625435189,0.00916554865551,-0.23396565694,0.573891162551,0.818899144417,0.00581994157936,0.0,0.818907057291,-0.573828036713,-0.00966243769121,0.0,-0.00457300435255,0.010311377358,-0.99993637954,0.0,0.277341207251,-0.244489051596,0.305805317899,1.0,-0.0415811428573,-0.054649502041,2.259
-0.594442925956,-0.527006544335,-0.127881327098,-2.64454042642,-0.069111274304,2.1097673174,-0.843208354316,-0.190453605035,0.0160670918508,0.0700682251951,0.00655146059749,0.0373154806789,0.0020467990848,-0.155129872358,0.573832424574,0.818940290524,0.00582202405067,0.0,0.818947823253,-0.573768397786,-0.00974860977686,0.0,-0.004643125306,0.0103622018122,-0.999935531002,0.0,0.276619633055,-0.245434856296,0.305786894377,1.0,-0.0214091428573,-0.0281377306124,2.28
-0.596314823002,-0.526858828481,-0.127137144276,-2.64446077411,-0.0687048573494,2.10977545946,-0.844671526845,-0.141793021583,0.012565346776,0.0557845908275,0.00557034178148,0.0309468983684,-0.00018967068637,-0.111707129976,0.57381856189,0.818950174727,0.00579795181118,0.0,0.818957331851,-0.573754369083,-0.00977545222765,0.0,-0.00467909821361,0.0103578105045,-0.999935408815,0.0,0.276363549502,-0.245758091845,0.305788052621,1.0,-0.0197697560976,-0.0259831080139,2.292
-0.598815145489,-0.52667779181,-0.126216431451,-2.64430232546,-0.0682817431421,2.10980978131,-0.846837398984,-0.1023281733,0.00955991581299,0.0387941407524,0.00990683556217,0.0143471226185,0.0024566473122,-0.101827126263,0.57363008329,0.819082914069,0.00569686985184,0.0,0.819089249469,-0.573566877613,-0.00972549281125,0.0,-0.00469853960095,0.010245277356,-0.999936476991,0.0,0.276012584032,-0.246234796743,0.30581925319,1.0,-0.0193497560976,-0.0254311080139,2.313
-0.600141871323,-0.526515672965,-0.125870781308,-2.64415475527,-0.0681374666252,2.10990271492,-0.8480952037,-0.0943107001891,0.0129861362583,0.0180599893533,0.00978226575336,0.00740362417495,0.011380669791,-0.0948996384625,0.573511292277,0.819166514,0.00563621088629,0.0,0.819172659775,-0.573449323343,-0.00963192272626,0.0,-0.00465815692778,0.010141241563,-0.999937726458,0.0,0.275816025073,-0.246552850313,0.305843355749,1.0,-0.0190897560976,-0.0250893937282,2.326
-0.602010431962,-0.526243793712,-0.125666389057,-2.64397124761,-0.0679533668212,2.10994322226,-0.849867817975,-0.0976773798864,0.0108401907041,0.00928503608902,0.0110376259266,0.00214930492149,-0.00825422710995,-0.0865761480004,0.57353354143,0.819150606194,0.00568402394644,0.0,0.819157106412,-0.573471058508,-0.00966058847219,0.0,-0.00465394327686,0.0101969764509,-0.999937179268,0.0,0.275457149201,-0.24704805871,0.30583566199,1.0,-0.0186897560976,-0.0245636794425,2.346
-0.603247648809,-0.526115625286,-0.12560739205,-2.64389213146,-0.0679136467949,2.10993868884,-0.851035502044,-0.0954331167025,0.0116667379921,0.0015314067742,0.001715640809,0.000498800060837,-0.000877025387328,-0.0874043537117,0.573570000147,0.819125030925,0.00569082985358,0.0,0.819131392606,-0.573507024668,-0.00970573051605,0.0,-0.00468656614282,0.0102286501698,-0.999936703404,0.0,0.275182181219,-0.247387904596,0.305825703469,1.0,-0.0184297560976,-0.0242219651568,2.359
-0.605107330699,-0.525920061574,-0.125559247133,-2.64372631018,-0.0678751181228,2.10994430861,-0.852743335618,-0.0872732738045,0.0149694566871,0.00369836722642,0.0101110177831,0.00394210847383,0.000576552584153,-0.0855952854472,0.573685440817,0.819044138269,0.00569749612506,0.0,0.819050514478,-0.573622298346,-0.00971907789386,0.0,-0.00469223329631,0.0102424278168,-0.999936535796,0.0,0.274771122194,-0.247922681285,0.305831095159,1.0,-0.0180097560976,-0.0236699651568,2.38
-0.606157524794,-0.525785610548,-0.125548155379,-2.64360853394,-0.0678557785608,2.10997560761,-0.853847390368,-0.0811021274033,0.00541846092445,0.00217209585269,0.00660975768491,0.00188338307842,7.42569737097e-05,-0.0825034063116,0.573647867063,0.819070408672,0.00570413473279,0.0,0.819076948685,-0.573584909109,-0.00969799341259,0.0,-0.00467162376873,0.0102355555739,-0.999936702663,0.0,0.274544851008,-0.248237574838,0.305838338199,1.0,-0.0177497560976,-0.0233282508711,2.393
-0.607870389286,-0.525607549406,-0.1255548092,-2.64346236933,-0.0678273563918,2.11000722144,-0.855457710657,-0.0860856966327,0.00792288982996,0.000922671528468,0.0071180424225,0.000141570075102,0.000338967333137,-0.0819951231553,0.573756331265,0.818994259092,0.0057291194362,0.0,0.819001106954,-0.573693353546,-0.00968864320838,0.0,-0.00464827491753,0.0102512729111,-0.999936650465,0.0,0.27415640803,-0.248743398879,0.305842101225,1.0,-0.0173297560976,-0.0227762508711,2.414
-0.608928363165,-0.525519701162,-0.125564740772,-2.6433766037,-0.067819303061,2.11001515436,-0.856498832519,-0.0823992061191,0.00471555797419,-7.23434490205e-05,0.00764011788065,-0.000259288300783,0.00447491137617,-0.0845431420751,0.57378501782,0.818974077183,0.00574117834349,0.0,0.818981104723,-0.573722103341,-0.00967704215766,0.0,-0.00463149492668,0.0102546558229,-0.999936693641,0.0,0.273911516338,-0.249055524209,0.305849349936,1.0,-0.0170697560976,-0.0224345365854,2.427
-0.610453710801,-0.525378791544,-0.125565272767,-2.6432389219,-0.0677985560197,2.11004858804,-0.85799146912,-0.0744186912744,0.0100008400152,-0.00119183118181,0.00598189171068,0.000436538055316,0.00166721947168,-0.0806100445902,0.57382812006,0.818943772059,0.0057561910738,0.0,0.81895113594,-0.573765534976,-0.00963819054977,0.0,-0.00459052045552,0.0102449012286,-0.999936982575,0.0,0.273568088324,-0.249507228169,0.305863175063,1.0,-0.0166697560976,-0.0219088222997,2.447
-0.61141187564,-0.525291781872,-0.125552657811,-2.64314200908,-0.067784818725,2.11007390595,-0.85893268442,-0.0729600883409,0.00516325234647,0.00221998984075,0.00445822775507,8.86245680274e-06,0.00181502714543,-0.074808871384,0.573843874997,0.818932717916,0.00575825979175,0.0,0.818940289992,-0.57378169644,-0.00959756010699,0.0,-0.00455585962634,0.0102233688575,-0.999937361474,0.0,0.273357958923,-0.249790915754,0.305877836762,1.0,-0.0164097560976,-0.0215671080139,2.46
-0.612942624042,-0.525114910384,-0.125475932073,-2.64296948268,-0.0677657661867,2.11012154334,-0.860529237425,-0.0693718499152,0.0110688075117,0.0110578155087,0.0102143035844,0.00486759863971,0.00503552856323,-0.0780550693957,0.573752759379,0.818996761801,0.00572906322239,0.0,0.819004265872,-0.573691243564,-0.0095454933529,0.0,-0.00453110197906,0.0101690761557,-0.999938027582,0.0,0.273037753195,-0.250236085258,0.305897373809,1.0,-0.0159897560976,-0.0210151080139,2.481
-0.613864636107,-0.524976490549,-0.125413863937,-2.64285489695,-0.067750768604,2.11015308976,-0.861428328705,-0.0744579840724,0.0087899813263,0.00159978782735,0.0109173031092,0.00565549249042,-0.000325460362335,-0.0693587073174,0.573740038253,0.81900584457,0.00570455666195,0.0,0.819013156315,-0.573678762253,-0.00953280779241,0.0,-0.00453492960357,0.0101416557229,-0.999938288712,0.0,0.272850447778,-0.250502616304,0.305902907487,1.0,-0.0157297560976,-0.0206733937282,2.494
-0.615217749072,-0.524754740892,-0.125359097669,-2.64271265238,-0.0677295906088,2.11018802269,-0.86285975127,-0.072424806078,0.0146147655585,0.0063905690323,0.00774226902042,0.00493659775487,0.000213041719637,-0.0722890345649,0.573653867952,0.81906629713,0.0056910096727,0.0,0.819073298919,-0.573592282994,-0.00956926266556,0.0,-0.00457362936358,0.0101509940464,-0.999938017696,0.0,0.2725590251,-0.250893529331,0.305890535607,1.0,-0.0153297560976,-0.0201476794425,2.514
-0.61609909576,-0.524609585929,-0.125321723262,-2.64264667865,-0.0677196983489,2.11020444616,-0.86375051471,-0.0661681661579,0.0116633510291,0.00226224772323,0.00628905944236,0.000332691061959,0.000583348383815,-0.0622432194154,0.57362768788,0.819084700423,0.00568120871774,0.0,0.819091334952,-0.573565560846,-0.00962700987641,0.0,-0.00462687991788,0.0101759441678,-0.999937519119,0.0,0.272361565861,-0.251140516119,0.305869553076,1.0,-0.0150697560976,-0.0198059651568,2.527
-0.617518198488,-0.524406055374,-0.125304855296,-2.64256584229,-0.0676973554951,2.11022455899,-0.865092768193,-0.0685665966875,0.0101827473105,0.00237575139,0.00234576096051,0.000240622340591,-0.000169120747047,-0.0630887656077,0.573692919172,0.819038916584,0.0056951307746,0.0,0.819045258718,-0.573629765118,-0.0097212984039,0.0,-0.00469531558334,0.0102418071047,-0.999936527685,0.0,0.272028253528,-0.25154024073,0.305833719105,1.0,-0.0146497560976,-0.0192539651568,2.548
-0.618392970756,-0.524295455012,-0.125295278095,-2.64253520501,-0.0676861877295,2.1102316957,-0.865988122018,-0.0718661856813,0.00695317600442,0.00188846324715,0.00369203674318,0.000253389272259,-0.000312193473572,-0.0740499219133,0.573675976232,0.819050713618,0.00570523592328,0.0,0.819056840481,-0.573612083434,-0.0097886005559,0.0,-0.00474485935944,0.0102885955767,-0.999935813495,0.0,0.271817037961,-0.251781630519,0.305807876183,1.0,-0.0143897560976,-0.0189122508711,2.561
-0.619788805783,-0.524170546828,-0.125303356818,-2.64246432617,-0.067670275243,2.11024387199,-0.867367415235,-0.0681598909496,0.00856838333726,0.000608043140818,0.00605994154237,-0.00035537347788,-0.000527669667314,-0.0589176642435,0.573705896442,0.81902959653,0.00572811455499,0.0,0.819035802239,-0.573641549531,-0.00982212824237,0.0,-0.00475882084425,0.0103267426099,-0.999935353916,0.0,0.271480948143,-0.252178261158,0.30579510787,1.0,-0.0139697560976,-0.0183602508711,2.582
-0.62057673159,-0.52414001318,-0.12531116097,-2.64239458118,-0.0676601848898,2.11025145408,-0.86810338736,-0.0645015099262,0.00588512927233,1.1727811706e-05,0.00866708929813,-0.000534735433916,0.00192386939035,-0.0598954774076,0.573761663513,0.818990452319,0.00573928523108,0.0,0.818997019513,-0.573697791219,-0.00977104301488,0.0,-0.00470986635766,0.0103069058327,-0.999935790364,0.0,0.27129840248,-0.252410699201,0.30581610941,1.0,-0.0137297560976,-0.0180448222997,2.594
-0.621906878462,-0.524023758281,-0.125299507454,-2.64222054621,-0.0676416083518,2.11031164929,-0.869391453509,-0.0585061560032,0.0121998553144,0.00110764232082,0.00731108827186,-0.000339325152241,0.0050926052277,-0.0661311476241,0.573804453838,0.818960486602,0.00573733752168,0.0,0.818967618599,-0.57374187285,-0.0096462389274,0.0,-0.00460822647363,0.0102339455417,-0.99993701332,0.0,0.271014665428,-0.252816524112,0.305858071769,1.0,-0.0133097560976,-0.0174928222997,2.615
-0.622671439957,-0.52392760651,-0.12529643386,-2.64208872349,-0.0676273412874,2.11038264542,-0.870186880334,-0.0590117497261,0.00561416113401,0.000188490040343,0.00686069465801,-0.000166289190987,0.00739691583449,-0.0573002014197,0.57378966365,0.818970866062,0.00573492213475,0.0,0.818978477744,-0.573728223371,-0.00953549165156,0.0,-0.00451909017515,0.0101683401194,-0.999938089425,0.0,0.270863576007,-0.253062494939,0.305888924858,1.0,-0.0130497560976,-0.0171511080139,2.628
-0.62386848437,-0.523731621614,-0.125268990829,-2.64190489555,-0.0675992460669,2.1104043537,-0.871352192541,-0.0561901089319,0.00782445874425,0.000234557851148,0.00134328011565,0.000887309692857,0.000968039960266,-0.0562572444333,0.573817688401,0.818951232818,0.00573460070299,0.0,0.818958916788,-0.573756415288,-0.00951921372985,0.0,-0.00450559462372,0.0101588911879,-0.999938246367,0.0,0.27061110608,-0.253423266701,0.305903105546,1.0,-0.0126297560976,-0.0165991080139,2.649
-0.624602587073,-0.523611265198,-0.125232340256,-2.6418242088,-0.067593626756,2.11040637155,-0.87209293974,-0.0553210975082,0.0109822945735,0.00793651436134,0.00217888948819,3.15015719031e-06,0.000499313095915,-0.0544289692578,0.573793039545,0.818968607003,0.00571973905814,0.0,0.818975984268,-0.573731487902,-0.00955321326639,0.0,-0.0045422748138,0.0101660919312,-0.999938007236,0.0,0.270449874443,-0.253631623786,0.30589663736,1.0,-0.0123697560976,-0.0162573937282,2.662
-0.625715896897,-0.523452166111,-0.125162910751,-2.6417569884,-0.0675685753406,2.11042551936,-0.873229011377,-0.056734045434,0.00439965732038,0.00611573601864,0.00041732282006,0.00275155739121,-0.000618674766108,-0.0481992679255,0.573739781521,0.819005989496,0.00570956839556,0.0,0.819012959146,-0.573677607855,-0.00961883040018,0.0,-0.00460251678335,0.0101951124469,-0.999937436304,0.0,0.270199602592,-0.253931382203,0.305872050453,1.0,-0.0119697560976,-0.0157316794425,2.682
-0.626445144516,-0.523332839055,-0.125129240893,-2.64171916709,-0.0675562724871,2.11042926206,-0.873962967102,-0.0585190733618,0.0135070080529,0.00358071067975,0.000543671751971,0.00545734188755,0.000534031199445,-0.0536178212593,0.573719641586,0.819020115066,0.00570709010503,0.0,0.819026718252,-0.57365673051,-0.00969212207415,0.0,-0.00466422208675,0.0102350171379,-0.999936742728,0.0,0.270029416823,-0.254127659228,0.305846517844,1.0,-0.0116897560976,-0.0153636794425,2.696
-0.627447917542,-0.523184637329,-0.125107066261,-2.64165334504,-0.0675381750001,2.1104506654,-0.875005641048,-0.0480261988794,0.00976117134065,-0.00025248738741,0.00107315861926,-0.000343172677913,0.00118975058945,-0.0588500694416,0.573678504016,0.819048864441,0.0057165190351,0.0,0.81905531888,-0.573615018022,-0.00974385008959,0.0,-0.00470169870409,0.0102721804352,-0.999936186133,0.0,0.2697869767,-0.254421385689,0.305825510934,1.0,-0.0112697560976,-0.0148116794425,2.717
-0.628109322861,-0.523082769553,-0.125099948498,-2.64159127487,-0.0675252334186,2.11046179511,-0.87568194607,-0.0477067490127,0.0103145480076,-0.000128666981971,0.00487190941482,0.000722045014616,-0.000359756955691,-0.0500796143708,0.573674335055,0.8190517544,0.005720822885,0.0,0.819058123754,-0.573610547216,-0.00977123004288,0.0,-0.00472170967122,0.0102913884972,-0.999935894336,0.0,0.269644755791,-0.254599477927,0.305816280308,1.0,-0.0110297560976,-0.0144962508711,2.729
-0.629716995249,-0.522831423978,-0.125094377476,-2.64134463286,-0.0674944662033,2.11052538045,-0.877209103531,-0.0487199775159,0.010612895114,-0.00101432792839,0.0114680273553,0.00387253621437,0.00906569962404,-0.0462189500359,0.57376207899,0.818990249188,0.00572672247626,0.0,0.818997001327,-0.57369895479,-0.0097040193064,0.0,-0.00466217225213,0.0102581643287,-0.999936515092,0.0,0.26930134373,-0.255094856318,0.305841713739,1.0,-0.0103897560976,-0.0136551080139,2.761
-0.630161256761,-0.522760736772,-0.12509402592,-2.64127788597,-0.0674820290436,2.11054587133,-0.877612197459,-0.0458830864551,0.00459331135845,-0.000847263886281,0.00535222505334,0.00207674341402,0.000895197834031,-0.04846635318,0.573804268335,0.818960653927,0.00573200325422,0.0,0.818967552133,-0.573741315344,-0.00968496371057,0.0,-0.0046430065193,0.0102517955686,-0.999936669584,0.0,0.269206493167,-0.255231554159,0.305847869129,1.0,-0.0102097560976,-0.0134185365854,2.77
-0.63078298952,-0.522694141821,-0.125096126229,-2.64118449076,-0.0674725075101,2.11056430982,-0.878216367249,-0.0445260073152,0.00627781932969,-0.00147006725163,0.00966336219812,-6.75694641105e-06,0.000105490350067,-0.048511211771,0.573828849085,0.818943412203,0.00573467254135,0.0,0.818950563528,-0.573766379953,-0.00963652600279,0.0,-0.00460149577529,0.0102263268232,-0.999937122261,0.0,0.269071453739,-0.255423301813,0.305867423591,1.0,-0.00994975609756,-0.0130768222997,2.783
-0.631364836543,-0.522618988527,-0.125095672383,-2.64110319354,-0.0674592549944,2.11057956528,-0.878794430372,-0.0411641363953,0.00651220075386,-0.00107190116559,0.00716179352211,0.00435541197284,-0.000186777255902,-0.0458915543257,0.573841396601,0.818934576126,0.00574094709086,0.0,0.818941906603,-0.573779152814,-0.00961167552446,0.0,-0.00457738579219,0.0102172761772,-0.999937325439,0.0,0.26894382535,-0.255599685399,0.305878110217,1.0,-0.00968975609756,-0.0127351080139,2.796
-0.632255239172,-0.522499890446,-0.12504362881,-2.64100876511,-0.0674381249462,2.11060658271,-0.879734153724,-0.0405743439284,0.005009260433,0.00749307302269,0.00126378018414,0.000415246912921,-0.000287549900909,-0.0425518483605,0.57377808469,0.818979014732,0.00572973460879,0.0,0.818986261505,-0.573715971047,-0.00960390200319,0.0,-0.00457824209058,0.0102032788683,-0.999937464444,0.0,0.268752854634,-0.255850893004,0.30588084173,1.0,-0.00926975609756,-0.0121831080139,2.817
-0.632798896216,-0.522432968261,-0.1249964563,-2.64097261672,-0.0674278728987,2.11061759416,-0.880279595673,-0.0472271669049,0.00665729421589,0.00213420581515,0.00583683165707,0.000553424616864,0.000462698960727,-0.0469323757887,0.573749568643,0.818999089285,0.00571586687562,0.0,0.819006115518,-0.57368734747,-0.0096206548005,0.0,-0.00460027558312,0.0102013728765,-0.999937382768,0.0,0.268633434143,-0.255994984772,0.305874741859,1.0,-0.00900975609757,-0.0118413937282,2.83
-0.633592329296,-0.522327958889,-0.124952646446,-2.64093773477,-0.0674095588982,2.11062910471,-0.881053585336,-0.0394811408833,0.000818962091868,0.000257478105875,0.00220301557045,-0.000300722559271,0.000183827234339,-0.0413041236313,0.573744356825,0.819002755367,0.00571372162267,0.0,0.819009511369,-0.573681597667,-0.00967427963211,0.0,-0.00464549416592,0.0102303526655,-0.999936877642,0.0,0.268448892092,-0.256205134772,0.305854014804,1.0,-0.00860975609757,-0.0113156794425,2.85
-0.634125304012,-0.522256303403,-0.12493559876,-2.64090855213,-0.0673950971728,2.11063630009,-0.881608352282,-0.0400183876227,0.00417990629496,-0.000735867794294,0.0017702347158,0.00190364509801,-0.000713115042967,-0.0369124774855,0.573722268581,0.81901818478,0.00572000304306,0.0,0.819024856846,-0.573659157616,-0.00970575365365,0.0,-0.00466794648453,0.0102534290882,-0.99993653672,0.0,0.268323603599,-0.256350104307,0.305841958781,1.0,-0.00832975609757,-0.0109476794425,2.864
-0.634920636755,-0.522160020055,-0.124928676461,-2.64084805156,-0.0673751946864,2.11065217184,-0.882401837317,-0.0385003635455,0.00575017752344,0.00113485528424,0.00946401400851,-0.000195025621552,0.00174663983937,-0.0398283402831,0.573730594388,0.819012255051,0.00573393768816,0.0,0.819019002837,-0.573667269091,-0.00972030179668,0.0,-0.00467176386549,0.0102732362468,-0.999936315592,0.0,0.268137378177,-0.256575750946,0.305835601128,1.0,-0.00790975609757,-0.0103956794425,2.885
-0.635364861994,-0.522109964242,-0.124932027355,-2.64079141727,-0.0673668742658,2.11066142815,-0.882833426327,-0.0342019616237,0.00167958299608,0.000311265744934,0.00336220721292,0.000327245373247,0.000309086482444,-0.0369147967734,0.57374972032,0.818998816346,0.00573970013117,0.0,0.819005710512,-0.573686557135,-0.00970191797237,0.0,-0.00465316011617,0.0102675175888,-0.999936461073,0.0,0.268036942133,-0.25670948983,0.305843677494,1.0,-0.00766975609757,-0.0100802508711,2.897
-0.63608908699,-0.522002708594,-0.12492492782,-2.6406708143,-0.0673448430776,2.11069204631,-0.88352486588,-0.0365229632333,0.00740682260988,3.18959364817e-06,0.00459783197589,0.000307928952258,-0.000209800026233,-0.0366754610978,0.573787010915,0.818972652352,0.00574523334931,0.0,0.818979829458,-0.573724316941,-0.00965370359457,0.0,-0.00461002791618,0.0102445971986,-0.999936895944,0.0,0.267884993912,-0.256932662567,0.305861906924,1.0,-0.00724975609757,-0.00952825087109,2.918
-0.63648218966,-0.52195374576,-0.124905151273,-2.64060232163,-0.0673314586129,2.1107117635,-0.883900329943,-0.0331815474881,0.00161535022163,0.00278819095379,0.0077056290225,-7.72304987996e-05,0.00566756413403,-0.0216212865936,0.573796548216,0.818966003149,0.00574054379707,0.0,0.818973323306,-0.573734299645,-0.00961228515299,0.0,-0.00457867603158,0.0102170449821,-0.999937321895,0.0,0.267807388835,-0.257051435435,0.305877231355,1.0,-0.00700975609757,-0.00921282229966,2.93
-0.637140504306,-0.521862934902,-0.124832399998,-2.64050393413,-0.0673113205692,2.11075036375,-0.884545863675,-0.0311650738566,0.00282706778398,0.00898912583156,0.00340238508974,0.000743702257193,-0.000297019119141,-0.0272830501315,0.573769032377,0.818985473883,0.00571296366852,0.0,0.818992736252,-0.573707412524,-0.00956293273786,0.0,-0.00455442108264,0.0101659861374,-0.999937953062,0.0,0.267682545959,-0.257238261217,0.305893637855,1.0,-0.00658975609757,-0.00866082229966,2.951
-0.637513159674,-0.52180282832,-0.124791427176,-2.64046663117,-0.0672965831933,2.11075397424,-0.884943091648,-0.0285701356769,0.00159670554404,0.00110362483707,0.00268571111256,0.000575117435064,-0.000763678120005,-0.0340171841139,0.573728159764,0.819014162076,0.00570507787596,0.0,0.819021265165,-0.573666406178,-0.00957958927909,0.0,-0.00457309581065,0.0101688560102,-0.999937838649,0.0,0.267604697708,-0.257336386608,0.305889778174,1.0,-0.00632975609757,-0.00831910801394,2.964
-0.638087145401,-0.521686127961,-0.124741132168,-2.640416168,-0.0672747051322,2.11077066117,-0.885553880515,-0.0217976268002,0.00946588002883,0.00357809195544,0.00062249808025,0.00467023230707,-0.000292437924126,-0.0226889455592,0.573674562628,0.819051746264,0.00569912593698,0.0,0.81905857555,-0.573612372455,-0.00962511744181,0.0,-0.0046144689419,0.0101897991957,-0.999937435377,0.0,0.267481523915,-0.257489774164,0.305872416706,1.0,-0.00590975609757,-0.00776710801394,2.985
-0.638437384038,-0.521613350577,-0.124735722303,-2.64039515691,-0.0672636385688,2.11077978159,-0.885904230035,-0.0301236295869,0.00792205294548,-0.000392143161304,0.00161455192613,0.00106476334514,-0.000211031389399,-0.0260338405624,0.57367664898,0.819050227091,0.00570743539246,0.0,0.81905695594,-0.573614011612,-0.00966516993941,0.0,-0.00464248410447,0.0102195937203,-0.999937001638,0.0,0.267398207651,-0.25758651291,0.305856100371,1.0,-0.00564975609757,-0.00742539372823,2.998
-0.638968384696,-0.521493716596,-0.124725347514,-2.64036688115,-0.067249140428,2.11078845567,-0.88640622474,-0.0220157789289,0.00401603508155,-0.000531745289892,0.000549848311694,-0.000329355239163,0.000550268288888,-0.0275982362386,0.573701077414,0.819033042404,0.00571805265636,0.0,0.819039512563,-0.573637580484,-0.00974422997841,0.0,-0.00470084694009,0.0102737840998,-0.999936173662,0.0,0.267270234947,-0.257731111095,0.305825916546,1.0,-0.00524975609757,-0.00689967944251,3.018
-0.639299994576,-0.521419042748,-0.124727072089,-2.64035801142,-0.0672406198747,2.11078856097,-0.886713801292,-0.0273862282716,0.00155711874665,-0.000681823477457,0.00330705535028,0.000195293621633,-0.000347452886542,-0.0263786813912,0.573726359413,0.819015249059,0.00573002829743,0.0,0.819021545662,-0.573662154611,-0.00980749763787,0.0,-0.00474548110666,0.0103200352402,-0.99993548656,0.0,0.267185577678,-0.25782028513,0.305802429181,1.0,-0.00498975609757,-0.0065579651568,3.031
-0.639792824396,-0.521370643089,-0.124726729344,-2.64033921153,-0.0672243781403,2.11079554891,-0.88717737178,-0.0179802373693,-0.00116055456273,-0.000253893570148,-0.000684969660612,0.000265795864511,-9.815604491e-05,-0.0264460463616,0.573758076644,0.818992916011,0.00574629539557,0.0,0.818999293821,-0.573693600385,-0.00982631668122,0.0,-0.00475116233264,0.0103443395912,-0.999935208448,0.0,0.26706440546,-0.25795513967,0.305793780958,1.0,-0.00456975609757,-0.0060059651568,3.052
-0.640075675274,-0.521359506284,-0.124723827906,-2.64031999724,-0.0672143424366,2.11079633199,-0.887447466415,-0.0199637017731,-0.000346126511605,-0.000256308270614,0.00294114501227,0.00424909809202,-0.000141595902905,-0.0279844366969,0.573771678141,0.818983335573,0.00575363528771,0.0,0.818989842577,-0.573707280966,-0.00981531578396,0.0,-0.00473776882059,0.0103441182237,-0.999935274288,0.0,0.266997274617,-0.258033800152,0.305798567276,1.0,-0.00430975609757,-0.00566425087109,3.065
-0.640478936859,-0.521363497003,-0.1247054568,-2.64026367735,-0.0671966402753,2.11081379403,-0.887843343068,-0.0167432406589,-0.000755188311552,0.00119576211981,0.00427228469801,0.000985622658923,6.18422206216e-05,-0.0196719950424,0.573774827331,0.818981128302,0.00575377339485,0.0,0.818988015939,-0.573711260888,-0.00973477163981,0.0,-0.00467167961641,0.0102980366427,-0.999936060881,0.0,0.266914629292,-0.258152352225,0.305827615844,1.0,-0.00388975609757,-0.00511225087109,3.086
-0.640713611177,-0.52136022594,-0.12468709187,-2.6402107719,-0.0671845335614,2.11082672792,-0.888079775956,-0.0182367692616,0.000503412495819,0.00463823933986,0.0061216288591,3.77738801217e-05,0.00362004007873,-0.0176581261973,0.573767991083,0.818985953229,0.00574871504481,0.0,0.818993085833,-0.573705106028,-0.00967075878374,0.0,-0.00462223741903,0.0102571271952,-0.999936711129,0.0,0.266873302077,-0.258224851193,0.305852044941,1.0,-0.00362975609757,-0.00477053658537,3.099
-0.64105432094,-0.52134889772,-0.124648038,-2.64012961105,-0.067168911737,2.11084290648,-0.888398693193,-0.0181223611077,-0.000268919783493,0.00229358951337,0.000227665846249,-1.2674707207e-05,-0.000129737042384,-0.0184657786565,0.573768628051,0.818985616258,0.00573312558975,0.0,0.818992991583,-0.573706710185,-0.0095831794424,0.0,-0.00455944128354,0.0101941136672,-0.999937643827,0.0,0.266816217452,-0.258328199184,0.305887139797,1.0,-0.00322975609757,-0.00424482229966,3.119
-0.641267472434,-0.521324830401,-0.124615347439,-2.64008472159,-0.0671545717349,2.11085538834,-0.888617949263,-0.0202432052905,0.00194105274923,0.00347378966373,0.00416102571813,3.0451993427e-05,-0.000248716913186,-0.0159889068914,0.573748753275,0.818999601063,0.00572437551738,0.0,0.819007043728,-0.573687228537,-0.0095484573516,0.0,-0.00453626897329,0.0101669151155,-0.99993802613,0.0,0.2667813202,-0.258389119598,0.305900563295,1.0,-0.00294975609757,-0.00387682229966,3.133
-0.641531743588,-0.521274251531,-0.124567074391,-2.64005255241,-0.0671367169737,2.11087235283,-0.888896764373,-0.0122146102996,0.00268839484878,0.00136031544723,0.00133287975972,0.0020751104525,0.00570890101307,-0.0108853836593,0.573711945412,0.819025461435,0.00571350277803,0.0,0.819032793156,-0.573650474881,-0.00954794769901,0.0,-0.00454254614618,0.0101575133517,-0.999938093182,0.0,0.266734075275,-0.258456841178,0.305899185378,1.0,-0.00254975609757,-0.00335110801394,3.153
-0.641686277897,-0.521239217663,-0.124530055451,-2.6400478112,-0.0671264153942,2.11087645442,-0.889050517975,-0.0121799607465,-0.000191901451467,0.00500722390155,0.000646082191441,-2.53170518446e-05,0.000290314275473,-0.0194702113941,0.57369111096,0.819040112524,0.00570527675104,0.0,0.819047244957,-0.573629423131,-0.00957300094906,0.0,-0.00456804511204,0.0101650324627,-0.999937900611,0.0,0.266704031862,-0.258490047986,0.305889671602,1.0,-0.00228975609757,-0.00300939372823,3.166
-0.641927067248,-0.52117005707,-0.124491784042,-2.64005506186,-0.0671126906649,2.11087907972,-0.889291656482,-0.0130965104412,-0.00052839239946,0.00106540567487,-0.000499314478461,-0.000172191949864,0.000244145727014,-0.0170363317841,0.573669516316,0.819055253459,0.00570304592507,0.0,0.819062031765,-0.573607108149,-0.00964471370884,0.0,-0.0046283348604,0.0102042230939,-0.999937224203,0.0,0.266648511208,-0.258541823969,0.305862032252,1.0,-0.00186975609757,-0.00245739372823,3.187
-0.642044943245,-0.52113298105,-0.124469053057,-2.64005830938,-0.0671023940968,2.11087748195,-0.889404956143,-0.0088036172901,0.00579020501253,0.000883977662738,-0.000378896347163,0.000403289971585,-0.000119559742252,-0.0119769604656,0.57366155271,0.819060829199,0.00570332501308,0.0,0.819067420807,-0.573598727631,-0.00968538767221,0.0,-0.00466159143722,0.0102277391548,-0.999936829463,0.0,0.266622048712,-0.258565543755,0.305847302362,1.0,-0.00162975609757,-0.0021419651568,3.199
-0.642255585989,-0.521086835204,-0.12444829116,-2.64005756143,-0.0670813655559,2.11087437118,-0.889578927579,-0.00908720093605,0.00597169714829,0.0011085438315,-0.00070734429543,0.00507821590696,8.19065435909e-05,-0.00623326792982,0.573686062249,0.81904358683,0.00571417138951,0.0,0.819050076328,-0.57362271539,-0.0097313800572,0.0,-0.00469273626792,0.0102631472154,-0.99993632099,0.0,0.266572604527,-0.258613985641,0.305830880459,1.0,-0.00120975609757,-0.0015899651568,3.22
-0.642370669041,-0.521088273613,-0.124441996307,-2.64005755938,-0.0670710291689,2.11087723712,-0.889629648573,-0.00970318178191,-1.10854579484e-05,0.00350238733859,-0.00103902051869,0.000336830594587,-0.000307512160609,-0.000166180686466,0.573738702032,0.819006673243,0.00571995413521,0.0,0.819013251362,-0.573675383634,-0.00972600669536,0.0,-0.00468435769303,0.0102651023263,-0.999936340207,0.0,0.266545606391,-0.258642641911,0.305831812335,1.0,-0.000949756097566,-0.00124825087109,3.233
-0.642512808096,-0.521087915986,-0.124429317709,-2.64004973748,-0.0670565047665,2.11088065539,-0.889724244491,-0.00326130805583,0.00120807195952,0.00417496638687,0.00104626633461,0.000230552593821,0.000691295980288,-0.0036706253088,0.573775192844,0.81898107071,0.00572545177607,0.0,0.81898776594,-0.573711975995,-0.00971363687973,0.0,-0.00467061440413,0.0102627164221,-0.999936428986,0.0,0.266515213114,-0.258678705483,0.305835842667,1.0,-0.000549756097566,-0.000722536585372,3.253
-0.642563467837,-0.521089987871,-0.124435956126,-2.64004114786,-0.0670426539906,2.11088517775,-0.889753459106,-0.000973020187836,0.00151949036084,-7.21179288856e-05,0.000948623650329,0.0041500478943,0.000134826781656,-0.00148625806855,0.57380373432,0.818960978694,0.00573905544623,0.0,0.818967892762,-0.573740623935,-0.00969711155601,0.0,-0.00464891622394,0.0102645385924,-0.999936511397,0.0,0.266504649627,-0.258695098907,0.305840756005,1.0,-0.000289756097566,-0.000380822299658,3.266
-0.642580968181,-0.521087866809,-0.12442965509,-2.64003712728,-0.0670271911012,2.11089478139,-0.889783538709,0.000839498048123,-8.12371175845e-05,0.000568302713724,-0.00080485665308,6.43392311045e-05,6.94596462471e-05,-0.00228967838365,0.573795732291,0.818966523697,0.00574783180296,0.0,0.818973586713,-0.573732712642,-0.0096842971576,0.0,-0.00463348525443,0.0102643284269,-0.999936585177,0.0,0.266505267714,-0.258699117281,0.30584278762,1.0,0.0,0.0,3.287
-0.642579195084,-0.521087841989,-0.12441863545,-2.64003963246,-0.0670182825177,2.11089413878,-0.889786089197,-0.00468079619824,0.000114484031557,0.000854693455454,-6.63534595878e-05,0.00134287236281,3.07055966124e-05,0.000725342857053,0.573788054426,0.818971885388,0.00575034287851,0.0,0.818978961877,-0.573724997119,-0.00968682529947,0.0,-0.00463421135045,0.01026779217,-0.999936546251,0.0,0.266508218301,-0.25869458214,0.305841848668,1.0,0.0,0.0,3.3
-0.642578492565,-0.521092850317,-0.124393830193,-2.64003704435,-0.0670070467121,2.11089453175,-0.889798563567,-0.00088159976599,-0.0014989967947,0.00252734889009,0.000477420932471,8.47911752036e-05,0.00545668906533,-8.76656782773e-05,0.573764559598,0.818988368655,0.00574709119837,0.0,0.818995449834,-0.573701605507,-0.00967821741981,0.0,-0.00462932117742,0.0102600572347,-0.999936648299,0.0,0.266515529939,-0.258688576636,0.305845497737,1.0,0.0,0.0,3.321
-0.642576359552,-0.521090345632,-0.124389786818,-2.64003712273,-0.0670016379779,2.11089332694,-0.889795114474,-0.000790937363847,-0.000743511603524,-0.000714874438979,-0.000362215398587,0.000256476522307,-0.000126963386129,0.00112369497151,0.573765080131,0.818987984635,0.0057498475001,0.0,0.818995078421,-0.573702078441,-0.00968161221742,0.0,-0.00463051376818,0.0102642654329,-0.999936599589,0.0,0.266517171451,-0.258686337371,0.30584453477,1.0,0.0,0.0,3.334
-0.642580921901,-0.521090344675,-0.124389346833,-2.64003929364,-0.0669993333198,2.11089251605,-0.889805591351,0.000198143480688,-0.0011450139198,-0.000137740502757,0.000323901653298,0.000393610833184,-0.000130995001302,-0.000962055398906,0.573760803747,0.818990964953,0.0057520700286,0.0,0.818998068721,-0.573697764003,-0.00968431266547,0.0,-0.00463150403181,0.0102676109466,-0.999936560656,0.0,0.26651566033,-0.258686557326,0.305843488501,1.0,0.0,0.0,3.354
-0.642579528194,-0.521092850317,-0.124389452,-2.6400387988,-0.0669956139857,2.1108944925,-0.889800348924,0.000833831173717,-0.000641769277506,0.00336481023654,-0.000406460802435,-3.4407431061e-06,-1.41574404421e-05,0.00109594678007,0.573765621881,0.818987569807,0.00575487193964,0.0,0.818994727023,-0.573702623133,-0.00967906089918,0.0,-0.00462553449213,0.0102669198393,-0.999936595384,0.0,0.266516811401,-0.258686270496,0.305844806326,1.0,0.0,0.0,3.367
-0.642583916678,-0.521088199223,-0.124378506843,-2.64003387137,-0.0669915348672,2.11089682655,-0.889811409189,-0.00167990583514,0.00714953516007,0.00119723457778,-0.000543199565861,-0.000222259588364,9.54453072495e-05,-0.00158124032013,0.573754385043,0.818995460678,0.00575221128187,0.0,0.819002602609,-0.573691427114,-0.00967627391789,0.0,-0.00462491915969,0.0102630781979,-0.999936637667,0.0,0.266519813236,-0.258686112056,0.305845796927,1.0,0.0,0.0,3.388
-0.642576419518,-0.521082549295,-0.124377702649,-2.6400362946,-0.0669900992919,2.11089612011,-0.88981142376,-7.6399493806e-05,0.0019423981014,-7.89842834565e-05,-0.000719302174873,-0.000335484195285,0.000446092570417,-0.00108859831272,0.573748187343,0.818999792626,0.00575361631617,0.0,0.819006908549,-0.573685134227,-0.00968490669588,0.0,-0.00463126159303,0.0102691468863,-0.999936546006,0.0,0.266521258953,-0.258682984882,0.305842571814,1.0,0.0,0.0,3.401
-0.642584249035,-0.521085693242,-0.1243631771,-2.64003907856,-0.0669848362204,2.11089333906,-0.889802777723,-0.00206852072179,-0.00117246573443,0.000111200725062,-0.000458894752294,-5.27766414931e-05,2.18979714578e-05,-0.00195498829728,0.573753483357,0.818996098443,0.00575134518532,0.0,0.819003181268,-0.573690418238,-0.00968710458729,0.0,-0.00463429846201,0.0102685777059,-0.999936537781,0.0,0.266521824155,-0.258680292193,0.305842569964,1.0,0.0,0.0,3.418
-0.642576335756,-0.521084594395,-0.124356217706,-2.64003621807,-0.0669839877622,2.11089417859,-0.88981214991,0.00023711232254,-0.0011643954318,0.000676655094152,0.000200368245256,2.04537842781e-05,5.40269622567e-05,-0.00146365615929,0.573734893093,0.819009143449,0.00574824285861,0.0,0.819016204957,-0.573671868698,-0.00968452286885,0.0,-0.00463419677974,0.0102644503665,-0.999936580628,0.0,0.266526221721,-0.258677388202,0.305843703918,1.0,0.0,0.0,3.435
-0.642573203011,-0.521084582762,-0.124351780342,-2.64003378895,-0.0669833757877,2.11089744192,-0.889810491147,0.000437106678111,0.000173407471268,-0.000819286568027,0.000812206093801,-0.000124545115992,9.99677738292e-05,0.00024532185048,0.573730912884,0.819011948376,0.00574586105425,0.0,0.819019011118,-0.573667957043,-0.00967891472665,0.0,-0.00463101959748,0.0102592595431,-0.999936648619,0.0,0.26652912622,-0.258676582956,0.305845190478,1.0,0.0,0.0,3.455
-0.642573428844,-0.521086879486,-0.124352091214,-2.64003378997,-0.0669826637109,2.11089699328,-0.889813418908,-0.00155437709719,0.00223835949159,0.000894353725989,-0.000718770700642,4.00321920096e-06,0.000232450573615,-0.000556500542454,0.573727975443,0.819014025971,0.00574302686709,0.0,0.819021033673,-0.573664975735,-0.00968446787071,0.0,-0.00463723093289,0.0102601074847,-0.999936611133,0.0,0.266528915763,-0.258677101287,0.305842781122,1.0,0.0,0.0,3.469
-0.642578715557,-0.52108429637,-0.124346662083,-2.64003353953,-0.0669783482819,2.11089890114,-0.889815064949,0.00033344447207,0.000160805919797,0.000907258458333,-0.000426245106771,2.34978310054e-05,0.000105912672507,-0.00113889157333,0.573730204317,0.819012433631,0.00574744406319,0.0,0.819019520856,-0.573667259525,-0.00967712287742,0.0,-0.00462865258929,0.0102595240961,-0.999936656864,0.0,0.266529536623,-0.258676672822,0.305845447654,1.0,0.0,0.0,3.489
-0.64258422151,-0.521087126011,-0.12435437684,-2.64003836119,-0.0669783642134,2.11089839095,-0.889813131262,-0.000466149121696,-0.000176502925133,-0.000523352373262,-0.00122771377662,8.8360967058e-05,-0.000138807916312,-0.00164776231224,0.573741520941,0.819004474887,0.0057518835403,0.0,0.819011597729,-0.573678531724,-0.00967945890621,0.0,-0.00462787715561,0.0102645644277,-0.999936608726,0.0,0.266525309415,-0.25867859271,0.305844069606,1.0,0.0,0.0,3.5
-0.642581823139,-0.521084785548,-0.124349964306,-2.64003599183,-0.0669778731505,2.11089877488,-0.889808890195,-0.000103904320754,6.26051002271e-05,0.000599457967731,-0.00117671043557,6.75840009629e-05,-0.000192067592394,0.00135445407102,0.573740232686,0.819005392207,0.00574976828961,0.0,0.819012494781,-0.573677256668,-0.00967912579377,0.0,-0.00462883403749,0.0102626335439,-0.999936624116,0.0,0.266527484995,-0.258677547976,0.305844423218,1.0,0.0,0.0,3.522
-0.642584824846,-0.521081810293,-0.12434996812,-2.64003597954,-0.066977262636,2.11089959929,-0.889818651189,-0.000414530502911,0.000962322947945,0.000757236697819,-0.00211408880755,0.000252831165134,0.000263424788748,-0.00229175187189,0.573734972816,0.81900907254,0.0057503884446,0.0,0.819016171664,-0.573671973018,-0.00968115843776,0.0,-0.00463020905446,0.0102642779217,-0.999936600872,0.0,0.266526831252,-0.258678355775,0.305843403843,1.0,0.0,0.0,3.535
-0.642587405323,-0.521087525635,-0.124354623003,-2.64003322078,-0.0669772582472,2.11089853776,-0.889814684401,-0.00139152615509,-0.00164966084481,9.40678250603e-05,-0.00139294266001,-3.18380108097e-05,-3.52818770023e-05,-0.000895667793657,0.573743737496,0.819002919761,0.00575221765041,0.0,0.819010072727,-0.573680805608,-0.0096737246723,0.0,-0.00462296090218,0.010261560712,-0.999936662296,0.0,0.266525749883,-0.258680714703,0.30584656415,1.0,0.0,0.0,3.552
-0.642584902885,-0.521084617456,-0.124352157959,-2.64003597922,-0.0669765505511,2.11089638121,-0.889810397498,-0.000888707872311,-0.000746741500274,-0.00046267141122,-0.00154449241752,0.000225366558907,0.000411650869331,0.000918789307459,0.573743639668,0.819002988075,0.00575224884885,0.0,0.819010105362,-0.57368062778,-0.00968150437203,0.0,-0.00462931640768,0.0102660491449,-0.999936586822,0.0,0.266525949429,-0.258678385142,0.305844110674,1.0,0.0,0.0,3.569
