nelsonifechukwu/NELSON_IML_WORK/CNN-GradCAM/train2dof/data_sample_2022-02-22-11-50-52/robot_state.csv
position_joint1,position_joint2,position_joint3,position_joint4,position_joint5,position_joint6,position_joint7,velocity_joint1,velocity_joint2,velocity_joint3,velocity_joint4,velocity_joint5,velocity_joint6,velocity_joint7,ee_T_00,ee_T_10,ee_T_20,ee_T_30,ee_T_01,ee_T_11,ee_T_21,ee_T_31,ee_T_02,ee_T_12,ee_T_22,ee_T_32,ee_T_03,ee_T_13,ee_T_23,ee_T_33,v_x,v_y,time
0.465067386595,0.547826501989,-0.124006635148,-1.35585045345,0.0795647590989,1.89409710059,0.159162144832,-0.00122406740069,0.00139531877749,0.00014788806489,0.000455521447909,0.000222578921283,-0.000518544210193,-0.000300477919827,0.573844151963,0.818950521068,0.00191838529015,0.0,0.818906431491,-0.573785191417,-0.0119815472112,0.0,-0.00871172098848,0.00844668147557,-0.999926377035,0.0,0.661673347915,0.26088340483,0.303174391664,1.0,0.0,0.0,0.0
0.465072677215,0.547828534076,-0.124006371465,-1.35585153492,0.0795635737022,1.89409872818,0.159162856729,0.000898591040025,0.00188626123882,-0.00111270183393,-0.00104218050395,9.54531548432e-05,0.000102512310798,-0.000750866284739,0.573839977779,0.818953450515,0.00191642737103,0.0,0.818909345572,-0.573781035941,-0.0119813785082,0.0,-0.00871274933642,0.00844493685237,-0.999926382811,0.0,0.661671996168,0.260886821001,0.303172567843,1.0,-8e-05,-0.000105142857143,0.005
0.465070416294,0.547820412921,-0.124006871359,-1.35585368367,0.0795633162658,1.89409640158,0.159164530119,-0.000273106121565,-0.00193383410627,-0.000627762354957,-0.000685199599924,-0.000135318587455,-0.000558677542233,-0.00104868179579,0.573843567621,0.81895092759,0.00191963574375,0.0,0.818906864838,-0.573784612025,-0.0119796755177,0.0,-0.00870947661141,0.00844662525028,-0.999926397061,0.0,0.66167197442,0.260884688588,0.303177112241,1.0,-0.00038,-0.000499428571429,0.02
0.465066953028,0.547819370361,-0.124004220368,-1.35586329022,0.0795615652813,1.8941015092,0.15916239711,-0.000682022651932,0.00105448512385,-0.000248651978523,-0.00253178396025,0.000107478817808,6.40825812621e-05,-0.000980368629292,0.573845821875,0.818949343562,0.00192153535463,0.0,0.818905326207,-0.573786877931,-0.0119763235437,0.0,-0.00870561814253,0.00844628138045,-0.999926433566,0.0,0.661671333861,0.260882837524,0.303179035801,1.0,-0.00072,-0.000946285714286,0.037
0.465069084038,0.54778115739,-0.124007287763,-1.35590150141,0.0795600078303,1.89410285121,0.159167838101,-0.000228517999857,0.00150667032832,0.000236991535066,-0.00145921420965,3.87060058032e-05,-0.000224750274299,0.000419186646441,0.573849368342,0.818946866616,0.00191807586758,0.0,0.818902775207,-0.573790410604,-0.0119815007163,0.0,-0.00871180665859,0.00844645688929,-0.999926378185,0.0,0.66166396556,0.260878307126,0.303182730638,1.0,-0.00104,-0.00136685714286,0.053
0.4650712465,0.5476482336,-0.124011617105,-1.3560477918,0.0795600078076,1.8941344991,0.159156549091,0.000534674944811,-0.00948538390281,-0.00256396045495,-0.00736578794953,-0.000154275728439,-0.00018702612244,-0.00173239753718,0.573849352082,0.818946827938,0.00193933672009,0.0,0.818902926268,-0.573790218957,-0.0119803539553,0.0,-0.00869866790433,0.00846320981308,-0.999926350916,0.0,0.661640687362,0.260863766747,0.303210158658,1.0,-0.00138,-0.00181371428571,0.07
0.465063038951,0.547507955445,-0.124003812649,-1.35624600166,0.0795565411423,1.89417042587,0.159161926831,4.9508222916e-05,-0.0133108349581,-8.21680431494e-06,-0.0130688237023,-0.000315080698247,0.00367856393964,0.00144553020088,0.573864927315,0.818935939072,0.00192867733527,0.0,0.818891729947,-0.57380567404,-0.0120054140244,0.0,-0.00872514699574,0.00846902702108,-0.999926070963,0.0,0.661606653725,0.260843040438,0.303218045529,1.0,-0.00172,-0.00226057142857,0.087
0.465043491648,0.547345077879,-0.124007309594,-1.35644835668,0.0795543876773,1.89428048357,0.15914853455,0.000368525786539,-0.0124676550913,8.74761410002e-05,-0.0133924650953,2.64957390852e-05,0.00986753485365,-0.00228315572926,0.5738833702,0.818922861692,0.00199271343539,0.0,0.818879466675,-0.573823822099,-0.0119744374146,0.0,-0.00866284090143,0.00850388634112,-0.999926316838,0.0,0.661592537948,0.260813340926,0.303246776742,1.0,-0.00204,-0.00268114285714,0.103
0.465019807671,0.547142405502,-0.123997370819,-1.35667842907,0.0795510735664,1.89441065828,0.159129015723,-0.00234648414847,-0.00994872199664,0.00285344529557,-0.0158132971693,0.000593990713062,0.00934701699812,-0.00222399522134,0.573892061215,0.818916533726,0.00208800506913,0.0,0.818874303754,-0.573832039232,-0.011933662638,0.0,-0.00857467452447,0.00855861272619,-0.999926609859,0.0,0.661575183038,0.260787096705,0.303291797223,1.0,-0.00238,-0.003128,0.12
0.464992177536,0.54693425449,-0.12400453433,-1.35697748106,0.0795454745863,1.89454831615,0.159116252183,-0.00201440825803,-0.00912675399639,-0.000510936366198,-0.0191567854195,-0.00316053908518,0.00708272495778,-0.00391093460664,0.573924664309,0.818893571789,0.00213182586882,0.0,0.818851877537,-0.573864423821,-0.0119152267085,0.0,-0.00853408784174,0.00858425737765,-0.999926737251,0.0,0.661548707129,0.260740352807,0.303309070003,1.0,-0.00272,-0.00357485714286,0.137
0.464951152412,0.546687003811,-0.124007321374,-1.35735870544,0.0795376615145,1.89467655663,0.159047510081,-0.0034625233965,-0.0123680271638,0.000876822740935,-0.0257166633927,-0.000973633967568,0.00515104414665,-0.00871229019453,0.573923098536,0.818894660092,0.00213530813779,0.0,0.8188528671,-0.573862699091,-0.0119302781032,0.0,-0.00854443184758,0.00859573086061,-0.99992655035,0.0,0.661505118299,0.260677032723,0.303313944589,1.0,-0.00306,-0.00402171428571,0.154
0.464920399953,0.546435056006,-0.124005185504,-1.35772932086,0.0795289111742,1.8948195276,0.158944066314,-6.81081503258e-05,-0.0140803453648,0.000742429635633,-0.0335799012504,-6.94742713582e-05,0.0168303784472,-0.00363514537402,0.573880519998,0.818924422471,0.00216470535269,0.0,0.818882882244,-0.573819874677,-0.0119299411367,0.0,-0.00852773338661,0.00861916692718,-0.999926491161,0.0,0.661463249092,0.260625533291,0.303328296366,1.0,-0.00336,-0.004416,0.169
0.464876047204,0.546147852732,-0.124004172611,-1.35821332261,0.0795178884721,1.89499403889,0.158932318219,-0.00211655128519,-0.0181007975006,0.00102978767612,-0.0287599485221,-0.000597529641858,0.0178757852409,-0.00110352417958,0.573930684228,0.818889292763,0.00215471602096,0.0,0.818847445198,-0.5738698946,-0.0119562730974,0.0,-0.00855450206563,0.00862662179768,-0.999926198222,0.0,0.66140646771,0.260553157154,0.303316403316,1.0,-0.0037,-0.00486285714286,0.186
0.464819031564,0.545836601218,-0.124004978386,-1.35874165362,0.0794930271824,1.89516694113,0.158871690429,-0.0024919516135,-0.0214577591929,0.000620435624331,-0.0289133839907,0.000390249133748,0.0158454075916,-0.00227485270577,0.573949974291,0.818875903953,0.00210424285327,0.0,0.818833278438,-0.573889271288,-0.0119963879319,0.0,-0.00861611650115,0.00860851635988,-0.99992582524,0.0,0.661338300344,0.260458453708,0.303289320924,1.0,-0.00404,-0.00530971428571,0.203
0.464756812907,0.545472848333,-0.124010514734,-1.35938322969,0.0794149536742,1.89538255788,0.158754291967,-0.00413119427576,-0.0283431676059,-0.000625088165058,-0.0465098771833,-0.00819644258054,0.00912978141366,-0.00221222713228,0.573924874165,0.818893648086,0.00204422118777,0.0,0.818850598453,-0.57386478266,-0.0119856387534,0.0,-0.00864202328151,0.00855293262677,-0.999926078656,0.0,0.661271310308,0.260350302448,0.303271239855,1.0,-0.00436,-0.00573028571429,0.219
0.464692540291,0.545075715004,-0.124010573185,-1.36007427317,0.0793664769201,1.89560108906,0.158712692339,-0.01056946994,-0.0234594962319,0.00016369190113,-0.0411027208453,-0.000683186081273,0.0134356605522,-0.00429360294174,0.573969009614,0.818862882121,0.00197564893155,0.0,0.818818939452,-0.573909204788,-0.0120214789671,0.0,-0.00871026750678,0.00851781913412,-0.999925786245,0.0,0.661185987118,0.260237925588,0.303242349543,1.0,-0.0047,-0.00617714285714,0.236
0.464627666435,0.544643157007,-0.124010923958,-1.36079014923,0.0793457068301,1.89585406384,0.15859380808,-0.00750968149605,-0.0291035912399,-0.000421219165236,-0.0385624318583,-0.00433115671751,0.0158035109903,-0.00521307727439,0.573959428669,0.818869630783,0.00196186753578,0.0,0.818825274522,-0.573899456183,-0.0120553265333,0.0,-0.00874599446289,0.00852585920225,-0.999925405871,0.0,0.661101352616,0.260129335313,0.303229728453,1.0,-0.00504,-0.006624,0.253
0.464568832779,0.544171903146,-0.124016453358,-1.36157432518,0.0793173042446,1.89614193706,0.158502901055,-0.00574201036824,-0.0304747229184,-0.00213723630677,-0.0476871192829,-0.000727886108147,0.00965556570906,-0.00395160824185,0.573973259815,0.818859968343,0.00194837473685,0.0,0.818815275554,-0.573913188204,-0.0120807212392,0.0,-0.00877438998861,0.00852953416757,-0.999925125761,0.0,0.661008936254,0.260015275155,0.303215129898,1.0,-0.00538,-0.00707085714286,0.27
0.464487634053,0.543635806718,-0.124017204021,-1.36244921078,0.0792756577521,1.89644628394,0.158410438271,-0.00787943954785,-0.0285040539565,-0.000180991635769,-0.0487076428125,-0.00647338208881,0.0176180472545,-0.00143747232908,0.574002138298,0.818839781845,0.00192452547115,0.0,0.818794640194,-0.57394203466,-0.012108878588,0.0,-0.00881083507257,0.00852647750369,-0.999924831358,0.0,0.660905977982,0.259878263216,0.303204434114,1.0,-0.00574,-0.007544,0.288
0.46441520599,0.543115125722,-0.124020024457,-1.36326576065,0.0792305308429,1.89673667815,0.158290942702,-0.00539456416634,-0.0304453982939,-0.000512172636243,-0.0543605904863,-0.00458397606261,0.0207885921959,-0.00567490811655,0.573998939438,0.818842030786,0.00192172929939,0.0,0.818796802528,-0.573938800134,-0.0121159718031,0.0,-0.00881828172715,0.00852822496565,-0.999924750812,0.0,0.660811533078,0.259751073609,0.303209380511,1.0,-0.00606,-0.00796457142857,0.304
0.464349074143,0.542523858479,-0.124017923457,-1.36416975453,0.0791733553204,1.89705836227,0.158165226339,-0.00544056500823,-0.0341915515451,0.000933724218746,-0.0506751668957,-0.00130972833068,0.0234486225632,-0.00611962453547,0.573983609272,0.818852759595,0.00192906510557,0.0,0.81880761422,-0.573923426884,-0.0121135407692,0.0,-0.00881224029422,0.00853267132892,-0.99992476614,0.0,0.660702826503,0.25962162643,0.303225100072,1.0,-0.0064,-0.00841142857143,0.321
0.464263369552,0.541963853489,-0.124023318677,-1.36505353404,0.0791250497089,1.89739111078,0.158061608606,-0.00752032413901,-0.0381005263673,-0.00158173653402,-0.058789977753,-0.00312584550403,0.0212639164132,-0.00541916712709,0.57400900825,0.818834935922,0.00193728238352,0.0,0.818789880332,-0.573948769303,-0.0121115227201,0.0,-0.00880560662586,0.00853851474881,-0.999924774699,0.0,0.66060632634,0.259479080874,0.303229484561,1.0,-0.00672,-0.008832,0.337
0.464179133929,0.541310549227,-0.124018743493,-1.36605095162,0.0790651008399,1.89776696717,0.157917893223,-0.0025072341285,-0.0413177666091,0.000550313662126,-0.0623649664999,-0.00100578740199,0.019975440298,-0.00966092614219,0.573996493376,0.818843641546,0.00196550063226,0.0,0.818798931208,-0.573936109062,-0.012099581328,0.0,-0.00877976248816,0.00855463177372,-0.9999248642,0.0,0.660492501324,0.259332074951,0.303249063872,1.0,-0.00706,-0.00927885714286,0.354
0.464091526424,0.540618048257,-0.12402625192,-1.36711531684,0.0790082268869,1.89815124077,0.157789622354,-0.00610502411581,-0.0383218649774,5.05396903927e-05,-0.063371200005,-0.00841359977355,0.0234534636332,-0.00906059402131,0.574012217671,0.818832587522,0.00197850391518,0.0,0.818787996286,-0.573951724856,-0.0120988253126,0.0,-0.00877151558083,0.00856501370832,-0.999924847703,0.0,0.660369215107,0.259169479848,0.303265524683,1.0,-0.0074,-0.00972571428571,0.371
0.463984839381,0.539889119847,-0.124023707883,-1.36821854545,0.0789406453703,1.89857540548,0.15764700243,-0.00441889509104,-0.0380147633105,-0.000742731846782,-0.0611411461684,-0.00194557520357,0.0279905162771,-0.0103410800085,0.574024126274,0.818824136498,0.00202060512545,0.0,0.818780110165,-0.573963463363,-0.0120756293241,0.0,-0.00872823128358,0.00858629917206,-0.999925043913,0.0,0.660248906571,0.258996966554,0.303292233431,1.0,-0.00774,-0.0101725714286,0.388
0.463885606946,0.539172205479,-0.124027597921,-1.36932551775,0.0788735132856,1.89898681584,0.157513597543,-0.00769897986707,-0.0409240754424,0.000877163810698,-0.0676047464811,-0.00425302492102,0.0214463458461,-0.00793574291126,0.574042157028,0.818811454623,0.00203731046507,0.0,0.818767663778,-0.573981436801,-0.0120652335169,0.0,-0.00870994071177,0.00859420206802,-0.999925135509,0.0,0.660124165497,0.258824260382,0.303307662249,1.0,-0.00806,-0.0105931428571,0.404
0.463775779002,0.538399768031,-0.124036058389,-1.37051988858,0.0788084875822,1.89945771202,0.157371769583,-0.00346453716696,-0.0517432426065,-0.000578780858013,-0.0707840621209,-0.00963231279744,0.0376979908873,-0.0116547129144,0.574070681456,0.818791350839,0.00207927518135,0.0,0.81874812106,-0.574009791039,-0.0120424645919,0.0,-0.00866690840315,0.00861579438334,-0.999925323605,0.0,0.659995975057,0.258636645463,0.303325917018,1.0,-0.0084,-0.01104,0.421
0.463660194868,0.537608757451,-0.124044837793,-1.37176979934,0.0787353059428,1.89992386961,0.157219427502,-0.0104334467613,-0.0498979642323,5.75657532631e-05,-0.0786407051794,-0.00699486747998,0.0285831728021,-0.0101784382541,0.57409616467,0.818773472395,0.00208363026713,0.0,0.818730314899,-0.574035267858,-0.0120386719682,0.0,-0.00866103474368,0.00861745258207,-0.999925360209,0.0,0.659856207771,0.258437072856,0.303330309205,1.0,-0.00874,-0.0114868571429,0.438
0.463546043214,0.536774356523,-0.124048833065,-1.37306175428,0.0786559842118,1.90040827643,0.157060597585,-0.00546247043593,-0.0534645603336,-0.000283259906585,-0.0737962865336,-0.00337716353538,0.030570509988,-0.00858951989317,0.574112344092,0.818762075049,0.00210421556443,0.0,0.818719216417,-0.574051388171,-0.0120247789705,0.0,-0.0086376714181,0.00862650184695,-0.999925484273,0.0,0.659710073227,0.258237064723,0.303346593358,1.0,-0.00908,-0.0119337142857,0.455
0.463431449557,0.535919600721,-0.124060864005,-1.37440905524,0.0785821393965,1.90090941997,0.156887922708,-0.00480856642003,-0.0516539616268,-0.00137830439804,-0.0813555663602,-0.00321160883964,0.0330260986385,-0.0148250166829,0.574127614848,0.818751347024,0.00211199353586,0.0,0.818708569643,-0.574066603953,-0.0120232740859,0.0,-0.00863181308589,0.00863216707639,-0.999925485971,0.0,0.6595563133,0.258027829479,0.303352478579,1.0,-0.00942,-0.0123805714286,0.472
0.463324795648,0.535066283459,-0.124062437185,-1.37573212332,0.0785166894769,1.90139420429,0.156730767268,-0.00445791364771,-0.0570639789339,0.000357578891426,-0.0860423671104,0.000268589003632,0.0300269034845,-0.0111015680835,0.574142473376,0.81874087527,0.00213221234694,0.0,0.818698219361,-0.574081232781,-0.0120295754724,0.0,-0.00862520812073,0.00865249525449,-0.99992536727,0.0,0.659399663734,0.257833023216,0.303366965316,1.0,-0.00974,-0.0128011428571,0.488
0.463200464597,0.53417175491,-0.124064841348,-1.37720536269,0.0784241138194,1.90192729248,0.156549188771,-0.00892360072601,-0.0530982904852,0.000507425514348,-0.0864987254714,-0.00429412652159,0.0267267948228,-0.0098018267319,0.574153234189,0.818733439456,0.00208942270456,0.0,0.818690223322,-0.574092171865,-0.0120516945539,0.0,-0.00866777099641,0.00863027550572,-0.999925191247,0.0,0.659224732555,0.257607706395,0.303343084499,1.0,-0.01008,-0.013248,0.505
0.46307460133,0.533254292182,-0.124062750859,-1.37869669042,0.0783426169196,1.90247990871,0.156369127586,-0.00640874963088,-0.0563373547287,0.00256172758365,-0.0891491600451,-0.00307821753004,0.0328406530177,-0.0090683493895,0.57416723383,0.818723658571,0.00207494405068,0.0,0.818680140404,-0.574106119347,-0.0120722134911,0.0,-0.00869273608176,0.00863035107411,-0.999924973875,0.0,0.659048470621,0.25738527336,0.303328155967,1.0,-0.01042,-0.0136948571429,0.522
0.462947338712,0.532308000578,-0.124065256547,-1.38025370889,0.0782551710859,1.90305815448,0.156174348576,-0.0104419637441,-0.0534625955888,-9.67644333777e-05,-0.0896529611539,-0.00744089091806,0.0377910506213,-0.00987468168401,0.574175429517,0.818717977863,0.00204835653896,0.0,0.818674036435,-0.5741143535,-0.0120945472559,0.0,-0.00872620038885,0.00862149417178,-0.999924758802,0.0,0.658864115514,0.257152626087,0.303304472781,1.0,-0.01076,-0.0141417142857,0.539
0.462812502437,0.531312972808,-0.124064785804,-1.38184365861,0.0781598062676,1.90364154922,0.155967026257,-0.00602157096761,-0.0568689443229,0.00311334950429,-0.0948588430148,-0.00354431331268,0.0360938277368,-0.016538301298,0.57417683397,0.818717018118,0.00203825334786,0.0,0.818672901784,-0.574115759332,-0.0121046136745,0.0,-0.00874022812103,0.00861901748172,-0.999924657637,0.0,0.658675672026,0.256912553747,0.303299583748,1.0,-0.0111,-0.0145885714286,0.556
0.462686053385,0.530351986613,-0.124065144797,-1.38339797324,0.0780662676771,1.90418005815,0.155768080887,-0.00605802451607,-0.0620421788848,0.00114828251455,-0.0963161746867,-0.0113387166831,0.0370453913792,-0.0118035801371,0.574176980811,0.818717029076,0.00199196108122,0.0,0.818672219237,-0.574116022379,-0.0121382535692,0.0,-0.00879434744607,0.00860043457068,-0.999924343127,0.0,0.658483183165,0.256678597717,0.303283592285,1.0,-0.01142,-0.0150091428571,0.572
0.462545267926,0.52929365248,-0.124068452339,-1.38504612578,0.0779637313107,1.90479071772,0.155541450172,-0.0149994889773,-0.0655465695488,0.000373220512901,-0.0969736206033,-0.00686593296848,0.035845718807,-0.00917439287233,0.574170963354,0.818721212041,0.00200716112067,0.0,0.818676622265,-0.574109959577,-0.0121280407784,0.0,-0.00877732204659,0.00860695045442,-0.999924436656,0.0,0.658290152576,0.256427083035,0.303297613737,1.0,-0.01176,-0.015456,0.589
0.462408089155,0.528208509375,-0.12407195847,-1.38674767888,0.0778565093144,1.90545275047,0.155305741308,-0.00543727183689,-0.0618783232122,-0.000924467431053,-0.104938189374,-0.00855514091667,0.0360177266067,-0.0169433778212,0.574156364965,0.818731365886,0.0020410745361,0.0,0.818687299992,-0.574095294049,-0.012101449606,0.0,-0.00873623327872,0.00861929206572,-0.99992469018,0.0,0.658094486962,0.256174578743,0.303309307206,1.0,-0.0121,-0.0159028571429,0.606
0.462254446295,0.527062083124,-0.12407065745,-1.38850870542,0.077754515635,1.90612090872,0.155057124658,-0.0145311492784,-0.0730899725113,-0.000259564613331,-0.108418229677,-0.00933320653676,0.0439275978966,-0.0152854126789,0.574145577225,0.818738809612,0.00208918397638,0.0,0.818695328427,-0.574084256214,-0.0120819236871,0.0,-0.00869273955041,0.00864735469938,-0.999924826942,0.0,0.65789004489,0.255909075604,0.30333592842,1.0,-0.01244,-0.0163497142857,0.623
0.462109754244,0.525959426325,-0.124072827307,-1.39021958546,0.0776400055174,1.90675025086,0.154827969977,-0.00926560189048,-0.0725464064507,-9.81157784367e-05,-0.108749586981,-0.0027790353567,0.035206683078,-0.014808758177,0.574139350029,0.818743146985,0.00210069390508,0.0,0.818699896797,-0.574078060791,-0.0120667312639,0.0,-0.00867375824224,0.00864798962875,-0.999924986283,0.0,0.657687110943,0.255648224875,0.30335205406,1.0,-0.01276,-0.0167702857143,0.639
0.4619490034,0.524793943413,-0.124077304967,-1.39206038862,0.0775225910494,1.9074095181,0.154582455936,-0.00850593606884,-0.0698433812829,8.04995934459e-05,-0.109090233158,-0.0100788104915,0.0418167163509,-0.0145513186932,0.574134977435,0.81874625149,0.002085727165,0.0,0.818702803204,-0.574073750258,-0.0120746093895,0.0,-0.00868884724751,0.00864021261697,-0.999924922511,0.0,0.657451044904,0.255347262895,0.303355810033,1.0,-0.01312,-0.0172434285714,0.657
0.461774212207,0.523445713642,-0.124084732316,-1.39420177889,0.0773955842186,1.90818765808,0.154295381033,-0.00556009109129,-0.0715979886569,0.000794172772256,-0.114356389495,-0.00305858777717,0.0381736505907,-0.010429429648,0.574134492917,0.818746632071,0.00206964170535,0.0,0.818702937565,-0.574073299194,-0.0120869382535,0.0,-0.00870818160468,0.00863411614248,-0.999924806979,0.0,0.657205938649,0.255039042639,0.303349339538,1.0,-0.01348,-0.0177165714286,0.675
0.461631262402,0.522371990014,-0.124086676892,-1.3959165601,0.0772892817826,1.90885543738,0.154063934273,-0.0114007650745,-0.0746453984426,0.000465472754818,-0.11263249036,-0.00633097426939,0.0344209622408,-0.0174765642526,0.574126879855,0.818751923222,0.00208828863934,0.0,0.818708521379,-0.574065655638,-0.0120717413747,0.0,-0.00868511389567,0.00864057727191,-0.999924951794,0.0,0.657006359232,0.254782631066,0.303345755463,1.0,-0.01378,-0.0181108571429,0.69
0.461470939797,0.521112656334,-0.124093330252,-1.39791539961,0.0771743449003,1.90962439124,0.153784079838,-0.00548433550123,-0.0783272531409,-0.000301445352735,-0.121497067524,-0.00400392051191,0.0438198063097,-0.0116319751844,0.5741098462,0.818763803203,0.00211328223027,0.0,0.818720710255,-0.574048499848,-0.0120609005943,0.0,-0.00866206911829,0.00865463634234,-0.999925030104,0.0,0.656770296048,0.2544862772,0.303346021543,1.0,-0.01412,-0.0185577142857,0.707
0.461286377124,0.519753150501,-0.12409618809,-1.4000656967,0.077031362109,1.91041242339,0.153487501869,-0.0135934957538,-0.0745557369612,-0.000587114938228,-0.117190821991,-0.00611061237993,0.0396103675403,-0.0187545144938,0.574096079842,0.818773482227,0.00210304848334,0.0,0.818730330074,-0.574034853169,-0.0120573988068,0.0,-0.0086652221127,0.00864410139275,-0.999925093913,0.0,0.656511014634,0.25415642415,0.303345661486,1.0,-0.01448,-0.0190308571429,0.725
0.461110265027,0.51838923586,-0.124096158278,-1.40214929083,0.0768912865482,1.91115712472,0.153215067247,-0.0132382329263,-0.0800847051356,0.000654653683521,-0.121829000013,-0.00549975946666,0.041743232733,-0.0190661306753,0.574089777952,0.818777861005,0.00211850917708,0.0,0.818734965515,-0.574028541128,-0.0120431355712,0.0,-0.0086447344884,0.00864850507447,-0.999925233168,0.0,0.656255221295,0.25383938979,0.30337582071,1.0,-0.01482,-0.0194777142857,0.742
0.46095203773,0.517201041639,-0.124102489704,-1.40404505098,0.0767658598188,1.91183240732,0.152948278225,-0.0155361819037,-0.0827298201077,-9.9602161659e-05,-0.123723962147,-0.00957159278284,0.043447028701,-0.0189603034233,0.574071795517,0.818790557041,0.00208427310526,0.0,0.81874725674,-0.574010748655,-0.0120555759523,0.0,-0.00867476359993,0.0086274251248,-0.999925155205,0.0,0.656020797433,0.253548071014,0.303365948781,1.0,-0.01512,-0.019872,0.757
0.460768691274,0.515833197319,-0.124105688319,-1.40620850915,0.0766367309545,1.91265487787,0.152652121444,-0.00910313919493,-0.0788768736655,0.000289760767923,-0.128134164329,-0.00780855506535,0.0489253625643,-0.0193393677307,0.57406140779,0.818797784189,0.00210608517842,0.0,0.818754754168,-0.57400025492,-0.0120460275823,0.0,-0.00865453388997,0.00863969314556,-0.999925224577,0.0,0.655762221485,0.253222057405,0.303367000231,1.0,-0.01546,-0.0203188571429,0.774
0.460585345675,0.514435605354,-0.124105671184,-1.40842271268,0.0765046283553,1.91346544733,0.15233939859,-0.00543498869613,-0.0828166605615,0.000115634020776,-0.136520868316,-0.00855188912213,0.0505196957147,-0.0235268461762,0.574036490384,0.818815263309,0.00210218471446,0.0,0.818772099239,-0.573975274342,-0.0120573982697,0.0,-0.00866634654482,0.00864276317751,-0.999925095736,0.0,0.655488602566,0.252891094068,0.303363191141,1.0,-0.0158,-0.0207657142857,0.791
0.460385098571,0.513030742439,-0.12410645377,-1.41070514598,0.0763560080224,1.91425019646,0.152034646912,-0.00927634728475,-0.0831900924159,0.000890078579165,-0.133875869829,-0.0076761205189,0.043717692216,-0.0195431936571,0.574030852013,0.818819426497,0.00201857121275,0.0,0.818775111606,-0.573969939512,-0.0121066944969,0.0,-0.00875476600422,0.00860253765264,-0.999924672372,0.0,0.655198246801,0.252536315932,0.303329367678,1.0,-0.01614,-0.0212125714286,0.808
0.460202146634,0.511691791381,-0.124115543371,-1.4128613898,0.0762318694246,1.91503889977,0.1517267225,-0.0101586487545,-0.0879993165735,-0.00167874998168,-0.139655702483,-0.00758769183443,0.0512023618496,-0.0188621973341,0.57401451796,0.818830933939,0.00199541876401,0.0,0.818786227398,-0.573953621801,-0.0121285096616,0.0,-0.00878609022634,0.00859592752707,-0.999924454471,0.0,0.65493233655,0.252206328471,0.303309634055,1.0,-0.01646,-0.0216331428571,0.824
0.460001491205,0.51022044993,-0.124110706552,-1.41517768288,0.0760900157082,1.9159215492,0.151399795955,-0.011878495506,-0.0818596340906,0.00146768180193,-0.135097876713,-0.00203820620218,0.0479306820004,-0.021402649336,0.573990515065,0.818847682809,0.00202678927933,0.0,0.818803361529,-0.573929459913,-0.0121151597121,0.0,-0.00875740498784,0.00861369447858,-0.999924553217,0.0,0.654651947157,0.251859180618,0.30331363331,1.0,-0.0168,-0.02208,0.841
0.459783614715,0.508707795694,-0.124116053591,-1.41755029326,0.0759371672112,1.91677181008,0.151068518816,-0.0164674065357,-0.0927078060491,0.000786707867857,-0.1377962567,-0.00619804242011,0.0418534854899,-0.0181185778014,0.573983409095,0.818852695807,0.00201384102651,0.0,0.818808213519,-0.573922419665,-0.0121207500036,0.0,-0.00876948914073,0.00860622467757,-0.999924511629,0.0,0.654358986711,0.25148486632,0.303316725253,1.0,-0.01714,-0.0225268571429,0.858
0.459596934132,0.507273523366,-0.124119248423,-1.41981054258,0.0757933366767,1.91758443089,0.150762251808,-0.0152287562738,-0.096551004011,-0.00130673393576,-0.14905521104,-0.00345339074052,0.0560667529813,-0.023631148644,0.573964434885,0.818866006638,0.00200936824387,0.0,0.818821472083,-0.573903473588,-0.0121221599296,0.0,-0.00877341019387,0.00860316817465,-0.999924503536,0.0,0.654058493404,0.251118825174,0.303322151487,1.0,-0.01748,-0.0229737142857,0.875
0.459363406273,0.505611259919,-0.124130530796,-1.42240608253,0.0756261691121,1.91857060586,0.150405378669,-0.0168783102214,-0.0922551587316,-0.00142406788789,-0.144098423037,-0.0105690430152,0.0600280426217,-0.0187678399533,0.573962150776,0.818867543191,0.00203545724459,0.0,0.818823448582,-0.57390117307,-0.0120975411484,0.0,-0.00873830073783,0.00861037663354,-0.999924748926,0.0,0.653762351081,0.250738005387,0.303327150301,1.0,-0.01782,-0.0234205714286,0.892
0.459151800316,0.503958589264,-0.124133766609,-1.42488257548,0.0754783942576,1.91952232827,0.150060623828,-0.00475062385236,-0.0996024254182,-0.00133452385708,-0.146877752874,-0.0065361235923,0.0486989815258,-0.023335703209,0.573943282357,0.818880486784,0.00214567048718,0.0,0.818837839522,-0.573881842697,-0.0120403525648,0.0,-0.00862841456001,0.00866760253602,-0.999925208767,0.0,0.65346311731,0.250366387264,0.303385644717,1.0,-0.01816,-0.0238674285714,0.909
0.458928431136,0.50237571444,-0.124134457307,-1.42721854998,0.0753300879983,1.92039253325,0.149730050095,-0.0142681002914,-0.103743855515,-0.000339445876273,-0.152092753318,-0.00509997621219,0.0501009404857,-0.0234463778056,0.573935655887,0.81888556782,0.00224424116199,0.0,0.818844246593,-0.573873847166,-0.0119855855953,0.0,-0.00852707592889,0.00871680671883,-0.999925650364,0.0,0.653180902744,0.249998862549,0.303454459013,1.0,-0.01848,-0.024288,0.925
0.458702470585,0.500662813198,-0.124135146615,-1.42980530155,0.0751621564512,1.92129349674,0.149375608909,-0.0117763182223,-0.0997278638517,-0.000591195265994,-0.155840017835,-0.0105079570141,0.0534329289621,-0.0174149541245,0.573917270282,0.818898393967,0.00226586209771,0.0,0.818857318597,-0.573855338358,-0.0119787027314,0.0,-0.00850922719683,0.00873037022147,-0.999925684083,0.0,0.652848507149,0.249600746318,0.303496761525,1.0,-0.01882,-0.0247348571429,0.942
0.458454769693,0.49896159013,-0.124135181748,-1.43242882966,0.0749933833003,1.92225435233,0.148999489905,-0.0151868706814,-0.0986995648911,-0.000549539378195,-0.155069107361,-0.0100577549624,0.0569655819245,-0.0283958066225,0.573900018375,0.818910402418,0.00229534807843,0.0,0.818869719677,-0.573837977044,-0.0119626585129,0.0,-0.0084793508526,0.00874512934873,-0.999925808909,0.0,0.652523060615,0.249188270058,0.303517988204,1.0,-0.01916,-0.0251817142857,0.959
0.458205829023,0.497374663708,-0.124134515316,-1.43491438963,0.0748414058827,1.92317246682,0.148632860814,-0.0120386251331,-0.105308944725,0.000576321139507,-0.156378618538,-0.0114505295463,0.0568257693896,-0.0251717977457,0.57388833085,0.818918544733,0.00231251097728,0.0,0.81887802382,-0.573826157578,-0.0119611824434,0.0,-0.0084684178747,0.0087582160694,-0.999925787021,0.0,0.652217493272,0.248790151789,0.303520896874,1.0,-0.01948,-0.0256022857143,0.975
0.457911992254,0.495510611393,-0.12413848962,-1.43792472189,0.0746508429378,1.92421302894,0.148185601635,-0.0102123449666,-0.0986418220205,-0.00171877725246,-0.157857576256,-0.0129307809331,0.0509880859166,-0.027653843457,0.573865853182,0.818934550792,0.00222057947802,0.0,0.818892697859,-0.573803923857,-0.0120230304445,0.0,-0.00857206285723,0.00871819079559,-0.99992525365,0.0,0.651829635831,0.248303845415,0.303477360516,1.0,-0.01986,-0.0261017142857,0.994
0.457658507201,0.493986886087,-0.124149442463,-1.44039459774,0.0745069666584,1.92509547296,0.147839112018,-0.0147543309937,-0.111981740775,-0.00525440129358,-0.177671142649,-0.0111874869621,0.0650983114983,-0.0274769047089,0.573883182451,0.818922547237,0.00216827776401,0.0,0.818879870916,-0.573821328592,-0.0120659340273,0.0,-0.00863702769066,0.00870016313942,-0.999924851633,0.0,0.651519958932,0.247896185471,0.303439877186,1.0,-0.0265811428571,-0.0349352163265,1.009
0.457331204679,0.491229735107,-0.124242629486,-1.44449955351,0.07428216414,1.92664597315,0.147240678105,-0.0219593864629,-0.183297762488,-0.00656276670114,-0.269850537214,-0.0156326754675,0.103436455473,-0.035106431021,0.573873985099,0.818928528117,0.00233708436722,0.0,0.818888237139,-0.573811620762,-0.0119593417573,0.0,-0.0084529627197,0.00877713499802,-0.999925751905,0.0,0.651018450303,0.247246843561,0.303541834927,1.0,-0.0406085714286,-0.0533712653061,1.026
0.456781836139,0.487186497113,-0.124274931122,-1.45095172813,0.0739395396397,1.92910884549,0.146259843986,-0.0376096269789,-0.251550931005,-0.00400674711468,-0.407162930955,-0.0278355732596,0.151487287146,-0.0613354287017,0.573774516715,0.818998036638,0.00240142735543,0.0,0.818958193161,-0.573711497767,-0.0119725555066,0.0,-0.00842793523247,0.00883638598547,-0.999925441316,0.0,0.650204300823,0.246270493472,0.303496174472,1.0,-0.0554611428571,-0.0728917877551,1.044
0.456029452742,0.482107861145,-0.124421179755,-1.45898726771,0.0734544599736,1.93202907463,0.145024922096,-0.0460018769575,-0.321895556009,-0.0139073687397,-0.520651721176,-0.0357667857419,0.18361919262,-0.084004516548,0.573750283656,0.81901517296,0.00234635198421,0.0,0.818974857803,-0.573687747163,-0.0119707118693,0.0,-0.00845828411639,0.0087899718474,-0.999925594144,0.0,0.649195489792,0.244930649231,0.303454265995,1.0,-0.0694885714286,-0.0913278367347,1.061
0.454971478157,0.475389198368,-0.124590926641,-1.46960930731,0.0728164595148,1.93570717528,0.143482791328,-0.0678357714224,-0.403578809204,-0.00619825181477,-0.636943798371,-0.0384998869384,0.217086147017,-0.0915644163276,0.573820299517,0.81896668373,0.00214049148187,0.0,0.818923539802,-0.573758467216,-0.0120914911,0.0,-0.00867457026813,0.00869140924241,-0.999924602776,0.0,0.647818165007,0.243122866934,0.303376806941,1.0,-0.0843411428571,-0.110848359184,1.079
0.453845685908,0.468304425754,-0.124724637621,-1.48050156087,0.0722009692768,1.9396709316,0.141838567115,-0.0780812034607,-0.476864943425,-0.00575815865359,-0.700346096784,-0.0408465075545,0.275330879253,-0.110841924257,0.573849543742,0.818945794348,0.0022877868089,0.0,0.818904246164,-0.573786750874,-0.0120559958745,0.0,-0.00856067017778,0.00879197533684,-0.999924705213,0.0,0.646427760659,0.241290021284,0.303436061502,1.0,-0.0975434285714,-0.128199934694,1.095
0.452537447477,0.460300119563,-0.124826500358,-1.49284680074,0.0714280608718,1.9441544626,0.139855042598,-0.0899135006437,-0.521744010139,-0.00105196670529,-0.791471557944,-0.049517600587,0.284318237724,-0.11672916512,0.573742183952,0.819020696897,0.0023981888343,0.0,0.818980576284,-0.573678936191,-0.0120016974301,0.0,-0.0084540109398,0.00885012056046,-0.999925099728,0.0,0.644824695355,0.239211871901,0.303469012657,1.0,-0.110745714286,-0.145551510204,1.111
0.45075094027,0.450049017446,-0.125006938125,-1.50857605268,0.0703893874745,1.94962683873,0.137410322116,-0.103550302638,-0.597528697734,-0.0133489775501,-0.879367077554,-0.0624127931303,0.320364809273,-0.140591964573,0.573774338805,0.818998294942,0.00235540063915,0.0,0.818957809979,-0.573711463276,-0.0120003867352,0.0,-0.00847713913868,0.00881465742292,-0.999925217167,0.0,0.64273848644,0.236440124035,0.303505485064,1.0,-0.125598285714,-0.165072032653,1.129
0.449194648243,0.441274390202,-0.125113200198,-1.52197911025,0.0695017291884,1.95436817785,0.135339778884,-0.116430132691,-0.647453493494,-0.00222178241537,-0.996427437018,-0.0623456529857,0.351053788439,-0.156781429917,0.573793929251,0.818984452544,0.00239586053343,0.0,0.818944516129,-0.573730908884,-0.0119779211414,0.0,-0.00843531435312,0.00883510538439,-0.999925390409,0.0,0.640799273156,0.233914982216,0.303531267242,1.0,-0.137975428571,-0.181339134694,1.144
0.447066712184,0.429590705107,-0.125253436416,-1.53961184233,0.0683394424407,1.96046606928,0.13245525307,-0.128184973947,-0.700445598554,-0.00599500001259,-1.06142970697,-0.0656578952643,0.364040112221,-0.170306265813,0.573726852907,0.81903099411,0.00254476760379,0.0,0.818992787795,-0.573663026784,-0.011928627008,0.0,-0.00831023614845,0.00892809184033,-0.999925611809,0.0,0.638520154041,0.230962723532,0.303660709659,1.0,-0.151177714286,-0.198690710204,1.16
0.444479424792,0.416261334136,-0.125428926223,-1.55964126538,0.0669289851872,1.96745096081,0.129127816843,-0.154926616542,-0.765622179677,-0.0122110303332,-1.12611896224,-0.0791663822934,0.410578166625,-0.191190062919,0.57370796494,0.819043636026,0.00272766384089,0.0,0.819008328265,-0.573644019915,-0.0117746995058,0.0,-0.00807944019998,0.00898939136732,-0.999926954077,0.0,0.635763242225,0.227290702168,0.303791366817,1.0,-0.166030285714,-0.218211232653,1.178
0.441727198631,0.402731739087,-0.125574106716,-1.58002486044,0.0655042412395,1.97448407261,0.125697097113,-0.174815733308,-0.826477686142,-0.00973377099939,-1.22249716919,-0.081283462089,0.414107917181,-0.215454671144,0.573696650301,0.819051165254,0.00284412205969,0.0,0.819017378718,-0.573632301813,-0.0117159112219,0.0,-0.00796460379791,0.00905093867595,-0.999927320157,0.0,0.632886135873,0.223511883065,0.303848517412,1.0,-0.180057714286,-0.236647281633,1.195
0.438646175595,0.388208024586,-0.125752327472,-1.60155800173,0.0639675912086,1.98189322647,0.121997960701,-0.190820396066,-0.850974343759,-0.0109214650932,-1.30802746082,-0.105343977036,0.436914029684,-0.229386591356,0.573738560053,0.819020732866,0.00313858967011,0.0,0.818991037238,-0.573673549083,-0.0115363298567,0.0,-0.00764811470853,0.00918949101582,-0.999928527244,0.0,0.629811802003,0.219413591888,0.304012016617,1.0,-0.194085142857,-0.255083330612,1.212
0.435689639845,0.374717414328,-0.125894132793,-1.62163645828,0.0624485397323,1.98856196921,0.118361834817,-0.2011408408,-0.917254716268,-0.00537839864806,-1.35468403331,-0.104125244968,0.460353256619,-0.250357342812,0.573611979302,0.819109362271,0.00314590900538,0.0,0.819079979608,-0.573547224726,-0.011502822102,0.0,-0.00761788856493,0.00917508428624,-0.999928890273,0.0,0.626835986801,0.215547593998,0.304061053808,1.0,-0.206462285714,-0.271350432653,1.227
0.431479259898,0.356731340247,-0.126100594947,-1.64826765716,0.0604067969142,1.99733976464,0.113581235147,-0.225857556378,-0.964004182971,-0.0103629400643,-1.42563388646,-0.115256149014,0.449950168916,-0.255776844001,0.573669776454,0.81906876285,0.00317745304329,0.0,0.819040054183,-0.573605239946,-0.0114527399372,0.0,-0.00755812333359,0.00917272867576,-0.999929365416,0.0,0.622830051403,0.210257272683,0.304110626135,1.0,-0.22214,-0.291955428571,1.246
0.427730817964,0.341788454994,-0.126331099642,-1.67025463735,0.0587445613015,2.00447959436,0.10940793243,-0.258841354788,-1.02431980387,-0.0165378178453,-1.48855049143,-0.121166662909,0.494102655678,-0.282887573856,0.573765668093,0.819001434846,0.00321787804595,0.0,0.818973123532,-0.573700845531,-0.011450313105,0.0,-0.00753186851847,0.00920532941412,-0.999929263932,0.0,0.619471624577,0.205717223846,0.304142335481,1.0,-0.234517142857,-0.308222530612,1.261
0.423239797773,0.32422287824,-0.126490516804,-1.69603213019,0.0567001331939,2.01276891425,0.104404898153,-0.267196657939,-1.0660094986,-0.0101603591148,-1.5524890551,-0.148654809984,0.517857962373,-0.300554923908,0.573697380726,0.819049251067,0.00322282127256,0.0,0.819020885972,-0.573632408507,-0.0114627724797,0.0,-0.00754000565435,0.00921589791603,-0.999929105257,0.0,0.615404988227,0.200425935243,0.304126567312,1.0,-0.248544571429,-0.326658579592,1.278
0.4183733393,0.305800963667,-0.126665585011,-1.72267955557,0.0545271318367,2.02113347419,0.0990380737737,-0.297235328958,-1.12508141987,-0.015592157576,-1.60475671594,-0.138353508078,0.51842979451,-0.331962250816,0.57357709937,0.819133265712,0.00327886912961,0.0,0.819105501303,-0.573511823593,-0.0114504512908,0.0,-0.00749911972717,0.00925363454113,-0.99992906421,0.0,0.611084612952,0.194848640079,0.304176634735,1.0,-0.262572,-0.345094628571,1.295
0.413004158817,0.286660375811,-0.126878565419,-1.75012752801,0.0522015636335,2.02955597488,0.0933424957363,-0.321214939878,-1.15873467438,-0.0192793708991,-1.62799421293,-0.140764979516,0.517150255212,-0.345134703043,0.573537541708,0.819160901092,0.00329443087027,0.0,0.819133403014,-0.573472305796,-0.0114336981375,0.0,-0.0074769175555,0.00925641170678,-0.999929204767,0.0,0.606537614724,0.188907998265,0.30422295978,1.0,-0.276599428571,-0.363530677551,1.312
0.406785277757,0.265666375035,-0.127126122481,-1.77994281559,0.0496799207611,2.03853841546,0.0868678875618,-0.350794113484,-1.19720920191,-0.0159489969175,-1.66428595845,-0.144985775196,0.487931274478,-0.364776112611,0.573515447889,0.819176013025,0.00338195495288,0.0,0.819149222144,-0.573449429473,-0.0114477333413,0.0,-0.0074384716321,0.00933595742964,-0.999928751981,0.0,0.601481143204,0.182284885198,0.304275078548,1.0,-0.291452,-0.3830512,1.33
0.400695291129,0.246441535717,-0.127432640188,-1.80701247623,0.0472231553279,2.04655497858,0.0808236154691,-0.387493950791,-1.20517136345,-0.0136082628568,-1.70486663133,-0.157361497951,0.492500581287,-0.385510332987,0.573657229811,0.819076608443,0.00341161087752,0.0,0.819050745552,-0.573591794772,-0.01136116554,0.0,-0.00734893442195,0.00931187646637,-0.999929638584,0.0,0.59681711872,0.176007000987,0.304309965869,1.0,-0.304654285714,-0.40040277551,1.346
0.393846769245,0.225300341418,-0.1276465055,-1.83644784746,0.0446104585075,2.05503395921,0.0738825153832,-0.412831959372,-1.24931061282,-0.0126009513388,-1.73645077036,-0.149133072231,0.488472411936,-0.419773895679,0.57354709795,0.819153188897,0.00353927315821,0.0,0.819128288986,-0.573480443659,-0.0113918315199,0.0,-0.00730209176379,0.0094330522904,-0.999928845959,0.0,0.591555353596,0.169207862926,0.3043550381,1.0,-0.318681714286,-0.41883882449,1.363
0.385945718381,0.202282134517,-0.127946742075,-1.86833034998,0.0415290260195,2.06383153736,0.0660579462139,-0.459563609713,-1.28303728453,-0.0195080475473,-1.79018240098,-0.17889631904,0.469612942061,-0.442070948978,0.573440022106,0.819228879672,0.00336610449986,0.0,0.81920177762,-0.57337392747,-0.011468816172,0.0,-0.00746569260412,0.00933437670483,-0.999928563871,0.0,0.5856879631,0.161584037514,0.304303608199,1.0,-0.333534285714,-0.438359346939,1.381
0.379311884899,0.183797414434,-0.128243676799,-1.89345774754,0.0391098289353,2.07056108774,0.0596048087315,-0.485585376335,-1.32798509911,-0.0267710285459,-1.80612862313,-0.171387477651,0.469295237611,-0.472008919905,0.573438832197,0.819229614645,0.00338985504275,0.0,0.819202480319,-0.57337224175,-0.0115028487912,0.0,-0.00747996961008,0.00937333830254,-0.999928092707,0.0,0.580961101706,0.155393531991,0.304346999207,1.0,-0.345086285714,-0.45354197551,1.395
0.370019431548,0.159514615469,-0.128723086463,-1.92605957633,0.0358668688871,2.07903143068,0.0507878184202,-0.527732155553,-1.35631735881,-0.0202856024684,-1.79504238228,-0.182840971983,0.465501869217,-0.494551739664,0.573590742099,0.819122840036,0.00349004436842,0.0,0.819096830131,-0.573523615347,-0.0114800875632,0.0,-0.00740212157854,0.00944373804516,-0.999928009613,0.0,0.574365390596,0.146560946063,0.304431235002,1.0,-0.360764,-0.474146971429,1.414
0.360640397949,0.135942672736,-0.129110278377,-1.95734988053,0.032579762342,2.08700443773,0.0419561758001,-0.570369616786,-1.41227239591,-0.0276313817826,-1.83443279698,-0.185946709532,0.481121591028,-0.539807706794,0.57356189979,0.819142695501,0.00356909207162,0.0,0.819117986654,-0.573494908427,-0.0114044223656,0.0,-0.00729513360031,0.00946483189724,-0.999928596442,0.0,0.568162456849,0.13842132254,0.304468301032,1.0,-0.374791428571,-0.492583020408,1.431
0.349217944179,0.108878152876,-0.129684602579,-1.99268113298,0.0287279262169,2.09547424506,0.0313568289465,-0.6243645275,-1.44865394359,-0.0384874604463,-1.87167937704,-0.212659062603,0.446018530236,-0.576847551794,0.57365603638,0.81907666711,0.0035933580796,0.0,0.819052563067,-0.573589344368,-0.0113538479173,0.0,-0.00723869937339,0.0094565346066,-0.999929085078,0.0,0.561352418568,0.129354694426,0.304523535101,1.0,-0.389644,-0.512103542857,1.449
0.340909821552,0.0900472707937,-0.130004580714,-2.01694516658,0.0259992124573,2.10103032549,0.0236662578428,-0.640600604894,-1.45782586303,-0.0172850329795,-1.86554537534,-0.20451215046,0.413758286306,-0.580622265635,0.573580126499,0.819129923388,0.0035712738448,0.0,0.819105302617,-0.573513204267,-0.0113953787835,0.0,-0.00728626332703,0.00946159431254,-0.999928691757,0.0,0.555849040778,0.122179840731,0.304527192649,1.0,-0.39998,-0.525688,1.463
0.328726045486,0.0638820471022,-0.130479812932,-2.05050609775,0.0221914023925,2.10829804312,0.0124601127686,-0.687939717377,-1.43862931589,-0.0251635052776,-1.86705347936,-0.222711162331,0.391855995327,-0.622637089557,0.573519423891,0.819172799616,0.0034844928536,0.0,0.819146301922,-0.573451793891,-0.0115378954882,0.0,-0.00745348497374,0.00947169896798,-0.999927363602,0.0,0.549017788887,0.1132688962,0.304463090625,1.0,-0.39998,-0.525688,1.48
0.315710020799,0.0379035418109,-0.131022582861,-2.08294328677,0.0182978502691,2.11475318123,0.00100563237962,-0.724867536239,-1.43337256556,-0.0252161011749,-1.76293289325,-0.191581188692,0.338373730311,-0.644039834304,0.573819045746,0.818963213309,0.00342124057274,0.0,0.818935426713,-0.573750979336,-0.0116330342604,0.0,-0.00756423262422,0.00947721419253,-0.999926479695,0.0,0.541820301902,0.103632924258,0.304503477977,1.0,-0.39998,-0.525688,1.498
0.303770394074,0.0149970439826,-0.131391582564,-2.11092323673,0.0148453991663,2.12017066322,-0.00958773646138,-0.753253932878,-1.42355762713,-0.0263396976616,-1.69013483237,-0.217391303418,0.33892184753,-0.666615482438,0.573866427493,0.818929049098,0.00364456330003,0.0,0.818904417299,-0.573798006425,-0.0114956536416,0.0,-0.00732302254052,0.00958170315002,-0.999927279509,0.0,0.535456244887,0.0951894788781,0.304628439838,1.0,-0.39998,-0.525688,1.514
0.289794414711,-0.010400183413,-0.131874686479,-2.14151576371,0.0109398786369,2.12570623507,-0.0219178639907,-0.770862911749,-1.42627143149,-0.0196790132581,-1.68341424566,-0.217798444281,0.325187969282,-0.697750519313,0.573972785458,0.818853541866,0.0038555709665,0.0,0.818831995358,-0.573904238346,-0.0113505721146,0.0,-0.00708186400713,0.00967217058014,-0.999928145578,0.0,0.528303126611,0.0856403571905,0.304733559596,1.0,-0.39998,-0.525688,1.532
0.277027506864,-0.0326289095531,-0.132188189608,-2.16791157954,0.00744500544684,2.13000218876,-0.0331683216035,-0.809959250973,-1.39427632121,-0.0239945190654,-1.68059651272,-0.23799522444,0.280133018782,-0.707738515718,0.573921309837,0.818889368093,0.00390894357484,0.0,0.818868553955,-0.573852689274,-0.0113194195111,0.0,-0.00702632978664,0.00969755375302,-0.999928291499,0.0,0.5219037604,0.0772755617788,0.304787124063,1.0,-0.39998,-0.525688,1.548
0.262816272111,-0.0559842218559,-0.132695903106,-2.19520040832,0.00376025408309,2.1340602366,-0.0455380136063,-0.828325837519,-1.37338370058,-0.0198963253801,-1.56719090741,-0.232174229673,0.245491159186,-0.736882928572,0.574129373551,0.818743124716,0.00398811446218,0.0,0.81872315959,-0.574060278893,-0.0113106609023,0.0,-0.00697124196738,0.00975913222511,-0.999928077975,0.0,0.515118942898,0.0682227309716,0.304839749448,1.0,-0.39998,-0.525688,1.565
0.249991703059,-0.076317442198,-0.133041055011,-2.21868875165,0.000546893624962,2.13722740619,-0.0568760650446,-0.868166755422,-1.38371896221,-0.0326030843421,-1.55179218366,-0.222784335194,0.224551287302,-0.755100344918,0.574067294701,0.81878651843,0.00401563112679,0.0,0.818766327222,-0.573997322798,-0.0113807613618,0.0,-0.00701358748964,0.00982137552766,-0.999927172435,0.0,0.509090365138,0.0603675032693,0.304837154798,1.0,-0.39998,-0.525688,1.58
0.234931217793,-0.0989526806691,-0.133476979022,-2.24448601734,-0.00312826251157,2.14032520453,-0.0701178879013,-0.893788081999,-1.3562667338,-0.0150966927834,-1.50663963542,-0.236838092792,0.189807869225,-0.783412469021,0.574060598499,0.818791443788,0.00396834117344,0.0,0.818770102193,-0.573990008222,-0.0114776790529,0.0,-0.0071201743057,0.00983823183105,-0.999926253437,0.0,0.502284394515,0.0514266179947,0.30480243727,1.0,-0.39998,-0.525688,1.597
0.219386528588,-0.121277377745,-0.133888475687,-2.26949419406,-0.00680205535912,2.1429021814,-0.0837478888232,-0.933207228889,-1.31915289976,-0.0328306254531,-1.45659199823,-0.212076263502,0.153227686731,-0.812118861303,0.574045874861,0.818802128758,0.00389286500473,0.0,0.818779233843,-0.573974719578,-0.0115902723954,0.0,-0.0072558733088,0.00984093455158,-0.999925251361,0.0,0.495472208072,0.0425256874121,0.304765145721,1.0,-0.39998,-0.525688,1.614
0.204320842344,-0.141984619318,-0.134226758822,-2.29238682829,-0.0102151525504,2.14486506735,-0.0970908771266,-0.950589706181,-1.30999721435,-0.0182869070679,-1.39323023361,-0.206223632958,0.122442488343,-0.84622878571,0.57389010539,0.818911910262,0.00376524472481,0.0,0.818886264097,-0.573817918953,-0.0117910670635,0.0,-0.00749542467083,0.00985027355414,-0.999923392426,0.0,0.48903033287,0.0342078449825,0.304689828011,1.0,-0.39998,-0.525688,1.63
0.187682685977,-0.163718979777,-0.134740105284,-2.31605481422,-0.0138899394168,2.14655519736,-0.111752994303,-0.991248361229,-1.25658625847,-0.0206609138168,-1.36007885645,-0.206025870097,0.0809256214786,-0.85792933439,0.573890570632,0.818912276611,0.00361151721498,0.0,0.818883629735,-0.57381763384,-0.011986281631,0.0,-0.0077435100022,0.00983641571229,-0.999921638419,0.0,0.482177021745,0.0252467854817,0.304592983446,1.0,-0.39998,-0.525688,1.647
0.170576477279,-0.185259097907,-0.135169629268,-2.33894997589,-0.017470471675,2.14776062878,-0.126943451578,-1.02877274934,-1.25780353909,-0.0277526746196,-1.33112687639,-0.211164656015,0.062013541143,-0.911224258251,0.573763814588,0.819001253268,0.00357478899969,0.0,0.818971051021,-0.573689678241,-0.0121374449758,0.0,-0.00788991500093,0.00989186588198,-0.999919946911,0.0,0.475318800168,0.0163867327931,0.304561933894,1.0,-0.39998,-0.525688,1.664
0.152791506115,-0.206515071903,-0.135751112996,-2.36096615814,-0.0210152284887,2.1486253412,-0.142704722923,-1.04882438194,-1.23938100392,-0.0341143009835,-1.28878917494,-0.201483713636,0.0384613431363,-0.954799850421,0.573819613786,0.818961473414,0.00372864593802,0.0,0.818933093419,-0.573744635254,-0.0121007818858,0.0,-0.0077709331735,0.00999737002085,-0.999919829381,0.0,0.468527480618,0.00741368727918,0.30461599679,1.0,-0.39998,-0.525688,1.681
0.134420674897,-0.227333062131,-0.136405570667,-2.38216732324,-0.0245646608067,2.14900825984,-0.158902977088,-1.08857387251,-1.19698793091,-0.0356278271339,-1.22916528594,-0.214678068689,0.0077867677067,-0.959523993499,0.574013075985,0.818825552123,0.00380140629769,0.0,0.818797778617,-0.573937343599,-0.0121190038803,0.0,-0.00774173006334,0.0100692435915,-0.999919334721,0.0,0.461737003,-0.00159395827258,0.304649740906,1.0,-0.39998,-0.525688,1.698
0.115489440384,-0.24791385044,-0.137017505311,-2.4025747341,-0.0279979444901,2.14915430831,-0.175779232053,-1.13597203165,-1.21511176244,-0.0469386915878,-1.17741555777,-0.201813175366,0.00853466206906,-1.00947104336,0.574093409854,0.818767679642,0.00412194587118,0.0,0.818744801754,-0.574017448373,-0.0119023302675,0.0,-0.00737931655887,0.0102080676606,-0.999920667374,0.0,0.4549926897,-0.0105538825104,0.304775626318,1.0,-0.39998,-0.525688,1.715
0.0960528922707,-0.267899945376,-0.137582627009,-2.4222653454,-0.0314370209149,2.14892088035,-0.193230309701,-1.14859720295,-1.173059844,-0.0330239800621,-1.11230055371,-0.198909272128,-0.00503349812911,-1.03704384199,0.574045930448,0.818800404544,0.00423251170786,0.0,0.818779175529,-0.573969890679,-0.0118310276779,0.0,-0.00725805570669,0.0102572432218,-0.999921051678,0.0,0.448225885602,-0.0194555164849,0.304792550205,1.0,-0.39998,-0.525688,1.732
0.0771649393595,-0.286393542655,-0.138165368822,-2.4401246256,-0.0346110640635,2.14836029246,-0.210237913078,-1.17946930291,-1.15083319628,-0.0244074536345,-1.11137721231,-0.189737621979,-0.0538270544708,-1.08017971686,0.574054723047,0.818793498615,0.00437361111286,0.0,0.818774255123,-0.573978431191,-0.0117569798961,0.0,-0.00711631726824,0.0103303489105,-0.999921317865,0.0,0.441843012674,-0.0278695086051,0.304825908108,1.0,-0.39998,-0.525688,1.748
0.0565554849596,-0.305525236555,-0.138783291071,-2.45823725075,-0.0379847295547,2.14744966566,-0.228915045836,-1.22352459075,-1.1092162783,-0.0343820192772,-1.05518203206,-0.19531715708,-0.0679022933931,-1.10019211612,0.573992324647,0.818836616825,0.00448921982398,0.0,0.818819636488,-0.573916803599,-0.0116039799146,0.0,-0.00692545829949,0.0103366557634,-0.999922592792,0.0,0.435099946553,-0.036797457967,0.304879604241,1.0,-0.39998,-0.525688,1.765
0.0327758477961,-0.326367320855,-0.139507767201,-2.47764328244,-0.0415325183834,2.14598932685,-0.250446677791,-1.27019173637,-1.09933703021,-0.0466353079284,-0.985812385131,-0.188807291276,-0.0736222754976,-1.16231793778,0.574100807068,0.818759627433,0.00465646978504,0.0,0.818744343581,-0.574024050924,-0.0116118782642,0.0,-0.00683454305855,0.0104790487348,-0.999921736217,0.0,0.427515102343,-0.0467741957951,0.304910335568,1.0,-0.39998,-0.525688,1.784
0.0122768387757,-0.343366910261,-0.140059521928,-2.4933923916,-0.0445991422244,2.14447367151,-0.269286531453,-1.30468427752,-1.06074799848,-0.0461098402135,-0.983485106779,-0.196098423517,-0.0945471336165,-1.16918103661,0.573904605252,0.818897729795,0.00455621653256,0.0,0.818880487611,-0.573827199209,-0.0117405008153,0.0,-0.00699992326268,0.0104691258648,-0.999920696094,0.0,0.421070539376,-0.0551090161924,0.304840707496,1.0,-0.39998,-0.525688,1.8
-0.0102277118802,-0.360919763003,-0.140719436378,-2.50909971154,-0.0476818910611,2.14263526427,-0.289907403362,-1.33492993113,-1.01768897725,-0.0290799500919,-0.905706659861,-0.181776650054,-0.112077677857,-1.23796954277,0.573934692459,0.81887592044,0.00468429460175,0.0,0.818860513682,-0.573857136007,-0.0116701965567,0.0,-0.00686845930183,0.0105339173661,-0.9999209273,0.0,0.414305389934,-0.0640509679074,0.304897176432,1.0,-0.39998,-0.525688,1.817
-0.033271152388,-0.377868526818,-0.141445552019,-2.52421347278,-0.0507305660343,2.14052617955,-0.311201240203,-1.3601981298,-0.990413174307,-0.0431912382288,-0.877611850236,-0.165730411189,-0.137544841944,-1.24163926125,0.573913005703,0.818891199772,0.00467030217628,0.0,0.818874529445,-0.573833849719,-0.0118306738632,0.0,-0.00700819216623,0.0106143734529,-0.999919106888,0.0,0.407454328824,-0.0729771663222,0.304851741341,1.0,-0.39998,-0.525688,1.834
-0.0569877212552,-0.39421390707,-0.142163299126,-2.53829157411,-0.0535904299986,2.13840190029,-0.333074546041,-1.40843978456,-0.9489092644,-0.0424579057041,-0.81838523846,-0.152642440792,-0.132878276997,-1.31518189691,0.574059350595,0.818787177445,0.0049159889633,0.0,0.818774428539,-0.573980508029,-0.0116429581634,0.0,-0.0067115522273,0.0107090412387,-0.999920132562,0.0,0.400711307189,-0.0819383392467,0.304938441477,1.0,-0.39998,-0.525688,1.851
-0.0811841175577,-0.40975524595,-0.142814582641,-2.551664442,-0.0564524927841,2.13591823069,-0.355695820931,-1.44049496183,-0.880490584494,-0.0356741836625,-0.763153710789,-0.175452932587,-0.137837932426,-1.34731971923,0.573940411455,0.818870891816,0.00485937613604,0.0,0.818856457771,-0.573860271363,-0.0117998906395,0.0,-0.00687411641122,0.0107517726234,-0.999918569639,0.0,0.393892290927,-0.0908258406263,0.304908858418,1.0,-0.39998,-0.525688,1.868
-0.105995512291,-0.424655797969,-0.143457158967,-2.56407332015,-0.0591405069723,2.13356579658,-0.378968109153,-1.47079629818,-0.82908951811,-0.0191084214497,-0.724146605035,-0.152986497728,-0.16542055443,-1.39449333546,0.573884036006,0.818909277558,0.00504531941349,0.0,0.818898457381,-0.573805237402,-0.0115591059681,0.0,-0.00657095492498,0.0107653979376,-0.999920461216,0.0,0.387170128555,-0.099740126517,0.304997997643,1.0,-0.39998,-0.525688,1.885
-0.128327350452,-0.437042246294,-0.144082549437,-2.57456652313,-0.0614226711569,2.13123224503,-0.399983761168,-1.50193386572,-0.780623001371,-0.0311236042808,-0.674321762479,-0.1692104505,-0.153798086591,-1.40795724681,0.573889091194,0.818905979367,0.00500548367431,0.0,0.818892676957,-0.57380724606,-0.0118648597125,0.0,-0.0068441535317,0.0109082775012,-0.999917080084,0.0,0.381112337702,-0.107580152386,0.304903694336,1.0,-0.39998,-0.525688,1.9
-0.152599473886,-0.449737955582,-0.144729832529,-2.58470848261,-0.0637414626121,2.12894928919,-0.422999533397,-1.52530211804,-0.767922545744,-0.0370689458389,-0.629829098214,-0.155200642572,-0.137510351422,-1.44444739428,0.573844432256,0.818935717736,0.00525401621991,0.0,0.818927528504,-0.573764904048,-0.0115015147824,0.0,-0.0064045544586,0.0109029486536,-0.9999200505,0.0,0.374816095656,-0.115978663054,0.305044272191,1.0,-0.39998,-0.525688,1.916
-0.181972552774,-0.463513680715,-0.145321850394,-2.5960273036,-0.0662968185271,2.12599575552,-0.450951831944,-1.53787851312,-0.69567475593,-0.0134458012434,-0.571021836044,-0.133339407574,-0.150167432793,-1.46888399345,0.573712298585,0.819028535069,0.00521575452431,0.0,0.819017963332,-0.573629750448,-0.0117996627671,0.0,-0.00667247701016,0.0110416208818,-0.999916776866,0.0,0.367224638602,-0.125825878823,0.304959569516,1.0,-0.389296571429,-0.511646922449,1.935
-0.206798842404,-0.473946824982,-0.145655969376,-2.60439294563,-0.0681328878796,2.12374060117,-0.474408643162,-1.53920009328,-0.624348197239,-0.00991788120135,-0.493788334042,-0.111103624733,-0.133692303382,-1.46361259061,0.573811336901,0.818958554748,0.00530868621654,0.0,0.818948740394,-0.57372769631,-0.0118422124517,0.0,-0.00665266896548,0.0111429521853,-0.99991578476,0.0,0.361051025545,-0.133962571205,0.304951609763,1.0,-0.376094285714,-0.494295346939,1.951
-0.23284790834,-0.48391762864,-0.145849760141,-2.61219586728,-0.0697719158795,2.12154032452,-0.499048480849,-1.50572256138,-0.554615066977,0.000217441054164,-0.445839951379,-0.0945378936863,-0.125857991778,-1.45367675371,0.573948935466,0.818860872295,0.00549892744354,0.0,0.818853911144,-0.573865259652,-0.0117338344348,0.0,-0.00645285871302,0.0112376563868,-0.999916034322,0.0,0.354735534588,-0.142320927608,0.304999436675,1.0,-0.362066857143,-0.475859297959,1.968
-0.256982268166,-0.492187583777,-0.145820394909,-2.61877481368,-0.0710751801423,2.11948019119,-0.521914610173,-1.49643797026,-0.494573645595,0.00335841870298,-0.394011710474,-0.0800710599797,-0.113406790627,-1.43069415197,0.574020559415,0.818810284361,0.00555540231383,0.0,0.818802636246,-0.57393419918,-0.0119383746501,0.0,-0.00658695538321,0.0114018700764,-0.99991330093,0.0,0.348928319238,-0.14985873394,0.304952445956,1.0,-0.348864571429,-0.458507722449,1.984
-0.280604365466,-0.499442387259,-0.145649748007,-2.62439361661,-0.0720479267455,2.1177376433,-0.544361938936,-1.46599856631,-0.431212461843,0.00105678280752,-0.338633939184,-0.058704459061,-0.105600282384,-1.37901035395,0.574108749666,0.81874704291,0.00575935618634,0.0,0.818741959356,-0.574021437928,-0.0119054479085,0.0,-0.00644168037233,0.0115506707678,-0.999912539555,0.0,0.343411691849,-0.1571190895,0.304973051359,1.0,-0.335662285714,-0.441156146939,2.0
-0.307791928963,-0.506749145621,-0.145321519078,-2.62997127556,-0.0730138908112,2.1159130497,-0.570281358869,-1.41203871841,-0.36435451968,0.00538598883325,-0.274323351333,-0.0445611916377,-0.0915968022115,-1.34014127432,0.57416312691,0.818707643162,0.00593680269506,0.0,0.818705201392,-0.574075742616,-0.0118144764847,0.0,-0.006264548394,0.0116441521933,-0.999912580755,0.0,0.337183215349,-0.165363418085,0.30501302469,1.0,-0.319984571429,-0.420551151021,2.019
-0.331448539582,-0.512289058804,-0.144900240975,-2.63413664916,-0.0737472506525,2.11449457938,-0.592890899297,-1.38141434513,-0.309175241583,0.0140767878757,-0.234259019871,-0.0361549573421,-0.0871343185175,-1.320829428,0.574153604083,0.818713710867,0.00602042011552,0.0,0.818713115997,-0.574067349355,-0.0116730030536,0.0,-0.00610083848926,0.011631317625,-0.99991374239,0.0,0.33184695157,-0.17243996113,0.305063220609,1.0,-0.305957142857,-0.402115102041,2.036
-0.354279082023,-0.516829800134,-0.144288935386,-2.63777641523,-0.074293214577,2.11314099609,-0.614791972367,-1.33115449193,-0.2526697094,0.0323925033687,-0.200464307321,-0.0222723682815,-0.0734234460885,-1.27951121048,0.574026642577,0.818803048099,0.00597736872325,0.0,0.818800383308,-0.573937736065,-0.0119228485171,0.0,-0.00633194914483,0.0117385305091,-0.999911052705,0.0,0.326691955188,-0.179110039609,0.304985910474,1.0,-0.291929714286,-0.383679053061,2.053
-0.373700630835,-0.520133043843,-0.143772095106,-2.6404218624,-0.0746482565605,2.1122089432,-0.633417202452,-1.27500251253,-0.208405842954,0.0335713734753,-0.160966414761,-0.00627473582538,-0.0592721078214,-1.23732886777,0.574000292504,0.818821413108,0.00599203982194,0.0,0.818818202862,-0.57390997085,-0.0120350705086,0.0,-0.00641580556533,0.0118147527413,-0.999909620444,0.0,0.322365163568,-0.184761603722,0.30493340774,1.0,-0.279552571429,-0.367411951021,2.068
-0.394961103551,-0.523195803196,-0.143082458725,-2.64280567242,-0.0749243500886,2.11128564093,-0.653817310883,-1.22710733672,-0.176701218718,0.041680610311,-0.125877137909,-0.0101679667158,-0.0432413442253,-1.17897974212,0.57395367271,0.818854132589,0.00598648694281,0.0,0.818850456553,-0.573862661877,-0.0120963633947,0.0,-0.00646986038762,0.0118450178164,-0.999908914081,0.0,0.3176933332,-0.190894238061,0.304913875327,1.0,-0.265525142857,-0.348975902041,2.085
-0.415327293832,-0.525606040912,-0.142396515472,-2.64465359508,-0.0750518812242,2.11054754312,-0.673382971037,-1.17690418496,-0.126890546908,0.054236916084,-0.101154231586,-0.00838083600352,-0.0344536664333,-1.12656885712,0.573957352366,0.818851224176,0.00603135409506,0.0,0.818848023904,-0.573865946839,-0.0121051934087,0.0,-0.00645128792037,0.0118868559997,-0.999908537587,0.0,0.313257374162,-0.196737831365,0.304912236551,1.0,-0.251497714286,-0.330539853061,2.102
-0.433648709663,-0.527316530152,-0.141718538796,-2.64599201152,-0.0751001422294,2.11001791299,-0.690990710284,-1.13634284994,-0.0959691204935,0.0303235280057,-0.079268084648,-0.00019513249834,-0.0410949581607,-1.0868352641,0.573961246982,0.818848379155,0.0060469677208,0.0,0.818845336952,-0.573869688937,-0.0121095487915,0.0,-0.00644583701765,0.0119021721994,-0.999908390545,0.0,0.309291961741,-0.201962285923,0.30490242631,1.0,-0.238295428572,-0.313188277551,2.118
-0.452105281079,-0.528640060833,-0.140942257975,-2.64703927992,-0.0750828908731,2.10957024545,-0.708761019124,-1.06257498084,-0.0722675841499,0.045996857946,-0.0574880953824,-0.000946652245052,-0.0224113077407,-1.0218944447,0.573919513036,0.818877778865,0.00602683489487,0.0,0.818874407066,-0.573827927838,-0.0121227714512,0.0,-0.00646882652546,0.011892944915,-0.999908351873,0.0,0.305317012965,-0.20718363354,0.304892471175,1.0,-0.224268,-0.294752228572,2.135
-0.469741701489,-0.529558697613,-0.140202776762,-2.64775435541,-0.0750730375829,2.10922626432,-0.725598594859,-1.00749362438,-0.0457241882416,0.0444476216585,-0.0351389311862,0.00299430477485,-0.0184480083839,-0.977542020474,0.574013247765,0.818812537009,0.00596385186829,0.0,0.818808482592,-0.573922169778,-0.0121144035871,0.0,-0.00649676381386,0.0118373085513,-0.999908830937,0.0,0.301518109537,-0.212169362861,0.304893087755,1.0,-0.210240571429,-0.276316179592,2.152
-0.485321736592,-0.530038964438,-0.139408197642,-2.64811704596,-0.074958596175,2.10901121748,-0.74056594773,-0.962368504806,-0.0175077907716,0.0480724660091,-0.0160796105591,0.00379549061541,-0.00885978775706,-0.910695811686,0.573981597434,0.818835240573,0.00589249562205,0.0,0.818830576727,-0.573891411697,-0.0120781248161,0.0,-0.00650846691662,0.0117578033386,-0.999909692882,0.0,0.298205958008,-0.216535033008,0.304906266643,1.0,-0.197038285714,-0.258964604082,2.168
-0.500789451419,-0.53025230371,-0.138497895547,-2.64828321051,-0.0747523576819,2.1088666547,-0.75553138603,-0.885753806712,-0.00985951625328,0.0493185000621,-0.00272007014167,0.0174668107652,-0.00181962181645,-0.863910458419,0.573828986066,0.818942773611,0.00581164358464,0.0,0.818937382243,-0.573739752964,-0.012041874237,0.0,-0.00652736060446,0.0116695733429,-0.999910603315,0.0,0.294940414072,-0.220826540152,0.304920424163,1.0,-0.183010857143,-0.240528555102,2.185
-0.516173989439,-0.530261077073,-0.137625640351,-2.64831211219,-0.0744352394947,2.1088168533,-0.770251686724,-0.842239928021,0.000647002136197,0.0462852292248,0.00287027406235,0.0161391300852,-0.00248063033063,-0.801723039987,0.573891340226,0.818899017938,0.00582021782621,0.0,0.818894083621,-0.573802679045,-0.0119880037127,0.0,-0.00647743259669,0.0116461776856,-0.999911200763,0.0,0.291679933836,-0.225081113483,0.304929407586,1.0,-0.168158285714,-0.221008032653,2.203
-0.528706517833,-0.530047886268,-0.136677824315,-2.64822840701,-0.0740111524211,2.10881604901,-0.782336776685,-0.763301547055,0.0138011462424,0.0546370183485,0.00682186764874,0.0259126458263,-0.0010518254564,-0.735718068016,0.573775320282,0.81898025831,0.00582797006696,0.0,0.818975262792,-0.573686359753,-0.0120094325116,0.0,-0.00649218620278,0.0116639038692,-0.999910898463,0.0,0.289065209773,-0.228463245467,0.304914702286,1.0,-0.154956,-0.203656457143,2.219
-0.541163240242,-0.529703876822,-0.135805109334,-2.64802352905,-0.0735593788887,2.10882083129,-0.794165975653,-0.712625179779,0.020911800854,0.0493658875442,0.0127940984433,0.025094164536,-0.00227138565057,-0.681323816107,0.573878309371,0.818907716771,0.00588084591503,0.0,0.818903146929,-0.573788637513,-0.0120408601038,0.0,-0.00648611556835,0.0117260574291,-0.99991021091,0.0,0.286444880003,-0.231835002006,0.304905703623,1.0,-0.140928571429,-0.185220408163,2.236
-0.552402213322,-0.52917844801,-0.134799922836,-2.64774379507,-0.0730620706149,2.10886747555,-0.804978915669,-0.638144866204,0.0326539713879,0.0539573001879,0.0154437514454,0.0314111792554,0.00364468813475,-0.619661288975,0.57374676583,0.818999892907,0.00587971255385,0.0,0.818994654002,-0.573655947567,-0.0121390872056,0.0,-0.00656910552048,0.011780441983,-0.999909029882,0.0,0.284122427279,-0.234815282849,0.304871316422,1.0,-0.126901142857,-0.166784359184,2.253
-0.563332078156,-0.528581731748,-0.133860411547,-2.64740200488,-0.0725428488854,2.10895676281,-0.815275870029,-0.588774224042,0.0338625751026,0.0505377354289,0.0243336928197,0.0272454524819,0.00424500614546,-0.54270377005,0.573843514598,0.818931826453,0.00591872265586,0.0,0.81892659261,-0.573751601344,-0.0122099456707,0.0,-0.00660336364249,0.0118538257368,-0.999907936964,0.0,0.281852208058,-0.237717071823,0.304840788087,1.0,-0.112048571429,-0.147263836735,2.271
-0.571554782676,-0.528058661441,-0.133089121653,-2.64702030006,-0.0721108673216,2.10908074397,-0.822948902087,-0.520879036352,0.0395843277955,0.0508819536722,0.0273632644042,0.0284449811152,0.0153551180954,-0.492447751893,0.573955001031,0.818853558918,0.00593740182454,0.0,0.818848919758,-0.573863614585,-0.012155055279,0.0,-0.00654607743403,0.0118385177635,-0.999908494997,0.0,0.280179458879,-0.239902457647,0.304853657622,1.0,-0.0996714285715,-0.130996734694,2.286
-0.579650671106,-0.527405018305,-0.13213215638,-2.64659877028,-0.0715714863261,2.10919913265,-0.830634408295,-0.464971179765,0.0379360756247,0.0539550856541,0.0247662415327,0.0268730335221,0.00809428837949,-0.433555159798,0.573869398504,0.818913481976,0.00594721778775,0.0,0.818908718003,-0.573777529652,-0.0121903628402,0.0,-0.00657059905388,0.0118661331447,-0.999908006825,0.0,0.278572561608,-0.241993606473,0.304840940243,1.0,-0.0856440000001,-0.112560685714,2.303
-0.58770339319,-0.526790603229,-0.131099006678,-2.64612679321,-0.0709845297218,2.10932941082,-0.837990666425,-0.395446477269,0.0273200358687,0.0554184378488,0.0221851675647,0.0306475931395,0.00253462714261,-0.351911238544,0.573969392994,0.818843394922,0.00594789030716,0.0,0.818839072501,-0.573878284075,-0.0121258119235,0.0,-0.00651590136957,0.0118304376643,-0.999908787727,0.0,0.277071227603,-0.243954705622,0.304866582105,1.0,-0.0707914285715,-0.0930401632655,2.321
-0.593387732551,-0.5262540703,-0.130235655103,-2.64573779894,-0.0704784769897,2.10944533475,-0.843145403368,-0.336408027521,0.0348187008291,0.0544793813645,0.0296136070119,0.0356800546147,0.00304483611069,-0.312070297596,0.574047400752,0.818788631112,0.00595870393711,0.0,0.818784636941,-0.573956569912,-0.0120963244163,0.0,-0.00648442048265,0.0118229864588,-0.999909080508,0.0,0.275923087071,-0.245477260569,0.304880258715,1.0,-0.0567640000001,-0.0746041142859,2.338
-0.597721858671,-0.525811434205,-0.129359887356,-2.64545132285,-0.0699598835366,2.10953351151,-0.847126252128,-0.26496763285,0.0265017702222,0.058057006587,0.0152000963974,0.0382164815896,0.00112564395021,-0.238840547537,0.573954835635,0.818853448931,0.00596847769479,0.0,0.818849466955,-0.573863771958,-0.0121106813223,0.0,-0.00649190503616,0.0118384968144,-0.999908848427,0.0,0.275153322357,-0.246492927104,0.304877885531,1.0,-0.044386857143,-0.0583370122451,2.353
-0.601712157779,-0.525450934251,-0.128303947871,-2.64523307441,-0.0694045442221,2.10956976407,-0.85062938303,-0.215087476266,0.0217785243757,0.0612989477535,0.0119579342552,0.037401891893,0.000557679136411,-0.182822260184,0.573856318213,0.81892280764,0.00592520676259,0.0,0.818917962366,-0.573764920587,-0.0121628006333,0.0,-0.00656084537236,0.0118321860454,-0.999908473152,0.0,0.274482223703,-0.247344831851,0.304874348549,1.0,-0.0303594285716,-0.0399009632655,2.37
-0.604732613766,-0.525174066532,-0.127295892902,-2.64504545392,-0.0688405831132,2.10962520755,-0.853083957465,-0.158654332351,0.0137473512518,0.0613044962625,0.0125952762655,0.0319227815871,0.014318194722,-0.12552525819,0.573857676814,0.818922009614,0.00590388274471,0.0,0.818917002157,-0.573766580715,-0.0121491289411,0.0,-0.00656186480836,0.011806888187,-0.999908765499,0.0,0.274037759264,-0.247935411989,0.30488775323,1.0,-0.0198915789474,-0.0261432180451,2.387
-0.606798901643,-0.524942743368,-0.126701534407,-2.64489582003,-0.0684454675818,2.10972468687,-0.854803916318,-0.113116562451,0.00997378033815,0.0341659748852,0.0125922941552,0.0223215806426,0.00118764934254,-0.0967899441678,0.57388653873,0.818901557459,0.00593521327396,0.0,0.818897328816,-0.573795971759,-0.0120869579295,0.0,-0.00649255220701,0.0117970998767,-0.99990933349,0.0,0.2737139755,-0.248397065978,0.304899064844,1.0,-0.0195515789474,-0.0256963609023,2.404
-0.60893809911,-0.524735264696,-0.126160651066,-2.64468740382,-0.0681866946492,2.10973924273,-0.856762320507,-0.0976032387686,0.00921218546175,0.025305969143,0.0109410812149,0.0150857792746,-0.000402397772296,-0.0978692874709,0.573784297889,0.81897354079,0.00588777401237,0.0,0.818968932579,-0.57369438393,-0.012057703692,0.0,-0.00649728249448,0.0117406510891,-0.999909967163,0.0,0.273378070696,-0.248858480921,0.304927140366,1.0,-0.0191715789474,-0.0251969323308,2.423
-0.610432721009,-0.524552658407,-0.125916991109,-2.6445322395,-0.0680323452927,2.10979301023,-0.858172612456,-0.0874778896339,0.00797210876107,0.0163296956004,0.00618727066416,0.0142027930928,0.00582760294347,-0.0871497013753,0.573754974146,0.818994046568,0.0058930662771,0.0,0.818989772722,-0.573665524881,-0.0120151837845,0.0,-0.00645983940085,0.0117203581258,-0.99991044783,0.0,0.273111273263,-0.249238478433,0.304941238722,1.0,-0.0188515789474,-0.0247763609023,2.439
-0.611831696533,-0.52436738485,-0.125775800017,-2.64440267615,-0.0679280916713,2.10983169704,-0.859552116112,-0.0877885872616,0.0171071146442,0.00620315709781,0.0116130973201,0.00658085252147,0.00115478453882,-0.0871748752599,0.573722448606,0.819016705289,0.005910611228,0.0,0.819012609328,-0.573632842002,-0.0120189533732,0.0,-0.00645332712261,0.0117366344501,-0.999910298967,0.0,0.272833600283,-0.24961196124,0.30493893532,1.0,-0.0185315789474,-0.0243557894737,2.455
-0.613242925416,-0.524233358076,-0.125695910744,-2.64426623051,-0.067905992155,2.10983353264,-0.860950710102,-0.0913319192772,0.0086768365844,0.00100375317322,0.00958682996598,0.000275623052843,0.00022216122967,-0.0834882871585,0.573692767612,0.819037635609,0.00589124322828,0.0,0.819033391221,-0.573603434977,-0.0120062629276,0.0,-0.00645446811719,0.0117132566438,-0.999910565731,0.0,0.272529339232,-0.250008419951,0.30495387814,1.0,-0.0182115789474,-0.0239352180451,2.471
-0.614672826217,-0.524084876322,-0.125661451059,-2.6440915281,-0.0678676639622,2.10987534034,-0.862320975255,-0.0824240729744,0.00853981952484,-0.000502938353817,0.00891876075417,0.00311102714157,0.00234950357235,-0.0777048424498,0.573742465592,0.819002754167,0.00590074099727,0.0,0.818999119883,-0.57365397099,-0.0119293796584,0.0,-0.00638533422837,0.0116773182062,-0.999911429951,0.0,0.27222703779,-0.250432725097,0.30498324324,1.0,-0.0178715789474,-0.0234883609023,2.488
-0.615964295021,-0.5239163131,-0.125655589972,-2.64393295237,-0.0678312063046,2.10994043425,-0.863643444154,-0.0818529757643,0.0121570162391,-0.00191469408213,0.00961594674851,4.91110256646e-06,0.000326450121146,-0.0782805026061,0.573736686519,0.819006646945,0.00592230561535,0.0,0.819003668388,-0.573648798235,-0.0118656795684,0.0,-0.00632086863429,0.0116583901633,-0.999912060413,0.0,0.271952172671,-0.25082443537,0.304999210519,1.0,-0.0175515789474,-0.0230677894737,2.504
-0.617320485835,-0.52373451078,-0.1256606075,-2.64380335823,-0.0678047933776,2.1099431201,-0.864898068927,-0.0821134877461,0.0106768378153,-0.00100491213979,0.00396273790935,0.0021264572862,-0.000103864837939,-0.0728060546264,0.57384162597,0.818932936436,0.0059481783278,0.0,0.818930008965,-0.573753089176,-0.0119071398155,0.0,-0.00633848531858,0.0117041795454,-0.999911413969,0.0,0.271640014427,-0.25122106341,0.304991541992,1.0,-0.0172115789474,-0.0226209323308,2.521
-0.618669131392,-0.523571700946,-0.125656323885,-2.64369348594,-0.0677788257788,2.10994208037,-0.866234683077,-0.076675423562,0.00729269153676,0.000417912790062,0.00905201142539,8.12278335468e-05,-0.000503030148001,-0.0751050855098,0.573865452943,0.81891606248,0.00597255649114,0.0,0.818913136077,-0.573776230442,-0.0119523989807,0.0,-0.00636122303417,0.0117503000511,-0.99991072866,0.0,0.271326248104,-0.251608115897,0.304981772493,1.0,-0.0168715789474,-0.022174075188,2.538
-0.619880142121,-0.523403706163,-0.125624069896,-2.64360353587,-0.0677563291112,2.10995934252,-0.867469296461,-0.0692298188317,0.00755842462695,0.00356450107254,0.00563667030389,0.000180586837131,0.00600487514397,-0.0684627703165,0.573832165746,0.818939345995,0.00597829725803,0.0,0.818936137124,-0.573742268013,-0.0120066693427,0.0,-0.00640285538619,0.0117858836502,-0.999910044149,0.0,0.271034074556,-0.251969479209,0.304964198969,1.0,-0.0165315789474,-0.0217272180451,2.555
-0.621111182623,-0.523214760197,-0.125554952747,-2.64348645057,-0.067726247408,2.10999413454,-0.868705973101,-0.0740682400161,0.0136270003305,0.00497126258405,0.0106924672135,0.000718144212218,-0.000534341441019,-0.0724167904402,0.573803587212,0.818959425281,0.00597075766551,0.0,0.818955946487,-0.573713411113,-0.0120343892094,0.0,-0.00643029652649,0.0117953902913,-0.999909755955,0.0,0.270786123479,-0.252294833088,0.304951768852,1.0,-0.0162115789474,-0.0213066466165,2.571
-0.622312614147,-0.523038005339,-0.125454001641,-2.64338420098,-0.0676994888375,2.11002619743,-0.869964185503,-0.0693196662096,0.0145041804039,0.00837982488889,0.00655758800256,0.00129038578199,0.00432279007202,-0.0765008304401,0.573702665488,0.819030312481,0.00594522925672,0.0,0.819026297727,-0.573612245636,-0.0120690591696,0.0,-0.00647479365814,0.0117935775857,-0.999909490191,0.0,0.270531714916,-0.25262173228,0.304938516042,1.0,-0.0158715789474,-0.0208597894737,2.588
-0.623587101965,-0.522844116153,-0.125360106625,-2.64325786234,-0.0676700100609,2.11005805627,-0.871257586787,-0.0675532438044,0.00958344227827,0.0108785480824,0.0036313667638,0.00245312157485,0.000888068234015,-0.0636692455809,0.573640101117,0.819074291235,0.00592340517331,0.0,0.819069831801,-0.573549495659,-0.0120968411052,0.0,-0.00651097086106,0.0117911426498,-0.999909283992,0.0,0.270262445512,-0.252975130213,0.304929726218,1.0,-0.0154915789474,-0.0203603609023,2.607
-0.624720131578,-0.522661450919,-0.125306813777,-2.64314655324,-0.0676421146895,2.11008331976,-0.872427351217,-0.0701628807312,0.0115367818875,0.00027311905751,0.00430321456627,0.00293592238106,0.00381833948685,-0.0667994423038,0.573590241026,0.819109223329,0.00592136449833,0.0,0.819104481931,-0.573499192956,-0.0121354959226,0.0,-0.00654452488128,0.011811245634,-0.999908827679,0.0,0.270015486682,-0.253294767595,0.304916686949,1.0,-0.0151515789474,-0.0199135037594,2.624
-0.625804865374,-0.52250311829,-0.125310177927,-2.64303045321,-0.067614072035,2.11011640005,-0.873551927907,-0.066211434453,0.012493009848,-0.00129112860751,0.00294513148883,0.000330775752106,0.000356091555199,-0.0633381712424,0.573578109676,0.819117542468,0.00594563896111,0.0,0.819113075903,-0.573486883438,-0.0121371459266,0.0,-0.00653212894982,0.0118319796373,-0.999908663603,0.0,0.269771375365,-0.253616390997,0.304914072971,1.0,-0.0148315789474,-0.0194929323308,2.64
-0.626882473193,-0.522366352314,-0.125318052012,-2.64291922163,-0.0675955329317,2.11014273491,-0.874577970833,-0.0653306751643,0.0119824645412,-0.00056033490473,0.0125626698453,0.000538395127953,0.000557575255122,-0.0601981934551,0.573639664709,0.819074303938,0.00596377417475,0.0,0.819070105647,-0.573548404634,-0.0121299826248,0.0,-0.00651496934505,0.0118432163278,-0.999908642528,0.0,0.269525166827,-0.253936060617,0.304916470472,1.0,-0.0145115789474,-0.0190723609023,2.656
-0.627935258388,-0.522225227205,-0.125321108718,-2.64280386254,-0.0675704135976,2.11016879164,-0.875628108393,-0.0648833679112,0.00940699028855,-8.46477442876e-05,0.00836001766009,0.000902045396071,0.0018079653347,-0.0610180276239,0.573660757741,0.819059376536,0.00598495096729,0.0,0.819055478593,-0.573569445471,-0.012122751723,0.0,-0.00649659354023,0.0118565820942,-0.99990860369,0.0,0.269287316374,-0.254247988798,0.304919231854,1.0,-0.0141915789474,-0.0186517894737,2.672
-0.62921054856,-0.522049584164,-0.125317985937,-2.64266365757,-0.0675334069554,2.11019958845,-0.876918284499,-0.0648035408867,0.00725787860833,-0.000250936027239,0.0105287187655,0.000339033754262,0.00274062309091,-0.0550389459873,0.573669502878,0.819053045432,0.00601308055967,0.0,0.819049510501,-0.5735780597,-0.0121184025166,0.0,-0.00647676810462,0.0118771973092,-0.999908487642,0.0,0.269000622677,-0.254623291047,0.304921157505,1.0,-0.0137915789474,-0.018126075188,2.692
-0.630064040293,-0.521929516333,-0.125289012607,-2.64255854823,-0.0675107275745,2.11023525653,-0.877727548882,-0.0661358734242,0.00772199338881,0.00173565756328,0.011275299061,0.000191719517242,0.00222352854491,-0.0641481743927,0.573700337374,0.819031446272,0.00601330317965,0.0,0.819028084481,-0.573609199316,-0.0120925676684,0.0,-0.00645503144385,0.0118628027314,-0.999908799081,0.0,0.268819009165,-0.254873404621,0.304928561358,1.0,-0.0135115789474,-0.017758075188,2.706
-0.631181383143,-0.521743202516,-0.125213954663,-2.64241330472,-0.067481460074,2.11028444587,-0.878885809828,-0.0569181689575,0.00742114090441,0.00186907569262,0.0074519383841,0.000325062702757,0.00652593317154,-0.0683596942784,0.573633779148,0.819078196065,0.00599525256568,0.0,0.819074709286,-0.57354293475,-0.0120776449279,0.0,-0.00645412513106,0.0118389327917,-0.999909087837,0.0,0.26859030784,-0.255194251714,0.304932109036,1.0,-0.0131315789474,-0.0172586466165,2.725
-0.632078790269,-0.521596207099,-0.125180762182,-2.64230630798,-0.0674567826093,2.11029371502,-0.879870828435,-0.0558513812859,0.0102283235449,0.00369554456008,0.00311435526709,0.00151266803258,0.00266024905865,-0.057406282141,0.573554712889,0.819133529345,0.00599994386147,0.0,0.819129931884,-0.573463549841,-0.0121020079467,0.0,-0.00647253599231,0.011856125567,-0.99990876512,0.0,0.268393620206,-0.255451127427,0.304928311718,1.0,-0.0128115789474,-0.016838075188,2.741
-0.633103186702,-0.521439174516,-0.125135266943,-2.64220762773,-0.0674348479769,2.11032243403,-0.88086952228,-0.0606319105575,0.0112809571407,0.00199195465922,0.007097578512,0.000564708475889,0.00564253038513,-0.0481439400538,0.573558223019,0.819131101444,0.0059958615675,0.0,0.819127303329,-0.573466807202,-0.0121255465601,0.0,-0.00649410975162,0.0118663093183,-0.999908504435,0.0,0.268167555742,-0.255739878341,0.304918988971,1.0,-0.0124515789474,-0.0163649323308,2.759
-0.633874489981,-0.521322973374,-0.125120914147,-2.64214191511,-0.0674176261012,2.1103447097,-0.881633154389,-0.0535107626201,0.0116118319533,-0.00611584055628,0.0102282924032,0.00023025027898,0.00511844670892,-0.0545011092252,0.573565287171,0.81912609182,0.00600449440193,0.0,0.819122246223,-0.573473539698,-0.012148741063,0.0,-0.00650805742896,0.0118867399551,-0.999908171085,0.0,0.267991096732,-0.255959439026,0.304908395204,1.0,-0.0121715789474,-0.0159969323308,2.773
-0.634913598417,-0.521166478232,-0.125115900123,-2.64204835395,-0.0674037647185,2.11034633228,-0.882703222611,-0.0495781913253,0.00576461707872,0.00186341254757,0.000984165438323,0.000717777360249,-0.000175454722572,-0.0558364106254,0.573547394658,0.819138521076,0.00601799563614,0.0,0.81913447663,-0.573454906687,-0.0122035279218,0.0,-0.00654545670815,0.0119290790227,-0.99990742275,0.0,0.267745823809,-0.256256526848,0.304893656202,1.0,-0.0117915789474,-0.0154975037594,2.792
-0.635817392605,-0.521017339445,-0.125115951762,-2.64194402315,-0.0673902601382,2.11036382415,-0.88357897242,-0.0540023933762,0.00913963901292,5.68356982368e-05,0.00519167193281,-1.74200223461e-05,0.00260785640789,-0.055644217177,0.573581724825,0.819114406916,0.00602828596853,0.0,0.819110344341,-0.57348890522,-0.0122256404535,0.0,-0.00655716935465,0.0119504654174,-0.999907090637,0.0,0.267539040385,-0.256523377447,0.304887741995,1.0,-0.0114515789474,-0.0150506466165,2.809
-0.636587601507,-0.520891614102,-0.125117276319,-2.64184037518,-0.0673792465173,2.11038453886,-0.884301111148,-0.0488458819928,0.00514437717497,-0.00145428263439,0.00604704274579,0.000523175748781,0.00307463668816,-0.0444551911225,0.573620221508,0.819087443317,0.00602897834101,0.0,0.819083357966,-0.57352733263,-0.0122310396435,0.0,-0.0065606334368,0.0119544376542,-0.999907020432,0.0,0.2673565758,-0.25676713583,0.304886733042,1.0,-0.0111315789474,-0.014630075188,2.825
-0.637393294996,-0.520761341946,-0.125097849839,-2.64173559634,-0.0673706224836,2.11042774609,-0.885122637621,-0.0508057183819,0.0086899252199,0.000618325786073,0.0102171220034,-7.07342235161e-05,0.00146105043404,-0.0521620743032,0.573614561564,0.81909142032,0.00602717349148,0.0,0.819087508716,-0.573522041938,-0.0122011219867,0.0,-0.00653724335183,0.011935753559,-0.99990739683,0.0,0.267193023396,-0.256996081127,0.304894226663,1.0,-0.0108315789474,-0.0142357894737,2.84
-0.638330387335,-0.520612453881,-0.125075403575,-2.64160406567,-0.0673640341646,2.11046822627,-0.886072557094,-0.0506291677967,0.00698315954104,0.00121092241323,0.00564441096163,0.00169577763444,0.00278026687181,-0.0508542165212,0.573597759328,0.819103273412,0.00601538698021,0.0,0.819099398793,-0.57350564436,-0.0121736471572,0.0,-0.00652174141343,0.0119102058996,-0.999907802692,0.0,0.26699117641,-0.25727722489,0.304903233811,1.0,-0.0104515789474,-0.0137363609023,2.859
-0.639150418238,-0.520487107978,-0.125051697532,-2.64149496395,-0.067355767659,2.11049878635,-0.886851796851,-0.0411193145487,0.00593968194115,-0.000641388804515,0.0025816921261,-0.000255712019847,-7.43218176133e-05,-0.0424304692837,0.573623038642,0.819085640101,0.0060058822385,0.0,0.819081820252,-0.573531286949,-0.0121483136094,0.0,-0.00650607312143,0.0118880904057,-0.999908167943,0.0,0.266804112719,-0.257533282925,0.304912333067,1.0,-0.0100915789474,-0.0132632180451,2.877
-0.639898043745,-0.520392992085,-0.125046908408,-2.6413990683,-0.0673480892895,2.11051762286,-0.887571603223,-0.0501247604856,0.00538862397172,0.000970181136329,0.00499213382713,-0.000222094281049,0.00112155972873,-0.0422539306329,0.573651104717,0.819065981616,0.00600622315397,0.0,0.819062279878,-0.573559553501,-0.0121312476576,0.0,-0.0064914905818,0.0118788031541,-0.999908373095,0.0,0.266645599205,-0.257742826441,0.304920569965,1.0,-0.00979157894737,-0.0128689323308,2.892
-0.640600523448,-0.520313992692,-0.125045616475,-2.64132793671,-0.0673372883362,2.11054261817,-0.888266547456,-0.0394308172085,-0.000243632519718,-0.000534897421033,0.00217597461685,-0.000336588370196,-5.04611309903e-05,-0.044792313449,0.573664633875,0.819056455195,0.00601314775771,0.0,0.819052975185,-0.573573290565,-0.0121099584039,0.0,-0.0064698832221,0.0118723699951,-0.999908589543,0.0,0.266484419378,-0.257948920288,0.304926004595,1.0,-0.00947157894737,-0.0124483609023,2.908
-0.641330619139,-0.520222843543,-0.125035333681,-2.64125872119,-0.0673268899427,2.11056277959,-0.889015123495,-0.0467703939856,0.00778827156073,0.00109111829153,0.00667446822235,0.00027749756185,0.00135343938601,-0.0466950277789,0.573650281483,0.819066478947,0.0060170193442,0.0,0.819063060131,-0.573558944077,-0.0121073572277,0.0,-0.00646573967783,0.0118739357687,-0.999908597753,0.0,0.266316367686,-0.25815897067,0.304925897204,1.0,-0.00913157894737,-0.0120015037594,2.925
-0.641993302514,-0.520148142374,-0.125026792124,-2.64121270632,-0.0673191718006,2.11057194054,-0.889679012758,-0.0415116123799,0.00381746609356,0.000957702470447,0.00534799724678,-8.21467281268e-05,-0.0002439876446,-0.0436678261989,0.573649020184,0.81906732337,0.0060223193417,0.0,0.819063866801,-0.57355746381,-0.0121229002544,0.0,-0.00647544992746,0.011887182885,-0.999908377518,0.0,0.266158197967,-0.258344466652,0.304920314622,1.0,-0.00881157894737,-0.0115809323308,2.941
-0.642678248876,-0.520068351921,-0.125014050203,-2.64114713686,-0.0673095745047,2.11059369465,-0.890322743634,-0.0430289661855,0.0025812648728,0.000158761392767,0.00482073649247,0.0014130129704,0.00273494337327,-0.0357878366494,0.573681249782,0.819044744698,0.00602301683409,0.0,0.819041372454,-0.573589821804,-0.012111706451,0.0,-0.00646541284462,0.0118815876253,-0.999908508971,0.0,0.266001636093,-0.258541322243,0.304922918121,1.0,-0.00847157894737,-0.011134075188,2.958
-0.643416800985,-0.519943057942,-0.124984847625,-2.641058324,-0.0672949011247,2.11060975139,-0.891016999888,-0.0400808619906,0.0107615595705,0.00204119858747,0.00359095933026,9.80873741168e-05,0.000731960928615,-0.036184032938,0.573707795048,0.819026178704,0.00601925244931,0.0,0.819022657856,-0.573616195183,-0.0121282085971,0.0,-0.00648070442762,0.0118881808358,-0.999908331612,0.0,0.265838516495,-0.258752569453,0.304919245167,1.0,-0.00809157894737,-0.0106346466165,2.977
-0.643986481463,-0.519843961224,-0.124962780444,-2.64098029272,-0.0672876989152,2.11063428684,-0.891569817478,-0.0379320913725,0.00853658863099,0.00092606468858,0.00416775662321,-6.32698748039e-05,0.000791554298847,-0.0331772196626,0.573713109338,0.81902251841,0.00601077472176,0.0,0.819018936662,-0.573621636365,-0.0121221526536,0.0,-0.00648053033346,0.0118778048964,-0.999908456049,0.0,0.265716197744,-0.258920046341,0.304920858005,1.0,-0.00779157894737,-0.0102403609023,2.992
-0.644670548294,-0.519712955781,-0.124940826106,-2.64089276601,-0.0672756096824,2.11066966387,-0.892254993765,-0.033550867773,0.00780273577233,0.000146238569287,0.00210093525044,-0.000341185997421,0.00328192869046,-0.0306447175245,0.57370645178,0.819027212037,0.00600666546579,0.0,0.819023551835,-0.573614952538,-0.0121266098271,0.0,-0.00648663519993,0.0118769434485,-0.999908426696,0.0,0.265567750503,-0.259120768921,0.304915965754,1.0,-0.00741157894737,-0.00974093233083,3.011
-0.645158537229,-0.519633022488,-0.124935912226,-2.64083821415,-0.0672661276191,2.1106884445,-0.892733836582,-0.0287994470817,0.00246926319191,-0.00157495062086,0.00223495523701,0.00206065827926,0.000289209235782,-0.0318812863592,0.573717401501,0.819019509918,0.00601103076564,0.0,0.8190158789,-0.573625830118,-0.0121302939897,0.0,-0.00648698982049,0.011882719172,-0.999908355775,0.0,0.265456966969,-0.259263489538,0.304913061272,1.0,-0.00713157894737,-0.00937293233083,3.025
-0.64573734518,-0.519551543615,-0.124918468751,-2.64078926357,-0.0672585634565,2.11070130053,-0.893255966528,-0.0326161975003,0.0050198603061,3.1089505123e-05,0.00531225100942,-0.000291560215001,0.000500147953544,-0.0341294132672,0.573757328515,0.818991550558,0.00600957499617,0.0,0.818987797749,-0.573665566969,-0.0121470701228,0.0,-0.00650098671134,0.0118914680421,-0.999908160863,0.0,0.265322824733,-0.259425425842,0.304906830106,1.0,-0.00679157894737,-0.00892607518798,3.042
-0.646286408971,-0.519500759158,-0.124910345991,-2.6407483628,-0.0672450144464,2.11071061602,-0.893773573262,-0.0262199455617,0.00390777180946,0.000869573449425,0.00623694915329,0.000350450462449,0.00137171083124,-0.0331231899267,0.573785242806,0.818971930502,0.00601822972072,0.0,0.818968303871,-0.573693461706,-0.0121439759416,0.0,-0.00649308139101,0.0118970026251,-0.999908146393,0.0,0.265193086762,-0.259578805406,0.304907718108,1.0,-0.00645157894737,-0.00847921804512,3.059
-0.646800982001,-0.51943830312,-0.124911701624,-2.64069075275,-0.0672379403088,2.11072746402,-0.89424286814,-0.0319512771039,0.00404009478725,0.00115241416729,0.000585370657791,-0.000462953449207,-0.000341284661578,-0.0280326907628,0.573829258096,0.818941057891,0.0060227198825,0.0,0.818937585075,-0.573737622791,-0.0121292557936,0.0,-0.00647780930086,0.0118925824985,-0.999908298029,0.0,0.265074369896,-0.259730840366,0.304912316307,1.0,-0.00611157894737,-0.00803236090226,3.076
-0.647257984349,-0.519393343916,-0.124900703661,-2.64062948801,-0.067221797243,2.11074608804,-0.894698695349,-0.0258077908699,0.00183078812153,2.21517598038e-05,0.000441947029271,0.00102149591151,0.000861221846559,-0.0311152485235,0.573832345709,0.818938861211,0.00602723140386,0.0,0.818935688523,-0.573741134018,-0.0120911579261,0.0,-0.00644397258849,0.0118744410344,-0.999908732269,0.0,0.264975536122,-0.259865421671,0.304925462769,1.0,-0.00579157894737,-0.00761178947369,3.092
-0.64773556666,-0.519341116583,-0.12488970142,-2.64055247157,-0.067214843532,2.11076669975,-0.895144831776,-0.0256378974267,0.000910553588856,0.00138330402579,0.00171290549545,-0.000561936447774,0.000104953228415,-0.0207742756857,0.573857061789,0.818921583544,0.00602158967671,0.0,0.81891865179,-0.573766449293,-0.0120436837047,0.0,-0.00640796977654,0.0118427730537,-0.999909339215,0.0,0.264874244664,-0.260010536186,0.30494325446,1.0,-0.00545157894737,-0.00716493233083,3.109
-0.648239617045,-0.519288059872,-0.124876265891,-2.64047884843,-0.0672036532419,2.11078555968,-0.895628083458,-0.0263171064203,0.00437459323783,-0.000248872711672,0.00367326515852,0.00357932672628,0.000339073775055,-0.0148619960274,0.573872986798,0.818910439665,0.00601944614262,0.0,0.81890775348,-0.57378288617,-0.0120015720171,0.0,-0.00637448016486,0.011816976611,-0.99990985847,0.0,0.264765820089,-0.260160529727,0.304959109186,1.0,-0.00505157894737,-0.00663921804512,3.129
-0.648602686122,-0.519238103646,-0.124857750105,-2.64042708979,-0.0671904160325,2.11079973883,-0.895998659571,-0.0193658650457,0.0038837080893,0.00104848082057,0.00131882852086,0.00177147285712,-0.000380203402408,-0.0225396526845,0.57386197777,0.818918159877,0.00601870364988,0.0,0.818915580751,-0.573772099013,-0.0119831923588,0.0,-0.00636001205934,0.0118057359588,-0.99991008338,0.0,0.2646895946,-0.260265643307,0.304965891418,1.0,-0.00473157894737,-0.00621864661655,3.145
-0.648944654815,-0.519191664504,-0.12483180679,-2.64039165919,-0.0671784281275,2.11080884511,-0.896332950662,-0.0147541680351,0.00424535829419,0.000403535220522,-0.000480461825954,0.00258489295838,0.000241951517898,-0.0193490004441,0.573856834008,0.818921787332,0.00601557948886,0.0,0.818919172395,-0.573766978175,-0.0119829354264,0.0,-0.00636166851338,0.0118029900065,-0.99991010526,0.0,0.264615847296,-0.260358820259,0.304966289815,1.0,-0.00441157894737,-0.00579807518798,3.161
-0.649276478716,-0.519152137645,-0.124807278787,-2.64035711118,-0.0671642829893,2.11081781389,-0.896670172252,-0.0177244013998,0.00645227047186,-0.000251502204052,9.22399967861e-05,-1.57366449829e-05,0.00314878201267,-0.019323772537,0.573842831503,0.818931604351,0.00601490063293,0.0,0.818929020541,-0.573753055508,-0.0119765401008,0.0,-0.00635702197495,0.0117986555277,-0.999910185966,0.0,0.264544524532,-0.260449254958,0.30496878761,1.0,-0.00407157894737,-0.00535121804512,3.178
-0.649559113406,-0.519103746294,-0.124770073656,-2.64033402163,-0.0671461549698,2.11082552077,-0.896938560603,-0.0204992388676,0.00148477793441,-0.000103510237846,0.0020436755929,0.000522820962308,-0.000227562555517,-0.0195151530077,0.573837136375,0.818935611658,0.00601263475561,0.0,0.818932902989,-0.573747194021,-0.0119918578635,0.0,-0.00637094979518,0.0118055451046,-0.999910016003,0.0,0.264486072829,-0.260520222001,0.304963007859,1.0,-0.00377157894737,-0.00495693233083,3.193
-0.649851904584,-0.519057888492,-0.124727220356,-2.64031518995,-0.0671244331592,2.11083088348,-0.89721287797,-0.0189062141315,0.00398088999208,0.00311758469319,0.00255410469955,-4.96579543742e-05,4.21063338287e-05,-0.0167703272639,0.573832221955,0.81893906371,0.00601147870505,0.0,0.818936219241,-0.573742061848,-0.0120109192704,0.0,-0.00638729576985,0.0118154976204,-0.999909794166,0.0,0.264425214764,-0.26059088552,0.304956160577,1.0,-0.00343157894737,-0.00451007518798,3.21
-0.650149493972,-0.519014633324,-0.124694090487,-2.64030329971,-0.067098860199,2.11084232066,-0.897506376603,-0.0143666143362,0.00140661727083,0.0016275357576,-0.000741328656778,0.00271420596401,0.000857540268514,-0.0124081073945,0.573823729939,0.818944959648,0.006018880928,0.0,0.818942095528,-0.573733326041,-0.0120275377229,0.0,-0.00639678197918,0.0118310293021,-0.999909549872,0.0,0.264360738034,-0.260663653368,0.304947408546,1.0,-0.00305157894737,-0.00401064661655,3.229
-0.650361675307,-0.518976886015,-0.124663194713,-2.64027875032,-0.0670778954376,2.11085031311,-0.897716627088,-0.0147153324133,-8.53367089024e-05,0.00239014480009,0.00388863584273,-0.000154438471797,7.42033782022e-05,-0.0131724125289,0.573811210191,0.818953711952,0.00602159782468,0.0,0.818950860251,-0.573720755013,-0.0120304057737,0.0,-0.00639775299088,0.0118348022713,-0.999909499011,0.0,0.264317003059,-0.260721975193,0.304945975641,1.0,-0.00273157894737,-0.00359007518798,3.245
-0.650557637916,-0.518934355074,-0.124642261177,-2.64025871919,-0.0670545104466,2.11085593471,-0.897930627726,-0.0148445374834,-0.000988381036167,0.00073343765321,-0.000348375545709,0.000367738353711,0.000359780574248,-0.0167426527369,0.573795126387,0.818964912626,0.00603089741492,0.0,0.8189620788,-0.573704444334,-0.0120445398424,0.0,-0.0064042261706,0.0118504027021,-0.999909272806,0.0,0.26428019713,-0.260767697771,0.304940513903,1.0,-0.00243157894737,-0.00319578947369,3.26
-0.650748047729,-0.518903729774,-0.124611719841,-2.64023698552,-0.0670301038186,2.11085883401,-0.898128115249,-0.00968267971431,-0.000270226741996,0.00179984786124,0.000801210101295,0.000396846940051,-0.000214814188725,-0.0063294272751,0.57377922435,0.818976012805,0.00603647701977,0.0,0.818973221611,-0.573688466363,-0.0120479353904,0.0,-0.00640403614236,0.0118567963354,-0.999909198228,0.0,0.264244150205,-0.260814334484,0.304940092911,1.0,-0.00209157894737,-0.00274893233083,3.277
-0.650935881345,-0.51888077995,-0.124582898303,-2.64022664005,-0.0670101671793,2.11085979717,-0.89829822202,-0.0117459101325,0.00136366167684,0.00113935202764,0.0019078517575,0.000344253701108,-0.000697291185426,-0.00244026835904,0.573782388691,0.818973766985,0.00604039058467,0.0,0.818970962082,-0.573691493647,-0.0120573746774,0.0,-0.00640947626508,0.0118654421788,-0.999909060813,0.0,0.264205242395,-0.26085805063,0.304937115087,1.0,-0.00175157894737,-0.00230207518798,3.294
-0.651109318102,-0.51886891847,-0.124555959276,-2.64021779108,-0.0669903813745,2.11086655055,-0.898459229054,-0.00749019858313,6.49845277427e-06,0.00246813765962,0.00150529589549,0.00044472447988,0.000653198877323,-0.00805607771591,0.573782359168,0.818973760095,0.00604412811793,0.0,0.818971037232,-0.57369151,-0.012051490795,0.0,-0.00640251301273,0.0118651271342,-0.999909109162,0.0,0.264170479222,-0.260899001651,0.304937989959,1.0,-0.00141157894737,-0.00185521804512,3.311
-0.65124641232,-0.518861485072,-0.124531849839,-2.64021437342,-0.0669734916703,2.11086152363,-0.898575903004,-0.00815001675479,0.000217162435931,-0.000124546704461,0.000458540932258,0.000402765069209,-0.000295089677259,-0.00667811991015,0.573788050466,0.818969735235,0.00604919930437,0.0,0.818966936453,-0.573696915428,-0.0120728259468,0.0,-0.00641699563452,0.0118815662429,-0.999908821119,0.0,0.264136538878,-0.260928001926,0.304932221523,1.0,-0.00107157894737,-0.00140836090226,3.328
-0.651390282486,-0.518861439197,-0.124514184504,-2.64021362741,-0.0669538330739,2.11086315561,-0.898657807907,-0.00510812145659,-0.00129604210564,-0.000797767389965,0.00032645442786,1.03916635779e-05,0.00065005732398,-0.00129378465115,0.573836017004,0.818936070501,0.00605680799369,0.0,0.818933485308,-0.573745051599,-0.012054431064,0.0,-0.00639686795233,0.0118776182701,-0.999908996992,0.0,0.264109806714,-0.260960859482,0.304937842918,1.0,-0.000731578947374,-0.000961503759405,3.345
-0.651454968404,-0.518849059325,-0.124503396724,-2.64021881999,-0.0669342956869,2.11086470254,-0.898697255937,0.00184911234105,-0.000182797882408,0.000627655073294,-0.000798631037887,0.000242244834822,3.05099999664e-05,-0.00238525879551,0.573857186053,0.818921142372,0.00606955461405,0.0,0.818918620823,-0.573765971385,-0.0120685314415,0.0,-0.00640079489094,0.0118963138273,-0.999908749608,0.0,0.264095806794,-0.260972284318,0.304931322617,1.0,-0.000371578947374,-0.000488360902262,3.363
-0.651466053388,-0.518837323017,-0.124490336482,-2.64021882101,-0.0669171682947,2.11086381552,-0.8987409486,0.000682455897158,0.000470890505538,0.00123702077457,-0.000316535632542,0.000914600652206,-0.000581871854462,-0.0016194632663,0.573828581605,0.818941118509,0.00607867170973,0.0,0.818938631881,-0.573737177743,-0.0120795277243,0.0,-0.00640498531028,0.011909866656,-0.999908561439,0.0,0.264096895824,-0.260970302503,0.304927242313,1.0,-7.15789473736e-05,-9.40751879768e-05,3.378
-0.651457249128,-0.518827466159,-0.124450504387,-2.64021884848,-0.0668941050584,2.11086432863,-0.898755699913,0.000297918255388,0.000687269197594,0.0038913527487,-0.00184329699108,0.00380290996165,0.00130090102347,-0.000782517698825,0.573790919652,0.818967504599,0.00607896670907,0.0,0.8189649666,-0.573699419809,-0.0120874353647,0.0,-0.00641184055138,0.0119143508102,-0.999908464083,0.0,0.264109805415,-0.260956845065,0.304924594198,1.0,0.0,0.0,3.401
-0.651451416879,-0.518829262442,-0.124407346327,-2.64021102564,-0.0668842583446,2.11086928246,-0.898764317832,0.000165645921829,-7.76510085025e-05,0.00138548166685,0.00143610993649,0.000703577970567,0.000638554806666,-0.00216688256946,0.573753017915,0.818994167536,0.006064229258,0.0,0.818991543148,-0.573661785891,-0.0120728853826,0.0,-0.00640892951921,0.0118936358905,-0.999908729359,0.0,0.264124244506,-0.260947620865,0.304930252488,1.0,0.0,0.0,3.416
-0.651446672828,-0.518829612148,-0.124372112101,-2.64021845436,-0.0668720315991,2.11086546512,-0.898760063087,0.00134778028487,-0.00188009053431,0.00124499393874,-0.000553978354803,0.000753720245112,-0.000301009367969,0.000906462704906,0.573732497267,0.819008584882,0.00605857824995,0.0,0.81900582453,-0.573641178337,-0.0120832447502,0.0,-0.00642095484059,0.0118947900723,-0.999908638481,0.0,0.264131963648,-0.260935001586,0.304927515299,1.0,0.0,0.0,3.434
-0.651439236323,-0.518824827206,-0.124361736616,-2.6402230817,-0.0668640331282,2.11086698806,-0.898759761655,0.00308977640074,-0.00015604841067,0.000608707470242,-0.0007266794115,0.000192135566646,0.000287470145052,0.00108159389956,0.573722514409,0.819015560783,0.00606090401492,0.0,0.819012780134,-0.573631093785,-0.0120905385135,0.0,-0.00642573989683,0.0119008011312,-0.999908536217,0.0,0.264135955897,-0.260928907476,0.304924029338,1.0,0.0,0.0,3.447
-0.651445879111,-0.518816710822,-0.124358869054,-2.64021381031,-0.0668563748062,2.1108639465,-0.898762101342,-0.000702736152126,0.00249613314741,-0.000698020109384,-0.000719293620502,0.000529691188571,-0.000638776172077,0.000288389531244,0.573727739221,0.81901186828,0.00606529196057,0.0,0.819009132068,-0.573636274862,-0.0120918424461,0.0,-0.00642421467254,0.0119051841456,-0.999908493841,0.0,0.264137000606,-0.260931074482,0.304925065499,1.0,0.0,0.0,3.462
-0.651445487937,-0.518829072489,-0.124352792174,-2.6402101906,-0.0668552533962,2.11086934192,-0.898769268938,-8.98358984521e-06,-0.00224908890486,0.000584023122653,0.000705507831161,-8.97157576884e-05,2.52672579654e-05,-0.000163638454978,0.573717818798,0.819018844363,0.00606167249365,0.0,0.819016200733,-0.573626631263,-0.0120705320222,0.0,-0.00640897980803,0.0118899161971,-0.999908773274,0.0,0.264140488905,-0.260931428084,0.304931866086,1.0,0.0,0.0,3.479
-0.651440589084,-0.518823779197,-0.124354626029,-2.6402179888,-0.0668450620292,2.11086710631,-0.898770087162,0.000202432027986,0.000348682674312,-0.00132098783574,-0.000592721115736,8.52017008678e-05,-2.91801670304e-05,-0.00168646835341,0.573718453593,0.81901831704,0.00607282975327,0.0,0.819015715137,-0.573627025445,-0.0120847399303,0.0,-0.00641420758559,0.0119072105589,-0.999908533956,0.0,0.264140018371,-0.260927097332,0.304926146301,1.0,0.0,0.0,3.498
-0.651445878459,-0.518821334465,-0.124354626016,-2.64020741286,-0.0668385053299,2.11087039598,-0.898770449096,-0.00129141281651,-0.000123953581311,-0.00102799486857,-0.00010811092348,1.81304334053e-05,0.000481375267638,-0.000855102865881,0.573725781958,0.81901315595,0.00607654496239,0.0,0.819010675248,-0.573634471453,-0.0120728576514,0.0,-0.00640223685153,0.0119034940685,-0.999908654924,0.0,0.264142119195,-0.260930964997,0.304930336014,1.0,0.0,0.0,3.514
-0.651440667074,-0.518820859644,-0.124349990587,-2.64020709683,-0.0668385839558,2.1108697317,-0.89877782829,-0.00172956650904,-0.000670041706181,-0.000303516476003,-0.000103088702596,-0.000359025471901,-0.000873413962279,-0.00130868310308,0.5737121654,0.819022710813,0.00607431861817,0.0,0.81902019647,-0.573620858743,-0.0120737355668,0.0,-0.00640443107667,0.0119020677563,-0.999908657851,0.0,0.264144440104,-0.260928564134,0.30493035682,1.0,0.0,0.0,3.531
-0.651440337898,-0.518818117058,-0.124345779393,-2.64020959965,-0.0668332535354,2.11087211259,-0.898771451363,0.00106402523868,0.000742602911157,0.00158418600002,4.99400079623e-05,-0.000203134168432,0.000437836257736,0.000852698371748,0.573716301542,0.819019794532,0.00607687508662,0.0,0.819017295277,-0.573624949119,-0.0120762033597,0.0,-0.00640492574671,0.0119056097453,-0.999908612516,0.0,0.264145662958,-0.26092666359,0.304928515023,1.0,0.0,0.0,3.548
-0.651448384331,-0.518822727761,-0.124353914331,-2.64020959965,-0.0668330985115,2.11087144137,-0.898773442868,-0.00213927324674,-0.00602878449268,-0.00147339280843,-2.66558311214e-05,-0.000301440611145,0.000918403402966,0.000530961036451,0.573727075963,0.81901221679,0.00608095041361,0.0,0.819009793698,-0.573635746585,-0.0120720738583,0.0,-0.00639904864301,0.0119066628194,-0.999908637605,0.0,0.264141799437,-0.260930533484,0.304929964857,1.0,0.0,0.0,3.564
