nelsonifechukwu/NELSON_IML_WORK/CNN-GradCAM/train2dof/data_sample_2022-02-21-15-43-08/robot_state.csv
position_joint1,position_joint2,position_joint3,position_joint4,position_joint5,position_joint6,position_joint7,velocity_joint1,velocity_joint2,velocity_joint3,velocity_joint4,velocity_joint5,velocity_joint6,velocity_joint7,ee_T_00,ee_T_10,ee_T_20,ee_T_30,ee_T_01,ee_T_11,ee_T_21,ee_T_31,ee_T_02,ee_T_12,ee_T_22,ee_T_32,ee_T_03,ee_T_13,ee_T_23,ee_T_33,v_x,v_y,time
0.465095734591,0.547848822593,-0.123905126613,-1.35586012097,0.0795065553188,1.89409279279,0.159162040956,-0.000694249037741,-0.0020447742247,-0.000496374198757,-0.000235419507538,-0.0004580547321,2.22987031546e-05,0.000911184521114,0.573735036187,0.819027056791,0.00188026518848,0.0,0.81898246005,-0.573676242686,-0.0120019002457,0.0,-0.00875138605688,0.00842597710757,-0.999926205353,0.0,0.661642228954,0.260949730087,0.303150136812,1.0,0.0,0.0,0.0
0.465091836546,0.547853357765,-0.123904728405,-1.35586300849,0.0795102664905,1.89409384062,0.159161231493,-0.0014291891659,0.000273643685345,0.00127058471869,0.000211720869824,0.000341161840283,0.000299515866455,0.000777594581876,0.573738443617,0.819024677563,0.00187690153069,0.0,0.818979998429,-0.573679627122,-0.0120081013769,0.0,-0.00875835981368,0.00842681644978,-0.999926137221,0.0,0.661642371859,0.260947650168,0.303145634589,1.0,-0.00028,-0.000368,0.015
0.465091840112,0.547847779148,-0.123906882656,-1.35586360405,0.0795102664365,1.89409314595,0.159162040746,-0.000653485860655,-3.46107791771e-05,-0.000557938888691,0.000466774225326,0.000481667186153,0.000361909509478,0.000725737208536,0.573740626806,0.819023140602,0.00188021594475,0.0,0.818978514874,-0.573681805536,-0.0120052102213,0.0,-0.00875406784397,0.00842789556246,-0.999926165711,0.0,0.661642739384,0.260946362363,0.303149313991,1.0,-0.00062,-0.000814857142857,0.032
0.465088544744,0.547816699121,-0.123905205343,-1.35589436234,0.0795089045169,1.89409394271,0.159162027577,-0.000491338032302,-0.00474876751436,0.000660991781096,-0.00313981621229,-0.000207576822952,-0.000234974881829,0.00332801926795,0.573743411087,0.81902118478,0.00188255586748,0.0,0.818976562815,-0.57368455362,-0.0120070562558,0.0,-0.00875420876349,0.00843090086794,-0.999926139142,0.0,0.661637220999,0.260941743894,0.303156703726,1.0,-0.00096,-0.00126171428571,0.049
0.465095774821,0.547707508836,-0.123903311447,-1.3560267238,0.0795065359945,1.89412617796,0.15915561943,-0.000215389321283,-0.00882098791622,0.000601917358131,-0.00828402470407,0.000345282330802,0.00415971338093,-0.000736589884565,0.573737545257,0.819025265113,0.00189503841443,0.0,0.818980722212,-0.573678553964,-0.0120100070395,0.0,-0.00874952475771,0.00844275443582,-0.999926080125,0.0,0.661614005873,0.260935154347,0.303173790911,1.0,-0.00132,-0.00173485714286,0.067
0.465087501736,0.547585994015,-0.123904495383,-1.35619496885,0.0795026217486,1.89415130141,0.15915410264,0.000585778224783,-0.00976072234323,-0.000299327307887,-0.0105320411418,-0.000227405719128,0.00210689759968,0.000595652737473,0.57375200572,0.819015166649,0.00188139114082,0.0,0.818970343847,-0.573692973506,-0.0120289214047,0.0,-0.00877269709258,0.00844258387801,-0.999925878535,0.0,0.661586301272,0.260911688102,0.303182009138,1.0,-0.00162,-0.00212914285714,0.082
0.465065604598,0.54741863265,-0.123907237799,-1.35640929918,0.0794996108825,1.89425876777,0.159149128132,-0.00325216126147,-0.00956274608929,0.00371510533515,-0.0142011959905,0.000428163494655,0.0083239251316,0.000627551894152,0.573779135431,0.818996030881,0.00193702009521,0.0,0.818951900487,-0.573719827866,-0.0120037787368,0.0,-0.00871990819065,0.00847400722464,-0.999926074469,0.0,0.661569531316,0.260879194771,0.303207968105,1.0,-0.00196,-0.002576,0.099
0.46504327162,0.547216368348,-0.123900966445,-1.35663936005,0.0795000864508,1.89438943953,0.159129386502,-0.00149267078638,-0.0131017250487,0.00107347042471,-0.0139557329944,8.22048844079e-06,0.0144558271731,0.00237026912349,0.573790106076,0.81898811088,0.00203354557664,0.0,0.818945146071,-0.573730297682,-0.0119641192503,0.0,-0.00863193090551,0.00853041977004,-0.999926358142,0.0,0.661552548943,0.260852370179,0.303252879718,1.0,-0.00232,-0.00304914285714,0.117
0.465010181172,0.547022143749,-0.123905442542,-1.35690409358,0.0794930519503,1.89451363977,0.159124336016,-0.00216460109209,-0.0130018721726,-0.000672157411673,-0.0235922035122,-0.00031264977655,0.00740955182989,-0.00203940742019,0.573829290478,0.818960534216,0.00208223133026,0.0,0.818918187646,-0.573769258849,-0.0119409565478,0.0,-0.00858461710683,0.00855741248742,-0.999926534822,0.0,0.661531787115,0.260806319754,0.303275366218,1.0,-0.00264,-0.00346971428571,0.133
0.464971134702,0.546788650796,-0.123905443407,-1.35726747722,0.0794867820212,1.89464745897,0.159092621584,-0.000170348900788,-0.0187471710954,-0.000234993163693,-0.0264035315689,-0.000130436829319,0.0127323126139,-0.00537067795798,0.573853964409,0.818943215379,0.00209390026971,0.0,0.818900878055,-0.573793739018,-0.0119517314999,0.0,-0.00858648787544,0.00857341033688,-0.999926381721,0.0,0.661491807513,0.260748493211,0.303279390613,1.0,-0.00298,-0.00391657142857,0.15
0.46492964406,0.546500730212,-0.123903990548,-1.35768276073,0.0794742473191,1.89480617811,0.158961162883,-0.00199800850025,-0.0125458062606,9.90158838089e-05,-0.0291737978492,-0.000514017476439,0.00873506492446,-0.0106466399038,0.573799174703,0.818981514639,0.00212901169913,0.0,0.818939515451,-0.573738691811,-0.011946985109,0.0,-0.00856302843768,0.00859886755987,-0.999926364299,0.0,0.661446954225,0.26068512782,0.303299346286,1.0,-0.00332,-0.00436342857143,0.167
0.464882533026,0.546224499136,-0.123903341557,-1.35814629485,0.0794567593273,1.89495333264,0.158934053981,-0.00810704652005,-0.0232358135541,0.000992040665579,-0.0306471139755,-0.000841879751682,0.0104887958398,0.000773167492926,0.573836253017,0.818955608829,0.00210056941333,0.0,0.818913103088,-0.573775747171,-0.0119778316215,0.0,-0.00860422226138,0.00859366328813,-0.999926055421,0.0,0.661390293822,0.26061010025,0.303287054781,1.0,-0.00364,-0.004784,0.183
0.464835317015,0.545904009212,-0.123906917004,-1.35869037837,0.0794251021154,1.89514086829,0.158895660226,-0.00538993936257,-0.0186751744975,0.000586366624217,-0.034476206838,0.000169362246576,0.00641858628887,-0.00220570299141,0.573867939565,0.81893348636,0.00206875782798,0.0,0.818890548076,-0.573807545224,-0.0119965918806,0.0,-0.0086375082611,0.00857871086269,-0.99992589684,0.0,0.661326108041,0.260524027179,0.303271366084,1.0,-0.00398,-0.00523085714286,0.2
0.464777366977,0.545547537013,-0.123906198148,-1.35930235149,0.0793447023805,1.89534460232,0.158794087803,-0.00588017521642,-0.0201062132647,0.00141568924849,-0.0362209975544,-0.00411578009371,0.0104119255932,-0.00698531016167,0.573844434207,0.818950126166,0.0020007708987,0.0,0.818906649307,-0.573784673395,-0.0119914635982,0.0,-0.00867256592374,0.00851984326986,-0.999926096705,0.0,0.661254987552,0.260418963298,0.303249991118,1.0,-0.00432,-0.00567771428571,0.217
0.4647226594,0.545181634266,-0.123912545321,-1.35995453164,0.0793244617166,1.89555514708,0.158698750869,-0.00290892095852,-0.026290059396,0.000207741611848,-0.0395842501374,-5.60402950617e-05,0.011917428929,-0.00114653163111,0.573846505221,0.818948809578,0.00194490036426,0.0,0.818904403346,-0.573786787296,-0.0120435794828,0.0,-0.00874728536126,0.00850401719762,-0.999925580576,0.0,0.661173566651,0.260317507451,0.303217067574,1.0,-0.00464,-0.00609828571429,0.233
0.464659199163,0.544721831976,-0.123912512957,-1.36070491355,0.0792988102649,1.89581855422,0.158636918861,-0.00552446589136,-0.0237895289715,0.00058243811603,-0.0447395053577,-0.00141298547855,0.0216011101905,-0.00486981107991,0.573882792169,0.818923412627,0.00193183950615,0.0,0.81887862825,-0.573822924923,-0.0120743500579,0.0,-0.00877960319337,0.00851136767987,-0.999925234799,0.0,0.661083632898,0.260206260421,0.303208201467,1.0,-0.005,-0.00657142857143,0.251
0.464583453982,0.544233935451,-0.123909741291,-1.36152890856,0.0792619615087,1.89611939404,0.158511345438,-0.00552707618822,-0.0243323779391,0.000825096685477,-0.0488042097717,-0.0018843842644,0.0127770505197,-0.0119866030593,0.573876215387,0.818928076167,0.00190850191614,0.0,0.818882832636,-0.573816302294,-0.0121039058908,0.0,-0.00881726861255,0.00850914698663,-0.999924922278,0.0,0.660988058115,0.260080840446,0.303187276836,1.0,-0.00536,-0.00704457142857,0.269
0.464519692067,0.5437811106,-0.123912582882,-1.3622625517,0.0792265453233,1.89637127395,0.158425377797,-0.00336108319969,-0.0289936804408,0.000698084899909,-0.0515961234834,-0.00589545571659,0.0110220993993,-0.0123128869667,0.573891344484,0.818917521641,0.00188795544947,0.0,0.818871904998,-0.573831419943,-0.0121264831252,0.0,-0.0088473916905,0.00850544113617,-0.99992468773,0.0,0.660900572032,0.259967272049,0.303180420833,1.0,-0.00566,-0.00743885714286,0.284
0.464439707229,0.543243206357,-0.123912911497,-1.36311635085,0.0791737034393,1.89666768898,0.158312615023,-0.00354497887142,-0.0324948529947,0.00102466513829,-0.0488698549379,-0.00231331450753,0.022398261811,-0.00830824891859,0.573898042814,0.81891286686,0.00187078760125,0.0,0.818867002057,-0.573838171385,-0.0121380766436,0.0,-0.00886666851704,0.0084981082787,-0.999924579328,0.0,0.660801052426,0.259831504093,0.303180270059,1.0,-0.006,-0.00788571428571,0.301
0.464362611329,0.542639472438,-0.123918891522,-1.36406774833,0.0791215657088,1.89701051892,0.158194073516,-0.00785617257734,-0.0300593334532,-0.000115584250521,-0.0504536832245,0.000245453954809,0.013527933709,-0.00644610726207,0.573907234466,0.818906431833,0.00186789464448,0.0,0.818860488379,-0.573847335736,-0.0121442472472,0.0,-0.00887328665364,0.00849938011257,-0.999924509811,0.0,0.660690407043,0.25968692272,0.303184381432,1.0,-0.00636,-0.00835885714286,0.319
0.46429237726,0.542107483011,-0.123913628562,-1.36488835192,0.079072661829,1.89732350038,0.158078186922,-0.00248634364408,-0.0337544756093,0.00745349380231,-0.0543881213938,-0.00431797244684,0.0265436234628,-0.00663030256121,0.573898751395,0.818912326508,0.00188985243037,0.0,0.818866644178,-0.573838730462,-0.0121357890436,0.0,-0.0088538471843,0.00851241518735,-0.999924571244,0.0,0.660597396925,0.259566481665,0.30319696828,1.0,-0.00666,-0.00875314285714,0.334
0.464202338559,0.541420960997,-0.123922238674,-1.36592249796,0.0790093781831,1.8977152287,0.157943370166,-0.00741607386615,-0.0389541123517,0.00156346754292,-0.0580776295639,-0.00667655390351,0.0226640803235,-0.0125544572452,0.573908632889,0.818905320194,0.0019247219468,0.0,0.818860155346,-0.573848515252,-0.0121109219643,0.0,-0.00881336928222,0.00852680494731,-0.999924806233,0.0,0.660483886833,0.259404626394,0.303224379035,1.0,-0.00702,-0.00922628571429,0.352
0.464123602502,0.540732866278,-0.123927453933,-1.36698672825,0.0789478510088,1.89810472425,0.157803356821,-0.00295095854102,-0.0433287397071,-0.000164157511015,-0.0683796721183,-0.00553726640702,0.0307638492647,-0.0105223037174,0.573904622084,0.818908103767,0.00193629454319,0.0,0.818863076106,-0.573844440271,-0.0121065214564,0.0,-0.00880316615894,0.00853371302747,-0.999924837179,0.0,0.66035902055,0.259248789896,0.303238180175,1.0,-0.00736,-0.00967314285714,0.369
0.464032858856,0.540082533044,-0.123922519359,-1.3679631219,0.0788891955187,1.89846110715,0.157694506044,-0.00297462806296,-0.0516972382875,0.000649609549318,-0.0631447895124,-0.00394366820626,0.0296462713354,-0.00361819755583,0.573924629787,0.818894016153,0.00196380619824,0.0,0.818849310647,-0.573864288258,-0.0120967771232,0.0,-0.00877918918133,0.00855086431438,-0.999924901459,0.0,0.660247292908,0.259099070672,0.30326378515,1.0,-0.00766,-0.0100674285714,0.384
0.463928470928,0.539301531809,-0.123925382349,-1.36918181272,0.0788252450151,1.89892594102,0.157546048546,-0.00929315267336,-0.0425312667051,0.000554835255272,-0.0661521956806,-0.00256954359492,0.0246862607482,-0.00795815565375,0.573940941897,0.818882519326,0.00199039132327,0.0,0.818838097713,-0.57388042016,-0.0120904917804,0.0,-0.00875861439063,0.008569201469,-0.999924924912,0.0,0.660110035083,0.258915281646,0.303275970584,1.0,-0.00802,-0.0105405714286,0.402
0.463824501716,0.538532183558,-0.123930631563,-1.37038122658,0.0787572520781,1.89939118196,0.157395632007,-0.0061917143114,-0.0476622063098,-0.000412474463524,-0.0753074030368,-0.00612151833821,0.0284255872013,-0.00585965867231,0.573954783187,0.81887274519,0.00202013427091,0.0,0.818828719795,-0.573894138065,-0.0120744703321,0.0,-0.0087282794978,0.00858450923882,-0.999925058861,0.0,0.659977419292,0.258731905926,0.30328906906,1.0,-0.00836,-0.0109874285714,0.419
0.463719761486,0.537800700922,-0.123931696008,-1.37153934659,0.0786921857214,1.89983821221,0.157252575364,-0.00530404061286,-0.0499372396564,0.000120562015156,-0.0731331433047,-0.00459575266666,0.026323831306,-0.00356650161965,0.573970752332,0.818861506893,0.00203835668422,0.0,0.818817695689,-0.573910003075,-0.0120679947436,0.0,-0.00871235080979,0.00859588404271,-0.999925100055,0.0,0.65984856506,0.258554102053,0.303293239735,1.0,-0.00868,-0.011408,0.435
0.463599010606,0.536914112168,-0.123929368722,-1.37290888064,0.0786115874906,1.90034364548,0.157082730505,-0.00651243802819,-0.0592812995761,0.00165256926585,-0.0781490120613,-0.00519432478658,0.0313555872908,-0.00903465355706,0.573982708297,0.818853074751,0.00205899184215,0.0,0.818809489221,-0.573921825503,-0.0120625649661,0.0,-0.00869593547884,0.008609791532,-0.999925123295,0.0,0.659690401218,0.258346117259,0.303311101672,1.0,-0.00904,-0.0118811428571,0.453
0.463480371877,0.536009189021,-0.123942803898,-1.37432384402,0.0785312958672,1.90087296502,0.156909405256,-0.00591963645386,-0.0540571684314,0.000134321734014,-0.0803083388991,-0.0122602388417,0.0293632188038,-0.00304712335028,0.574003691788,0.818838327598,0.00207411940252,0.0,0.81879495478,-0.573942756613,-0.0120532593037,0.0,-0.00867941198848,0.00861705974588,-0.999925204247,0.0,0.659529650986,0.258126908097,0.303322700786,1.0,-0.0094,-0.0123542857143,0.471
0.46336735777,0.535229103228,-0.123935996178,-1.37556161747,0.0784594931321,1.90132712692,0.156763721546,-0.00602170768383,-0.0551808989371,-2.0910691526e-05,-0.0800008036134,-0.00282309076195,0.02938388874,-0.0129843098683,0.574020832653,0.81882631284,0.00207363980012,0.0,0.818782852462,-0.573959816653,-0.0120630130372,0.0,-0.00868749382872,0.00862244750729,-0.999925087619,0.0,0.659384889151,0.25793884775,0.303323195717,1.0,-0.0097,-0.0127485714286,0.486
0.463241065348,0.53426695448,-0.123946906598,-1.37712512781,0.0783768593498,1.90189138458,0.156570047411,-0.0100213808161,-0.0579978169506,0.000440970481945,-0.0875923541467,-0.00678730380798,0.0333164527692,-0.00411268787498,0.574036841746,0.818815162176,0.00204484963051,0.0,0.818771225121,-0.573975848137,-0.0120893991427,0.0,-0.00872545701074,0.00861419038949,-0.999924828237,0.0,0.659198916856,0.257701199674,0.303307088207,1.0,-0.01006,-0.0132217142857,0.504
0.463111841249,0.533356689411,-0.123944890192,-1.37860804213,0.0782850798894,1.9024408546,0.15638167194,-0.00808195734004,-0.0555706673669,0.00082823325393,-0.0839172705912,-0.000622452964875,0.025898865116,-0.00891895828601,0.574043529176,0.818810528681,0.00202277849891,0.0,0.818766288119,-0.573982615726,-0.0121024454135,0.0,-0.00874873847383,0.00860367896754,-0.999924715308,0.0,0.659025280403,0.257475556649,0.303290824634,1.0,-0.0104,-0.0136685714286,0.521
0.462994257094,0.532457850604,-0.123949887305,-1.38007786305,0.0782184058799,1.90299331212,0.156207459611,-0.00827428481137,-0.0597292779083,0.000846786287559,-0.0948237076082,-0.00332411878339,0.0368903564145,-0.00782796217557,0.574063234152,0.818796730818,0.00201586147095,0.0,0.818752208911,-0.574002160859,-0.012127927856,0.0,-0.00877336775431,0.00861285434492,-0.999924420523,0.0,0.65885182873,0.257259177725,0.30327309121,1.0,-0.01072,-0.0140891428571,0.537
0.462854783652,0.531474063574,-0.12394879545,-1.38165823685,0.0781166542363,1.9035684787,0.155997423422,-0.00569359416573,-0.0548202802644,-0.00165174810851,-0.0956156666507,-0.00234397317968,0.0302153234157,-0.0122500864652,0.574063438506,0.818796641793,0.0019937049717,0.0,0.818751840074,-0.574002472491,-0.012138074461,0.0,-0.00879439234261,0.0086005399631,-0.999924341826,0.0,0.658665144777,0.257015828617,0.303264133501,1.0,-0.01106,-0.014536,0.554
0.462721959656,0.530462462503,-0.123948092673,-1.38330142493,0.0780164034542,1.90414252442,0.155781705738,-0.00755095192638,-0.0567733625591,0.000508360554996,-0.0972387150745,-0.0039672424363,0.0377512142469,-0.012569396388,0.57405731881,0.818801051071,0.00194432171815,0.0,0.818755523086,-0.573996495173,-0.0121722572685,0.0,-0.00885079359884,0.00857966270189,-0.999924023534,0.0,0.658462144435,0.256769743651,0.303244589611,1.0,-0.0114,-0.0149828571429,0.571
0.462602217282,0.529527347401,-0.123946318981,-1.38474122583,0.0779241214877,1.90467954811,0.15559857501,-0.00462428570971,-0.0645457637766,0.00117412172361,-0.0966636065357,-0.00302308467411,0.0349651135574,-0.0144400195812,0.574057491073,0.818800870901,0.0019691763522,0.0,0.818755698596,-0.573996586012,-0.012156157465,0.0,-0.00882334169239,0.00859077301435,-0.999924170755,0.0,0.658292825071,0.256554829828,0.303264471301,1.0,-0.0117,-0.0153771428571,0.586
0.462448905245,0.528355882847,-0.12395372003,-1.3865437339,0.0778100802333,1.90537171726,0.155348968371,-0.00804015132493,-0.0589843517515,-0.000576922580932,-0.0978890457569,-0.00847524467407,0.0435093004763,-0.0159066360975,0.574050965287,0.818805332589,0.00201580719777,0.0,0.818760871517,-0.573989954221,-0.0121208343905,0.0,-0.00876771955895,0.00860860648235,-0.999924506644,0.0,0.658087317714,0.256279555746,0.303291671358,1.0,-0.01206,-0.0158502857143,0.604
0.462299324182,0.527233459401,-0.123957516344,-1.38829801913,0.0777115971003,1.90604203226,0.15508957203,-0.011724193599,-0.0654290403979,-0.00109329828989,-0.11089671406,-0.00596645520869,0.0324697415149,-0.0172187838496,0.574032238124,0.818818374447,0.00205089324013,0.0,0.818774327001,-0.573971031868,-0.0121079693697,0.0,-0.00873724270689,0.0086297496383,-0.999924591162,0.0,0.657884257494,0.256014965441,0.303305025763,1.0,-0.0124,-0.0162971428571,0.621
0.462166567198,0.526194843977,-0.123957258525,-1.38988134199,0.0776026720546,1.90663227957,0.154889294016,-0.00721519266157,-0.0698662481989,0.000194176039506,-0.111933589648,-0.0100351362463,0.045232302533,-0.00618624618346,0.57403111417,0.818819085389,0.00208141049075,0.0,0.818775561208,-0.573969899382,-0.0120781568706,0.0,-0.00869532580397,0.00863761218901,-0.999924888662,0.0,0.657683913038,0.25575840408,0.303334201093,1.0,-0.01272,-0.0167177142857,0.637
0.461998233962,0.524944463606,-0.123963043236,-1.39183013187,0.0774788810015,1.90733191116,0.154616994868,-0.0148295751174,-0.0667852266753,-0.0023202584274,-0.110918705695,-0.00535551067344,0.0383539567726,-0.0178125100262,0.574023064956,0.818824732241,0.00207982430231,0.0,0.818781191431,-0.573961862078,-0.0120784246127,0.0,-0.00869654040541,0.00863638161336,-0.999924888728,0.0,0.657463997197,0.255474460723,0.303346163275,1.0,-0.01306,-0.0171645714286,0.654
0.461841618132,0.523764601429,-0.123968670175,-1.39372877411,0.0773561434179,1.90802287895,0.154359542714,-0.00727329066361,-0.0661716476065,-0.000678673198981,-0.115536111322,-0.0110529065344,0.0341863674374,-0.0129909376954,0.574013270743,0.818831673965,0.0020497862765,0.0,0.818787782394,-0.573952239979,-0.0120888596077,0.0,-0.00872242965782,0.00861767171957,-0.999924824652,0.0,0.657234510485,0.255185422224,0.303332172324,1.0,-0.0134,-0.0176114285714,0.671
0.461694022814,0.522606894118,-0.123966205029,-1.39554940254,0.0772506051613,1.90872158543,0.154111837421,-0.00720195321385,-0.0704933043241,0.000999120122041,-0.116050227293,-0.00261320270268,0.0342908025502,-0.0124079737772,0.574007460023,0.818835681288,0.00207600295199,0.0,0.818792089205,-0.573946274232,-0.0120803911931,0.0,-0.00870050870499,0.00863421569449,-0.999924872912,0.0,0.657032803402,0.254933130985,0.303336927101,1.0,-0.0137,-0.0180057142857,0.686
0.461528330868,0.521366530126,-0.123969803102,-1.3975348706,0.0771329835919,1.90949962056,0.153835509641,-0.014560791911,-0.0737580358878,0.000791526221689,-0.115505243021,-0.00030862391114,0.0447883724436,-0.022924958333,0.573985514449,0.818850983838,0.00210769332678,0.0,0.818807821543,-0.573924211411,-0.0120622484353,0.0,-0.0086676946481,0.00864951818498,-0.999925025642,0.0,0.656788047024,0.254622720813,0.303333918868,1.0,-0.01406,-0.0184788571429,0.704
0.461359496781,0.52008654469,-0.123975498076,-1.39956194269,0.0769991051664,1.91024050655,0.15356568528,-0.00711390941722,-0.0750930360656,-0.000631006148524,-0.11891102848,-0.00890044538466,0.0411645115982,-0.0172129467949,0.573978643754,0.818855833435,0.00209462788513,0.0,0.818812575775,-0.573917472391,-0.0120601632959,0.0,-0.00867355851847,0.00863755012554,-0.999925078249,0.0,0.656542680472,0.254313404664,0.303332465497,1.0,-0.0144,-0.0189257142857,0.721
0.46119830122,0.518811873004,-0.123978219293,-1.40153029776,0.0768775433302,1.91093197123,0.153298652783,-0.0107586966078,-0.0835787102126,-0.000683487744127,-0.12482587927,-0.00725831686928,0.0476383171123,-0.0246957437914,0.573965411484,0.818865113313,0.00209273015163,0.0,0.818821776793,-0.573904196082,-0.0120672478636,0.0,-0.00868058880214,0.00863992225188,-0.999924996748,0.0,0.656297194773,0.254016436806,0.303350457389,1.0,-0.01472,-0.0193462857143,0.737
0.46101143956,0.517391494033,-0.123982021304,-1.40378646978,0.076734810246,1.91173805924,0.153007911007,-0.00816951352528,-0.080203307518,-0.000405799109173,-0.131094936939,-0.0118104395733,0.0462055350029,-0.0190458690755,0.573958099417,0.818870302426,0.00206756363843,0.0,0.81882662416,-0.573896980133,-0.0120815008234,0.0,-0.00870678133718,0.00862741750949,-0.999924876991,0.0,0.656031449321,0.253697167737,0.303348368206,1.0,-0.01506,-0.0197931428571,0.754
0.460832164568,0.516029336923,-0.123987469711,-1.40593410924,0.0765963927009,1.91255569843,0.152698939201,-0.007348260573,-0.0750541688784,-0.00587020341913,-0.126246446669,-0.00327654367918,0.0494937153402,-0.0108845793383,0.573937775174,0.818884506235,0.0020838855168,0.0,0.818841128465,-0.573876675009,-0.0120629646627,0.0,-0.00868244873415,0.00862992842157,-0.999925066902,0.0,0.655761648939,0.253349502107,0.303347613347,1.0,-0.01542,-0.0202662857143,0.772
0.460650175749,0.51473009964,-0.123983248936,-1.40802780187,0.0764700330809,1.91332646142,0.152426092029,-0.01399784419,-0.0873855025798,0.00165162112241,-0.133916812457,-0.0115111556941,0.0483375501838,-0.0216045143261,0.573936611861,0.818885372066,0.00206394833579,0.0,0.818841652527,-0.573875516804,-0.0120824749257,0.0,-0.00870988024937,0.00862478764167,-0.99992487269,0.0,0.655504642232,0.253033123342,0.303328731956,1.0,-0.01574,-0.0206868571429,0.788
0.460454845571,0.513247932057,-0.123992044229,-1.41043766205,0.0763283044333,1.91415183641,0.152087048253,-0.00732717603571,-0.0828555634607,-0.000686412642109,-0.131263501426,-0.00906938977385,0.0475845534166,-0.0170515523307,0.573913190521,0.81890199726,0.00197877006202,0.0,0.818856996118,-0.573852305744,-0.0121448755664,0.0,-0.00881011071709,0.00859059938943,-0.99992428891,0.0,0.655194489796,0.252666636622,0.303292332871,1.0,-0.0161,-0.02116,0.806
0.460269051464,0.511896954277,-0.123994950093,-1.41258323219,0.0762011653048,1.9149236097,0.151787680661,-0.0131523406165,-0.0810815859816,-0.00032762810519,-0.136016394238,-0.00451343307144,0.0436501039056,-0.0164762990417,0.573900192488,0.818911149519,0.00196090731648,0.0,0.818865815018,-0.573839291834,-0.0121651569462,0.0,-0.00883710713471,0.00858747121636,-0.999924077556,0.0,0.654927664117,0.25233821932,0.303284476979,1.0,-0.01642,-0.0215805714286,0.822
0.460089335727,0.510517615033,-0.123998120206,-1.41477902143,0.0760593637507,1.91576731322,0.151464828776,-0.0102684876045,-0.0887767657908,-0.00202792853467,-0.136361204498,-0.00725003572821,0.048628732457,-0.0208411287816,0.573861754374,0.818938047447,0.00197691998509,0.0,0.81889301019,-0.573800872742,-0.012146736339,0.0,-0.00881323580962,0.00858959875929,-0.999924269966,0.0,0.654662503674,0.25201057377,0.303278395071,1.0,-0.01674,-0.0220011428571,0.838
0.459881429187,0.509028160066,-0.12400125805,-1.41714370841,0.0759126906162,1.9166301809,0.151146232508,-0.0134011620612,-0.0886903958958,0.000141495212711,-0.138384801387,-0.00949027463692,0.0474909870687,-0.0227057731422,0.573856721397,0.818941605402,0.0019639629414,0.0,0.818896366175,-0.573795866405,-0.0121569759119,0.0,-0.00882910954028,0.0085848097391,-0.999924171058,0.0,0.654370202636,0.251646526155,0.303270202715,1.0,-0.01708,-0.022448,0.855
0.459654264242,0.507415070068,-0.124002833511,-1.41966610222,0.0757493542631,1.91753180798,0.15078966998,-0.0129626947312,-0.0915426012772,-4.00744613098e-05,-0.139400494739,-0.0166736157871,0.0517174863655,-0.0219021007491,0.573838237056,0.818954583286,0.00195323024278,0.0,0.81890919659,-0.573777425467,-0.0121630861903,0.0,-0.00884046596878,0.00857932732412,-0.999924117773,0.0,0.654055545885,0.251253776997,0.303276164121,1.0,-0.01744,-0.0229211428571,0.873
0.459452433325,0.505940996383,-0.124015430151,-1.42197178088,0.0756125860444,1.918393122,0.150483391384,-0.00830797578119,-0.0931509555947,-0.00128836802251,-0.145287278294,-0.00463627029072,0.0536309508944,-0.019632751091,0.573844062804,0.818950443812,0.00197713600152,0.0,0.818905362387,-0.57378313667,-0.0121518076301,0.0,-0.00881745071844,0.00859249536683,-0.999924207921,0.0,0.653774765886,0.250896595537,0.303284398646,1.0,-0.01776,-0.0233417142857,0.889
0.459232969428,0.50430321783,-0.124022881523,-1.42444691027,0.0754507856203,1.91935008635,0.150140023123,-0.0075034490765,-0.0920910397825,-0.00134425133048,-0.143728035095,-0.00941690326399,0.0537886110338,-0.0151737840967,0.573831773237,0.818958823602,0.00207078967063,0.0,0.818915130416,-0.573770599575,-0.0120853274849,0.0,-0.00870939503181,0.0086309120658,-0.999924824072,0.0,0.653480404478,0.250515459981,0.303333859962,1.0,-0.0181,-0.0237885714286,0.906
0.458999193758,0.502621108622,-0.12402684885,-1.42691785567,0.0752944900752,1.92028738967,0.149796060927,-0.0149076222261,-0.0978938098652,-0.00326775246432,-0.149480532259,-0.0169761811067,0.0541534017226,-0.0221447551895,0.573828891457,0.818960519733,0.00219484613814,0.0,0.818918529177,-0.573767275206,-0.0120126339028,0.0,-0.00857870718288,0.00869076389126,-0.999925435423,0.0,0.653185723981,0.250127750411,0.303413755057,1.0,-0.01844,-0.0242354285714,0.923
0.458775792933,0.500999670424,-0.124033179965,-1.42934389429,0.0751423132278,1.9211339608,0.149454932045,-0.0155458040625,-0.101702308808,0.000203779751059,-0.152107478167,-0.0133106907926,0.0532006682571,-0.0193623786764,0.573819465641,0.818967025931,0.00223118596872,0.0,0.818925463077,-0.573757652693,-0.0119995333997,0.0,-0.00854722671741,0.00871290859651,-0.999925512295,0.0,0.652878749056,0.249744688706,0.303464286245,1.0,-0.01876,-0.024656,0.939
0.458529261722,0.499300534625,-0.12403395358,-1.43194855794,0.0749763920188,1.92208751323,0.149079125399,-0.0115477164467,-0.0963652837539,-0.000736720526622,-0.158847411802,-0.0101242816045,0.0505269128542,-0.0230777375686,0.573801845109,0.818979265777,0.00226973097188,0.0,0.818938206585,-0.573739876948,-0.0119797452094,0.0,-0.00850909159363,0.00873293745272,-0.999925662819,0.0,0.652556305367,0.249334707494,0.303492551343,1.0,-0.0191,-0.0251028571429,0.956
0.458257294837,0.497520553605,-0.124034382223,-1.43474573487,0.0748066836667,1.92312463227,0.148671031806,-0.0121442322717,-0.0976824804121,0.000991963175547,-0.157784340672,-0.0101522191068,0.0532784119339,-0.0244554461081,0.573786900482,0.818989687247,0.00228733914683,0.0,0.818948787359,-0.573724790053,-0.0119789758576,0.0,-0.00849851814218,0.00874676145113,-0.999925631911,0.0,0.652211399524,0.248891714366,0.303492210227,1.0,-0.01946,-0.025576,0.974
0.45803303839,0.496143332144,-0.12403740265,-1.43695661213,0.0746601397955,1.92390022679,0.148333268389,-0.0237420819929,-0.0936040595299,0.00122551457551,-0.156097431081,-0.0054345402447,0.0554823585399,-0.0261461682543,0.57376795823,0.819003109173,0.00223252629359,0.0,0.818961477304,-0.57370605815,-0.012008515134,0.0,-0.00855436206967,0.00871862210182,-0.999925401477,0.0,0.65193175975,0.248528783256,0.303467045943,1.0,-0.01974,-0.025944,0.988
0.457749624388,0.494354470646,-0.124034690318,-1.43987320939,0.0744855077232,1.92490645443,0.14793676754,-0.012251441611,-0.0995829698659,-0.00108605638264,-0.164075589846,-0.010326145151,0.0578351821208,-0.0194256946315,0.573773409789,0.818999563698,0.00212973772058,0.0,0.818956373087,-0.57371172356,-0.0120856994097,0.0,-0.00867649409454,0.00867878233272,-0.999924695758,0.0,0.651531704786,0.248037290259,0.30341099195,1.0,-0.0217937142857,-0.0286431673469,1.007
0.457452615907,0.492215672789,-0.124100607656,-1.44320092659,0.0742907681911,1.92615922801,0.147462623874,-0.0150924129409,-0.128456166149,-0.00162591533711,-0.199939334444,-0.00589616272023,0.0743874116567,-0.0328865135495,0.573790058788,0.818987773716,0.00217757682816,0.0,0.818945351612,-0.573728311405,-0.0120450266636,0.0,-0.00861555797118,0.00869480038046,-0.999925083497,0.0,0.651148792988,0.247518759049,0.303427649622,1.0,-0.0269325714286,-0.0353970938776,1.024
0.457119371061,0.489963454576,-0.124104094296,-1.44683646604,0.074075565833,1.92746857123,0.146934448535,-0.0195386795414,-0.139966264676,0.00162454590791,-0.243914810484,-0.0130116306073,0.0864218059719,-0.0335139062948,0.573756384462,0.819011519728,0.00211866516893,0.0,0.818968101348,-0.57369466503,-0.0121007103957,0.0,-0.00869532171843,0.00867814611804,-0.999924537733,0.0,0.650679082074,0.24695274642,0.303377621872,1.0,-0.0317691428571,-0.0417537306122,1.04
0.456667258967,0.487090520581,-0.124125164934,-1.45137716753,0.0738173826696,1.92914240862,0.146272404761,-0.0300805627853,-0.177540914387,4.25788070339e-05,-0.276886736187,-0.00977183691177,0.101442152348,-0.0323589865827,0.573755797638,0.819011898953,0.00213095105283,0.0,0.818968418557,-0.573693802842,-0.0121201026465,0.0,-0.00870416245294,0.00869932826417,-0.999924276755,0.0,0.65011054285,0.246217987889,0.303358902104,1.0,-0.036908,-0.0485076571429,1.057
0.456149807772,0.483761926488,-0.124183661849,-1.45650409944,0.0734917736421,1.93104397902,0.145483832781,-0.0273047364799,-0.202208748538,-0.00241884809742,-0.314542205256,-0.0206147931641,0.114261977981,-0.0419367156899,0.573740575504,0.819022373113,0.00220255811464,0.0,0.818980078183,-0.573678527947,-0.0120550824475,0.0,-0.00860998770624,0.00872050905493,-0.999924907597,0.0,0.649480074175,0.245360451731,0.30339606962,1.0,-0.0420468571429,-0.0552615836735,1.074
0.455578576205,0.480218981257,-0.124252618702,-1.46205768424,0.0731683473906,1.93297593809,0.144651135556,-0.0388322163516,-0.224535023337,-0.00696139541581,-0.354944934293,-0.0258084010965,0.131052303235,-0.0576004975527,0.573760355352,0.819008687701,0.00213798909534,0.0,0.818965337787,-0.573698368006,-0.0121121819205,0.0,-0.00869358874364,0.00870059627791,-0.999924357709,0.0,0.648766920952,0.244417362538,0.303379294684,1.0,-0.0468834285714,-0.0616182204082,1.09
0.45489766858,0.476015809596,-0.124312941808,-1.46850445466,0.0727777021352,1.93530304127,0.143725227802,-0.0451924510065,-0.253170144218,-0.00202538183804,-0.391095293689,-0.0218712995612,0.14381661881,-0.0529457843388,0.573810242106,0.818973556406,0.00220609686423,0.0,0.818931061307,-0.573747921061,-0.0120824999754,0.0,-0.00862967063355,0.00873987175215,-0.999924568868,0.0,0.647952268204,0.243327800374,0.303425158786,1.0,-0.0520222857143,-0.0683721469388,1.107
0.454136276837,0.471453465824,-0.124354304338,-1.47558314394,0.0723555666117,1.93784439155,0.142675417816,-0.0455249409311,-0.279127917733,-5.86289790616e-05,-0.42425042169,-0.0262075508764,0.150018503089,-0.0557930718087,0.573836834469,0.818954820436,0.00224419072021,0.0,0.818912573329,-0.5737740945,-0.0120926682489,0.0,-0.00861585633795,0.00877718345396,-0.999924361174,0.0,0.646988348775,0.242061768894,0.303443144501,1.0,-0.0574634285714,-0.0755233632653,1.125
0.453298465204,0.466391240017,-0.124396859804,-1.48316049291,0.0718746254304,1.94067989005,0.141447998065,-0.0535370774928,-0.307099828033,-0.000519226154786,-0.461977017803,-0.0276267630865,0.170089621773,-0.0704351098281,0.57377089686,0.819000282314,0.00249847700278,0.0,0.818961535198,-0.573707313443,-0.0119444242287,0.0,-0.0083492530354,0.00889969091066,-0.999925539966,0.0,0.646093303174,0.240856831194,0.303567299994,1.0,-0.0623,-0.08188,1.141
0.452369209792,0.460991234672,-0.12442808744,-1.49154471585,0.0713253291084,1.94357120656,0.1401819999,-0.057051103498,-0.325861827157,-0.00421996618624,-0.504106180238,-0.0394660835232,0.177366260761,-0.0700775680092,0.573760165128,0.819008059614,0.00241207391626,0.0,0.818967968121,-0.573696699251,-0.0120129663772,0.0,-0.00845508022516,0.00886814358565,-0.999924931006,0.0,0.644974247186,0.239428033894,0.303549677329,1.0,-0.0674388571429,-0.0886339265306,1.158
0.45136713194,0.455223096523,-0.124486175915,-1.5005149614,0.0707230716427,1.94664423946,0.138831335464,-0.0576405710384,-0.342898684377,-0.00486659125256,-0.532026440503,-0.0387215386456,0.187707013148,-0.0842283018304,0.573766033148,0.819004318036,0.00228323129608,0.0,0.818962469312,-0.573703022925,-0.0120856214623,0.0,-0.00858844482132,0.00880436933618,-0.999924357987,0.0,0.64376681692,0.237878339017,0.303515813145,1.0,-0.0725777142857,-0.0953878530612,1.175
0.450334280553,0.449310273469,-0.124540061021,-1.5092320014,0.0701191627168,1.94998834873,0.137409740416,-0.065933744967,-0.370181950342,0.00139644188441,-0.551103661948,-0.0395979449001,0.221744412233,-0.0896387880816,0.573719161941,0.819035868704,0.00270479191287,0.0,0.819000310859,-0.573655350873,-0.0117803280488,0.0,-0.00809704875652,0.00897399813025,-0.999926949911,0.0,0.642674124497,0.236362161351,0.303715916408,1.0,-0.0774142857143,-0.101744489796,1.191
0.449076074058,0.442410706683,-0.124567354595,-1.51981641564,0.0694294077271,1.95363943779,0.135796896618,-0.0694757029269,-0.38924594794,-0.00124478227714,-0.603735675729,-0.0383430289578,0.202725481107,-0.101361260443,0.573733896555,0.819025634622,0.00267818547206,0.0,0.818989328175,-0.573669736915,-0.0118431493054,0.0,-0.00816360609535,0.00898839457342,-0.999926279432,0.0,0.641229845919,0.234521424675,0.303720750392,1.0,-0.0828554285714,-0.108895706122,1.209
0.447881968983,0.43592582601,-0.124597537379,-1.52987149991,0.0687333648852,1.95701460019,0.134184806377,-0.0778650907882,-0.410723132644,-0.00242245309718,-0.621769381235,-0.0469518774003,0.223966512975,-0.105652543959,0.573663624106,0.819075428525,0.00249713132376,0.0,0.819036488696,-0.573599873375,-0.0119650470326,0.0,-0.00836808292597,0.00890932544667,-0.999925296764,0.0,0.639821331603,0.232761503409,0.303659586332,1.0,-0.087692,-0.115252342857,1.225
0.446592840503,0.429065184907,-0.124631996446,-1.54017855045,0.0680304800064,1.96075715513,0.13249727192,-0.0840664193569,-0.43269630993,-0.00363486275258,-0.657236940302,-0.047635370765,0.230553564823,-0.110684089123,0.573615436441,0.819108434098,0.00272968267975,0.0,0.819072738138,-0.573551035383,-0.0118239736201,0.0,-0.00811966051813,0.00901839608735,-0.999926367112,0.0,0.638436673748,0.230939758976,0.303755258977,1.0,-0.0925285714286,-0.121608979592,1.241
0.445076626829,0.421505208404,-0.124694264113,-1.55181419498,0.0671844194542,1.96464288563,0.130566477277,-0.0931294163488,-0.442163717359,-0.00436672631997,-0.69628725834,-0.0476220912782,0.224668102014,-0.118318136273,0.573578984658,0.819134600805,0.00253002449848,0.0,0.81909633283,-0.573515375246,-0.0119188423112,0.0,-0.00831228822633,0.00890890278382,-0.999925765902,0.0,0.636798956184,0.228803790613,0.303696050915,1.0,-0.0976674285714,-0.128362906122,1.258
0.443469538789,0.413504263224,-0.124814030177,-1.56377726892,0.0663336361327,1.96890815347,0.128637235983,-0.0909304168625,-0.475250432246,-0.00878997935463,-0.716366024755,-0.0430289525233,0.257846271023,-0.12355961909,0.573656368212,0.819079663836,0.00276086970431,0.0,0.819045061943,-0.573592617517,-0.011723588967,0.0,-0.00801909322211,0.00898676119019,-0.999927463503,0.0,0.635074211213,0.226444240171,0.303806657284,1.0,-0.103108571429,-0.135514122449,1.276
0.441721502652,0.405245204865,-0.124862360509,-1.57639447603,0.0654921870663,1.97310872802,0.126537790679,-0.103535378529,-0.495969562138,-0.00512189916781,-0.748730309078,-0.0457496290447,0.240077787181,-0.120897773046,0.573692268609,0.819054987736,0.00261818714508,0.0,0.819017724673,-0.573628149008,-0.01189370583,0.0,-0.00823989188043,0.00896784141687,-0.999925838251,0.0,0.633355592506,0.224226591228,0.30374266198,1.0,-0.107945142857,-0.141870759184,1.292
0.439846792457,0.39655558826,-0.124991009371,-1.58927143244,0.0645799833513,1.97755486047,0.124324355875,-0.113007185857,-0.523759492468,-0.0011316495615,-0.759996335294,-0.0609853737225,0.271832628337,-0.126862528078,0.573766778592,0.819002172729,0.00280566401508,0.0,0.818967653819,-0.573702293399,-0.011764669495,0.0,-0.00802582851995,0.00904809879712,-0.999926856317,0.0,0.631550292768,0.22174061727,0.303857344722,1.0,-0.113084,-0.148624685714,1.309
0.437877169942,0.387682579612,-0.125046683242,-1.60273330526,0.0635350994714,1.98210292038,0.122027447358,-0.119330321015,-0.531871076345,-0.00179145941539,-0.794796430577,-0.0676510963596,0.260936559344,-0.138720344608,0.573763088853,0.819005090896,0.00270663224568,0.0,0.81896969324,-0.573699416531,-0.0117629897723,0.0,-0.00808131075787,0.008965991749,-0.999927149051,0.0,0.629594433088,0.219168735713,0.303806085104,1.0,-0.118222857143,-0.155378612245,1.326
0.435915312432,0.378920350981,-0.125114321056,-1.61570280576,0.0625674193548,1.98641913279,0.119683398175,-0.121559995616,-0.558564989656,4.18761634166e-05,-0.790160628148,-0.0609083133985,0.280455645336,-0.139172724593,0.573713537604,0.819039593908,0.00276898587049,0.0,0.819005060673,-0.573649709598,-0.0117246821574,0.0,-0.00801470528028,0.00899459549247,-0.999927428242,0.0,0.627686172336,0.216655942818,0.303874230453,1.0,-0.123059428571,-0.16173524898,1.342
0.433683008323,0.369444360748,-0.125189230604,-1.62997472738,0.0614928717676,1.99116159201,0.117160794859,-0.131240507111,-0.558479522159,-0.00586143567644,-0.866917304888,-0.0755163345411,0.273585644626,-0.144364989698,0.573747633767,0.819015986272,0.00268586637953,0.0,0.818980342821,-0.573684065291,-0.0117702253747,0.0,-0.00809931993749,0.0089529830986,-0.999927119899,0.0,0.625560920805,0.213851612605,0.303817067396,1.0,-0.128198285714,-0.16848917551,1.359
0.431307914132,0.359541037339,-0.125329401138,-1.64451700622,0.0603498534397,1.99595167296,0.114544711186,-0.137908121394,-0.586705331731,-0.00718226243037,-0.854204318604,-0.0773049734801,0.28673296637,-0.170601992037,0.573827322217,0.818959987256,0.0027368691526,0.0,0.818925567487,-0.573764186467,-0.0116756217966,0.0,-0.00799170343999,0.00894125506155,-0.999928090732,0.0,0.623257394259,0.210729773649,0.303887448691,1.0,-0.133639428571,-0.175640391837,1.377
0.42861704502,0.348896861215,-0.125410140068,-1.66055537128,0.0591842972192,2.00098483613,0.111538449524,-0.156670163537,-0.597753138004,-0.00351275550098,-0.896083214623,-0.0622496065357,0.27510855891,-0.17053602297,0.573860915074,0.818937337002,0.00245664733466,0.0,0.81889810196,-0.573797546548,-0.0119591422631,0.0,-0.00838433132875,0.00887479902951,-0.999925467688,0.0,0.620889717329,0.207655001873,0.303749184636,1.0,-0.138778285714,-0.182394318367,1.394
0.426290423213,0.339584109419,-0.125511289614,-1.6739377181,0.0581495106914,2.00545909189,0.109027314744,-0.155655628935,-0.612484797651,-0.00436322300876,-0.898571538558,-0.0776056580114,0.293313815827,-0.166875775835,0.573930517902,0.818887582996,0.00276295808261,0.0,0.818852712764,-0.573866393114,-0.0117619962352,0.0,-0.008046338796,0.00901319784401,-0.999927006684,0.0,0.618859144299,0.20490276904,0.303909134797,1.0,-0.143312571429,-0.188353665306,1.409
0.423374928559,0.328272329309,-0.125515512981,-1.69055299063,0.056780736962,2.01071301899,0.105769295974,-0.165041186015,-0.648234603703,0.000790847857955,-0.921365899513,-0.0811142521738,0.297967470154,-0.192731146736,0.573778832098,0.818994174612,0.00267220658936,0.0,0.818958037548,-0.573714960974,-0.0118162257566,0.0,-0.0081444919681,0.00896849795013,-0.999926613955,0.0,0.616208725196,0.201525955243,0.303885734546,1.0,-0.148753714286,-0.195504881633,1.427
0.420661550037,0.317905414146,-0.125524664254,-1.70559913454,0.0555442455706,2.01550524155,0.102857553393,-0.178114315963,-0.649172322465,-0.000646426024743,-0.948008465815,-0.0779859514039,0.307025086198,-0.184003779351,0.573717654529,0.819036847501,0.002728043025,0.0,0.819001428148,-0.573653577252,-0.0117890160153,0.0,-0.00809084264591,0.00899801099062,-0.999926784351,0.0,0.613790116135,0.198441609783,0.303918424225,1.0,-0.153590285714,-0.201861518367,1.443
0.417628543284,0.306602157739,-0.125588997206,-1.72184931694,0.0541800078057,2.02061654282,0.0995122308623,-0.17814412007,-0.678171765707,-0.00508929777185,-0.961698182295,-0.0925216468056,0.30336609703,-0.196600323706,0.573580824784,0.81913239127,0.00281245685107,0.0,0.819098291062,-0.573516712794,-0.011718217713,0.0,-0.00798593444257,0.00902519734423,-0.999927382695,0.0,0.611151963364,0.19502893342,0.303985940539,1.0,-0.158729142857,-0.208615444898,1.46
0.41415714745,0.29444594729,-0.125657230112,-1.73950232512,0.0527363710606,2.02594677203,0.0959173476927,-0.196449921484,-0.682994616774,-0.0046481403687,-0.985662560362,-0.080740214171,0.295224765326,-0.20205297867,0.573594904389,0.819123056029,0.00265549284847,0.0,0.819086203901,-0.573530573561,-0.0118835462456,0.0,-0.00821123847245,0.00899159224528,-0.999925860668,0.0,0.60821330779,0.191231841222,0.303924101191,1.0,-0.164170285714,-0.215766661224,1.478
0.411124636484,0.284037093234,-0.125774020908,-1.75430556972,0.0515172827282,2.03056670029,0.0927866861807,-0.201803520886,-0.676659319842,-0.00998795726896,-1.0027293627,-0.0743831523745,0.298622394806,-0.211954651513,0.573634846675,0.819094544935,0.00281709759426,0.0,0.819059812648,-0.573569929506,-0.0118028036084,0.0,-0.00805196460732,0.00907804564653,-0.999926374766,0.0,0.60577380741,0.187969987244,0.303992057005,1.0,-0.168704571429,-0.221726008163,1.493
0.407518640406,0.271989850672,-0.125903585787,-1.77145101473,0.0500262291693,2.03567899729,0.0890643959865,-0.220604705218,-0.710897005563,-0.00688473260191,-1.01645311791,-0.0908514021189,0.310254636898,-0.222597265238,0.573620587974,0.819104666022,0.00277741867473,0.0,0.819069411367,-0.573555810327,-0.01182280443,0.0,-0.00809126543741,0.00905687708063,-0.999926249481,0.0,0.602865944635,0.184140298796,0.304008246098,1.0,-0.173843428571,-0.228479934694,1.51
0.40342845761,0.259030516934,-0.126095672891,-1.78990572392,0.0483992642914,2.0411189124,0.0850414862393,-0.232881988811,-0.713286313839,-0.00956369474301,-1.03140052601,-0.0934265299553,0.289270247002,-0.219727222787,0.573767500469,0.819002122237,0.00266947158487,0.0,0.81896547587,-0.573703120098,-0.0118754462651,0.0,-0.00819468928956,0.00900012346759,-0.999925919679,0.0,0.599707152393,0.179888271736,0.303972665421,1.0,-0.179284571429,-0.23563115102,1.528
0.399597521983,0.247234970571,-0.126236454299,-1.80643026092,0.0468664021757,2.04601450131,0.081315236934,-0.241362549995,-0.723081522588,-0.00258859491174,-1.04667737455,-0.105631025312,0.30505386692,-0.242021943533,0.573856573602,0.818939530652,0.00272487996728,0.0,0.818904229769,-0.573792667248,-0.0117721866996,0.0,-0.00807734842014,0.00898713548425,-0.999926991254,0.0,0.596858876605,0.176022257446,0.304022232462,1.0,-0.184121142857,-0.241987787755,1.544
0.395170573522,0.233671300785,-0.126337955502,-1.82523225961,0.045249818871,2.05149102394,0.0769264214469,-0.24356061235,-0.772861021109,-0.00825927395241,-1.04598781984,-0.0880030777298,0.32107600011,-0.245410145026,0.573863266104,0.818934141522,0.00292755314501,0.0,0.818900860362,-0.573797942247,-0.0117494371405,0.0,-0.00794234416236,0.00914012213723,-0.999926685981,0.0,0.593533613285,0.171669700428,0.304110902824,1.0,-0.189562285714,-0.249139004082,1.562
0.390813126134,0.220791673134,-0.126389511009,-1.84335083422,0.0435157173815,2.05657722253,0.0726133123408,-0.261053578206,-0.783747720996,-0.00550013577604,-1.06894041142,-0.103156034195,0.298858682867,-0.257976891336,0.573740951924,0.819020517798,0.00273100938034,0.0,0.81898458811,-0.573676250791,-0.0118554045737,0.0,-0.00814326115351,0.00903875972218,-0.999925991322,0.0,0.590233175777,0.167450749251,0.304014387636,1.0,-0.194701142857,-0.255892930612,1.579
0.386723562402,0.209052394513,-0.126518801706,-1.85933668449,0.0420064184404,2.06113730949,0.0686833289034,-0.282913637623,-0.777913039959,-0.0146394947394,-1.05472356331,-0.102385008753,0.301693506336,-0.270162577654,0.573781285264,0.818991539698,0.00293964045236,0.0,0.818958700539,-0.57371625877,-0.0117067559541,0.0,-0.00790136668704,0.009124737282,-0.999927151134,0.0,0.587345750745,0.163579900582,0.304126538539,1.0,-0.199235428571,-0.261852277551,1.594
0.381907501627,0.19561467476,-0.126666579655,-1.87772670233,0.0402537413237,2.06613621493,0.064015678947,-0.286251675864,-0.780623711913,-0.0100927735193,-1.08513074386,-0.100994517946,0.30924121241,-0.272130127161,0.57376182786,0.819005176461,0.00293814922394,0.0,0.818972104426,-0.573696562708,-0.0117342665396,0.0,-0.00792497150767,0.00913911242764,-0.999926833049,0.0,0.583925852346,0.159088756722,0.30414594955,1.0,-0.204374285714,-0.268606204082,1.611
0.376767506668,0.18198291756,-0.126859544446,-1.89634575942,0.0384943454741,2.07106598232,0.059164796569,-0.3091504304,-0.823416836624,-0.0143714710506,-1.08455575585,-0.101325867945,0.292008884518,-0.296915637696,0.57386463401,0.818933362222,0.0028769728958,0.0,0.818898809424,-0.57379878931,-0.0118505785018,0.0,-0.00805418560031,0.00915675386976,-0.999925639212,0.0,0.580414333992,0.154407097342,0.304118952515,1.0,-0.209513142857,-0.275360130612,1.628
0.371755817576,0.16893171603,-0.126980333964,-1.91393119339,0.0367204987949,2.07570281291,0.054507277228,-0.312832542332,-0.828926658486,-0.00285708653005,-1.09745960734,-0.119903461916,0.282876199674,-0.29853030025,0.573904315196,0.818905457933,0.00290428443292,0.0,0.818871373626,-0.573838494612,-0.0118238089912,0.0,-0.00801614584516,0.0091641468233,-0.999925877162,0.0,0.577050574708,0.149962419328,0.304146907913,1.0,-0.214349714286,-0.281716767347,1.644
0.366305103497,0.154767593301,-0.127073365156,-1.93271928634,0.0348233172713,2.0805921231,0.0492855654211,-0.322353813797,-0.847279895319,-0.0034973781852,-1.10959527889,-0.11792587543,0.288378418075,-0.306153622828,0.573761465072,0.819004898356,0.00308294809206,0.0,0.818973193857,-0.573695100462,-0.0117297208292,0.0,-0.0078381775093,0.00925509184251,-0.999926450419,0.0,0.573387542157,0.145230665478,0.304246519575,1.0,-0.219488571429,-0.288470693878,1.661
0.360541911693,0.14053924688,-0.127194661698,-1.95172457627,0.0328681422128,2.08528730061,0.0439619949694,-0.344031576744,-0.840203854884,-0.00641720550093,-1.10388495363,-0.108252262708,0.292227128871,-0.316873044702,0.573765070851,0.81900265756,0.00300620730767,0.0,0.818969389734,-0.573698313516,-0.0118376792422,0.0,-0.00797058815476,0.00925421680565,-0.999925411816,0.0,0.569372756632,0.140037789866,0.304216994511,1.0,-0.224929714286,-0.295621910204,1.679
0.354475948391,0.126040925168,-0.127350733391,-1.97085985334,0.0308261891184,2.09000691598,0.038299350167,-0.367902236121,-0.845548480307,-0.00966498074733,-1.13461382629,-0.126321232566,0.279113140863,-0.327015761899,0.573687975046,0.819056725197,0.0029891634999,0.0,0.819023388176,-0.573621466435,-0.0118258093572,0.0,-0.00797151381098,0.00923269719892,-0.999925603368,0.0,0.565744448281,0.135273641635,0.30421148615,1.0,-0.229766285714,-0.301978546939,1.695
0.348039626648,0.111281583448,-0.127569895629,-1.98996373999,0.028723100613,2.09466273737,0.0325020201497,-0.390016459951,-0.865986342741,-0.0122666273907,-1.1394797379,-0.12772261915,0.27179120928,-0.353778048893,0.57379865606,0.818978553494,0.00315881663921,0.0,0.818948182393,-0.573732446462,-0.0116490915199,0.0,-0.00772818931572,0.00927131870524,-0.999927156217,0.0,0.561879104047,0.13003694226,0.304311431991,1.0,-0.234905142857,-0.308732473469,1.712
0.341455966671,0.0963366960585,-0.127677513155,-2.00917617204,0.0265998118572,2.09911621986,0.0264258774823,-0.396101481924,-0.88160151493,-0.00517179489237,-1.12958569488,-0.125328652394,0.263933851465,-0.370014275878,0.573666708798,0.819070581816,0.00326130659249,0.0,0.819041647094,-0.573600316489,-0.0115846515401,0.0,-0.00761810745562,0.00931705422692,-0.999927575847,0.0,0.55786607038,0.124832800831,0.304384184161,1.0,-0.240044,-0.3154864,1.729
0.334996978412,0.082204211497,-0.127828307207,-2.02749866326,0.0246593763889,2.10308217483,0.0204921434852,-0.407807310932,-0.882584062844,-0.0141499922748,-1.13344052178,-0.125258202541,0.244352095305,-0.376627300209,0.573614636171,0.819107610892,0.00311734662808,0.0,0.819075297664,-0.573546923812,-0.0118460897993,0.0,-0.00791543014148,0.00934861209735,-0.999924971894,0.0,0.553928458465,0.119810010055,0.30430040056,1.0,-0.244880571429,-0.321843036735,1.745
0.327748605832,0.0669048091097,-0.128022097412,-2.04689669029,0.0224028814634,2.1073876142,0.0139568054299,-0.43605413374,-0.882316551924,-0.0140718408773,-1.16280033718,-0.125129301928,0.231130582107,-0.384815666144,0.573604499786,0.819114437194,0.00318802549722,0.0,0.819083483964,-0.573537065171,-0.0117570435918,0.0,-0.00780206357128,0.00935533225878,-0.999925800028,0.0,0.549510323555,0.113975750626,0.304336016217,1.0,-0.24998,-0.328545142857,1.763
0.319654968087,0.0506132325847,-0.128280575672,-2.06730812789,0.02002069523,2.11161746026,0.00679225682642,-0.451366377164,-0.897576955805,-0.00686663803816,-1.13470790429,-0.137699844606,0.234493074701,-0.409191089144,0.573718921505,0.819034023028,0.00325808707647,0.0,0.819004039729,-0.573651305255,-0.0117179259593,0.0,-0.00772852293396,0.00939136313391,-0.99992603338,0.0,0.545297487852,0.108306626864,0.304395059195,1.0,-0.24998,-0.328545142857,1.78
0.312848309006,0.0371695156943,-0.128417568198,-2.08412580936,0.0181097648089,2.11491491967,0.000771828880686,-0.453952691012,-0.897554669183,-0.0141040725255,-1.09794381226,-0.129169390178,0.220264263194,-0.411142103599,0.573765929667,0.819001218458,0.00322630128009,0.0,0.818969770909,-0.573697147672,-0.0118677711057,0.0,-0.00786895065569,0.0094517479172,-0.999924369178,0.0,0.541507957402,0.103406242454,0.304371388598,1.0,-0.24998,-0.328545142857,1.795
0.304421886408,0.0211410592124,-0.128590059284,-2.10397167435,0.0156465349273,2.11869843881,-0.00668275686977,-0.47614785897,-0.893262296178,-0.00544918894837,-1.09484322573,-0.135511621222,0.205632672463,-0.418678143567,0.573739287092,0.819020234293,0.00313578804761,0.0,0.818987635812,-0.573670869968,-0.0119051349574,0.0,-0.0079517892614,0.00939879623868,-0.999924212967,0.0,0.536978814812,0.0974656793667,0.304352242849,1.0,-0.24998,-0.328545142857,1.813
0.29618580517,0.00607216441312,-0.128842649668,-2.12219184763,0.0133816994192,2.12207231758,-0.0138597516781,-0.489780472947,-0.865794590554,-0.017280295054,-1.06261043187,-0.126186081694,0.185461740158,-0.420468249921,0.573890083173,0.818914032979,0.00327504621166,0.0,0.818883582896,-0.573821550581,-0.0118005361237,0.0,-0.00778448240838,0.00945427425755,-0.999925006454,0.0,0.532782371838,0.0917846621837,0.30444666282,1.0,-0.24998,-0.328545142857,1.83
0.28836334303,-0.0080105564696,-0.128924641293,-2.13905661788,0.0113261647473,2.12511959974,-0.0207938950334,-0.486479699392,-0.863199081201,-0.000823879601422,-1.05024539281,-0.132518134602,0.197707698534,-0.431673056778,0.573816609248,0.818964612861,0.00349409984808,0.0,0.818936981628,-0.573747313523,-0.0117041551379,0.0,-0.00758070443237,0.00957767059826,-0.99992539779,0.0,0.52881564406,0.0865881769164,0.304536893339,1.0,-0.24998,-0.328545142857,1.846
0.279893785739,-0.0227358218163,-0.129060445495,-2.15684192934,0.00901681107899,2.1279608331,-0.0282567077431,-0.503631059896,-0.851619198329,-0.0102449665558,-1.04036567531,-0.142659019053,0.14075521052,-0.447406724129,0.57374176806,0.819017875889,0.00329385162806,0.0,0.818987032832,-0.573672415675,-0.0118720868941,0.0,-0.00783401039902,0.00950931698046,-0.999924097705,0.0,0.524500859323,0.0810241267681,0.304466807206,1.0,-0.24998,-0.328545142857,1.863
0.27110694928,-0.0374453457801,-0.12929339462,-2.17412613875,0.00675113395721,2.13078804277,-0.0358312547452,-0.529617996345,-0.847191115946,-0.0151163493517,-1.02891640422,-0.130666450905,0.14741287205,-0.45721704676,0.573884020666,0.818917534628,0.00345676202336,0.0,0.818889283854,-0.573814669526,-0.0117393665079,0.0,-0.00763017922531,0.00956792444161,-0.99992511479,0.0,0.520055735638,0.0750403863537,0.304549987813,1.0,-0.24998,-0.328545142857,1.881
0.262713903451,-0.0512162550293,-0.129411877438,-2.19012304373,0.00474480933257,2.13320699513,-0.043165968724,-0.527326382221,-0.873834016063,-0.00851425001354,-0.992373909163,-0.138712420277,0.166321376595,-0.462219601381,0.573900918051,0.818904679804,0.00368897774107,0.0,0.818879157337,-0.573830439555,-0.0116747256831,0.0,-0.00744378309452,0.00972114993381,-0.999925041859,0.0,0.516083397403,0.069827234528,0.3046419339,1.0,-0.24998,-0.328545142857,1.897
0.253672128184,-0.0655435667569,-0.129556262054,-2.20699431624,0.00244726358503,2.13553262174,-0.0511730371356,-0.538631739477,-0.832735477001,-0.0108414142107,-1.00238571914,-0.136363425201,0.122007232473,-0.47923011714,0.573795646079,0.818979405277,0.0034694629629,0.0,0.818950360793,-0.573725063869,-0.0118576788332,0.0,-0.00772082554859,0.0096453881359,-0.999923674758,0.0,0.512026160784,0.0645869890014,0.304526664417,1.0,-0.24998,-0.328545142857,1.913
0.2437488489,-0.0807432525242,-0.129800785786,-2.22430174249,6.96077709824e-05,2.13782245217,-0.0598101151758,-0.559943465132,-0.826898228502,-0.012509376112,-0.955844279949,-0.133822580062,0.122336229245,-0.490320850627,0.573879941223,0.818919781898,0.00359871906659,0.0,0.818892715479,-0.57380927972,-0.0117634154728,0.0,-0.00756846095419,0.00969793972421,-0.999924331319,0.0,0.507571655142,0.0586110367202,0.304602030691,1.0,-0.24998,-0.328545142857,1.931
0.235404742847,-0.093235973622,-0.129883503049,-2.23858546267,-0.00178746273311,2.13946778317,-0.0671158276385,-0.558981963422,-0.808890622454,-0.00654201141287,-0.930138836895,-0.124119420973,0.112016847308,-0.484048405105,0.573855242783,0.818937202288,0.00357294550816,0.0,0.818908405464,-0.573782899447,-0.011956364969,0.0,-0.00774156609312,0.00978732626732,-0.999922135168,0.0,0.503779768642,0.053753202115,0.304563079165,1.0,-0.24998,-0.328545142857,1.946
0.224003643253,-0.109787084064,-0.130082267561,-2.25722019432,-0.00449226012602,2.1415352151,-0.0770768797009,-0.577890206909,-0.812328502812,-0.015483655391,-0.929670146155,-0.148856682554,0.0957327586254,-0.496810212034,0.57380734055,0.818970996136,0.00351998880871,0.0,0.818941708366,-0.573735447858,-0.0119524504348,0.0,-0.00776931746665,0.00974125699486,-0.999922369796,0.0,0.49877193952,0.0471949564075,0.304556162328,1.0,-0.24998,-0.328545142857,1.966
0.214562592448,-0.122996081973,-0.130298919688,-2.27177101165,-0.00657800346432,2.14302867034,-0.0852638335604,-0.586438818428,-0.819505098042,-0.00828299963376,-0.894809409729,-0.112665288461,0.0897707853958,-0.513088746134,0.573910216201,0.818898366161,0.00364369874401,0.0,0.818870924435,-0.573838164728,-0.0118708347577,0.0,-0.00763026069412,0.00979670091799,-0.999922898914,0.0,0.494799815792,0.0418785404664,0.304619918764,1.0,-0.24998,-0.328545142857,1.982
0.205693402633,-0.135192185848,-0.130419843303,-2.28530306767,-0.00851897233524,2.14419703908,-0.0931221134121,-0.597622537868,-0.803445152294,-0.0168116167315,-0.912849936095,-0.133804778547,0.0748313588662,-0.532225221093,0.573791309318,0.818982085959,0.00355290453664,0.0,0.818952619707,-0.573718534878,-0.0120165017087,0.0,-0.00780308268349,0.00980481349972,-0.999921485684,0.0,0.49099949311,0.0370078656861,0.304567929567,1.0,-0.24998,-0.328545142857,1.997
0.194692631436,-0.14974752504,-0.1306631447,-2.30099928552,-0.0108557461883,2.14559693979,-0.102723557383,-0.61275293533,-0.785218335678,-0.0171239300239,-0.877233216881,-0.131737633882,0.0742298733238,-0.539602240962,0.573858214512,0.818934373022,0.00374021679738,0.0,0.818908145821,-0.57378578288,-0.0118351583626,0.0,-0.00754628005936,0.00985478658413,-0.999922965452,0.0,0.486570759659,0.0310555514841,0.304648768075,1.0,-0.24998,-0.328545142857,2.015
0.18479328098,-0.162542741695,-0.130807570082,-2.31485055338,-0.012919575361,2.14642861978,-0.111430234749,-0.611638798657,-0.819711053136,-0.00322669904011,-0.85592329368,-0.122033682023,0.0521655654769,-0.540635340428,0.573806827618,0.818970901476,0.00362408832037,0.0,0.818942191439,-0.573733568257,-0.0120094395039,0.0,-0.00775626970521,0.00985920703452,-0.999921315063,0.0,0.482266354443,0.0255134569744,0.304611584714,1.0,-0.24998,-0.328545142857,2.032
0.174730187412,-0.175229139223,-0.130977159802,-2.32828286134,-0.0148611505942,2.14729422083,-0.12036012787,-0.636914926816,-0.763984540621,-0.00838132540599,-0.817436847224,-0.130267503564,0.0425713283897,-0.555767409882,0.573751854328,0.819008782987,0.00376429891267,0.0,0.818981518519,-0.573677593021,-0.0120016036716,0.0,-0.00767007254999,0.00996902553578,-0.999920891129,0.0,0.4782959223,0.0203167930854,0.304643019371,1.0,-0.24998,-0.328545142857,2.048
0.16296330655,-0.189360050806,-0.131248138616,-2.34319279244,-0.0172287424683,2.1479607445,-0.130590649392,-0.655803948496,-0.791663599144,-0.0138684742407,-0.831717940297,-0.135618365821,0.0426142513052,-0.583100134422,0.573881069227,0.818918536011,0.00370090025684,0.0,0.818890354843,-0.573806907771,-0.0120401927055,0.0,-0.00773648380264,0.00994046157281,-0.999920663874,0.0,0.474032850467,0.0146269670596,0.30463813865,1.0,-0.24998,-0.328545142857,2.065
0.151875847625,-0.202633524227,-0.131392115961,-2.3569266837,-0.0193062431237,2.14855475529,-0.140538701961,-0.66606379122,-0.792446175024,-0.0116955360526,-0.784558818126,-0.122941590139,0.0227369632371,-0.589891815902,0.573709019922,0.81903835303,0.00385793047456,0.0,0.819012309541,-0.573634424345,-0.0119637338301,0.0,-0.00758586117671,0.0100235875434,-0.99992098808,0.0,0.469805171422,0.00914494779311,0.304688535945,1.0,-0.24998,-0.328545142857,2.082
0.141032257457,-0.214945673159,-0.131664181166,-2.36961386382,-0.0212437252,2.14883739324,-0.150036601895,-0.689910737236,-0.786562319191,-0.0236879456304,-0.763389373859,-0.11645194379,0.0284514868558,-0.589346913387,0.573873452439,0.818922981757,0.00389325528674,0.0,0.818896446334,-0.573797442133,-0.0120769401547,0.0,-0.00765629132426,0.0101190030827,-0.999919490249,0.0,0.465789458246,0.00382957208083,0.304683269878,1.0,-0.24998,-0.328545142857,2.098
0.129440518013,-0.227887477255,-0.131806212128,-2.38279702786,-0.0234254939865,2.1491155022,-0.1603176014,-0.672684402738,-0.760722756525,-0.008415985829,-0.772995216194,-0.132772640282,0.0140103880435,-0.61480694655,0.5737641436,0.818999557838,0.00389598275436,0.0,0.818973684475,-0.573688969846,-0.0119923690611,0.0,-0.00758680869513,0.0100716926263,-0.99992049751,0.0,0.461552769008,-0.00169715395019,0.304694357883,1.0,-0.24998,-0.328545142857,2.115
0.116859202485,-0.241476581287,-0.132083454346,-2.39637998439,-0.025641031385,2.14920673716,-0.171538688922,-0.717101290273,-0.750992440958,-0.0246093198449,-0.742832064664,-0.121476654519,0.00790754234044,-0.623630563347,0.573756496908,0.819004372301,0.00400840487666,0.0,0.81898027291,-0.573681336928,-0.0119072728139,0.0,-0.00745270491583,0.0101148743999,-0.999921070138,0.0,0.457078725486,-0.00762158990699,0.304746315755,1.0,-0.24998,-0.328545142857,2.133
0.106100310141,-0.252607835285,-0.132267688081,-2.40743517668,-0.0273840031628,2.14920619402,-0.181080605703,-0.709808824157,-0.733142974857,-0.00701489528804,-0.734880305101,-0.116315273009,9.00348570232e-06,-0.645687817106,0.573818656389,0.818960150597,0.00414345449334,0.0,0.818937744187,-0.573742928902,-0.0118646357522,0.0,-0.00733952747428,0.0102015770338,-0.999921026463,0.0,0.453361744386,-0.0125610097529,0.30477092236,1.0,-0.24998,-0.328545142857,2.148
0.0931438733715,-0.265843446647,-0.132497590405,-2.42050047791,-0.0295493876897,2.14903409327,-0.192704221099,-0.734851523557,-0.734751968278,-0.0159001753853,-0.695737599867,-0.124800307575,-0.00460061247362,-0.652692126049,0.573748928915,0.819008744543,0.004194023384,0.0,0.818987013754,-0.573673064375,-0.0118420189957,0.0,-0.00729285927389,0.0102293933494,-0.999921083744,0.0,0.448862472349,-0.0184128050992,0.304769342345,1.0,-0.24998,-0.328545142857,2.166
0.0804756094695,-0.278159059412,-0.132755752593,-2.43240831157,-0.0315791664408,2.14875816853,-0.203997127654,-0.745899894173,-0.714696814799,-0.00525588036678,-0.714142751358,-0.121195772153,-0.0246820451638,-0.668324156636,0.573811518346,0.818964258337,0.00431646624934,0.0,0.818944780708,-0.573736183369,-0.0117040567953,0.0,-0.00710882818831,0.0102510674713,-0.999922187061,0.0,0.444657967588,-0.0240458207569,0.30481919429,1.0,-0.24998,-0.328545142857,2.183
0.0685662120873,-0.289564222253,-0.132917396974,-2.44350093684,-0.0333619553539,2.14827597622,-0.214852692617,-0.752598406723,-0.70725762488,-0.0140635421958,-0.674929832308,-0.111009414133,-0.029736472603,-0.683210558789,0.573655395599,0.819073567614,0.00432722052787,0.0,0.819053155469,-0.573578506327,-0.0118478899775,0.0,-0.00722243187987,0.0103410287367,-0.999920446637,0.0,0.440630255683,-0.0291911032994,0.304774354443,1.0,-0.24998,-0.328545142857,2.199
0.0554128284673,-0.301617691619,-0.133232683467,-2.45473532214,-0.035384482225,2.14778132894,-0.226615366816,-0.775852932066,-0.692344049093,-0.00696950706844,-0.656332432225,-0.118282729667,-0.0329977924044,-0.686422590197,0.573766506672,0.818994582152,0.00454060879841,0.0,0.818978623595,-0.573691404574,-0.0115296709839,0.0,-0.00683796148257,0.0103341995529,-0.999923220354,0.0,0.436461758391,-0.0348661683334,0.304901047193,1.0,-0.24998,-0.328545142857,2.216
0.0422316537327,-0.313349365151,-0.133413749202,-2.4659600043,-0.0372800563053,2.14698364668,-0.238571241242,-0.786589360956,-0.689716278906,-0.0122591605963,-0.65808135015,-0.118952737821,-0.0518323356805,-0.709533852332,0.573691571411,0.819047532958,0.00445719052651,0.0,0.819029206853,-0.573614820181,-0.0117449261773,0.0,-0.00706307825402,0.0103887343918,-0.999921090448,0.0,0.431913406708,-0.0406945464954,0.304823374441,1.0,-0.24998,-0.328545142857,2.234
0.0294558190715,-0.324282816235,-0.133699318581,-2.47601369887,-0.0390693912686,2.14625026143,-0.250099206436,-0.791899511514,-0.688892702998,-0.0131692949489,-0.614504915316,-0.114888583053,-0.0396792291741,-0.72145530707,0.573767586731,0.818993431347,0.00461115264551,0.0,0.818977810864,-0.573691403809,-0.0115872951318,0.0,-0.00684467174677,0.0104250467781,-0.99992223141,0.0,0.428208674841,-0.0456708433646,0.304894312591,1.0,-0.24998,-0.328545142857,2.249
0.0158478528732,-0.335632800333,-0.133873730163,-2.48653976536,-0.0408396766788,2.145352894,-0.262626879397,-0.815666691598,-0.677745547914,-0.0115009535669,-0.620771877057,-0.109343209911,-0.0693500124612,-0.746414692391,0.573610620904,0.819102916594,0.00469196270843,0.0,0.819087838469,-0.573533445778,-0.0116295463112,0.0,-0.00683492935608,0.0105141633036,-0.999921364964,0.0,0.423972189373,-0.051150362316,0.304877662036,1.0,-0.24998,-0.328545142857,2.266
0.000134135718846,-0.34804634946,-0.134173290093,-2.49792587481,-0.0429918402585,2.14409004034,-0.276878411414,-0.814010245811,-0.653161416188,-0.00776671379431,-0.59033897077,-0.1032389449,-0.0657014713298,-0.757375471609,0.573644509455,0.819079807175,0.00458182839815,0.0,0.819062845459,-0.573566984789,-0.0117352481761,0.0,-0.00698425378259,0.0104848679547,-0.999920640723,0.0,0.41919304178,-0.0574340149203,0.304842846718,1.0,-0.24998,-0.328545142857,2.285
-0.0114896815206,-0.35711271169,-0.134366062596,-2.50587821189,-0.0444532904772,2.1432592855,-0.287593669061,-0.84244005877,-0.632540767706,-0.0172403263358,-0.569541440897,-0.105998681575,-0.0684237977037,-0.772494211624,0.573586783235,0.81911902732,0.00479250262811,0.0,0.819106140258,-0.573510704193,-0.011460805805,0.0,-0.0066393403741,0.0104995372135,-0.999922836462,0.0,0.415533557022,-0.0623310724783,0.304953233418,1.0,-0.24998,-0.328545142857,2.3
-0.0268354204096,-0.368456671759,-0.134658366592,-2.51611348536,-0.0463118176008,2.14190032352,-0.30166725162,-0.848740727402,-0.633043926834,-0.00550714478554,-0.561847140354,-0.102569892396,-0.0746477492516,-0.785154318998,0.573595339084,0.819113190691,0.00476599607122,0.0,0.819098992575,-0.573517816756,-0.0116146944791,0.0,-0.00678049633783,0.01056616063,-0.999921187454,0.0,0.411237880971,-0.0679216148329,0.304910685306,1.0,-0.24998,-0.328545142857,2.317
-0.0414941150809,-0.378934579266,-0.134943195694,-2.52538271312,-0.0480503540992,2.1405402405,-0.315106815886,-0.879816055684,-0.609631355064,-0.0266483130267,-0.523572258981,-0.0962848300485,-0.0748430365739,-0.789346032647,0.573650409749,0.819074580068,0.00477352932371,0.0,0.819059968356,-0.573572059515,-0.0116879288971,0.0,-0.0068354540116,0.0106147963455,-0.999920298157,0.0,0.406971557232,-0.0734953760777,0.304903578334,1.0,-0.24998,-0.328545142857,2.334
-0.0555015507385,-0.388573916668,-0.135168651452,-2.53367228541,-0.0496479186388,2.13936010435,-0.328108767845,-0.87264461262,-0.596877685037,-0.012304649291,-0.518612626279,-0.092981616711,-0.0772156640904,-0.827676338258,0.573579147627,0.819123680574,0.00490960602862,0.0,0.819111997865,-0.573502246569,-0.0114653842165,0.0,-0.0065760242403,0.0105980265538,-0.999922215844,0.0,0.403043229124,-0.0787408184519,0.30498081191,1.0,-0.24998,-0.328545142857,2.35
-0.0707077875212,-0.398508408741,-0.135508551595,-2.54238366532,-0.0513848178725,2.13783862203,-0.342135843793,-0.899807756243,-0.575140753978,-0.0190725260891,-0.506586007767,-0.104671648896,-0.0942273499626,-0.825751605764,0.573648119678,0.819075920479,0.00481852494087,0.0,0.819062070781,-0.573569906976,-0.0116461547969,0.0,-0.0067754545067,0.0106276704325,-0.999920569764,0.0,0.3987339801,-0.0843738157828,0.304924969861,1.0,-0.24998,-0.328545142857,2.367
-0.0868616735783,-0.408753085675,-0.135720035556,-2.55118074783,-0.0529564193532,2.13623762515,-0.357256586681,-0.903957211826,-0.5659744219,-0.00910077458945,-0.480286123613,-0.0835047612211,-0.0835637933158,-0.843009946591,0.57356006066,0.819137002517,0.00491679011012,0.0,0.81912355805,-0.573480178391,-0.0117400400935,0.0,-0.00679715044837,0.0107612839054,-0.999918993476,0.0,0.394245028053,-0.0901861772353,0.304919624247,1.0,-0.24998,-0.328545142857,2.385
-0.101652101526,-0.417583946187,-0.136049291752,-2.55853957062,-0.054501410926,2.13493192057,-0.370950620705,-0.923890062893,-0.546041746425,-0.0153787772247,-0.458470688929,-0.100740440179,-0.0846475325415,-0.862207531265,0.573680479309,0.819051983433,0.00503020832142,0.0,0.819041349049,-0.573602384989,-0.0115030163,0.0,-0.00653635467091,0.0107192108921,-0.999921184187,0.0,0.390304068093,-0.0955343792133,0.304992957088,1.0,-0.24998,-0.328545142857,2.401
-0.118351181273,-0.427174171561,-0.136307497169,-2.5667587928,-0.0561149122792,2.1331491312,-0.386657982166,-0.940604855682,-0.521379829706,-0.0279737199283,-0.451882476742,-0.101023324264,-0.0942202068983,-0.883143558084,0.573584719977,0.819119561324,0.00494572215148,0.0,0.81910610157,-0.573504117781,-0.0117884757413,0.0,-0.00681991036302,0.0108129689311,-0.999918280924,0.0,0.385743669023,-0.101391578022,0.3049127183,1.0,-0.24998,-0.328545142857,2.419
-0.13435081459,-0.43592404946,-0.136558143711,-2.57412310339,-0.057650529362,2.13159476167,-0.401671129336,-0.932144589138,-0.510075708773,-0.0202276919399,-0.427534416651,-0.0782228681664,-0.0907695548869,-0.895336861979,0.573546436207,0.819146560971,0.00491366106358,0.0,0.819132414569,-0.573465523541,-0.0118375509788,0.0,-0.00687900640249,0.010814532442,-0.999917859206,0.0,0.381487277785,-0.106946930977,0.304881210215,1.0,-0.24998,-0.328545142857,2.436
-0.149735599097,-0.443888505655,-0.136877290241,-2.58051594563,-0.0589526723097,2.13014025897,-0.416101769677,-0.974863081469,-0.504674331633,-0.0236127478082,-0.398291844391,-0.0855588745041,-0.0902656221079,-0.909677145306,0.573674864287,0.819055531584,0.00509246191537,0.0,0.819044460379,-0.57359454425,-0.0116712308554,0.0,-0.00663850563287,0.0108666537153,-0.999918919753,0.0,0.377544756386,-0.112268783703,0.30496695749,1.0,-0.24998,-0.328545142857,2.452
-0.166127945591,-0.452011051394,-0.137069357018,-2.58721731705,-0.0603002742887,2.12853346976,-0.431651555724,-0.969065331268,-0.469922113849,-0.0161916396662,-0.396996018517,-0.0792896244525,-0.107461186939,-0.918163531892,0.57357827476,0.819123055981,0.00511163234608,0.0,0.81911165915,-0.573496970045,-0.0117499827712,0.0,-0.00669330499965,0.010926742872,-0.999917899609,0.0,0.373299168769,-0.117787088671,0.304944296351,1.0,-0.24998,-0.328545142857,2.469
-0.181792441036,-0.459381077863,-0.137379643329,-2.59324790795,-0.0616392562019,2.12693681793,-0.446535230116,-0.967056194781,-0.442419614138,-0.0122086166174,-0.368808008105,-0.0800215305528,-0.090364067566,-0.946893581001,0.573550472628,0.819142778149,0.00507062663836,0.0,0.819129963393,-0.573467881556,-0.0118928043984,0.0,-0.00683419489787,0.0109748370959,-0.999916419873,0.0,0.369254320484,-0.123047540562,0.304913338352,1.0,-0.24998,-0.328545142857,2.485
-0.19867628676,-0.466799132877,-0.137664677327,-2.59929180041,-0.0628846049796,2.12541031242,-0.462561578162,-1.01348482439,-0.426322607262,-0.028587607712,-0.341410765161,-0.0757981482183,-0.0884010002971,-0.951561003826,0.573602674184,0.819105727685,0.00515033442671,0.0,0.819093367362,-0.573518844307,-0.0119556542565,0.0,-0.00683926270856,0.0110766132809,-0.999915262972,0.0,0.365001690072,-0.12863651436,0.30488465504,1.0,-0.24998,-0.328545142857,2.502
-0.215740709911,-0.473984569236,-0.137881006174,-2.60482760109,-0.0641485186192,2.12387030022,-0.47874156154,-0.991008293955,-0.422391922358,-0.011957881925,-0.312903794673,-0.0639052172768,-0.0967189527342,-0.962558662784,0.573638936825,0.819079807649,0.00523314062377,0.0,0.819069822161,-0.573556941335,-0.0117391811241,0.0,-0.00661394942636,0.0110205711194,-0.999917397931,0.0,0.360805494445,-0.134231707256,0.304981254001,1.0,-0.24998,-0.328545142857,2.519
-0.232951918229,-0.48068401883,-0.138141307212,-2.61010038494,-0.0653000422974,2.12238687323,-0.49521530479,-1.00850050228,-0.377516085648,-0.015143358977,-0.313152310968,-0.0623786131048,-0.0844939144367,-0.959135470897,0.573647163288,0.819073456674,0.00532461505851,0.0,0.819064747806,-0.573565012561,-0.0116988105633,0.0,-0.00652829799415,0.0110724071617,-0.99991738815,0.0,0.356588226694,-0.139811407881,0.305001010048,1.0,-0.245971428571,-0.323276734694,2.536
-0.249053228106,-0.486493785031,-0.138250461323,-2.61482778179,-0.066226643169,2.12095208519,-0.510639313564,-1.02355649046,-0.350077950685,-0.0137351708727,-0.284393078384,-0.0585832579954,-0.0801926095533,-0.962607663026,0.573621642205,0.819091183254,0.00534714966062,0.0,0.819081076772,-0.573536570474,-0.0119473387775,0.0,-0.00671930334522,0.0112332174654,-0.999914329224,0.0,0.352634784545,-0.144900863846,0.304926962913,1.0,-0.241134857143,-0.316920097959,2.552
-0.266142875707,-0.49221263643,-0.138324513661,-2.61936739443,-0.0671781845771,2.1195866213,-0.526930892372,-0.993567205827,-0.323129497275,-0.00188472731446,-0.250825359318,-0.0427841513968,-0.0720928577427,-0.963372104726,0.573666232872,0.819059740258,0.00537978177657,0.0,0.81904953817,-0.573580158275,-0.0120167781602,0.0,-0.00675685320613,0.0113001452008,-0.99991332207,0.0,0.34853699531,-0.150270642481,0.304900467119,1.0,-0.235996,-0.310166171429,2.569
-0.283145997996,-0.497450787152,-0.138366170493,-2.62341622176,-0.0680045882332,2.11835017719,-0.543078532698,-0.992446837355,-0.299741114192,-0.00143869697559,-0.23375735209,-0.0539685509096,-0.0758807585597,-0.94681213236,0.573813379694,0.818956016415,0.0054768022582,0.0,0.818947313119,-0.573727302533,-0.0119594132189,0.0,-0.00665217049718,0.0113479022944,-0.999913483128,0.0,0.344547398232,-0.155574486054,0.304918968923,1.0,-0.230857142857,-0.303412244898,2.586
-0.298702935309,-0.501972220931,-0.138297223733,-2.62688666853,-0.0686521035105,2.11718461766,-0.558085496626,-0.975079231749,-0.275299146659,0.00236724106953,-0.210270488941,-0.0327806544554,-0.0728510399093,-0.939126498893,0.573739044071,0.819007535312,0.00555997410065,0.0,0.818999685336,-0.573652268595,-0.0119723454841,0.0,-0.00661607679065,0.0114228390173,-0.999912869342,0.0,0.340906082214,-0.160337052906,0.304933636592,1.0,-0.226020571429,-0.297055608163,2.602
-0.315266043225,-0.506304879699,-0.13827589426,-2.6301722165,-0.0693233797678,2.11610898763,-0.573906454763,-0.960927451289,-0.247308460187,0.00682864005687,-0.184316837514,-0.0321118466415,-0.0564168807841,-0.92560501293,0.573855464773,0.818925347742,0.00565042264238,0.0,0.818919062735,-0.573768998941,-0.0118933361086,0.0,-0.00649784216904,0.0114525152311,-0.999913305213,0.0,0.337094990423,-0.165418055467,0.304962425205,1.0,-0.220881714286,-0.290301681633,2.619
-0.332490005388,-0.510484564721,-0.138227763192,-2.63330764128,-0.0699358362356,2.11505717246,-0.590416197429,-0.957061238479,-0.22714335357,0.000530027400683,-0.169393089669,-0.0406444068742,-0.0576814822175,-0.919901866146,0.573962721533,0.818849355085,0.00576843732571,0.0,0.818845086838,-0.573876661056,-0.011791885223,0.0,-0.00634552822914,0.0114917803498,-0.999913832916,0.0,0.333149822433,-0.170650242345,0.304999874582,1.0,-0.215440571429,-0.283150465306,2.637
-0.347372999816,-0.513736283649,-0.138083482783,-2.63586356803,-0.0704013206456,2.11410396671,-0.604860286242,-0.927129195122,-0.198629659133,0.00423354685119,-0.153254738561,-0.0309538998187,-0.0507855710918,-0.893100559826,0.573872731286,0.818912244938,0.00579398633195,0.0,0.8189073236,-0.573784814745,-0.0119385352559,0.0,-0.00645223555908,0.0115961609369,-0.999911944977,0.0,0.329722866413,-0.175086599083,0.304963584891,1.0,-0.210604,-0.276793828572,2.653
-0.363147746712,-0.516771898828,-0.137994877417,-2.63830522546,-0.0708664740485,2.11325709308,-0.620005533412,-0.910177295788,-0.172407332921,0.0082992170968,-0.138585255134,-0.0295105668074,-0.048811386455,-0.883820046009,0.573985446095,0.818832935834,0.00583761652174,0.0,0.818827612057,-0.573895589199,-0.0120806180528,0.0,-0.00654195152645,0.0117143260758,-0.999909984666,0.0,0.326117414642,-0.179794326387,0.304904056172,1.0,-0.205465142857,-0.270039902041,2.67
-0.378474441093,-0.519402247121,-0.13780019626,-2.64037029014,-0.0712031150717,2.11252291893,-0.634842396378,-0.904678441949,-0.149982606035,0.0047213332066,-0.113882603671,-0.0217460799203,-0.0477174854633,-0.872447730174,0.573984655509,0.818833011343,0.00590437765095,0.0,0.818828084636,-0.573893664838,-0.0121398588106,0.0,-0.00655215836784,0.0118029901644,-0.99990887517,0.0,0.322671557237,-0.184322588624,0.304876327049,1.0,-0.200326285714,-0.26328597551,2.687
-0.39266436345,-0.521591542303,-0.137613395897,-2.64201127412,-0.0715020966764,2.11186842251,-0.64858045196,-0.866753430699,-0.126495244424,0.0197628425487,-0.0991080185113,-0.0133918796608,-0.0426607820376,-0.851058873094,0.573998532248,0.818822939485,0.00595194525339,0.0,0.81881856299,-0.573907205559,-0.0121419607946,0.0,-0.00652637741391,0.0118432589535,-0.999908567628,0.0,0.319503147532,-0.188508539846,0.304883938759,1.0,-0.195489714286,-0.256929338776,2.703
-0.407423083506,-0.523652874048,-0.137469412446,-2.64354426726,-0.0717538942724,2.11124753189,-0.662901035002,-0.872695136823,-0.11763360483,-0.00194153222199,-0.0827556349467,-0.0100837401453,-0.0391098726038,-0.832105723997,0.574057966641,0.818780518803,0.00605473918569,0.0,0.818777413508,-0.573966050691,-0.0121353485223,0.0,-0.00646109661674,0.0119241067631,-0.999908030725,0.0,0.316200829495,-0.192851062821,0.304894103271,1.0,-0.190350857143,-0.250175412245,2.72
-0.421917959668,-0.525405756892,-0.1372089134,-2.64481086519,-0.0719606862352,2.11074554747,-0.676964494457,-0.840850233953,-0.0976412424321,0.0170711819022,-0.0739516452462,-0.0151444442925,-0.0272862731542,-0.824380837997,0.574064113404,0.818775808117,0.00610873507355,0.0,0.818773941436,-0.573972956952,-0.0120426082822,0.0,-0.00635406993022,0.0119151317432,-0.999908823559,0.0,0.313002293808,-0.197082425689,0.304924386056,1.0,-0.185212,-0.243421485714,2.737
-0.435255379691,-0.526747678592,-0.137052860258,-2.64578161555,-0.0721300349831,2.11033139923,-0.689904682606,-0.826841885581,-0.0768858045216,0.0112989914958,-0.0588773555132,-0.0136551972205,-0.0224190586556,-0.810394474903,0.57414965893,0.818715261287,0.00618360640381,0.0,0.818714614306,-0.57405862869,-0.0119924163555,0.0,-0.00626874237014,0.0119482807336,-0.999908966585,0.0,0.310052228079,-0.200991156048,0.304942766752,1.0,-0.180375428571,-0.23706484898,2.753
-0.449743765814,-0.527963646497,-0.136741001225,-2.64671926701,-0.0722590303197,2.10992521739,-0.70408949401,-0.798482260661,-0.0602745754437,0.00812547731988,-0.042986284898,-0.00185048211499,-0.0234345252941,-0.778423644455,0.574068208975,0.818772166347,0.00621111587281,0.0,0.818771741053,-0.573976818592,-0.0120081086694,0.0,-0.00626698927932,0.0119791902306,-0.999908607747,0.0,0.306854318419,-0.205172036905,0.304934381776,1.0,-0.174934285714,-0.229913632653,2.771
-0.463263058469,-0.528833502962,-0.136530180146,-2.64738901141,-0.0723612173776,2.10960703679,-0.717132294628,-0.795297329121,-0.0513621500111,0.0078106915826,-0.0307551076607,-0.00572043991583,-0.0214820491952,-0.763407959574,0.574226890878,0.818660498757,0.00626198600102,0.0,0.818660571001,-0.574134930674,-0.0120290385895,0.0,-0.00625259421451,0.0120340701579,-0.999908038882,0.0,0.303866477823,-0.209093308592,0.304925885894,1.0,-0.169795428571,-0.223159706123,2.788
-0.475437925475,-0.529393489936,-0.136181087156,-2.64782711259,-0.0723842983221,2.10938070112,-0.729135956436,-0.753495173789,-0.0300413303804,0.0163135859177,-0.025060026676,-0.0012669771997,-0.0125351984472,-0.74736087047,0.574085467253,0.818759639687,0.0062670255868,0.0,0.818759712801,-0.573993391024,-0.0120360564585,0.0,-0.00625752645775,0.0120411449948,-0.999907922856,0.0,0.301215253919,-0.212580180463,0.304920857624,1.0,-0.164958857143,-0.216803069388,2.804
-0.488188091318,-0.529764942817,-0.135948193155,-2.64814830079,-0.0724092088029,2.10917386591,-0.74149943135,-0.745603163383,-0.0191029533261,0.00758899042759,-0.014658388061,-0.00062718740274,-0.00965953926524,-0.715777419534,0.574208759634,0.81867283058,0.00631218907795,0.0,0.818673058651,-0.574115620956,-0.0121005667068,0.0,-0.0062825998049,0.0121161038113,-0.999906860147,0.0,0.298408293955,-0.216259558107,0.304898736935,1.0,-0.15982,-0.210049142857,2.821
-0.501830183427,-0.529989121144,-0.135536720824,-2.64832639036,-0.0724200924734,2.10901629576,-0.754992567956,-0.711929042134,-0.00419685901903,0.0155776559459,-0.0104257867693,-6.08630404971e-05,-0.014860850328,-0.697931841138,0.574025683289,0.818801455359,0.00628001017625,0.0,0.818801254496,-0.573932711316,-0.0121035291948,0.0,-0.00630620546609,0.0120900495977,-0.999907026915,0.0,0.295436274905,-0.220156460612,0.304896708429,1.0,-0.154076571429,-0.202500636735,2.84
-0.51244004456,-0.530031402733,-0.135312429928,-2.64839603666,-0.0724181222763,2.10890980118,-0.765275790679,-0.708818683393,-0.00222667945248,0.0120438210966,-0.00122117691485,0.00393909726586,-0.00767340032889,-0.685888486873,0.574132076704,0.818726732397,0.00629627349678,0.0,0.818726377261,-0.574038305732,-0.0121609880247,0.0,-0.00634234592749,0.0121371721778,-0.999906227453,0.0,0.293090035244,-0.223196581546,0.304877142864,1.0,-0.149542285714,-0.196541289796,2.855
-0.524633504379,-0.529970129079,-0.134938470078,-2.64835658768,-0.072405842951,2.10888089476,-0.777280201872,-0.664476996836,0.00285049685266,0.0217243754447,0.00570857711121,-5.13603550417e-05,0.000863093856229,-0.652424201578,0.574030830167,0.818798021642,0.00625720973676,0.0,0.818797448952,-0.573937817042,-0.0121188555859,0.0,-0.00633176758739,0.0120802166843,-0.999906984216,0.0,0.290421777145,-0.226667932447,0.304879855392,1.0,-0.144101142857,-0.189390073469,2.873
-0.535781837172,-0.529778309172,-0.13463438867,-2.64823207489,-0.0723961981372,2.10887900813,-0.788184105293,-0.655747409847,0.0134982489521,0.0130628823861,0.0112891357529,0.00756703311609,0.00243286886644,-0.620891049298,0.574028060889,0.818800213279,0.00622438334995,0.0,0.818799317343,-0.573935394922,-0.0121073232059,0.0,-0.00634120699499,0.0120466960365,-0.99990732881,0.0,0.287962234959,-0.229844543896,0.304874089706,1.0,-0.138962285714,-0.182636146939,2.89
-0.544770810922,-0.529541782264,-0.134394025467,-2.64803340329,-0.0723746515558,2.10888633182,-0.796896497184,-0.628797976051,0.0181689440233,0.0231810222172,0.017366077591,0.000848982231972,0.000459819681426,-0.611718404754,0.574090009058,0.818756998414,0.00619563944497,0.0,0.818755981714,-0.573997938779,-0.0120729278715,0.0,-0.00632863176105,0.0120038952394,-0.99990792322,0.0,0.285844565262,-0.232584071481,0.304885863729,1.0,-0.134428,-0.1766768,2.905
-0.55623768273,-0.529018435885,-0.133948035331,-2.64766070568,-0.0722956366471,2.10892736494,-0.808324061267,-0.606802953756,0.0252610900036,0.0224024746145,0.0230186236089,0.00111365819996,0.000520682127032,-0.580292818241,0.573878398434,0.818905835911,0.00612883532694,0.0,0.818903822007,-0.573786427835,-0.0121001006219,0.0,-0.0063923235574,0.0119631433671,-0.999908006469,0.0,0.28347531085,-0.235646374825,0.304878140364,1.0,-0.128986857143,-0.169525583674,2.923
-0.56577669427,-0.528491897409,-0.133687603804,-2.64728752721,-0.0722126862209,2.10899946551,-0.817570723323,-0.590305130029,0.0380210187311,0.016761040576,0.0260355862347,0.00590772170281,0.00202832118793,-0.56183412399,0.573990885074,0.818827005462,0.00612746914759,0.0,0.818824877155,-0.573898715893,-0.0121173986139,0.0,-0.00640562987374,0.0119728310413,-0.999907805361,0.0,0.281364659378,-0.238361163259,0.304868297917,1.0,-0.124150285714,-0.163168946939,2.939
-0.574778830153,-0.527833576567,-0.133342311381,-2.64679896031,-0.0720676903403,2.10913908524,-0.826517084146,-0.541412914615,0.04511700396,0.0246323842528,0.0315566322751,0.00895393002245,0.00853280659615,-0.56228700694,0.573882484796,0.818903060883,0.00611697812391,0.0,0.818901011619,-0.573790788127,-0.0120835230995,0.0,-0.00638549129424,0.0119439517932,-0.999908279552,0.0,0.27941600002,-0.24091548567,0.304870601298,1.0,-0.119313714286,-0.156812310204,2.955
-0.584022104221,-0.52704893978,-0.133016275238,-2.64623480461,-0.0718952534301,2.10924174237,-0.835580279548,-0.542592267433,0.0462964719756,0.0205749880536,0.0355707182647,0.0110027969463,0.00515967394579,-0.521425935629,0.573905386173,0.818886891715,0.00613296019751,0.0,0.818884691741,-0.573812943213,-0.012137328165,0.0,-0.00642005059908,0.0119880960364,-0.999907529977,0.0,0.277393147312,-0.243533874473,0.304857282033,1.0,-0.114174857143,-0.150058383674,2.972
-0.592995939693,-0.526212100714,-0.132717668432,-2.64558505829,-0.0717114294666,2.1093874299,-0.844297494041,-0.518508523902,0.0563083831292,0.0201677980676,0.0387633156514,0.00987428865151,0.00372333858728,-0.504552139937,0.574041640153,0.818791186059,0.00615921295903,0.0,0.818789377058,-0.573949142141,-0.0121278668501,0.0,-0.00639523861662,0.0120052298579,-0.99990748341,0.0,0.275320844617,-0.246239352898,0.304863280029,1.0,-0.108733714286,-0.142907167347,2.99
-0.600840168843,-0.52529325675,-0.132332480945,-2.64493159434,-0.0714897858744,2.10954007433,-0.852115941682,-0.478577685461,0.0554065444864,0.0296097335779,0.0353444094779,0.0147074069581,0.00617462181348,-0.473156735293,0.573899854503,0.818890563282,0.00616029794573,0.0,0.818888459112,-0.57380680252,-0.0121734061052,0.0,-0.00643399038996,0.0120311445218,-0.999906923333,0.0,0.273753432269,-0.248302364875,0.304850003679,1.0,-0.104199428571,-0.136947820408,3.005
-0.609841847135,-0.524259268749,-0.131917857667,-2.64417492707,-0.0712462236859,2.10971816746,-0.860964312699,-0.474151084787,0.0546412704336,0.0205536702433,0.0373145300462,0.0152015593962,0.00865841199052,-0.454521492321,0.573878549084,0.818905445192,0.00616681751258,0.0,0.818903185537,-0.573785022487,-0.0122093238211,0.0,-0.00645997860869,0.0120569276786,-0.999906445209,0.0,0.271799145661,-0.250834471379,0.304840799798,1.0,-0.0984560000001,-0.129399314286,3.024
-0.617135355833,-0.523368037969,-0.131606384533,-2.64346593425,-0.0710283626565,2.10989208235,-0.868006661734,-0.448906684897,0.0557848677214,0.0168900644088,0.0432577099214,0.0177038828062,0.0038413882762,-0.430831925715,0.573995997631,0.818822967279,0.00618788011489,0.0,0.818821245495,-0.573902841972,-0.0121672841872,0.0,-0.0064117332039,0.0120509721467,-0.999906827533,0.0,0.270221472896,-0.252905394284,0.304858976368,1.0,-0.0936194285715,-0.123042677551,3.04
-0.62434328745,-0.522324718483,-0.131244030134,-2.64267329527,-0.0707702992682,2.11009472323,-0.875150716556,-0.407044520795,0.0617631883536,0.0246152525075,0.0411428220421,0.015408709896,0.0190814386256,-0.408183070591,0.57394578992,0.818858009601,0.00620783751354,0.0,0.818856550557,-0.573852558876,-0.0121629430229,0.0,-0.00639746304336,0.0120644306314,-0.999906756643,0.0,0.268685095041,-0.254950623881,0.304862809018,1.0,-0.0884805714286,-0.11628875102,3.057
-0.631134686052,-0.521367954907,-0.130851234159,-2.64193792395,-0.0705009118971,2.11028683911,-0.881916520319,-0.399167408497,0.0549200563625,0.0261219659563,0.0434690730301,0.0167730281952,0.0158035168335,-0.39105748133,0.573843961403,0.818929240124,0.00622531390928,0.0,0.81892811887,-0.5737508807,-0.0121412487748,0.0,-0.00637116695992,0.0120654992007,-0.999906911648,0.0,0.267235047635,-0.256852872503,0.304871912893,1.0,-0.0833417142858,-0.10953482449,3.074
-0.637703491456,-0.520418632239,-0.130503299427,-2.64116938776,-0.0702715051363,2.11047590378,-0.888244657806,-0.377717351466,0.0516808557443,0.0235161019531,0.0440811478189,0.0193026523761,0.0116258971558,-0.359487340278,0.573934267876,0.818865978274,0.00622195180265,0.0,0.818865163498,-0.573841847453,-0.0120882183213,0.0,-0.00632833624418,0.0120330139851,-0.999907575096,0.0,0.265823471675,-0.258709886239,0.304897102727,1.0,-0.0782028571429,-0.102780897959,3.091
-0.643439295416,-0.519472240946,-0.130202938736,-2.64045774311,-0.0700177960918,2.11066346982,-0.893896311138,-0.350941668402,0.0554496740766,0.0178891253514,0.0408988300511,0.013129206283,0.0124812332344,-0.347226949047,0.573937438594,0.818863443305,0.00626296263096,0.0,0.818863101199,-0.573844717234,-0.0120916871725,0.0,-0.00630759401418,0.012068613325,-0.999907277116,0.0,0.264594809785,-0.260332041197,0.304895934659,1.0,-0.0733662857144,-0.0964242612246,3.107
-0.64915901593,-0.518524443847,-0.129867333058,-2.63975929031,-0.0697399484421,2.11085613183,-0.899457959863,-0.323633614371,0.0508831667041,0.0245717675508,0.0376160235171,0.0204607251767,0.00651538097245,-0.322863915688,0.573978441492,0.81883434459,0.00630965322455,0.0,0.818834476923,-0.573885243935,-0.0121067376809,0.0,-0.00629251688458,0.01211580129,-0.999906801452,0.0,0.263300672989,-0.262018775501,0.304888450604,1.0,-0.0679251428572,-0.0892730448981,3.125
-0.654093634774,-0.51766665994,-0.129468487666,-2.63913023723,-0.0695084243945,2.11101999489,-0.904396439881,-0.304735376542,0.0509874661255,0.0210993074427,0.0407687423719,0.0154060504918,0.012376507204,-0.291162829479,0.57383246878,0.818936830092,0.00628593611619,0.0,0.818936500159,-0.573739116987,-0.0121318279054,0.0,-0.006328835101,0.0121096524293,-0.999906646725,0.0,0.262330724737,-0.26328958411,0.304882998402,1.0,-0.0633908571429,-0.0833136979593,3.14
-0.658816655663,-0.51685821311,-0.129120615457,-2.63852673027,-0.0692821344509,2.11120491288,-0.908923258132,-0.283922303601,0.046731298258,0.0240352624781,0.0379992065839,0.0153578826392,0.013596552203,-0.28217006537,0.573875412382,0.818906785164,0.00627974345263,0.0,0.818906474506,-0.57378227071,-0.0121177032831,0.0,-0.00632018566454,0.0120968074413,-0.999906856914,0.0,0.261329165442,-0.264597152025,0.304883595917,1.0,-0.0585542857144,-0.0769570612246,3.156
-0.663669332052,-0.515918918964,-0.128758011362,-2.63784029409,-0.0689965884818,2.11139681876,-0.913622686595,-0.254363123309,0.0458200214366,0.0238661539886,0.030183145543,0.01395926579,0.00900576149657,-0.253208770892,0.573902356581,0.818887660639,0.00631120151462,0.0,0.818887599939,-0.573808758662,-0.0121389476276,0.0,-0.00631913338154,0.0121349689467,-0.999906401161,0.0,0.260312329316,-0.26594600115,0.304874349789,1.0,-0.0531131428572,-0.0698058448981,3.174
-0.66789690941,-0.515143377516,-0.128457067401,-2.63726170788,-0.0687663332537,2.11156578876,-0.917671492521,-0.25137086633,0.038872422043,0.011403519683,0.029531281033,0.0175549119926,0.00694304523581,-0.225737788761,0.573964279783,0.818844106164,0.0063310532728,0.0,0.818844325021,-0.573870617047,-0.0121339677161,0.0,-0.00630274384787,0.0121488449879,-0.999906336106,0.0,0.259412822988,-0.267118934892,0.304872784684,1.0,-0.0479742857144,-0.0630519183674,3.191
-0.671562367635,-0.51448929509,-0.12814190322,-2.63677796804,-0.068555495027,2.1117021465,-0.921156506389,-0.218848739472,0.0371312790312,0.026727896614,0.0300105038389,0.0177565635764,0.00484506290574,-0.211229291205,0.574003956116,0.818816267944,0.00633439931115,0.0,0.818816496949,-0.573910204717,-0.0121395282785,0.0,-0.00630478822089,0.0121550819345,-0.99990624742,0.0,0.258636831073,-0.26811490923,0.304870344466,1.0,-0.0431377142858,-0.0566952816327,3.207
-0.674956992646,-0.513825914807,-0.12773510703,-2.63626695709,-0.0683054505602,2.11186188078,-0.924423839719,-0.184417425178,0.0345599749589,0.0185981548319,0.0283543102313,0.0199649356279,0.0093128937515,-0.183523920006,0.573952836866,0.818852241494,0.00631621375847,0.0,0.818852466096,-0.573859628249,-0.0121042445101,0.0,-0.00628708871525,0.012119546026,-0.999906790216,0.0,0.257963781968,-0.269025737597,0.30488091426,1.0,-0.0379988571429,-0.0499413551021,3.224
-0.677964371937,-0.51323463395,-0.127337724323,-2.63581915345,-0.0680851198567,2.11198879324,-0.9273151412,-0.171901925416,0.0284784693484,0.0199389968279,0.027685926093,0.0117210197525,0.00598641710325,-0.163015575942,0.573883057932,0.818901392202,0.00628431140141,0.0,0.81890126577,-0.573790132939,-0.0120974032102,0.0,-0.00630082576684,0.0120889580583,-0.999907074026,0.0,0.257369812885,-0.269820012977,0.304886216619,1.0,-0.0328600000001,-0.0431874285715,3.241
-0.680648327966,-0.512722657027,-0.126987804484,-2.63543168288,-0.0678553195849,2.11211134721,-0.929874468787,-0.152320945858,0.0300075132241,0.0204878719549,0.0211875701384,0.0158639808329,0.0058553751095,-0.14795156524,0.573854739861,0.818921224633,0.00628587979187,0.0,0.818921257384,-0.573762080493,-0.0120746053313,0.0,-0.00628167205943,0.0120769426028,-0.999907339734,0.0,0.256838836527,-0.270523925558,0.30489180879,1.0,-0.0277211428572,-0.0364335020409,3.258
-0.682861222095,-0.512281539353,-0.126682724975,-2.63511222359,-0.0676436816367,2.11219557735,-0.931860752924,-0.134666607691,0.0291231005403,0.0187320493114,0.023513609371,0.00826390489832,0.004486883778,-0.120177468501,0.573930522459,0.818867993648,0.00630168784173,0.0,0.818868078531,-0.573837479844,-0.0120980820956,0.0,-0.00629070865842,0.0121039426308,-0.99990695645,0.0,0.25637764864,-0.271126706057,0.304884111219,1.0,-0.0225822857144,-0.0296795755103,3.275
-0.684940724806,-0.511883082747,-0.126374426196,-2.63480428874,-0.0674273102334,2.11228726705,-0.933709547932,-0.109476733383,0.0265615082352,0.0202725780114,0.0207430402861,0.00917104393034,0.0056145913913,-0.093382105435,0.574008509555,0.818813238103,0.00631339585574,0.0,0.818813666151,-0.573915765025,-0.0120673808706,0.0,-0.00625769427365,0.0120965070095,-0.999907253589,0.0,0.256001918239,-0.271628930204,0.304895936121,1.0,-0.019812173913,-0.0260388571429,3.292
-0.686561361581,-0.511595963297,-0.126151303471,-2.63458853969,-0.0672544294321,2.11233965171,-0.935213118374,-0.0977679077857,0.019638865382,0.0104566976722,0.0145497384564,0.00166222426918,0.00141044396998,-0.0885216308457,0.57403068769,0.818797469005,0.00634202195462,0.0,0.818798246111,-0.573937764104,-0.0120673941967,0.0,-0.00624094608276,0.0121201243925,-0.999907072271,0.0,0.255677725752,-0.272039034853,0.304897486685,1.0,-0.019492173913,-0.0256182857143,3.308
-0.688086342892,-0.511290863077,-0.125960500335,-2.63434897186,-0.0671419529174,2.11238755755,-0.936692724882,-0.0864420045131,0.0223362487583,0.0100570304423,0.0127481537467,0.00612424467819,0.00500770306156,-0.0857030618024,0.573992506209,0.81882430454,0.00633308864425,0.0,0.818824934749,-0.573899571837,-0.0120728861295,0.0,-0.00625113608121,0.0121156703267,-0.999907062596,0.0,0.255370105972,-0.272442427134,0.304901976092,1.0,-0.019152173913,-0.0251714285714,3.325
-0.689525080073,-0.510967798678,-0.125802661829,-2.63409275437,-0.067078407903,2.11249449789,-0.938158629333,-0.0834175525632,0.0155982410841,0.010812535762,0.0133997167054,0.00519959190639,0.00365938747115,-0.0928420996246,0.573898234761,0.81889072502,0.00628836348941,0.0,0.818891092505,-0.573806137655,-0.0120267163708,0.0,-0.0062403850692,0.0120518281781,-0.999907901275,0.0,0.255085560258,-0.272847988589,0.304911562701,1.0,-0.018812173913,-0.0247245714286,3.342
-0.690856753742,-0.510685573524,-0.125724253733,-2.63387879624,-0.0670411530731,2.11252282362,-0.939536007057,-0.0888756949335,0.0193099051402,0.00180610656575,0.0128018318458,0.000437915184308,1.14358155906e-05,-0.0835344281829,0.573832025467,0.818937217692,0.00627590062994,0.0,0.818937219636,-0.573739605977,-0.0120599224563,0.0,-0.00627570741417,0.0120601705383,-0.999907579621,0.0,0.254788611131,-0.273223293256,0.304908460154,1.0,-0.018492173913,-0.024304,3.358
-0.692336113787,-0.510379337776,-0.125688369514,-2.63363977147,-0.0669817213643,2.11257279574,-0.940992277481,-0.0853795228929,0.0196938071835,-0.00109747318279,0.0142739686499,0.00607674942195,0.0066551515499,-0.0832713702695,0.573863159791,0.81891523348,0.00629770676525,0.0,0.818915463329,-0.57377052877,-0.0120661152432,0.0,-0.00626780771559,0.0120818210859,-0.999907367802,0.0,0.254451280015,-0.273652132932,0.304908673976,1.0,-0.018132173913,-0.0238308571429,3.376
-0.693608524527,-0.510092249007,-0.125683732,-2.63342220418,-0.0669477702819,2.11266400451,-0.942299047658,-0.0831621087861,0.0246942248119,0.00153574253796,0.011454398938,0.00473847694342,0.00341108583636,-0.0751603248678,0.573857494853,0.818919126895,0.00630762305949,0.0,0.818919661078,-0.573765159545,-0.0120364983847,0.0,-0.00623794449673,0.0120729037887,-0.999907662258,0.0,0.254162361318,-0.274037736645,0.304908978187,1.0,-0.017812173913,-0.0234102857143,3.392
-0.694846230519,-0.509801270801,-0.125677746379,-2.63320464828,-0.066901308792,2.11269867462,-0.943492835244,-0.0730566622395,0.0167050650376,-0.000526000924817,0.00774836154113,0.00197292265385,0.00395921690516,-0.0779586302821,0.573920389129,0.818874837345,0.00633518803917,0.0,0.818875529631,-0.573827528488,-0.0120657126713,0.0,-0.0062451234441,0.0121127221797,-0.999907135885,0.0,0.25387522428,-0.274404335353,0.304903027871,1.0,-0.017492173913,-0.0229897142857,3.408
-0.696243255685,-0.509475817996,-0.125657345378,-2.6329695974,-0.0668586625778,2.11273645952,-0.944916508932,-0.0735122635908,0.0188787880972,0.00463775587282,0.0131357831106,0.00265823800078,0.00524648678565,-0.079350995643,0.573914547765,0.818878782086,0.00635444839909,0.0,0.81887943864,-0.573821045463,-0.0121086604479,0.0,-0.00626932960055,0.0121530975077,-0.999906494492,0.0,0.253550312049,-0.274812890335,0.304892815313,1.0,-0.017132173913,-0.0225165714286,3.426
-0.697389648445,-0.509221436958,-0.125639659849,-2.63277502811,-0.0668276671078,2.11281490524,-0.946067583701,-0.0774590396595,0.0170421464427,0.000125327370181,0.0122503226453,0.00319205616284,0.01013328694,-0.0805106302744,0.573921404352,0.818873954258,0.00635732383749,0.0,0.818874804298,-0.5738281903,-0.0120834516657,0.0,-0.00624693248659,0.0121410376153,-0.999906781175,0.0,0.253290875654,-0.275155750617,0.304893946134,1.0,-0.016832173913,-0.0221222857143,3.441
-0.698654597976,-0.508919748601,-0.125594704097,-2.63254374649,-0.0667960238549,2.11288525256,-0.94732338402,-0.0709449366287,0.0190147151551,0.00192793642534,0.013311693709,0.00322656654226,0.00447379387168,-0.0681209799769,0.573922323241,0.818873390513,0.00634697543328,0.0,0.818874150125,-0.573829241933,-0.0120778417492,0.0,-0.00624826342022,0.0121293506378,-0.999906914696,0.0,0.253010454054,-0.275530356579,0.304894127656,1.0,-0.016492173913,-0.0216754285714,3.458
-0.699877511266,-0.508624613893,-0.125574328253,-2.63231601411,-0.0667482999062,2.11292069162,-0.948585356092,-0.07001684167,0.0188901794474,0.00371111647563,0.0128383787047,0.0022779190901,0.00263239417929,-0.0750141632734,0.573908002311,0.818883264845,0.00636791504869,0.0,0.818884136241,-0.573814516375,-0.0121003765181,0.0,-0.00625491416152,0.0121593216336,-0.999906509103,0.0,0.252731012007,-0.275891676224,0.304891556354,1.0,-0.016152173913,-0.0212285714286,3.475
-0.700996747294,-0.508361759337,-0.125548761012,-2.63213061738,-0.0667239973912,2.11297175187,-0.949699842317,-0.0696393205701,0.0180263824518,0.00317582910095,0.0125060589741,0.00123264206986,0.00148279374584,-0.0676239596766,0.573913723239,0.818879255438,0.00636790328634,0.0,0.818879997491,-0.573819985167,-0.0121211069749,0.0,-0.00627181363721,0.0121712525952,-0.999906258088,0.0,0.252472572921,-0.276219248264,0.30488315798,1.0,-0.015832173913,-0.020808,3.491
-0.702288826738,-0.50802525669,-0.125518602176,-2.63188344551,-0.0666890215765,2.11304764601,-0.951005336958,-0.0684013519364,0.0193575132811,0.00624230458197,0.0150476341878,0.00195778220306,0.0037145024016,-0.0648283344229,0.573908995057,0.818882573897,0.00636729636133,0.0,0.818883266047,-0.573815179363,-0.0121277954187,0.0,-0.00627770988993,0.0121745577192,-0.99990618085,0.0,0.252183540626,-0.276607141105,0.304877677668,1.0,-0.015452173913,-0.0203085714286,3.51
-0.703360636676,-0.50775312316,-0.125484939963,-2.63166479057,-0.0666496265681,2.11308859084,-0.952123860679,-0.0728507321239,0.0184356402302,0.00232734450742,0.0158347763305,0.00607687932928,0.00469612162538,-0.0674032026054,0.573874804081,0.818906498384,0.00637205198254,0.0,0.818907208765,-0.573780889127,-0.0121334910807,0.0,-0.0062801539544,0.0121814586507,-0.999906081455,0.0,0.251946133832,-0.276926396747,0.304880220708,1.0,-0.015132173913,-0.019888,3.526
-0.704494434569,-0.507480447128,-0.125459978529,-2.63144887459,-0.0666229511729,2.1131553554,-0.95323403276,-0.0679238898983,0.0205653548697,0.00353910953053,0.0174238182896,0.000616014053719,0.00611509968949,-0.0696309763823,0.573898820244,0.818889710372,0.00636657447066,0.0,0.818890451589,-0.573805123565,-0.0121183896668,0.0,-0.00627057228157,0.0121684908576,-0.999906299487,0.0,0.251691196334,-0.27726720054,0.304883285618,1.0,-0.014792173913,-0.0194411428572,3.543
-0.705586196522,-0.507206958031,-0.125449276296,-2.63124717887,-0.0665919271266,2.11319636991,-0.954373299449,-0.063798587633,0.0144393538293,0.00216915928343,0.0123568413536,0.000214664318999,0.00366981181421,-0.0691696373687,0.573876002606,0.818905602421,0.00637925207887,0.0,0.818906347538,-0.573781939303,-0.0121419517459,0.0,-0.00628293364589,0.0121922194897,-0.99990593284,0.0,0.251437614794,-0.277592094693,0.30487704321,1.0,-0.014452173913,-0.0189942857143,3.56
-0.706638383071,-0.506937894098,-0.125436176146,-2.63103664435,-0.0665599427587,2.11323891561,-0.955465639391,-0.0561527532391,0.01642901061,0.000762513933812,0.0110766273723,0.00375712491501,0.00341693802402,-0.0685805021527,0.573858276372,0.818917951631,0.00638858642704,0.0,0.818918750302,-0.573764041259,-0.0121512247581,0.0,-0.00628543593654,0.0122050490935,-0.999905760595,0.0,0.251197510088,-0.277908925268,0.304876621702,1.0,-0.014112173913,-0.0185474285714,3.577
-0.707709129401,-0.506705441167,-0.125428374713,-2.63083062598,-0.0665332825988,2.11330553212,-0.956466021662,-0.0713221756023,0.0172466602194,-0.000532968415497,0.00571697619698,0.00403689582993,0.00255727502884,-0.0643448333358,0.573932141826,0.818866188071,0.00638823246674,0.0,0.818867275281,-0.573838462318,-0.0121058472814,0.0,-0.00624737580238,0.0121792838617,-0.999906313281,0.0,0.25095352655,-0.278234878096,0.304889656178,1.0,-0.013772173913,-0.0181005714286,3.594
