nelsonifechukwu/NELSON_IML_WORK/CNN-GradCAM/train2dof/data_sample_2022-02-22-07-43-11/robot_state.csv
position_joint1,position_joint2,position_joint3,position_joint4,position_joint5,position_joint6,position_joint7,velocity_joint1,velocity_joint2,velocity_joint3,velocity_joint4,velocity_joint5,velocity_joint6,velocity_joint7,ee_T_00,ee_T_10,ee_T_20,ee_T_30,ee_T_01,ee_T_11,ee_T_21,ee_T_31,ee_T_02,ee_T_12,ee_T_22,ee_T_32,ee_T_03,ee_T_13,ee_T_23,ee_T_33,v_x,v_y,time
0.465086377457,0.547661443719,-0.124022667924,-1.3558135056,0.0795258748981,1.89414504815,0.159131829591,-0.000631076319072,-0.00191261363339,0.00100261415194,-0.000392892329169,-0.000197625624836,-0.000132802483098,0.000726634961202,0.57380269028,0.818979106221,0.00210786690715,0.0,0.81893803372,-0.573743499383,-0.0118169684686,0.0,-0.00846863838666,0.00850698446434,-0.999927954094,0.0,0.661696692175,0.260890251606,0.303313530232,1.0,0.0,0.0,0.0
0.465085433957,0.547661419737,-0.124022529823,-1.35581601128,0.0795258426442,1.8941450089,0.159128813183,4.54638931489e-06,-0.00245882669666,0.0018585129821,-0.00162802424708,-0.000482070558436,6.84742960601e-06,-0.00155910888144,0.573801024495,0.81898027852,0.00210584531613,0.0,0.818939176363,-0.573741838412,-0.011818425262,0.0,-0.00847100874278,0.00850614752167,-0.999927941136,0.0,0.661696326555,0.260889401725,0.303312346505,1.0,-0.00016,-0.000210285714286,0.009
0.465088216637,0.547663259301,-0.124027895984,-1.35581382101,0.0795257144634,1.89414342054,0.159133557787,0.000805632332465,-0.00189495911139,-0.00444150622994,-0.000462089461895,2.59748544276e-05,-0.000616228720577,0.000831175839059,0.573806219196,0.818976645507,0.00210328956527,0.0,0.818935538753,-0.573747071332,-0.0118164464407,0.0,-0.00847080052877,0.00850297273835,-0.999927969902,0.0,0.661696976752,0.260888244386,0.30331212529,1.0,-0.00042,-0.000552,0.022
0.465085031191,0.547648622997,-0.124027898907,-1.35582239978,0.0795253976198,1.89414741796,0.159130246846,0.000651985849895,-0.00309143439227,-0.000954357499159,2.69117440071e-06,-2.41561729551e-05,-0.000644894716563,-0.000490727179149,0.573806503964,0.818976423026,0.0021122113184,0.0,0.818935432,-0.573747320558,-0.0118117428228,0.0,-0.00846182621867,0.0085075833407,-0.99992800667,0.0,0.661697044788,0.260885530693,0.303318757429,1.0,-0.00074,-0.000972571428571,0.038
0.465087498484,0.547587421969,-0.124022638679,-1.35588393698,0.0795259684855,1.89415896733,0.159132467668,0.000325454002419,-0.00538032448702,0.000559673571439,-0.00447735039512,-0.000145218777197,0.0041803383201,1.4120081563e-05,0.573806108945,0.818976663174,0.00212636186358,0.0,0.818935777873,-0.573746791044,-0.011813483322,0.0,-0.0084551366433,0.00852016674451,-0.999927956116,0.0,0.661684975737,0.260884584971,0.303333652506,1.0,-0.0011,-0.00144571428571,0.056
0.465081951615,0.54747177546,-0.124022688254,-1.3560379078,0.0795256138136,1.89419561942,0.159125433995,-0.000852887673516,-0.00498527241799,0.000102803500463,-0.00772740800684,-0.000152301583944,0.000794976945948,-0.00166110921434,0.573813290112,0.818971619782,0.00213095854174,0.0,0.818930688337,-0.573753846442,-0.0118236328959,0.0,-0.00846073701993,0.00852982926413,-0.999927826366,0.0,0.661661520372,0.260866557915,0.303345473138,1.0,-0.00142,-0.00186628571429,0.072
0.465063074525,0.547321960165,-0.124028216809,-1.35624148923,0.0795232048354,1.89426579998,0.159124222845,-0.00364535879425,-0.00380851391731,-0.00111950969262,-0.00619575369861,-0.00019993188904,0.00405319425558,0.00127181759294,0.573842318869,0.818951231809,0.00214939385439,0.0,0.818910475213,-0.573782733393,-0.0118218165905,0.0,-0.0084483688354,0.00854418429029,-0.999927808384,0.0,0.661639127854,0.260833046551,0.303360971139,1.0,-0.00178,-0.00233942857143,0.09
0.465049433408,0.547154143601,-0.124027593645,-1.3564302129,0.0795177468498,1.89435753645,0.159118871376,-0.00324385542829,-0.0130987886266,-0.000537033256036,-0.0127276714591,-0.00189512103775,0.00549942875918,-0.000517983944221,0.573857857708,0.818940173364,0.00221325538606,0.0,0.818900224819,-0.573797998533,-0.0117909106081,0.0,-0.00838625032807,0.00857890720577,-0.999928033989,0.0,0.661622306977,0.26080953869,0.303397951115,1.0,-0.00208,-0.00273371428571,0.105
0.465026833985,0.546953392567,-0.124023923923,-1.35666036547,0.0795163868884,1.89448927568,0.159098782738,-0.00208052636544,-0.0137953055497,0.000483110288105,-0.0157337595806,0.0002591115847,0.013790199261,-0.00385636149943,0.573870088943,0.818931342013,0.00230759314481,0.0,0.818892557461,-0.57380980458,-0.0117488043768,0.0,-0.00829750431655,0.00863212445977,-0.999928316355,0.0,0.661606233941,0.260780766297,0.303441916309,1.0,-0.00242,-0.00318057142857,0.122
0.464997037472,0.546713217149,-0.124023292384,-1.35698543574,0.0795120640511,1.8946213613,0.159068464514,-0.0019962480326,-0.0142807886062,0.00172046065821,-0.0221156207424,0.000310994181852,0.00984190994994,-0.00274254200714,0.573886292925,0.818919847473,0.00235650351623,0.0,0.818881579744,-0.57382569961,-0.0117376200804,0.0,-0.00826010679974,0.00866592344361,-0.999928333635,0.0,0.661572222466,0.260734257677,0.303468737461,1.0,-0.00278,-0.00365371428571,0.14
0.464955919846,0.546451850752,-0.124031096236,-1.3573740971,0.0795023098383,1.89476250872,0.158947980324,-0.000913794361507,-0.017374904166,-0.00161710267221,-0.0229928265981,0.000493790001658,0.00786650491714,-0.0016263148146,0.573845886589,0.818948108582,0.00237503589548,0.0,0.818909989813,-0.573785132927,-0.0117386846336,0.0,-0.00825077214385,0.00868130365392,-0.999928277291,0.0,0.661531158024,0.260667836847,0.3034813382,1.0,-0.00312,-0.00410057142857,0.157
0.464924682432,0.546197192226,-0.124031469628,-1.35775927529,0.0794875549072,1.89490938833,0.158937404149,-0.000689066310386,-0.0130744411507,-0.00101884782971,-0.0258455696862,-0.00088517203002,0.00977186806892,-7.45472865919e-05,0.573880724714,0.818923643843,0.00239295993777,0.0,0.818885693765,-0.573819832577,-0.0117374268453,0.0,-0.00823908711864,0.00869561110053,-0.999928249321,0.0,0.661487832087,0.260612159397,0.30349107505,1.0,-0.00342,-0.00449485714286,0.172
0.464888137517,0.545920043129,-0.124026250828,-1.35824134792,0.0794706876267,1.89506229536,0.158887652708,-0.00115735636864,-0.0225668929286,0.00047055303269,-0.0328983653197,-0.00362520107059,0.00460794600203,-0.0055641138141,0.573884166577,0.818921339826,0.00235572311151,0.0,0.81888273508,-0.573823233767,-0.0117774987919,0.0,-0.00829323610721,0.00868814833695,-0.999927866555,0.0,0.661421401557,0.260538320378,0.303471987292,1.0,-0.00376,-0.00494171428571,0.189
0.464828068022,0.545566361178,-0.124023701702,-1.3588430154,0.079414122236,1.89525011644,0.158792329023,-0.0056690841832,-0.0225316637128,0.00140114485687,-0.0354578905427,-0.000637816319422,0.0104267054596,-0.0091983154306,0.573876455183,0.818926915765,0.00229515199813,0.0,0.81888762869,-0.573815863322,-0.0117963333267,0.0,-0.00834350088159,0.00864927605631,-0.999927785401,0.0,0.661351091757,0.260443609467,0.303451080697,1.0,-0.0041,-0.00538857142857,0.206
0.464770545003,0.545169236458,-0.124031130549,-1.35954361834,0.0793448024966,1.89547386629,0.158714726465,-0.00120199452575,-0.0255154944187,-0.00051111832064,-0.0436056799099,-0.00115108920999,0.0138972738639,-0.00375785645612,0.573885798288,0.818920602492,0.00221003116414,0.0,0.81888042565,-0.573825757626,-0.0118150443715,0.0,-0.00840757231985,0.0085904028232,-0.999927756244,0.0,0.661265788352,0.260327266451,0.30341829042,1.0,-0.00446,-0.00586171428571,0.224
0.46471380567,0.544776747098,-0.124035031172,-1.36019308763,0.0793319676549,1.89567896377,0.158659504954,-0.000807118217361,-0.0215807626758,-0.00177561016715,-0.0444821408291,-0.00127617476078,0.00721458253961,-0.0015507806324,0.57392243214,0.81889501043,0.00217960558009,0.0,0.81885416926,-0.573862233226,-0.011863121997,0.0,-0.00846402104437,0.00859345639656,-0.999927253781,0.0,0.661184137614,0.260227381981,0.303404891684,1.0,-0.00478,-0.00628228571429,0.24
0.464641983535,0.544326702483,-0.124031880316,-1.36096709163,0.0793021239598,1.89594701305,0.158515275235,-0.00455209544976,-0.0229253386471,-0.000661164258055,-0.0412652249857,5.23127371497e-05,0.0219957059076,-0.00832851369092,0.573896152445,0.818913527855,0.00214172970578,0.0,0.818871985011,-0.57383589788,-0.0119071982386,0.0,-0.00852212840505,0.00858746304632,-0.999926811725,0.0,0.661091098319,0.260109104137,0.303378122384,1.0,-0.00514,-0.00675542857143,0.258
0.464577094346,0.543869511743,-0.12403470374,-1.36171953866,0.0792711098509,1.89621472906,0.158459349595,-0.0100492087294,-0.0288703653466,-0.00100929362431,-0.0456721347332,-0.00234757077281,0.0147836026637,-0.00402288044466,0.573936319477,0.81888540512,0.00213104880973,0.0,0.818843546497,-0.573875925596,-0.0119337874103,0.0,-0.00854961133641,0.00859439505753,-0.99992651756,0.0,0.660995371441,0.259992453887,0.303369706561,1.0,-0.00548,-0.00720228571429,0.275
0.464499041228,0.543379372353,-0.124034330075,-1.36250641476,0.0792229460376,1.89647697024,0.158340740489,-0.00410497275014,-0.0275414001452,-0.000924878549148,-0.0489896176649,-0.0068636605421,0.0114238758325,-0.00621996973787,0.573936518206,0.8188853576,0.00209549016691,0.0,0.818843029408,-0.573876264336,-0.0119529629005,0.0,-0.00858571953194,0.00857628454578,-0.999926363671,0.0,0.660909640705,0.25986604958,0.303361720829,1.0,-0.00578,-0.00759657142857,0.29
0.464413495019,0.542759191104,-0.1240325509,-1.36348231882,0.0791667426802,1.89682440224,0.158230945735,-0.00669435565161,-0.0357985247872,0.00150999309455,-0.0547881436716,-0.000807013969495,0.0151738910415,-0.0024751066585,0.573954675578,0.818872644781,0.00209019420801,0.0,0.818830187129,-0.573894381036,-0.0119628994122,0.0,-0.00859670588288,0.0085778413156,-0.999926255924,0.0,0.660795438581,0.259717322566,0.303365947499,1.0,-0.00616,-0.008096,0.309
0.464331124554,0.54221047339,-0.124036006101,-1.36434018817,0.0791167319641,1.8971365693,0.158108836242,-0.00491997277163,-0.0378025570017,-0.000124830837295,-0.0533839694458,0.00015335016601,0.0254373728024,-0.00371151181725,0.573958892035,0.818869682554,0.00209288058801,0.0,0.8188272456,-0.573898571528,-0.0119632087265,0.0,-0.00859537323989,0.00858026286973,-0.999926246604,0.0,0.660699399017,0.259579353069,0.303372851084,1.0,-0.00648,-0.00851657142857,0.325
0.46425775998,0.541631569266,-0.124046412656,-1.36523923449,0.0790543764879,1.89746338263,0.157995102147,-0.00599946647005,-0.0388548388102,0.000561256989437,-0.0548167549982,-0.00560244203082,0.0271357129995,-0.00907163587716,0.573966389595,0.81886443088,0.00209149636828,0.0,0.818822085359,-0.573906183171,-0.0119512487789,0.0,-0.00858629514461,0.00857234357477,-0.999926392522,0.0,0.660597389474,0.259437817713,0.303382909514,1.0,-0.0068,-0.00893714285714,0.341
0.464157369695,0.540968168794,-0.124044975836,-1.36625581681,0.0790012690943,1.89783574776,0.157877448834,-0.0020694237629,-0.0412645786079,-0.000915183482847,-0.0658436740574,-0.0057381469986,0.0187247704998,-0.00472779597018,0.573993441422,0.818845414359,0.00211269706284,0.0,0.818803252549,-0.573933051488,-0.011951272982,0.0,-0.00857386347838,0.00859000091918,-0.999926347662,0.0,0.660483195714,0.25927704738,0.30340026474,1.0,-0.00714,-0.009384,0.358
0.464069111148,0.540270756842,-0.124050677824,-1.36731599447,0.0789327654723,1.89822066918,0.157739109123,-0.00694642541801,-0.0458465976524,-0.000539755205762,-0.0673687206504,-0.000570550232958,0.0218240155251,-0.00858070696978,0.573996812882,0.818843011056,0.00212813235752,0.0,0.818801101541,-0.573936410407,-0.0119373290959,0.0,-0.00855355053704,0.00859467144798,-0.999926481495,0.0,0.660361493554,0.259113797008,0.303422104377,1.0,-0.00748,-0.00983085714286,0.375
0.463962916029,0.539531650318,-0.124057365509,-1.36846162557,0.0788745088247,1.89864526609,0.157595894865,-0.0029957630201,-0.0438910156183,-0.00172589738331,-0.0686655144234,-0.00159975251713,0.0257535449242,-0.00447488917608,0.574019055428,0.818827368193,0.0021475581827,0.0,0.818785638853,-0.573958497273,-0.0119359925584,0.0,-0.00854107254809,0.00861004274254,-0.999926455917,0.0,0.660233148269,0.258932889418,0.303436124527,1.0,-0.00782,-0.0102777142857,0.392
0.463859953265,0.53877989189,-0.124059469783,-1.36962770666,0.0788060723333,1.89909007692,0.157451796517,-0.00675694918689,-0.0396350780093,-0.000925383915379,-0.0702999678991,-0.00108151675727,0.0330518525862,-0.0047371498417,0.57403310823,0.818817449047,0.00217317591991,0.0,0.818776055491,-0.57397244607,-0.0119226259066,0.0,-0.00851527497769,0.00862349244394,-0.999926560038,0.0,0.660102885867,0.258754250568,0.303450813309,1.0,-0.00816,-0.0107245714286,0.409
0.463755899652,0.538083702226,-0.124060603987,-1.37067905729,0.0787457565851,1.89950152191,0.157323867218,-0.00870941134706,-0.0463364390848,-0.00101226901343,-0.072299963162,-0.0101470607144,0.0237051769556,-0.00398125956682,0.574056386474,0.818800998786,0.00222180948432,0.0,0.818760243225,-0.573995530163,-0.0118971579985,0.0,-0.00846625914076,0.00864893532254,-0.999926756505,0.0,0.659990447168,0.258587406261,0.303477816764,1.0,-0.00846,-0.0111188571429,0.424
0.463660070291,0.537277075452,-0.124077236359,-1.37194773106,0.0786697189251,1.89996466238,0.157177135979,-0.0125407670157,-0.0526553094003,-1.31670899063e-05,-0.0778832155672,0.000184654010196,0.0261048380672,-0.00417234718533,0.574075974341,0.818787274539,0.00221847649426,0.0,0.818746529968,-0.574015184444,-0.0118926277308,0.0,-0.00846425601594,0.00864380820363,-0.999926817797,0.0,0.659842946799,0.258393627193,0.303484230073,1.0,-0.0088,-0.0115657142857,0.441
0.463553478834,0.536445540152,-0.124068049718,-1.37324753855,0.0786009595914,1.90046454942,0.157013320976,-0.0101204988981,-0.0501533600992,0.000960523170325,-0.0805720164329,-0.00404352926792,0.0242289555515,-0.00948231538777,0.574075967141,0.818787188876,0.0022517070003,0.0,0.818746758664,-0.574014923667,-0.0118894695381,0.0,-0.00844259446456,0.00866920344088,-0.999926781075,0.0,0.659692408083,0.258208037266,0.303495621783,1.0,-0.00914,-0.0120125714286,0.458
0.463449084195,0.535631543112,-0.124079514493,-1.37453966754,0.0785248480918,1.90092810976,0.156855090804,-0.00701666238939,-0.042888408434,0.000163217501168,-0.0822540206604,-2.8007560083e-05,0.0290081779468,-0.0145102096291,0.574083836562,0.818781733856,0.00222885693339,0.0,0.818741001661,-0.574022878683,-0.0119018422344,0.0,-0.0084657591398,0.00865767849744,-0.999926685075,0.0,0.659529296948,0.257999938664,0.303488942603,1.0,-0.00948,-0.0124594285714,0.475
0.463321378059,0.534637269783,-0.124075412122,-1.37614012418,0.0784320399721,1.90150514721,0.156660035698,-0.00463994101948,-0.0550188926347,0.00119145806991,-0.0903320619517,-0.00395668605921,0.0334438873863,-0.00422501532964,0.574095426964,0.81877364536,0.00221479201052,0.0,0.818732636057,-0.574034428217,-0.0119202675575,0.0,-0.00848879749198,0.00865686026542,-0.999926496842,0.0,0.659346805105,0.257774328471,0.303485284244,1.0,-0.00984,-0.0129325714286,0.493
0.463209424684,0.533795388597,-0.124084772964,-1.37753369382,0.0783584099139,1.90200648836,0.156486657267,-0.0052405199724,-0.0536926744843,0.000542628421991,-0.0882261366502,-0.0045082619424,0.0331161218067,-0.0131019390728,0.574108356036,0.818764688576,0.00217420599318,0.0,0.818723055047,-0.57404742366,-0.0119524652564,0.0,-0.00853832353364,0.00864224914203,-0.999926201557,0.0,0.659179946005,0.25756280401,0.303459602697,1.0,-0.01016,-0.0133531428571,0.509
0.463082396108,0.532868606208,-0.124083321051,-1.37902051504,0.0782748296394,1.90256678067,0.156304474464,-0.0093026956785,-0.0503349892684,0.000397224791747,-0.0925382760437,-0.00969923082431,0.0385649681978,-0.0112034015219,0.574116884219,0.818758707135,0.00217477511016,0.0,0.818716994359,-0.57405586072,-0.0119623919956,0.0,-0.00854603474448,0.0086485030724,-0.99992608161,0.0,0.658996363686,0.257324126824,0.303450500433,1.0,-0.01052,-0.0138262857143,0.527
0.46295914543,0.532014835101,-0.124080821358,-1.38039306968,0.0781966468622,1.90308168227,0.156133371873,-0.00812572395584,-0.054756882126,0.000536266685559,-0.0879938652354,-0.00294320159928,0.0353229943336,-0.0083734558166,0.574134329614,0.818746473348,0.00217504960206,0.0,0.818704714304,-0.574073252338,-0.0119682340908,0.0,-0.00855047627813,0.00865226400231,-0.999926011104,0.0,0.658847812549,0.257130864727,0.303447126136,1.0,-0.0108,-0.0141942857143,0.541
0.46282599711,0.531008419599,-0.124077797864,-1.38199385305,0.0781002019328,1.90365152917,0.155925994301,-0.00723472668301,-0.0624897278411,0.00491653948182,-0.0943652009146,-0.00951004878486,0.0325847257871,-0.013376481701,0.574132642727,0.818747708942,0.00215512368929,0.0,0.818705614023,-0.574071571157,-0.011987312402,0.0,-0.00857755446767,0.00864688569124,-0.999925825713,0.0,0.658653439415,0.256891166765,0.303443765863,1.0,-0.01114,-0.0146411428571,0.558
0.462666590584,0.529870589454,-0.124086518557,-1.38381805941,0.0779886504904,1.9043137818,0.155685441107,-0.011420723152,-0.0611857173472,0.000104125679088,-0.0940618175489,-0.00688652497581,0.0363420871165,-0.00296583196293,0.574141557472,0.818741520409,0.00213111288205,0.0,0.818699116522,-0.574080588906,-0.0119992061123,0.0,-0.00860098331329,0.0086341493536,-0.999925734518,0.0,0.658438561225,0.256606404474,0.303434801841,1.0,-0.01152,-0.0151405714286,0.577
0.462539688363,0.528877925473,-0.124088974274,-1.38538838928,0.0778821425698,1.90489304837,0.155469260021,-0.00695883680435,-0.0617021244446,0.000283199730774,-0.0979787802094,-0.00740367345594,0.0358452582135,-0.0170285882551,0.574126746656,0.818751922094,0.00212502766027,0.0,0.818709526034,-0.574065892842,-0.0119920622997,0.0,-0.00859878370985,0.00862491015859,-0.999925833171,0.0,0.658252080861,0.256370140309,0.303436745036,1.0,-0.01184,-0.0155611428571,0.593
0.46239105336,0.527773518735,-0.124095172108,-1.38710753188,0.077778528936,1.90556056351,0.155221648049,-0.0100654053432,-0.0666278965731,-0.000242807845266,-0.103807057767,-0.013102900033,0.0419843119411,-0.0215671654809,0.57411553849,0.818759670464,0.00216734576123,0.0,0.818717874493,-0.574054559502,-0.0119645978579,0.0,-0.00855212013793,0.00864367267442,-0.999926071349,0.0,0.65805714358,0.256107650083,0.303454082318,1.0,-0.01218,-0.016008,0.61
0.462246458975,0.526612277617,-0.124096025973,-1.38888190176,0.0776597379176,1.90623018292,0.154979069418,-0.0109803810628,-0.0717052504621,4.16017738366e-05,-0.105817768922,-0.00558518159221,0.0354477408769,-0.0235504899153,0.574099820443,0.818770580903,0.00220882685969,0.0,0.818729429281,-0.574038779405,-0.0119309794286,0.0,-0.00850094635263,0.00865817139853,-0.99992638228,0.0,0.657849231973,0.255842862163,0.303484817695,1.0,-0.01252,-0.0164548571429,0.627
0.462102401076,0.525521895205,-0.12409613656,-1.3906105056,0.0775523032528,1.90685495953,0.15475394958,-0.0092759064775,-0.0668138707083,0.000691350159997,-0.111535808029,-0.00844737488309,0.0381159085704,-0.0143078258763,0.574097722299,0.818772087462,0.00219566527236,0.0,0.818730738677,-0.574036708837,-0.0119407434391,0.0,-0.00851651893423,0.00865297885794,-0.999926294715,0.0,0.657639763174,0.255582197408,0.303483321314,1.0,-0.01284,-0.0168754285714,0.643
0.461940273293,0.524260099195,-0.124113243501,-1.39258470965,0.0774324228958,1.90756369724,0.154478617437,-0.00866956558677,-0.0757076712729,-0.0032494174889,-0.112859392355,-0.00550005864341,0.0367360126072,-0.0146616456667,0.574090909784,0.818776881956,0.00218901350051,0.0,0.818735467699,-0.574029945795,-0.0119416148201,0.0,-0.00852112290492,0.00864796200858,-0.999926298893,0.0,0.657402470361,0.255276575377,0.303493004168,1.0,-0.0132,-0.0173485714286,0.661
0.461781361109,0.523079423074,-0.124112243929,-1.39448643443,0.0773161150465,1.90827027158,0.154233479182,-0.00899917173527,-0.0688257985269,0.000392789567187,-0.112786834332,-0.00674081005323,0.0521716082393,-0.0173638416407,0.574090396952,0.81877727936,0.00217481788325,0.0,0.818735651981,-0.574029462489,-0.0119522077578,0.0,-0.00853795099172,0.00864241502695,-0.999926203305,0.0,0.657173864079,0.254991603258,0.303479074236,1.0,-0.01354,-0.0177954285714,0.678
0.461634111976,0.521980636559,-0.124111798697,-1.39621189718,0.0772167492128,1.90893729163,0.153995864,-0.0115317724758,-0.0749252545068,0.000790896405707,-0.115417059342,-0.00911567170183,0.0493478024368,-0.00902233678059,0.574081925175,0.818783123539,0.00221058740619,0.0,0.81874192684,-0.574020809983,-0.0119379161607,0.0,-0.00850580487224,0.00866340928196,-0.999926295595,0.0,0.656972366476,0.254733885172,0.303487771317,1.0,-0.01384,-0.0181897142857,0.693
0.461461883642,0.520658303354,-0.124119923484,-1.39835401125,0.0770752790312,1.90974968662,0.153701906752,-0.00909720409244,-0.0716029082805,-0.000487091478425,-0.11771175068,-0.0144642467151,0.0391709100381,-0.018324889475,0.574064418799,0.818795443446,0.0021935728446,0.0,0.818754149407,-0.574003501358,-0.0119318967031,0.0,-0.0085108280187,0.0086458406738,-0.999926404915,0.0,0.656717519402,0.254411369887,0.303467772011,1.0,-0.0142,-0.0186628571429,0.711
0.461310349236,0.519491456437,-0.12412911877,-1.40015342598,0.0769604718554,1.91040738918,0.153456305732,-0.00550506665008,-0.0814410558817,-0.00152706680327,-0.121653784228,-0.00982116305323,0.0465102476518,-0.0221030501055,0.574058677701,0.818799423616,0.0022102810358,0.0,0.818758401785,-0.573997748903,-0.0119168226567,0.0,-0.00848895462232,0.00865080817992,-0.999926547886,0.0,0.65650143014,0.254134331701,0.303487906456,1.0,-0.0145,-0.0190571428571,0.726
0.461143913092,0.518151775628,-0.124127111122,-1.40225026087,0.0768257528591,1.91115408804,0.153174789076,-0.00858755360963,-0.0800045924128,0.000298991543229,-0.127439840372,-0.0118141022211,0.0422686865083,-0.0147122444544,0.574037819508,0.818814077918,0.00219874488512,0.0,0.818772881516,-0.573976915205,-0.011925443647,0.0,-0.00850285604342,0.00864609481722,-0.999926470538,0.0,0.656239027768,0.253823897999,0.30349482124,1.0,-0.01484,-0.019504,0.743
0.460936229027,0.516644318111,-0.124127453311,-1.40462935468,0.0766731535214,1.91201673478,0.15284331002,-0.010282709121,-0.0771298748627,-0.000401354719805,-0.121835158629,-0.00662229287507,0.0424645104459,-0.0200177511745,0.574021368311,0.818825642925,0.00218680401377,0.0,0.818784292288,-0.573960515847,-0.0119312971558,0.0,-0.00851467683867,0.00863950663318,-0.999926426895,0.0,0.655948497718,0.253458760733,0.303494806055,1.0,-0.01522,-0.0200034285714,0.762
0.460764634075,0.515425161113,-0.12412901176,-1.40655330167,0.0765477624814,1.91274996364,0.152585279502,-0.00920853848959,-0.0867864661242,0.00055129651497,-0.127483880391,-0.00444391381057,0.0501707219164,-0.0163237311218,0.574019555961,0.81882686604,0.00220447860741,0.0,0.818785823504,-0.573958711363,-0.0119130088656,0.0,-0.00848957546446,0.00864346230461,-0.999926606141,0.0,0.655721273853,0.253162461187,0.303497615576,1.0,-0.01552,-0.0203977142857,0.777
0.460568089617,0.513955248233,-0.124134127497,-1.40891803739,0.07641239048,1.91359513828,0.152260286577,-0.00996214572936,-0.0863358343522,0.0018938830244,-0.132259715255,-0.00770803908154,0.0509468013379,-0.0278128900176,0.574005827441,0.818836598498,0.00216377557166,0.0,0.818794862634,-0.573944984716,-0.011953005656,0.0,-0.00854583488956,0.00863294943497,-0.999926217723,0.0,0.655407644518,0.252786934952,0.303475323049,1.0,-0.0159,-0.0208971428571,0.796
0.460383003958,0.51255669695,-0.124139783157,-1.41120106421,0.0762809795838,1.91438120355,0.151942827377,-0.0084991398545,-0.0826387455962,-0.00124762303562,-0.134358592741,-0.0043193337794,0.0386138107487,-0.0158307286191,0.573985763285,0.818850865781,0.00208567905804,0.0,0.818807937762,-0.573925073563,-0.0120132383591,0.0,-0.00864019347486,0.00860336399883,-0.999925661829,0.0,0.655130973854,0.252459780906,0.303437514973,1.0,-0.01622,-0.0213177142857,0.812
0.460189714981,0.511199838219,-0.124137661058,-1.4133628909,0.0761449818123,1.91519920758,0.151639423692,-0.0100146708026,-0.0907582425315,0.000572042931623,-0.135881971437,-0.00812327224504,0.0458756924845,-0.0173155376523,0.573970632397,0.818861452312,0.00209331430808,0.0,0.818818632342,-0.573909920841,-0.0120082051857,0.0,-0.00863184867899,0.00860656758627,-0.999925706332,0.0,0.654870597859,0.252129212509,0.303429652853,1.0,-0.01654,-0.0217382857143,0.828
0.459980518819,0.509642582099,-0.124143354226,-1.4158408722,0.0759813998356,1.91614258889,0.151287086996,-0.00818767528799,-0.0919187436377,-0.00102126824027,-0.13693179142,-0.00859318946619,0.0476852901503,-0.0219677952147,0.573942674142,0.818881025364,0.00210237917674,0.0,0.818838447652,-0.573882051893,-0.0119889141462,0.0,-0.00861114242438,0.00860262397373,-0.999925918799,0.0,0.654571484482,0.251752909862,0.303422245707,1.0,-0.0169,-0.0222114285714,0.846
0.459778506342,0.50823869929,-0.124144015909,-1.41807642574,0.0758475928113,1.91693808933,0.150980320171,-0.0143084662985,-0.0859707294742,0.000656156062555,-0.134545527922,-0.00947740710407,0.0548974348988,-0.0122533635494,0.573937332424,0.818884842952,0.00207348361687,0.0,0.818841769789,-0.573876714198,-0.0120174810339,0.0,-0.00865117566609,0.00859530148772,-0.999925636211,0.0,0.654291159038,0.251405903238,0.30340943519,1.0,-0.01722,-0.022632,0.862
0.459562951926,0.50670455026,-0.124144151108,-1.42047988887,0.0756919130195,1.91781272604,0.150654005826,-0.0129802409296,-0.0889494243008,-0.0011131907569,-0.142147396325,-0.010375589555,0.0486459437863,-0.0149202906248,0.573929038979,0.818890655675,0.00207344290363,0.0,0.818847592037,-0.573868431962,-0.0120162687259,0.0,-0.0086502932928,0.00859448476129,-0.999925650865,0.0,0.653993438523,0.251034058135,0.303414123475,1.0,-0.01756,-0.0230788571429,0.879
0.459342807453,0.505104423599,-0.124147919997,-1.42293734145,0.0755333819827,1.91874992708,0.150317150076,-0.0121944086931,-0.0942013853975,0.00162810099618,-0.140203875494,-0.0150949364464,0.0564256564345,-0.0192424191381,0.573920296866,0.818896623843,0.00213522968851,0.0,0.818854459222,-0.573859525502,-0.0119735752504,0.0,-0.00857996364291,0.00862048618525,-0.999926032985,0.0,0.653698137142,0.25065536024,0.303444175164,1.0,-0.0179,-0.0235257142857,0.896
0.459110297821,0.503437714145,-0.124158924382,-1.42541288095,0.0753836509315,1.91969176259,0.149962538503,-0.0124723123109,-0.0973746643889,-0.000556602696081,-0.139180522348,-0.00808754692758,0.0463656968858,-0.0270464667281,0.573915201974,0.818899893234,0.00224782236534,0.0,0.818859241829,-0.573854019232,-0.0119102302325,0.0,-0.00846352731604,0.00867627935255,-0.999926542743,0.0,0.653404378045,0.250264879744,0.303512083422,1.0,-0.01824,-0.0239725714286,0.913
0.458889076845,0.501830838992,-0.124162521637,-1.42777399941,0.0752292690825,1.92055799048,0.149635478235,-0.0131167967278,-0.0970945422903,0.000960663488922,-0.147435641013,-0.011576255017,0.0501841993912,-0.0227938206116,0.573910121373,0.818903196825,0.00233959756935,0.0,0.818863808802,-0.573848647795,-0.011854912875,0.0,-0.0083656122138,0.00871963414363,-0.999926989591,0.0,0.653116149405,0.249893189139,0.303585204802,1.0,-0.01856,-0.0243931428571,0.929
0.458621565953,0.49994222166,-0.124163223951,-1.4306613238,0.0750421014708,1.92158137675,0.149216796872,-0.0136359069569,-0.096156137692,0.000448377460433,-0.151372752545,-0.00514546049242,0.0519383046506,-0.0242276887802,0.573883258893,0.818921969342,0.00235800594052,0.0,0.818882796231,-0.573821691537,-0.0118481753604,0.0,-0.00834981690164,0.00873056807633,-0.999927026207,0.0,0.652751482306,0.249439812385,0.303617439565,1.0,-0.01894,-0.0248925714286,0.948
0.45837389208,0.498268313478,-0.124163302922,-1.43328667848,0.0748712239955,1.92257465608,0.148845663442,-0.0130460102559,-0.0922128696931,-0.00320170125396,-0.154189215124,-0.0153650911715,0.0637337213928,-0.0257171730314,0.573869662314,0.818931413665,0.00238689969614,0.0,0.818892680663,-0.573808052706,-0.0118255277732,0.0,-0.00831483399632,0.00874109461371,-0.999927225752,0.0,0.652431073868,0.249028607125,0.303621328601,1.0,-0.01928,-0.0253394285714,0.965
0.45815548772,0.496882713631,-0.124168750478,-1.43547553786,0.0747370250196,1.92336155006,0.148521560625,-0.0182780426491,-0.0954180454933,-0.000858253560787,-0.156278955098,-0.0136790311444,0.0613260106241,-0.0163100146941,0.573861658194,0.818937063966,0.00237263941548,0.0,0.81889808462,-0.573800040538,-0.0118400754161,0.0,-0.00833501648053,0.00873768341175,-0.999927087536,0.0,0.652158226736,0.248673403307,0.303613729752,1.0,-0.01956,-0.0257074285714,0.979
0.457865362374,0.495012849994,-0.124164259729,-1.43852965345,0.0745506782302,1.92440722792,0.148072879554,-0.0125807607036,-0.0989670897879,0.000256711866546,-0.160046172791,-0.0130609200904,0.0570137096479,-0.0256420535765,0.573832172381,0.818958047963,0.00225843265289,0.0,0.818917332138,-0.573770749698,-0.0119279845357,0.0,-0.00847285946391,0.00869429831335,-0.999926307199,0.0,0.651757571803,0.24819043075,0.303553412125,1.0,-0.01994,-0.0262068571429,0.998
0.457583866001,0.493280177235,-0.124196399831,-1.44126545979,0.0743840119196,1.92538980328,0.14769079259,-0.0170014783665,-0.123890886663,-0.00445296267081,-0.186075989059,-0.00772904737717,0.0701523360763,-0.0242898710529,0.57386544259,0.818934798257,0.00223537588131,0.0,0.818893806654,-0.573804134003,-0.0119371741565,0.0,-0.00849326290948,0.00868103433215,-0.999926249344,0.0,0.651421456548,0.247726488899,0.303543855485,1.0,-0.0262274285714,-0.0344703346939,1.014
0.457304057427,0.490943021018,-0.124263297515,-1.444875713,0.074183017329,1.92675095753,0.147174647793,-0.0164549394413,-0.158079598497,0.00043815774298,-0.243388706348,-0.0146052429483,0.0954597982275,-0.0376621561798,0.573847241314,0.818947355261,0.00230647974279,0.0,0.818907370358,-0.573785733371,-0.0118910829596,0.0,-0.00841490778324,0.00871262615859,-0.999926637045,0.0,0.650971961833,0.247167682578,0.30357170884,1.0,-0.0339165714286,-0.0445760653061,1.03
0.456813457749,0.487660403213,-0.124277313596,-1.45015632946,0.0738936742053,1.92869384362,0.146390526281,-0.0349775740566,-0.19936691172,-0.00392063265221,-0.325114087184,-0.017073940467,0.113775989137,-0.0458969056608,0.573802594657,0.818978725558,0.00227515912139,0.0,0.818937910692,-0.573740782558,-0.0119565781854,0.0,-0.00848699499054,0.0087240976093,-0.999925927775,0.0,0.65029830946,0.246342727168,0.303509342981,1.0,-0.0425668571429,-0.0559450122449,1.048
0.456259493268,0.484036083329,-0.124369259299,-1.4558026489,0.0735476109634,1.93081700438,0.145526985147,-0.0325789255287,-0.236645772779,-0.00918790690465,-0.375405126252,-0.0250494289785,0.136906828159,-0.0642456653925,0.573801313661,0.818979435552,0.00234168431393,0.0,0.81893979641,-0.573739555774,-0.0118860799466,0.0,-0.00839109968227,0.00873811499876,-0.999926614703,0.0,0.649611164528,0.245395617169,0.303525270681,1.0,-0.050256,-0.0660507428571,1.064
0.455592832953,0.479806248622,-0.124465284699,-1.46249366028,0.073154606806,1.93313000631,0.144517458915,-0.0423466739366,-0.281257486803,-0.00785055265806,-0.439701531473,-0.0201631938718,0.152444496895,-0.0634478527529,0.573811146259,0.818972902132,0.00221379866644,0.0,0.818931396197,-0.573749694882,-0.0119750927377,0.0,-0.0085372745123,0.00868455812785,-0.999925843947,0.0,0.648745875678,0.244263628903,0.303477282522,1.0,-0.0579451428571,-0.0761564734694,1.08
0.454711116735,0.47426452031,-0.124586485778,-1.47104919615,0.0726324987991,1.93622186076,0.143276957024,-0.0506777707688,-0.315894912966,-0.00844899835738,-0.489110939686,-0.0260666336937,0.192369624374,-0.067089500293,0.573878334364,0.818925683276,0.00226484437701,0.0,0.818884982526,-0.57381680972,-0.0119331964216,0.0,-0.00847295838902,0.00870301749423,-0.99992623051,0.0,0.647666157065,0.242806945654,0.303513171141,1.0,-0.0665954285714,-0.0875254204082,1.098
0.453790225922,0.468743278329,-0.124645758633,-1.4794951864,0.0721321685787,1.93931929028,0.141988532323,-0.0570610145653,-0.365492664247,-0.00643301877428,-0.545379013843,-0.0421019870118,0.201890964457,-0.0867169743736,0.573889578607,0.818917361838,0.00241928664907,0.0,0.818878475361,-0.573827236026,-0.011878244202,0.0,-0.00833920838979,0.00879807171248,-0.999926523069,0.0,0.646595964343,0.241379383316,0.303578325713,1.0,-0.0742845714286,-0.0976311510204,1.114
0.45270885348,0.462237065449,-0.124688484902,-1.48945450784,0.0714989846528,1.94291654885,0.14037526646,-0.0673897841596,-0.385753459197,-0.00233964373773,-0.616474347012,-0.0325000573743,0.206649033293,-0.093115837038,0.573782472023,0.818992051687,0.002537907459,0.0,0.818954607551,-0.573719580947,-0.0118296284787,0.0,-0.00823248299541,0.00886623518121,-0.99992680537,0.0,0.645301673756,0.239706945602,0.303637285282,1.0,-0.0824542857143,-0.108368489796,1.131
0.451463660365,0.455118087715,-0.124784341492,-1.50056639158,0.0707694795604,1.94664638473,0.138728392261,-0.0752616627305,-0.436701831839,-0.0048946213661,-0.674203413977,-0.0476003665447,0.223845751487,-0.104076956533,0.573838256003,0.818953674741,0.00229814640191,0.0,0.818912840565,-0.573776017418,-0.0119828333824,0.0,-0.00849492769607,0.00875835843369,-0.99992556091,0.0,0.64379712073,0.237767299481,0.303572229728,1.0,-0.090624,-0.119105828571,1.148
0.450110653422,0.447223468687,-0.124896651686,-1.51225612961,0.0699531661377,1.95100838238,0.136858472575,-0.0782148105878,-0.467921582906,-0.00030365669973,-0.705761179057,-0.0519487990049,0.261087609655,-0.117109457757,0.573805417873,0.818975377208,0.00272412337456,0.0,0.818941073361,-0.573742643559,-0.0116466401007,0.0,-0.0079755192768,0.00891397333172,-0.999928463527,0.0,0.642304389706,0.235721961652,0.303805257519,1.0,-0.0987937142857,-0.129843167347,1.165
0.448689700631,0.439397597458,-0.124917474448,-1.52425629169,0.0691840339603,1.95516449865,0.134985266564,-0.0943770049033,-0.498741736452,-0.00391792927645,-0.778179750965,-0.0445765884153,0.250955390704,-0.123276704655,0.573775346385,0.818996453422,0.00272177581399,0.0,0.81896151644,-0.573711911684,-0.0117227933159,0.0,-0.00803956573108,0.00895545186368,-0.99992758001,0.0,0.640658129227,0.23364876037,0.303809316506,1.0,-0.106482857143,-0.139948897959,1.181
0.446945175378,0.429884612026,-0.124984395939,-1.53853810199,0.0682038145334,1.96023286456,0.132634892224,-0.0986888112172,-0.534017969765,-0.00411343672146,-0.8070852388,-0.0524321243183,0.279667731037,-0.129508377062,0.573681264568,0.819061569961,0.00294927068214,0.0,0.819029773636,-0.573617282236,-0.011584054518,0.0,-0.00779645135263,0.00906127000143,-0.999928551814,0.0,0.638719922537,0.231129104955,0.303941359402,1.0,-0.115133142857,-0.151317844898,1.199
0.445215486775,0.420993401434,-0.125037439135,-1.55214702382,0.067230100626,1.96487280768,0.130370577707,-0.111806259952,-0.566018704889,-0.00351333450876,-0.866686170881,-0.0582462313416,0.27872131954,-0.143535414866,0.573590683483,0.819125365974,0.00284772542889,0.0,0.819092259795,-0.573527057681,-0.0116331832783,0.0,-0.00789593994528,0.00900540878654,-0.9999282758,0.0,0.636811425377,0.228678565091,0.303913032346,1.0,-0.122822285714,-0.16142357551,1.215
0.443471541909,0.412127866161,-0.125149575539,-1.56540646378,0.066278738232,1.96955643918,0.128208740262,-0.119617703526,-0.601211739839,-0.00241416569582,-0.908425462276,-0.0629968245554,0.311742137773,-0.156569923579,0.57361780792,0.819105667958,0.00304336292158,0.0,0.819075637389,-0.573554178947,-0.011465206029,0.0,-0.00764582892682,0.00906956539174,-0.999929639667,0.0,0.63498431161,0.226237439007,0.30401877013,1.0,-0.130030857143,-0.170897697959,1.23
0.441008237383,0.400447046065,-0.125242293168,-1.5832336221,0.0650943492829,1.97549561722,0.125229576637,-0.139936234448,-0.635531071068,-0.00769010484875,-0.94613780658,-0.0661843379672,0.3155423932,-0.162953973906,0.573656372635,0.819079229,0.00288611455357,0.0,0.819046142725,-0.573592061259,-0.0116751980419,0.0,-0.00790761206085,0.00906158721473,-0.999927676039,0.0,0.632409015171,0.222916157963,0.303938623147,1.0,-0.139161714286,-0.182898253061,1.249
0.43859168693,0.389352671155,-0.125371912619,-1.59978547143,0.0638586602017,1.98122909186,0.122393468526,-0.144599236331,-0.64644481587,-0.0080682258745,-0.998326625394,-0.0739610544687,0.336075579691,-0.168910463673,0.573707967823,0.81904249078,0.00305169697599,0.0,0.819012208684,-0.573643875219,-0.0115088380271,0.0,-0.0076757878671,0.00910226440386,-0.999929113019,0.0,0.63006096581,0.219734585388,0.304019655207,1.0,-0.147331428571,-0.193635591837,1.266
0.436327374177,0.379114255646,-0.125494534365,-1.61509011058,0.0626866391562,1.98629080917,0.119645160409,-0.155143461241,-0.694974765569,-0.00801292625243,-1.02574109431,-0.0834887392274,0.349623273573,-0.181088285506,0.573648643896,0.819084276927,0.00298790025291,0.0,0.819053484692,-0.573585130652,-0.011499304751,0.0,-0.00770523290982,0.00904398481496,-0.999929415371,0.0,0.627804454309,0.216765901811,0.304033253224,1.0,-0.15454,-0.203109714286,1.281
0.433347691194,0.366401852995,-0.12564085398,-1.6340927075,0.0612839509061,1.99253772447,0.116292951679,-0.171708488136,-0.704254096178,-0.0103182875104,-1.06666670563,-0.0823347157439,0.346645194378,-0.176624050262,0.573749123934,0.819014154325,0.00291628222309,0.0,0.818982221989,-0.573685578261,-0.0115639207117,0.0,-0.00779813582709,0.00902334639994,-0.99992888162,0.0,0.624967511729,0.213002062153,0.304010347971,1.0,-0.163190285714,-0.214478661224,1.299
0.430668279848,0.355387363397,-0.125794167902,-1.65034626959,0.059995837765,1.99793441087,0.113266332002,-0.187953799282,-0.73203363083,-0.00916277560373,-1.10425914683,-0.0867842312729,0.351289809542,-0.212709831323,0.573780289291,0.818992118264,0.00297266605747,0.0,0.81896154633,-0.573717296254,-0.0114541046254,0.0,-0.00767549925399,0.00900681206575,-0.999929979572,0.0,0.622539419498,0.209693668281,0.304055848425,1.0,-0.170398857143,-0.223952783673,1.314
0.427406956912,0.342385167208,-0.125952984147,-1.66937705457,0.0586092176373,2.0041126344,0.10969855809,-0.19189067778,-0.770772890452,-0.00845332865705,-1.11962241499,-0.0887076501744,0.367573906479,-0.210940917774,0.573896785325,0.818910018531,0.00309971680126,0.0,0.818880519966,-0.573832713659,-0.0114654985001,0.0,-0.00761063921395,0.00911848599646,-0.999929463204,0.0,0.619623947471,0.205788408506,0.304125881976,1.0,-0.178568571429,-0.234690122449,1.331
0.423564340173,0.327456186324,-0.126060031169,-1.69127498488,0.0568600145516,2.0111538348,0.105445068773,-0.207086258739,-0.809548703855,-0.00208255795312,-1.14964238907,-0.105039170461,0.38687353346,-0.232630460878,0.573834613621,0.81895357082,0.00310353891255,0.0,0.818924098038,-0.57377051006,-0.0114660515992,0.0,-0.00760959130375,0.00912135570825,-0.999929445006,0.0,0.616180445,0.201288696932,0.304124058632,1.0,-0.187699428571,-0.246690677551,1.35
0.420131683014,0.314428836461,-0.126107291369,-1.71034978302,0.0552515271342,2.01711228381,0.101714293192,-0.217705535091,-0.798387527882,5.24396568755e-05,-1.20311496128,-0.0947462033383,0.367692384015,-0.237560643426,0.573729551292,0.819027710532,0.00295943502926,0.0,0.81899641483,-0.573665959587,-0.0115319646285,0.0,-0.00774742061361,0.00904016962202,-0.999929123892,0.0,0.613084565416,0.197351051558,0.304073973446,1.0,-0.195388571429,-0.256796408163,1.366
0.416698423944,0.301777515942,-0.126196222783,-1.72847290946,0.0537342448641,2.02282716908,0.0979302440801,-0.232161658063,-0.867384015932,-0.00322485726819,-1.21442187373,-0.108968558775,0.371641102869,-0.256410465522,0.573583178559,0.819129673091,0.00310851054369,0.0,0.819100522064,-0.573519401498,-0.0114270626817,0.0,-0.00757760090459,0.00910072876097,-0.999929875892,0.0,0.610139676474,0.193513605578,0.304165476457,1.0,-0.202597142857,-0.266270530612,1.381
0.412496166094,0.287073819514,-0.126349048828,-1.74950487049,0.0520265034336,2.02924823659,0.0936149172933,-0.251792491349,-0.876689701458,-0.00847448185601,-1.24550567032,-0.0939662428497,0.382290548966,-0.260300489701,0.573676025707,0.81906442159,0.00316823557331,0.0,0.819035520281,-0.573611427092,-0.0114670889154,0.0,-0.00757509426531,0.00917346808428,-0.999929230211,0.0,0.606650396332,0.18893008196,0.304215138808,1.0,-0.210766857143,-0.277007869388,1.398
0.407752882506,0.271130949885,-0.126522172157,-1.7722908273,0.0500756915907,2.03609238002,0.0886949337496,-0.275251768951,-0.904057673081,-0.0120774534747,-1.2648405576,-0.108842599528,0.394802124852,-0.277557742433,0.573658192599,0.819077115016,0.00311522445862,0.0,0.819047304948,-0.57359349081,-0.0115224328789,0.0,-0.00765103591469,0.00916163060658,-0.99992876055,0.0,0.602792457325,0.183870668688,0.304202240262,1.0,-0.219417142857,-0.288376816327,1.416
0.402596453361,0.254723090207,-0.126742884354,-1.79546586896,0.0480101429341,2.04294453975,0.0835934890422,-0.292824330347,-0.939225321045,-0.0188326672722,-1.28728601615,-0.115422610035,0.385492611787,-0.287772705803,0.573789980798,0.818984836484,0.00310522890511,0.0,0.818955095676,-0.573725530638,-0.0115027675461,0.0,-0.00763919017464,0.00914339184313,-0.99992901806,0.0,0.598819286461,0.178537410659,0.304230050548,1.0,-0.228067428571,-0.299745763265,1.434
0.397773852314,0.239833887755,-0.12687681913,-1.81652996054,0.0461266678564,2.04895014108,0.0787686272949,-0.299756412547,-0.916661602282,-0.00456869339164,-1.31008108317,-0.112110717825,0.370358464061,-0.307647069008,0.573769772727,0.818999650652,0.00292695017357,0.0,0.818966985362,-0.573705182058,-0.0116699557724,0.0,-0.00787863490669,0.00909311850195,-0.999927618534,0.0,0.595082585208,0.173685872952,0.304156548543,1.0,-0.235756571429,-0.309851493878,1.45
0.39211900515,0.222599456538,-0.127019512456,-1.84044860092,0.0439489861501,2.05587322511,0.0731178642426,-0.32469196883,-0.937627343143,-0.011340255654,-1.34425181512,-0.130468026191,0.36502567172,-0.322736249531,0.573681837215,0.819060701783,0.00307625510462,0.0,0.819029839742,-0.573616604955,-0.0116128822093,0.0,-0.00774721360084,0.00918182110504,-0.999927834817,0.0,0.590794143241,0.168141783763,0.304208432505,1.0,-0.244406857143,-0.321220440816,1.468
0.386710036406,0.206855041381,-0.127187429077,-1.86195619069,0.0418798466764,2.06189739455,0.0678439035171,-0.347967238819,-0.973403709502,-0.00653188177354,-1.35597790881,-0.132358041112,0.378927503529,-0.336347146825,0.573653110676,0.819080294696,0.00321346442763,0.0,0.819051601768,-0.573587920208,-0.0114942739465,0.0,-0.00757167469192,0.00922589681815,-0.999928773749,0.0,0.586871108507,0.162979215153,0.304317479195,1.0,-0.252096,-0.331326171429,1.484
0.380958877084,0.190879308676,-0.127366711369,-1.8837863265,0.0398052642731,2.06779340543,0.0622742962082,-0.365420452527,-0.996686045146,-0.00852972700321,-1.36284778029,-0.124850053949,0.355769926175,-0.358449127457,0.573633206087,0.819094233432,0.00321380367976,0.0,0.81906510157,-0.573567477744,-0.0115522623898,0.0,-0.00761920492936,0.00925925401897,-0.999928104381,0.0,0.582791397593,0.157636709859,0.304335404513,1.0,-0.259785142857,-0.341431902041,1.5
0.373951976174,0.17247668326,-0.127667347645,-1.90862494675,0.0374108603493,2.07442889873,0.0557247539702,-0.387142643486,-1.02812175691,-0.00976411070649,-1.39427240457,-0.134214893547,0.355202230355,-0.359961720708,0.573826535406,0.81895830452,0.00333910498934,0.0,0.818930543336,-0.573760084063,-0.0115272732447,0.0,-0.00752465586579,0.00934933033545,-0.999927982195,0.0,0.578109242681,0.151310084701,0.304396696825,1.0,-0.268435428571,-0.35280084898,1.518
0.367068575688,0.154792882031,-0.12787385161,-1.9323237999,0.0349404479331,2.08055008953,0.0492105989552,-0.409027855217,-1.04629406058,-0.0102045009401,-1.39021700891,-0.140311429193,0.366581245157,-0.387208552973,0.573761999699,0.819003563708,0.00332824826286,0.0,0.818976013241,-0.573696026281,-0.011485036629,0.0,-0.00749702746661,0.00931561243067,-0.999928504416,0.0,0.573505033492,0.145259931917,0.304419383512,1.0,-0.276605142857,-0.363538187755,1.535
0.360238618537,0.137888337722,-0.128082144612,-1.9548022224,0.0325878841001,2.08614742378,0.0428614176781,-0.438938061682,-1.09113913294,-0.0205993128222,-1.3983297529,-0.146489333769,0.372278392496,-0.412400625133,0.573763133056,0.819002946991,0.00328433668781,0.0,0.818974699751,-0.57369713368,-0.0115233187902,0.0,-0.00755356293391,0.0093016232301,-0.999928209169,0.0,0.56903488551,0.139417031516,0.304416260914,1.0,-0.284294285714,-0.373643918367,1.551
0.352523085702,0.119609295077,-0.12833820331,-1.97886218361,0.0300601902691,2.09199011392,0.0357281450236,-0.47039242126,-1.1044697652,-0.0140007954217,-1.41356025187,-0.148093670735,0.351874282091,-0.41587675097,0.573788024642,0.818985463564,0.00329547424411,0.0,0.818956965022,-0.573721500402,-0.011570493547,0.0,-0.00758552763833,0.00933804200799,-0.999927627752,0.0,0.564165882537,0.133005823575,0.304415021193,1.0,-0.292464,-0.384381257143,1.568
0.344327224408,0.101004170768,-0.128669992704,-2.00304792288,0.0273726374286,2.09765783574,0.0282410078773,-0.484686300238,-1.0958976846,-0.011364210276,-1.38901509906,-0.154543538045,0.322332611972,-0.443734010953,0.573856154185,0.818937793162,0.00327904488606,0.0,0.818909318418,-0.573789963074,-0.0115478736241,0.0,-0.00757565295217,0.00931223804911,-0.999927943256,0.0,0.559179706935,0.126354433991,0.304428846205,1.0,-0.300633714286,-0.395118595918,1.585
0.336308180021,0.0831866213691,-0.12888656473,-2.0260922302,0.0248773545837,2.10277612163,0.0208090957745,-0.505086188474,-1.1063985548,-0.0147697001266,-1.42693671555,-0.151113728246,0.29005392221,-0.473868399642,0.573740272277,0.81901929469,0.00320028043074,0.0,0.81898862099,-0.573672921691,-0.0117373126766,0.0,-0.00777732106254,0.00935534234695,-0.999925992685,0.0,0.554264877349,0.120061889872,0.304372686917,1.0,-0.308322857143,-0.405224326531,1.601
0.327282170499,0.0639982716004,-0.129192655158,-2.05047147011,0.0220104226689,2.10811964067,0.0125818694758,-0.543986994685,-1.1021940979,-0.0205069451822,-1.43739283904,-0.17129535457,0.305464313549,-0.488435448895,0.573672112119,0.819066930223,0.00322776888547,0.0,0.819037087867,-0.573605251705,-0.0116623675346,0.0,-0.00770094265875,0.00933421715677,-0.999926781256,0.0,0.549010966122,0.113154046293,0.304392832882,1.0,-0.30998,-0.407402285714,1.618
0.317782271116,0.0449359311361,-0.129512966582,-2.07437627745,0.0192014835223,2.11299149047,0.00420754858546,-0.561483881779,-1.11212057163,-0.0152941672098,-1.41623550214,-0.169277943074,0.288058922776,-0.495573042664,0.573842457264,0.818947640076,0.00321620220001,0.0,0.818917260546,-0.573775144067,-0.0117196984591,0.0,-0.00775259177627,0.00935924425164,-0.999926148207,0.0,0.543731692998,0.106134010974,0.304409284393,1.0,-0.30998,-0.407402285714,1.635
0.308659273843,0.0270936823938,-0.12968655543,-2.09626961752,0.0166082385769,2.11726120898,-0.00387234762977,-0.578153867518,-1.11358569009,-0.0126533528161,-1.36332367561,-0.163090361338,0.262660068048,-0.505987170859,0.573848885697,0.818942436621,0.00338951131637,0.0,0.8189139753,-0.573780589288,-0.0116826074446,0.0,-0.00762269396674,0.00947995196898,-0.999926009786,0.0,0.538781180471,0.0996568721762,0.304519484006,1.0,-0.30998,-0.407402285714,1.651
0.298046800867,0.00730171881099,-0.129967773112,-2.12037475626,0.0135615540743,2.12174187717,-0.0132230441955,-0.597434383071,-1.08742243476,-0.0200392253641,-1.32598906188,-0.164531509695,0.228676811479,-0.519809882421,0.573881671841,0.818919216374,0.00344828652606,0.0,0.818891911693,-0.573813676124,-0.01160383377,0.0,-0.00752407335172,0.00948318404975,-0.999926726086,0.0,0.533224598654,0.0922842632221,0.304588128342,1.0,-0.30998,-0.407402285714,1.669
0.288361256188,-0.010201273859,-0.130144918509,-2.14130788847,0.0109627622863,2.12550064705,-0.021830219203,-0.603349159021,-1.09599858382,-0.00741086601071,-1.3004486068,-0.168429043095,0.229063548204,-0.537424774427,0.573810841863,0.818967731276,0.00370402356831,0.0,0.818943829427,-0.573742204037,-0.0114732058594,0.0,-0.00727117071986,0.00961702231587,-0.999927318838,0.0,0.528299981729,0.0858026965704,0.304706158297,1.0,-0.30998,-0.407402285714,1.685
0.278452192669,-0.0274121569273,-0.130346870451,-2.16180860959,0.00827971905929,2.12884474075,-0.0305482068799,-0.630453863091,-1.10027342487,-0.0204892428914,-1.25279672186,-0.170488986087,0.213072873214,-0.561512236919,0.573769015133,0.818997019633,0.00370756073918,0.0,0.818973162986,-0.573700372243,-0.0114711856022,0.0,-0.00726797777475,0.00961838879468,-0.999927328907,0.0,0.52334344722,0.0793134361378,0.304736923528,1.0,-0.30998,-0.407402285714,1.701
0.26684747269,-0.0465201941745,-0.130660455811,-2.18450476191,0.00535567097852,2.13230777397,-0.0406366581046,-0.644353890405,-1.06224741179,-0.0115035278048,-1.24504235153,-0.154315748599,0.175722526869,-0.564841525992,0.573925688873,0.818887525903,0.00364286621153,0.0,0.818861745281,-0.573855796177,-0.0116496442555,0.0,-0.00744941189614,0.00966922005072,-0.999925503448,0.0,0.517736638952,0.0719045967996,0.304670743586,1.0,-0.30998,-0.407402285714,1.719
0.255733196404,-0.0644799872902,-0.130845432169,-2.20533616815,0.00252017576627,2.13535829764,-0.050423166712,-0.66451129916,-1.03646559594,-0.0111803604903,-1.23444561471,-0.172500251328,0.168389652646,-0.577570061993,0.573816081333,0.81896386782,0.00374631944787,0.0,0.818939777114,-0.573746343211,-0.0115551725716,0.0,-0.00731397255547,0.0096987405886,-0.999926217396,0.0,0.512483510181,0.0650492930016,0.304714863259,1.0,-0.30998,-0.407402285714,1.736
0.24417822053,-0.0822065001039,-0.131171160844,-2.22564881096,-0.000312601819953,2.13799442774,-0.0605271918679,-0.686005576213,-1.03789779799,-0.0231207055834,-1.19229285394,-0.16923621815,0.149955229285,-0.605813290339,0.573878648767,0.818919933574,0.00376640216041,0.0,0.818896082567,-0.573808814498,-0.0115497732176,0.0,-0.00729728525292,0.00971264722077,-0.999926204333,0.0,0.507238365141,0.0580563422081,0.304738592502,1.0,-0.30998,-0.407402285714,1.753
0.233857048555,-0.0977115351386,-0.131315262858,-2.24325676948,-0.00273647449336,2.14007156418,-0.0696181332478,-0.689511013782,-1.04909203257,-0.0142163059599,-1.16896241914,-0.165056542903,0.14256534783,-0.600849983824,0.573774158171,0.818993094748,0.00377797189989,0.0,0.81896880619,-0.57370352264,-0.0116236612252,0.0,-0.00735240404828,0.0097635855503,-0.999925304486,0.0,0.502567099856,0.0520360229779,0.304731321393,1.0,-0.30998,-0.407402285714,1.768
0.221816462132,-0.1150416471,-0.131576009086,-2.26286533765,-0.00558423796821,2.14206857382,-0.0801599746475,-0.71686146917,-1.02496427448,-0.0196101603693,-1.14019331189,-0.164803679987,0.119717287359,-0.62506109963,0.573737485318,0.81901975321,0.0035621193076,0.0,0.81899178726,-0.573666428543,-0.0118333454812,0.0,-0.00764842269027,0.00970676722279,-0.999923637235,0.0,0.497231667576,0.0451268948755,0.304636962753,1.0,-0.30998,-0.407402285714,1.785
0.209365073616,-0.13229594133,-0.131864652734,-2.28189169641,-0.00833567402705,2.14386624707,-0.0910265973147,-0.734326191697,-1.01448725869,-0.0109056066769,-1.11705265715,-0.152653260241,0.0929455643242,-0.644395916085,0.573789521203,0.818983105988,0.00360615649428,0.0,0.818955332128,-0.573717818968,-0.0118648674224,0.0,-0.00764835698952,0.00976140562419,-0.999923105841,0.0,0.491649725466,0.037771858387,0.304652264829,1.0,-0.30998,-0.407402285714,1.803
0.195887970317,-0.150363705769,-0.132192245181,-2.30153786025,-0.0112495369373,2.14557127235,-0.102945171642,-0.768159164434,-0.993206313889,-0.0239457863186,-1.0969083886,-0.158351287859,0.0932933991653,-0.662864257241,0.573749887195,0.819010278759,0.0037386002808,0.0,0.8189842653,-0.573677783759,-0.0118034110761,0.0,-0.00752250790384,0.00983424991741,-0.999923346764,0.0,0.486404592221,0.0308527043985,0.304685371498,1.0,-0.30998,-0.407402285714,1.82
0.182757721306,-0.167232809817,-0.132510604664,-2.3195679201,-0.0139513196015,2.14672966794,-0.114386919793,-0.769386713514,-0.995061575967,-0.00941352474997,-1.03825097796,-0.144796428194,0.0708078431204,-0.685741059587,0.57387594294,0.818921671731,0.00380060323052,0.0,0.818895909114,-0.57380288002,-0.0118529244335,0.0,-0.00752596451062,0.00991459751023,-0.999922527306,0.0,0.481138938945,0.0239046936822,0.304721853881,1.0,-0.30998,-0.407402285714,1.837
0.170991690225,-0.181892844687,-0.132769293507,-2.33519077933,-0.0163526889143,2.14754822359,-0.124865366569,-0.796909753461,-0.968737560224,-0.0235882457509,-1.04963664459,-0.154176839885,0.0511384824027,-0.698146922544,0.573770016759,0.818996149631,0.00374455049501,0.0,0.81896887347,-0.573696144187,-0.0119777014872,0.0,-0.00766160472841,0.00993930764608,-0.999921251888,0.0,0.476459108094,0.0178307875596,0.304684210204,1.0,-0.30998,-0.407402285714,1.852
0.157222609252,-0.198436174583,-0.133103374026,-2.35234382828,-0.0190764464061,2.14836501689,-0.136968054304,-0.793272536009,-0.949905799015,-0.00730037272189,-1.01034130364,-0.152448186325,0.0350906754715,-0.725409106824,0.573827896609,0.818954816745,0.00391153478133,0.0,0.818930383036,-0.573754310141,-0.0118222771233,0.0,-0.00743779405558,0.00998741938031,-0.999922462331,0.0,0.471233129964,0.0108771519141,0.304764741674,1.0,-0.30998,-0.407402285714,1.869
0.142333183761,-0.215639250278,-0.133458801414,-2.37006209046,-0.02183988741,2.14879532986,-0.150189794609,-0.835120319522,-0.949022421191,-0.0334332083425,-0.946754151368,-0.151287625789,0.0260278913113,-0.74114435436,0.573837314118,0.818947962704,0.00396461976985,0.0,0.81892324026,-0.573762224863,-0.0119324257265,0.0,-0.00749743102774,0.0100941847425,-0.999920944856,0.0,0.465643013978,0.00355969411784,0.304772635829,1.0,-0.30998,-0.407402285714,1.887
0.127980513551,-0.231670259172,-0.133731454298,-2.38638317992,-0.0245904461226,2.14902833784,-0.162962073188,-0.853741329432,-0.948543712635,-0.0104285554498,-0.948855750273,-0.157920338145,0.0088812770053,-0.765778299805,0.573712633472,0.819035566989,0.00391166249578,0.0,0.819010399593,-0.573638079232,-0.0119191574481,0.0,-0.00751848007186,0.0100420568127,-0.99992131168,0.0,0.460360553507,-0.00330797701379,0.304766268568,1.0,-0.30998,-0.407402285714,1.904
0.114038635627,-0.246651023435,-0.134105693543,-2.40121985742,-0.0270151870721,2.14914026741,-0.175352243756,-0.890026374243,-0.948236957197,-0.0294344553093,-0.913050589958,-0.155616798781,-0.00112547878175,-0.779882923762,0.5737999224,0.818973171352,0.00416419974477,0.0,0.818951892459,-0.573725327124,-0.0117385585143,0.0,-0.00722459672865,0.0101460585692,-0.99992242834,0.0,0.455450975617,-0.00985555956291,0.304862496209,1.0,-0.30998,-0.407402285714,1.92
0.0980570370969,-0.263078097671,-0.134426385224,-2.4176357663,-0.0297495301108,2.14899338046,-0.189664622782,-0.893191904409,-0.905586510826,-0.0226670368471,-0.887544774839,-0.14977749934,-0.00555701536384,-0.790808815489,0.57372976293,0.819022398741,0.0041492638599,0.0,0.819000323412,-0.573654385143,-0.0118263924377,0.0,-0.00730597755711,0.0101835978386,-0.999921455429,0.0,0.44984267358,-0.0171391855508,0.304796632661,1.0,-0.30998,-0.407402285714,1.938
0.0825091240139,-0.278369816534,-0.134878110754,-2.43239387986,-0.0323398860229,2.14868155437,-0.203583323293,-0.9167087125,-0.879904282558,-0.0238235201932,-0.871225754938,-0.161180111904,-0.0277425790755,-0.823913372249,0.573811579204,0.818964128626,0.00433295457578,0.0,0.818945442801,-0.573737029726,-0.011615908827,0.0,-0.00702717145725,0.0102139930426,-0.99992314365,0.0,0.444648429326,-0.0241295637562,0.304876005239,1.0,-0.30998,-0.407402285714,1.955
0.0676576091148,-0.292513925829,-0.135153108192,-2.44602639965,-0.0346019986826,2.14809190466,-0.217014245759,-0.937606660071,-0.863780808919,-0.0215511972466,-0.813224011437,-0.146139354742,-0.0352173411212,-0.852850770345,0.573741060701,0.819013079802,0.00441783654176,0.0,0.818994748318,-0.573665169856,-0.0116885424046,0.0,-0.00703884568265,0.0103245804241,-0.999921925797,0.0,0.439684521344,-0.0305694664117,0.304867171676,1.0,-0.30998,-0.407402285714,1.971
0.0533385248268,-0.30555234237,-0.135539860208,-2.45828655459,-0.0368573941667,2.14750244397,-0.22991957299,-0.947927836893,-0.844165955563,-0.0141331151134,-0.790805567029,-0.156060798627,-0.0379909798172,-0.86867699905,0.573778305088,0.818986270928,0.00454879575174,0.0,0.818970775218,-0.573703718551,-0.0114743000124,0.0,-0.00678776382649,0.010309233681,-0.99992382008,0.0,0.435099438695,-0.0367325357621,0.304934180309,1.0,-0.30998,-0.407402285714,1.986
0.0358711644593,-0.32085459911,-0.135964223445,-2.47274158282,-0.0394208274583,2.14642954476,-0.245732489577,-0.978502321032,-0.861008280473,-0.0308529654695,-0.774627683377,-0.142237804132,-0.0470336935415,-0.887887198366,0.573806292622,0.818966764738,0.00453030940836,0.0,0.818950008531,-0.573730215028,-0.0116305972849,0.0,-0.00692603058695,0.010384006762,-0.999922098218,0.0,0.429484055499,-0.0440447555459,0.304881067128,1.0,-0.30998,-0.407402285714,2.004
0.0200343435953,-0.33420828631,-0.136303013811,-2.48500684354,-0.0416219635415,2.14546759904,-0.260235916749,-0.991513274018,-0.815028191591,-0.0254711695727,-0.772186684774,-0.135691490609,-0.0702462936125,-0.913457809473,0.573722596059,0.819024434141,0.0047016967521,0.0,0.819010416719,-0.573646819796,-0.0114895754753,0.0,-0.00671325891373,0.0104427687412,-0.999922937399,0.0,0.424578610236,-0.0505182522791,0.304929618164,1.0,-0.30998,-0.407402285714,2.02
0.00272153309572,-0.348007114323,-0.136731008432,-2.49771514306,-0.0440524546685,2.14411036449,-0.275949624177,-1.02219714881,-0.800091955596,-0.0228381239254,-0.732451883809,-0.152182431044,-0.0839738859594,-0.936137255705,0.573785978001,0.818980615478,0.00459889353567,0.0,0.81896456007,-0.573709409804,-0.0116322548337,0.0,-0.00688829534802,0.0104409565581,-0.999921765846,0.0,0.419266027925,-0.0574830325876,0.304871416313,1.0,-0.30998,-0.407402285714,2.037
-0.0158876049478,-0.362383008787,-0.137193863312,-2.51045019192,-0.0464120356016,2.14266709196,-0.293052171763,-1.04254616347,-0.781649852175,-0.0398201585836,-0.704668570367,-0.125139544509,-0.0784296517089,-0.955570384886,0.573808490942,0.818963378891,0.00485249006739,0.0,0.818951354389,-0.573732348134,-0.0114288559899,0.0,-0.00657591060432,0.0105321306977,-0.99992291284,0.0,0.41375256559,-0.064804777519,0.304971653713,1.0,-0.30998,-0.407402285714,2.055
-0.0348729976691,-0.376238510377,-0.137585822462,-2.52289919674,-0.0488152596298,2.14089918008,-0.310618369534,-1.05878615907,-0.758764883589,-0.0209996058373,-0.6723014747,-0.136044915639,-0.109932382298,-0.97320392072,0.573701731544,0.819038774308,0.00474934785036,0.0,0.819024153436,-0.573623921275,-0.0116524645799,0.0,-0.00681961206841,0.0105750733117,-0.999920827224,0.0,0.408427143357,-0.0716757847553,0.304893684822,1.0,-0.30998,-0.407402285714,2.072
-0.0511114596628,-0.387545883966,-0.138002696354,-2.53256454388,-0.0507565168912,2.13952660311,-0.325532923306,-1.07796110791,-0.739387232587,-0.025182656628,-0.648105725549,-0.12630929587,-0.0962716397862,-1.00388376522,0.573794029517,0.818972919642,0.00495131145483,0.0,0.818962469044,-0.573718105869,-0.0113470788275,0.0,-0.00645241747632,0.0105660277665,-0.999923359746,0.0,0.403546144933,-0.0782396732959,0.305015615449,1.0,-0.30998,-0.407402285714,2.088
-0.0709259760335,-0.400548402029,-0.138449514437,-2.54393564701,-0.0529463479575,2.13759654581,-0.343953181975,-1.10870802236,-0.7091353632,-0.0308798094779,-0.630929516641,-0.117572277531,-0.121120946167,-1.03333808377,0.573791505409,0.818974621539,0.00496230763462,0.0,0.818962989405,-0.573713397443,-0.0115458425718,0.0,-0.00660893692091,0.0106890584828,-0.999921029873,0.0,0.397933078612,-0.0855603166789,0.304958103995,1.0,-0.30998,-0.407402285714,2.106
-0.0898548287346,-0.412505483857,-0.138741732984,-2.55404417651,-0.0550049284692,2.13573544859,-0.361699490861,-1.12521674794,-0.704802919102,-0.0244672993007,-0.579237149336,-0.125127124392,-0.0959253463101,-1.04981217642,0.573598145768,0.819109757885,0.00501184695481,0.0,0.819099313193,-0.573520818454,-0.0114425883657,0.0,-0.00649846233384,0.0106688532763,-0.999921969734,0.0,0.392707633921,-0.0923898894389,0.305010995313,1.0,-0.30998,-0.407402285714,2.123
-0.108154517473,-0.423268545281,-0.139128714573,-2.56311313093,-0.0568945979955,2.1339856425,-0.378785343536,-1.14620359894,-0.661939622164,-0.0209542837529,-0.559435609879,-0.117209612822,-0.123314933333,-1.06968137325,0.573613687383,0.81909856669,0.00506187662434,0.0,0.819088968709,-0.573536550285,-0.0113944603964,0.0,-0.00643013872189,0.010682351416,-0.999922267321,0.0,0.387770740745,-0.0989268232475,0.305024609239,1.0,-0.30998,-0.407402285714,2.139
-0.127829653481,-0.434299303464,-0.139536018911,-2.57247425659,-0.0588636849318,2.13189628467,-0.397264282475,-1.15623526476,-0.632050919036,-0.0124898142566,-0.540192078005,-0.119873734053,-0.124608655028,-1.10982602805,0.573569742996,0.819129924887,0.00496618309273,0.0,0.81911750606,-0.573490312875,-0.0116670135636,0.0,-0.00670887121492,0.010759940643,-0.99991960413,0.0,0.382425561791,-0.105804405968,0.304944934901,1.0,-0.30998,-0.407402285714,2.156
-0.147890250182,-0.444873101099,-0.140013338907,-2.58098689632,-0.0605851610073,2.1299887611,-0.416181400463,-1.20081244777,-0.613763936841,-0.0401327691947,-0.483372770236,-0.102522304466,-0.107800157211,-1.13425477133,0.57367254479,0.819056170395,0.00524861821045,0.0,0.819048096591,-0.573593377895,-0.01147166973,0.0,-0.00638549216902,0.0108800621969,-0.999920421702,0.0,0.37722956444,-0.112751965854,0.305047897817,1.0,-0.30998,-0.407402285714,2.173
-0.167031823837,-0.454303403046,-0.140312868658,-2.58871556391,-0.0623682050205,2.12811714939,-0.434307310371,-1.20431461316,-0.575700583385,-0.0132427424502,-0.482502736253,-0.108256115197,-0.121542270935,-1.13109214888,0.573544265305,0.819146550615,0.00516248507933,0.0,0.819137502127,-0.573465604548,-0.0114760581919,0.0,-0.00644018984921,0.0108110206426,-0.999920819759,0.0,0.372274065316,-0.119234372824,0.305036566302,1.0,-0.30998,-0.407402285714,2.189
-0.188893239335,-0.464369043336,-0.140786103447,-2.59690870866,-0.0641661652839,2.12596092547,-0.455130351508,-1.21510316897,-0.546442005642,-0.0280230136238,-0.448722150463,-0.0870406930682,-0.112274356463,-1.17258225292,0.573522933697,0.819161259613,0.00519828569283,0.0,0.819151587616,-0.573442348997,-0.0116316716148,0.0,-0.00654742367111,0.0109294248318,-0.999918836164,0.0,0.366663459231,-0.126545255603,0.30500224095,1.0,-0.30998,-0.407402285714,2.207
-0.207416979822,-0.472210622024,-0.141079675012,-2.60315330516,-0.0655397271158,2.12430429203,-0.4726735704,-1.24119837926,-0.510161801293,0.000356244698012,-0.401594126883,-0.0933053481321,-0.111560044892,-1.17032849034,0.573604230419,0.819103794911,0.00528269893637,0.0,0.819095352164,-0.573523595503,-0.0115860418357,0.0,-0.00646054273311,0.0109730480216,-0.999918923516,0.0,0.362061001024,-0.132642741312,0.305020344373,1.0,-0.303202285714,-0.398494432653,2.222
-0.227090887752,-0.479882003009,-0.141346476866,-2.60914783637,-0.0667869049617,2.12262389695,-0.491296582117,-1.25152506343,-0.462296715592,-0.0248251258085,-0.366302836251,-0.0751434902699,-0.107487484938,-1.15294490105,0.573786629998,0.818974857799,0.00546190704872,0.0,0.818968957705,-0.573705801505,-0.0114998494416,0.0,-0.0062846807996,0.0110718053459,-0.999918955673,0.0,0.357281699672,-0.139032759583,0.305067191494,1.0,-0.295513142857,-0.388388702041,2.238
-0.250132030942,-0.488204790777,-0.141371424642,-2.61580884291,-0.0681508469635,2.120589672,-0.513304017165,-1.22122548387,-0.411099877624,-0.0130814234502,-0.337270161604,-0.0662885037063,-0.104450772499,-1.16055134699,0.573688167397,0.819043880423,0.00545485403859,0.0,0.819036609957,-0.573605145244,-0.0117011025291,0.0,-0.00645490835453,0.0111807244896,-0.999916659306,0.0,0.351670527502,-0.146289793502,0.305014779081,1.0,-0.286382285714,-0.376388146939,2.257
-0.269355243385,-0.494450135225,-0.141372559546,-2.62073853835,-0.0691512043122,2.11910265692,-0.531570057307,-1.18793807388,-0.380952066028,0.00458320999568,-0.295208561654,-0.0555893166806,-0.0884669548595,-1.14076483413,0.573761173056,0.81899237159,0.00550985220139,0.0,0.818985464134,-0.57367734132,-0.0117415712195,0.0,-0.00645550418577,0.0112495631279,-0.99991588336,0.0,0.347106846234,-0.152292178192,0.304996649307,1.0,-0.278693142857,-0.366282416327,2.273
-0.290637609187,-0.500749527009,-0.141266373827,-2.62562895993,-0.0701435117836,2.11751684143,-0.551813684821,-1.17085345293,-0.33556375842,0.00655557436099,-0.262529996763,-0.0448441400575,-0.084674863826,-1.11636283643,0.57382691349,0.818946058022,0.00554745950237,0.0,0.818939442855,-0.573742596849,-0.0117630097181,0.0,-0.00645058081195,0.0112931823828,-0.999915423443,0.0,0.342127957404,-0.15884616344,0.304999016597,1.0,-0.270042857143,-0.354913469388,2.291
-0.310314180047,-0.505988727857,-0.141137423423,-2.62963463556,-0.0709199138258,2.11620164019,-0.570635016106,-1.14890768989,-0.296297301439,0.0223176411864,-0.223818470966,-0.0465042704586,-0.073831641437,-1.10560382079,0.57386848624,0.818916334807,0.00563418038126,0.0,0.818911045756,-0.573784215832,-0.0117098122159,0.0,-0.00635667511489,0.0113340029732,-0.999915562964,0.0,0.337598695121,-0.164850320788,0.30502132985,1.0,-0.261873142857,-0.344176130612,2.308
-0.32734884284,-0.510188691796,-0.140943842788,-2.63276198822,-0.0714098232921,2.11517739602,-0.586942839766,-1.13827672276,-0.268708113441,0.00665578953658,-0.202362099686,-0.0350742042756,-0.0640837209264,-1.08500931988,0.573931781266,0.818870800608,0.00580252242823,0.0,0.818868376572,-0.573848179845,-0.0115583406805,0.0,-0.00613513887326,0.0113854203807,-0.999916362639,0.0,0.333730748924,-0.169977200039,0.305076413731,1.0,-0.254664571429,-0.334702008163,2.323
-0.348357338368,-0.514727762718,-0.140644521,-2.63631472781,-0.0720190984581,2.1138381465,-0.607204099633,-1.08331327908,-0.226949415416,0.0180983460505,-0.18107019189,-0.0315716668326,-0.0625762026921,-1.05579617483,0.573860941141,0.818920234705,0.00583235164514,0.0,0.818916951223,-0.573774951848,-0.0117506822082,0.0,-0.00627653499024,0.0115196909685,-0.999913947212,0.0,0.328922467252,-0.176212911422,0.305033817159,1.0,-0.245533714286,-0.322701453061,2.342
-0.363559323082,-0.5175815857,-0.140440252409,-2.63860579482,-0.0724049965495,2.11302836643,-0.62179968247,-1.06958154435,-0.190969868078,0.0257612003983,-0.156284093942,-0.0330641259353,-0.052164248697,-1.03762217624,0.573912696101,0.818883737264,0.00586421346455,0.0,0.818879981598,-0.573824955969,-0.0118845507497,0.0,-0.006367155888,0.0116230053555,-0.99991217868,0.0,0.325473322922,-0.180706888337,0.304981005641,1.0,-0.238805714286,-0.313858938776,2.356
-0.381528360295,-0.520564056998,-0.140139837419,-2.64092631625,-0.0727259122535,2.11220146657,-0.639096840452,-1.05582558415,-0.165869058583,0.00949523474157,-0.123848415129,-0.00716774865627,-0.0483767520985,-1.00998605406,0.573975414377,0.818839058914,0.00596373947344,0.0,0.818836234884,-0.573886605933,-0.0119218652994,0.0,-0.00633970081603,0.0117264093213,-0.999911145811,0.0,0.32146116012,-0.185988300157,0.304960803133,1.0,-0.230636,-0.3031216,2.373
-0.398899101008,-0.523090720196,-0.139744260658,-2.64285085597,-0.0730258672897,2.11144475423,-0.655954381465,-1.00096704726,-0.14075020339,0.0261737404253,-0.10843706843,-0.0157634195447,-0.0384522989441,-0.979694611138,0.573873032121,0.818910705124,0.00597887444091,0.0,0.818907955332,-0.573783957266,-0.011936414038,0.0,-0.00634439714913,0.0117463601141,-0.999910881853,0.0,0.317608387915,-0.191047884499,0.304959280609,1.0,-0.222466285714,-0.292384261225,2.39
-0.414951343351,-0.525088652847,-0.139430186411,-2.64432722767,-0.0732648068491,2.11083276066,-0.671380666215,-0.992577650651,-0.114278221906,0.0269056844864,-0.0812714149554,-0.0199093451015,-0.0348361387271,-0.952469600218,0.573973397655,0.818840093398,0.00601557391234,0.0,0.818837983463,-0.573884457995,-0.0119051505911,0.0,-0.0062962914708,0.011759246548,-0.99991103446,0.0,0.314063703014,-0.195730203684,0.30497625908,1.0,-0.214777142857,-0.282278530612,2.406
-0.432320650896,-0.526844931918,-0.139012017944,-2.64567619743,-0.0733938861323,2.11029743529,-0.688208497183,-0.964289846227,-0.084492631652,0.013609040909,-0.0669244921956,-0.0105850455559,-0.0210658673105,-0.931939886648,0.573986155722,0.818830664083,0.00608140595382,0.0,0.818829353207,-0.57389684378,-0.0119016774591,0.0,-0.00625547921228,0.0118112591985,-0.999910677579,0.0,0.310254112246,-0.200749330603,0.304970995647,1.0,-0.206126857143,-0.270909583674,2.424
-0.449050536937,-0.52822677229,-0.138562838842,-2.64671919522,-0.0734862309753,2.1098558311,-0.704436648093,-0.906984734647,-0.0622714480254,0.0290723677142,-0.0524799838957,-0.000650327626402,-0.0187569775508,-0.892621425748,0.573978505216,0.818835769374,0.00611598277522,0.0,0.818835037745,-0.573889302705,-0.0118741779829,0.0,-0.0062132241979,0.0118237315594,-0.99991079363,0.0,0.306594698314,-0.205557980266,0.304975977675,1.0,-0.197476571429,-0.259540636735,2.442
-0.463511832787,-0.529124016637,-0.138212545491,-2.64738608635,-0.0735084028719,2.10953912522,-0.718344924425,-0.893923351188,-0.0504979339888,0.0178302069805,-0.0358641751327,-9.23863196678e-06,-0.0192163950156,-0.861811980522,0.574135040077,0.818725545912,0.00617924978573,0.0,0.818725704855,-0.57404568378,-0.0118541150792,0.0,-0.00615821373569,0.0118652019143,-0.999910642701,0.0,0.303436279351,-0.209718332057,0.304982613042,1.0,-0.189787428572,-0.249434906123,2.458
-0.478938021239,-0.529764929103,-0.137656221654,-2.64786429182,-0.0735029524749,2.10927959094,-0.733434720372,-0.836028881276,-0.0299756827261,0.0289928934485,-0.0232170923721,0.0031902034733,-0.0101402438285,-0.830193577063,0.573992070358,0.818826017238,0.006148460076,0.0,0.818825984269,-0.573903265895,-0.0118235266248,0.0,-0.0061529083606,0.0118213569975,-0.999911194676,0.0,0.300107619687,-0.214110674571,0.304991543656,1.0,-0.181137142857,-0.238065959184,2.476
-0.492292367734,-0.530083517263,-0.137268004879,-2.64812485796,-0.0735092948825,2.10908828503,-0.746308707172,-0.824274649299,-0.0104204693526,0.033062519647,-0.0162589001252,0.00389798627721,-0.0131797710163,-0.805284185253,0.57409373434,0.818754878549,0.00613024845318,0.0,0.818754449767,-0.574004675218,-0.0118545651928,0.0,-0.00618731093722,0.0118250274682,-0.999910938988,0.0,0.29719724315,-0.217929544861,0.304983107464,1.0,-0.173448,-0.227960228572,2.492
-0.505645943713,-0.530230003132,-0.136689043864,-2.64824569547,-0.0734579258465,2.10896886823,-0.759439372748,-0.776925213266,-0.0105165824833,0.029570155166,-0.00504926379988,0.000349863368421,-0.00389085781472,-0.753975224455,0.573882925385,0.818903235502,0.00605192013831,0.0,0.818901965284,-0.573794551445,-0.0118376892643,0.0,-0.00622148302107,0.0117496032561,-0.99991161608,0.0,0.294322608787,-0.221693762161,0.304986521951,1.0,-0.165278285714,-0.217222889796,2.509
-0.518693472622,-0.53019899062,-0.136227431675,-2.64826035162,-0.0734186330703,2.10889104307,-0.771962762903,-0.74650904226,0.00766596073137,0.0370915956558,0.00386475200344,0.00290320297408,-0.00989040463586,-0.728639315823,0.574002835922,0.818819592401,0.00599719556467,0.0,0.818817533453,-0.573914504066,-0.0118632134915,0.0,-0.0062720748743,0.0117203527203,-0.999911643301,0.0,0.291476535018,-0.225387103236,0.304973899812,1.0,-0.157108571429,-0.206485551021,2.526
-0.529429897655,-0.530037438193,-0.13571408268,-2.64819047574,-0.0732665264703,2.10888728241,-0.782524168422,-0.709988703354,0.00792220805428,0.0267522521345,0.00677495349701,0.00772148993804,-0.00155648406683,-0.687825398074,0.573853364851,0.818924497709,0.00597742438778,0.0,0.81892212371,-0.573765032149,-0.0118739245064,0.0,-0.00629433175159,0.0117091620436,-0.999911634552,0.0,0.28916241749,-0.228378197096,0.304959801439,1.0,-0.1499,-0.197011428572,2.541
-0.54059298635,-0.529778210876,-0.135286096023,-2.64803918219,-0.0730971833877,2.10888328518,-0.793288739419,-0.691157545743,0.0177011346256,0.0277517947166,0.00922657575025,0.00235455648962,-0.000933007357316,-0.660947105062,0.573959046391,0.818850207154,0.00600817878127,0.0,0.818848011233,-0.573870158038,-0.0119047517589,0.0,-0.00630041523965,0.011752851492,-0.999911083672,0.0,0.286721929101,-0.231503630594,0.304944806857,1.0,-0.142210857143,-0.186905697959,2.557
-0.552275401762,-0.529301520668,-0.134635735246,-2.64772271101,-0.0728200904192,2.10892602855,-0.804743395522,-0.632791186322,0.0327615727936,0.0370814846419,0.0245842820471,0.0173982109727,-0.00325980279349,-0.615593055849,0.573835250704,0.818936933394,0.00601257625669,0.0,0.8189345862,-0.573745981743,-0.0119347752744,0.0,-0.00632425855834,0.0117727280719,-0.999910699326,0.0,0.284083522854,-0.234905512868,0.304933322607,1.0,-0.13308,-0.174905142857,2.576
-0.563428396585,-0.528684168304,-0.134105259199,-2.64732490277,-0.0725533342803,2.10900302819,-0.815527911954,-0.610515555596,0.0361758518036,0.0224504000717,0.0202891465095,0.0174226845691,0.00630135357763,-0.577406180652,0.5738876465,0.818900055735,0.00603446875159,0.0,0.818897626963,-0.573797595473,-0.0119892820831,0.0,-0.00635558247113,0.0118223406352,-0.999909915359,0.0,0.281809352183,-0.23782783775,0.304910953566,1.0,-0.124910285714,-0.164167804082,2.593
-0.572201786115,-0.528076863651,-0.1336261354,-2.6468851805,-0.0723145936448,2.10911038862,-0.823988346886,-0.557772081365,0.0460780887365,0.040181034808,0.0318222782541,0.0181417563855,0.00202776952644,-0.569024265701,0.573932649032,0.818868503465,0.00603616669268,0.0,0.818866137756,-0.573842657885,-0.0119832937702,0.0,-0.0063490541368,0.0118206436282,-0.999909976896,0.0,0.279938738652,-0.240265774983,0.304910488849,1.0,-0.117701714286,-0.154693681633,2.608
-0.581340475369,-0.527305850608,-0.133040256422,-2.64637350619,-0.0719753234261,2.10922666886,-0.832996962388,-0.536844886778,0.0424413085362,0.0359357633583,0.0296172479369,0.0153465092257,0.0133545524217,-0.515450531152,0.573817378362,0.818949085572,0.00606287322767,0.0,0.81894657774,-0.573726387929,-0.0120532776664,0.0,-0.0063927134452,0.0118817782333,-0.999908974138,0.0,0.277887617046,-0.242922296364,0.304886474456,1.0,-0.109051428572,-0.143324734694,2.626
-0.590607051861,-0.526475023181,-0.132492148368,-2.64578501925,-0.0716621609106,2.10936361108,-0.841831255229,-0.505062564813,0.0493568987583,0.0302866515174,0.0378098018059,0.0259462642607,0.0100347514031,-0.482920731629,0.57393322647,0.818867755161,0.0060825991505,0.0,0.818865272445,-0.57384169564,-0.0120880449363,0.0,-0.00640818458826,0.0119187893162,-0.999908434624,0.0,0.276025306322,-0.245328849014,0.304875547357,1.0,-0.100881714286,-0.132587395918,2.643
-0.598125165906,-0.525671337111,-0.131964650076,-2.64520279799,-0.0713496002208,2.10950575109,-0.849153117,-0.444332646672,0.0533693065318,0.0399875318544,0.0331051720525,0.0153291356887,0.011011627822,-0.443028883929,0.573887193039,0.818899936724,0.00609345554898,0.0,0.818897454354,-0.573795362071,-0.0121073787478,0.0,-0.00641845873266,0.0119384146934,-0.999908134601,0.0,0.274452416688,-0.247394858972,0.304871590534,1.0,-0.0931925714287,-0.122481665306,2.659
-0.604989211502,-0.524873311054,-0.131387877457,-2.64463628714,-0.0710119201591,2.10964405152,-0.855893521395,-0.427810741025,0.0454911024398,0.0272000720848,0.034690941942,0.0193168115988,0.0148596381628,-0.409606184048,0.573756441724,0.818991524571,0.00609714372613,0.0,0.818988842746,-0.573664162367,-0.0121429475402,0.0,-0.00644738240236,0.0119608173398,-0.999907680793,0.0,0.273035486709,-0.249254225862,0.30486322148,1.0,-0.0855034285715,-0.112375934694,2.675
-0.611497081448,-0.524161205494,-0.130852307632,-2.64408768926,-0.0707067429874,2.10978584811,-0.862053788148,-0.394076129347,0.0441582298305,0.0342425986867,0.0400485925932,0.0188972087076,0.0113039259208,-0.380111112118,0.573822772945,0.8189451048,0.00608994869278,0.0,0.81894253735,-0.573730897803,-0.0121129817076,0.0,-0.00642599906331,0.0119382526353,-0.999908088106,0.0,0.27168246375,-0.251018718536,0.304877188389,1.0,-0.0778142857144,-0.102270204082,2.691
-0.618118718832,-0.523303456798,-0.130282499542,-2.64344467538,-0.070316069752,2.10995967276,-0.86837321911,-0.354556624982,0.0480227585708,0.0279480943285,0.0319313992565,0.020381797178,0.00859995968347,-0.337659236954,0.573869123017,0.818912344677,0.00612766553767,0.0,0.818910334793,-0.573777195579,-0.012097119689,0.0,-0.00639068894129,0.0119604023787,-0.999908049707,0.0,0.270328169825,-0.252815758741,0.304884048782,1.0,-0.0691640000001,-0.090901257143,2.709
-0.623943760982,-0.522519088576,-0.129675569385,-2.6428675253,-0.0699227526807,2.11011692254,-0.873962988099,-0.29954459447,0.0359939104795,0.0363081032216,0.0271688706961,0.0262141900065,0.015018802543,-0.290810447955,0.573834181888,0.818936647972,0.00615184576847,0.0,0.818934982046,-0.573742209956,-0.0120879526032,0.0,-0.00636981643794,0.0119746726463,-0.999908012096,0.0,0.269095699233,-0.254446715895,0.304889236987,1.0,-0.0600331428572,-0.0789007020409,2.728
-0.628562087871,-0.521939142349,-0.129096467134,-2.64243001176,-0.0695836828168,2.11024128924,-0.87838774451,-0.278333294271,0.0355061533065,0.0350911877609,0.0231458424881,0.0176576688261,0.0126615547809,-0.259875473997,0.573748497017,0.818996739826,0.00614403994545,0.0,0.818995091383,-0.573656801476,-0.0120690228261,0.0,-0.00636004249476,0.0119567524681,-0.999908288759,0.0,0.268241111763,-0.25556057581,0.30489800411,1.0,-0.0528245714287,-0.069426579592,2.743
-0.633240435195,-0.521344724205,-0.128494001829,-2.64195690056,-0.0692190459701,2.11038316398,-0.8826998215,-0.252479231554,0.0346604203401,0.0313817803219,0.0312521466801,0.0279269705762,0.00932918304176,-0.230183142923,0.573802684388,0.818958796957,0.00614126839686,0.0,0.818957527403,-0.57371177133,-0.0120049426467,0.0,-0.00630835687272,0.0119181357591,-0.999909077203,0.0,0.267323023391,-0.256772308324,0.304921653506,1.0,-0.0441742857144,-0.0580576326532,2.761
-0.636529803444,-0.520836111751,-0.128030875964,-2.64160582893,-0.0688993158197,2.11047007136,-0.885711212918,-0.205168065217,0.0331556488224,0.0296209126447,0.0235883534375,0.0189595691307,-0.00034077689765,-0.194512242683,0.573857694583,0.81892000345,0.00617423832974,0.0,0.818918908322,-0.573766146824,-0.012040650023,0.0,-0.00631788186112,0.0119660505597,-0.99990844481,0.0,0.266688598476,-0.257608512088,0.3049131109,1.0,-0.0369657142858,-0.0485835102042,2.776
-0.639700064117,-0.520368396612,-0.127514942645,-2.64128930993,-0.0685701118166,2.11055811895,-0.888605853698,-0.175264978194,0.0298293083142,0.0305106238853,0.0180901254458,0.0145285986851,0.00769499428308,-0.156176189511,0.573875402251,0.818907462691,0.00619169945484,0.0,0.818906398849,-0.573783403184,-0.0120690950805,0.0,-0.00633089953408,0.0119968100732,-0.999907993897,0.0,0.266087778962,-0.258390917452,0.304905155963,1.0,-0.0287960000001,-0.0378461714287,2.793
-0.642691775603,-0.519978468146,-0.126884853734,-2.64101702277,-0.0681911234201,2.1106228528,-0.891202516398,-0.131301851743,0.0179953936026,0.0299224838059,0.0132682837394,0.0259609762809,0.00861791365173,-0.110737652518,0.573928617262,0.818870121456,0.00619785252413,0.0,0.818869030371,-0.57383637622,-0.0120859971965,0.0,-0.00634043083236,0.0120119604135,-0.999907751617,0.0,0.265547990439,-0.25908115731,0.304906372648,1.0,-0.0199468965517,-0.0262159211823,2.813
-0.644414350647,-0.51972794814,-0.126478167784,-2.64085407641,-0.0679364508665,2.1106595285,-0.892710943309,-0.108140286602,0.0151804115572,0.0229245009183,0.0144859924288,0.0160535111895,0.00314385435317,-0.100248107442,0.573933130583,0.818866859219,0.00621090920175,0.0,0.818865749892,-0.573840473682,-0.0121136831348,0.0,-0.00635554494777,0.0120385766854,-0.999907335567,0.0,0.265249919335,-0.25946579232,0.30490126874,1.0,-0.0196468965517,-0.025821635468,2.828
-0.645895457313,-0.519493319868,-0.126149928045,-2.64069587294,-0.0677688036852,2.11070840447,-0.894135887375,-0.095101530215,0.0106457967643,0.0212334812338,0.0109598875346,0.00788025693121,-0.000234591898844,-0.0957987435857,0.573826413595,0.818941824328,0.00618727152386,0.0,0.81894034611,-0.573733770587,-0.0121250526943,0.0,-0.00637998898706,0.0120249133023,-0.999907344308,0.0,0.264990468752,-0.259812870408,0.304898919353,1.0,-0.0193468965517,-0.0254273497537,2.843
-0.647473373758,-0.51925073245,-0.125896793288,-2.64050444696,-0.0676376913841,2.11076382744,-0.895654125854,-0.0914226503663,0.0142125751523,0.0139290839787,0.0117921313442,0.00434619224978,0.00493507722377,-0.0910799490881,0.573761779148,0.818987269749,0.00616600991682,0.0,0.818985646736,-0.573669493846,-0.0121065755733,0.0,-0.00637800228306,0.0119963949276,-0.999907699538,0.0,0.264694305645,-0.26021473793,0.304907444295,1.0,-0.0190068965517,-0.0249804926108,2.86
-0.6489427265,-0.518998656729,-0.125743486868,-2.64031376334,-0.0675652066146,2.11083216641,-0.897123164227,-0.0845216655588,0.0172267298849,0.0100805968458,0.0120020509739,0.00263165564517,0.00506870901186,-0.0830185734368,0.573706041093,0.819026496758,0.00614189889379,0.0,0.819024722962,-0.573614180845,-0.0120839402381,0.0,-0.00637410965885,0.011963226884,-0.999908121743,0.0,0.264416646356,-0.260597567773,0.304913216795,1.0,-0.0186868965517,-0.0245599211823,2.876
-0.650391164892,-0.518757156466,-0.125654358233,-2.64012036762,-0.0675338946607,2.11086296735,-0.898531575699,-0.08864482507,0.0162041082971,0.00286897925642,0.0118957556834,0.00448762170969,0.00641216828373,-0.0773575892523,0.573687342808,0.819039758784,0.00611989650635,0.0,0.819037621136,-0.573595438476,-0.012099381164,0.0,-0.00639965272315,0.0119539174557,-0.999908069926,0.0,0.264088838358,-0.261026744708,0.304914510568,1.0,-0.0183268965517,-0.0240867783251,2.894
-0.651894593166,-0.518525193387,-0.125622662986,-2.63993108721,-0.0675010085894,2.11092899391,-0.900081996397,-0.0842715624532,0.0151254701396,0.00120514779678,0.00991321946245,-8.34310064598e-05,0.000643812115613,-0.0789588617615,0.573653803535,0.819063211371,0.00612506076258,0.0,0.819061370335,-0.57356231297,-0.0120619926586,0.0,-0.00636655300029,0.0119364384418,-0.999908490033,0.0,0.263734454898,-0.261492520278,0.304923776786,1.0,-0.0179468965517,-0.0235873497537,2.913
-0.653357560864,-0.518275503786,-0.125618957248,-2.63971949308,-0.0674666477469,2.11097094613,-0.901504333137,-0.0774728712281,0.0181937697131,0.000118397445169,0.0115166918951,0.00199618550244,-0.000412447095297,-0.0845556652212,0.573706590315,0.819026106579,0.00614262750156,0.0,0.81902453284,-0.573615084899,-0.0120538742545,0.0,-0.00634905614307,0.0119465797272,-0.999908480172,0.0,0.2634251049,-0.261904717653,0.304929338252,1.0,-0.0176068965517,-0.0231404926108,2.93
-0.654630690138,-0.518057280583,-0.125632867527,-2.63954220231,-0.0674319906873,2.11102713705,-0.902785548661,-0.0791573692611,0.0170006023539,-0.000135171792837,0.00842619390193,0.00219067244511,0.00375463260896,-0.0808148556371,0.573733874713,0.819006786374,0.00617023352139,0.0,0.819005698977,-0.573642483968,-0.0120296521659,0.0,-0.00631298022213,0.0119555055471,-0.999908601907,0.0,0.263135992343,-0.262289318069,0.304933976892,1.0,-0.0172868965517,-0.0227199211823,2.946
-0.655829123881,-0.517855119871,-0.125638237292,-2.63938926273,-0.0674169281888,2.11105720769,-0.903870337313,-0.0783606146972,0.0123574932839,-0.000324613000849,0.0107180746063,0.000535717509509,0.00235984248712,-0.0666123230276,0.573845241993,0.818928680484,0.00618072999647,0.0,0.818927649262,-0.573753629738,-0.0120426133892,0.0,-0.00631594682407,0.0119723975871,-0.999908381059,0.0,0.262856753027,-0.262644393292,0.30493141829,1.0,-0.0169868965517,-0.022325635468,2.961
-0.657123691837,-0.517640739646,-0.125630732689,-2.63919977424,-0.0673846365096,2.11109003481,-0.905153184445,-0.0756433725428,0.0113738785237,-0.0003319813281,0.0103748149358,0.00171144999274,-2.65120603595e-05,-0.0776470395662,0.573873097027,0.818909042331,0.00619643425339,0.0,0.818908304793,-0.573781580431,-0.0120263544169,0.0,-0.00629321170317,0.0119761433033,-0.999908479551,0.0,0.262564630068,-0.263029514737,0.304941499351,1.0,-0.0166468965517,-0.0218787783251,2.978
-0.658400123984,-0.517413017985,-0.12561241104,-2.63899597793,-0.067360140071,2.11116859706,-0.906530995721,-0.0649874620469,0.00897963478074,0.00421179048286,0.00875053543802,0.00113897133657,0.00628522390152,-0.073417422624,0.573798015559,0.818961669565,0.00619419280164,0.0,0.818961285637,-0.573707254581,-0.0119643458236,0.0,-0.00624480751625,0.0119381518378,-0.999909237336,0.0,0.262288550615,-0.263417953518,0.304957302222,1.0,-0.0162868965517,-0.021405635468,2.996
-0.659539159021,-0.517193265426,-0.125557443212,-2.63883262946,-0.0673315550622,2.11119580805,-0.907683395291,-0.068401425776,0.0128526912835,0.00544674101716,0.0171908043224,0.000137490042349,7.26963750856e-05,-0.0767150001105,0.573768858899,0.818982153877,0.00618668655745,0.0,0.818981534742,-0.573677873243,-0.0119870931889,0.0,-0.00626817089355,0.0119448328073,-0.999909011362,0.0,0.26203955331,-0.263744134851,0.304954139544,1.0,-0.0159668965517,-0.0209850640394,3.012
-0.66066177122,-0.516985541718,-0.125505260374,-2.63867990954,-0.0673129725122,2.11119881225,-0.908830849155,-0.0727994524517,0.018131795933,0.000671900680286,0.00861166667708,-6.99681129519e-05,0.00048422023931,-0.0734039615711,0.573727468253,0.819011229355,0.00617618528348,0.0,0.819010189141,-0.573635995839,-0.0120333396006,0.0,-0.00631267960261,0.011962446455,-0.999908520791,0.0,0.261787039283,-0.264061405472,0.304948431061,1.0,-0.0156468965517,-0.0205644926108,3.028
-0.661941725836,-0.516728796925,-0.125474570711,-2.63848364,-0.0672832565468,2.1112453612,-0.910142848581,-0.0638152271544,0.0130873060162,-0.00026128603927,0.00704013244424,-7.62685708753e-05,-0.000109964137313,-0.0610177783051,0.573708285278,0.819024625991,0.00618161180899,0.0,0.819023563066,-0.57361661658,-0.0120468762207,0.0,-0.00632093473769,0.0119745089752,-0.999908324257,0.0,0.261487810234,-0.264458910986,0.304944307736,1.0,-0.0152468965517,-0.0200387783251,3.048
-0.662936740274,-0.516524027074,-0.125466762902,-2.63833214621,-0.067259511749,2.11132411268,-0.911116692281,-0.063712414239,0.0140420612305,0.000647985092578,0.00949724976522,0.00119029055317,0.0111982173369,-0.0791382931255,0.573732264615,0.819007822795,0.00618236539855,0.0,0.819007013002,-0.573641049285,-0.0120085856577,0.0,-0.00628878809876,0.0119533438015,-0.999908780198,0.0,0.261287112052,-0.264742794646,0.304947838496,1.0,-0.0149668965517,-0.0196707783251,3.062
-0.66412062083,-0.516280722419,-0.125457416889,-2.63816137809,-0.0672301736769,2.11135368123,-0.912357627057,-0.0669751768259,0.0141432151021,0.000983290671162,0.0107235118167,0.000145173872594,-0.000550726485394,-0.0644898893035,0.573700469674,0.81902996883,0.0061990446923,0.0,0.8190291353,-0.573608731506,-0.0120434866505,0.0,-0.00630827178727,0.0119867829447,-0.999908257162,0.0,0.261016092811,-0.265091393875,0.304938419344,1.0,-0.0146068965517,-0.019197635468,3.08
-0.66530867274,-0.516064719637,-0.125452842882,-2.63798958879,-0.0672056763836,2.11137273539,-0.913504140763,-0.0672228061094,0.0120445456494,-0.000397956808219,0.00379992246516,0.000442640482969,0.00328740824188,-0.0641474621382,0.573750665936,0.818994702871,0.0062126411074,0.0,0.818993924403,-0.573658625758,-0.0120615001812,0.0,-0.00631449117056,0.0120086402861,-0.999907955644,0.0,0.26074120223,-0.265441561392,0.304938508102,1.0,-0.0142468965517,-0.0187244926108,3.098
-0.666207587847,-0.515901762833,-0.125436557808,-2.63785337816,-0.0671838959694,2.11142095833,-0.914385028457,-0.0630238084049,0.0116056027975,0.00232360065973,0.00872743463698,0.000341965662679,0.00981841137258,-0.06321299729,0.573770197995,0.81898100778,0.00621415235772,0.0,0.818980417285,-0.573678467487,-0.0120349053342,0.0,-0.00629155462978,0.011994770044,-0.999908266708,0.0,0.260542742499,-0.265709695663,0.304944760752,1.0,-0.0139668965517,-0.0183564926108,3.112
-0.667381200324,-0.515684096551,-0.125409909959,-2.63766270837,-0.067150140136,2.11147580937,-0.915603239796,-0.0624028754081,0.0125906823199,-0.00170896890643,0.00855993864706,-0.000221430408794,0.00246515869389,-0.0577008347504,0.573744525635,0.818998944039,0.00622060029113,0.0,0.818998675023,-0.57365322669,-0.0119955292009,0.0,-0.00625597876674,0.0119772632068,-0.99990869978,0.0,0.260270375965,-0.26608228942,0.304957064957,1.0,-0.0135668965517,-0.0178307783251,3.132
-0.668406128032,-0.515486468777,-0.125385759577,-2.6374909287,-0.0671308061673,2.11152102456,-0.91657918808,-0.0582932728432,0.00982126167829,0.00115817702258,0.0129658971678,0.00274460645733,0.00511677991924,-0.0549144454868,0.573779004884,0.818974861188,0.00621105447101,0.0,0.818974606629,-0.573688004687,-0.0119755532853,0.0,-0.00624458987072,0.0119582471724,-0.99990899857,0.0,0.260062104005,-0.266367338177,0.30496588693,1.0,-0.0132468965517,-0.0174102068966,3.148
-0.669411647907,-0.515292083302,-0.125339720082,-2.63733473988,-0.0671072041273,2.11155250719,-0.917562214785,-0.0582760032027,0.0124072247217,0.00486188659658,0.0129392566499,0.000636296811434,0.00350955903887,-0.0595832333717,0.57378289654,0.818972208829,0.00620126634393,0.0,0.818971826696,-0.573691936478,-0.0119773118969,0.0,-0.00625158944507,0.0119512692375,-0.999909038259,0.0,0.25984230757,-0.266658367506,0.304968856079,1.0,-0.0129068965517,-0.0169633497537,3.165
-0.670212956433,-0.515138279429,-0.125302078597,-2.63720211099,-0.0670943768338,2.11159285163,-0.91841102091,-0.0554992276443,0.0107186371108,0.000959122438147,0.010881043428,4.47463669514e-05,0.00591078676879,-0.0606744855223,0.573729537948,0.819009710725,0.00618529917595,0.0,0.819009272907,-0.573638946831,-0.011954767763,0.0,-0.00624306258056,0.0119248503561,-0.999909406953,0.0,0.259670817185,-0.266894895433,0.304976648499,1.0,-0.0126268965517,-0.0165953497537,3.179
-0.67117892388,-0.514947469279,-0.125289605817,-2.63705548189,-0.067072002814,2.11163030984,-0.919388403646,-0.0549887558705,0.0138937005538,-0.000143792071395,0.00910768963689,-3.09622259967e-05,0.000254447028104,-0.0547316765446,0.573728892161,0.819010128248,0.0061899134664,0.0,0.819009768152,-0.573638315752,-0.0119511201857,0.0,-0.00623743703049,0.0119265321599,-0.999909422003,0.0,0.259441861232,-0.267198323564,0.304978221191,1.0,-0.0122668965517,-0.0161222068966,3.197
-0.672126427082,-0.51476151944,-0.125280738154,-2.63690854484,-0.0670530352344,2.11165337393,-0.920295329545,-0.054283844142,0.0153174914469,-0.000225448809449,0.00428013444174,0.00369757280832,0.00111187376586,-0.0515735325957,0.573771186632,0.818980442143,0.00619739291663,0.0,0.818980080557,-0.573680381027,-0.0119664103583,0.0,-0.00624505355298,0.0119417527369,-0.999909192801,0.0,0.259235137705,-0.26746156555,0.304976543448,1.0,-0.0119468965517,-0.015701635468,3.213
-0.673051268328,-0.514578944865,-0.125270455696,-2.63674683337,-0.0670401633772,2.11169276058,-0.921208653464,-0.0512528655032,0.0110751034018,0.000474247099857,0.00575277431256,6.76529432493e-06,0.00406045421748,-0.0589911271825,0.5737870923,0.818969334756,0.00619260370168,0.0,0.818969059052,-0.573696586865,-0.0119437613887,0.0,-0.00622901863947,0.0119249565374,-0.999909493273,0.0,0.259029466542,-0.267742562537,0.30498616527,1.0,-0.0116068965517,-0.0152547783251,3.23
-0.673985855275,-0.514387952223,-0.125249023292,-2.6365907422,-0.0670181768436,2.11173967406,-0.922172574849,-0.0468977456737,0.0113778691125,0.000447730913579,0.00689821856672,0.00190453279461,0.00491379520902,-0.049025854362,0.573765276491,0.818984630651,0.00619105420926,0.0,0.818984440882,-0.573674985304,-0.0119265976417,0.0,-0.00621616691247,0.0119136740387,-0.999909707744,0.0,0.258823955684,-0.268022099584,0.304991023843,1.0,-0.0112468965517,-0.014781635468,3.248
-0.674885551229,-0.514201467402,-0.125237643951,-2.63643435604,-0.0669966339126,2.11176340628,-0.923020001596,-0.0495161189576,0.0123312585578,-0.000524561656598,0.010326922839,-7.57256712944e-05,0.00554474092949,-0.0414769756784,0.573817257457,0.818948177705,0.00619549666854,0.0,0.818948037424,-0.573726921038,-0.0119280751781,0.0,-0.00621407184281,0.0119185546921,-0.999909662602,0.0,0.258621791253,-0.268291473036,0.304995455915,1.0,-0.0108868965517,-0.0143084926108,3.266
-0.675651304557,-0.51402895923,-0.125221753707,-2.63630576056,-0.0669771875016,2.11182302324,-0.92376748819,-0.0470163661491,0.0102873306795,-0.000639425009589,0.00778811371519,9.48660324669e-05,0.00321436722909,-0.048225203077,0.573835909184,0.818935122034,0.00619371716387,0.0,0.818935084788,-0.573745818314,-0.0119083908387,0.0,-0.0061986995263,0.0119059438009,-0.999909908255,0.0,0.258455794074,-0.268523454056,0.30499558644,1.0,-0.0105668965517,-0.0138879211823,3.282
-0.676354776429,-0.513878996641,-0.125196961616,-2.6361914072,-0.0669614795988,2.11184572108,-0.924491332062,-0.0428752307106,0.00936094199814,0.000747676729359,0.00866399797791,0.000149297407737,0.000491411030935,-0.0474606984503,0.573814255278,0.818950321065,0.00619023170586,0.0,0.818950182544,-0.573724075884,-0.0119176408627,0.0,-0.00620859038049,0.0119082328722,-0.999909819631,0.0,0.25829960933,-0.268729032405,0.304994629605,1.0,-0.0102668965517,-0.013493635468,3.297
-0.677137113239,-0.513705425177,-0.12517873317,-2.63607246852,-0.0669391900608,2.1118656038,-0.925287223923,-0.0461901597132,0.00757207910705,0.000577443338806,0.00707087339369,0.00353764420893,0.00696423846899,-0.0451376237353,0.5738059865,0.818956059402,0.00619754199261,0.0,0.818955822563,-0.573715407917,-0.0119473139639,0.0,-0.00622881975603,0.0119311830878,-0.999909420235,0.0,0.258121254363,-0.268956019303,0.304986629866,1.0,-0.00992689655173,-0.0130467783251,3.314
-0.677904734302,-0.513530469345,-0.125162037679,-2.63594997671,-0.0669203695273,2.11190391028,-0.926014301481,-0.0435872217938,0.00997469294654,0.00235463883512,0.00668016216927,0.000952978319517,0.00478908844354,-0.038374725021,0.573841780757,0.81893096927,0.00619880066482,0.0,0.81893068846,-0.57375107376,-0.0119574143949,0.0,-0.00623584848228,0.0119382819146,-0.999909291695,0.0,0.257949603207,-0.26918334151,0.304981256918,1.0,-0.00958689655173,-0.0125999211823,3.331
-0.678579957025,-0.513374839957,-0.125149284751,-2.63583806701,-0.066897373467,2.11193876374,-0.926686121572,-0.0405604827545,0.00886055144606,0.000733057566791,0.00833695529659,0.000532699760104,0.00346963654462,-0.0394278078282,0.573851168309,0.818924337315,0.00620590726854,0.0,0.818924115227,-0.573760364914,-0.0119617747236,0.0,-0.00623520486662,0.0119466755298,-0.999909195459,0.0,0.257799678021,-0.269384224738,0.304977829946,1.0,-0.00926689655173,-0.0121793497537,3.347
-0.679269383695,-0.513216116932,-0.125132629572,-2.6357379407,-0.0668763985448,2.11196250486,-0.927398850935,-0.0377006161637,0.00830555995273,5.20629932741e-05,0.00919048678505,0.00031005501445,0.00359126668986,-0.051705520074,0.573834528928,0.818935937392,0.00621375558914,0.0,0.818935619107,-0.573743316149,-0.0119919069916,0.0,-0.00625562329601,0.0119702665446,-0.999908785788,0.0,0.257642067976,-0.26958328412,0.304967042069,1.0,-0.00892689655173,-0.0117324926108,3.364
-0.680000939129,-0.513035673636,-0.125080902323,-2.63563390866,-0.0668486975027,2.11199174522,-0.928174737886,-0.0391566012702,0.00905345328642,0.00911248523069,0.00581224991408,0.00522079477528,0.00499661612943,-0.0459757042799,0.573780088899,0.81897411328,0.00620952999557,0.0,0.818973537842,-0.573688519725,-0.0120238742373,0.0,-0.00628502667657,0.0119847311208,-0.999908428137,0.0,0.257474814564,-0.269798960878,0.304955475542,1.0,-0.00852689655173,-0.0112067783251,3.384
-0.680609629734,-0.512897655391,-0.125044529933,-2.63556252962,-0.0668273031585,2.11201193574,-0.928786676437,-0.0354298519588,0.00489828975206,0.000760488781095,0.0022308093148,-0.000126507873644,-0.000482822977825,-0.040034999353,0.573763372595,0.81898580181,0.00621253602425,0.0,0.818984926238,-0.573671148196,-0.0120768880347,0.0,-0.00632696897,0.0120174807406,-0.999907770557,0.0,0.257344653582,-0.269952510526,0.304935244298,1.0,-0.00822689655173,-0.0108124926108,3.399
-0.681194901255,-0.512771761167,-0.125024626161,-2.63548552293,-0.0668056979421,2.11202723132,-0.929360855196,-0.0372303031824,0.00723295343255,-0.000928949218554,0.00702962018985,0.00336569047551,0.000326510096792,-0.0346420234266,0.57377164111,0.818979945971,0.00622084050217,0.0,0.81897898529,-0.573679011081,-0.0121062297873,0.0,-0.00634611597214,0.0120411808049,-0.999907364098,0.0,0.257209830382,-0.270117018756,0.304925434759,1.0,-0.00790689655173,-0.0103919211823,3.415
-0.68176925288,-0.512648512703,-0.125009090263,-2.63540924529,-0.0667865201716,2.11204415171,-0.929905279301,-0.0295165111901,0.00274040037098,0.00057570617238,0.0033032770227,-7.31415013076e-05,0.00327924127234,-0.0393284685716,0.573797356938,0.818961869871,0.00622862502323,0.0,0.818960839864,-0.573704362449,-0.0121323607062,0.0,-0.00636267396321,0.0120627487322,-0.999906998912,0.0,0.257076785741,-0.270279914156,0.304916302867,1.0,-0.00758689655173,-0.0099713497537,3.431
-0.682364941634,-0.512524569446,-0.124996440038,-2.63531579437,-0.0667605048082,2.11206668796,-0.930466909199,-0.0349586210436,0.00384414177232,0.00210695619584,0.00667325850746,0.000527979040554,0.00332523722213,-0.0300981187116,0.573832212966,0.818937360783,0.00623998221715,0.0,0.818936450385,-0.573739105547,-0.0121357281623,0.0,-0.00635840179542,0.0120742531015,-0.999906887234,0.0,0.256942504117,-0.270453510492,0.304915123608,1.0,-0.00724689655173,-0.00952449261084,3.448
-0.682933888624,-0.512407841644,-0.12499770375,-2.63522293127,-0.0667416836224,2.11208706584,-0.93102516492,-0.0304005672912,0.00676917233123,-0.000173599515055,0.00795418848653,0.00541590853728,0.000325167223462,-0.0339575466494,0.573854700171,0.818921512136,0.00625195593825,0.0,0.818920753522,-0.573761525362,-0.0121350058304,0.0,-0.00635060781763,0.0120838192513,-0.999906821205,0.0,0.256811213466,-0.270623505026,0.30491582755,1.0,-0.00690689655173,-0.00907763546799,3.465
-0.683485466186,-0.512293615791,-0.124982392575,-2.6351214642,-0.0667174892797,2.11211449237,-0.931604600059,-0.033011633766,0.00984399345199,-6.95212211595e-05,0.00207441623417,0.000180339784686,0.000246874265663,-0.0346206757708,0.573836489391,0.818934227931,0.00625784851542,0.0,0.818933657949,-0.573743504908,-0.0121161609331,0.0,-0.00633206087061,0.0120776905633,-0.999907012875,0.0,0.256691824847,-0.270788266166,0.304922353616,1.0,-0.00654689655173,-0.00860449261084,3.483
-0.683908545654,-0.512209262595,-0.124963215386,-2.63504587548,-0.0666978276935,2.11213679142,-0.932040062449,-0.0276412003102,0.00445732588997,0.00343457056516,0.00279177732289,0.000820041623072,0.00101317637201,-0.0256801053876,0.573813919919,0.81895005303,0.00625642478126,0.0,0.818949604474,-0.573721213928,-0.0120938381517,0.0,-0.00631492735724,0.0120635415373,-0.999907292032,0.0,0.256598883932,-0.270919227505,0.304929750987,1.0,-0.00622689655173,-0.00818392118227,3.499
-0.684393484099,-0.512118926056,-0.124917168236,-2.63496176758,-0.0666777651544,2.11216240138,-0.932524299418,-0.0246545124393,0.00501299492323,0.000777226349952,0.00549406950451,0.00131987130857,0.000364921405791,-0.0266898135633,0.573805556672,0.818955981749,0.00624739876697,0.0,0.818955523678,-0.57371309914,-0.0120779557102,0.0,-0.00630722100152,0.0120469717701,-0.999907540443,0.0,0.256503250673,-0.271049576454,0.304935869391,1.0,-0.00588689655173,-0.00773706403942,3.516
-0.684895541016,-0.512027751584,-0.124866066031,-2.63488553224,-0.066650300517,2.11219925696,-0.933018572139,-0.0283519869309,0.00526925288679,-0.000725598848435,0.00214617626424,0.0026251394807,0.00266861657495,-0.0258652486086,0.573791170128,0.818966125791,0.00623897351792,0.0,0.818965721985,-0.573699066227,-0.0120529882016,0.0,-0.00629181690718,0.012025635186,-0.999907894327,0.0,0.256401849657,-0.271188680065,0.30494110336,1.0,-0.00550689655173,-0.00723763546799,3.535
-0.685270362593,-0.511961671416,-0.124825127515,-2.63483306526,-0.0666353909577,2.11221419402,-0.933377853038,-0.0222737063997,0.0038645328696,0.00404907789835,0.00216551173414,-0.000194168306769,5.01487440878e-05,-0.0282130472995,0.573783818385,0.818971352481,0.00622900289563,0.0,0.81897084662,-0.573691812827,-0.0120500283665,0.0,-0.00629522126798,0.0120157144026,-0.999907992166,0.0,0.256323347858,-0.27128948496,0.304942713823,1.0,-0.00520689655173,-0.0068433497537,3.55
-0.685638136953,-0.511899133749,-0.124816673205,-2.63477550506,-0.0666196413286,2.11223326743,-0.933760607275,-0.0229507078625,0.000855435010802,-0.000468886269646,0.00497598279399,0.000212738904218,0.000116052327891,-0.0226218065741,0.573775169855,0.818977373002,0.00623408934995,0.0,0.818977034209,-0.573683336649,-0.0120330208805,0.0,-0.00627849953134,0.0120100558372,-0.999908165284,0.0,0.256241231594,-0.271397305214,0.304947539381,1.0,-0.00488689655173,-0.00642277832513,3.566
