nelsonifechukwu/NELSON_IML_WORK/CNN-GradCAM/train2dof/data_sample_2022-02-22-14-24-18/robot_state.csv
position_joint1,position_joint2,position_joint3,position_joint4,position_joint5,position_joint6,position_joint7,velocity_joint1,velocity_joint2,velocity_joint3,velocity_joint4,velocity_joint5,velocity_joint6,velocity_joint7,ee_T_00,ee_T_10,ee_T_20,ee_T_30,ee_T_01,ee_T_11,ee_T_21,ee_T_31,ee_T_02,ee_T_12,ee_T_22,ee_T_32,ee_T_03,ee_T_13,ee_T_23,ee_T_33,v_x,v_y,time
0.465080774778,0.547758642395,-0.124006644869,-1.35582946679,0.0794782616229,1.89411012639,0.159152856834,-0.000790930586467,0.000837675013114,-0.00164174759908,-0.000237992538737,7.92188488276e-05,0.000372928736037,0.000364422779765,0.573801496341,0.818980313988,0.00195831495752,0.0,0.818937580655,-0.573743188927,-0.0118633491003,0.0,-0.00859244493369,0.00841110711874,-0.999927708971,0.0,0.661683933895,0.260882527606,0.303233423494,1.0,0.0,0.0,0.0
0.465085170047,0.547761157266,-0.124008761048,-1.3558319585,0.0794765845231,1.89410930341,0.159149414653,-0.000111721006393,0.00124823019677,-0.000298744503932,-0.000383381818755,-8.2346029697e-05,-1.14556831404e-06,-0.00119932650495,0.573796246635,0.818984007195,0.00195197543815,0.0,0.818941213175,-0.573737987127,-0.0118641641746,0.0,-0.00859680377406,0.00840632785412,-0.999927711696,0.0,0.661682564657,0.260883553402,0.303230451506,1.0,-0.00016,-0.000210285714286,0.009
0.465087271022,0.547760705703,-0.124009379933,-1.35583770532,0.0794774330016,1.89410719502,0.159152816339,0.00184166257383,-0.000365634047913,-0.000326063647658,-0.00195094430503,0.000287530146268,-0.000586729648063,-0.000175012337321,0.573798267146,0.818982605306,0.0019462084281,0.0,0.818939723071,-0.573740018151,-0.0118688015338,0.0,-0.00860388999468,0.00840428695291,-0.999927667903,0.0,0.661680383991,0.260883901926,0.303227875124,1.0,-0.0005,-0.000657142857143,0.026
0.465078886706,0.547740160806,-0.124014996627,-1.35584758481,0.0794781165207,1.8941100939,0.159158814233,0.000190692975061,-0.00199552899275,0.000862741096491,-0.00586186052196,7.52408801423e-06,0.000155209478518,0.000141265400549,0.573814674657,0.818971082847,0.00195742407419,0.0,0.818928364126,-0.573756394929,-0.0118608856304,0.0,-0.0085908031677,0.00840910222541,-0.99992773994,0.0,0.661682681637,0.260874511323,0.303238166145,1.0,-0.00084,-0.001104,0.043
0.465077979571,0.547667213114,-0.124005192403,-1.35591679818,0.0794741755261,1.89412146315,0.159152563042,-0.000525056797876,-0.00427592139101,0.00033170492277,-0.00654509549951,4.54600577682e-05,0.000420056780611,-0.000845189208522,0.573806132757,0.818977027468,0.00197418102087,0.0,0.818934456065,-0.573747716369,-0.0118600814398,0.0,-0.00858061759414,0.00842227448054,-0.999927716535,0.0,0.661669219175,0.260872463875,0.303257555391,1.0,-0.00116,-0.00152457142857,0.059
0.465077545586,0.54753323661,-0.124004525531,-1.35609243912,0.079470407689,1.89414852908,0.159146951231,0.000818481839226,-0.00882177517312,0.00201375723214,-0.0129144132536,-0.000333846714445,0.00422177461206,-0.00202084307964,0.573809967049,0.818974356892,0.00196757980581,0.0,0.818931584167,-0.573751463984,-0.0118770758588,0.0,-0.00859828431278,0.00842665999387,-0.999927527828,0.0,0.661638059486,0.260854697181,0.303271185918,1.0,-0.0015,-0.00197142857143,0.076
0.465064459516,0.547382949813,-0.124009587784,-1.35629762579,0.0794677465781,1.8942137479,0.159145342313,0.00103718622683,-0.00692841390933,0.00341140309529,-0.0112504876598,-3.01216672165e-05,0.00686576424151,0.00039279723029,0.573833585244,0.818957775905,0.00198106841071,0.0,0.818915103228,-0.573774949912,-0.0118788661013,0.0,-0.00859176775262,0.00843898164215,-0.999927479928,0.0,0.661612716622,0.260824725872,0.303285808817,1.0,-0.00184,-0.00241828571429,0.093
0.465042807934,0.547205131616,-0.124012567388,-1.35650478359,0.0794651270231,1.8943425294,0.159134859309,-0.000655124417301,-0.0141060413307,0.00126107036804,-0.013034714709,0.000724071227032,0.00331730344911,-0.000900692829158,0.573853900161,0.818943318514,0.0020710460839,0.0,0.818901755043,-0.573794837231,-0.0118383806497,0.0,-0.00850677096617,0.00848964763231,-0.999927777757,0.0,0.661598627506,0.260797985702,0.303322470634,1.0,-0.00218,-0.00286514285714,0.11
0.465022863446,0.546982284524,-0.124002747725,-1.35676052359,0.0794604111524,1.89447046121,0.159127255154,0.000395899048207,-0.0130953971731,0.0012190597781,-0.0121513200802,-0.0011250300261,0.00158407658292,0.000968373859717,0.573872432336,0.818930106511,0.00215846149249,0.0,0.818889640998,-0.57381298297,-0.0117967513608,0.0,-0.00842232377656,0.00853753652781,-0.99992808488,0.0,0.661578048133,0.260767757003,0.303371336555,1.0,-0.00252,-0.003312,0.127
0.464990780419,0.546771646429,-0.124006981159,-1.35708013142,0.079450517321,1.89459985694,0.15910224877,-2.23180911032e-05,-0.0140727664781,0.000425083792755,-0.025699121452,0.000395098306671,0.0116616801246,-0.000758406641701,0.573896837628,0.818912938653,0.00218301813705,0.0,0.818872733076,-0.57383722953,-0.0117910105987,0.0,-0.00840327584839,0.00855460242588,-0.999928099281,0.0,0.661542596676,0.260714981778,0.303381730465,1.0,-0.00286,-0.00375885714286,0.144
0.464955596271,0.546500386965,-0.12400740598,-1.35747869767,0.0794363852468,1.89474379843,0.159024320297,-0.00167105060365,-0.0161246985648,0.000806419040051,-0.0232910846687,-0.000148539515995,0.0046127648957,-0.0120111370515,0.573880317295,0.818924471509,0.00219961047788,0.0,0.818884398248,-0.573820561942,-0.0117920269614,0.0,-0.00839475935206,0.00856860384891,-0.999928050933,0.0,0.66150047353,0.260656308818,0.30339464294,1.0,-0.00318,-0.00417942857143,0.16
0.464917831904,0.546208998511,-0.124010514588,-1.35793948526,0.079408555461,1.89490488016,0.158927084239,-0.000977155323408,-0.0154337234032,-0.000576409858677,-0.0278214053008,-0.000305305512614,0.00811585994054,-0.00342549211017,0.573852126496,0.818944245866,0.00219225444686,0.0,0.81890407277,-0.573792398849,-0.0117961656948,0.0,-0.00840266485839,0.00856466575987,-0.999928018271,0.0,0.661446646409,0.260585083131,0.303395702584,1.0,-0.00352,-0.00462628571429,0.177
0.464872797311,0.545894133752,-0.124007730582,-1.3584601714,0.0793600185224,1.89508000786,0.158902740737,-0.00427332406507,-0.0275546625556,0.000534383060847,-0.0317424112508,-0.00248645805185,0.00826752013308,-0.00331625174315,0.573883267088,0.818922518239,0.00215679814083,0.0,0.818881997938,-0.57382378927,-0.0118016618675,0.0,-0.00842718682354,0.00853910384452,-0.999928030524,0.0,0.661384147595,0.260503256713,0.303385842221,1.0,-0.00386,-0.00507314285714,0.194
0.464812902284,0.545551767343,-0.124007730586,-1.35905280997,0.0793306991632,1.89528023959,0.158826075316,-8.90872381625e-06,-0.0211116707102,-0.000241602095293,-0.0346856400103,-0.0022966842354,0.00580510984411,-0.00815637213431,0.573894804454,0.818914536324,0.00211719588878,0.0,0.818873410977,-0.573835390215,-0.0118333694137,0.0,-0.00847575948221,0.00852498877732,-0.999927740423,0.0,0.661314233853,0.260406628054,0.303363492346,1.0,-0.0042,-0.00552,0.211
0.46474534901,0.545154413414,-0.124005303862,-1.35972618473,0.0793061203319,1.89550520933,0.158736438902,-0.00716214807941,-0.0239793554825,0.000924741370342,-0.0397366069803,-0.00578019078283,0.0172220988425,-0.00243639738122,0.573905995928,0.81890678107,0.00208294423857,0.0,0.81886501273,-0.573846519626,-0.0118747522129,0.0,-0.00852918902213,0.00852080570752,-0.999927321761,0.0,0.661233255865,0.260299930402,0.303343690732,1.0,-0.00454,-0.00596685714286,0.228
0.464672963473,0.544707182766,-0.124016178222,-1.36047539776,0.0792755967684,1.89576045547,0.158640774907,-0.0051621965438,-0.0244526204343,-0.00124386345251,-0.0446451798222,-0.00128428861927,0.0157938206774,-0.00166684308902,0.573928151475,0.818891341184,0.00204821385956,0.0,0.818849004079,-0.573868697614,-0.0119068601626,0.0,-0.00857518396668,0.00851102398562,-0.999927011682,0.0,0.661146753352,0.260175085429,0.303326117644,1.0,-0.0049,-0.00644,0.246
0.464605465462,0.544313745077,-0.124011163644,-1.36113404065,0.0792415724584,1.8959902008,0.158567361734,-0.0028365972304,-0.0280238843912,0.000459354690686,-0.0437577203724,-0.00422063856236,0.015228937668,-0.00292192609507,0.573947434447,0.818877891931,0.00202175652042,0.0,0.818835106675,-0.573887984724,-0.0119329781702,0.0,-0.00861155603246,0.00850455116111,-0.999926754174,0.0,0.661069763907,0.260070429122,0.303310796348,1.0,-0.0052,-0.00683428571429,0.261
0.46453568411,0.543814138979,-0.124015069895,-1.36195068499,0.0791971833856,1.89627936237,0.158455237792,-0.0060700490647,-0.0298371781393,0.00060081399816,-0.0480107988018,-0.00615271344688,0.0203103212846,-0.00832731304258,0.573949143589,0.818876748976,0.00199936515177,0.0,0.818833618805,-0.57388973445,-0.0119509124556,0.0,-0.00863907553189,0.008496526956,-0.999926585007,0.0,0.66097419789,0.259944096534,0.30330079497,1.0,-0.00554,-0.00728114285714,0.278
0.464467361563,0.543327045161,-0.124029909834,-1.3627394997,0.0791472143308,1.89655002391,0.158358320042,0.000132639059733,-0.0242880114557,-0.00171911405927,-0.0537383703676,-0.00656076135279,0.0172366094018,-0.0107880913746,0.5739666182,0.818864576879,0.00196794968012,0.0,0.818821096408,-0.573907396618,-0.011960731014,0.0,-0.00866496489081,0.00847662224733,-0.99992652993,0.0,0.660883343072,0.259813379729,0.303293875285,1.0,-0.00586,-0.00770171428571,0.294
0.464376699056,0.542769350712,-0.124026484739,-1.3636320044,0.0790893166478,1.89687391854,0.15823746355,-0.000824542008644,-0.03791447315,0.00160083549142,-0.054636620728,-0.00301897933606,0.0207565136239,-0.00310426514331,0.573959977329,0.818869258919,0.00195655917223,0.0,0.818825579575,-0.573900755361,-0.0119724738868,0.0,-0.00868118717205,0.00847396468891,-0.999926411748,0.0,0.660771631018,0.259671487937,0.303290648979,1.0,-0.00622,-0.00817485714286,0.312
0.46430648546,0.542178267316,-0.124029573888,-1.36455557616,0.0790462368996,1.897207095,0.158130021582,-0.00737891320078,-0.0341271987072,0.000143851923958,-0.0547320846661,-0.00157116763227,0.0222496014584,-0.00363234146116,0.573985163804,0.818851588082,0.00196349915358,0.0,0.818807930045,-0.57392584181,-0.0119770071311,0.0,-0.0086806555347,0.00848251639236,-0.999926343855,0.0,0.660673483931,0.259535025466,0.303298916245,1.0,-0.00654,-0.00859542857143,0.328
0.464220291588,0.541546880554,-0.124029692328,-1.3655157312,0.0789800781121,1.89755655757,0.157997862937,-0.00517850833437,-0.0372492422666,-0.000499233170825,-0.0533358999829,-0.00485609952454,0.0217544950145,-0.00491630928124,0.573983188669,0.818852940101,0.00197699608804,0.0,0.818809517389,-0.573923868096,-0.0119630582846,0.0,-0.00866150696771,0.00848554092611,-0.999926484244,0.0,0.660564423509,0.259385344728,0.303318613763,1.0,-0.00688,-0.00904228571429,0.345
0.464129782156,0.540835853047,-0.12403011603,-1.36659430988,0.0789136549181,1.89796360664,0.157859447132,-0.00584460109224,-0.0426395352623,0.000534345174931,-0.0606106245056,-0.00379674010852,0.0217995276811,-0.0090838945113,0.573986354633,0.818850641476,0.00200961444647,0.0,0.818807660605,-0.573926913618,-0.0119440219599,0.0,-0.00862716432647,0.0085013570055,-0.999926646792,0.0,0.660442644626,0.259223499145,0.303343164675,1.0,-0.00724,-0.00951542857143,0.363
0.464045881326,0.54016137532,-0.124036045948,-1.36762081721,0.0788598972692,1.89833261486,0.15772817608,-0.00251081374762,-0.0471774672545,-0.00066292279226,-0.0664572254611,-0.00217218881593,0.0217568995684,-0.00221564299269,0.573994125053,0.818845150052,0.0020276940375,0.0,0.818802336345,-0.573934540363,-0.011942540538,0.0,-0.00861549362836,0.00851539267,-0.999926627987,0.0,0.66032298341,0.259068001863,0.303363456181,1.0,-0.00756,-0.009936,0.379
0.463949832134,0.539425088171,-0.124036907711,-1.36877310223,0.0787920104632,1.89877582803,0.157588918158,-0.00710849265951,-0.0442108003747,-0.000104089554567,-0.0674528955522,-0.00468330107614,0.0245128970842,-0.00647985913284,0.574005072332,0.818837419847,0.0020502918524,0.0,0.818794901857,-0.573945394005,-0.0119306452133,0.0,-0.00859266861401,0.00852718355939,-0.999926723909,0.0,0.660193254088,0.258896058303,0.303373711761,1.0,-0.0079,-0.0103828571429,0.396
0.463838972799,0.538667326958,-0.124039273843,-1.369932498,0.0787252241132,1.8992251,0.157435864425,-0.00564019642261,-0.0432834682703,-1.79666055221e-05,-0.0719359090323,-0.0105008430404,0.0277410809358,-0.0102031210658,0.574018494043,0.818827907477,0.00209125182279,0.0,0.818785924291,-0.573958647285,-0.0119091683691,0.0,-0.00855143198966,0.00854853503495,-0.999926895108,0.0,0.660067539347,0.258713505172,0.303396203473,1.0,-0.00824,-0.0108297142857,0.413
0.463745487456,0.537919951606,-0.124047442029,-1.371095574,0.0786602975166,1.89966289235,0.157299061355,-0.00260765006557,-0.0462596985578,-0.00107217554312,-0.0750501319,-0.000282012375539,0.0256026053173,-0.0101073669749,0.57403561676,0.818815855173,0.00211019196082,0.0,0.81877411074,-0.573975682923,-0.0119003317723,0.0,-0.0085331457547,0.00855914962495,-0.999926960523,0.0,0.659934896585,0.258538013385,0.303408680548,1.0,-0.00856,-0.0112502857143,0.429
0.4636401189,0.537111482066,-0.124048033769,-1.37236540122,0.0785872261088,1.90013106394,0.157146183169,-0.00378836891787,-0.0439931574357,0.000393205727773,-0.0748781622003,-0.00341594793195,0.0354334714023,-0.00907638506346,0.574047536143,0.818807480743,0.00211722187751,0.0,0.818765782061,-0.573987526348,-0.0119021269028,0.0,-0.00853045583425,0.00856606037295,-0.999926924296,0.0,0.659786724057,0.258347962946,0.303415737051,1.0,-0.0089,-0.0116971428571,0.446
0.463529253247,0.536315957377,-0.124052037157,-1.37361420196,0.0785141838328,1.90060246422,0.156990250271,-0.0105522199445,-0.0459331798726,0.000557803795108,-0.0809315337979,-0.0003612719352,0.0276047568558,-0.012214089232,0.574062666126,0.818796834878,0.00213200737286,0.0,0.81875532633,-0.574002592196,-0.011894816473,0.0,-0.00851582427691,0.00857412752838,-0.999926979871,0.0,0.659645653118,0.258154868503,0.303423910233,1.0,-0.00922,-0.0121177142857,0.462
0.463413346936,0.535381772468,-0.124052478644,-1.37507949827,0.0784241171818,1.90113793244,0.156806266721,-0.00699823862942,-0.0534386838246,0.00196967374982,-0.0867449395559,-0.0078048466986,0.0351864892634,-0.0176001446003,0.574063540674,0.818796215516,0.00213439146491,0.0,0.818754726861,-0.574003445778,-0.0118948887766,0.0,-0.00851450578943,0.00857613018499,-0.999926973925,0.0,0.659471879708,0.257938253915,0.303432164762,1.0,-0.00958,-0.0125908571429,0.48
0.463296103,0.534550622365,-0.124060717842,-1.37642461833,0.0783597950031,1.90162262393,0.156642965678,-0.00782506720119,-0.0451395127089,-0.00161021245968,-0.0848757598057,-0.011534469935,0.0347080493383,-0.0138318559684,0.574088152337,0.818779007314,0.00211599397961,0.0,0.81873712991,-0.57402797912,-0.0119221724179,0.0,-0.0085471493085,0.00857698590655,-0.999926688088,0.0,0.659313531098,0.257729868998,0.303420640151,1.0,-0.0099,-0.0130114285714,0.496
0.463163621167,0.533578391801,-0.124060845614,-1.37798607536,0.078266122454,1.90220251198,0.156448408618,-0.00848341204845,-0.0543928156388,0.000227591999899,-0.0836902028705,-0.00230349039227,0.0418738149853,-0.0139242819879,0.574097835588,0.818772241054,0.0021069775105,0.0,0.818730220787,-0.574037672564,-0.0119299181944,0.0,-0.00855856616828,0.00857415145551,-0.999926614743,0.0,0.659130920118,0.257494057462,0.303413444268,1.0,-0.01026,-0.0134845714286,0.514
0.463035858211,0.53268834505,-0.12406156774,-1.37942002049,0.078184378502,1.9027445017,0.156277537264,-0.010844905123,-0.0596318978381,0.000657358567633,-0.0905359310663,-0.0076655351906,0.0282588068697,-0.00743841709017,0.574119611224,0.81875697463,0.00210603967363,0.0,0.818714896896,-0.574059404,-0.0119358778585,0.0,-0.00856375624398,0.00857703274444,-0.999926545596,0.0,0.65896613302,0.257274444223,0.303405535488,1.0,-0.01058,-0.0139051428571,0.53
0.462898744062,0.531719723751,-0.124061650899,-1.38097775203,0.0780999966247,1.90331051934,0.156067475807,-0.00816670815852,-0.0586531392017,-0.000859486618756,-0.0911513952555,-0.00294543330841,0.0321536381966,-0.0131320370288,0.574122266937,0.818755150753,0.00209108190577,0.0,0.818712749808,-0.574061992768,-0.0119586229026,0.0,-0.00859093885375,0.00857787225807,-0.999926305223,0.0,0.658781374965,0.25703661087,0.303395979002,1.0,-0.01092,-0.014352,0.547
0.46276056356,0.530713549423,-0.124066659284,-1.3826164171,0.0779912953203,1.9038900652,0.155861257335,-0.00943999696617,-0.0635650076385,-0.00201231343963,-0.0983284228419,-0.00674948906624,0.0351776603203,-0.017208056246,0.574129955611,0.818749890802,0.00203894137326,0.0,0.818706854094,-0.574069941527,-0.0119806592332,0.0,-0.00863883480835,0.008547915205,-0.999926149112,0.0,0.658583711745,0.256783132431,0.303375453885,1.0,-0.01126,-0.0147988571429,0.564
0.46261250193,0.529684211217,-0.124067108939,-1.38424793833,0.0778873676924,1.90448222918,0.155642683643,-0.0122510706529,-0.0621707393901,-0.000118499099019,-0.0972459325132,-0.00756185496744,0.0390257623509,-0.0125002371342,0.574133169886,0.818747666113,0.00202715875284,0.0,0.818704483367,-0.57407321242,-0.0119859333183,0.0,-0.00864988393029,0.00854133029661,-0.999926109863,0.0,0.65839161685,0.256528601779,0.303375358821,1.0,-0.0116,-0.0152457142857,0.581
0.462477975359,0.52866180452,-0.124069855282,-1.38583410406,0.0778008771467,1.90507987411,0.155432993382,-0.00972570879477,-0.0657923122229,-0.00306465228598,-0.100252687947,-0.00770795894053,0.0323948286239,-0.0132653488312,0.574136415194,0.818745308471,0.0020599770792,0.0,0.818702475373,-0.57407624215,-0.0119779763717,0.0,-0.00862449410699,0.00856366562638,-0.999926138138,0.0,0.65820668472,0.256290138272,0.303392299579,1.0,-0.01192,-0.0156662857143,0.597
0.462341306659,0.527559278138,-0.124073729379,-1.38755093813,0.0776847454987,1.90575168464,0.155189707544,-0.0107032659357,-0.0666559855406,-0.00147932985834,-0.109138358137,-0.00619000343705,0.0375918710298,-0.0157042231503,0.574113702753,0.818761134218,0.00209959676,0.0,0.818718973429,-0.574053523632,-0.0119390725964,0.0,-0.00857013270387,0.00857352994672,-0.999926521005,0.0,0.65801005018,0.256035420925,0.303409636706,1.0,-0.01226,-0.0161131428571,0.614
0.462192838324,0.526389366112,-0.124073677721,-1.38934102592,0.0775657192921,1.90642780249,0.154929417311,-0.00723017766734,-0.0666806259819,0.000294728409415,-0.106659051079,-0.0109636171602,0.0417051078813,-0.0198091382788,0.574086710282,0.818779952527,0.00214133599656,0.0,0.818738425305,-0.574026454426,-0.0119066136595,0.0,-0.00851987709106,0.00858878808903,-0.999926819529,0.0,0.657800633672,0.255767281783,0.303439475609,1.0,-0.0126,-0.01656,0.631
0.462048715073,0.52528766769,-0.124079412998,-1.39106261442,0.0774600682678,1.90704379617,0.154726867016,-0.0103459590065,-0.0664368394751,-0.000447284019605,-0.105839292915,-0.00220774806009,0.0443339249638,-0.0107305500936,0.574107062581,0.818765695681,0.0021361581438,0.0,0.818724086946,-0.574046810987,-0.0119111356397,0.0,-0.00852633864664,0.0085873565532,-0.999926776748,0.0,0.657592413424,0.255503996533,0.303448636164,1.0,-0.01292,-0.0169805714286,0.647
0.461892124142,0.524119051999,-0.124085474484,-1.39293974765,0.0773423735553,1.90771120992,0.154448207874,-0.0108772687883,-0.0633230394739,-0.000684206304316,-0.116425362559,-0.00770538342297,0.0424525062122,-0.0188573277905,0.574080438904,0.81878446229,0.00209782777286,0.0,0.818742341961,-0.574020334735,-0.011932296202,0.0,-0.00856594785033,0.00856784322212,-0.999926605607,0.0,0.657363033439,0.255216323662,0.303435027028,1.0,-0.01326,-0.0174274285714,0.664
0.461732753079,0.522901365205,-0.124085468922,-1.39487498838,0.0772291484315,1.90844654404,0.154197350325,-0.008145648371,-0.07412793532,-0.00107717850661,-0.115354056577,-0.00903709274034,0.0477538900607,-0.0217388244033,0.574078964522,0.818785456001,0.00211339434572,0.0,0.818743495425,-0.574018753617,-0.0119292119043,0.0,-0.00855450192121,0.00857880265992,-0.999926609628,0.0,0.657133307136,0.254929431312,0.303433648047,1.0,-0.0136,-0.0178742857143,0.681
0.461569770107,0.521674992277,-0.124087395671,-1.39683084934,0.0771127127214,1.90921124364,0.153934229469,-0.00535766024478,-0.0756337726357,-0.00110026320316,-0.118005453369,-0.00307282499569,0.0395747346342,-0.0166126010045,0.574071891222,0.818790342731,0.00214132201538,0.0,0.818748758696,-0.574011580192,-0.0119131373286,0.0,-0.00852538230259,0.00859236744839,-0.999926741856,0.0,0.656905702689,0.254638204744,0.303430837175,1.0,-0.01394,-0.0183211428571,0.698
0.461406351953,0.520410942078,-0.124092796366,-1.39887042205,0.0769833465222,1.90995949911,0.153659565423,-0.00726749020827,-0.0801631246809,0.00105828684092,-0.122777898242,-0.00396673725087,0.0399075137364,-0.0131985678591,0.574058533066,0.818799782892,0.00211259346165,0.0,0.818757849526,-0.57399836574,-0.0119250521686,0.0,-0.00855176958027,0.00857554554009,-0.999926660939,0.0,0.656656966524,0.254332114525,0.303412983015,1.0,-0.01428,-0.018768,0.715
0.46124729839,0.519162443867,-0.12409288983,-1.40080070604,0.0768586138017,1.91065399096,0.153401066022,-0.0106507539523,-0.0798933828209,0.000808201575648,-0.116809665285,-0.00587961714136,0.0443049177027,-0.0160872714139,0.574045996318,0.818808552644,0.00212017233749,0.0,0.818766726161,-0.573985807798,-0.0119200452811,0.0,-0.00854345068016,0.00857874600065,-0.999926704598,0.0,0.656419646311,0.254041916278,0.303430977639,1.0,-0.0146,-0.0191885714286,0.731
0.461071252749,0.51780184383,-0.124099537997,-1.40292023631,0.0767220960007,1.91141187741,0.153111944387,-0.0130335412983,-0.0835647886557,-0.00193853231007,-0.123466442638,-0.0068811580924,0.0367146772261,-0.0196980995828,0.574033497042,0.818817330173,0.00211447015614,0.0,0.818775455526,-0.573973359551,-0.0119198512747,0.0,-0.00854669580799,0.00857383524962,-0.999926718985,0.0,0.656158920032,0.253718208016,0.303442915251,1.0,-0.01494,-0.0196354285714,0.748
0.460892200607,0.5164790691,-0.124104711556,-1.4050411718,0.0765740663185,1.91220161164,0.15282619151,-0.0124615785299,-0.0778831453913,0.000119850370125,-0.125845843496,-0.0111713477761,0.0423020864683,-0.013332300911,0.57402199374,0.818825446861,0.00209408160212,0.0,0.81878346601,-0.57396210049,-0.0119117543248,0.0,-0.00855188873327,0.00855237301841,-0.999926858383,0.0,0.65590349917,0.253393068681,0.30342997994,1.0,-0.01528,-0.0200822857143,0.765
0.460704112237,0.515108211948,-0.124103597041,-1.40723354651,0.0764534244722,1.91302843941,0.152523046454,-0.0162589992562,-0.0763856023332,0.00460492267951,-0.134145439591,-0.00617274849971,0.040580843535,-0.0178068759523,0.574010355273,0.818833579861,0.00210414647284,0.0,0.818791587725,-0.573950279874,-0.0119230450641,0.0,-0.00855547893517,0.00856697370528,-0.999926702685,0.0,0.655638388002,0.253064759581,0.303419429351,1.0,-0.01562,-0.0205291428571,0.782
0.460517228796,0.513689621853,-0.124107511241,-1.40950527424,0.0763157087741,1.91381319184,0.152216881646,-0.0105228064214,-0.0855715506578,0.000776864910696,-0.133321461189,-0.00605571536678,0.0496035172075,-0.0162304769357,0.573997450096,0.818842772162,0.00204662194554,0.0,0.818799913192,-0.573937497267,-0.0119665487187,0.0,-0.00862425489241,0.00854470683444,-0.999926302391,0.0,0.655348159983,0.252720068429,0.30340061768,1.0,-0.01596,-0.020976,0.799
0.460331258395,0.512384247018,-0.124120572344,-1.41164425129,0.0761838704431,1.91456695223,0.15191608339,-0.010249919322,-0.0859902496466,-0.00216524433578,-0.134831058834,-0.00755992860124,0.0446985193329,-0.0143688259865,0.573989132792,0.818848779137,0.00197465044975,0.0,0.818804949525,-0.573929453031,-0.0120076840797,0.0,-0.0086993348855,0.00850929756392,-0.999925953972,0.0,0.655081010866,0.252383798364,0.30336288522,1.0,-0.01628,-0.0213965714286,0.815
0.460132492586,0.510937035999,-0.124116034667,-1.41394533418,0.0760473874222,1.91543627142,0.151580590907,-0.0151144561019,-0.0798988555358,0.00137207807678,-0.135568264365,-0.00099769511644,0.050975833716,-0.02421068383,0.573957587983,0.818870854216,0.00198952594779,0.0,0.818827137367,-0.573897769182,-0.0120090191701,0.0,-0.00869221863508,0.00852190958661,-0.999925908451,0.0,0.654800732204,0.252039131567,0.303356337887,1.0,-0.01662,-0.0218434285714,0.832
0.459927930896,0.509437070881,-0.124119478068,-1.41631046399,0.0758918860019,1.91632337921,0.151262026723,-0.0104607804008,-0.0904267841493,0.00247674867534,-0.137564244813,-0.00714308210595,0.0483590368583,-0.0123103548808,0.573947916455,0.818877607452,0.00200002798356,0.0,0.818834115173,-0.573888140241,-0.0119933823697,0.0,-0.00867348691171,0.00852143203053,-0.999926075178,0.0,0.654513465679,0.251677351313,0.303357498497,1.0,-0.01696,-0.0222902857143,0.849
0.459730567133,0.508026316457,-0.124131175371,-1.41854372577,0.0757480556648,1.91712135568,0.150946495061,-0.0121301650767,-0.0913833491437,-0.00129003152562,-0.140525826321,-0.0147054824714,0.0549148943314,-0.0202889568757,0.573936404747,0.818885741343,0.00197302613977,0.0,0.818841929637,-0.573876776719,-0.0120035958274,0.0,-0.00869746703966,0.00850506091352,-0.999926006265,0.0,0.654236041226,0.251325894556,0.303351060387,1.0,-0.01728,-0.0227108571429,0.865
0.459505774981,0.506380684337,-0.124134444155,-1.42111326149,0.0755893268466,1.91806613769,0.150586604729,-0.00785812344393,-0.097486563628,-5.52950974075e-05,-0.1479995865,-0.0142235812141,0.0605729404531,-0.0240754269255,0.57391819065,0.81889846749,0.00198929243478,0.0,0.818854837389,-0.573858465804,-0.0119984753485,0.0,-0.00868412796685,0.00851524894071,-0.999926035493,0.0,0.653918458298,0.250932206391,0.303360756855,1.0,-0.01764,-0.023184,0.883
0.459293442909,0.504869716228,-0.124139051079,-1.42341989046,0.0754485236354,1.91896426472,0.150277000928,-0.0126519525351,-0.100647473535,0.00122228181611,-0.147814976455,-0.0162526402159,0.0600807219895,-0.0213150499005,0.573923049607,0.818894851487,0.00207418396863,0.0,0.818852375585,-0.573863015159,-0.0119487962847,0.0,-0.00859467576691,0.00855630480834,-0.999926457894,0.0,0.653646228712,0.250575043081,0.303396831155,1.0,-0.01796,-0.0236045714286,0.899
0.459074350377,0.503201692979,-0.124149610084,-1.42590761824,0.0752928835021,1.91990002719,0.149932023106,-0.0114792418815,-0.0998480232161,-0.00216301587875,-0.152206741735,-0.0115740864212,0.0599287963756,-0.0181308762013,0.573913306354,0.818901432235,0.0021697868078,0.0,0.818860268125,-0.573852949953,-0.0118911739072,0.0,-0.00849272429438,0.0086014207447,-0.999926941929,0.0,0.653345002925,0.250190854263,0.303459229402,1.0,-0.0183,-0.0240514285714,0.916
0.458840343659,0.501500816614,-0.124155808303,-1.4284305015,0.0751269497508,1.92081105026,0.149585778714,-0.0119835779411,-0.102886862356,-9.62125564597e-05,-0.153389934019,-0.00917287743158,0.0529560013664,-0.018638032267,0.573909772358,0.818903717408,0.00224091697405,0.0,0.818863541455,-0.573849197474,-0.0118467689832,0.0,-0.00841557677836,0.00863414793389,-0.999927312137,0.0,0.653033429916,0.249792572655,0.303524857139,1.0,-0.01864,-0.0244982857143,0.933
0.458603975676,0.499790772895,-0.124156081655,-1.43102256396,0.074961913612,1.92172795111,0.149210973778,-0.0160382489727,-0.100217359508,-0.00146155799388,-0.154090481721,-0.0123880298399,0.058539275951,-0.0228291534755,0.573883838467,0.818921810531,0.00227048119007,0.0,0.818881967722,-0.573823098206,-0.0118373056816,0.0,-0.00839113480504,0.00865266111682,-0.999927357518,0.0,0.652704659834,0.249388811563,0.303563674923,1.0,-0.01898,-0.0249451428571,0.95
0.458348315496,0.498120683308,-0.12415219483,-1.43364766411,0.0747983067957,1.92271596848,0.148830603545,-0.01163716869,-0.0954724682991,0.000246349544706,-0.155388306375,-0.00432296197505,0.0622856923045,-0.0274305156885,0.573868296205,0.818932627893,0.0022970599488,0.0,0.81889310326,-0.573807426121,-0.0118266673973,0.0,-0.00836733485111,0.0086681629079,-0.999927422696,0.0,0.652383705576,0.248975524513,0.303564410495,1.0,-0.01932,-0.025392,0.967
0.458106147104,0.496549095948,-0.124154325421,-1.43614974893,0.0746427942726,1.92360976345,0.148458753357,-0.014060072053,-0.100386724986,-4.98591345523e-05,-0.15639754024,-0.0148055759189,0.056221631352,-0.021305373673,0.573848187014,0.818946807821,0.00226519782106,0.0,0.818906786685,-0.57378735896,-0.0118527768515,0.0,-0.00840721375599,0.00865684704729,-0.999927186227,0.0,0.65206744818,0.248575934126,0.303546475494,1.0,-0.01964,-0.0258125714286,0.983
0.457835133012,0.494873336795,-0.124159666043,-1.43890462873,0.0744680898901,1.92455412088,0.148066196545,-0.0210307592385,-0.101382587915,-0.00771997194525,-0.165888337294,-0.010762740586,0.0576713342036,-0.0247610385364,0.573843897795,0.818950130155,0.00214759934919,0.0,0.81890845786,-0.573783418399,-0.0119278379227,0.0,-0.00853621187189,0.00860356992238,-0.999926553139,0.0,0.651710503157,0.248127622783,0.303484798439,1.0,-0.01998,-0.0262594285714,1.0
0.457507456913,0.492589987834,-0.124222906429,-1.44236173902,0.0742653510951,1.92580967055,0.147586540859,-0.0192794941038,-0.158239154777,-0.00373558391417,-0.227454477631,-0.0136950269593,0.0867930991423,-0.0267816286076,0.573883841074,0.8189219711,0.00221113182134,0.0,0.818881232778,-0.573823208549,-0.0118827116289,0.0,-0.00846237779987,0.00863011670012,-0.999926951956,0.0,0.651288302951,0.247549794066,0.303539574088,1.0,-0.0340074285714,-0.044695477551,1.018
0.457149112317,0.489558771188,-0.124272608589,-1.44709796075,0.0740202815646,1.92764793481,0.146856720723,-0.0276719670639,-0.210133036137,-0.00204988376148,-0.333170030672,-0.0230856817476,0.121035145892,-0.048009999493,0.57378745147,0.818989164433,0.0023358032957,0.0,0.818949878435,-0.57372616586,-0.0118376568399,0.0,-0.00835496207406,0.00870537238003,-0.999927202901,0.0,0.650695232432,0.246850748642,0.303554643324,1.0,-0.0472097142857,-0.0620470530612,1.034
0.456516959602,0.485171573365,-0.12433710628,-1.45399982611,0.0736394182008,1.93029104126,0.145818137796,-0.0406326077808,-0.283701886364,-0.00380775020104,-0.44289977064,-0.0296977530594,0.170280051859,-0.0705705738091,0.573742060466,0.819020625873,0.00245139718364,0.0,0.818982705872,-0.573680194992,-0.0117944163779,0.0,-0.00825371117883,0.00877477359485,-0.999927437167,0.0,0.649842756392,0.245759251551,0.303548628233,1.0,-0.0612371428571,-0.0804831020408,1.051
0.455727234729,0.479973175708,-0.124488607061,-1.46232148807,0.0731420881633,1.93316602497,0.144548189158,-0.0558900799369,-0.351564513007,-0.0143000866126,-0.564601560839,-0.0317314619607,0.188655193434,-0.0821813187456,0.573731613879,0.819028591731,0.00222442451641,0.0,0.818987672254,-0.573670585799,-0.0119163159759,0.0,-0.00848387991791,0.00865871016013,-0.99992652256,0.0,0.648764131575,0.244355568189,0.303447530312,1.0,-0.0744394285714,-0.097834677551,1.067
0.454667976814,0.473222814012,-0.124652978351,-1.4729060589,0.0725113385318,1.93685922999,0.143018408237,-0.0668904561584,-0.422272497537,-0.0101090519442,-0.666110906258,-0.0386013342914,0.228536675388,-0.0963879691532,0.573806660669,0.818976357788,0.00209486467547,0.0,0.818933603619,-0.573746008726,-0.0120007181484,0.0,-0.00862655028145,0.00860181269567,-0.999925792971,0.0,0.647392438182,0.242557821917,0.303407457004,1.0,-0.0884668571429,-0.116270726531,1.084
0.453422792033,0.465334577175,-0.124784709167,-1.4848840483,0.0718045649739,1.94134029268,0.141111089536,-0.0757532606575,-0.484229366417,-0.00617920960429,-0.739945679019,-0.0439305299759,0.274865049209,-0.128525157251,0.573740525709,0.819021769546,0.00242838827552,0.0,0.818983380372,-0.573678567335,-0.0118267052158,0.0,-0.00829337440008,0.0087744386418,-0.999927111927,0.0,0.645882283339,0.240552194162,0.303544795137,1.0,-0.102494285714,-0.13470677551,1.101
0.451904936026,0.456462419173,-0.124891824274,-1.49877438205,0.070928842463,1.94619072745,0.138983509733,-0.0906197066951,-0.544845065315,-0.0114612576756,-0.83922645571,-0.0535726491682,0.296906020519,-0.130399141321,0.573728795546,0.819030417243,0.00227852852291,0.0,0.818989690381,-0.57366702453,-0.0119490132807,0.0,-0.00847965191445,0.00872175228775,-0.999926010533,0.0,0.644032966424,0.23817551557,0.30346577985,1.0,-0.116521714286,-0.15314282449,1.118
0.450132203517,0.44627803657,-0.125069117682,-1.51411247533,0.0698658076346,1.95165116631,0.136554925299,-0.108664488982,-0.621840406039,-0.0092651503246,-0.926258416466,-0.0638240310559,0.330510492781,-0.143869938105,0.573727865585,0.819030501099,0.00247415063946,0.0,0.818993167845,-0.573666227405,-0.0117472320059,0.0,-0.00820216256996,0.00876619559161,-0.999927936575,0.0,0.642022859538,0.23545745159,0.303631336353,1.0,-0.130549142857,-0.171578873469,1.135
0.448257994279,0.43591812432,-0.125186856437,-1.53008871418,0.0688395114651,1.95710528474,0.134027487477,-0.123244490288,-0.671127472383,-0.00854522679418,-1.01675488836,-0.0633638894136,0.348720517484,-0.167740382179,0.573707768358,0.819044975267,0.00233921257341,0.0,0.819005239377,-0.573645964882,-0.0118941897365,0.0,-0.00840015821391,0.00873978467174,-0.999926524054,0.0,0.63981865956,0.232650721485,0.30358699124,1.0,-0.143751428571,-0.18893044898,1.151
0.44598853597,0.423765084158,-0.125333445945,-1.54829095943,0.0675899140799,1.96349233197,0.131008336413,-0.134687175338,-0.721655992962,-0.00748094443938,-1.09510137564,-0.075056086098,0.374559347984,-0.184169627636,0.573641907654,0.819090355141,0.00258820365044,0.0,0.819054136817,-0.573579468211,-0.0117329242051,0.0,-0.00812594103013,0.00885054633066,-0.999927815851,0.0,0.637333389815,0.229373992116,0.30375601665,1.0,-0.157778857143,-0.207366497959,1.168
0.443433038292,0.410685978675,-0.125509087513,-1.5678136724,0.0662034352126,1.97040045217,0.127759822166,-0.150995932812,-0.777476120896,-0.00773777023373,-1.18467658119,-0.0711913783326,0.412787591124,-0.191951917147,0.573633672873,0.819095018441,0.00291667822049,0.0,0.819063769025,-0.573570926355,-0.0114752608686,0.0,-0.00772655594416,0.00897171422887,-0.999929901882,0.0,0.634648002718,0.225783022912,0.303932425386,1.0,-0.171806285714,-0.225802546939,1.185
0.440707721292,0.397559663926,-0.125665678654,-1.58739073806,0.0649110387191,1.97707103088,0.124433796153,-0.178561454595,-0.859978716783,-0.0144992434225,-1.23898099382,-0.0883207056712,0.437569373771,-0.220811831758,0.573689182897,0.819055396257,0.00311868428285,0.0,0.819026096901,-0.573625025329,-0.0114599220005,0.0,-0.00759750187988,0.00912889286364,-0.999929468153,0.0,0.631861928392,0.222106510503,0.304051480269,1.0,-0.185008571429,-0.243154122449,1.201
0.437518541742,0.382886030442,-0.12582051024,-1.6094401617,0.0632751395823,1.98445195487,0.12056493642,-0.19243835964,-0.893743738994,-0.0123223721587,-1.31128809828,-0.0929407574021,0.424870550488,-0.242722583561,0.57363809713,0.819091396054,0.00306028312487,0.0,0.819061473217,-0.573574281719,-0.0114714141674,0.0,-0.00764098406248,0.00908717515537,-0.999929516821,0.0,0.628640927281,0.217888900574,0.304048918684,1.0,-0.199036,-0.261590171429,1.218
0.433994651732,0.367293631266,-0.125989517392,-1.63267400138,0.0615142107662,1.99216750363,0.11641115545,-0.217432738627,-0.911015770016,-0.00820168656176,-1.37810610169,-0.0979408583074,0.440331821788,-0.237244533679,0.573616054095,0.81910681225,0.00306586231965,0.0,0.819077115799,-0.573552408124,-0.0114481618678,0.0,-0.00761898134628,0.00907820188701,-0.99992976622,0.0,0.624973287579,0.213082405481,0.304078542479,1.0,-0.213888571429,-0.281110693878,1.236
0.430022718942,0.350891586947,-0.126202740174,-1.65702280469,0.0596409137835,2.00015427244,0.111932525012,-0.248211400523,-0.970821090755,-0.0162013618512,-1.46390538065,-0.11252196088,0.477110607941,-0.271609665463,0.573665912262,0.819072086791,0.0030140752792,0.0,0.819041942114,-0.573602679841,-0.0114459441957,0.0,-0.00764631895564,0.00903497604039,-0.999929949054,0.0,0.621494115694,0.208443319336,0.304055701293,1.0,-0.227090857143,-0.298462269388,1.252
0.425679951297,0.333640435695,-0.126419201508,-1.68226490228,0.0577106152611,2.00833694223,0.107120674368,-0.265528179378,-1.0150385655,-0.00774918491848,-1.51829443043,-0.127965842049,0.490820662009,-0.289290081546,0.573724641082,0.819030497913,0.00313474146209,0.0,0.819001701973,-0.573660787231,-0.0114131617498,0.0,-0.00754959464893,0.00911554622375,-0.999929952766,0.0,0.617588186146,0.203250643103,0.30412128515,1.0,-0.241118285714,-0.316898318367,1.269
0.421026062689,0.315621161453,-0.126588564132,-1.70847951758,0.0555713138976,2.01662694575,0.1019826073,-0.288874314639,-1.07609080567,-0.0171233380393,-1.56387675495,-0.14433397082,0.496931636659,-0.310798929406,0.573640944887,0.819089107524,0.00313802266205,0.0,0.819060413833,-0.573577164482,-0.0114027092098,0.0,-0.00754008193937,0.00911146644955,-0.999930061726,0.0,0.613389534238,0.197821008835,0.3041547075,1.0,-0.255145714286,-0.335334367347,1.286
0.416266071086,0.298067157131,-0.126746929451,-1.73387144004,0.0534728238636,2.02452703338,0.0967360947774,-0.31089454849,-1.1048458988,-0.0098052872011,-1.60745222854,-0.136953287054,0.49329338173,-0.322507705311,0.573475381378,0.819205058381,0.00313148167359,0.0,0.819176084393,-0.573411405502,-0.0114302100052,0.0,-0.00756820425828,0.00912035453279,-0.999929768243,0.0,0.609225337917,0.192452983005,0.304158494604,1.0,-0.268348,-0.352685942857,1.302
0.410692081097,0.278631166292,-0.126978305653,-1.76162734009,0.0511905878325,2.03297517415,0.0908958480267,-0.33911865498,-1.15713941437,-0.0127801477868,-1.67095632406,-0.137526562956,0.491387691112,-0.350991601973,0.573497690356,0.819189139269,0.00320938648377,0.0,0.819160561603,-0.573432737453,-0.0114724379432,0.0,-0.00755787479958,0.00920859679165,-0.999929037619,0.0,0.604582865888,0.186384184206,0.30421027283,1.0,-0.282375428571,-0.371121991837,1.319
0.404188239875,0.257363206063,-0.127284902713,-1.79167313774,0.0485512315387,2.04196477091,0.0842605179919,-0.378987902769,-1.179971501,-0.024173351531,-1.69989598731,-0.149857330394,0.488148889002,-0.375666221758,0.573556345808,0.819147743733,0.00329226695623,0.0,0.819120461362,-0.573491415559,-0.0114023225321,0.0,-0.00745224341712,0.00923681551066,-0.999929570173,0.0,0.599467001321,0.17955257211,0.304281568895,1.0,-0.297228,-0.390642514286,1.337
0.397928986361,0.237820076818,-0.127563466787,-1.81901585114,0.0460828457311,2.04994179751,0.077998244402,-0.401200234155,-1.21670005407,-0.0167831532133,-1.68727739458,-0.156229236538,0.48810021472,-0.409878481108,0.57360980873,0.819110036413,0.00335894000943,0.0,0.81908371494,-0.573544806456,-0.0113564874908,0.0,-0.00737585229256,0.00926562407063,-0.999929870048,0.0,0.594683191106,0.173198216974,0.30433785172,1.0,-0.310430285714,-0.407994089796,1.353
0.391315198155,0.217731479307,-0.127761228605,-1.8468632583,0.0435576148601,2.05792724968,0.0713104359145,-0.426915822685,-1.26185226444,-0.0140846029379,-1.72847204211,-0.153995942257,0.491367098448,-0.43921952223,0.573464017024,0.819211492281,0.0035069922097,0.0,0.819186667396,-0.573398097674,-0.0113389790511,0.0,-0.00727825941688,0.00937555824503,-0.999929560443,0.0,0.589662445452,0.166717486029,0.304386284962,1.0,-0.323632571429,-0.425345665306,1.369
0.383668443555,0.195752616654,-0.128034734512,-1.87705558502,0.0406583654746,2.06623371697,0.0638054472642,-0.466466605289,-1.29649119605,-0.0122675613353,-1.76355750614,-0.162477769439,0.503065026452,-0.447346178651,0.573390820654,0.819262764068,0.00349815713889,0.0,0.819237725227,-0.573324806828,-0.0113561587626,0.0,-0.0072982382648,0.00937752003561,-0.999929396426,0.0,0.58407209939,0.159448576376,0.304401734706,1.0,-0.33766,-0.443781714286,1.386
0.375278024652,0.173058687807,-0.128502748393,-1.90777478943,0.0377044723952,2.07444747744,0.0557374543951,-0.503266371121,-1.33869377099,-0.0272723233913,-1.82885351134,-0.169211667346,0.502424771221,-0.490991855831,0.573525853983,0.819167789867,0.00360191031003,0.0,0.819143755374,-0.573459102926,-0.0113539510189,0.0,-0.00723538201073,0.00946244897355,-0.999929053137,0.0,0.578279693429,0.151708936495,0.304456572703,1.0,-0.351687428571,-0.462217763265,1.403
0.366303839656,0.149858644839,-0.128856108536,-1.93888686833,0.0344634631145,2.08239741382,0.047204352504,-0.534271370721,-1.37410957418,-0.0141099013282,-1.8508897694,-0.202281763069,0.472067603056,-0.518542065768,0.573467758966,0.819208830663,0.00351682984392,0.0,0.819183851393,-0.573401449557,-0.0113728696983,0.0,-0.00730034051067,0.00940308535367,-0.999929140997,0.0,0.572204001208,0.143762041896,0.304454706611,1.0,-0.365714857143,-0.480653812245,1.42
0.356645716086,0.126058317159,-0.12927876767,-1.97032563166,0.0311514378096,2.09011275797,0.0381123992251,-0.58260662466,-1.41125543602,-0.0246385157972,-1.87165542231,-0.198840211968,0.458170315477,-0.554138742916,0.573449617893,0.819221582978,0.00350437196842,0.0,0.819196180006,-0.573383008227,-0.0114145276598,0.0,-0.00734182143002,0.00941660595363,-0.999928710054,0.0,0.565895675005,0.135505160285,0.304474083511,1.0,-0.379742285714,-0.499089861224,1.437
0.346074984236,0.101708626597,-0.12982741987,-2.00190473403,0.0276495331362,2.09752791808,0.028438422696,-0.640013122897,-1.426860562,-0.0283907083024,-1.85184267762,-0.205841277649,0.413502259381,-0.588802426791,0.573630118762,0.819095034425,0.00354377343079,0.0,0.819070493331,-0.573563829862,-0.0113493140667,0.0,-0.00726372638432,0.00941308985934,-0.999929313511,0.0,0.559424022156,0.126798822653,0.304550663465,1.0,-0.393769714286,-0.517525910204,1.454
0.33562278223,0.078279030899,-0.13023304019,-2.03184724469,0.024363220796,2.10420787822,0.0186857221418,-0.668940700968,-1.47203784331,-0.0249106091216,-1.84619220288,-0.188840491062,0.394140389658,-0.614079416233,0.573505787574,0.81918151863,0.00367396990801,0.0,0.819157849491,-0.573438098147,-0.0113978994353,0.0,-0.00723029345748,0.00954650638111,-0.999928290965,0.0,0.553058245285,0.118545591156,0.304621533279,1.0,-0.39998,-0.525688,1.47
0.323729515364,0.0536100966314,-0.130745432399,-2.06317620718,0.0206042358693,2.11092196536,0.00801219035266,-0.718405679577,-1.48358734213,-0.0393410101833,-1.83600641554,-0.216020327543,0.390838902554,-0.640615194457,0.573614691544,0.819105653241,0.00358627577925,0.0,0.819081281974,-0.573547795311,-0.011380989178,0.0,-0.00726547189144,0.00946593620818,-0.99992880195,0.0,0.546259037294,0.109489068985,0.304581144502,1.0,-0.39998,-0.525688,1.487
0.311337954769,0.0291003266898,-0.13115459898,-2.09360735322,0.0169507306249,2.11689377715,-0.0029279276247,-0.737052234054,-1.46846213237,-0.0227073474066,-1.79819138319,-0.224584619889,0.354609812109,-0.659225416608,0.573765207572,0.819000188935,0.00359499736071,0.0,0.818975320998,-0.573697473022,-0.0114621091318,0.0,-0.00732516967543,0.00952095685064,-0.999927844032,0.0,0.539416825594,0.100490770587,0.30461620085,1.0,-0.39998,-0.525688,1.504
0.298426183186,0.00500730083772,-0.131610535407,-2.12294985702,0.0132011092519,2.12236066298,-0.0143240209837,-0.772209398549,-1.43174682546,-0.0365045770133,-1.72369293144,-0.219041175116,0.309370230284,-0.672253133681,0.573864542096,0.818930255085,0.00367035854223,0.0,0.818906872088,-0.573797253129,-0.0113575547628,0.0,-0.00719514209826,0.00952356315462,-0.9999287633,0.0,0.532666621781,0.0914542146816,0.304697560294,1.0,-0.39998,-0.525688,1.521
0.285909591953,-0.0173863756512,-0.131941997307,-2.14982445745,0.00981400448501,2.12705629761,-0.0253850811298,-0.787858599433,-1.38014035513,-0.0129482742439,-1.67282454956,-0.215696164054,0.273680502979,-0.700054372005,0.573878751547,0.818919505604,0.00384301501897,0.0,0.818897961606,-0.57381047551,-0.0113319712645,0.0,-0.00707494624467,0.00965040048742,-0.99992840489,0.0,0.526294013841,0.0830677257903,0.304761069052,1.0,-0.39998,-0.525688,1.537
0.272057110895,-0.0408923511242,-0.132416118399,-2.17763419375,0.00609125722518,2.13144568593,-0.0374808054454,-0.82686214997,-1.36999129805,-0.032277237763,-1.6446691673,-0.200179038203,0.236679334612,-0.717997975153,0.574026818075,0.818815632487,0.00386251559162,0.0,0.818794300908,-0.573958416335,-0.0113303142338,0.0,-0.00706065102303,0.00966669609487,-0.99992834853,0.0,0.519504884797,0.0740393715218,0.304795074336,1.0,-0.39998,-0.525688,1.554
0.257768030073,-0.0641070567088,-0.13283662878,-2.20471375941,0.00243468164516,2.13533933995,-0.0500312115869,-0.841007103863,-1.3542975467,-0.0249692585332,-1.60246011591,-0.210701978119,0.219853623856,-0.738683034157,0.574047407466,0.818801283216,0.00384440963093,0.0,0.818778947625,-0.573978002689,-0.0114470195196,0.0,-0.00716636568491,0.00971904067195,-0.999927089068,0.0,0.512266657036,0.0645596955726,0.304772783022,1.0,-0.39998,-0.525688,1.572
0.24292075021,-0.0869578046842,-0.13332071749,-2.23094985271,-0.0012476325834,2.13869312683,-0.0630693920879,-0.892733303248,-1.33564797618,-0.0345188135913,-1.55567652373,-0.214284201054,0.190188322302,-0.772902375094,0.574122382489,0.81874859579,0.0038695889254,0.0,0.818726236019,-0.574052420521,-0.011485462521,0.0,-0.00718249770734,0.00976238303849,-0.999926551105,0.0,0.505874505684,0.0560863787988,0.304780331267,1.0,-0.39998,-0.525688,1.588
0.22775257764,-0.109485437604,-0.133635662461,-2.25638245472,-0.00490796095677,2.14150088457,-0.0764611104328,-0.89973337967,-1.29159116347,-0.0216647281517,-1.49787903882,-0.217373294633,0.149577014498,-0.794887606415,0.573956119473,0.818865449659,0.00380725288766,0.0,0.81884159503,-0.573885439774,-0.0116056522929,0.0,-0.00731868159293,0.00977886045455,-0.999925402612,0.0,0.499042512018,0.0472801560967,0.304757016394,1.0,-0.39998,-0.525688,1.605
0.211918954799,-0.131714196075,-0.134070218299,-2.28102917316,-0.00857472487224,2.143866264,-0.0903551667262,-0.941630705408,-1.29265610604,-0.0147929070928,-1.42717790264,-0.200192039463,0.110785305027,-0.817580398046,0.573953681577,0.818867294038,0.00377797036122,0.0,0.818842604281,-0.57388248799,-0.0116801666975,0.0,-0.00739653787334,0.00979762640163,-0.999924646033,0.0,0.492237383625,0.0383533430075,0.304743391519,1.0,-0.39998,-0.525688,1.622
0.195637173221,-0.153645099476,-0.134482645757,-2.30500988166,-0.0122217741725,2.14585309367,-0.104819020376,-0.971561686884,-1.27619375604,-0.0277813363822,-1.38691062937,-0.216261519485,0.0942154891413,-0.869403771635,0.573782407253,0.818987439835,0.00375092255263,0.0,0.818961935894,-0.573710715674,-0.0117519861647,0.0,-0.00747292847692,0.00981513467844,-0.99992390634,0.0,0.485412366728,0.029490781649,0.304697712392,1.0,-0.39998,-0.525688,1.639
0.17977516439,-0.17397560666,-0.134912865623,-2.32683348804,-0.0156205631379,2.14719711665,-0.118822959527,-0.987492386184,-1.2556875309,-0.0249250660448,-1.36560978779,-0.218352926927,0.0688961418127,-0.891131809489,0.573741543635,0.819016361047,0.00368623735119,0.0,0.818989177038,-0.573668986572,-0.0118898545704,0.0,-0.00762345215315,0.00984088147686,-0.999922517013,0.0,0.478985888374,0.0211205495489,0.304658650649,1.0,-0.39998,-0.525688,1.655
0.162265168947,-0.195411022303,-0.135494392747,-2.34928008658,-0.0192293922541,2.14824108919,-0.134263898437,-1.04370080397,-1.28519896512,-0.0395333508912,-1.30977203637,-0.219534813182,0.0691385653961,-0.921744374816,0.573829089762,0.81895469905,0.00375813083626,0.0,0.818928222084,-0.573755969683,-0.0118912248684,0.0,-0.00758227046345,0.00990136077833,-0.999922233091,0.0,0.472176008044,0.0121227657353,0.304694635666,1.0,-0.39998,-0.525688,1.672
0.144279817281,-0.216365553285,-0.136018522813,-2.37093979109,-0.0227054894721,2.14880692365,-0.150291054277,-1.07934422235,-1.23516256603,-0.0399981237364,-1.24539638308,-0.212378728028,0.0413543407372,-0.940656882654,0.573796314728,0.818977561323,0.00378023203486,0.0,0.818950089264,-0.573721447479,-0.0120498505433,0.0,-0.00769990526443,0.010010173924,-0.999920250758,0.0,0.465356832005,0.00321723632104,0.304676265042,1.0,-0.39998,-0.525688,1.689
0.126791750052,-0.235822161601,-0.136581145969,-2.39073249027,-0.0260791441754,2.14902704878,-0.165766979182,-1.09108500695,-1.19249167654,-0.0302468454037,-1.22850454886,-0.19049626679,-0.00375163242429,-0.981478018473,0.573875420459,0.818922298351,0.00374405619787,0.0,0.818893884065,-0.573800070802,-0.0121256871517,0.0,-0.00778180570385,0.0100248115433,-0.999919470084,0.0,0.458916964416,-0.00521809920639,0.304648983245,1.0,-0.39998,-0.525688,1.705
0.107568138801,-0.256161218634,-0.137245201312,-2.41080183698,-0.0295144239837,2.14903949193,-0.182901463696,-1.14101510851,-1.18299557246,-0.0345140898697,-1.17490217585,-0.207039344616,-0.0112262782564,-1.02758830838,0.574011965025,0.818825230981,0.00403137931601,0.0,0.818801248814,-0.57393643732,-0.0119259280054,0.0,-0.00745163873869,0.0101467191433,-0.999920755446,0.0,0.452182868983,-0.014224474739,0.304750640781,1.0,-0.39998,-0.525688,1.722
0.0878693975336,-0.276094206073,-0.137876307794,-2.4301196129,-0.032935710839,2.14877029172,-0.200584317808,-1.17770594105,-1.16274931682,-0.0469374561505,-1.13026281134,-0.203149446279,-0.0267896387582,-1.04795311331,0.574039811675,0.818804231141,0.00432117810149,0.0,0.818785336863,-0.573965181639,-0.0116313930824,0.0,-0.00704376371031,0.0102151966362,-0.999923014612,0.0,0.445461492138,-0.0231620500245,0.304855265904,1.0,-0.39998,-0.525688,1.739
0.0676265523409,-0.295448254376,-0.13840188326,-2.44868376059,-0.0362297893859,2.14794042721,-0.218951265409,-1.21327809413,-1.13787056535,-0.0309339433821,-1.06309004525,-0.193072106827,-0.0411562492583,-1.0971030742,0.573903629791,0.818899207167,0.00441124884833,0.0,0.818881131592,-0.573828235023,-0.0116445658911,0.0,-0.00700456149468,0.0102953452982,-0.999922467986,0.0,0.438688987806,-0.0320168374241,0.304873909186,1.0,-0.39998,-0.525688,1.756
0.0467134552156,-0.314362098277,-0.139048098479,-2.46658502309,-0.0395602724645,2.14682632691,-0.237851101069,-1.23985558268,-1.100101739,-0.0338223593575,-1.03618815005,-0.185954673706,-0.082724953493,-1.12257807113,0.573936708101,0.818875904323,0.00443343139864,0.0,0.818857836043,-0.573860826744,-0.0116765911506,0.0,-0.0070176416415,0.0103321732545,-0.999921996409,0.0,0.431878870431,-0.0409545333489,0.304855884444,1.0,-0.39998,-0.525688,1.773
0.0252303723714,-0.332777725837,-0.139685363979,-2.48360377027,-0.0427951776238,2.14548437587,-0.25742879237,-1.27727656305,-1.04748904149,-0.0256487334971,-0.994651598428,-0.199004247283,-0.0824722135504,-1.16862376749,0.573907579251,0.818895653152,0.00455484654958,0.0,0.818879573521,-0.57383195149,-0.0115707571021,0.0,-0.0068616583185,0.010370615665,-0.999922680999,0.0,0.425118972132,-0.0498710014441,0.30489137294,1.0,-0.39998,-0.525688,1.79
0.00440952339708,-0.349564178292,-0.140346912121,-2.49900728802,-0.0457863924386,2.14381474868,-0.276470398015,-1.31020025037,-1.03748707247,-0.041712923382,-0.937432024318,-0.182100718966,-0.118063347601,-1.21663038586,0.573928966497,0.818880932082,0.00450637202816,0.0,0.818863059156,-0.573851743143,-0.0117564510823,0.0,-0.00704127974309,0.0104376703615,-0.999920734567,0.0,0.418676685607,-0.0582955691919,0.304838491356,1.0,-0.39998,-0.525688,1.806
-0.0183339122862,-0.366998627071,-0.141062927369,-2.51448068998,-0.0488159383944,2.14195412788,-0.297335024313,-1.36248777259,-1.01406767982,-0.0593793716311,-0.912482349074,-0.182018610343,-0.112270937487,-1.25484604323,0.574019231656,0.818816439468,0.0047230337474,0.0,0.818801745302,-0.573941865339,-0.0116268655276,0.0,-0.00680965294137,0.0105414756483,-0.999921249858,0.0,0.411903265777,-0.0672626635573,0.304914028254,1.0,-0.39998,-0.525688,1.823
-0.0415475060044,-0.383725613824,-0.14170953084,-2.52917457532,-0.0518458600668,2.13980863727,-0.318823881314,-1.38307402534,-0.961359449778,-0.0482170962788,-0.841926641252,-0.186192581496,-0.12599661573,-1.27537469897,0.573931115675,0.818878073107,0.00474581358722,0.0,0.818863672946,-0.573853692265,-0.0116177408997,0.0,-0.00679024136513,0.0105541605416,-0.999921248058,0.0,0.405111839272,-0.0761543646977,0.304933817502,1.0,-0.39998,-0.525688,1.84
-0.0668398924957,-0.400698538741,-0.142440201775,-2.54389891255,-0.0548056549398,2.13746447108,-0.34233510638,-1.42468477006,-0.936295957596,-0.0387440748954,-0.820525056964,-0.167834079665,-0.135944180388,-1.31946884305,0.573952590324,0.818862076395,0.00490620060593,0.0,0.818849245872,-0.573873868429,-0.0116379796098,0.0,-0.00671448910204,0.0106972931655,-0.999920238597,0.0,0.397919750246,-0.0855907142777,0.30493129653,1.0,-0.39998,-0.525688,1.858
-0.0898263717363,-0.415172151845,-0.14305611721,-2.55605760945,-0.0574750157242,2.13517946194,-0.363827672021,-1.4522961766,-0.898252339215,-0.0329288046734,-0.74473044457,-0.167841415268,-0.132492664998,-1.3597347383,0.573873263492,0.818917197988,0.00498469558483,0.0,0.818906209983,-0.573795652208,-0.0114854542698,0.0,-0.00654556539651,0.0106733987898,-0.999921613994,0.0,0.391567932964,-0.0939771017302,0.305012486599,1.0,-0.39998,-0.525688,1.874
-0.114794625371,-0.429733574933,-0.143724509727,-2.56835409388,-0.0601071437397,2.13265193786,-0.387318813748,-1.47381367131,-0.826503550032,-0.0365529979631,-0.717618761339,-0.153437973021,-0.162937733314,-1.38807855996,0.57380881999,0.818962090275,0.00502789178889,0.0,0.818950684736,-0.573729500295,-0.0116182341055,0.0,-0.00663037109996,0.0107844482598,-0.999919863716,0.0,0.384755231781,-0.102856680394,0.304977987845,1.0,-0.39998,-0.525688,1.891
-0.140313277163,-0.443565523864,-0.144380721586,-2.57968810934,-0.062670681774,2.13004261452,-0.411398161465,-1.50398951448,-0.796238245837,-0.033942154687,-0.639409811916,-0.139179185928,-0.150736044949,-1.43389993012,0.573761108784,0.818995093646,0.00509642336838,0.0,0.818984622455,-0.573681662573,-0.0115881452746,0.0,-0.00656703592899,0.0108229278246,-0.999919865925,0.0,0.377980983436,-0.11174872151,0.305022101113,1.0,-0.39998,-0.525688,1.908
-0.166405465783,-0.45647354547,-0.145045050911,-2.59024708352,-0.0651249783159,2.12754409847,-0.436171027734,-1.53673012197,-0.748311196963,-0.0374850368255,-0.612343011098,-0.133021406685,-0.16234985742,-1.47082085238,0.573692750956,0.819042685406,0.00514333410421,0.0,0.819032755585,-0.573613063564,-0.0115821193339,0.0,-0.00653609232955,0.0108573460444,-0.999919695543,0.0,0.371201209652,-0.120657670402,0.305010794286,1.0,-0.397548,-0.522491657143,1.925
-0.191208069264,-0.467533668938,-0.145456588374,-2.59932256235,-0.0671090469837,2.12514878324,-0.459785418092,-1.54678012766,-0.668657755729,-0.024802313494,-0.54793470551,-0.117880914033,-0.144205843351,-1.47568691276,0.57360370312,0.819104982425,0.00515426368929,0.0,0.819093467575,-0.573521151051,-0.0118375493429,0.0,-0.00674024617321,0.011012097874,-0.999916647917,0.0,0.364885731577,-0.128874253742,0.304929483703,1.0,-0.384345714286,-0.505140081633,1.941
-0.217480294503,-0.47819057917,-0.14572555668,-2.60768321993,-0.0689432297268,2.1228458376,-0.484559130092,-1.52597013327,-0.596988444115,-0.0199126323434,-0.47080751811,-0.0941456543232,-0.12858119464,-1.45942555986,0.573757607062,0.818996186297,0.00531056213566,0.0,0.818987337548,-0.57367555469,-0.0116981104974,0.0,-0.00653429401073,0.0110613759962,-0.999917471076,0.0,0.358456600925,-0.137421144667,0.304993433309,1.0,-0.370318285714,-0.486704032653,1.958
-0.241852464869,-0.487137013245,-0.145801518408,-2.6147506926,-0.0703792920517,2.12075863752,-0.507637751595,-1.50933803049,-0.533076219342,-4.74560876563e-05,-0.422036303907,-0.0874637625856,-0.123516765728,-1.44025902802,0.573843442553,0.818935288834,0.00542614435841,0.0,0.818927333104,-0.573759950006,-0.0117596668581,0.0,-0.00651722733601,0.0111920411231,-0.999916128464,0.0,0.352556230035,-0.145144674267,0.304989057583,1.0,-0.357116,-0.469352457143,1.974
-0.267301586026,-0.495466414699,-0.145690656758,-2.62131694516,-0.0716396942226,2.11871156887,-0.531786836348,-1.47746034464,-0.463455623744,0.00497759884708,-0.357853948321,-0.0626876553741,-0.101591077601,-1.42153903996,0.573900129014,0.818894915649,0.00552321852764,0.0,0.818887308399,-0.573814707153,-0.0118745483722,0.0,-0.00655482946645,0.0113379166866,-0.99991423925,0.0,0.346511867086,-0.153039199289,0.304965384019,1.0,-0.343088571429,-0.450916408163,1.991
-0.293497636395,-0.503055418168,-0.1454166312,-2.6271712339,-0.0726651320771,2.11683765975,-0.556705286279,-1.42781984613,-0.392761962387,0.007935886082,-0.298247810861,-0.0461666738195,-0.0970092661604,-1.3606030168,0.573960788856,0.818851246025,0.00569180457406,0.0,0.818845773724,-0.573874635163,-0.0118426716418,0.0,-0.00643112797595,0.0114581598831,-0.999913671856,0.0,0.340442089669,-0.161029490058,0.304987854178,1.0,-0.328236,-0.431395885714,2.009
-0.316139758955,-0.5088033267,-0.145085549801,-2.63149105392,-0.0734680150662,2.11541899283,-0.578343049365,-1.40284514637,-0.33558439368,0.0295987544371,-0.256709672891,-0.0486882811285,-0.0769088408497,-1.35736417712,0.573942107211,0.818863670628,0.00578734806654,0.0,0.818860418153,-0.573857388356,-0.0116644894142,0.0,-0.00623063412972,0.0114339920314,-0.999915217918,0.0,0.335308136294,-0.167870598842,0.305048619484,1.0,-0.315033714286,-0.414044310204,2.025
-0.339511977488,-0.514010549858,-0.144643453691,-2.6354772116,-0.0741208273614,2.11396702644,-0.600701986228,-1.34547329502,-0.285062925052,0.048102508336,-0.225656920442,-0.0387361487678,-0.0993089744323,-1.3115587844,0.57393631833,0.818867286411,0.00584949992342,0.0,0.818864429882,-0.573850629277,-0.0117152744041,0.0,-0.00623663582344,0.0115139905596,-0.999914262522,0.0,0.330014945154,-0.174809432963,0.305051770807,1.0,-0.301006285714,-0.395608261225,2.042
-0.363396951998,-0.518486307919,-0.144071329107,-2.6390867,-0.0746163803235,2.11267692477,-0.623573578143,-1.30187352006,-0.228686643473,0.0492104281614,-0.184441307756,-0.0310242342748,-0.0663223621618,-1.25263360473,0.573930023629,0.81887149098,0.00587844690814,0.0,0.818867502559,-0.573841462518,-0.0119472193506,0.0,-0.00641006416519,0.0116707617211,-0.99991134827,0.0,0.32463783314,-0.18178685707,0.30496642642,1.0,-0.286153714286,-0.376087738776,2.06
-0.383822641312,-0.521696163081,-0.143525358797,-2.64162141509,-0.074883095967,2.11176037258,-0.643099368636,-1.26792447712,-0.186025877971,0.0251722786063,-0.148016280938,-0.0221343886586,-0.0621462083239,-1.21735942434,0.574012359756,0.818813207435,0.00595727115079,0.0,0.818809614859,-0.573922310289,-0.0120309296464,0.0,-0.00643219711005,0.0117840000915,-0.99990987803,0.0,0.320119012122,-0.187716937407,0.304930540625,1.0,-0.272951428572,-0.358736163265,2.076
-0.404593622461,-0.524452036065,-0.142764725402,-2.64372720713,-0.0750787342272,2.11091965899,-0.663119106614,-1.20828094489,-0.148780282369,0.0479927332343,-0.117870879312,-0.00843021338455,-0.0500444135119,-1.15119406581,0.573877502448,0.818907782372,0.00595004670388,0.0,0.81890402682,-0.573787384805,-0.0120407141954,0.0,-0.00644629693342,0.011782639048,-0.999909803269,0.0,0.315588211479,-0.19367341538,0.30493259368,1.0,-0.258924,-0.340300114286,2.093
-0.42341021433,-0.526452384215,-0.142145336366,-2.6452577668,-0.0751833772092,2.11032089089,-0.681215278536,-1.15615238153,-0.111345037258,0.0365487030389,-0.0824825115693,0.00208029367309,-0.032389149852,-1.12785875699,0.57389205686,0.818897318245,0.00598632983792,0.0,0.818894142981,-0.573801982786,-0.0120172394387,0.0,-0.00640604055458,0.0117989958687,-0.999909869109,0.0,0.311503376358,-0.199076559161,0.304934548707,1.0,-0.245721714286,-0.322948538776,2.109
-0.442472267996,-0.528053004484,-0.14140408891,-2.6465320094,-0.0752247468462,2.10979998119,-0.699498530506,-1.09483524026,-0.0817092583738,0.0545123672639,-0.0671303229838,-4.52929489545e-05,-0.0284764149322,-1.06747022838,0.57391188419,0.818883555833,0.00596808792304,0.0,0.818879952669,-0.573821532696,-0.0120506693522,0.0,-0.00644360166928,0.0118033971616,-0.999909575818,0.0,0.307375250814,-0.204490411396,0.304915782282,1.0,-0.231694285714,-0.304512489796,2.126
-0.459486286036,-0.529091503351,-0.140706587212,-2.64736238041,-0.0751929715567,2.10941843161,-0.715831883684,-1.0513148647,-0.0531268049196,0.0310360240938,-0.0430013946124,0.000284851000855,-0.0184583747641,-1.00950023878,0.573965643113,0.818845971195,0.00595507224008,0.0,0.818842055735,-0.57387507455,-0.0120761529578,0.0,-0.00647116626129,0.0118077878304,-0.999909345968,0.0,0.303485953089,-0.209603968208,0.304905061074,1.0,-0.217666857143,-0.286076440816,2.143
-0.476601559564,-0.529834842552,-0.139892489778,-2.64792493444,-0.0750854311732,2.10912629588,-0.732274609774,-0.973580028339,-0.0361326291867,0.0561369626945,-0.0285245817903,0.0119962055542,-0.0174232303534,-0.952277320847,0.573929197893,0.818871855838,0.00590816578674,0.0,0.818867559722,-0.573839253412,-0.0120489741859,0.0,-0.00647635309832,0.0117534896813,-0.999909952111,0.0,0.300053841637,-0.214112655718,0.304916002166,1.0,-0.204464571429,-0.268724865306,2.159
-0.492763865251,-0.530223582954,-0.139077288916,-2.64820307053,-0.0749107933926,2.1089404776,-0.747742490713,-0.916767315474,-0.0158777263204,0.0524588113424,-0.00509466875819,0.0148588437446,-0.00363162393795,-0.892483738234,0.57398061684,0.818836068405,0.00587294400842,0.0,0.818831742327,-0.57389158418,-0.0119905907295,0.0,-0.00644801917436,0.0116915447367,-0.999910861442,0.0,0.29661950086,-0.218637438787,0.304937259367,1.0,-0.190437142857,-0.250288816327,2.176
-0.508532141793,-0.530323785942,-0.138075371898,-2.6482959288,-0.0745466272932,2.10881521131,-0.763007415843,-0.857261266104,-0.0053288293208,0.0554398394027,-0.00364388779519,0.0217899511018,-0.00164567812519,-0.819509850889,0.573835948684,0.8189374739,0.00587066788754,0.0,0.818933213942,-0.573747128102,-0.0119737629568,0.0,-0.00643760829231,0.0116788854015,-0.999911076464,0.0,0.293305107444,-0.222970712599,0.304947607079,1.0,-0.175584571429,-0.230768293878,2.194
-0.521776495844,-0.530220139377,-0.137242380924,-2.64827742766,-0.0742138215318,2.10880255987,-0.775642000336,-0.800833058626,0.0137966252592,0.0632720278878,0.00239507416524,0.0274498009098,0.00102663701883,-0.780793702025,0.573891088375,0.818898798605,0.00587564698501,0.0,0.818894677599,-0.573802371365,-0.0119621284973,0.0,-0.0064244361722,0.0116767197991,-0.999911186473,0.0,0.290508940122,-0.226601322921,0.304939225364,1.0,-0.162382285714,-0.213416718367,2.21
-0.534645002358,-0.529931734433,-0.136264167108,-2.64811460621,-0.0737454688348,2.10881691583,-0.788023657486,-0.743746301266,0.0217713706904,0.0566494132547,0.00911890113988,0.0144225312571,0.00295108280013,-0.707797948811,0.573809163235,0.81895602697,0.00590059132912,0.0,0.818952190596,-0.573720290154,-0.0119618177677,0.0,-0.00641103721729,0.0116963280294,-0.9999110433,0.0,0.287829403042,-0.230073640443,0.304935084845,1.0,-0.148354857143,-0.194980669388,2.227
-0.545947449765,-0.529513317705,-0.1354344939,-2.64789564044,-0.0733122702856,2.10882622508,-0.798741527712,-0.683899794296,0.0321815386418,0.0591736516083,0.017485782162,0.0294692404503,0.00507262877266,-0.646198475532,0.573900443061,0.818891774442,0.00594054767488,0.0,0.818887805264,-0.573810196404,-0.0120568567,0.0,-0.00646463841348,0.0117843043339,-0.999909665231,0.0,0.285452283903,-0.233116765018,0.304904506823,1.0,-0.135152571429,-0.177629093878,2.243
-0.556746761433,-0.528963109413,-0.134438784946,-2.64759559377,-0.072775464268,2.10891842326,-0.809115639281,-0.621018150428,0.0385446624195,0.0519352228463,0.0206248189769,0.0275075135095,0.00217992101248,-0.586824697148,0.573792748556,0.818967024613,0.00597002529316,0.0,0.818963006454,-0.573701609124,-0.0121162968357,0.0,-0.0064979595575,0.0118417011158,-0.999908771157,0.0,0.283233827195,-0.235970649567,0.304873872901,1.0,-0.121125142857,-0.159193044898,2.26
-0.566742832732,-0.528383805928,-0.133600257315,-2.64723697067,-0.0722960180558,2.10900279178,-0.818408385458,-0.569978508328,0.0330612181966,0.0504422546316,0.0259691516329,0.0270764736399,0.00811126347842,-0.522212646608,0.57400212309,0.818819967944,0.00601412380516,0.0,0.818816168771,-0.573910096758,-0.0121667374323,0.0,-0.00651092653492,0.011908424204,-0.999907894393,0.0,0.281155241069,-0.238632663939,0.30485422803,1.0,-0.107097714286,-0.140756995919,2.277
-0.575439980451,-0.52774200924,-0.132646324502,-2.64680215772,-0.0717602622115,2.10915102048,-0.826734391657,-0.483405485683,0.0389728597354,0.0533580034136,0.0239047471443,0.0286715732026,0.0106496454222,-0.460322302475,0.573885796978,0.818901402704,0.00602756820192,0.0,0.818897908727,-0.573793973625,-0.0121423974363,0.0,-0.00648496883861,0.0119045416245,-0.999908109312,0.0,0.279420565381,-0.240906750286,0.304854517295,1.0,-0.0930702857144,-0.122320946939,2.294
-0.583211980976,-0.527156395816,-0.131743279803,-2.64638337096,-0.0712529811277,2.10924965049,-0.833900886191,-0.434555670724,0.0332941285866,0.0472384877298,0.0254215321131,0.0261681163399,0.00469313224854,-0.39906227304,0.57398373673,0.818832706024,0.00603460150517,0.0,0.818829341619,-0.573891931414,-0.012137020346,0.0,-0.00647510476573,0.0119079903341,-0.999908132172,0.0,0.277869016164,-0.242916371781,0.304862215596,1.0,-0.079042857143,-0.103884897959,2.311
-0.589577908122,-0.526623830621,-0.130867055258,-2.64598225238,-0.0707348970683,2.10936525502,-0.839670389345,-0.376812626396,0.0355225069257,0.0563277254691,0.0265623806155,0.026346951564,0.00740612014059,-0.339740832087,0.574096268658,0.81875369665,0.00605024267864,0.0,0.818750845967,-0.574004943225,-0.0120881876978,0.0,-0.00642450284968,0.0118936537533,-0.999908629207,0.0,0.27664250101,-0.244530877022,0.304881802046,1.0,-0.0658405714287,-0.0865333224491,2.327
-0.59523516205,-0.526070374142,-0.129931898574,-2.64559068273,-0.0701816818105,2.10947897122,-0.844867887269,-0.31247914217,0.030047414608,0.0535979043492,0.0201317617554,0.0325732932556,0.00696958970344,-0.28107462441,0.574069532465,0.81877236829,0.00606034010497,0.0,0.818769730138,-0.573978319214,-0.0120733169425,0.0,-0.00640691783181,0.0118931754252,-0.999908747728,0.0,0.275593048018,-0.245923903981,0.304890464304,1.0,-0.0518131428573,-0.0680972734695,2.344
-0.599704921444,-0.52562968471,-0.12890458736,-2.64531408388,-0.0695895244519,2.10955260461,-0.84891073603,-0.244584532447,0.0225418708936,0.0602421521891,0.0103115182543,0.0379849456902,0.00100476956118,-0.219660717166,0.573960923331,0.818848513307,0.00605950875259,0.0,0.818845651423,-0.573869341891,-0.0121047298768,0.0,-0.0064346976514,0.0119096736267,-0.999908372972,0.0,0.274820857488,-0.246929437736,0.304886750705,1.0,-0.0377857142858,-0.04966122449,2.361
-0.603255559619,-0.525321892295,-0.127861578026,-2.64512354758,-0.0690402991001,2.10959665053,-0.851913439373,-0.189897020404,0.0106666984263,0.0518629993041,0.00996037255322,0.0257000144761,0.0027453900545,-0.156448766127,0.573917008403,0.818879624514,0.00601455920836,0.0,0.818876077677,-0.573825449801,-0.0121272202559,0.0,-0.00647955117792,0.0118854254543,-0.999908371841,0.0,0.274250043722,-0.247658470544,0.304890154417,1.0,-0.0237582857144,-0.0312251755104,2.378
-0.605817626179,-0.525043828502,-0.127019385623,-2.64494544964,-0.0685346489504,2.10966494618,-0.853980508719,-0.133554627275,0.0130611230239,0.0386126573636,0.00884075527271,0.0228434132961,0.00247783692264,-0.109818437242,0.573952198642,0.818854902968,0.00602233014637,0.0,0.818851516321,-0.5738607069,-0.0121173510456,0.0,-0.00646649817982,0.0118864032966,-0.999908444718,0.0,0.27387926678,-0.248165962004,0.304895754413,1.0,-0.0197315789474,-0.0259329323308,2.395
-0.60766665864,-0.52486093117,-0.126494251435,-2.64479573269,-0.068227060554,2.10972173928,-0.855592954975,-0.11112614406,0.0152354109326,0.0276458228429,0.0108051320769,0.0135456411352,0.000215223644684,-0.108856745173,0.573913652176,0.818881939638,0.00601960814877,0.0,0.818878842571,-0.573822778743,-0.012066759541,0.0,-0.00642718692648,0.011854836034,-0.999909072932,0.0,0.273595837727,-0.248563024889,0.304914454312,1.0,-0.0194115789474,-0.0255123609023,2.411
-0.609412152896,-0.524679793717,-0.126116842025,-2.64461895209,-0.0680322792589,2.10975344042,-0.857198204423,-0.0953704584831,0.0143630814776,0.0122231011701,0.0127665079649,0.00970114767565,0.00152987690102,-0.102492762528,0.573853828934,0.818924052433,0.00599385236434,0.0,0.818920947559,-0.573763680669,-0.0120194548893,0.0,-0.00640408921059,0.0118061287722,-0.999909797414,0.0,0.273299760112,-0.248979904431,0.304940283861,1.0,-0.0190715789474,-0.0250655037594,2.428
-0.610946240168,-0.524476478326,-0.125900931689,-2.64445298237,-0.0678858145428,2.10983618813,-0.858666043172,-0.0869457206857,0.0170996331251,0.0123102698734,0.00965153456329,0.0120675342269,-3.71728510949e-05,-0.0880082408251,0.573826550549,0.81894309485,0.00600368081892,0.0,0.818940494729,-0.573737064378,-0.0119580079616,0.0,-0.00634851606843,0.0117787065767,-0.9999104752,0.0,0.273023360555,-0.249383888957,0.304953501506,1.0,-0.0187315789474,-0.0246186466165,2.445
-0.61244265137,-0.524308036093,-0.125776029602,-2.64431963728,-0.0678277176762,2.10983271886,-0.86017697854,-0.0943106979246,0.0114596612959,0.00560334025536,0.00619311137553,0.0004437755332,7.74360406643e-05,-0.0883515482025,0.573758160398,0.818991079094,0.0059943841505,0.0,0.818988189608,-0.573668414478,-0.0119850913595,0.0,-0.00637701683149,0.0117861007128,-0.999910206712,0.0,0.272708208299,-0.24978789605,0.304955065015,1.0,-0.0183915789474,-0.0241717894737,2.462
-0.613830476066,-0.524182996356,-0.125707616888,-2.64417357089,-0.0677971966713,2.10983900802,-0.861494833881,-0.083835893707,0.0146266329111,0.0016162400359,0.0101239460456,-0.000209305215617,0.000246887026501,-0.0760478779687,0.573787542418,0.818970559443,0.00598546848662,0.0,0.818967796159,-0.573698274773,-0.0119492794114,0.0,-0.00635237740292,0.0117584799898,-0.999910688737,0.0,0.272411103377,-0.250182653407,0.304977786981,1.0,-0.0180715789474,-0.0237512180451,2.478
-0.615224746895,-0.524025241999,-0.125682983138,-2.64400561017,-0.0677577636964,2.10990499173,-0.862885027632,-0.0846187711529,0.0134298803103,0.000340467509123,0.00777875411077,0.00252591195695,0.00320922654612,-0.089241527028,0.57379886938,0.818962518047,0.0059998694638,0.0,0.818960464028,-0.573710513028,-0.0118639159635,0.0,-0.00627403509777,0.0117213831194,-0.999911618925,0.0,0.272117630113,-0.25060064608,0.305002515957,1.0,-0.0177315789474,-0.0233043609023,2.495
-0.616565517312,-0.523829097811,-0.125685373557,-2.64384807327,-0.0677180339936,2.10995011118,-0.864226335091,-0.0772348935132,0.0101343144811,-0.00034894514244,0.00563526853488,0.000946572554678,0.000829948700714,-0.0747456678663,0.573825363559,0.818943731128,0.00603028048156,0.0,0.818942134715,-0.57373700052,-0.0118482540449,0.0,-0.00624337854348,0.0117375054387,-0.99991162169,0.0,0.271824577045,-0.25100375298,0.305005988589,1.0,-0.0173915789474,-0.0228575037594,2.512
-0.617928471183,-0.523651452187,-0.125685405997,-2.6437249751,-0.0676945887675,2.10994438145,-0.865496898822,-0.0819898254102,0.0102651703163,-0.000203307921598,0.00334258682854,0.00477400307939,-1.34767640493e-05,-0.0749870374482,0.573917673508,0.818878877189,0.00605272088762,0.0,0.81887722865,-0.573828556938,-0.0119003588671,0.0,-0.00627184916729,0.0117864885076,-0.999910867326,0.0,0.271508433426,-0.251398569765,0.304996285916,1.0,-0.0170515789474,-0.0224106466165,2.529
-0.619247188042,-0.52348693543,-0.125677499844,-2.64362658759,-0.0676693971945,2.10995157105,-0.866844235612,-0.0755711767612,0.011377673901,0.000754328598079,0.00605568125308,3.2243040604e-06,-0.000372763405396,-0.0643129574009,0.573904786663,0.818887740535,0.00607545458408,0.0,0.818886044733,-0.573814936596,-0.0119503632806,0.0,-0.00629994069181,0.0118337034988,-0.999910133066,0.0,0.271201222845,-0.251774838384,0.304981454287,1.0,-0.0167115789474,-0.0219637894737,2.546
-0.620506723135,-0.523306699781,-0.125614255406,-2.64351172256,-0.0676390971736,2.10997809017,-0.868117069384,-0.0749096392159,0.00858477470655,0.00551514413729,0.00564588248494,0.000377136305583,0.004235139753,-0.0694373529344,0.573868305331,0.818913341728,0.00607073116953,0.0,0.818911393666,-0.573778124521,-0.0119808199268,0.0,-0.00632812237392,0.0118470318425,-0.999909797284,0.0,0.270927167826,-0.252128293599,0.304971305845,1.0,-0.0163715789474,-0.0215169323308,2.563
-0.621660993346,-0.523137301639,-0.125550774926,-2.64340279291,-0.0676108917813,2.11001464023,-0.869292812067,-0.0693738304189,0.011207526742,0.00207164058183,0.00684905831991,0.000801687663894,-0.0013303346537,-0.0725825430954,0.573816438974,0.818949758909,0.00606082886773,0.0,0.818947526904,-0.573726020487,-0.012006185703,0.0,-0.00635533001954,0.0118530757464,-0.999909553098,0.0,0.270664092229,-0.252471842184,0.304959992955,1.0,-0.0160315789474,-0.021070075188,2.58
-0.622832668391,-0.522961144136,-0.125455393588,-2.64328388179,-0.0675928924115,2.11004468435,-0.870536040542,-0.0669869029782,0.00706126822382,0.0112940991619,0.00751804473129,0.0018767260958,0.000937935187855,-0.0732900158715,0.573711694677,0.819023363746,0.00603058284936,0.0,0.819020691508,-0.573621338178,-0.0120172446777,0.0,-0.00638325605228,0.0118338337828,-0.999909603124,0.0,0.270434184084,-0.25277798336,0.304957510957,1.0,-0.0157115789474,-0.0206495037594,2.596
-0.623957654833,-0.522774061827,-0.125370705465,-2.64316585843,-0.0675588871872,2.11006824712,-0.871660661746,-0.0605296702376,0.01063874315,0.00264329680243,0.00904988725506,0.000266989047301,0.000117146456118,-0.0743720019598,0.573672950829,0.819050603492,0.00601675222814,0.0,0.819047519763,-0.573582232882,-0.0120552641495,0.0,-0.00642289285979,0.0118440129811,-0.999909228782,0.0,0.270197856965,-0.253089369668,0.304946511946,1.0,-0.0153715789474,-0.0202026466165,2.613
-0.625082565658,-0.52260504555,-0.125339060719,-2.64305229265,-0.0675347838014,2.11010120229,-0.87286092164,-0.0666540940075,0.00566735874832,0.0013056879696,0.00711675311727,0.000945160788382,0.000882303627482,-0.0789781350842,0.573605211508,0.819098009927,0.00602149195553,0.0,0.819094878789,-0.573514286257,-0.0120702071641,0.0,-0.00643339486925,0.0118559352203,-0.999909019977,0.0,0.269950003424,-0.253413805988,0.304939645853,1.0,-0.0150315789474,-0.0197557894737,2.63
-0.626236301383,-0.522448618872,-0.125340973728,-2.64295211719,-0.0675058929452,2.1101334373,-0.873987077653,-0.0635798224598,0.00923311062218,-1.30767587416e-05,0.00916186485008,0.000766606224909,0.000690652147496,-0.0639805647006,0.573646889324,0.819068628627,0.00604771599029,0.0,0.819065709371,-0.573555603128,-0.0120863871757,0.0,-0.00643100299345,0.0118870240562,-0.999908666259,0.0,0.26968478415,-0.253749490833,0.304930454828,1.0,-0.0146915789474,-0.0193089323308,2.647
-0.627299061559,-0.522309119367,-0.125351939848,-2.64285104235,-0.0674828280199,2.11014716197,-0.875021537254,-0.0678540594679,0.00865984783771,-0.00111878277756,0.0063707216744,0.00493413588133,-2.84378511012e-05,-0.0572558887874,0.573693052747,0.819036103072,0.00607371345848,0.0,0.819033384798,-0.573601388874,-0.0121040558753,0.0,-0.00642989207545,0.0119188163321,-0.999908294948,0.0,0.269437445968,-0.254060979325,0.304926083972,1.0,-0.0143715789474,-0.0188883609023,2.663
-0.628421202716,-0.522165353795,-0.125352022104,-2.64273706588,-0.0674504634088,2.11017906517,-0.876144721049,-0.0707587061311,0.00654367836754,0.000317633170009,0.00405488189423,0.00311880761732,0.0045243842961,-0.0630556802228,0.573712050031,0.819022600072,0.00610009186946,0.0,0.819020263516,-0.573620337523,-0.0120939336411,0.0,-0.00640619155777,0.0119347640938,-0.999908256849,0.0,0.269183630896,-0.254390499836,0.304927819247,1.0,-0.0140315789474,-0.0184415037594,2.68
-0.629496591241,-0.522005564165,-0.125336393008,-2.64261557071,-0.067433115256,2.11020404594,-0.877210602182,-0.0638564845286,0.0114363116966,0.00488633536675,0.011639423624,0.00103417866787,0.000714852418789,-0.062512678534,0.573722594676,0.819015175778,0.00610517023233,0.0,0.819012856605,-0.57363076681,-0.0121008671638,0.0,-0.00640880375468,0.0119429837585,-0.999908141968,0.0,0.268943635535,-0.25470594319,0.304926850264,1.0,-0.0136915789474,-0.0179946466165,2.697
-0.630523821744,-0.521853215285,-0.125302114243,-2.64248289578,-0.0674046467527,2.11024045899,-0.878209410043,-0.0533978182162,0.0122716119407,0.00377553067679,0.0102079262334,0.00517528499075,0.00102078099452,-0.0601766329918,0.573740635439,0.819002524491,0.00610696528894,0.0,0.81900037728,-0.573649073102,-0.0120776589371,0.0,-0.00638850118043,0.011931280303,-0.999908411607,0.0,0.268725127733,-0.255007451318,0.304935112713,1.0,-0.0133515789474,-0.0175477894737,2.714
-0.63151061852,-0.521698384141,-0.125251422392,-2.64236106221,-0.0673872077837,2.11027690697,-0.879261802576,-0.0548839636866,0.00958725774531,0.00524703966149,0.012095995631,0.000547709258427,0.000164392379742,-0.0677712334767,0.573664849703,0.819055711773,0.00609328548924,0.0,0.819053452619,-0.573573486243,-0.0120683276986,0.0,-0.00638980875599,0.0119141312971,-0.999908607733,0.0,0.268516554331,-0.255292649701,0.304937913304,1.0,-0.0130115789474,-0.0171009323308,2.731
-0.63252783436,-0.521534893478,-0.125212001309,-2.64224387531,-0.0673493913129,2.11030314541,-0.880321995362,-0.0561866046814,0.00951835210353,0.00328114111916,0.00971266405474,0.000918687857233,0.000544119643248,-0.064429299194,0.573624081127,0.819084182131,0.00610434561845,0.0,0.819081971238,-0.573532499637,-0.0120806934656,0.0,-0.00639418743355,0.0119299658197,-0.999908390945,0.0,0.268296372152,-0.2555835172,0.304934287438,1.0,-0.0126515789474,-0.0166277894737,2.749
-0.633370009795,-0.52139231551,-0.12516681941,-2.64215308419,-0.0673385413608,2.11031104192,-0.881133827,-0.0516691606556,0.0103516321013,0.000470868550605,0.00490237760146,0.000311988382316,-0.00042934395983,-0.0510949299055,0.573626468421,0.819082606308,0.0060914424924,0.0,0.819079988083,-0.573534497798,-0.0121202252129,0.0,-0.0064339371189,0.0119420905517,-0.99990799123,0.0,0.268110886441,-0.255819924287,0.30492489754,1.0,-0.0123515789474,-0.0162335037594,2.764
-0.634302028275,-0.521239178823,-0.125151435325,-2.6420645793,-0.0673208275483,2.11034131656,-0.882089618998,-0.0508030428218,0.00724261319013,-0.00113986146042,0.0101895648598,0.00144919450647,0.00148583044443,-0.0566162834543,0.573608493753,0.819095134913,0.00609940624199,0.0,0.819092427268,-0.573516133131,-0.0121485608649,0.0,-0.00645284345558,0.0119647255207,-0.999907598808,0.0,0.267899241543,-0.256088478079,0.304911790695,1.0,-0.0120115789474,-0.0157866466165,2.781
-0.635277264732,-0.521088995772,-0.125153505687,-2.64197455876,-0.0673095821894,2.11035504887,-0.883091861368,-0.0538362978301,0.0109774635112,-0.00199486938564,0.00442778406102,-1.61178163023e-05,6.22300137276e-05,-0.0533865383893,0.573597545801,0.819102703683,0.00611254212836,0.0,0.819099891175,-0.57350461658,-0.0121889269291,0.0,-0.00647853660487,0.0119985521739,-0.999907027333,0.0,0.267669713651,-0.256371097949,0.304898623111,1.0,-0.0116515789474,-0.0153135037594,2.799
-0.636171062482,-0.52095768846,-0.125149622773,-2.64187967038,-0.0673031985811,2.11038413985,-0.883916439114,-0.0527171740037,0.00675410568041,0.000445736733976,0.00478443972296,0.000760550106697,0.000821645206858,-0.0453534205445,0.573659245916,0.819059483203,0.006113873787,0.0,0.819056674599,-0.573566272516,-0.0121918714045,0.0,-0.00647928083946,0.0120018199613,-0.999906983293,0.0,0.267465658847,-0.256634587548,0.30489604804,1.0,-0.0113115789474,-0.0148666466165,2.816
-0.63694868242,-0.520835091561,-0.125140809576,-2.64178369749,-0.0673006769041,2.11041072716,-0.884647709058,-0.0527024822747,0.00757459287571,0.000881286075994,0.00365150466185,-0.00019617615867,0.00423284722059,-0.0536781090711,0.573697078813,0.819033026322,0.0061082285574,0.0,0.819030176223,-0.57360418251,-0.012188484087,0.0,-0.00647919030428,0.0119955521792,-0.999907059091,0.0,0.267291957414,-0.256866248659,0.304897063421,1.0,-0.0110115789474,-0.0144723609023,2.831
-0.637796335034,-0.520690885936,-0.125136535279,-2.6416507807,-0.0672917449046,2.11045705901,-0.885508987457,-0.049732064922,0.00726978443663,0.00151560887626,0.00603476044738,0.000144553918022,0.000655893383592,-0.0503714754199,0.573693543755,0.819035522953,0.00610548083183,0.0,0.81903289379,-0.573601136593,-0.0121491518854,0.0,-0.00644860037883,0.0119707101057,-0.999907554553,0.0,0.267110909219,-0.257128587364,0.304908496654,1.0,-0.0106715789474,-0.0140255037594,2.848
-0.638735526448,-0.520551387478,-0.125129022793,-2.64150421403,-0.0672861743027,2.11048715073,-0.88643074573,-0.0470877478867,0.0100921692984,0.00234264167197,0.00710210432711,-0.000113780077763,0.00081084627899,-0.0423395845564,0.57371233683,0.819022410287,0.00609859973347,0.0,0.819019967385,-0.573620469005,-0.0121077439764,0.0,-0.00641835558852,0.0119414669555,-0.999908098816,0.0,0.266907129363,-0.257416163112,0.304926545788,1.0,-0.0102915789474,-0.013526075188,2.867
-0.639542563499,-0.520431322565,-0.125110304526,-2.64139883931,-0.0672747243319,2.11051415615,-0.887199363379,-0.0408132204576,0.0080442328659,0.00043502545506,0.00393131155159,-3.30018474593e-05,0.00152525594654,-0.039602088152,0.573740875717,0.819002448333,0.00609459241039,0.0,0.819000066096,-0.57364922949,-0.0120913250748,0.0,-0.00640678995015,0.0119289886939,-0.999908321933,0.0,0.266730414176,-0.25765469639,0.304933024861,1.0,-0.00995157894737,-0.0130792180451,2.884
-0.640317311055,-0.520339719953,-0.125111260763,-2.6413196598,-0.0672658430692,2.11053082885,-0.887954614047,-0.0448229520898,0.00369564439607,-0.00281158311068,0.00422808498967,0.000490644607915,0.00408015625894,-0.0527732434162,0.573765417088,0.818985201803,0.00610182624892,0.0,0.818982964109,-0.573673827916,-0.012082655547,0.0,-0.00639518119701,0.0119301313393,-0.999908382615,0.0,0.266550265797,-0.257881479867,0.304936717244,1.0,-0.00961157894737,-0.0126323609023,2.901
-0.640961219795,-0.520247410045,-0.125099935004,-2.64126915038,-0.0672622324403,2.11055599522,-0.888596447965,-0.0408964134781,0.00905287139523,-0.000574786730392,0.00235495548881,-0.000203053097879,-0.00012414405224,-0.0387543687578,0.573763405364,0.818986623204,0.00610021131457,0.0,0.818984281201,-0.573671668426,-0.0120959039198,0.0,-0.00640698845768,0.0119363940152,-0.999908232288,0.0,0.266400567851,-0.258064995903,0.304928131221,1.0,-0.00931157894737,-0.012238075188,2.916
-0.641641124663,-0.520174175504,-0.125080539679,-2.64121824766,-0.0672511287122,2.11057142924,-0.889305242807,-0.0433917667584,0.00592175707594,0.00347172053832,0.00439198004857,-0.00054465108302,0.00359685672793,-0.0420842898956,0.5737334388,0.819007601936,0.00610213696163,0.0,0.81900526321,-0.573641659139,-0.0120984559122,0.0,-0.00640841077454,0.0119392008697,-0.999908189662,0.0,0.266242822478,-0.258254538185,0.304926103681,1.0,-0.00899157894737,-0.0118175037594,2.932
-0.642332616249,-0.520090755697,-0.125070105117,-2.64117058244,-0.0672377150638,2.11059226894,-0.889987033676,-0.0351042038383,0.00225549670547,0.00239048601008,0.000807807133826,7.30609987565e-05,-0.000110587076876,-0.03763618624,0.57374231003,0.819001326088,0.00611035593111,0.0,0.818999019969,-0.573650353596,-0.0121088401591,0.0,-0.00641207175943,0.0119519595561,-0.999908013769,0.0,0.266080101948,-0.258448556458,0.30491910749,1.0,-0.00865157894737,-0.0113706466165,2.949
-0.642972539837,-0.519988236979,-0.125033932883,-2.64111534343,-0.067230278203,2.11060011105,-0.8905776748,-0.0385295910237,0.0096613026648,0.000578540248935,0.000747395920514,-0.000374920188844,0.00504650615504,-0.0356226144097,0.573763165806,0.818986786384,0.00610083545418,0.0,0.81898414238,-0.573670849451,-0.012144048811,0.0,-0.0064460681588,0.0119645257379,-0.9999076449,0.0,0.265926434783,-0.25863454722,0.304907707466,1.0,-0.00831157894737,-0.0109237894737,2.966
-0.643659804023,-0.519873241863,-0.125007747089,-2.64101995951,-0.0672196130954,2.11062410062,-0.891237850621,-0.0362016745372,0.00778144156351,0.00132714946101,0.0046516826009,0.00356013483544,0.000884315851633,-0.0381398131247,0.573776386536,0.818977586772,0.00609241498468,0.0,0.818974885641,-0.573684202509,-0.0121375195705,0.0,-0.0064453583485,0.0119539871373,-0.999907775521,0.0,0.265786956581,-0.258825117537,0.30491172128,1.0,-0.00797157894737,-0.0104769323308,2.983
-0.644256774911,-0.519760213622,-0.124999051691,-2.64091499597,-0.0672145433163,2.11064479762,-0.891809673773,-0.0360382328532,0.00985323415903,-0.00140204863234,0.00529217423722,-0.000452523057843,-0.000265599211123,-0.0385817298945,0.573798374749,0.818962228515,0.00608607445778,0.0,0.818959551443,-0.573706412049,-0.0121224080376,0.0,-0.00643629827946,0.0119402967257,-0.999907997457,0.0,0.265659741167,-0.259009075514,0.304919798046,1.0,-0.00765157894737,-0.0100563609023,2.999
-0.644864918101,-0.519665527869,-0.124983043274,-2.64083691702,-0.0671972038713,2.11067883219,-0.892426704181,-0.0345633254785,0.00267862509316,0.000325845913491,0.000490170110736,0.00148493964424,0.00426115452587,-0.0323967758365,0.573791192491,0.818967240481,0.00608878800886,0.0,0.818964732343,-0.573699467449,-0.0121010383112,0.0,-0.00641734306829,0.0119302015383,-0.99990823979,0.0,0.26552850585,-0.259188392738,0.30492372415,1.0,-0.00731157894737,-0.0096095037594,3.016
-0.64545243203,-0.51955872532,-0.124970903835,-2.64076327107,-0.0671878171708,2.11070059354,-0.892974827807,-0.0344763981231,0.00875108320866,0.00124994316674,0.0025207352542,-2.12209745782e-06,9.33259577204e-05,-0.0302031930432,0.573822759764,0.818945127056,0.00608819749281,0.0,0.81894256159,-0.573730938398,-0.0121094195321,0.0,-0.00642408654015,0.0119347743667,-0.999908141918,0.0,0.265397710645,-0.259360778136,0.30492003032,1.0,-0.00697157894737,-0.00916264661655,3.033
-0.646076875459,-0.519520573222,-0.124962855812,-2.64071205616,-0.0671768032359,2.11071455069,-0.89355734204,-0.036823046816,-0.000370661800726,0.00054458441127,0.00572658202513,0.000359118046669,-0.00025997026319,-0.0346165176314,0.573858633252,0.818919953441,0.00609309446955,0.0,0.818917647394,-0.573767146967,-0.0120786899082,0.0,-0.00639558588213,0.0119214325951,-0.999908483775,0.0,0.265251604181,-0.25953796343,0.304930646849,1.0,-0.00659157894737,-0.00866321804512,3.052
-0.646606625718,-0.519465006936,-0.12495853424,-2.64066962107,-0.0671632539756,2.11072563328,-0.894044803152,-0.0286984007675,0.0052375659996,3.097792277e-05,0.00301292913638,0.000687991507914,0.00279007747672,-0.03123079112,0.573898203612,0.818892149363,0.00610299143385,0.0,0.818889975444,-0.573806672014,-0.0120771756032,0.0,-0.00638809007447,0.0119289775586,-0.999908441708,0.0,0.265126519257,-0.259687579533,0.304930532682,1.0,-0.00625157894737,-0.00821636090226,3.069
-0.647043785669,-0.519428709097,-0.124949352968,-2.64062090523,-0.0671498770049,2.11074502208,-0.894461795416,-0.0265774943222,0.00347897425971,0.00129665845739,0.00542395024559,-0.000202557945992,0.00115536578101,-0.0185357254311,0.573916328944,0.818879416634,0.00610698671816,0.0,0.818877513527,-0.573825185548,-0.012042473674,0.0,-0.00635711342447,0.0119124757334,-0.99990883586,0.0,0.265029644436,-0.259814645614,0.304941186993,1.0,-0.00595157894737,-0.00782207518798,3.084
-0.647494227296,-0.519364817474,-0.124930873764,-2.64055297977,-0.0671367364719,2.1107639874,-0.894908826506,-0.0262047914426,0.000455225791369,0.000404277001639,0.00425468447822,0.00128544739647,0.00241744053071,-0.025714513003,0.573915060178,0.818880322293,0.00610478202108,0.0,0.818878555775,-0.57382423644,-0.012016799379,0.0,-0.00633737068053,0.0118959262569,-0.99990915821,0.0,0.264934995482,-0.259947573029,0.304950595182,1.0,-0.00563157894737,-0.0074015037594,3.1
-0.647952289937,-0.519329342751,-0.124916704188,-2.64048635524,-0.0671245336245,2.11078394405,-0.895333581921,-0.0256756614618,-0.000449848963797,0.0025152784067,0.00453515299024,0.00440065016675,0.000122838779837,-0.0322371111437,0.573940728473,0.818862347704,0.00610267272661,0.0,0.818860897671,-0.573850555099,-0.0119631759991,0.0,-0.00629429343753,0.0118636224264,-0.9999098141,0.0,0.264837771983,-0.260083810117,0.304969854635,1.0,-0.00529157894737,-0.00695464661655,3.117
-0.648368829325,-0.519255775144,-0.124906677205,-2.64041614101,-0.0671143984354,2.11079296444,-0.895739219592,-0.0243509160453,0.00366386644665,-0.00101198727397,0.00389093663363,-0.000343770291496,0.000656783138838,-0.0300425179972,0.573950462908,0.81885552461,0.00610269151626,0.0,0.818854126221,-0.573860384331,-0.0119551732332,0.0,-0.00628758780624,0.0118591196653,-0.999909909702,0.0,0.264748440652,-0.260208877888,0.304975688714,1.0,-0.00495157894737,-0.00650778947369,3.134
-0.648730973076,-0.519207783895,-0.124882920322,-2.64037410609,-0.0670947510748,2.11079672952,-0.896115951618,-0.0210986212296,0.00413631312479,0.000790579542136,-0.000233927690241,0.000189757606543,-0.000386346586874,-0.0203943003558,0.573932220788,0.818868276048,0.00610731738125,0.0,0.818866936496,-0.573842124439,-0.0119542224247,0.0,-0.00628441852226,0.0118622220827,-0.999909892826,0.0,0.264670307918,-0.260308030185,0.304978014544,1.0,-0.00461157894737,-0.00606093233083,3.151
-0.649080465769,-0.519162374427,-0.124860938337,-2.64035048027,-0.0670822368192,2.11080646182,-0.896459345321,-0.0234890128528,-0.000378390510943,0.00353951917625,0.000845171953136,0.000780162033633,-0.000154802067265,-0.0155180447448,0.573928268296,0.818871038866,0.00610831050726,0.0,0.818869650672,-0.573838052506,-0.0119637621679,0.0,-0.00629171848466,0.0118684798996,-0.999909772661,0.0,0.264591179496,-0.260401086838,0.304973388022,1.0,-0.00427157894737,-0.00561407518798,3.168
-0.649393067617,-0.519116866155,-0.124814938184,-2.64034025027,-0.0670581971645,2.11081657834,-0.896772142788,-0.0145781061488,-0.000785124789733,0.00402758589893,-0.000467942630668,0.000513146811259,-4.26119842305e-05,-0.0214634265695,0.573906424228,0.818886345501,0.00610870556355,0.0,0.818884820566,-0.573815943977,-0.0119858243622,0.0,-0.00630987674504,0.0118812966122,-0.999909506029,0.0,0.264524868522,-0.260474561131,0.304963243774,1.0,-0.00393157894737,-0.00516721804512,3.185
-0.64967858525,-0.519061229673,-0.124771951214,-2.64032175532,-0.0670326006796,2.11082552075,-0.897047055198,-0.021037479346,0.00305715188955,0.00159740544547,0.00307547200058,0.0038581433966,-0.000404682026587,-0.0106728189532,0.573896656102,0.818893175762,0.0061107860664,0.0,0.818891515082,-0.573805862838,-0.0120110449399,0.0,-0.00632947972569,0.0118973984493,-0.999909190675,0.0,0.264466564147,-0.260543138314,0.30495295462,1.0,-0.00361157894737,-0.00474664661655,3.201
-0.649948934621,-0.519012820079,-0.124726865441,-2.64031585851,-0.0670072550619,2.11083211973,-0.89732764504,-0.0150771407965,0.00064203650916,0.00163634910206,0.00181019364319,0.000246539360327,-3.43922018256e-05,-0.0176051415495,0.573867606653,0.818913512981,0.00611352542374,0.0,0.818911673682,-0.573776405532,-0.0120438392073,0.0,-0.00635518838935,0.0119182359806,-0.999908779455,0.0,0.264409525599,-0.26060382228,0.304939450483,1.0,-0.00327157894737,-0.00429978947369,3.218
-0.650195919898,-0.518969618568,-0.124687093017,-2.64029248774,-0.0669851715923,2.1108415094,-0.897581486336,-0.00973588970471,0.0043495803106,0.00142265050983,-0.000817942995178,0.00182643677157,0.000470724772308,-0.0161860934445,0.573844483031,0.818929722479,0.00611276015426,0.0,0.818927821044,-0.57375319228,-0.0120517703989,0.0,-0.00636245983303,0.0119219808429,-0.99990868857,0.0,0.264361685848,-0.260664769404,0.304935913557,1.0,-0.00293157894737,-0.00385293233083,3.235
-0.650417459618,-0.518927552605,-0.124666437415,-2.64026971348,-0.0669549124358,2.11084524387,-0.897815555538,-0.0127612211409,0.000288922523238,0.00282081649623,0.00306503367164,0.000910118673018,-1.47279106552e-06,-0.0131614988219,0.573833729187,0.818937137749,0.00612883055014,0.0,0.818935350553,-0.57374219308,-0.0120637637089,0.0,-0.00636321795309,0.0119419404315,-0.999908445567,0.0,0.264316025256,-0.26072140215,0.304931595758,1.0,-0.00259157894737,-0.00340607518798,3.252
-0.650609618017,-0.518889313969,-0.124636667846,-2.64024348168,-0.0669378172447,2.11085142709,-0.898027412802,-0.0135742778464,0.00111328952965,0.0037822222403,0.0025217609832,0.000226004303498,0.000163457337425,-0.0127912510095,0.573805163151,0.818957159203,0.006128052994,0.0,0.818955334962,-0.573713585968,-0.01206762256,0.0,-0.00636724122103,0.0119432957697,-0.999908403768,0.0,0.264280089953,-0.260770901002,0.304930672546,1.0,-0.00225157894737,-0.00295921804512,3.269
-0.650811038978,-0.51886715333,-0.124616758024,-2.64022094845,-0.0669158939517,2.11085703922,-0.898217304341,-0.0115133825306,0.00349211737246,-0.00373114068557,0.00124603813899,0.0014386695487,-0.000645174972257,-0.0170087682076,0.573810975372,0.818953027652,0.00613595487803,0.0,0.8189513525,-0.573719449397,-0.0120591261338,0.0,-0.00635566357015,0.0119449374522,-0.999908457815,0.0,0.264239431733,-0.26082375097,0.304933711338,1.0,-0.00191157894737,-0.00251236090226,3.286
-0.650970850936,-0.518853445901,-0.124597187158,-2.64021687341,-0.0668990439229,2.11085850041,-0.898373115991,-0.0121780175123,0.00334480738368,0.00159367186085,-0.00024506016083,-0.000131721582769,-2.93748848708e-05,-0.0116120893234,0.573807809863,0.818955199006,0.00614217085187,0.0,0.818953559153,-0.573716171768,-0.0120652022054,0.0,-0.00635711971992,0.0119534900748,-0.999908346352,0.0,0.264204383848,-0.260861013978,0.304931110866,1.0,-0.00159157894737,-0.00209178947369,3.302
-0.651127752977,-0.518836685083,-0.124571549913,-2.64019657422,-0.0668777929783,2.1108623367,-0.898510393763,-0.0105585296085,0.00171401852999,-0.00151197023783,0.000162044892497,0.000518205265813,-0.000298275248079,-0.0116735771054,0.573815773251,0.818949588021,0.00614634435531,0.0,0.818948058826,-0.573724221309,-0.0120557758054,0.0,-0.00634688819725,0.0119515611992,-0.999908434405,0.0,0.2641758393,-0.260900178423,0.304935105385,1.0,-0.00127157894737,-0.00167121804512,3.318
-0.651283769644,-0.518836596907,-0.124546096632,-2.64019112147,-0.0668642824044,2.11086152799,-0.898602965866,-0.0111422805481,-0.000571020680818,-6.94310583424e-05,7.46906435607e-06,0.000155758759467,-0.000180049013197,-0.00302610109069,0.573855690103,0.818921623739,0.00614556838603,0.0,0.818920126656,-0.573764212557,-0.0120499563226,0.0,-0.0063419846948,0.0119478956763,-0.999908509324,0.0,0.264143016514,-0.260935750738,0.304938088353,1.0,-0.000931578947374,-0.00122436090226,3.335
-0.651385226776,-0.518828113327,-0.124528005807,-2.6401988875,-0.0668434712274,2.11086012905,-0.898666615634,-0.00627426784593,0.00214832005357,0.00385766689292,-0.00162171404309,0.0035240136598,0.000280415414335,0.000495527605827,0.573882380395,0.818902836968,0.0061566207321,0.0,0.81890137636,-0.573790646731,-0.0120655054254,0.0,-0.00634798744915,0.0119660765495,-0.999908253825,0.0,0.264120160411,-0.26095415837,0.304931754872,1.0,-0.000591578947374,-0.000777503759405,3.352
-0.651428265248,-0.518826053576,-0.124521515683,-2.64018527795,-0.0668279621161,2.11086249587,-0.8987094967,0.000488731161317,-0.00177036540791,0.00564897283896,-0.000533886781458,0.00012088017937,-0.000423202728409,-0.00297508214754,0.573885154355,0.818900831093,0.00616484775224,0.0,0.818899566336,-0.5737935518,-0.0120501895726,0.0,-0.00633068225298,0.0119640463987,-0.999908387832,0.0,0.264115186634,-0.260966329204,0.304937544314,1.0,-0.000251578947374,-0.000330646616548,3.369
-0.65143216756,-0.518815253562,-0.124502689365,-2.64018718842,-0.0668081907263,2.11086429461,-0.898735528345,0.000606697215474,0.00125969776768,0.00050380205955,-0.000958709138037,0.000199569530145,-0.000341321589948,-0.000716154744055,0.573862075016,0.818916942646,0.00617307106384,0.0,0.818915715166,-0.573770309693,-0.0120594390422,0.0,-0.00633387600117,0.0119759101907,-0.999908225584,0.0,0.264119652568,-0.260960827128,0.304933307615,1.0,0.0,0.0,3.386
-0.651423886514,-0.518818090567,-0.124470080129,-2.64019324614,-0.0667924583632,2.11086530792,-0.898742468869,0.00116040792498,-0.000312686315102,0.0016603256835,-0.000361259344142,0.00177789115355,0.000204414371359,-0.000119243105087,0.573832896351,0.818937404854,0.00617097228124,0.0,0.818936140921,-0.573741129155,-0.0120607093914,0.0,-0.00633654744326,0.0119746945778,-0.999908223217,0.0,0.264129171102,-0.260948564433,0.304932462608,1.0,0.0,0.0,3.402
-0.651421336883,-0.518812766376,-0.124422179204,-2.64017688728,-0.0667806873394,2.11086756639,-0.898747870639,0.000180470487252,0.000234690169007,0.00337290380235,0.00144167781612,0.000248358492924,0.000224024652186,0.000804092124907,0.573798203456,0.818961834868,0.00615480632177,0.0,0.818960457605,-0.57370669731,-0.0120474578965,0.0,-0.00633547659454,0.0119535828425,-0.999908482609,0.0,0.264145334857,-0.260940666858,0.304939259725,1.0,0.0,0.0,3.42
-0.651418831118,-0.518809045982,-0.124396518009,-2.64018158321,-0.0667713613611,2.11086664576,-0.898755802004,0.00111372614588,0.000596290124938,0.00196109362491,-0.0010688694808,0.000821946716037,-0.000124930849907,0.000122472045459,0.573775233773,0.818977956302,0.00615102440713,0.0,0.818976475103,-0.573683645769,-0.0120563139512,0.0,-0.00634523541861,0.0119553888213,-0.999908399137,0.0,0.264151116174,-0.260932060596,0.304936285867,1.0,0.0,0.0,3.438
-0.651418819527,-0.518814480307,-0.124387280802,-2.64018937857,-0.0667653548052,2.1108654782,-0.898765538808,-0.000283848771184,-0.00148823726811,0.00087393219791,-8.3415163225e-05,0.000227264564643,0.000542546795175,-0.000728925936099,0.57376287564,0.818986601597,0.00615271019354,0.0,0.818985120222,-0.573671241252,-0.0120593000031,0.0,-0.00634689443079,0.0119583869815,-0.999908352756,0.0,0.264151819781,-0.260927360698,0.304934866343,1.0,0.0,0.0,3.453
-0.651417969735,-0.518808849338,-0.124391878732,-2.6401815832,-0.0667590480795,2.11086985773,-0.898758235782,-0.00048475412053,0.00307732834671,-0.00151549462509,0.000363301968249,0.000202064723982,0.00114240036958,0.00196803062545,0.573774494717,0.81897841553,0.00615881552916,0.0,0.818977053239,-0.573682906002,-0.0120522417238,0.0,-0.00633744065564,0.0119594277549,-0.999908400272,0.0,0.264153959826,-0.260930021357,0.304936604322,1.0,0.0,0.0,3.472
-0.65143156819,-0.518808716883,-0.12438348184,-2.64017693431,-0.0667588721119,2.11087319562,-0.898764441023,-0.00274329991046,0.001393723966,0.000854460027783,-0.000956763951086,-5.83887895548e-05,0.000424759244278,-0.0010714014148,0.573774880018,0.818978183137,0.00615382057248,0.0,0.818976809702,-0.573683414525,-0.012044582627,0.0,-0.00633402754776,0.0119509453843,-0.999908523316,0.0,0.264153851153,-0.260933421958,0.304939149812,1.0,0.0,0.0,3.488
-0.651420997696,-0.518809567102,-0.124388547685,-2.64017597811,-0.0667541010431,2.11087117516,-0.898766947597,-0.000278649468741,0.00027951386338,-0.00114017313212,0.000226937890395,-0.000220141891434,-0.000411631322534,0.00026305072588,0.573769839802,0.818981664445,0.00616044943,0.0,0.818980371908,-0.573678336531,-0.0120442320808,0.0,-0.00633001072751,0.0119561344695,-0.999908486719,0.0,0.264155850703,-0.26093122871,0.304939609143,1.0,0.0,0.0,3.503
-0.651410391133,-0.518808874049,-0.124386184338,-2.64017597811,-0.0667540813883,2.11087048493,-0.89876328619,0.00222254574458,-0.000611972453627,-0.000530867451659,0.00179097428267,-0.000177175095465,3.42941300281e-05,-4.91106619307e-05,0.573762487627,0.818986823468,0.00615935707646,0.0,0.818985507892,-0.573670973991,-0.0120456782441,0.0,-0.00633192929766,0.0119560126883,-0.999908476028,0.0,0.264159011015,-0.260927800173,0.304939350501,1.0,0.0,0.0,3.52
-0.651424120779,-0.518811371849,-0.12438618423,-2.64017597506,-0.0667554023541,2.11087048499,-0.898769809982,0.000370232249263,-0.0012552054826,0.000689513025827,0.000655100681364,-0.00037916334739,-0.000230445475552,-0.00100163818049,0.573767813539,0.818983100808,0.00615821712089,0.0,0.818981787489,-0.573676335984,-0.0120432634093,0.0,-0.00633052765899,0.0119537347261,-0.999908512138,0.0,0.264155366647,-0.260931603964,0.30494027091,1.0,0.0,0.0,3.537
-0.651426388279,-0.518803239756,-0.1243861813,-2.6401784746,-0.0667546917399,2.11087129862,-0.898765521175,0.0011119021375,0.0017781251449,0.00180648569889,-0.000553809890599,-9.49976005459e-06,-5.86772733137e-05,0.000951896427429,0.573773408491,0.818979172369,0.00615936971447,0.0,0.818977811735,-0.573681807114,-0.0120530068025,0.0,-0.00633776520879,0.0119603121991,-0.999908387636,0.0,0.264154212689,-0.260931464856,0.304936210373,1.0,0.0,0.0,3.554
-0.651428841969,-0.518806171962,-0.124383478907,-2.64017840123,-0.0667546917399,2.11086977293,-0.898770095907,-0.000472515415497,-0.0010650680996,-0.000754834558478,-0.000362156929941,5.50985218561e-05,0.000589699407103,-0.00152129838188,0.573771325174,0.818980621836,0.00616071149887,0.0,0.818979311542,-0.573679780475,-0.0120475574932,0.0,-0.00633256242857,0.0119582685236,-0.999908445042,0.0,0.264152548596,-0.260932448814,0.304937669451,1.0,0.0,0.0,3.571
