nelsonifechukwu/NELSON_IML_WORK/CNN-GradCAM/train2dof/data_sample_2022-02-21-15-38-24/robot_state.csv
position_joint1,position_joint2,position_joint3,position_joint4,position_joint5,position_joint6,position_joint7,velocity_joint1,velocity_joint2,velocity_joint3,velocity_joint4,velocity_joint5,velocity_joint6,velocity_joint7,ee_T_00,ee_T_10,ee_T_20,ee_T_30,ee_T_01,ee_T_11,ee_T_21,ee_T_31,ee_T_02,ee_T_12,ee_T_22,ee_T_32,ee_T_03,ee_T_13,ee_T_23,ee_T_33,v_x,v_y,time
0.465069458244,0.54783668518,-0.123911145726,-1.35586011839,0.0794986355835,1.89409779081,0.159172334426,0.000890012405756,-0.00134520030594,-0.00692534247456,0.000130194235459,0.000478730676651,-0.000160163256381,0.00162282950518,0.573767108369,0.819004568895,0.00188901680327,0.0,0.81896020135,-0.573708384236,-0.011984379949,0.0,-0.00873168526759,0.00842343478769,-0.999926399001,0.0,0.66165223468,0.260928080761,0.303159354642,1.0,0.0,0.0,0.0
0.465060928321,0.547840971304,-0.123908631319,-1.35586083103,0.0794973131551,1.89409872767,0.159173148066,-0.00430167912377,-0.000124443353535,0.000310277824471,-0.00011802724767,-0.000102412492577,0.000313806519776,0.00188191648941,0.573764252745,0.819006588993,0.00188052117818,0.0,0.818962099954,-0.573705555041,-0.0119900732114,0.0,-0.0087412518125,0.00841971307513,-0.999926346762,0.0,0.661651199963,0.260924632223,0.303153969777,1.0,-0.0001,-0.000131428571429,0.006
0.465063764083,0.547835324633,-0.12391330892,-1.3558629827,0.0794948314163,1.89409438223,0.159170808385,0.00119308476714,0.000851068841599,0.000317615924981,0.000436943737531,9.36822272405e-06,-0.000200826432565,0.000117722095074,0.573771154986,0.81900174901,0.00188247855628,0.0,0.818957335016,-0.573712495753,-0.011983427777,0.0,-0.0087346150062,0.00841757688244,-0.999926422743,0.0,0.661653129728,0.260921890047,0.303158723796,1.0,-0.00044,-0.000578285714286,0.023
0.465063119264,0.547827557734,-0.123916608012,-1.35587553628,0.0794980250696,1.89409710058,0.159169994583,-6.09950137546e-05,-0.000826876268839,-0.00044145782091,-0.00362105732427,0.000156716328963,0.000347639499338,-0.000340585328643,0.573774858254,0.818999155368,0.00188213800387,0.0,0.818954714829,-0.573716178723,-0.0119861683698,0.0,-0.00873701696222,0.00841890993974,-0.999926390536,0.0,0.661651745746,0.260918867933,0.303158602487,1.0,-0.00076,-0.000998857142857,0.039
0.465065299842,0.547770114374,-0.123914366992,-1.35592820848,0.0794985956668,1.89410037753,0.159168429044,0.00104375198015,-0.00598305872622,0.000259346134677,-0.00727131256771,0.000301945666619,-0.000209043799246,-0.00152913800063,0.573773171694,0.819000312195,0.00189287349135,0.0,0.818955944699,-0.573714381825,-0.0119881454096,0.0,-0.00873249421568,0.00842881849356,-0.999926346569,0.0,0.661640730014,0.260916427609,0.303174438538,1.0,-0.0011,-0.00144571428571,0.056
0.465062956496,0.547644581838,-0.123909329379,-1.35608600034,0.0794938450948,1.89413903782,0.159165197898,0.000386821793172,-0.0105430588244,0.00136833511034,-0.011674803531,-3.47501557995e-05,0.00211615323124,-0.000597749194187,0.573776323207,0.818998079834,0.0019034327627,0.0,0.818953754609,-0.573717395544,-0.0119935300818,0.0,-0.00873081371545,0.00844058950777,-0.999926261952,0.0,0.66161530539,0.260902569523,0.303191447325,1.0,-0.00144,-0.00189257142857,0.073
0.465050019241,0.547500517522,-0.123913966223,-1.35629255326,0.0794904936243,1.89418103564,0.159165729372,-0.00402990477581,-0.0100154161024,-0.00614777853021,-0.0143352643132,7.85059316956e-05,-3.76820296986e-05,0.00223777009616,0.573801010024,0.818980812454,0.00189119761471,0.0,0.818936221551,-0.573742029453,-0.0120123092075,0.0,-0.00875295971826,0.0084416079119,-0.999926059742,0.0,0.661584753442,0.260871006397,0.303198985101,1.0,-0.00178,-0.00233942857143,0.09
0.465036420945,0.547334800204,-0.123906785046,-1.35648641542,0.0794889428025,1.89431524125,0.159152018813,0.000808365849951,-0.00772881926102,0.00160589316265,-0.0102436580785,0.000350489180799,0.0112732842895,-0.00156476430907,0.573810172636,0.818974187299,0.00197818568862,0.0,0.818930707481,-0.573750797392,-0.0119693667017,0.0,-0.00866778363247,0.00848830480512,-0.999926406396,0.0,0.661574554095,0.260852561041,0.303231463597,1.0,-0.00208,-0.00273371428571,0.105
0.465007754505,0.547137412501,-0.123909412558,-1.35672319261,0.0794861793522,1.89443602443,0.15913559145,-0.00147887542443,-0.0145086812195,0.00088123681246,-0.0171771492247,-2.21671814247e-05,0.00709735867148,-0.000877053566003,0.573831245581,0.818959215688,0.00206192529322,0.0,0.818916772045,-0.57377146419,-0.0119320679701,0.0,-0.00858896849604,0.0085357029697,-0.99992668301,0.0,0.661556687837,0.260815989302,0.303273202223,1.0,-0.00244,-0.00320685714286,0.123
0.464975411486,0.546927951469,-0.123914282029,-1.35704319453,0.0794780508616,1.89456789529,0.159107933352,-0.00134635586387,-0.0129001498467,-0.000762551261697,-0.0194454112972,-0.000195037411278,0.00728270439551,-0.00124022462067,0.573854327265,0.818942985597,0.00208430385674,0.0,0.818900775927,-0.573794393574,-0.0119272792793,0.0,-0.00857196487245,0.00855152351582,-0.999926693745,0.0,0.661525124795,0.260764183031,0.303280848426,1.0,-0.00278,-0.00365371428571,0.14
0.46493777567,0.546668645803,-0.123916817477,-1.35743576898,0.0794717004305,1.89470305248,0.158990244893,-0.0022726115333,-0.0120429857595,-0.000939891562286,-0.0191675391384,0.000416531929951,0.00297361692605,-0.0116587499532,0.573808321076,0.818975166188,0.00210588053294,0.0,0.818933069339,-0.573748136354,-0.011935278556,0.0,-0.00856661664166,0.00857330242094,-0.999926553085,0.0,0.661481565779,0.260710812245,0.303296028791,1.0,-0.0031,-0.00407428571429,0.156
0.46489453391,0.546381546378,-0.123915031007,-1.35787730144,0.0794573678942,1.8948705494,0.158965153381,-0.000593960368523,-0.0177511828378,-0.000501699018485,-0.0272141476176,-2.70010478615e-05,0.0120227436102,0.00138450986711,0.573845273408,0.818949254156,0.00211381318358,0.0,0.818907150074,-0.573784940705,-0.0119443827366,0.0,-0.00856913414364,0.00858540960285,-0.999926427635,0.0,0.661430917009,0.26063562051,0.303297075253,1.0,-0.00346,-0.00454742857143,0.174
0.464848008419,0.546088470928,-0.12391347273,-1.35838196943,0.0794326156028,1.89503959192,0.158912840887,-0.00476216149745,-0.0161344409734,0.000306364234151,-0.0313216841876,-0.00339312653215,0.00955907032198,-0.00734058020995,0.573861024106,0.818938302369,0.00208058313485,0.0,0.818895673749,-0.573800735738,-0.0119723883561,0.0,-0.00861097305003,0.00857443265543,-0.999926162398,0.0,0.661369648447,0.260557155746,0.303278983517,1.0,-0.0038,-0.00499428571429,0.191
0.464788317998,0.545770560149,-0.123910479188,-1.35892897445,0.079376379123,1.89522007529,0.158816506841,-0.00553120753826,-0.0175756251913,0.000374488850907,-0.0318360316006,-0.00567457350782,0.0110167680769,-0.00314444369657,0.573844454757,0.818950046929,0.0020271362599,0.0,0.818906875499,-0.573784544928,-0.0119821602557,0.0,-0.00864981778316,0.00853609638588,-0.999926155129,0.0,0.661306408322,0.260461796571,0.303259194016,1.0,-0.00412,-0.00541485714286,0.207
0.464728084914,0.545390313171,-0.123915720954,-1.3595873784,0.0793063529325,1.89544049676,0.15874924435,-0.00161215943931,-0.0244636031468,0.000459945108949,-0.0441453800531,-0.00124109398387,0.013712856548,-0.00531284032463,0.573860424111,0.818939022152,0.0019592183622,0.0,0.818895227715,-0.573801057054,-0.0119874872446,0.0,-0.00869298688186,0.00848370241863,-0.999926226665,0.0,0.661229922574,0.260349388296,0.303234206793,1.0,-0.00446,-0.00586171428571,0.224
0.464665493595,0.54496752403,-0.123916677797,-1.36028812166,0.0792941258436,1.89567476998,0.158673431399,-0.00394814514866,-0.0285012154679,0.000464215820477,-0.043181400697,0.000689711127763,0.00646483841836,-0.00287120614642,0.573885990731,0.818921156166,0.00193817636183,0.0,0.818876772964,-0.573826404594,-0.0120347410447,0.0,-0.00874349561671,0.00849386042539,-0.999925700049,0.0,0.661143906121,0.260243742592,0.303220316847,1.0,-0.0048,-0.00630857142857,0.241
0.464602702674,0.544552143777,-0.123921554572,-1.36096133479,0.0792670631013,1.89591766602,0.1585706453,-0.00413432462609,-0.0259329929968,-0.000472878514745,-0.0397726746763,-0.00197070175426,0.0171429120863,-0.00772851501748,0.573886981051,0.818920478088,0.00193143714312,0.0,0.818875889264,-0.573827309755,-0.0120516995603,0.0,-0.00876124086693,0.00849808439977,-0.999925508836,0.0,0.661067448014,0.260137056668,0.30321509663,1.0,-0.00512,-0.00672914285714,0.257
0.464532043963,0.54404461486,-0.123921860816,-1.36180400211,0.0792293648082,1.896219853,0.158487314234,-0.00136363611308,-0.027751590479,0.000131338152695,-0.0423645013083,-0.00243845242953,0.0244512811479,-0.00452852710152,0.573913729888,0.818901784015,0.00190936733151,0.0,0.818856763631,-0.573854012796,-0.0120797167035,0.0,-0.00879657281512,0.00849637720456,-0.999925213144,0.0,0.660967751718,0.260011217361,0.303199373764,1.0,-0.00548,-0.00720228571429,0.275
0.464449945463,0.543517092756,-0.12391931302,-1.36264266681,0.0791833867267,1.89651063133,0.158362561415,-0.00667646552964,-0.030382844728,9.15302261682e-05,-0.0520213264013,-0.00059209757753,0.0161871422503,-0.0124638676437,0.573911341647,0.81890348978,0.00189558864757,0.0,0.818858195043,-0.573851594499,-0.0120975535576,0.0,-0.00881911205344,0.00849530505234,-0.999925023717,0.0,0.660869890232,0.259878105152,0.303198540247,1.0,-0.00582,-0.00764914285714,0.292
0.464381580544,0.543037356082,-0.123927097375,-1.36341247386,0.0791397693576,1.89678682031,0.158265348853,-1.93080228578e-05,-0.0326024195534,-0.00038531740831,-0.0473851443323,-0.000320101794573,0.0166670218866,-0.0101011364804,0.573924332127,0.818894414437,0.00188305548969,0.0,0.818848948784,-0.573864631917,-0.0121049663864,0.0,-0.00883224046332,0.00848943620493,-0.999924957685,0.0,0.660782270636,0.259755026987,0.303195694197,1.0,-0.00612,-0.00804342857143,0.307
0.464300681385,0.542371297308,-0.123927434294,-1.36445351763,0.0790775714716,1.8971567963,0.158137562977,-0.00863165424697,-0.0382436038305,0.000279227231739,-0.0543544631467,-0.00248734310727,0.0202107025758,-0.0048269200735,0.57392733392,0.818892319556,0.00187916295879,0.0,0.818846767296,-0.573867616266,-0.0121110524084,0.0,-0.00883942721759,0.00848977398819,-0.999924891311,0.0,0.660658211843,0.259601602005,0.303203340352,1.0,-0.0065,-0.00854285714286,0.326
0.464208254827,0.541754601854,-0.123928473291,-1.36540419859,0.0790251121226,1.8975162902,0.157997084233,-0.00663568076128,-0.0358768824942,-0.000543935778497,-0.055817214961,-0.00537863592955,0.0258600626821,-0.013790888843,0.573927536411,0.818892122426,0.00190307105253,0.0,0.818846845511,-0.573867677115,-0.0121028781988,0.0,-0.00881901044462,0.00850466253734,-0.999924945068,0.0,0.660554039822,0.259451107421,0.303218119793,1.0,-0.00684,-0.00898971428571,0.343
0.464141185409,0.541131564515,-0.123934221314,-1.36635247785,0.078967685492,1.89787292484,0.157879544185,-0.00370444624752,-0.0417636975077,-0.000532246337472,-0.0641729058761,-0.00482315977797,0.0261173759544,-0.00988476180969,0.573927506293,0.81889208509,0.00192805558011,0.0,0.818847168256,-0.573867569531,-0.012086131786,0.0,-0.00879095834239,0.00851551027863,-0.999925099763,0.0,0.660444639375,0.259314012339,0.303238335528,1.0,-0.00716,-0.00941028571429,0.359
0.464051215675,0.540433562946,-0.123931285074,-1.36741872066,0.0789039810561,1.89826073539,0.157753545346,-0.00360867685924,-0.0377705761099,-0.00319267160923,-0.0656960108244,-0.00139696719749,0.0256702654726,0.00219350315416,0.573937912017,0.818884749713,0.00194595426097,0.0,0.818840029343,-0.573877859353,-0.0120812164426,0.0,-0.008776552813,0.00852745756385,-0.999925124491,0.0,0.660320314923,0.259154917747,0.303257715174,1.0,-0.0075,-0.00985714285714,0.376
0.463957280675,0.539694550379,-0.123931942114,-1.36857650238,0.0788335885088,1.8986986739,0.157605529701,-0.0101145505328,-0.041784958065,-0.00171461080072,-0.0698622549455,-0.00267846431703,0.0186628529321,-0.00777422685005,0.573939392619,0.818883676318,0.00196090833277,0.0,0.818839161636,-0.573879284637,-0.0120723211551,0.0,-0.00876067072801,0.00853461352427,-0.999925202713,0.0,0.660187925108,0.258983120786,0.303266861973,1.0,-0.00784,-0.010304,0.393
0.46386551518,0.53897645096,-0.123929888687,-1.36967013826,0.0787819142314,1.89911301887,0.157474422318,-0.00413060349155,-0.0496915714977,-9.95420990648e-05,-0.0724458689526,-0.00702738602596,0.0318168089584,-0.0107277060627,0.573952393205,0.81887446503,0.00200193840443,0.0,0.818830352008,-0.573891974424,-0.012066616091,0.0,-0.00873231553681,0.00856507601598,-0.999925190271,0.0,0.660062671629,0.258823104729,0.303289532725,1.0,-0.00816,-0.0107245714286,0.409
0.463742828768,0.538164557844,-0.123940476204,-1.37094901894,0.0787027808454,1.89960567902,0.157309466592,-0.0032861584274,-0.04178824566,-0.00098847114962,-0.0696889289212,0.000139270781596,0.0375645133936,-0.00475120662145,0.57397475271,0.818858751646,0.00201866422475,0.0,0.818814943987,-0.573914344489,-0.0120482195591,0.0,-0.00870741731721,0.0085684512454,-0.999925378479,0.0,0.659924811485,0.258615472857,0.30329734025,1.0,-0.00852,-0.0111977142857,0.427
0.463628064256,0.537359734772,-0.12393530456,-1.37220710102,0.0786351524559,1.90007126167,0.157157805072,-0.00739870303016,-0.0483624394451,0.000680542274026,-0.074148321032,-0.00526662232185,0.0223462756156,-0.012908132783,0.573992126467,0.818846534335,0.00203441949343,0.0,0.818802818598,-0.573931536338,-0.0120533295929,0.0,-0.00870237720669,0.00858446997714,-0.999925284962,0.0,0.659779597439,0.258424630463,0.303307059098,1.0,-0.00886,-0.0116445714286,0.444
0.463519111246,0.536559428628,-0.123948515396,-1.37344262939,0.0785678380676,1.9005519636,0.157008665165,-0.00559241542416,-0.0535334487506,-0.0013704708822,-0.0766225950069,-0.00346247653099,0.0253912896893,-0.0155842606898,0.574015841368,0.818829822046,0.00206961036082,0.0,0.81878657105,-0.573955103238,-0.0120348426021,0.0,-0.00866679146053,0.00860292510569,-0.999925435423,0.0,0.659653981902,0.258240730147,0.303323699109,1.0,-0.00916,-0.0120388571429,0.459
0.46339701427,0.535700916928,-0.123947673132,-1.3748105326,0.0784806585441,1.90104389753,0.156835760324,-0.00912531213742,-0.0508378337945,0.00077119880171,-0.0827704376457,-0.0132672256009,0.0292272821516,-0.0042865683881,0.574028113266,0.81882125562,0.002055097667,0.0,0.818777833666,-0.573967453685,-0.0120402702797,0.0,-0.00867943715945,0.00859428751426,-0.999925400014,0.0,0.659484286797,0.258018803449,0.303323541771,1.0,-0.00952,-0.012512,0.477
0.463281798063,0.534843089491,-0.12395084345,-1.37617273351,0.0784053944137,1.90153823721,0.156666779048,-0.00885176334114,-0.0569239546855,-6.11372231666e-05,-0.0813377857884,-0.0095265999431,0.026038471793,-0.00818683975145,0.574040817913,0.818812363894,0.00204914745892,0.0,0.81876878416,-0.573980102888,-0.0120526542899,0.0,-0.00869285984548,0.00859665901241,-0.999925263028,0.0,0.659323587131,0.257811927221,0.303323422087,1.0,-0.00984,-0.0129325714286,0.493
0.46316793308,0.533989874596,-0.123953484453,-1.37757828997,0.0783301000825,1.90204476435,0.156497817667,-0.00501001563527,-0.057858803406,0.000811597558544,-0.0883128072759,-0.00949428491576,0.0334173034265,-0.0103186191628,0.574054335668,0.818802975349,0.00201349481687,0.0,0.818758809456,-0.57399365385,-0.0120848739935,0.0,-0.00873956579937,0.00858610624023,-0.999924946568,0.0,0.659154309344,0.257601877755,0.303300308958,1.0,-0.01016,-0.0133531428571,0.509
0.463028424769,0.533013426774,-0.12395657124,-1.37915981077,0.0782439056309,1.90265337657,0.156288046521,-0.00490393040505,-0.0531983221984,-0.000940405667384,-0.0895246102928,-0.000463191132464,0.0362125275486,-0.0117575309617,0.574062541131,0.818797210166,0.00201851337779,0.0,0.818753048288,-0.57400177599,-0.0120894160691,0.0,-0.00874031816444,0.00859291033067,-0.999924881544,0.0,0.658974630358,0.25736057148,0.303289037381,1.0,-0.01052,-0.0138262857143,0.527
0.462893061521,0.53205314531,-0.123948714329,-1.38070984928,0.0781533410909,1.90322134765,0.156102950139,-0.0126472688391,-0.0548132098293,0.00205901599783,-0.0931387717038,-0.0069187261877,0.0262558858396,-0.00572720422098,0.574076545316,0.818787431407,0.00200229603524,0.0,0.818742956253,-0.574015749616,-0.0121094045957,0.0,-0.00876584759489,0.00859125633962,-0.999924672278,0.0,0.65878998915,0.257128458469,0.303277246919,1.0,-0.01086,-0.0142731428571,0.544
0.462785791431,0.531162788599,-0.123955127976,-1.38212518595,0.0780705110472,1.90373536794,0.15590343394,-0.00367767700633,-0.0578384706437,-0.000840526505329,-0.0900872054597,-0.000141838711428,0.0311424582432,-0.0119741300937,0.574060323758,0.818798827985,0.00199270617146,0.0,0.818754196014,-0.573999541349,-0.0121177531606,0.0,-0.00877835866782,0.00858802318794,-0.999924590295,0.0,0.658619382283,0.256919246371,0.303275868524,1.0,-0.01116,-0.0146674285714,0.559
0.462631371803,0.530065478408,-0.123956310794,-1.38386839418,0.0779654443645,1.90434939661,0.155689050907,-0.00726995264048,-0.0588252696855,0.00442544144798,-0.0899935853983,-0.00746730636603,0.034665955356,-0.0124303688375,0.574078372762,0.818786238819,0.00196569300958,0.0,0.818741182907,-0.574017638189,-0.0121397430356,0.0,-0.00881168173378,0.00857872291452,-0.99992437703,0.0,0.658409345681,0.256649049113,0.303272538675,1.0,-0.01152,-0.0151405714286,0.577
0.462496173654,0.529000137611,-0.123954843396,-1.38552515374,0.0778568494461,1.90497035035,0.155468951924,-0.00742850907731,-0.0617670442683,0.00184523554052,-0.0970970920046,-0.00314008986735,0.0323132258254,-0.0209899430007,0.574068477769,0.818793127465,0.00198598806417,0.0,0.818748397061,-0.574007713484,-0.0121224614808,0.0,-0.00878598483814,0.00858531284708,-0.99992454659,0.0,0.658214220774,0.256402814355,0.30328806135,1.0,-0.01186,-0.0155874285714,0.594
0.462360876399,0.527972053423,-0.123959714629,-1.38713698821,0.0777585391043,1.90559819371,0.155241430664,-0.0119703615888,-0.0633616294164,0.000377758112306,-0.0964548556227,-0.00134410877445,0.0306274451835,-0.0104109432613,0.574057416308,0.818800798837,0.00202027408871,0.0,0.818756572142,-0.573996557819,-0.0120985159066,0.0,-0.00874681251955,0.00859952103761,-0.999924767924,0.0,0.658030446844,0.25615980685,0.303299311532,1.0,-0.01218,-0.016008,0.61
0.462217327301,0.526717389624,-0.123958388942,-1.38901940948,0.0776379793458,1.90631507911,0.154980476864,-0.00489300377353,-0.0742210653497,0.000788019718624,-0.107257585727,-0.0081130522824,0.0404268737444,-0.0168635943972,0.574029567292,0.818820140186,0.00209303668261,0.0,0.818776932517,-0.57396846672,-0.0120532522545,0.0,-0.00866827553639,0.00863281953927,-0.999925164913,0.0,0.657808429939,0.255888323018,0.303348440969,1.0,-0.01254,-0.0164811428571,0.628
0.462066776411,0.525552083809,-0.123963795698,-1.39085210847,0.0775250631664,1.90697846094,0.154730546789,-0.00474424671746,-0.0710703109066,-0.00102968585527,-0.10696274744,-0.00968069351382,0.040043739268,-0.0158484292814,0.574020246785,0.81882668862,0.0020873874128,0.0,0.818783399742,-0.573959164089,-0.0120569136285,0.0,-0.00867461454005,0.00863019685697,-0.99992513258,0.0,0.657587330167,0.255610694585,0.30335365408,1.0,-0.01288,-0.016928,0.645
0.461928053283,0.524516836532,-0.123974370824,-1.39250099119,0.0774255153089,1.90757325917,0.154505417349,-0.00898322351484,-0.0719769240107,-0.00170317736198,-0.11002255696,-0.00436369057043,0.0453042732825,-0.0114289368098,0.574018734544,0.818827795722,0.00206887568702,0.0,0.818784260824,-0.573957727033,-0.0120668432734,0.0,-0.00869338686671,0.00862072293152,-0.999925051272,0.0,0.657389172121,0.255355482806,0.303348836815,1.0,-0.01318,-0.0173222857143,0.66
0.461768299996,0.523320003205,-0.123972560505,-1.39441000086,0.0773031536711,1.90827986336,0.154253884609,-0.0112031251082,-0.0697096476148,0.00345074348758,-0.119790830724,-0.00781530107318,0.0421045176594,-0.0107471550387,0.574011181345,0.818833111764,0.00206050250057,0.0,0.818789456982,-0.573950200343,-0.0120722641631,0.0,-0.00870271136183,0.00861689823929,-0.999925003128,0.0,0.657145073836,0.255054426855,0.303341806653,1.0,-0.01354,-0.0177954285714,0.678
0.461599158958,0.522004144991,-0.123972992247,-1.39648121351,0.077174490896,1.90908970749,0.153970653541,-0.0152497017502,-0.0755020287244,-0.00308189051838,-0.110723611699,-0.00844109480748,0.0581675617524,-0.0131143798006,0.573995015492,0.818844338734,0.00210190758296,0.0,0.818801313858,-0.573933948347,-0.0120406918213,0.0,-0.00865326281632,0.00863250798159,-0.999925297634,0.0,0.656918323462,0.254763019413,0.303351963646,1.0,-0.01388,-0.0182422857143,0.695
0.461436999159,0.520827782404,-0.123978825982,-1.39836862858,0.0770594595534,1.90980714241,0.153708001772,-0.0144951601492,-0.0774878841006,-0.00103839455283,-0.114331333094,-0.00913620950434,0.0493291932696,-0.0175401137977,0.573986740022,0.818850134887,0.0021037526368,0.0,0.818807158559,-0.573925690515,-0.0120368501085,0.0,-0.00864914517307,0.00863172626025,-0.999925340008,0.0,0.65669618863,0.254474614729,0.303342396662,1.0,-0.0142,-0.0186628571429,0.711
0.461266182486,0.519520994221,-0.123979289604,-1.40042696263,0.0769324233041,1.91053490768,0.153436940053,-0.015080601758,-0.0762671247532,0.000470629237716,-0.125976440791,-0.0107218953105,0.0399628619307,-0.0193443829389,0.573980022312,0.818854896637,0.00208306055008,0.0,0.818811583728,-0.573918995489,-0.0120550351115,0.0,-0.00867598355135,0.00862514949116,-0.999925164253,0.0,0.656440152961,0.254163940425,0.303343424115,1.0,-0.01454,-0.0191097142857,0.728
0.461096730609,0.518175073749,-0.12398293669,-1.40252038682,0.0768002464375,1.91129178269,0.15314686835,-0.0114893862525,-0.0782059166651,-0.000807090391068,-0.127551556473,-0.00525474513982,0.0461910416388,-0.0169886809815,0.573959103556,0.818869546421,0.00208813095541,0.0,0.818826301437,-0.573898059467,-0.0120520668523,0.0,-0.00867086315455,0.00862737613741,-0.999925189458,0.0,0.656182583869,0.253849843755,0.303357429576,1.0,-0.01488,-0.0195565714286,0.745
0.460924185657,0.516883216698,-0.123985304697,-1.40453683835,0.0766774964746,1.9120111024,0.152877747581,-0.01124510827,-0.079913897956,-0.000376036841962,-0.120957994565,-0.00613485191518,0.0476509352557,-0.0111980044438,0.573955107302,0.818872358281,0.00208387782008,0.0,0.818828996501,-0.573894020961,-0.0120612643,0.0,-0.0086808780536,0.00862912996722,-0.99992508743,0.0,0.655933558934,0.253541917984,0.303366454963,1.0,-0.0152,-0.0199771428571,0.761
0.460724350322,0.515439827095,-0.123991044251,-1.40684928676,0.0765256125351,1.91288660961,0.152556706798,-0.00865117332678,-0.0774035500395,-0.00101125877045,-0.1314442298,-0.00427323588468,0.0502470688531,-0.0133264866409,0.573941075894,0.818882203476,0.00207969543965,0.0,0.818838898159,-0.573880119591,-0.0120504813754,0.0,-0.00867459588689,0.0086193677175,-0.999925226148,0.0,0.655658002958,0.253186907741,0.303354145257,1.0,-0.01556,-0.0204502857143,0.779
0.460554298489,0.514133377146,-0.123991727556,-1.40895998714,0.0764057266772,1.9136387841,0.152268765376,-0.0119666412739,-0.0781219156468,-0.000250231192137,-0.130015053608,-0.0158189473041,0.0411239277832,-0.0156531121398,0.57392367435,0.81889450001,0.00203979770604,0.0,0.818850505296,-0.573862725259,-0.0120900552064,0.0,-0.00873008392391,0.00860922404366,-0.999924830623,0.0,0.655390820831,0.252873400096,0.303330610658,1.0,-0.01588,-0.0208708571429,0.795
0.46036408533,0.512807132826,-0.123989630187,-1.41110666771,0.0762723350229,1.9143819032,0.151973921157,-0.012088659107,-0.0809427073284,0.00112585521303,-0.134748219764,-0.00937206391463,0.051446911694,-0.0180349240161,0.573912796128,0.818902285599,0.00197382438869,0.0,0.818857310665,-0.573852021908,-0.0121370764171,0.0,-0.00880656605581,0.00858206922545,-0.999924393383,0.0,0.65511820078,0.252541606708,0.303302543705,1.0,-0.0162,-0.0212914285714,0.811
0.460173604349,0.511375553385,-0.123995613452,-1.41338965012,0.0761331972537,1.91524623562,0.151644434458,-0.0112455956991,-0.0889015187516,0.000515345410161,-0.136427324337,-0.00395564814696,0.0487109548378,-0.0204328646038,0.573885258791,0.818921564891,0.00198171647889,0.0,0.818876701947,-0.573824461753,-0.0121318178267,0.0,-0.00879801923693,0.00858521815958,-0.999924441589,0.0,0.654841497764,0.252197405306,0.303293718386,1.0,-0.01654,-0.0217382857143,0.828
0.459959488714,0.509818121469,-0.123994218743,-1.41587118279,0.0759818971615,1.91618210665,0.151295124354,-0.0123334960169,-0.089423165959,-0.000254932145036,-0.135140614602,-0.00695815012254,0.0515464084548,-0.0158229961407,0.573862236639,0.818937677023,0.00199032976939,0.0,0.818892892345,-0.573801370962,-0.0121311356119,0.0,-0.00879275935521,0.00859163293235,-0.999924432758,0.0,0.654539014974,0.251823097159,0.303283977355,1.0,-0.0169,-0.0222114285714,0.846
0.459757858011,0.508311766952,-0.124004237056,-1.41823914377,0.0758312412231,1.91702058874,0.150973715504,-0.0135186721738,-0.0831823902987,-0.000226348647527,-0.142641129643,-0.0123036962054,0.046857158922,-0.0146147972165,0.573853320922,0.81894398299,0.00196613674805,0.0,0.818898879277,-0.573792560847,-0.0121437035599,0.0,-0.00881702807707,0.00857893696674,-0.999924328065,0.0,0.654241229138,0.251456763778,0.303283881508,1.0,-0.01724,-0.0226582857143,0.863
0.459554153576,0.506858561723,-0.124008391815,-1.42050903835,0.0756868026922,1.91784430075,0.150654647953,-0.0096963527524,-0.0930857715643,-0.000150069999524,-0.138871104508,-0.00998366109077,0.0501955520259,-0.0251191931253,0.573840168332,0.818953193268,0.00196858973097,0.0,0.818908124959,-0.57377940228,-0.0121419642544,0.0,-0.00881433386276,0.00857980612489,-0.999924344361,0.0,0.653960489369,0.251103490411,0.303291306738,1.0,-0.01756,-0.0230788571429,0.879
0.459336426687,0.505256585496,-0.12401512767,-1.42296934573,0.0755286708281,1.91878802233,0.150315845932,-0.0113966544375,-0.0909088411778,-4.127534225e-05,-0.135238672993,-0.0122303426732,0.0559592493502,-0.0206543667024,0.573830194309,0.818960021125,0.0020344042017,0.0,0.818915929459,-0.573769254417,-0.0120950429908,0.0,-0.00873824631957,0.00860667258243,-0.99992478129,0.0,0.653665910478,0.250724852771,0.303322027082,1.0,-0.0179,-0.0235257142857,0.896
0.459118072626,0.503684077558,-0.124017988159,-1.42531050293,0.0753840265762,1.91968090553,0.149993487182,-0.01253873167,-0.0988359438971,0.000449474987346,-0.147259883685,-0.0119088741944,0.0479337104997,-0.0207982918449,0.573828453131,0.818960974072,0.00213921134392,0.0,0.818918296232,-0.573767109314,-0.0120364142286,0.0,-0.00863011056834,0.00865884297665,-0.999925270023,0.0,0.653386555077,0.250360628164,0.303383686339,1.0,-0.01822,-0.0239462857143,0.912
0.45887690846,0.501902107461,-0.124027589678,-1.427957883,0.075211686128,1.92065680116,0.149617768236,-0.0115982958242,-0.0918564381066,0.000773295923432,-0.147905784708,-0.0125041095161,0.0521127597968,-0.0211769664776,0.573813935594,0.818970910039,0.00222771859227,0.0,0.818929490758,-0.573752330095,-0.0119791392989,0.0,-0.00853257215844,0.00869830898785,-0.999925764561,0.0,0.653063304253,0.249945314527,0.303452602166,1.0,-0.01858,-0.0244194285714,0.93
0.458641490046,0.500178331802,-0.124035764666,-1.43056783153,0.0750414708757,1.92157225962,0.149263438102,-0.0146500149793,-0.0945273725154,-0.000847136825704,-0.148573739717,-0.00785616700415,0.0615219648298,-0.0179212772206,0.573809097253,0.818974243167,0.00224851947964,0.0,0.818933110119,-0.573747422549,-0.0119667527206,0.0,-0.00851054385085,0.00870818628584,-0.99992586632,0.0,0.652732351746,0.249534697851,0.303492769244,1.0,-0.01892,-0.0248662857143,0.947
0.458408311594,0.498586607083,-0.124033961664,-1.43303174579,0.0748930193825,1.92248995808,0.148899514844,-0.0117776398964,-0.0951347101746,-0.000335381936851,-0.155124789746,-0.00989023891699,0.0557520397874,-0.0166275745624,0.573786033943,0.818990288779,0.00228933159966,0.0,0.818949620228,-0.573724127006,-0.011953766002,0.0,-0.00847673669995,0.00873391938409,-0.99992592905,0.0,0.652428520203,0.24915061492,0.30350967376,1.0,-0.01924,-0.0252868571429,0.963
0.458144738987,0.496919558796,-0.124033423314,-1.43569335521,0.0747317323198,1.92344911538,0.148505663746,-0.0114484180653,-0.0942252409189,0.00117222028811,-0.157661705537,-0.0114775988467,0.0547171448743,-0.0225889951686,0.573770230675,0.81900143944,0.00226085981345,0.0,0.818960273314,-0.573708311836,-0.0119829280747,0.0,-0.00851712525607,0.0087271698014,-0.999925644778,0.0,0.652094562966,0.248724437545,0.303488124381,1.0,-0.01958,-0.0257337142857,0.98
0.457879619927,0.495245569415,-0.124040266344,-1.43841421682,0.0745594344532,1.9243885221,0.148114184134,-0.0130687049407,-0.0936926283197,-3.79252944222e-05,-0.165706342302,-0.0113068361244,0.0611147481392,-0.0263156785322,0.57376208428,0.819007401716,0.00216644341893,0.0,0.818964895853,-0.573700449517,-0.0120432755387,0.0,-0.00862080822109,0.0086843831849,-0.999925128774,0.0,0.651743829022,0.248283123298,0.303441140563,1.0,-0.01992,-0.0261805714286,0.997
0.457618090555,0.493593388206,-0.124062985449,-1.44106318216,0.0743901478454,1.92534861523,0.14774049384,-0.0146715108798,-0.11398776736,-0.00467895864202,-0.175057439223,-0.0152612036221,0.0638362196362,-0.0237296136068,0.573773922333,0.818999213619,0.00212627448935,0.0,0.818956245087,-0.573712518252,-0.0120566137563,0.0,-0.00865465352246,0.00865926305448,-0.999925054259,0.0,0.651415350869,0.247845021698,0.303414801385,1.0,-0.0236074285714,-0.0310269061224,1.013
0.457341920538,0.49154164222,-0.124100838734,-1.44425604478,0.0742006197428,1.92654989068,0.147281091987,-0.019640182506,-0.130608170303,-0.000736068625129,-0.208073226199,-0.0154233120203,0.075846385016,-0.027120997211,0.573760142189,0.819008747389,0.00217205838205,0.0,0.818966452925,-0.573698623291,-0.0120243718224,0.0,-0.00860212441846,0.00867811531586,-0.999925344098,0.0,0.651020125858,0.247342411704,0.303428232929,1.0,-0.028444,-0.0373835428571,1.029
0.456928445098,0.488844942242,-0.124111830884,-1.44863205882,0.0739563815816,1.92811037079,0.146642540717,-0.026456686402,-0.156847276103,-0.000414365058685,-0.26123117934,-0.00998543267547,0.0942904490947,-0.0332146897435,0.573736092644,0.819025826281,0.00208297484197,0.0,0.818981963143,-0.573674552037,-0.0121160758091,0.0,-0.00872859739399,0.00865751550214,-0.999924426651,0.0,0.650453950102,0.246650348222,0.303356480723,1.0,-0.0338851428571,-0.0445347591837,1.047
0.456476465444,0.485930384598,-0.124157160678,-1.4531136883,0.0736799567339,1.92982219126,0.145989065914,-0.0312971871276,-0.194659517937,-0.00459446067629,-0.286360165258,-0.0188151086573,0.118169755403,-0.0376260534582,0.573751321153,0.819014866084,0.00219488293459,0.0,0.818972673979,-0.573689510072,-0.0120354563998,0.0,-0.00859820193817,0.00870307571725,-0.999925160898,0.0,0.649913511504,0.245908719811,0.303397842089,1.0,-0.0387217142857,-0.0508913959184,1.063
0.455897458337,0.482241764915,-0.124216555169,-1.45885842942,0.073331793728,1.93184925797,0.145094226804,-0.0284414258559,-0.212961072716,-0.00527973335794,-0.329474552835,-0.0222459138395,0.117407423486,-0.0547692608353,0.573723373965,0.819034517786,0.00216696643884,0.0,0.818991870936,-0.57366159307,-0.0120598042724,0.0,-0.00863445679749,0.00869388687881,-0.999924928426,0.0,0.649180649506,0.244947543203,0.30340076363,1.0,-0.0441628571429,-0.0580426122449,1.081
0.455261092565,0.478293610366,-0.124293043788,-1.46502785332,0.0729641669599,1.9340253102,0.144183149053,-0.0397210707321,-0.240525699493,-0.00758386078721,-0.372513272251,-0.0261568275039,0.132594268664,-0.0546332221728,0.573754764014,0.81901263707,0.00212555685029,0.0,0.818969336733,-0.573693043048,-0.0120939964732,0.0,-0.0086858859968,0.00867992109169,-0.999924604335,0.0,0.648392632685,0.243899955123,0.30339163194,1.0,-0.0493017142857,-0.0647965387755,1.098
0.454590021938,0.474176992323,-0.124344610299,-1.47134246412,0.0725874469548,1.93635253584,0.143288632488,-0.0439357673581,-0.257173506976,-0.00255818939806,-0.411036310185,-0.0250560501455,0.147557513384,-0.060268733063,0.573812500382,0.818971894789,0.00223536388854,0.0,0.818929981262,-0.573750258042,-0.0120446704834,0.0,-0.00858187122765,0.00874215730734,-0.99992496027,0.0,0.647600012167,0.242838946363,0.303438407283,1.0,-0.0541382857143,-0.0711531755102,1.114
0.453788657083,0.469401684169,-0.124382642745,-1.4786129311,0.0721465379313,1.93897200168,0.142175669526,-0.0482093709386,-0.289677320224,0.000206151371283,-0.434884763972,-0.0270631422244,0.162131455221,-0.0723679713489,0.573812867714,0.818971324232,0.00234730330935,0.0,0.818930679621,-0.573749964183,-0.0120111396997,0.0,-0.00849017725794,0.00881459491827,-0.999925107099,0.0,0.646670125545,0.241607939006,0.30350589261,1.0,-0.0592771428571,-0.0779071020408,1.131
0.452870582619,0.463891723963,-0.124419600797,-1.48700486914,0.0715955856276,1.94202501011,0.140826995345,-0.0577364237655,-0.310942287587,0.000180248328807,-0.48878013407,-0.0338036704711,0.171125615516,-0.0816478628872,0.573732961374,0.81902691902,0.00247827654747,0.0,0.818988119587,-0.57366968693,-0.0119288378968,0.0,-0.00834848795323,0.00887381739018,-0.999925776302,0.0,0.645589925152,0.240192628954,0.303578050454,1.0,-0.0647182857143,-0.0850583183673,1.149
0.452015634741,0.458964040579,-0.124455090424,-1.49464140836,0.0710969455779,1.94460955948,0.139713488295,-0.0636871631749,-0.337053249941,-0.00380209366716,-0.518722686185,-0.0327503649103,0.175282278598,-0.0797289380584,0.573765940086,0.81900414258,0.00236798107641,0.0,0.818963637036,-0.573702822024,-0.0120158277311,0.0,-0.00848265857971,0.00883373316554,-0.999925002019,0.0,0.644559861441,0.238879584997,0.303561664448,1.0,-0.0692525714286,-0.0910176653061,1.164
0.450923616681,0.452678394304,-0.12452124133,-1.50428881101,0.0704421031256,1.94803438526,0.138173010735,-0.06492435263,-0.357435742695,-0.00220624247779,-0.534422349423,-0.0364777967821,0.202427931228,-0.0950469799005,0.573710682596,0.819042776651,0.00239365659857,0.0,0.819002828365,-0.57364769954,-0.0119762616506,0.0,-0.00843611741632,0.00883149080442,-0.999925415565,0.0,0.643286149877,0.23721016985,0.303588455203,1.0,-0.0746937142857,-0.0981688816326,1.182
0.449857406976,0.446645573478,-0.124551073409,-1.5132351472,0.0698510525894,1.95142529456,0.136798009367,-0.073896138868,-0.375917991869,-0.00146694324156,-0.576630207318,-0.0369256378713,0.205712811957,-0.0869249670773,0.573723624463,0.819032480059,0.00278320711929,0.0,0.818997975138,-0.573659569118,-0.0117372219855,0.0,-0.00801670698146,0.00901353607227,-0.999927241641,0.0,0.642143706273,0.235667623077,0.303761538398,1.0,-0.0795302857143,-0.104525518367,1.198
0.44871612106,0.440431094169,-0.124571189265,-1.52293096168,0.0691799794308,1.95466971171,0.135269973914,-0.076616024625,-0.396708696483,0.00163623456222,-0.618838255918,-0.050621536544,0.204118427153,-0.104578907799,0.573667605442,0.819072423774,0.00256709571606,0.0,0.819034807758,-0.573604023246,-0.0118808711112,0.0,-0.00825895647728,0.00891838333372,-0.999926123309,0.0,0.640789824348,0.233978964239,0.303681601295,1.0,-0.0843668571429,-0.110882155102,1.214
0.447338567788,0.432898224153,-0.124610036093,-1.53428915585,0.0684229372352,1.95866742186,0.133421189592,-0.080354176333,-0.432823190257,-0.00282956331395,-0.631251901956,-0.0374664994575,0.239611711942,-0.102845719693,0.573599004343,0.819120015992,0.00270712363074,0.0,0.819084099651,-0.573534769785,-0.011825922706,0.0,-0.00813437707969,0.00900087270602,-0.999926405392,0.0,0.639240141893,0.231990154242,0.303765077605,1.0,-0.089808,-0.118033371429,1.232
0.445903599627,0.425542305657,-0.124646817813,-1.54555860633,0.0676057199971,1.96260577345,0.131595888173,-0.0837239940192,-0.449925173444,-0.0013116164562,-0.671886474397,-0.0520213947152,0.230813057138,-0.114638977701,0.57356235349,0.819145748707,0.00268624929682,0.0,0.819109832733,-0.57349850112,-0.0118024587917,0.0,-0.00812753047826,0.00896995195308,-0.999926738922,0.0,0.637689579976,0.229965688892,0.303752084101,1.0,-0.0949468571428,-0.124787297959,1.249
0.444524831278,0.418735348083,-0.124745899502,-1.55600506153,0.0668614569046,1.96607069204,0.129884789052,-0.0924642960318,-0.451405125059,-0.00341911342642,-0.685307566459,-0.0512700315657,0.237425659979,-0.106436859376,0.57360449784,0.819116794563,0.00251074164688,0.0,0.819078637812,-0.57354134793,-0.011885040856,0.0,-0.0082953821326,0.00887397859163,-0.999926216848,0.0,0.636123630038,0.227889532098,0.303707076023,1.0,-0.0997834285714,-0.131143934694,1.265
0.442777227958,0.410144591883,-0.124830475727,-1.56887206181,0.0659759175325,1.97064744424,0.127738704378,-0.10104486737,-0.478562531726,-0.00166805244833,-0.72569389149,-0.0484276137218,0.241367300232,-0.122140316113,0.573616826004,0.819107437731,0.00273665472028,0.0,0.819072401479,-0.573553032703,-0.01175017928,0.0,-0.00805519771613,0.00898179182463,-0.999927217954,0.0,0.634448456983,0.225635056865,0.303798402048,1.0,-0.104922285714,-0.137897861224,1.282
0.44095966892,0.401780355397,-0.12490584036,-1.58171937677,0.0651019367558,1.97484357708,0.125604891836,-0.112322193756,-0.495032757656,-0.00831629172266,-0.769524673711,-0.0495439591257,0.250763438463,-0.12740822471,0.573687262882,0.819058873502,0.00249660688801,0.0,0.819019967455,-0.573623554401,-0.0119606708617,0.0,-0.00836454212863,0.00890662690121,-0.99992535043,0.0,0.632584043666,0.223201886145,0.303697316257,1.0,-0.110061142857,-0.144651787755,1.299
0.439285935345,0.393973132246,-0.125010601202,-1.59313163115,0.0642517326878,1.97893510829,0.123649360291,-0.112456847735,-0.515614705366,-0.00830705560031,-0.780388636643,-0.066435513069,0.280151025545,-0.137782432762,0.573744306867,0.819017750037,0.00285348275362,0.0,0.818984370931,-0.573680245191,-0.0116757590839,0.0,-0.00792581984572,0.00903603205229,-0.999927763143,0.0,0.631010435209,0.221003274189,0.303876639811,1.0,-0.114595428571,-0.150611134694,1.314
0.437145549307,0.38448367182,-0.125066431922,-1.60759728749,0.0631712007769,1.98363148446,0.121114112007,-0.12134808862,-0.536247969442,-0.00608758677611,-0.777785189569,-0.0628752896693,0.263061538313,-0.146482283024,0.573702824553,0.819047723285,0.00257739849607,0.0,0.819010498828,-0.573639477045,-0.0118448336957,0.0,-0.00822314486675,0.0089065024533,-0.999926524352,0.0,0.628740511594,0.218069685834,0.303766887679,1.0,-0.120338857143,-0.158159640816,1.333
0.434887128799,0.374528495168,-0.125148610853,-1.6223101854,0.06207949545,1.98865395996,0.118466642796,-0.133998150532,-0.546946423748,-0.00101265177857,-0.803088734536,-0.0589802354109,0.283499844617,-0.157713345246,0.573690142686,0.8190559742,0.00277095871818,0.0,0.819021454546,-0.573626297226,-0.0117249743825,0.0,-0.0080140698217,0.00899615007008,-0.99992741935,0.0,0.626713362136,0.215363543542,0.303857144078,1.0,-0.125477714286,-0.164913567347,1.35
0.432707226341,0.365439220325,-0.125234350842,-1.63590112312,0.0610329859979,1.99307238066,0.116106579956,-0.138075259417,-0.574164680877,-0.0074829598879,-0.84140228103,-0.0625928578433,0.281021504858,-0.147803731403,0.573796992655,0.818981499502,0.00265736625624,0.0,0.818945539967,-0.57373358149,-0.0117782401093,0.0,-0.00812169685455,0.00893472901833,-0.999927101672,0.0,0.624671201903,0.212647202688,0.30382807737,1.0,-0.130314285714,-0.171270204082,1.366
0.43028738603,0.355480658686,-0.12536182221,-1.65066286194,0.0598792861255,1.99789668431,0.113341885639,-0.147325761548,-0.579285757997,-0.0101958457727,-0.888231484548,-0.0691552544856,0.278037543158,-0.169753340346,0.573794417482,0.81898342462,0.00261984080601,0.0,0.818947260094,-0.573731453702,-0.0117622752801,0.0,-0.00813017994731,0.00889481059526,-0.999927388623,0.0,0.622440114527,0.209657099229,0.303832303225,1.0,-0.135453142857,-0.178024130612,1.383
0.427688236658,0.345152533313,-0.125455716473,-1.66584109365,0.0587702945497,2.00279629309,0.110495132743,-0.154271977515,-0.624761568031,-0.00539440066125,-0.893486659065,-0.0631301343847,0.306518243588,-0.170181554509,0.57385868016,0.818938250478,0.00266533505884,0.0,0.818902076303,-0.573794881595,-0.0118139825221,0.0,-0.00814572339378,0.00896237738486,-0.999926658802,0.0,0.620105824681,0.20655960288,0.303861902902,1.0,-0.140592,-0.184778057143,1.4
0.425162202771,0.335259811468,-0.125523267016,-1.68038094287,0.0575972302658,2.00751025712,0.107747633469,-0.157651573646,-0.621375085589,-0.00197222214427,-0.924918674411,-0.0704950156786,0.297666639365,-0.184787669042,0.573859952347,0.818937342005,0.00267055502123,0.0,0.818901435262,-0.573796354186,-0.0117868634528,0.0,-0.00812050423664,0.00895110257564,-0.99992696492,0.0,0.617841049688,0.20358308904,0.303865060052,1.0,-0.145428571429,-0.191134693878,1.416
0.422374937472,0.32437126504,-0.125515605885,-1.69615243239,0.0562860118939,2.01254822026,0.104648214825,-0.168216056459,-0.651285287259,0.000848661628661,-0.942417798522,-0.0714711839196,0.306585068803,-0.185266849192,0.573705012499,0.819045625565,0.002751141212,0.0,0.819010911137,-0.573641305419,-0.0117271930305,0.0,-0.00802709246198,0.00898133701344,-0.999927448054,0.0,0.61532407159,0.200382467447,0.303933188835,1.0,-0.150567428571,-0.197888620408,1.433
0.419408026866,0.313340121355,-0.125544455718,-1.71230971517,0.0549980909884,2.01755146303,0.101476246258,-0.175031717212,-0.654416345828,-0.00131285056248,-0.936043183753,-0.0662225744486,0.29635170637,-0.196376725861,0.573665608045,0.819073606471,0.00263519059118,0.0,0.819036721594,-0.573601598199,-0.0118660070928,0.0,-0.00820774171371,0.00896561065232,-0.999926122672,0.0,0.612689095175,0.197030742223,0.303879103971,1.0,-0.155706285714,-0.204642546939,1.45
0.416282652411,0.301939351827,-0.125623585764,-1.72863091532,0.0535951686563,2.02272087569,0.0980567308193,-0.192150649529,-0.664167379432,-0.00103579499451,-0.96078035512,-0.0771171363459,0.296936230205,-0.205197433448,0.573534399161,0.819165037975,0.0027713606599,0.0,0.819130512314,-0.573470559869,-0.0117246603799,0.0,-0.00801529243533,0.00899477530081,-0.999927421918,0.0,0.610046616647,0.193553219493,0.303967273958,1.0,-0.160845142857,-0.211396473469,1.467
0.412934726528,0.290239955135,-0.125711837561,-1.74533003042,0.0522729692021,2.0278108167,0.0946686950122,-0.199952177727,-0.70294229698,-0.000871557395397,-0.984231238013,-0.0682159157034,0.308043198117,-0.205442955942,0.573635814712,0.819093738753,0.00285414014085,0.0,0.819059566288,-0.573570852579,-0.0117750093448,0.0,-0.00800793901178,0.00909245292255,-0.999926597412,0.0,0.607276466314,0.189928999381,0.304026903954,1.0,-0.165984,-0.2181504,1.484
0.409467337121,0.278419280168,-0.125840054416,-1.76243200795,0.0507975082125,2.03290824747,0.0910108794249,-0.211432807663,-0.695440914124,-0.00821962582553,-1.02824319929,-0.0917737986592,0.293996093834,-0.216492237897,0.573577857019,0.81913501714,0.00264811902332,0.0,0.819097952965,-0.573513429613,-0.0119011093651,0.0,-0.00823004205448,0.00899545486736,-0.999925671337,0.0,0.604375340482,0.186172447448,0.303939597143,1.0,-0.171122857143,-0.224904326531,1.501
0.405955050116,0.266929520503,-0.125976319797,-1.77856607555,0.0493589399667,2.03783114494,0.0874875723349,-0.229542505387,-0.717551509706,-0.0125335794019,-1.01601338812,-0.101824246032,0.302355845845,-0.208826582109,0.573632807901,0.819096001454,0.00280873690439,0.0,0.819061655813,-0.57356847967,-0.0117452120575,0.0,-0.00800960748627,0.00903814168384,-0.999927076432,0.0,0.601667870134,0.182503452588,0.304044535286,1.0,-0.175959428571,-0.231260963265,1.517
0.401976765007,0.254582950712,-0.126171463112,-1.7960100608,0.0478280529369,2.04296739476,0.0836363830571,-0.24004793791,-0.737434588616,-0.0157775052097,-1.01696462677,-0.0928134632906,0.309485080493,-0.231963438078,0.573826711451,0.818960234146,0.00279052227602,0.0,0.818925668799,-0.573762441801,-0.0117539891389,0.0,-0.00802510733052,0.0090301571137,-0.999927024295,0.0,0.598682797396,0.178423207621,0.304055251901,1.0,-0.181098285714,-0.238014889796,1.534
0.397883996459,0.242034379127,-0.12627217848,-1.81381516882,0.0462176755209,2.04810775455,0.0795974951385,-0.24331553309,-0.765052887559,-0.00573269268365,-1.05506456216,-0.0923164689942,0.293669273131,-0.243538631777,0.57383857733,0.818952403691,0.00264472253047,0.0,0.818915678964,-0.573774548402,-0.0118585519823,0.0,-0.00819427293978,0.00897087206251,-0.999926185948,0.0,0.595541341953,0.174318920721,0.303979768416,1.0,-0.186237142857,-0.244768816327,1.551
0.393921841729,0.229905950633,-0.126352552377,-1.83051820348,0.0447518425301,2.05303149673,0.0756667219614,-0.248293785791,-0.750571271819,-0.00325088841842,-1.06327272781,-0.0999247577043,0.303669257352,-0.245927159469,0.573814144738,0.818968575601,0.00292341886687,0.0,0.818935300821,-0.573748911012,-0.0117433846459,0.0,-0.00794030748038,0.00913278696051,-0.999926769178,0.0,0.592585030162,0.170452459431,0.30409715196,1.0,-0.190469142857,-0.250330873469,1.567
0.389465722735,0.216850060639,-0.126424880445,-1.84861124411,0.0429845430038,2.05813402548,0.0712562198744,-0.26246580057,-0.782258234124,-0.00507688638535,-1.04574287276,-0.104589027378,0.317728898761,-0.265935410935,0.57368682838,0.819057886242,0.00288943430307,0.0,0.819024601588,-0.573622224972,-0.0117043544014,0.0,-0.0079292527047,0.00908132657735,-0.999927325589,0.0,0.589302699455,0.166175369123,0.304108081324,1.0,-0.196212571429,-0.257879379592,1.584
0.384765100821,0.203605715823,-0.126555596856,-1.86698740648,0.0412712016793,2.0631450161,0.0667580637222,-0.278555573734,-0.787983952665,-0.00795006712011,-1.08938342665,-0.0934815352504,0.286367063961,-0.272187519954,0.573731312603,0.819027166277,0.00276201751915,0.0,0.818991622077,-0.573666477458,-0.0118424030341,0.0,-0.00811492917561,0.009056601013,-0.999926060218,0.0,0.585901706303,0.161740658343,0.304047361003,1.0,-0.201351428571,-0.264633306122,1.601
0.379845435634,0.190035271137,-0.126727148955,-1.88538355012,0.0394926594043,2.06822817742,0.062032823654,-0.302209658593,-0.792520340252,-0.00743020662005,-1.09244475116,-0.110604071964,0.29893421914,-0.281676492159,0.573745889536,0.819016413894,0.00291803249835,0.0,0.818983188509,-0.573680820903,-0.0117302842845,0.0,-0.00793342883269,0.00912019754308,-0.999926938683,0.0,0.582493307739,0.157195943768,0.304130640028,1.0,-0.206490285714,-0.271387232653,1.618
0.374582244008,0.176215133372,-0.126917433165,-1.90394840262,0.0377631981263,2.07316074919,0.0571398594273,-0.311459530598,-0.848362014818,-0.00692237097408,-1.09304579278,-0.102068164218,0.304224278571,-0.278318435418,0.573910246842,0.818900659796,0.00307974952003,0.0,0.818868927683,-0.573843889658,-0.0117310049957,0.0,-0.00783938321969,0.00925463334014,-0.999926445211,0.0,0.578992433471,0.152476301565,0.304219506855,1.0,-0.211629142857,-0.278141159184,1.635
0.369226465594,0.162331630921,-0.127018767012,-1.92284505851,0.0358005371562,2.07793434662,0.0520411273826,-0.323846807443,-0.857108597874,-0.00751432354772,-1.10677156135,-0.115435639779,0.272341985679,-0.305962267538,0.573790661929,0.818985419694,0.00281167429997,0.0,0.818949931713,-0.573724973182,-0.0118916523521,0.0,-0.00812611858308,0.00912611525651,-0.999925337321,0.0,0.575291822829,0.147738384028,0.304122837922,1.0,-0.216768,-0.284895085714,1.652
0.36396225775,0.148959902506,-0.127101643945,-1.94056599935,0.0339682737908,2.0825518163,0.0470930854672,-0.3414864307,-0.827353835733,-0.00267005245894,-1.11745509317,-0.118151837397,0.278561323058,-0.312028889913,0.57370443562,0.819045362807,0.00294297721882,0.0,0.819011805315,-0.573638529499,-0.0118003021569,0.0,-0.00797693121786,0.00918039552514,-0.999926041718,0.0,0.571597126159,0.142936990067,0.30418640676,1.0,-0.221906857143,-0.291649012245,1.669
0.357759055123,0.133641817745,-0.127244206552,-1.96069019573,0.0319428919934,2.08756818486,0.041305092844,-0.339954456008,-0.868669951154,-0.00843506552797,-1.12115477634,-0.122007310605,0.277152596571,-0.318636565041,0.573672674969,0.819066869933,0.00314188992854,0.0,0.819035547954,-0.573605665482,-0.0117498347436,0.0,-0.00782184509714,0.00931405799154,-0.999926030796,0.0,0.567805039176,0.138006360711,0.30428422453,1.0,-0.227045714286,-0.298402938775,1.686
0.351872476115,0.119926045149,-0.127451070279,-1.978647262,0.0299871966297,2.09189656513,0.0359681653223,-0.372074979405,-0.862105370811,-0.0179366777431,-1.10912203558,-0.12198205258,0.271498897359,-0.333836553834,0.573763183488,0.8190034723,0.00314142235417,0.0,0.818972446002,-0.573696522989,-0.0117123482271,0.0,-0.00779038077395,0.00929303147389,-0.999926472064,0.0,0.564177826295,0.133138901479,0.304316039537,1.0,-0.231882285714,-0.30475957551,1.702
0.345721687251,0.106058493481,-0.127609155038,-1.99678435255,0.027974940109,2.0962041341,0.0303890416988,-0.379588798333,-0.854089664476,-0.00344721715326,-1.12722355652,-0.117652401133,0.257610456453,-0.347538309925,0.573779464111,0.818992222472,0.00310048315627,0.0,0.818960887764,-0.573713205425,-0.0117033813239,0.0,-0.00780634044722,0.00925451248054,-0.999926704838,0.0,0.560450744757,0.128189690938,0.304294300307,1.0,-0.236718857143,-0.311116212245,1.718
0.339085727599,0.0910564241881,-0.127720088401,-2.01602980013,0.0258599739506,2.10064898339,0.0242237469129,-0.398780733072,-0.88627464054,-0.00461384723501,-1.14687471521,-0.119341245166,0.25039238058,-0.365832962469,0.573610927634,0.819109775843,0.00322888804548,0.0,0.819080089212,-0.573544243059,-0.0116428351693,0.0,-0.00768499791576,0.00932335489357,-0.999927005266,0.0,0.556404910112,0.122979132048,0.304360506326,1.0,-0.241857714286,-0.317870138775,1.735
0.331212124451,0.0740754241196,-0.127913144711,-2.03763879641,0.0234219509632,2.10541700968,0.0170413365377,-0.420658172973,-0.874924559294,-0.00560273741154,-1.13174031067,-0.135046946108,0.260351192876,-0.38351951812,0.573539433482,0.819159562145,0.00329801281955,0.0,0.819130721903,-0.573472474197,-0.0116158802759,0.0,-0.00762408661649,0.00936384929769,-0.999927093157,0.0,0.551784171473,0.116929926516,0.304412640862,1.0,-0.247601142857,-0.325418644898,1.754
0.32417929528,0.0596244247014,-0.128162283582,-2.05598704204,0.0213306627,2.10923611671,0.0107894631583,-0.45404158781,-0.927712172117,-0.0168615919586,-1.13003948518,-0.137291077964,0.243184774844,-0.397564138656,0.57366093767,0.819074800458,0.00321663614076,0.0,0.819044349729,-0.573593555035,-0.0117274763119,0.0,-0.00776078798006,0.00936234296794,-0.999926055618,0.0,0.547781492212,0.111624067135,0.304387590198,1.0,-0.24998,-0.328545142857,1.77
0.316487326505,0.0443887973185,-0.128347920508,-2.07526665045,0.0191044277339,2.113196656,0.00400566389172,-0.45029097406,-0.880888507304,-0.00731857560352,-1.14165559206,-0.133820762257,0.229195759334,-0.39179500567,0.573749484462,0.819013085664,0.00313711507791,0.0,0.818980938913,-0.573681575288,-0.0118498427323,0.0,-0.0079056233488,0.00936825897861,-0.999924865599,0.0,0.543507446542,0.106004599058,0.304316761598,1.0,-0.24998,-0.328545142857,1.787
0.309137430692,0.0299811092909,-0.128503087272,-2.09295970539,0.0169894772632,2.11668789091,-0.00252822944195,-0.47052594375,-0.895838565253,-0.0178607045103,-1.10912672906,-0.131386101023,0.212002281952,-0.420075078823,0.573735535501,0.819022339172,0.00326957807255,0.0,0.818992003067,-0.573667267974,-0.0117775833533,0.0,-0.00777060355571,0.00943515804297,-0.999925294966,0.0,0.539267483775,0.100437423121,0.304407794325,1.0,-0.24998,-0.328545142857,1.804
0.301557781802,0.0157293473394,-0.128680990167,-2.1103564351,0.0148469261466,2.11994954859,-0.00922241099771,-0.478425540902,-0.895036998119,-0.0195352314234,-1.06136208886,-0.135587665947,0.200269884228,-0.433194935551,0.57375714551,0.819006948717,0.00333209093777,0.0,0.818977538922,-0.573688801462,-0.0117344245888,0.0,-0.00769914025328,0.00946179976091,-0.999925596024,0.0,0.535534010111,0.0954775652651,0.304470076955,1.0,-0.24998,-0.328545142857,1.819
0.292758838474,-0.00011511713169,-0.128888006301,-2.12969742839,0.0124896207507,2.12335011821,-0.0168918740728,-0.487349998355,-0.895949574513,-0.00749122052878,-1.06945832955,-0.133070695873,0.181301629743,-0.431892314886,0.57387753466,0.818922857109,0.00326744824302,0.0,0.818891736502,-0.573808337965,-0.0118769554797,0.0,-0.00785157243656,0.00949178704191,-0.999924126516,0.0,0.531002594228,0.0894860104065,0.304444773572,1.0,-0.24998,-0.328545142857,1.837
0.285413004867,-0.0132407816171,-0.128961051965,-2.14534793313,0.0105192233815,2.12621578314,-0.0233791226281,-0.488858078369,-0.879552258186,-0.00379768736032,-1.0566655167,-0.134750699968,0.179621988461,-0.428889759526,0.573796494574,0.818978651781,0.00350679957367,0.0,0.818951254731,-0.573727247901,-0.0116890671665,0.0,-0.00756129557865,0.00957922810577,-0.999925529826,0.0,0.527312968255,0.0846436467721,0.304538991612,1.0,-0.24998,-0.328545142857,1.852
0.276324177132,-0.0288873487453,-0.129141576655,-2.16387785453,0.00809827095796,2.12917848365,-0.0313854153175,-0.515542514648,-0.886582255858,-0.0103314335462,-1.01466090636,-0.121420173544,0.168572514016,-0.448078530715,0.573757682964,0.81900572335,0.00353458069001,0.0,0.818978776707,-0.573688466149,-0.0116642193384,0.0,-0.00752545911041,0.00958736661736,-0.999925722175,0.0,0.522820266161,0.0787249995408,0.304599712519,1.0,-0.24998,-0.328545142857,1.87
0.266920265655,-0.0442748951599,-0.12935527611,-2.18227439906,0.00574532315388,2.13193996771,-0.0395477951203,-0.522251042624,-0.855632161508,-0.00472419498943,-1.02313582996,-0.122573234764,0.138749617746,-0.471747565869,0.573870339078,0.818927474401,0.00337231354288,0.0,0.818897158666,-0.573800083608,-0.0119018688134,0.0,-0.00781188397814,0.00959189214367,-0.999923482109,0.0,0.518261501936,0.0727399322306,0.304493062078,1.0,-0.24998,-0.328545142857,1.888
0.2585109634,-0.0579631908406,-0.129466618331,-2.19803721393,0.00360576715664,2.13437850716,-0.0469340268,-0.526515473415,-0.827293212165,-0.00572452148833,-0.991978209958,-0.144276362597,0.147380159964,-0.472713001587,0.573790912249,0.818982137914,0.00360467753932,0.0,0.818955894745,-0.573721202503,-0.0116606673089,0.0,-0.00748194236025,0.00964304251055,-0.999925513361,0.0,0.514335578518,0.0675453722275,0.304608583489,1.0,-0.24998,-0.328545142857,1.904
0.249871745314,-0.0714395463871,-0.129624807996,-2.21369866097,0.00150283507958,2.13643838044,-0.0545000497339,-0.549987294556,-0.86389787188,-0.0173678163394,-0.945858135661,-0.143804723003,0.130165766602,-0.468237205848,0.573780031858,0.818990123851,0.00352121807443,0.0,0.818962121252,-0.573709736365,-0.0117868254964,0.0,-0.00763328354434,0.00964697506664,-0.999924331564,0.0,0.510310985643,0.0622918517983,0.304570360344,1.0,-0.24998,-0.328545142857,1.92
0.240407383814,-0.0857047802044,-0.129831105408,-2.23007554918,-0.000699190802471,2.13850506346,-0.0627156660206,-0.548826319511,-0.831515057717,-0.00943695584984,-0.960709401236,-0.128942378783,0.116763275545,-0.488236720807,0.573875548689,0.818923200184,0.00352047138437,0.0,0.818894514722,-0.573804393097,-0.0118759892667,0.0,-0.00770560954636,0.00969842128722,-0.99992327916,0.0,0.506045254056,0.0566529551653,0.304549112275,1.0,-0.24998,-0.328545142857,1.937
0.230345678129,-0.100772285647,-0.12996156225,-2.24697702346,-0.00304656467168,2.14049455032,-0.0716082130255,-0.565389016438,-0.824906055729,-0.00983459672219,-0.933405765492,-0.134928044197,0.104429897208,-0.508528893099,0.573743826116,0.819014942432,0.00364595226364,0.0,0.818988027503,-0.573672430916,-0.0118025300593,0.0,-0.0075750120214,0.00975780787486,-0.999923699278,0.0,0.501555758208,0.0508230944898,0.304620523988,1.0,-0.24998,-0.328545142857,1.955
0.221081317148,-0.11389585931,-0.130166514551,-2.26188360185,-0.00519761010359,2.14197914975,-0.0796043745058,-0.594927779957,-0.815090719638,-0.0196852733435,-0.924641009441,-0.131675440695,0.0897656491706,-0.503916743699,0.573832784052,0.818953587948,0.00342105770264,0.0,0.818922829348,-0.57376102915,-0.0120178160652,0.0,-0.00787931569888,0.00969798582041,-0.99992192968,0.0,0.497491714955,0.0455191194699,0.304517764083,1.0,-0.24998,-0.328545142857,1.971
0.211026748096,-0.127890817799,-0.13034184821,-2.27722465742,-0.0073394439771,2.14349961786,-0.0883973703768,-0.595644451042,-0.814380714412,-0.0114438407493,-0.911738780499,-0.118853418083,0.0756401828861,-0.524785034892,0.573865172159,0.818930109511,0.00360372319237,0.0,0.818901634008,-0.573792614384,-0.0119539281563,0.0,-0.00772179061048,0.00981122674667,-0.999922053852,0.0,0.493272294326,0.0399302855141,0.304594672548,1.0,-0.24998,-0.328545142857,1.988
0.200828534673,-0.141693937274,-0.130520490736,-2.2922851869,-0.00954443493011,2.14480616479,-0.0973691103156,-0.60385069119,-0.803230987083,-0.0116447681622,-0.850998318741,-0.124164132001,0.0785095836745,-0.533426506708,0.573820638894,0.818961087904,0.00365482956262,0.0,0.81893325998,-0.573747879728,-0.0119345342369,0.0,-0.00767711623825,0.00984153302912,-0.999922100023,0.0,0.489035976324,0.0343650645398,0.304624348969,1.0,-0.24998,-0.328545142857,2.005
0.190947170488,-0.154560674962,-0.130751062299,-2.30621299516,-0.0116311085258,2.14592875266,-0.10598002798,-0.624266324882,-0.786407036637,-0.0151957879837,-0.841462525535,-0.124373860753,0.0596537717899,-0.544791557913,0.573899823543,0.818905369741,0.00370605541354,0.0,0.818878360683,-0.573827065872,-0.0118943591397,0.0,-0.00761386625571,0.00986116905111,-0.999922390181,0.0,0.48505621592,0.0290547896355,0.304638627868,1.0,-0.24998,-0.328545142857,2.021
0.18043419193,-0.168198146794,-0.1308587524,-2.32069542164,-0.0137332333916,2.14683368246,-0.115298667613,-0.61862500459,-0.829285817332,-0.00546144619517,-0.82901272406,-0.113351193889,0.0582203200664,-0.559429297991,0.573777426181,0.818990618214,0.00381829582151,0.0,0.818964693219,-0.573703799065,-0.011896600388,0.0,-0.00755277870203,0.00995324184774,-0.999921941209,0.0,0.480805281803,0.023587487084,0.304699389936,1.0,-0.24998,-0.328545142857,2.038
0.168882686247,-0.182350803862,-0.131113163832,-2.33584266664,-0.0160968659352,2.14764721747,-0.125431748528,-0.655215664356,-0.792850142794,-0.014796906169,-0.830380166194,-0.13666884635,0.0442888230827,-0.565987519505,0.573778595101,0.818990338709,0.00370078456726,0.0,0.818962523308,-0.573704921869,-0.011991452828,0.0,-0.00769787390011,0.0099114336501,-0.999921250009,0.0,0.476523120331,0.0179642814149,0.304641773549,1.0,-0.24998,-0.328545142857,2.055
0.159044731395,-0.194147112814,-0.131277308064,-2.34801828383,-0.0180042691989,2.14823244733,-0.134055325364,-0.652629305667,-0.789525586788,-0.00385718616335,-0.825627953512,-0.132787985133,0.0418121128458,-0.579258035173,0.573828838401,0.818954464287,0.00384662772424,0.0,0.818929183071,-0.573755468885,-0.011849132464,0.0,-0.00749702057663,0.00994968117985,-0.999922396252,0.0,0.472572087842,0.0126829142939,0.304725725788,1.0,-0.24998,-0.328545142857,2.071
0.147858999468,-0.207304704256,-0.131472121815,-2.36181018998,-0.0200639442997,2.14865863614,-0.144090780931,-0.668073334299,-0.772310120048,-0.010642600506,-0.785261736381,-0.12502894986,0.023614575525,-0.605167230283,0.57372351393,0.819028475492,0.00379905223816,0.0,0.819001030692,-0.573648302828,-0.0120699332969,0.0,-0.00770644757167,0.010036425475,-0.99991993721,0.0,0.468009506674,0.00683689221561,0.304656788749,1.0,-0.24998,-0.328545142857,2.089
0.135514121436,-0.221142594664,-0.131760514957,-2.37579114436,-0.0223264155952,2.1490166009,-0.154830779176,-0.678798730293,-0.746027170454,-0.00554485226886,-0.77579797435,-0.133708091539,0.0153251324992,-0.595734454863,0.573910683951,0.818896484528,0.00397760934725,0.0,0.818872327568,-0.573836072952,-0.0118751599191,0.0,-0.00744217426829,0.0100726293049,-0.999921575015,0.0,0.463826948831,0.00116589954013,0.304759922601,1.0,-0.24998,-0.328545142857,2.106
0.12461720865,-0.233263943958,-0.131907318355,-2.38819620302,-0.0242881483077,2.14913953543,-0.164671928647,-0.691508969158,-0.755377574713,-0.0176809388281,-0.78764688482,-0.124036747956,-0.00247647115212,-0.617355840124,0.573705831105,0.819040264203,0.00392579561687,0.0,0.819014664574,-0.57363040452,-0.0119952125628,0.0,-0.00757275213782,0.0100972019754,-0.999920346796,0.0,0.459781056904,-0.00397900067542,0.304709760185,1.0,-0.24998,-0.328545142857,2.122
0.112521153936,-0.246021510666,-0.132199294391,-2.40079459056,-0.0263164492275,2.14922048454,-0.175325632484,-0.719699156901,-0.755131136627,-0.0180300146231,-0.736829767382,-0.10414420996,-0.00308687945582,-0.631059217404,0.573878860874,0.818917890915,0.00415786988657,0.0,0.818895955497,-0.573803470001,-0.0118211161338,0.0,-0.00729486377253,0.0101889476635,-0.999921482071,0.0,0.455605799505,-0.00963885234831,0.304806667171,1.0,-0.24998,-0.328545142857,2.139
0.100402139321,-0.258571397289,-0.132342898493,-2.41335438816,-0.0283506338424,2.14914390017,-0.186242034235,-0.715800541785,-0.752715256328,-0.0125217728352,-0.735164076841,-0.116912203906,-0.00956964001017,-0.643516404449,0.573718289808,0.819030398317,0.00415661807833,0.0,0.819008085142,-0.573642424156,-0.0118689755511,0.0,-0.00733678055821,0.0102139488181,-0.999920920323,0.0,0.451338119667,-0.0151359593487,0.304764315828,1.0,-0.24998,-0.328545142857,2.156
0.0886725205961,-0.270276314081,-0.132623756306,-2.4246792103,-0.0302673279236,2.14899696195,-0.196692171202,-0.753460970569,-0.730355701312,-0.0221323781756,-0.69578008639,-0.123698831905,-0.0112416578657,-0.657428361977,0.573798648135,0.818973122458,0.00434545639225,0.0,0.818954233359,-0.57372353142,-0.0116627638401,0.0,-0.00705853543029,0.0102510053969,-0.999922543983,0.0,0.447409396911,-0.0204297248435,0.304846253445,1.0,-0.24998,-0.328545142857,2.172
0.0760587016358,-0.282476903811,-0.132781575955,-2.43661475764,-0.0322888024881,2.14861161706,-0.208061490955,-0.740085098151,-0.717839472702,-0.00737623536509,-0.717567318417,-0.11501604286,-0.0245614338641,-0.682932243396,0.573672442426,0.819061751493,0.00430382892671,0.0,0.819042072137,-0.573597115139,-0.0117124068384,0.0,-0.00712465777455,0.0102442992344,-0.999922143762,0.0,0.443148243788,-0.0259544358613,0.304807647098,1.0,-0.24998,-0.328545142857,2.189
0.0616057971606,-0.295974011064,-0.133130677938,-2.44945513897,-0.0344108705154,2.14803899103,-0.221076456385,-0.778461483071,-0.714604714601,-0.0246273304271,-0.65970183684,-0.118064609354,-0.023897087212,-0.69840021812,0.573762371788,0.818997733632,0.00449443288526,0.0,0.818980392292,-0.573686232704,-0.0116606323745,0.0,-0.00697177144552,0.0103714841784,-0.99992191031,0.0,0.438434731917,-0.0322244430253,0.304858071898,1.0,-0.24998,-0.328545142857,2.208
0.0492637365616,-0.307129566726,-0.133293488686,-2.46003558361,-0.0362603757893,2.14746208872,-0.23220099493,-0.767546470635,-0.69194107773,-0.0103932344841,-0.663048409699,-0.105421941845,-0.0442441323196,-0.696071203785,0.573705061248,0.81903773041,0.00452169917689,0.0,0.819021038561,-0.573629289752,-0.0116070338215,0.0,-0.00691295264645,0.0103625803172,-0.999922410997,0.0,0.434453722968,-0.0374331888174,0.304863338843,1.0,-0.24998,-0.328545142857,2.224
0.0358402895886,-0.318782909876,-0.133594509609,-2.47106827859,-0.0382012096025,2.14660127293,-0.244297525226,-0.802572933624,-0.680100857185,-0.0227362220926,-0.640781181325,-0.108260941035,-0.0395536508723,-0.719496721248,0.573774579919,0.818989384199,0.00445723113276,0.0,0.818970879484,-0.573697551933,-0.0117713365456,0.0,-0.00708363346128,0.0104046365039,-0.9999207797,0.0,0.430157157081,-0.0430468089084,0.30481061511,1.0,-0.24998,-0.328545142857,2.241
0.0214933770478,-0.330955789154,-0.133797666392,-2.48215923804,-0.0401143378226,2.14581410676,-0.257441283777,-0.79162459329,-0.661318430532,-0.0108491941803,-0.620257668266,-0.104479812753,-0.0490646051011,-0.741968985878,0.573661234551,0.819067302025,0.00472118932451,0.0,0.819053455931,-0.573585286911,-0.011493557665,0.0,-0.00670612164773,0.0104605163092,-0.999922799786,0.0,0.425762242452,-0.0488928036589,0.304916914628,1.0,-0.24998,-0.328545142857,2.259
0.0100455181554,-0.340203055411,-0.134050943826,-2.49074126523,-0.0416698766491,2.14491212395,-0.267819562197,-0.836770379196,-0.652161738271,-0.0220670405702,-0.606255782433,-0.113225439025,-0.0594554709978,-0.737170954837,0.573717682748,0.819028178822,0.00464862336682,0.0,0.819012494811,-0.573640556521,-0.0116529893202,0.0,-0.00687762014107,0.0104930086739,-0.999921294458,0.0,0.422219940182,-0.0535185972279,0.304867010346,1.0,-0.24998,-0.328545142857,2.273
-0.00481568714967,-0.351998780125,-0.134253982873,-2.50132891561,-0.0435873364361,2.14372312669,-0.281434332771,-0.819964277714,-0.666708374491,-0.0105971987773,-0.567938108894,-0.0965528264251,-0.0551770502747,-0.767652696533,0.573629982854,0.819089147267,0.00472847782755,0.0,0.8190748238,-0.573553129211,-0.011575313815,0.0,-0.00676931099787,0.0105131266189,-0.999921822243,0.0,0.417742926264,-0.0593805362775,0.304925341929,1.0,-0.24998,-0.328545142857,2.291
-0.0191912608992,-0.362814418632,-0.134586555284,-2.51102418907,-0.0454242879876,2.14259743684,-0.294584942045,-0.849424713332,-0.633711929792,-0.0228628841459,-0.575998963142,-0.101579809392,-0.0717879652263,-0.78033141113,0.573682894338,0.819051789719,0.00478010499485,0.0,0.819038421667,-0.5736063292,-0.0115147659688,0.0,-0.00668941998772,0.0105211164831,-0.999922275864,0.0,0.413510154229,-0.065018926394,0.304939589679,1.0,-0.24998,-0.328545142857,2.308
-0.0319402615625,-0.372186486371,-0.134745442494,-2.51947377412,-0.046931471825,2.14142149438,-0.306406337139,-0.854523255911,-0.616361750716,-0.0180420695337,-0.561449022857,-0.105648623016,-0.0783586082187,-0.788573605124,0.57354682419,0.819147319085,0.00473888158911,0.0,0.819132331772,-0.573468715467,-0.0116876997999,0.0,-0.00685647962819,0.0105854180305,-0.999920465643,0.0,0.409716334151,-0.069862748587,0.304885441881,1.0,-0.24998,-0.328545142857,2.323
-0.0476496724881,-0.383195322872,-0.135067843261,-2.52898995737,-0.048810670859,2.1400624481,-0.320761849712,-0.879073741422,-0.617065644052,-0.0158009135187,-0.520380635893,-0.106199076465,-0.0617936572503,-0.81517470675,0.573662829628,0.819065463962,0.00484464134813,0.0,0.819052977084,-0.57358615621,-0.0114842951309,0.0,-0.00662769791429,0.0105563344023,-0.999922315695,0.0,0.40527158323,-0.0758337579516,0.30497024873,1.0,-0.24998,-0.328545142857,2.341
-0.0625686506816,-0.393286382483,-0.135284975804,-2.53780913112,-0.0504758747593,2.13867357922,-0.334667227425,-0.884915591891,-0.59116027814,-0.0135559538634,-0.514805487134,-0.10323464404,-0.088574791734,-0.825642046263,0.573535641796,0.819154437201,0.0048602987267,0.0,0.819141911779,-0.573458560382,-0.0115132442772,0.0,-0.00664407314438,0.0105847341254,-0.999921906798,0.0,0.401029206391,-0.0813540461289,0.304960143213,1.0,-0.24998,-0.328545142857,2.358
-0.0769715560655,-0.40250437489,-0.135578195177,-2.54588797706,-0.0520672591817,2.13719651936,-0.347961203497,-0.890265778549,-0.567400103913,-0.00446245923971,-0.495627529407,-0.0920707047977,-0.0937684860177,-0.827426790488,0.573600420572,0.819109652972,0.0047624394183,0.0,0.819094569436,-0.573521606473,-0.0117388300191,0.0,-0.00688415961874,0.0106344908477,-0.999919754756,0.0,0.396966713116,-0.0866380313987,0.30489246186,1.0,-0.24998,-0.328545142857,2.374
-0.0923635016243,-0.412101037421,-0.135841381184,-2.55393475082,-0.0535294434793,2.13577956759,-0.362363318762,-0.924138111752,-0.559136865736,-0.0235521146824,-0.463518595134,-0.094395362957,-0.0781179831425,-0.853808771856,0.573594208501,0.819112606071,0.00499694419357,0.0,0.819101047967,-0.573515423678,-0.0115878783202,0.0,-0.006626080216,0.0107399488962,-0.999920371109,0.0,0.392789037042,-0.0921862879975,0.304969823275,1.0,-0.24998,-0.328545142857,2.391
-0.108108415411,-0.421388969076,-0.136115833464,-2.56172507222,-0.055175126629,2.13426437109,-0.377048756095,-0.92329927212,-0.5360799317,-0.0112693317213,-0.461775248147,-0.0910241707193,-0.0891632427871,-0.870041442494,0.57357601716,0.819125331114,0.004999136708,0.0,0.819114429256,-0.573498250231,-0.0114915476633,0.0,-0.0065461476636,0.0106863468963,-0.999921471887,0.0,0.388556858218,-0.0978094959497,0.305002980399,1.0,-0.24998,-0.328545142857,2.408
-0.123089618411,-0.429798024116,-0.136429696893,-2.56894490272,-0.0566163063327,2.13266847541,-0.391020682032,-0.940599123443,-0.524683644789,-0.0322481800501,-0.438700106897,-0.0941104734876,-0.0979311158526,-0.874691556615,0.573657187271,0.819068952664,0.00492231402266,0.0,0.819055221878,-0.573576703774,-0.0117921712839,0.0,-0.00683540833391,0.010796518681,-0.999918352856,0.0,0.384480208057,-0.103069308285,0.304913474734,1.0,-0.24998,-0.328545142857,2.424
-0.139056178814,-0.438426087142,-0.136640735375,-2.57618714905,-0.0580604111416,2.13113023212,-0.406161777576,-0.942304502508,-0.503160766697,-0.0141723670893,-0.417797000742,-0.0814373281541,-0.0890512664443,-0.910242213578,0.573501860312,0.819177607426,0.00494070961011,0.0,0.819163721333,-0.573420718175,-0.0118416434893,0.0,-0.00686743614807,0.0108386633184,-0.999917677461,0.0,0.380251891718,-0.108568130112,0.304884787522,1.0,-0.24998,-0.328545142857,2.441
-0.156474473496,-0.447334225997,-0.13695230693,-2.58322907887,-0.0595476543088,2.12952070369,-0.422494966591,-0.958712202002,-0.497073676037,-0.0130929524669,-0.392432043191,-0.0819305076977,-0.0841523969106,-0.920574397004,0.5736156519,0.819096696227,0.00514130582911,0.0,0.819087161679,-0.573536685632,-0.0115168879562,0.0,-0.00648484222397,0.0108176530651,-0.999920459438,0.0,0.375832684169,-0.11456231395,0.305024089385,1.0,-0.24998,-0.328545142857,2.459
-0.171018484183,-0.454367228413,-0.137186127186,-2.58912391369,-0.0607353793573,2.12801528086,-0.436263580494,-0.980707116887,-0.464520642809,-0.0218855584052,-0.392550460446,-0.0854521242278,-0.106679978417,-0.928488799244,0.573600295535,0.819107756518,0.00509225643351,0.0,0.819095721004,-0.573518423168,-0.01181376409,0.0,-0.00675637300081,0.0109476348042,-0.999917246934,0.0,0.3717705483,-0.119777157542,0.304934664652,1.0,-0.24998,-0.328545142857,2.475
-0.188649979836,-0.46251019394,-0.137473110567,-2.59575381411,-0.0621783999226,2.12630600991,-0.453084036306,-0.981736138478,-0.442021681673,-0.0180645848952,-0.361348874086,-0.0745019330756,-0.0886892441431,-0.949922365216,0.573505999728,0.819173754347,0.00509660334671,0.0,0.819161458752,-0.573423616629,-0.0118577944182,0.0,-0.00679121200013,0.0109756685902,-0.9999167036,0.0,0.367522529724,-0.125321113534,0.304924821041,1.0,-0.24998,-0.328545142857,2.492
-0.205742771286,-0.469813578031,-0.137783632818,-2.6016489658,-0.0634879818469,2.12476734662,-0.469184766378,-1.00848046919,-0.427307613079,-0.00678579752609,-0.332941329171,-0.0907781106655,-0.0893351975095,-0.945133065262,0.57366455814,0.819062525535,0.00512844023633,0.0,0.819050433592,-0.573581693439,-0.0118817122474,0.0,-0.00679041654212,0.0110167805127,-0.999916256889,0.0,0.363246876228,-0.130976578912,0.304910830387,1.0,-0.24998,-0.328545142857,2.509
-0.22177856423,-0.476414468039,-0.137982553097,-2.60667954788,-0.0645908140215,2.12335680712,-0.484527784931,-1.01397203589,-0.399775497454,-0.0201914836771,-0.307705169605,-0.0739843820948,-0.0929566800726,-0.974016503669,0.573626681991,0.819088150354,0.00527053692328,0.0,0.819079233328,-0.57354554499,-0.0116389112116,0.0,-0.00651052663217,0.0109935890233,-0.99991837369,0.0,0.359335560012,-0.13620976705,0.305019367643,1.0,-0.249296571429,-0.327646922449,2.525
-0.238948797018,-0.482911099583,-0.138172530557,-2.61188434056,-0.0656725815259,2.12185340295,-0.50102180335,-0.98665020993,-0.367305267697,-0.00597798169997,-0.294584276405,-0.0536556758312,-0.0868474381006,-0.969309950721,0.573560967094,0.819133787289,0.00532939483036,0.0,0.819124673609,-0.573478025891,-0.0117673194102,0.0,-0.0065828448284,0.0111149278988,-0.999916558785,0.0,0.354875951632,-0.142020094612,0.304982221971,1.0,-0.243855428571,-0.320495706123,2.543
-0.257165339164,-0.489256801104,-0.138321325547,-2.61701591551,-0.0667306885093,2.12025465322,-0.518317128978,-1.00976455566,-0.33939805284,-0.00267442011818,-0.276792833291,-0.0629783908098,-0.0797136424992,-0.962719929541,0.573689651772,0.819043656626,0.00533093726952,0.0,0.81903296004,-0.57360399732,-0.0120088104681,0.0,-0.00677802360819,0.0112557603355,-0.999913679402,0.0,0.350673812193,-0.147470687629,0.304913572032,1.0,-0.238716571429,-0.313741779592,2.56
-0.273125409924,-0.494426849217,-0.138327960093,-2.62106939851,-0.0675457414066,2.11909243252,-0.533587932145,-0.994122325832,-0.315136670048,-0.001204229734,-0.252700897867,-0.043214993322,-0.0713186453347,-0.955627631664,0.573681453919,0.819048900627,0.00540691335571,0.0,0.819039451253,-0.573595943875,-0.0119506218401,0.0,-0.00668688885358,0.0112845427227,-0.999913968606,0.0,0.346900891857,-0.152454498484,0.304916384149,1.0,-0.23388,-0.307385142857,2.576
-0.289970169192,-0.499487582081,-0.138311795131,-2.62494904117,-0.0683497355929,2.11783136687,-0.549657812789,-0.977115609098,-0.288603748545,0.00641423899797,-0.224075455677,-0.051387193988,-0.0736420788578,-0.937088975154,0.573739344911,0.81900796354,0.00546503984709,0.0,0.818999407028,-0.573653837866,-0.0119160602123,0.0,-0.00662443466644,0.0113127947807,-0.999914065077,0.0,0.342955023517,-0.157671562486,0.304941271993,1.0,-0.228741142857,-0.300631216327,2.593
-0.307545365763,-0.504333462181,-0.138325746333,-2.62864185406,-0.0690454511808,2.11659608674,-0.566485076239,-0.975831846887,-0.258730104941,-6.63557112402e-05,-0.196528166375,-0.0433338281163,-0.0689894249192,-0.935614462493,0.573852681165,0.818927585674,0.00560862227069,0.0,0.818920786888,-0.573766425406,-0.0118987721944,0.0,-0.00652631928581,0.0114213795865,-0.999913475879,0.0,0.338871539824,-0.163074425038,0.304964847529,1.0,-0.2233,-0.29348,2.611
-0.321921180858,-0.507986566103,-0.13824243264,-2.63139206211,-0.0695956957068,2.11571884618,-0.580336921177,-0.95178635849,-0.234103421113,0.00496720930113,-0.180997672047,-0.0389200982262,-0.050791777708,-0.917799633072,0.573828271005,0.818944188196,0.00568145373587,0.0,0.81893902371,-0.573742969786,-0.0117739953553,0.0,-0.00638267381519,0.0114092352364,-0.999914541762,0.0,0.335582754344,-0.167450585387,0.305000229089,1.0,-0.218765714286,-0.287520653061,2.626
-0.338121734344,-0.511788751816,-0.138186714858,-2.63428593177,-0.0701804119013,2.11469883313,-0.595851181895,-0.936563175302,-0.214175135345,0.00462498500311,-0.165415187345,-0.0343874420302,-0.0627172069581,-0.91284686507,0.573933135996,0.818870254845,0.00574526222483,0.0,0.818865820657,-0.573847409341,-0.0117756296301,0.0,-0.00634593117126,0.0114632436115,-0.999914157917,0.0,0.331853287326,-0.172347410975,0.30500853941,1.0,-0.213626857143,-0.280766726531,2.643
-0.353861942332,-0.515047099341,-0.13804785011,-2.63689974569,-0.0706119915329,2.11374932826,-0.611140991199,-0.932843755085,-0.180746602959,0.00258050231553,-0.151818815051,-0.0282827252765,-0.0418760474973,-0.895967521882,0.573867954111,0.818915503182,0.00580661635335,0.0,0.818910516355,-0.573779575744,-0.0119712807697,0.0,-0.00647187415119,0.0116252574218,-0.9999114802,0.0,0.328237750726,-0.177028251314,0.304947339451,1.0,-0.208488,-0.2740128,2.66
-0.368565590037,-0.517716073813,-0.137895903862,-2.63906104122,-0.0710220957471,2.11299250451,-0.625285254683,-0.902324693813,-0.1599249215,0.0102349252376,-0.125899562146,-0.0236476308017,-0.0489144441227,-0.878895230906,0.573917985716,0.818880375774,0.00581573260518,0.0,0.818874600397,-0.573827937462,-0.0121092491481,0.0,-0.00657892331171,0.0117122970907,-0.999909765861,0.0,0.324900879849,-0.181393264822,0.304888352653,1.0,-0.203651428571,-0.267656163265,2.676
-0.383862784567,-0.520256141687,-0.137772968215,-2.64100791974,-0.0713557049369,2.11228386468,-0.640020227471,-0.901027044575,-0.147149913923,0.00671701461067,-0.111775124738,-0.0305571138991,-0.0408752291923,-0.866072326195,0.574035237404,0.818797474302,0.00591516662469,0.0,0.818792785852,-0.573944365815,-0.0121237653632,0.0,-0.00653205766363,0.011802991532,-0.999909006667,0.0,0.321463830481,-0.185932916838,0.304880730808,1.0,-0.198512571429,-0.260902236735,2.693
-0.399583660687,-0.522591324276,-0.137521426801,-2.6427624766,-0.0716467360516,2.11158624942,-0.655389838109,-0.856499907461,-0.125369278213,0.0111881980366,-0.0931329865975,-0.0198561074802,-0.0326183813543,-0.857107916267,0.573917679877,0.818879464756,0.00597208729323,0.0,0.818875437622,-0.573826440204,-0.0121235754631,0.0,-0.00650093055717,0.0118485580188,-0.999908670617,0.0,0.317957860432,-0.190542955032,0.304887712422,1.0,-0.193071428571,-0.253751020408,2.711
-0.41349518852,-0.524440648687,-0.1373897908,-2.64408391667,-0.071891725692,2.11102367139,-0.668735000601,-0.860849201876,-0.108285337242,0.0149082575671,-0.0783598319789,-0.0126457984605,-0.0360242622187,-0.829055876126,0.574105786793,0.818746977173,0.00605638854558,0.0,0.818744352808,-0.574014704058,-0.0120644590069,0.0,-0.00640140651143,0.0118851384763,-0.999908878587,0.0,0.314856046685,-0.194641054539,0.304920403996,1.0,-0.188234857143,-0.247394383674,2.727
-0.427720987634,-0.526028052317,-0.137123514028,-2.6452190096,-0.072061654782,2.11055618709,-0.68265123519,-0.827351967749,-0.0940146821191,0.0168839906079,-0.0588350468726,-0.00372752739879,-0.0353609228073,-0.808524616689,0.574031531287,0.818798587034,0.00611734095295,0.0,0.818797256145,-0.573941142758,-0.0119735074014,0.0,-0.00629301844503,0.011882261546,-0.999909600804,0.0,0.311729075521,-0.198789522722,0.304952625986,1.0,-0.183096,-0.240640457143,2.744
-0.441783683736,-0.527333596798,-0.13692358654,-2.64620891931,-0.0722441756745,2.11013249044,-0.696250742486,-0.797466122499,-0.0707441150506,0.0146603633238,-0.0573116864929,-0.00720290853347,-0.0302069164525,-0.802922343703,0.574133767461,0.818726597225,0.00615816198824,0.0,0.818725727575,-0.574043054306,-0.0119792199853,0.0,-0.00627277666972,0.0119197498479,-0.999909281803,0.0,0.308609341268,-0.202888359774,0.304949054876,1.0,-0.177957142857,-0.233886530612,2.761
-0.454476632223,-0.52831298228,-0.136628562604,-2.64694862002,-0.0723304829969,2.10981487224,-0.708722239948,-0.797267942461,-0.0539171086826,0.0207111094302,-0.0416108217156,-0.0100718923331,-0.0254448333669,-0.775678119847,0.574026704077,0.818801445317,0.00618733019925,0.0,0.818801037928,-0.573936049137,-0.0119590422073,0.0,-0.00624106935459,0.0119312316845,-0.999909343273,0.0,0.305820944581,-0.206545857308,0.304951189149,1.0,-0.173120571429,-0.227529893878,2.777
-0.468673005421,-0.52910897392,-0.136366552776,-2.64757965212,-0.072410296374,2.10948397544,-0.722395127042,-0.763186995006,-0.0386065627245,0.0248594150899,-0.0292621364385,0.00127375337197,-0.0166015322194,-0.745914671019,0.574199725162,0.81867980818,0.00622849935386,0.0,0.818679521334,-0.574108063708,-0.012021623662,0.0,-0.00626614949255,0.0120021889517,-0.999908337214,0.0,0.302689804585,-0.210647892219,0.304933484843,1.0,-0.167679428571,-0.220378677551,2.795
-0.481432555014,-0.52959873491,-0.136031370943,-2.64798691703,-0.0724448743914,2.1092798475,-0.735021274581,-0.74374511624,-0.018720659815,0.0149169731265,-0.0192268394193,-0.0035420539902,-0.012031282291,-0.741482391208,0.574034310969,0.818795782919,0.00623077890672,0.0,0.818795370931,-0.573942378912,-0.0120429702498,0.0,-0.00628474618703,0.0120150423823,-0.999908066135,0.0,0.299902592581,-0.214308412053,0.304918319882,1.0,-0.162540571429,-0.21362475102,2.812
-0.493320928297,-0.529881863953,-0.135806416485,-2.64821908391,-0.0724485000333,2.10909493884,-0.746567003221,-0.718955793103,-0.0142272809692,0.025491144671,-0.0108619864615,-0.00118998401147,-0.00697356193497,-0.721471963156,0.574141269436,0.818720414787,0.00627949385506,0.0,0.818720294012,-0.574048441144,-0.0120919102666,0.0,-0.00629528133407,0.0120838464171,-0.999907170736,0.0,0.297287461324,-0.217735033819,0.304906101308,1.0,-0.157704,-0.207268114286,2.828
-0.50535597943,-0.530026195365,-0.135440869283,-2.64835936024,-0.0724513832059,2.10897044207,-0.758471390039,-0.709924869057,-0.00798026193635,0.020073497982,-0.00741458848141,-0.00148331614329,-0.00527254027437,-0.696613910949,0.573981386781,0.818832735325,0.00625028718199,0.0,0.818832081901,-0.573888433721,-0.0121175159784,0.0,-0.00633537320833,0.0120733967416,-0.999907043748,0.0,0.29465777775,-0.2211648203,0.304893766966,1.0,-0.152565142857,-0.200514187755,2.845
-0.517308735763,-0.530041608567,-0.135194215459,-2.64840865149,-0.0724551202151,2.10890338766,-0.769998571997,-0.695037362206,-0.00234407426116,0.0202540349326,-0.00069842489066,-0.000750758242234,0.00102918669555,-0.673772108256,0.574151795724,0.818713153531,0.00626375315941,0.0,0.818712579542,-0.574058561406,-0.0121337165452,0.0,-0.00633839424277,0.012095041517,-0.999906763018,0.0,0.292015035464,-0.224593227215,0.304877588209,1.0,-0.147426285714,-0.193760261225,2.862
-0.527908425842,-0.529929692728,-0.134829486222,-2.6483287407,-0.0724383478814,2.10890240958,-0.780524232806,-0.654812657961,0.00842823304558,0.019688913547,0.00743527114206,-0.00274766186872,0.000407944430688,-0.651264113578,0.57396711417,0.818843048676,0.00620970104311,0.0,0.818842112675,-0.57387481386,-0.0120846774141,0.0,-0.00633198497608,0.0120212035877,-0.999907694055,0.0,0.289705861667,-0.227603986087,0.304882362147,1.0,-0.142589714286,-0.18740362449,2.878
-0.539025994117,-0.529715850823,-0.134575619966,-2.64817734174,-0.0724074443729,2.10889567325,-0.791322725667,-0.64493306067,0.0192153050038,0.00788520490846,0.0123470391357,0.00600660153276,0.000481530198555,-0.624796833292,0.57407136868,0.818769912888,0.0062161332267,0.0,0.818769116583,-0.573979123756,-0.0120766768415,0.0,-0.0063202106265,0.012022683788,-0.999907750751,0.0,0.287240642809,-0.230778823541,0.304879092425,1.0,-0.137450857143,-0.180649697959,2.895
-0.550219161099,-0.529314227127,-0.134162679729,-2.64786849339,-0.0723485069889,2.1089169132,-0.802373101026,-0.605630381042,0.0275768891625,0.0256887585925,0.0186811242161,0.00693597746709,0.00131500315622,-0.612548740992,0.573939937382,0.818862552615,0.00614939868423,0.0,0.818861010298,-0.573848246175,-0.0120657811986,0.0,-0.00635151702799,0.0119607668067,-0.99990829494,0.0,0.28479577747,-0.233946068003,0.3048852873,1.0,-0.132009714286,-0.173498481633,2.913
-0.559219925419,-0.528863272134,-0.133859681294,-2.64755370846,-0.0723052137247,2.1089490165,-0.811251579131,-0.596245674834,0.0284233179762,0.0193057550507,0.0182553026409,0.00388462437249,0.00505021928424,-0.584676835852,0.573863019454,0.818916857292,0.00609611740706,0.0,0.818914408067,-0.573771179054,-0.0121067439285,0.0,-0.00641676376025,0.0119400408873,-0.999908126063,0.0,0.282814416364,-0.236497121918,0.304874201886,1.0,-0.127475428571,-0.167539134694,2.928
-0.56924289634,-0.528266981704,-0.13358933606,-2.64710771804,-0.0721732551438,2.1090513396,-0.820936116229,-0.578531109913,0.0379431711455,0.0183180445112,0.0297075135446,0.00699767853743,0.00695801896969,-0.555171241832,0.574031064016,0.818798836261,0.00612782039035,0.0,0.818796907833,-0.573939250252,-0.0120874994818,0.0,-0.00638035671012,0.0119562707715,-0.999908165102,0.0,0.280607154891,-0.239354518738,0.304874810058,1.0,-0.122336571429,-0.160785208163,2.945
-0.579113876532,-0.527468555616,-0.133181309064,-2.64654685973,-0.0719793232829,2.10918827701,-0.830816780954,-0.547637071969,0.04309501897,0.0206011629286,0.0344256584971,0.0112631117901,0.00933889313274,-0.53799491783,0.573849872001,0.818925830642,0.00612823082982,0.0,0.818923702182,-0.573757710638,-0.0121163686326,0.0,-0.00640641089887,0.0119717605614,-0.999907813175,0.0,0.278469793286,-0.242140092462,0.304860092063,1.0,-0.116895428571,-0.153633991837,2.963
-0.587748724724,-0.526732335061,-0.132876964604,-2.64599563863,-0.0717999711099,2.10930468534,-0.839229810863,-0.533378451687,0.0369660950446,0.0221424337847,0.0363896658422,0.012178893704,0.00775500688293,-0.519259339997,0.573924222065,0.818873520595,0.0061556069832,0.0,0.818871672432,-0.573831779998,-0.0121251496165,0.0,-0.00639680420035,0.0119998002796,-0.99990753857,0.0,0.276580842659,-0.244585892606,0.304859137589,1.0,-0.112058857143,-0.147277355102,2.979
-0.596518572582,-0.525826827292,-0.132565099221,-2.645304544,-0.0715993128764,2.10945739767,-0.847777775359,-0.499447560631,0.0536409674679,0.0207363245077,0.0456960332236,0.00557436100388,0.00734803621576,-0.48932015932,0.574009987203,0.818813211128,0.00618116288689,0.0,0.818811670774,-0.573917365028,-0.0121265339292,0.0,-0.00638201234312,0.0120221913607,-0.999907364126,0.0,0.274676126396,-0.247086716793,0.304862897488,1.0,-0.10692,-0.140523428572,2.996
-0.605089932486,-0.524799009073,-0.132120783029,-2.64456415793,-0.0713475491047,2.10962802616,-0.856424036779,-0.478578430541,0.0531235287901,0.022401701846,0.0389879533493,0.0129445200616,0.00788454686525,-0.46775349277,0.573783655054,0.818971849437,0.00617850494935,0.0,0.818969909256,-0.573690407592,-0.0121799372202,0.0,-0.00643060049752,0.0120488905127,-0.999906731458,0.0,0.272842256955,-0.249496200622,0.304848860122,1.0,-0.101478857143,-0.133372212245,3.014
-0.612133300201,-0.523986186699,-0.131811072625,-2.64396043179,-0.0711515062063,2.10976379289,-0.863224511303,-0.457082522581,0.0582901178135,0.0236343841242,0.0416435070505,0.0168199364317,0.00728351010327,-0.459849994751,0.573880888733,0.818903604289,0.00619349098438,0.0,0.818901698722,-0.573787249842,-0.01220437012,0.0,-0.00644058052164,0.0120759475584,-0.999906340821,0.0,0.271306030134,-0.251478254864,0.304844799036,1.0,-0.0969445714286,-0.127412865306,3.029
-0.619750816216,-0.522997687197,-0.131495040576,-2.6431691588,-0.0709112683612,2.10995832367,-0.870629626988,-0.436304430644,0.0591135146224,0.0227369838974,0.0525701793121,0.00981415648783,0.00891596580912,-0.432402542737,0.57397734188,0.818835764804,0.00622480412274,0.0,0.818834573032,-0.573884113664,-0.0121537233667,0.0,-0.00637971000063,0.012073279106,-0.999906763269,0.0,0.269664678395,-0.253652072911,0.304866482177,1.0,-0.0918057142858,-0.120658938776,3.046
-0.627126154888,-0.521906860056,-0.131062389957,-2.64236121539,-0.0706134683789,2.11017473055,-0.878023069469,-0.394420675778,0.0606526564198,0.0225291583435,0.0477538283374,0.0251359429914,0.011306661632,-0.405928291138,0.573828027787,0.818940261718,0.00624413031756,0.0,0.818939221458,-0.573734553348,-0.0121639119386,0.0,-0.00637916672647,0.0120937896618,-0.999906518872,0.0,0.268103126175,-0.255724188667,0.30486264079,1.0,-0.0863645714286,-0.113507722449,3.064
-0.633501193975,-0.521014233016,-0.130726174564,-2.64167853114,-0.0703967670945,2.11034653023,-0.884238387528,-0.402707600251,0.0573104594218,0.0171039697022,0.0472877193658,0.0109595156721,0.0120475985634,-0.37996326613,0.573850665237,0.818924381803,0.00624642267074,0.0,0.818923413086,-0.573757254371,-0.0121574444962,0.0,-0.00637222008214,0.0120921321958,-0.999906583212,0.0,0.266724135772,-0.257514813112,0.304868065772,1.0,-0.0815280000001,-0.107151085714,3.08
-0.63952502609,-0.520115404149,-0.130393866778,-2.64094358228,-0.0701661394841,2.11053402181,-0.890069268697,-0.369351217977,0.0589832775422,0.0156389829989,0.0482616123602,0.0109177601222,0.00872742414217,-0.362628977693,0.573911515177,0.818881714817,0.00624954298435,0.0,0.818881209013,-0.573818880681,-0.0120915094808,0.0,-0.00631553185185,0.0120573219825,-0.999907363231,0.0,0.265439240036,-0.259219753481,0.304895930096,1.0,-0.0766914285715,-0.10079444898,3.096
-0.645867314076,-0.519065003821,-0.130085791205,-2.6401632592,-0.069876825364,2.11073999206,-0.896261065548,-0.345945657724,0.0581453416595,0.0132888963483,0.0355996989329,0.0133666530426,0.0140196232794,-0.333493056522,0.573982458689,0.818831486822,0.0063150778354,0.0,0.818831688741,-0.573889233539,-0.0121061985226,0.0,-0.00628890243816,0.0121199647887,-0.999906773734,0.0,0.264070458416,-0.261013505113,0.3048893734,1.0,-0.0712502857144,-0.0936432326532,3.114
-0.65102783236,-0.51818921576,-0.129720975979,-2.63951159605,-0.0696278675228,2.11092377744,-0.901406157989,-0.31829689246,0.0539981209231,0.0190381527024,0.0384913344361,0.012976164304,0.0136923064157,-0.314296007385,0.573878050953,0.818904613222,0.00632170698476,0.0,0.818904880862,-0.573784778777,-0.0121066364364,0.0,-0.0062870022289,0.0121248430677,-0.999906726542,0.0,0.262980146174,-0.262447847874,0.304887783659,1.0,-0.0664137142858,-0.0872865959185,3.13
-0.656790202435,-0.517208637908,-0.129269444444,-2.63878784359,-0.0693554724638,2.11112603111,-0.906978557922,-0.301211883302,0.0503236572283,0.0223725798909,0.0406628958046,0.0156517171113,0.0139769986062,-0.286551357669,0.573868712365,0.818911307068,0.00630230316293,0.0,0.818911257452,-0.573775406517,-0.0121194965165,0.0,-0.00630880763809,0.012116260144,-0.99990669324,0.0,0.261761570005,-0.264033670425,0.304883755361,1.0,-0.0606702857144,-0.079738089796,3.149
-0.661853491113,-0.516276157941,-0.128899973669,-2.63809189055,-0.0690831543694,2.1113250745,-0.9118765579,-0.270006683285,0.0556925863199,0.0168872392206,0.0383030010508,0.013152307263,0.0154500307597,-0.249833289905,0.573895512624,0.818892400354,0.00631855473982,0.0,0.818892562509,-0.573802126832,-0.0121176405234,0.0,-0.0062975648343,0.0121287105175,-0.999906613169,0.0,0.26069538345,-0.265442525761,0.30488222675,1.0,-0.0552291428572,-0.0725868734695,3.167
-0.66592671123,-0.515477498927,-0.128588834609,-2.6375215733,-0.0688553484755,2.11148719649,-0.915870304004,-0.251926605861,0.0474507325867,0.0209038009043,0.0337650600154,0.011039804925,0.012695358454,-0.2385499221,0.573867647332,0.818911809595,0.00633390502031,0.0,0.818911941507,-0.573773753642,-0.0121514850532,0.0,-0.00631688777514,0.0121604887237,-0.999906105313,0.0,0.259837840016,-0.26657113516,0.304868133056,1.0,-0.0503925714286,-0.0662302367348,3.183
-0.66954636583,-0.514841080399,-0.128323877815,-2.63704750905,-0.0686585216611,2.11162743557,-0.919230880259,-0.234853574036,0.0437166941722,0.0211567018837,0.0242105409244,0.0110386661091,0.00672614141163,-0.215505460688,0.574000949422,0.818818265974,0.00634856455015,0.0,0.818818626653,-0.573907031013,-0.012145917084,0.0,-0.00630193426495,0.0121703251604,-0.999906079995,0.0,0.259062421615,-0.267566955893,0.304867009129,1.0,-0.0458582857144,-0.060270889796,3.198
-0.673220720785,-0.51416326951,-0.127950967754,-2.63652938245,-0.0684165485874,2.11177628874,-0.9228230165,-0.205193296426,0.035662254272,0.0256996781781,0.0323497915341,0.0113041693606,0.00567915940764,-0.198790314423,0.573934086603,0.818865159948,0.00634515253313,0.0,0.818865593726,-0.573840425854,-0.01212649862,0.0,-0.00628898328275,0.0121558720437,-0.999906337346,0.0,0.258307320359,-0.268559212204,0.304873822153,1.0,-0.0407194285715,-0.0535169632654,3.215
-0.676226428165,-0.513561355875,-0.127569610863,-2.63606859974,-0.0681944066607,2.11192023996,-0.925681441787,-0.182018271373,0.0346428056663,0.0201303950496,0.0265991084257,0.0144369009758,0.0144104486072,-0.17143618263,0.573902778603,0.81888731154,0.00631811767629,0.0,0.818887580568,-0.573809610156,-0.0120999415896,0.0,-0.00628321296869,0.0121182515108,-0.999906830267,0.0,0.257716988815,-0.269362755228,0.304882241167,1.0,-0.0358828571429,-0.0471603265307,3.231
-0.679116360801,-0.513005291734,-0.127182899452,-2.63565030635,-0.0679756565691,2.11204457157,-0.92843983282,-0.166074137822,0.0292160119051,0.0207898647515,0.0255460099177,0.00678617559257,0.00694476173992,-0.152384106515,0.573850959566,0.818923827608,0.0062918743187,0.0,0.818923834038,-0.573758073495,-0.0120902458638,0.0,-0.00629109785487,0.012090797816,-0.999907113034,0.0,0.25714502889,-0.2701211761,0.304886624108,1.0,-0.0307440000001,-0.0404064000001,3.248
-0.681645000869,-0.512515103582,-0.126850162209,-2.63529533846,-0.0677462836713,2.11215150494,-0.930807286289,-0.143209866804,0.025070488553,0.0214225185421,0.0172898282961,0.00921373155694,0.00280765513819,-0.129778079933,0.573862970167,0.818915303794,0.00630583737427,0.0,0.818915458454,-0.573769953848,-0.0120937532348,0.0,-0.00628578060583,0.0121043379021,-0.999906982657,0.0,0.25664227111,-0.270778008086,0.304883725549,1.0,-0.0256051428572,-0.0336524734695,3.265
-0.683715551079,-0.512108056908,-0.126561871318,-2.63499453316,-0.0675429506582,2.11222330784,-0.932708022866,-0.124228606514,0.0252747403136,0.0138179204786,0.0192893524112,0.00658218975924,0.00611007907825,-0.11055673201,0.573899569333,0.818889521263,0.00632322585509,0.0,0.818889808732,-0.573806285609,-0.0121068018844,0.0,-0.00628594748215,0.0121263470683,-0.999906714934,0.0,0.256234152913,-0.271310559926,0.304882829774,1.0,-0.0207685714286,-0.0272958367348,3.281
-0.68558089919,-0.511761567131,-0.126286791915,-2.63472751963,-0.0673346661494,2.11231483936,-0.934325643655,-0.106107958077,0.0206446931764,0.0150651887194,0.0148264848107,0.0115968388635,0.00494365214684,-0.0929711474328,0.574011904826,0.818810580693,0.00634924918535,0.0,0.818811405623,-0.573918862925,-0.0120734295745,0.0,-0.00624201818614,0.0121293634858,-0.999906953546,0.0,0.255854058538,-0.271815580959,0.304889885948,1.0,-0.019672173913,-0.0258548571429,3.299
-0.68729243261,-0.511453631259,-0.126051432385,-2.63448172061,-0.0671720973037,2.11237154088,-0.935976187182,-0.0918590001096,0.0117947128962,0.0161686439214,0.0133839273514,0.0097829847132,0.00520003688881,-0.0894004488332,0.573974140979,0.818836985059,0.00635800973001,0.0,0.818837985936,-0.573881188314,-0.0120615665864,0.0,-0.00622783454466,0.0121294407315,-0.999907041052,0.0,0.255534577197,-0.272227150062,0.304898430241,1.0,-0.019332173913,-0.025408,3.316
-0.688596475797,-0.511173077244,-0.125896632589,-2.63426581945,-0.0671013821946,2.11240907768,-0.937245355115,-0.0870539835296,0.0161694077714,0.0137059663807,0.00933819049754,0.00698094460867,0.00120797440991,-0.0827131522494,0.573933935406,0.818865359202,0.00633310259952,0.0,0.818865930361,-0.573840899062,-0.0120812896238,0.0,-0.00625887678062,0.0121200573995,-0.999906961007,0.0,0.255268511289,-0.272578320763,0.304899485837,1.0,-0.019032173913,-0.0250137142857,3.331
-0.690103571017,-0.510836862662,-0.125752046447,-2.63399906858,-0.0670397515893,2.11250634175,-0.938833651651,-0.0759428079155,0.0141096838648,0.0121478585987,0.0151281022369,0.00368481573714,0.00390199986281,-0.0822034291795,0.57380457138,0.818956305555,0.00629526452283,0.0,0.818956622366,-0.57371219299,-0.0120464600372,0.0,-0.00625397480065,0.012068094757,-0.999907620177,0.0,0.25496243616,-0.273005349439,0.304907831169,1.0,-0.018672173913,-0.0245405714286,3.349
-0.691512132559,-0.510546984452,-0.125708825842,-2.63377874446,-0.0670022437327,2.11253948319,-0.940225624341,-0.0794191496632,0.0170163036547,-0.000325242701483,0.0111233420305,0.000928684782191,0.0029456420477,-0.0784796523671,0.573814869333,0.818949060882,0.00629907255334,0.0,0.8189492473,-0.573722124771,-0.012074800045,0.0,-0.00627484967812,0.0120875532592,-0.999907254358,0.0,0.254638145937,-0.273409788783,0.304904353315,1.0,-0.018332173913,-0.0240937142857,3.366
-0.692819019778,-0.510259044902,-0.12568755493,-2.63356281395,-0.0669523515899,2.1126111903,-0.941552572742,-0.0769828566104,0.0164260328497,0.000977730754457,0.0110686748351,0.00867691086569,0.0100778005118,-0.0912453693132,0.573815830073,0.818948242181,0.00631796550757,0.0,0.818948716361,-0.573723081344,-0.0120653555682,0.0,-0.00625625954738,0.0120976146795,-0.999907249166,0.0,0.254342122203,-0.273795966332,0.304902351887,1.0,-0.018012173913,-0.0236731428571,3.382
-0.694154703241,-0.509963310269,-0.125680815871,-2.63332675795,-0.0669093169034,2.1126818481,-0.942875036845,-0.0741558617909,0.0190427642876,-2.40066483739e-06,0.00997410677855,0.00905835555357,0.00213711745081,-0.0716191359328,0.573852421986,0.818922469857,0.00633506466142,0.0,0.818923280222,-0.573759809082,-0.0120453100721,0.0,-0.00622948952073,0.0121003952615,-0.999907382658,0.0,0.254037715003,-0.274197964091,0.304906138098,1.0,-0.017672173913,-0.0232262857143,3.399
-0.695549796813,-0.509632066605,-0.125671604547,-2.63307984926,-0.0668652859726,2.112715933,-0.944247069882,-0.0739434340771,0.0194653534948,0.000669035588446,0.0136314232879,0.000675344786456,0.00149170824239,-0.0756654110957,0.573896434036,0.818891441287,0.00635903198935,0.0,0.818892294831,-0.573803181308,-0.0120857556292,0.0,-0.00624820935809,0.0121435681582,-0.999906742468,0.0,0.253713103061,-0.274610961245,0.304898600161,1.0,-0.017312173913,-0.0227531428571,3.417
-0.696694968596,-0.509380329963,-0.125652560915,-2.63289017218,-0.0668335180231,2.1127756923,-0.945450190335,-0.0754314401926,0.018350900325,0.000534132096934,0.0171685150572,0.00256270027769,0.00425403009184,-0.0744533213104,0.57385881964,0.818917745219,0.00636620668663,0.0,0.818918712827,-0.573765582761,-0.0120807583754,0.0,-0.00624055726987,0.0121462893808,-0.999906757203,0.0,0.253450814044,-0.274949278529,0.304896941618,1.0,-0.017012173913,-0.0223588571429,3.432
-0.698055392899,-0.50906603183,-0.125616244814,-2.63263470498,-0.0668040523402,2.11285242403,-0.946802739369,-0.0728775946794,0.0199472028403,0.00202893662063,0.0147318353295,0.000659144314461,-0.000677181166747,-0.0743894493953,0.573865090176,0.818913440195,0.00635473422548,0.0,0.81891441728,-0.573772212891,-0.0120570223186,0.0,-0.00622760760729,0.0121233210868,-0.999907116681,0.0,0.253148149343,-0.275357435979,0.304903781593,1.0,-0.016652173913,-0.0218857142857,3.45
-0.699285751653,-0.508771180132,-0.125577550475,-2.63241796978,-0.0667558974489,2.11290409432,-0.948065606811,-0.0742695722088,0.01649989628,0.00183923386718,0.0142823635418,0.00508339726026,0.000445229587929,-0.0695253359918,0.5738427379,0.818929011121,0.00636661650443,0.0,0.818930019441,-0.573749571581,-0.0120747368525,0.0,-0.00623562887351,0.0121430472239,-0.999906827328,0.0,0.252871249798,-0.27571633896,0.304898150255,1.0,-0.016312173913,-0.0214388571429,3.467
-0.700431073281,-0.508493452721,-0.125547058305,-2.63221439083,-0.0667234582302,2.11294371795,-0.949216714936,-0.0728887379831,0.0153561929324,0.00198406766177,0.0124431679525,0.00180446829189,0.00681769758173,-0.0744435668916,0.573840714631,0.818930394446,0.00637104274737,0.0,0.818931282039,-0.573747181535,-0.012102639369,0.0,-0.00625597185939,0.0121626675985,-0.999906461792,0.0,0.252609643428,-0.276051723555,0.304891644541,1.0,-0.015992173913,-0.0210182857143,3.483
-0.70159508354,-0.508200328289,-0.12552850174,-2.63199955603,-0.0666819775448,2.11301393438,-0.950346117805,-0.0644378367624,0.0203499989798,0.00388076470365,0.0186149244975,0.00497845839538,0.00602526633436,-0.0666217892801,0.573884700383,0.818899479558,0.0063827852069,0.0,0.818900512388,-0.57379108871,-0.0121030668835,0.0,-0.00624893021037,0.012172865354,-0.999906381728,0.0,0.252347240893,-0.276400506418,0.304886844094,1.0,-0.015652173913,-0.0205714285714,3.5
-0.702753267136,-0.507909047982,-0.125494888367,-2.63177628312,-0.0666588712947,2.11307082937,-0.951557457023,-0.0716832596425,0.0147395100211,0.00144545793359,0.0129192911126,0.000731055307645,-6.80407398029e-05,-0.0618701383537,0.573838590398,0.818931866283,0.00637318263372,0.0,0.818932738487,-0.573744963853,-0.0121092191263,0.0,-0.00626016450611,0.0121681794165,-0.999906368492,0.0,0.252087620722,-0.276746511882,0.30488573968,1.0,-0.015312173913,-0.0201245714286,3.517
-0.703814054714,-0.507635912635,-0.125470268973,-2.63156532734,-0.066620308657,2.11311689659,-0.952626593345,-0.062943478367,0.0234629912924,0.000589556941835,0.0184817510783,0.000498283760589,0.00625299144134,-0.0616838864333,0.573841557403,0.818929720169,0.00638179618206,0.0,0.818930640025,-0.573747765017,-0.0121184102467,0.0,-0.00626270559246,0.0121805303541,-0.9999062022,0.0,0.251849996514,-0.277063561889,0.304884629579,1.0,-0.014992173913,-0.019704,3.533
-0.704934413069,-0.507372469605,-0.125452201519,-2.63136795341,-0.0665950414061,2.11317521756,-0.953751835932,-0.0624539790192,0.0132182973749,0.0010066367628,0.00658951449565,0.000497434698337,0.00212239684984,-0.068657983698,0.573842292872,0.818929185036,0.00638433301584,0.0,0.818930123314,-0.573748460151,-0.0121204168574,0.0,-0.00626288244232,0.0121837649992,-0.999906161684,0.0,0.251574805508,-0.27741563423,0.304881046031,1.0,-0.014632173913,-0.0192308571429,3.551
-0.706080451638,-0.507083307509,-0.125441313388,-2.6311506416,-0.0665652742225,2.11321850716,-0.954943985186,-0.0649110858976,0.0187730046242,0.000565795636786,0.0104605298761,0.000449920796289,0.000688657522206,-0.0590408023195,0.573824095186,0.818941868212,0.00639305666442,0.0,0.818942776456,-0.573729946502,-0.0121418400158,0.0,-0.00627569391461,0.0122030628826,-0.999905846029,0.0,0.251326274014,-0.277739190276,0.30487702713,1.0,-0.014292173913,-0.018784,3.568
