nelsonifechukwu/NELSON_IML_WORK/CNN-GradCAM/train2dof/data_sample_2022-02-22-08-55-04/robot_state.csv
position_joint1,position_joint2,position_joint3,position_joint4,position_joint5,position_joint6,position_joint7,velocity_joint1,velocity_joint2,velocity_joint3,velocity_joint4,velocity_joint5,velocity_joint6,velocity_joint7,ee_T_00,ee_T_10,ee_T_20,ee_T_30,ee_T_01,ee_T_11,ee_T_21,ee_T_31,ee_T_02,ee_T_12,ee_T_22,ee_T_32,ee_T_03,ee_T_13,ee_T_23,ee_T_33,v_x,v_y,time
0.465060005866,0.547780733801,-0.123992135151,-1.35583913668,0.0795813360291,1.89410931556,0.159146951228,0.000404613810938,-0.00133595206322,0.000385787773473,0.000192328769755,0.000206355009354,-0.00032745050542,7.71390856011e-06,0.573831404828,0.818959280099,0.00199079751566,0.0,0.818915941156,-0.573771950803,-0.0119656463895,0.0,-0.00865728005832,0.00849672308681,-0.999926425893,0.0,0.661677266249,0.260892389267,0.303212811726,1.0,0.0,0.0,0.0
0.465062963234,0.547786101409,-0.123993872094,-1.35583913563,0.0795757275655,1.89410976007,0.159150104711,0.000641028426235,0.00144982557485,-0.000382360792192,4.25127994663e-05,-0.000180043800852,6.73540960175e-05,0.000607601463087,0.573833911897,0.818957537202,0.00198512432211,0.0,0.818914174989,-0.573774531122,-0.0119627897539,0.0,-0.00865816975437,0.00849046435592,-0.999926471353,0.0,0.661677254991,0.260890383895,0.303211478565,1.0,-6e-05,-7.88571428571e-05,0.004
0.465052457514,0.547785597167,-0.123991416215,-1.35584223464,0.0795757624283,1.89410850315,0.159151630753,-0.00454729365829,-0.00135905833746,0.000209872619782,-0.000103616594668,-0.000374578970277,-0.000593205228316,0.00182435938373,0.573839611573,0.818953555026,0.00198035385133,0.0,0.818910122917,-0.573780242594,-0.0119662313985,0.0,-0.00866366663324,0.00848859282523,-0.999926439631,0.0,0.661678380887,0.260886418638,0.303207787289,1.0,-0.00038,-0.000499428571429,0.02
0.465054248663,0.547771067599,-0.123994909771,-1.35585391982,0.0795777443658,1.89411119624,0.159149295297,-0.000535748497092,-0.00204120891685,-0.00119061277746,-0.00152211036869,0.000444919239088,0.000554246898686,0.000551558840195,0.57383982936,0.818953388843,0.00198596198497,0.0,0.818910021405,-0.573780428498,-0.0119642641662,0.0,-0.00865883527461,0.00849205897761,-0.999926452048,0.0,0.661676848297,0.260884891185,0.303212871897,1.0,-0.00072,-0.000946285714286,0.037
0.465056514025,0.547715252223,-0.12398995372,-1.35589539689,0.0795740443262,1.89411640593,0.15914269943,0.000311979823632,-0.0050942174494,-0.00395603851523,-0.00464261587657,-0.00134755534666,0.000745386407817,0.000135592799973,0.573830331537,0.818959998899,0.00200442346811,0.0,0.818916845976,-0.57377082876,-0.011957522368,0.0,-0.00864281919193,0.00850320888244,-0.999926495856,0.0,0.661668336534,0.260884826579,0.303232952276,1.0,-0.00104,-0.00136685714286,0.053
0.465055936789,0.547591390697,-0.123993822858,-1.35604250256,0.0795750315987,1.89415880385,0.159147662766,0.000378647635525,-0.0093195331473,-0.00108819650392,-0.0102494598421,-7.10547487456e-05,0.00409898696899,0.00169390661277,0.573845942262,0.818949006915,0.00202620925702,0.0,0.818906055122,-0.573786264873,-0.0119558365844,0.0,-0.0086287755869,0.00852024738102,-0.999926472105,0.0,0.661647327713,0.260869413645,0.303254491613,1.0,-0.00138,-0.00181371428571,0.07
0.465036189316,0.547459975231,-0.123996664013,-1.35624503514,0.0795718874496,1.89420532475,0.159138895742,-0.00141812566769,-0.0092335601927,0.00124033754838,-0.0147532251222,-0.000359283322916,0.0074581161103,-0.000505842662114,0.573867236361,0.818934124251,0.00201048985984,0.0,0.818890860007,-0.573807516159,-0.0119766730364,0.0,-0.00865463868038,0.00851955605442,-0.999926254478,0.0,0.661619617471,0.260835032956,0.303255314243,1.0,-0.00172,-0.00226057142857,0.087
0.465023758947,0.547303862104,-0.123994827041,-1.35644833834,0.0795728392658,1.89432170189,0.159133268312,-0.00331217132518,-0.0105174846264,0.000428184040558,-0.012401750033,0.000364948757061,0.00321850742492,-0.000140432050783,0.573883409432,0.818922627685,0.00207584798102,0.0,0.818880147773,-0.573823347462,-0.0119505812542,0.0,-0.00859559685761,0.00855827578962,-0.999926433109,0.0,0.661603108474,0.260813859229,0.303279180603,1.0,-0.00204,-0.00268114285714,0.103
0.465004604821,0.547098701878,-0.123992348782,-1.35667235936,0.0795693665383,1.89443897518,0.159120132267,-0.00148660052542,-0.0199958427204,-0.000236192308401,-0.0130494198882,2.54070820079e-05,0.000591020960673,-0.00079737649888,0.573898358348,0.818911918508,0.00216585159369,0.0,0.818870565785,-0.573837880636,-0.0119092459583,0.0,-0.0085099396101,0.0086084145632,-0.999926735379,0.0,0.661585172252,0.260786141245,0.303327968892,1.0,-0.00238,-0.003128,0.12
0.464983969234,0.546894629035,-0.123996939791,-1.35697083479,0.0795630561697,1.89457464911,0.159113481118,0.00139398313035,-0.0124024321696,-0.000718042355803,-0.0193694081025,2.82754046582e-05,0.00539245394924,0.00063563764117,0.573928213151,0.818890890474,0.00220511907564,0.0,0.818850006027,-0.573867529949,-0.0118942255658,0.0,-0.00847478989387,0.00863225959192,-0.999926828338,0.0,0.661555949282,0.260745277247,0.303342367482,1.0,-0.00272,-0.00357485714286,0.137
0.464945643716,0.54665415607,-0.123989926243,-1.35732782719,0.0795602755916,1.89469643537,0.159073918207,-0.00112565697885,-0.0168557285826,0.00194394102273,-0.0227523985409,0.000230750129682,0.00956055908498,-0.00801907253855,0.573941458701,0.818881560852,0.00222220212846,0.0,0.818840682669,-0.573880484826,-0.0119110218729,0.0,-0.00847860098714,0.00865602543159,-0.99992659058,0.0,0.661513219975,0.260692582718,0.303353098129,1.0,-0.00304,-0.00399542857143,0.153
0.464902652135,0.54636236097,-0.123994945398,-1.35777405835,0.0795489284305,1.89486602689,0.158934118154,-0.00431428902808,-0.0155067554831,-0.000296418365137,-0.02466694112,0.000107348073078,0.0100540967703,-0.00161900980334,0.573887685422,0.818919189786,0.00224321703231,0.0,0.81887846908,-0.573826515071,-0.011913453713,0.0,-0.00846910150642,0.00867407350874,-0.999926514684,0.0,0.66146533517,0.260621777312,0.303362218572,1.0,-0.0034,-0.00446857142857,0.171
0.46486145943,0.546066575044,-0.123992439782,-1.35827444562,0.079537847892,1.89503361815,0.158901979153,-0.0059842742224,-0.0153749118338,0.000188067282042,-0.0321915808736,-0.00614550757875,0.00607695149784,-0.0100134549395,0.573918338348,0.818897764891,0.00222226568565,0.0,0.818856557801,-0.573857030704,-0.0119496008211,0.0,-0.00851040246755,0.00867797895502,-0.999926130137,0.0,0.661402469768,0.260550042679,0.303347947318,1.0,-0.00374,-0.00491542857143,0.188
0.464811760916,0.545754246974,-0.123998036012,-1.35881206266,0.0795209695779,1.89521599107,0.158855218928,-0.00287426221338,-0.0150296993589,-0.000644564364674,-0.0334054546171,-0.00024047897707,0.0130008057921,-0.000973299769243,0.573950198528,0.818875516091,0.00219218097474,0.0,0.818833773548,-0.573888864475,-0.0119820461151,0.0,-0.00855390063508,0.00867229653495,-0.999925808276,0.0,0.661338793471,0.260463854532,0.303329190185,1.0,-0.00406,-0.005336,0.204
0.464748650347,0.545390340309,-0.123996347976,-1.35945362262,0.0794475679523,1.89542297556,0.158773186025,-0.00524315016867,-0.021840003434,-0.00285907784324,-0.0386758815832,-0.00692471348903,0.0116080104361,-0.00548032829978,0.573949757216,0.818876033827,0.00211289264297,0.0,0.818833502963,-0.573888999901,-0.011994045155,0.0,-0.0086092360348,0.00861425244006,-0.999925835105,0.0,0.661262430378,0.260353869783,0.303299244512,1.0,-0.0044,-0.00578285714286,0.221
0.464686044934,0.544981886234,-0.124000925745,-1.36014617494,0.0793890587185,1.89563690362,0.158669290681,-0.00560003775035,-0.029873854947,-0.00142402929403,-0.0436623075285,-0.000291871345031,0.00350646611797,-0.00453881721045,0.573942043361,0.818881616745,0.00204340922209,0.0,0.818838279948,-0.573881679542,-0.0120181562388,0.0,-0.00866893899872,0.00857111186224,-0.999925690008,0.0,0.661177300246,0.260238013002,0.303277369653,1.0,-0.00474,-0.00622971428571,0.238
0.464616259304,0.544576782669,-0.123996594526,-1.36083210371,0.0793708673877,1.89587662912,0.158594463641,-0.00764853207226,-0.0251146623373,-0.000514497504227,-0.041735522688,0.000346517948036,0.0129733123438,-0.00246613973816,0.573968299456,0.818863268165,0.00202142811987,0.0,0.818819380155,-0.573907765581,-0.0120601073431,0.0,-0.00871563342074,0.00857746896594,-0.999925229585,0.0,0.661096237352,0.260131598726,0.303258263127,1.0,-0.00506,-0.00665028571429,0.254
0.464555351926,0.544092952895,-0.124004208117,-1.36161306537,0.0793421057727,1.89616524472,0.158499095145,-0.000161364659935,-0.0339509186263,-0.000897525906745,-0.0470102826741,-0.000354237814752,0.0132153482622,-0.00488654190317,0.573981349284,0.818854120557,0.00202158908438,0.0,0.818810095951,-0.57392067659,-0.0120760362767,0.0,-0.00872844833974,0.00858688247234,-0.99992503701,0.0,0.661006076829,0.260015503551,0.30325421568,1.0,-0.0054,-0.00709714285714,0.271
0.464472452397,0.543594729438,-0.123997449168,-1.36244249099,0.0793052578169,1.89644542304,0.158402846235,-0.00365476696166,-0.0326081637287,-0.003460375974,-0.0556700360287,-0.000142962111882,0.0190697185185,-0.00363181238014,0.574008333662,0.818835295277,0.0019846906082,0.0,0.818790614573,-0.573947647857,-0.0121150281963,0.0,-0.00878127325082,0.0085793383689,-0.999924639257,0.0,0.660901232015,0.259871980256,0.303239392298,1.0,-0.00576,-0.00757028571429,0.289
0.464402661563,0.543078147828,-0.12400969865,-1.3632506216,0.0792553329736,1.89673036337,0.158290691662,-0.00492968065847,-0.0300712148188,-0.000842297344671,-0.0553199926154,-0.00203888541066,0.0195400220391,-0.0101496543445,0.574007466198,0.818835919945,0.0019778417785,0.0,0.818791160475,-0.573946821116,-0.0121173000482,0.0,-0.00878707370916,0.00857502515868,-0.999924625299,0.0,0.660814254737,0.259754643834,0.303241891317,1.0,-0.00606,-0.00796457142857,0.304
0.464320331889,0.542459034,-0.124002890515,-1.36420953277,0.0792061542956,1.89707953324,0.15815825384,-0.00653519239863,-0.0354457936363,0.00207314417937,-0.056070756597,-0.00269274998286,0.0243138585132,-0.00793846642633,0.574001858403,0.818839815731,0.00199239154554,0.0,0.81879511511,-0.573941021688,-0.0121247678829,0.0,-0.00878489659628,0.00859116516895,-0.999924505887,0.0,0.660701784979,0.25961422729,0.303253410604,1.0,-0.00642,-0.00843771428571,0.322
0.464236323101,0.541852327286,-0.124013057746,-1.36516057894,0.0791514720095,1.89743318235,0.158026196891,-0.00861691180984,-0.0319194233219,-0.000140129320231,-0.0583206885335,-0.00827304808275,0.0221080680749,-0.00549408010721,0.574007929195,0.818835544182,0.00199892649232,0.0,0.818790949483,-0.573947083029,-0.0121191513381,0.0,-0.00877648282596,0.00859335733251,-0.999924560934,0.0,0.660596168101,0.259463053951,0.303260753552,1.0,-0.00676,-0.00888457142857,0.339
0.464155009299,0.541232793313,-0.124011541488,-1.36610521945,0.079092347249,1.8977805586,0.157913767258,-0.0051084825118,-0.0330056645978,0.00236522227176,-0.0621989762174,-0.00197443465626,0.0203360266564,-0.00879750745676,0.574018007429,0.818828434569,0.00201712405013,0.0,0.818784082025,-0.573957084473,-0.0121094635244,0.0,-0.00875799904096,0.00860280481769,-0.999924641762,0.0,0.660487831066,0.259320229549,0.303279189715,1.0,-0.00708,-0.00930514285714,0.355
0.46406628664,0.540533481021,-0.124011988105,-1.36716521007,0.0790261378347,1.89816405849,0.157783170173,-0.00508406354508,-0.038831045315,0.000784327648652,-0.0667200541131,-0.00536828312395,0.022464045171,-0.00269811813363,0.574025030293,0.818823465378,0.00203569258679,0.0,0.818779360573,-0.573964030484,-0.0120994756499,0.0,-0.00873908851349,0.00861235076544,-0.99992472504,0.0,0.660364761744,0.259160044267,0.303302214627,1.0,-0.00742,-0.009752,0.372
0.463963483713,0.539796055105,-0.124017318392,-1.36828089785,0.0789701205939,1.89858943454,0.157633477512,-0.00558487282868,-0.0425954155451,-0.00061038611167,-0.0725976005584,-0.00601738885624,0.0261392498358,-0.0125410457309,0.574037260708,0.818814778542,0.00208054348759,0.0,0.818771197827,-0.573976003966,-0.0120838479702,0.0,-0.00870041877256,0.00864023442235,-0.999924821705,0.0,0.660242178864,0.258986114645,0.303329369074,1.0,-0.00776,-0.0101988571429,0.389
0.463866612956,0.539074223497,-0.12402041647,-1.36938567643,0.0789038939168,1.89900930607,0.157502132585,-0.00758479928374,-0.0479060323122,-0.000326227909623,-0.0693349380302,-0.00737055888378,0.0273766837204,-0.00947426159601,0.574054665887,0.818802498535,0.00211089269723,0.0,0.81875933701,-0.573993299438,-0.0120659504327,0.0,-0.0086681589864,0.00865499488502,-0.999924974227,0.0,0.660118909329,0.258816473301,0.303350008572,1.0,-0.00808,-0.0106194285714,0.405
0.463752864266,0.538256136798,-0.124026484771,-1.37064458244,0.0788293606833,1.89948771841,0.157346228608,-0.00471772673387,-0.0472030083084,-0.000481505050536,-0.0665827233617,-2.12387389925e-05,0.0301537557434,-0.0059732972634,0.574074084451,0.818788804486,0.00214152065699,0.0,0.818746071199,-0.574012613668,-0.012047287996,0.0,-0.00863509091829,0.00866956436671,-0.999925134127,0.0,0.659979453817,0.258619575262,0.303370326982,1.0,-0.00844,-0.0110925714286,0.423
0.463645458357,0.537461641378,-0.12403288435,-1.37191076322,0.0787549404795,1.89997039935,0.157198413363,-0.00631681446058,-0.0438972024119,-0.000514791711805,-0.0744595741827,-0.000372305015586,0.0301682036196,-0.00481841069106,0.574095552392,0.818773733346,0.00214876891056,0.0,0.818731114908,-0.574034068558,-0.0120414499363,0.0,-0.00862592243487,0.0086723737887,-0.999925188899,0.0,0.659836687665,0.258425815488,0.303370766712,1.0,-0.00878,-0.0115394285714,0.44
0.463542132024,0.536676858495,-0.124033983647,-1.37312751628,0.0786878195008,1.90043006287,0.157040302289,-0.00704449608113,-0.048446967938,0.00110664508981,-0.0747402298027,-0.0012580053126,0.026213605207,-0.0153741199243,0.574100581403,0.818770137999,0.00217496111086,0.0,0.81872781313,-0.574038937969,-0.0120338108701,0.0,-0.00860457828537,0.0086894862705,-0.999925224235,0.0,0.659697591001,0.25824319768,0.30338556699,1.0,-0.0091,-0.01196,0.456
0.463427103926,0.53581998026,-0.124041815972,-1.37449514931,0.0786088002487,1.90092468134,0.156878553663,-0.00563652677703,-0.0539274311668,0.000928939048135,-0.0880558703272,-0.00461529831927,0.0294456066416,-0.0127475520697,0.574121847007,0.818755264616,0.00216063753191,0.0,0.818712724333,-0.574060232462,-0.0120445598414,0.0,-0.00862137668449,0.00868415357944,-0.999925125867,0.0,0.65953728555,0.258032453141,0.303382543805,1.0,-0.00944,-0.0124068571429,0.473
0.463307474784,0.534923006496,-0.124045771693,-1.37591358919,0.0785309572711,1.9014344043,0.156698851032,-0.010127486994,-0.054850885897,-0.000174532345204,-0.0830610408685,-0.00404133807992,0.0262413826145,-0.00605599142547,0.574132397773,0.818747884035,0.00215386073003,0.0,0.818705163144,-0.574070717813,-0.0120587599369,0.0,-0.00863678209189,0.00868686890627,-0.999924969337,0.0,0.659369148656,0.257816653148,0.303384649345,1.0,-0.00978,-0.0128537142857,0.49
0.463199483412,0.534081090835,-0.124050990597,-1.37730721073,0.0784569449244,1.90193876143,0.156536295098,-0.00337281260243,-0.0515715873378,-0.00210991041762,-0.0879323962075,-0.00477941494358,0.030093213699,-0.0148040876135,0.574147987918,0.818737049308,0.00211635564611,0.0,0.818693727029,-0.574086354326,-0.0120907402733,0.0,-0.00868433331829,0.00867468830661,-0.999924663231,0.0,0.659200986812,0.257610282367,0.303359154602,1.0,-0.0101,-0.0132742857143,0.506
0.463061783518,0.533109979615,-0.124046769366,-1.37887301285,0.0783659922604,1.90253363898,0.156340454569,-0.00498971315595,-0.049579886713,0.00103157087166,-0.0868922642609,-0.00803866598814,0.0312134111488,-0.00323661224978,0.574158870314,0.818729414857,0.00211749574932,0.0,0.818686051648,-0.574097174655,-0.0120966850986,0.0,-0.00868843086465,0.00867915038566,-0.999924588915,0.0,0.659020290984,0.257374487147,0.30335017154,1.0,-0.01046,-0.0137474285714,0.524
0.462931769685,0.53220967582,-0.124049275032,-1.38034441006,0.0782891250897,1.9030774586,0.156156408091,-0.00849719774201,-0.0515611982925,-0.00029246620588,-0.097731934958,-0.000596498779131,0.0255221441897,-0.00817997841611,0.574176246687,0.818717277228,0.00209871638048,0.0,0.818673542506,-0.574114504316,-0.0121207935307,0.0,-0.00871876742611,0.00867780238483,-0.999924336558,0.0,0.658847899573,0.25714896395,0.303331814007,1.0,-0.01078,-0.014168,0.54
0.462802948108,0.531215106578,-0.124042509431,-1.38194205941,0.0781943772584,1.90365510419,0.155950700598,-0.00979041410277,-0.0572443506143,0.00226265353766,-0.0956578252394,-0.0110918123457,0.0352636507196,-0.0107047003143,0.574170147973,0.818721604414,0.00207907268518,0.0,0.818677512888,-0.574108392786,-0.0121420807543,0.0,-0.00874753917554,0.00867387735743,-0.999924119326,0.0,0.658653457161,0.256915308084,0.303322214953,1.0,-0.01112,-0.0146148571429,0.557
0.462665496408,0.530176654796,-0.124053123735,-1.38358993779,0.0780931248764,1.90424107771,0.155728234993,-0.00598345875526,-0.0672942067748,-0.00126926403296,-0.0958772596365,-0.00351883705856,0.0401178473303,-0.0158206543365,0.574170347623,0.818721522851,0.00205592587998,0.0,0.818677131979,-0.574108697461,-0.0121533524273,0.0,-0.00877005512875,0.00866140084978,-0.999924030248,0.0,0.658456192003,0.256660027799,0.303320673116,1.0,-0.01146,-0.0150617142857,0.574
0.462519349165,0.52913202534,-0.124047467462,-1.38523665633,0.0779881136567,1.90485307419,0.155501939059,-0.0100501230118,-0.0613480761569,0.00105525978703,-0.0945028873162,-0.00333337842065,0.0329494682103,-0.0207676384263,0.574161934377,0.818727407432,0.00206211889501,0.0,0.818683097742,-0.574100258207,-0.012150139867,0.0,-0.00876395825653,0.00866453651304,-0.999924056538,0.0,0.658262813934,0.256409881327,0.303325512415,1.0,-0.0118,-0.0155085714286,0.591
0.462387150633,0.528100621106,-0.124054692262,-1.38684369943,0.0778919873722,1.90547478544,0.155277349328,-0.00752696047245,-0.0627032919208,-0.000435239864165,-0.100315811629,-0.0042909690055,0.0392699105823,-0.0177522263811,0.574152818203,0.818733706823,0.00209894297325,0.0,0.81868992544,-0.574091028471,-0.0121261665103,0.0,-0.00872328487654,0.00868082327489,-0.999924270937,0.0,0.65807872752,0.25616806675,0.303340948323,1.0,-0.01212,-0.0159291428571,0.607
0.462237939438,0.526943042432,-0.124058451233,-1.38860766558,0.0777769429925,1.90614380238,0.155042751505,-0.00399045574184,-0.0669491527276,0.00145276740686,-0.106389660102,-0.00859640602784,0.0362604239158,-0.00790512527488,0.574142698365,0.818740646038,0.00215947692032,0.0,0.818697758475,-0.574080751745,-0.0120837761067,0.0,-0.0086539311374,0.00870593835079,-0.999924655218,0.0,0.657863457863,0.255890604002,0.303380924926,1.0,-0.01248,-0.0164022857143,0.625
0.462091407053,0.52578308083,-0.12405848908,-1.390412499,0.0776618256517,1.90680633427,0.154799906175,-0.013061583149,-0.0693383287301,-0.000773183693023,-0.105221669869,-0.0070251182921,0.0313364653554,-0.0113685774607,0.574137496431,0.818744296702,0.00215840487767,0.0,0.818701415439,-0.574075575479,-0.0120819244522,0.0,-0.00865308581491,0.00870394256338,-0.999924679908,0.0,0.657657899186,0.255631230489,0.303388703505,1.0,-0.0128,-0.0168228571429,0.641
0.461937852768,0.524613319178,-0.124073048472,-1.39227245004,0.0775438161221,1.90747249036,0.15453928229,-0.0101969451737,-0.066025516735,-0.0024167950766,-0.112064362657,-0.0147646084551,0.0417187376991,-0.0129430222059,0.574128329429,0.818750794759,0.00213174320277,0.0,0.818707615462,-0.574066574209,-0.0120894855725,0.0,-0.00867468041772,0.00868635778905,-0.999924645715,0.0,0.657433739039,0.25534250099,0.303384366624,1.0,-0.01314,-0.0172697142857,0.658
0.461790594554,0.523474568385,-0.124074386341,-1.39406928579,0.077437707655,1.90813231409,0.154305123021,-0.00877701911339,-0.0718176142598,-0.000764289189686,-0.1116659529,-0.012374900426,0.0382010814081,-0.0131928215426,0.574126037107,0.818752396313,0.00213399825479,0.0,0.818709190093,-0.57406421603,-0.0120948267042,0.0,-0.00867778338617,0.00869124624147,-0.999924576313,0.0,0.657216491714,0.25507420309,0.303386999169,1.0,-0.01346,-0.0176902857143,0.674
0.461618397905,0.522176181406,-0.124067612483,-1.39612274253,0.0773138487918,1.90893693668,0.15402888287,-0.0119632404739,-0.0749711750552,0.00217193762799,-0.112044319686,-0.0056945435091,0.0441172794341,-0.0110141424868,0.574113016163,0.818761417629,0.00217544832298,0.0,0.818718749087,-0.574051015778,-0.0120742734485,0.0,-0.00863729722069,0.00871324563417,-0.999924735391,0.0,0.65697681302,0.254772834162,0.303391667064,1.0,-0.01382,-0.0181634285714,0.692
0.461462246941,0.520994945499,-0.12407762235,-1.39802027994,0.0771973519756,1.90966482454,0.153772046694,-0.0120583938392,-0.0733674774308,-0.000308037557754,-0.116614724588,-0.000805437056319,0.0430969900109,-0.0150089345764,0.574107894216,0.818764997346,0.00217986705204,0.0,0.818722448874,-0.574045938675,-0.0120647793541,0.0,-0.00862704130508,0.00871135888091,-0.999924840368,0.0,0.656754119144,0.254485240596,0.303381784803,1.0,-0.01414,-0.018584,0.708
0.461287556104,0.51969924779,-0.124086154825,-1.40006785172,0.0770739784635,1.91040381671,0.153499125539,-0.012024084693,-0.0774235332096,-0.00287691793943,-0.118581355302,-0.00801577743106,0.0384641637675,-0.0115400213592,0.574109283646,0.818764055945,0.00216749304535,0.0,0.818721313162,-0.574047347485,-0.012074813471,0.0,-0.00864234601083,0.00870700290112,-0.999924746146,0.0,0.656505318831,0.254169749525,0.303381433873,1.0,-0.01448,-0.0190308571429,0.725
0.461120539144,0.518347599236,-0.124081813193,-1.40215567888,0.0769376706455,1.91113984435,0.153209560661,-0.0100346991878,-0.0770010130166,0.000675167950102,-0.12277687371,-0.00701380168535,0.044273962711,-0.0260300603784,0.574079695361,0.818784808717,0.00216501488173,0.0,0.818742009228,-0.574017749042,-0.0120786178997,0.0,-0.00864719836284,0.00870684555225,-0.999924705566,0.0,0.656242973526,0.25386055552,0.303400083842,1.0,-0.01482,-0.0194777142857,0.742
0.460942076833,0.517058868046,-0.12408961839,-1.40416132023,0.0768073820876,1.91186210004,0.152932086008,-0.0129614654608,-0.0817411962577,0.000485263686162,-0.119729700173,-0.00496402717284,0.0453018944506,-0.00959088834872,0.574075104413,0.818788030426,0.00216393732933,0.0,0.818745266787,-0.574013213541,-0.0120733464543,0.0,-0.00864354935877,0.00870288862996,-0.999924771562,0.0,0.656000281438,0.253545771215,0.303412513609,1.0,-0.01514,-0.0198982857143,0.758
0.460761900248,0.515712363324,-0.124087635824,-1.40633560666,0.0766785708915,1.91269055046,0.152645739029,-0.0120120605483,-0.0751735683615,-0.000102041720351,-0.13241375361,-0.00386355533844,0.0437898480005,-0.0137015744614,0.574067204109,0.818793568735,0.00216422430304,0.0,0.818750757251,-0.574005261084,-0.0120790997264,0.0,-0.00864817954025,0.00870634291916,-0.999924701457,0.0,0.655737730885,0.253223747523,0.303393791137,1.0,-0.01548,-0.0203451428571,0.775
0.460560717744,0.514231969687,-0.12409600882,-1.40869699666,0.0765319493868,1.91353639948,0.152322998506,-0.0118699172725,-0.0837592704354,0.000296152380534,-0.131733018512,-0.00637239083252,0.0511294870995,-0.017866639741,0.57405832382,0.818799882111,0.00213091741066,0.0,0.818756607187,-0.573996496205,-0.0120990674555,0.0,-0.00868374306778,0.00869044041055,-0.999924531578,0.0,0.65544550085,0.25285989696,0.303381245677,1.0,-0.01584,-0.0208182857143,0.793
0.460381439319,0.512901573504,-0.12409458802,-1.41083282396,0.076393797742,1.91428209438,0.152016642256,-0.00918425273092,-0.0849441268983,0.0025914935754,-0.133692583146,-0.0144456370992,0.0521873644942,-0.0213316335863,0.574027834144,0.81882139616,0.00207694952349,0.0,0.818777359261,-0.573966188218,-0.0121325036978,0.0,-0.00874242313437,0.00866512089699,-0.999924239989,0.0,0.655173831042,0.25253559252,0.303361491529,1.0,-0.01616,-0.0212388571429,0.809
0.460180783146,0.511488596482,-0.124103192047,-1.41312648643,0.076258467135,1.91513737832,0.1516896154,-0.0103043081657,-0.0862248422589,4.1093131108e-06,-0.130430300034,-0.00758684103227,0.0542564725746,-0.0230669354111,0.574014281851,0.818830954673,0.00205397201302,0.0,0.818786569751,-0.57395269146,-0.012149405815,0.0,-0.00876959563907,0.00865586380494,-0.999924082225,0.0,0.654895329628,0.252181654499,0.303333918691,1.0,-0.0165,-0.0216857142857,0.826
0.459979506413,0.510028307105,-0.124108754392,-1.41545195889,0.0761142072274,1.9160178395,0.151371603658,-0.0125492140555,-0.082178499954,-0.000458029379131,-0.137494715051,-0.00747994615435,0.0541197845521,-0.0174006926558,0.574005287851,0.818837238148,0.00206248440946,0.0,0.818792994742,-0.573943691007,-0.0121415903498,0.0,-0.00875840502055,0.00865825154808,-0.999924159635,0.0,0.654614552002,0.251826268759,0.303325906205,1.0,-0.01684,-0.0221325714286,0.843
0.459790574815,0.508607461034,-0.124110668032,-1.41768928953,0.0759753234957,1.91680707241,0.151061399251,-0.0122462800027,-0.0830109612964,-0.000979601202394,-0.139370530129,-0.00817457125722,0.0501998266487,-0.0217618619205,0.573986006097,0.818850813388,0.002038901871,0.0,0.818806182918,-0.573924438159,-0.0121622778019,0.0,-0.0087890846771,0.00865060926994,-0.999923956584,0.0,0.654330415917,0.251485868393,0.303323712366,1.0,-0.01716,-0.0225531428571,0.859
0.459576875206,0.507079272353,-0.124112946556,-1.42009103243,0.0758191852531,1.91767920051,0.150726209025,-0.0138654840811,-0.0924223438166,0.00083384543897,-0.142749567131,-0.00371643184752,0.0492923581966,-0.0212210199052,0.573970353593,0.818861801283,0.00203236243388,0.0,0.818817106215,-0.573908837245,-0.012163058926,0.0,-0.00879364288484,0.00864553481276,-0.999923960395,0.0,0.654032659431,0.251113855909,0.303325047721,1.0,-0.0175,-0.023,0.876
0.459347039518,0.505398864761,-0.124117098428,-1.42269122185,0.0756548775787,1.91866349497,0.150366513993,-0.0109502695255,-0.0892519320977,-0.0007413854181,-0.146669491802,-0.00533625404073,0.0501358279631,-0.0233969473316,0.573968600382,0.818862888932,0.00208849397225,0.0,0.818818993051,-0.573906901819,-0.0121273065423,0.0,-0.0087321682864,0.00867095863666,-0.99992427899,0.0,0.653704035954,0.250686363413,0.303349562152,1.0,-0.01788,-0.0234994285714,0.895
0.459135096018,0.503834977162,-0.124117865065,-1.42502423584,0.0755105327659,1.91955744859,0.150041861849,-0.0105028865411,-0.0973715757113,0.00150885574278,-0.14666126714,-0.00771479874239,0.0501270457597,-0.0205923784811,0.573946576107,0.818878065887,0.00218812356341,0.0,0.818835513568,-0.573884493468,-0.0120721488985,0.0,-0.00863005391353,0.00872064970786,-0.999924733387,0.0,0.653438227952,0.250357090431,0.303407120084,1.0,-0.01818,-0.0238937142857,0.91
0.458900486291,0.502137292347,-0.124131256732,-1.42752168485,0.0753530541335,1.920480947,0.149701594288,-0.0176031856869,-0.102824972869,-0.000900419124629,-0.150012852755,-0.0139892159092,0.0568274075591,-0.0209692263963,0.573955056207,0.818871842949,0.00229023588199,0.0,0.818830712454,-0.573892636106,-0.0120105564724,0.0,-0.00852092105992,0.00876900392463,-0.999925246443,0.0,0.653136924968,0.249959295191,0.303484179602,1.0,-0.01852,-0.0243405714286,0.927
0.458674481816,0.500422537718,-0.124134495397,-1.43010719486,0.0751894007467,1.92139252514,0.149331103205,-0.0110714172196,-0.0992567956978,-0.00142120068664,-0.148391905739,-0.0152547900133,0.0525823122385,-0.0197812297367,0.573926591485,0.81889169538,0.00232502146748,0.0,0.81885097585,-0.573863988121,-0.0119978909721,0.0,-0.00849089066326,0.00878992400139,-0.999925318217,0.0,0.652807227186,0.249561218807,0.303529274454,1.0,-0.01886,-0.0247874285714,0.944
0.458442000389,0.498825621674,-0.124137624599,-1.43257468478,0.0750326566487,1.92230867788,0.148982215454,-0.014033747794,-0.101215116994,-0.00193271355677,-0.158546826658,-0.00566020217436,0.0582006064777,-0.0188067870903,0.573909609314,0.818903489812,0.00236254334492,0.0,0.818863237548,-0.573846832531,-0.0119815645071,0.0,-0.00845616978056,0.00881110453858,-0.999925426034,0.0,0.652520602885,0.249203570927,0.303550012088,1.0,-0.01916,-0.0251817142857,0.959
0.458192063093,0.497147737576,-0.1241298658,-1.43522195798,0.0748689633591,1.92328062608,0.148595323989,-0.0164106344306,-0.100018187229,0.00514663518399,-0.15555255765,-0.00880047726691,0.0546260444597,-0.0254325741267,0.573889252197,0.81891775295,0.00236368727357,0.0,0.818877467347,-0.573826423124,-0.0119865131821,0.0,-0.00845978510428,0.00881467104443,-0.99992536402,0.0,0.652171600098,0.248762068766,0.303541921012,1.0,-0.01952,-0.0256548571429,0.977
0.45792686574,0.495472058908,-0.124134511956,-1.43792297136,0.0746989493842,1.92420812923,0.148202192846,-0.011516305346,-0.102395944787,-0.000204962389747,-0.160352459456,-0.0181106234371,0.057054043008,-0.0201836354257,0.57387806005,0.818925835583,0.00227923434384,0.0,0.818884313599,-0.573815440715,-0.0120444110929,0.0,-0.00855578428425,0.00877862153932,-0.999924864357,0.0,0.651822968699,0.24832387467,0.303504502954,1.0,-0.01986,-0.0261017142857,0.994
0.457648552962,0.493852134506,-0.124147630137,-1.44056965957,0.0745438978301,1.92514233653,0.147836219206,-0.0168470607273,-0.107676540403,-0.00363658992428,-0.173951206806,-0.0113681325757,0.0675249768542,-0.0218018287446,0.573907166367,0.818905649683,0.00220186534688,0.0,0.818862955456,-0.573844705245,-0.0121021215062,0.0,-0.00864713338771,0.00874868866547,-0.999924340903,0.0,0.651490481308,0.247880806928,0.303454409645,1.0,-0.0252462857143,-0.0331808326531,1.01
0.457342727628,0.49134972138,-0.124233207022,-1.44435149779,0.074336805419,1.92658506917,0.147271004772,-0.0263043069115,-0.157542412184,-0.00355745422108,-0.252742137477,-0.0141537593263,0.0933041071535,-0.0398878084177,0.573890853599,0.818916710026,0.00233604282716,0.0,0.818875951062,-0.573828019929,-0.0120136263028,0.0,-0.00849783610711,0.00880760911934,-0.999925103597,0.0,0.651031310506,0.247280391148,0.303523411184,1.0,-0.0351937142857,-0.0462545959184,1.027
0.456853185329,0.487900220343,-0.124251755141,-1.44987874408,0.0740366344604,1.92863523179,0.146456570478,-0.0307559970312,-0.215958882996,0.00225267776244,-0.335796826966,-0.0207387756843,0.123612225384,-0.0414348462514,0.573833644022,0.818956819403,0.00232891434965,0.0,0.818915547067,-0.573770412277,-0.012065971505,0.0,-0.00854541202583,0.00883121459433,-0.99992448994,0.0,0.650325099922,0.246431844086,0.303469365798,1.0,-0.0457262857143,-0.0600974040816,1.045
0.456263131647,0.483979466708,-0.124349759487,-1.45599406847,0.0736672658894,1.93091930155,0.145528004027,-0.0382183820386,-0.258913028213,-0.00433139649241,-0.402740927356,-0.0297379380398,0.147172952981,-0.066414499468,0.573830176221,0.818959079644,0.00238780808966,0.0,0.818918841021,-0.573766977471,-0.0120055939368,0.0,-0.00846220765436,0.00884476340684,-0.999925077794,0.0,0.649574692814,0.245413176099,0.303482139578,1.0,-0.0550885714286,-0.072402122449,1.061
0.455487150803,0.479017859023,-0.124484047791,-1.46387807576,0.0731938557196,1.93364372328,0.144341612903,-0.0519487418043,-0.315915240527,-0.010487037251,-0.488567419665,-0.0333156940139,0.1727420928,-0.0751672594787,0.573848682788,0.81894662101,0.00220637722898,0.0,0.81890393152,-0.57378615505,-0.0121056233158,0.0,-0.00864803710436,0.0087537755186,-0.999924288568,0.0,0.648556229457,0.244071205668,0.303410204687,1.0,-0.065036,-0.0854758857143,1.078
0.454562212582,0.473172015741,-0.124613685306,-1.47295610389,0.0726350326877,1.93689326021,0.143024335268,-0.055785830334,-0.357891039624,-0.00742589410992,-0.563046195121,-0.0361788901397,0.200376370957,-0.0842566411599,0.573908919065,0.818904418206,0.00220303450876,0.0,0.818861814279,-0.573846528645,-0.0120928730757,0.0,-0.00863886981018,0.00874435690599,-0.999924450221,0.0,0.647398764365,0.242528848123,0.303420690754,1.0,-0.0749834285714,-0.0985496489796,1.095
0.453547975404,0.466921588304,-0.12468794586,-1.48241591106,0.0720810038365,1.94043530721,0.141540157204,-0.0686688899044,-0.409654112033,-0.000673408951463,-0.609937787439,-0.0370796467536,0.22819881669,-0.105252307665,0.573880556603,0.818923456576,0.00249518012055,0.0,0.818884577658,-0.57381687729,-0.0119577051165,0.0,-0.00836082971357,0.00890573045007,-0.999925389462,0.0,0.64620983486,0.240943411784,0.303543810351,1.0,-0.0843457142857,-0.110854367347,1.111
0.452285125632,0.459582063586,-0.124737078009,-1.49379200326,0.0713575305195,1.94444068174,0.139774868043,-0.0774933258756,-0.445606895488,-0.00156938000442,-0.687788310379,-0.0404243919826,0.241973327637,-0.100386032313,0.573841470319,0.818950931463,0.00246692095883,0.0,0.818911355629,-0.573777560579,-0.0120103912662,0.0,-0.00842061934778,0.00891242176163,-0.999924828129,0.0,0.644707741681,0.239008069312,0.303535054354,1.0,-0.0942931428571,-0.123928130612,1.128
0.450769409057,0.450890140181,-0.124890178093,-1.50711965185,0.070463771401,1.94904577492,0.13768913502,-0.0865233390387,-0.515218667117,-0.00660521634239,-0.770536059616,-0.0518962991114,0.280027999398,-0.120937660438,0.573854271123,0.818942152694,0.00240269765206,0.0,0.818901973716,-0.573790867726,-0.0120143439176,0.0,-0.00846056959257,0.00886222704668,-0.99992493703,0.0,0.64293543241,0.236654287307,0.303567401548,1.0,-0.104825714286,-0.137770938775,1.146
0.449292032857,0.442446822268,-0.124974502725,-1.51985076716,0.0696181994606,1.95366272589,0.135728810125,-0.0968527645484,-0.534948592695,-0.00283252916816,-0.810708787038,-0.0491515266115,0.287095788403,-0.126637293613,0.573862856963,0.818935347167,0.00265809347904,0.0,0.818898780795,-0.573798757408,-0.0118541009862,0.0,-0.00818268911323,0.00897951065128,-0.999926203271,0.0,0.641253303989,0.234445571162,0.303694046695,1.0,-0.114188,-0.150075657143,1.162
0.447507097548,0.432771500671,-0.125035194126,-1.53447489628,0.0686401760804,1.95875645234,0.133333600693,-0.109911258513,-0.5874833653,-0.00212682822194,-0.874000140645,-0.0559340936098,0.322391700986,-0.1378028737,0.573782112017,0.81899154283,0.00277265287578,0.0,0.818956257647,-0.57371736582,-0.0118228219258,0.0,-0.00809222786581,0.00905457948619,-0.999926262501,0.0,0.639255549704,0.231865625111,0.303783202491,1.0,-0.124135428571,-0.163149420408,1.179
0.445569735053,0.422454628054,-0.125139155155,-1.55010028999,0.0675258344551,1.96422760049,0.130751786461,-0.11582696505,-0.631845224877,-0.00553073467259,-0.963030803845,-0.0658729931268,0.330974128074,-0.15964766793,0.573691540742,0.819054698562,0.00285722696097,0.0,0.819020959315,-0.573627007303,-0.0117248281938,0.0,-0.00796444641142,0.00906673808079,-0.999927178275,0.0,0.637102647846,0.229066263853,0.303842860839,1.0,-0.134082857143,-0.176223183673,1.196
0.443515662462,0.412102851033,-0.125246649482,-1.56560406276,0.0664022531111,1.96968030055,0.12820003418,-0.130965373047,-0.652709286244,-0.00501492750319,-0.98594058613,-0.0709586263443,0.350485763497,-0.160669303938,0.573696510249,0.819050508712,0.00305372048005,0.0,0.819019927064,-0.573632026759,-0.011550058408,0.0,-0.00770851775941,0.00912746185858,-0.99992863155,0.0,0.63496276736,0.226212129176,0.303955925502,1.0,-0.143445142857,-0.188527902041,1.212
0.441122300294,0.400588042335,-0.125351558176,-1.58313606407,0.0652370892518,1.97552331803,0.125257818018,-0.149874497293,-0.691946982789,-0.00681892323138,-1.04152291556,-0.0619333718058,0.341195980238,-0.179126705532,0.573711490441,0.819040494905,0.00292238652455,0.0,0.81900725114,-0.573646324988,-0.0117372615499,0.0,-0.0079370290311,0.00912743330313,-0.99992684409,0.0,0.632427640857,0.222956251121,0.303896139399,1.0,-0.153392571429,-0.201601665306,1.229
0.438468369228,0.388329543926,-0.125481759489,-1.60147531456,0.0638890539408,1.98180976786,0.122107370644,-0.158013078352,-0.713372296293,-0.00658565932466,-1.11273826353,-0.0816042773251,0.366008293177,-0.183279952243,0.573739156026,0.819020688779,0.00303958790498,0.0,0.818989351147,-0.573674036427,-0.0116314031716,0.0,-0.00778277701715,0.00916295798048,-0.99992773168,0.0,0.629800366222,0.219452973256,0.303955912822,1.0,-0.16334,-0.214675428571,1.246
0.435793208083,0.37620892928,-0.125618241661,-1.61952725694,0.062519004878,1.98781371627,0.118865579117,-0.172176848425,-0.749100838909,-0.00630189989153,-1.14526648031,-0.0757206976855,0.386008597617,-0.203725147824,0.573667356854,0.819070981175,0.00303947017484,0.0,0.819039946256,-0.573602605544,-0.0115915594557,0.0,-0.00775101119592,0.00913932272368,-0.999928194725,0.0,0.627135613302,0.21596045029,0.303998073777,1.0,-0.172702285714,-0.226980146939,1.262
0.432626048242,0.362813984445,-0.125797647649,-1.63942650347,0.061021083836,1.9943916908,0.115319283126,-0.19111464013,-0.794123399588,-0.0150615096838,-1.1766117612,-0.0933774880962,0.388926333509,-0.212479324677,0.573790630661,0.818984496776,0.00307459067379,0.0,0.818954111194,-0.573725980503,-0.0115503227668,0.0,-0.00769571089611,0.00914559173824,-0.999928564541,0.0,0.62399651369,0.211741533258,0.304038755618,1.0,-0.183234857143,-0.240822955102,1.28
0.428942581311,0.348068943566,-0.125986077886,-1.66142042185,0.0593406642336,2.00144201613,0.111216337279,-0.218667698738,-0.817842176662,-0.00972713706486,-1.21551839783,-0.0893967037221,0.388340895694,-0.231496412865,0.573861220677,0.818935912743,0.00283145258175,0.0,0.818902009336,-0.573796949119,-0.0117178149894,0.0,-0.00797161413899,0.00904325593272,-0.999927333805,0.0,0.620804448696,0.207480402457,0.303935689675,1.0,-0.193182285714,-0.253896718367,1.297
0.425671348626,0.335160120154,-0.126126073375,-1.68019622718,0.0578919388581,2.00762960186,0.107624686896,-0.223455952786,-0.854324201937,-0.0052965023489,-1.26536538697,-0.0961523060761,0.407078084839,-0.245253615985,0.573905405707,0.818904117813,0.00306235711353,0.0,0.818873350231,-0.573840514468,-0.0115865067055,0.0,-0.00773108231801,0.0091574177694,-0.999928183454,0.0,0.61792175722,0.203612372249,0.304040819203,1.0,-0.201959428571,-0.265432391837,1.312
0.421569502357,0.319172788062,-0.126243800509,-1.70340207487,0.0559762836025,2.01503246486,0.103070775434,-0.23423490892,-0.900707008153,-0.00224665566051,-1.312297452,-0.113706941165,0.408830845648,-0.255968087646,0.57378541894,0.818987916204,0.00313576545136,0.0,0.818958438365,-0.573720716369,-0.0115049007131,0.0,-0.00762346783542,0.00916958239553,-0.999928898221,0.0,0.614224988784,0.198831712099,0.304109452849,1.0,-0.212492,-0.2792752,1.33
0.417396516912,0.303567261878,-0.126365617142,-1.72595298106,0.0541090121659,2.02211137972,0.0984451415572,-0.253355390758,-0.931679382101,-0.0076906562891,-1.34313566515,-0.109563933125,0.407458319933,-0.281430882568,0.573616980259,0.819105702057,0.00318680365293,0.0,0.819076910813,-0.573552175461,-0.011474454174,0.0,-0.00757113844186,0.00919235602613,-0.999929086712,0.0,0.610552886284,0.194100818799,0.304146692398,1.0,-0.222439428571,-0.292348963265,1.347
0.413076180235,0.288345783486,-0.126514297003,-1.74776514987,0.0522947599752,2.02879995541,0.0939559990538,-0.27464664794,-0.976815078799,-0.0113632232748,-1.35957861768,-0.11005700296,0.435838680125,-0.290926641254,0.573653196533,0.819080189346,0.00322496979926,0.0,0.819051680573,-0.573588014159,-0.0114839655584,0.0,-0.00755663014969,0.00922940818004,-0.999928855152,0.0,0.606941467718,0.189366164276,0.30418897265,1.0,-0.231801714286,-0.304653681633,1.363
0.408174665501,0.271809890515,-0.126690011495,-1.77146732068,0.0502790975235,2.03590799485,0.0888358910995,-0.300616993835,-0.999196053413,-0.0186945036738,-1.39817375979,-0.121227346208,0.446639774943,-0.314260341209,0.573611741983,0.819109592712,0.00312913527113,0.0,0.819079427179,-0.573546361099,-0.0115849274331,0.0,-0.00769476919137,0.00920843802208,-0.999927995006,0.0,0.602923933401,0.184122518507,0.304148494555,1.0,-0.241749142857,-0.317727444898,1.38
0.402834985345,0.254725859344,-0.126909550189,-1.79557313704,0.0481384826426,2.04304364943,0.0835391672593,-0.320251932578,-1.02156614194,-0.0188912852155,-1.42424437681,-0.130925829792,0.428513976733,-0.318809231774,0.573734259072,0.819023714584,0.00314671532048,0.0,0.818993917623,-0.57366897486,-0.0115592854896,0.0,-0.00766230351067,0.00920927611087,-0.999928236594,0.0,0.598789380004,0.178595209757,0.304190154372,1.0,-0.251696571429,-0.330801208163,1.397
0.397498715556,0.238285407567,-0.127080525001,-1.81877883887,0.0460623614396,2.04968904773,0.078228798072,-0.334756403029,-1.01952825382,-0.00746736922616,-1.43671027834,-0.120410759545,0.406687119736,-0.340061835695,0.573752334114,0.819011592953,0.00300276684617,0.0,0.818979367314,-0.573686855661,-0.0117018997132,0.0,-0.00786149501257,0.00917337298175,-0.999927020399,0.0,0.594683228403,0.173226766387,0.30413167268,1.0,-0.261058857143,-0.343105926531,1.413
0.391567719132,0.220311433987,-0.12722838204,-1.84374695411,0.0437728414055,2.05684316439,0.0722894904447,-0.356164182361,-1.02326578798,-0.00564188353913,-1.47241856791,-0.13503448468,0.405459796936,-0.343952252099,0.573637852044,0.819091477509,0.00308432744017,0.0,0.81906006769,-0.573571826355,-0.0116924090387,0.0,-0.00780821960461,0.00923363562418,-0.999926883167,0.0,0.590183440575,0.167424657671,0.304159600542,1.0,-0.271006285714,-0.356179689796,1.43
0.384772102563,0.200746148141,-0.127447391557,-1.87058386038,0.0411774701554,2.06423423102,0.0656324425847,-0.388436029969,-1.06351635991,-0.00355506427852,-1.47628344667,-0.135180173764,0.389737354367,-0.385769568553,0.573566104777,0.819141690887,0.00309202237798,0.0,0.819110532253,-0.573500241944,-0.0116685621644,0.0,-0.00778508004661,0.00922557746569,-0.99992713797,0.0,0.585238566009,0.160961036515,0.304212954554,1.0,-0.281538857143,-0.370022497959,1.448
0.378244079465,0.182869742502,-0.127736240533,-1.8948512468,0.0388103667279,2.07077966352,0.0593500340895,-0.424533250104,-1.10937624074,-0.0252202991032,-1.5166568855,-0.144178405933,0.402879610645,-0.400740753968,0.573606746487,0.819113009197,0.00315046826615,0.0,0.819082670548,-0.573540758689,-0.0116328771618,0.0,-0.00772186772794,0.00925336893804,-0.999927371324,0.0,0.580693922194,0.154916753309,0.304267996184,1.0,-0.290901142857,-0.382327216326,1.464
0.370846616186,0.163599293179,-0.128027617909,-1.92086962979,0.0362153460921,2.07753884239,0.0524083885961,-0.450122583764,-1.13161748963,-0.0129989623206,-1.56060668993,-0.165167041286,0.387426346175,-0.427389895192,0.57370862903,0.819041846963,0.00309980665798,0.0,0.819010520873,-0.573642402763,-0.0117007415505,0.0,-0.00780536670847,0.00925176878434,-0.999926737829,0.0,0.575695344313,0.148293565808,0.30426490084,1.0,-0.300848571429,-0.395400979592,1.481
0.36309769031,0.143900401419,-0.128266256863,-1.94714046332,0.0334478237496,2.08422110629,0.0450918925884,-0.470855510034,-1.15259300089,-0.0201136004384,-1.56814605038,-0.178658449191,0.377227629368,-0.436917856097,0.573618522717,0.819104995165,0.00308936788135,0.0,0.819073816161,-0.573552678443,-0.0116685745688,0.0,-0.00778602239781,0.00922390843531,-0.99992714603,0.0,0.570519238347,0.141561517395,0.304281663663,1.0,-0.310796,-0.408474742857,1.498
0.355267637776,0.124938027495,-0.128554143187,-1.972067545,0.0308410694972,2.09035181247,0.0377373150658,-0.504848575704,-1.18478291386,-0.0151879274946,-1.55618195668,-0.178604086536,0.369298594811,-0.476386463128,0.573581298937,0.819130712417,0.00318062666935,0.0,0.819100480371,-0.573514873901,-0.0116550148333,0.0,-0.00772299259194,0.00929053025144,-0.999927018053,0.0,0.565512200519,0.13497087259,0.304332707208,1.0,-0.320158285714,-0.420779461224,1.514
0.346328633789,0.104401505941,-0.128978585487,-1.99872760324,0.0278864445922,2.096649961,0.0295958734077,-0.544344331023,-1.21542893427,-0.0206492324829,-1.58088160225,-0.177631184697,0.35328604536,-0.492648649343,0.573736190715,0.819022073192,0.00322086771446,0.0,0.818992806805,-0.573670151662,-0.0115795679837,0.0,-0.00763635312988,0.00928166341567,-0.999927765809,0.0,0.560056422751,0.127633213311,0.304394878674,1.0,-0.330105714286,-0.43385322449,1.531
0.33641353664,0.0823207869454,-0.129326645825,-2.02714739687,0.0248090817948,2.10303608637,0.0204428837948,-0.566498447611,-1.22494309964,-0.0277041988063,-1.6110526045,-0.164910724381,0.335618214552,-0.532728640326,0.573695882206,0.81905014154,0.0032630176395,0.0,0.819020345878,-0.573628402939,-0.0116993709695,0.0,-0.00771076030719,0.00938453946675,-0.999926234577,0.0,0.554037583748,0.11980735172,0.304400739214,1.0,-0.33998,-0.446830857143,1.549
0.327646645878,0.0638075597159,-0.129641014055,-2.05077422708,0.0220223197272,2.10820382621,0.0124743594714,-0.599262717166,-1.21494921487,-0.025193225798,-1.58017149218,-0.194309431133,0.334321542438,-0.536984248748,0.573659910161,0.819075529903,0.00321413901325,0.0,0.819045395019,-0.573592956506,-0.0116836657871,0.0,-0.00772634600261,0.0093351561542,-0.999926576523,0.0,0.548942624348,0.113092962835,0.30436950929,1.0,-0.33998,-0.446830857143,1.564
0.316553806599,0.0417488358846,-0.130050662354,-2.07850002539,0.0187387682836,2.11377211104,0.00274057990598,-0.625002413624,-1.20952853644,-0.0129356026161,-1.51904090994,-0.182432033703,0.301382540795,-0.543162430886,0.573915744901,0.818896751934,0.00309424108123,0.0,0.81886436152,-0.573848337652,-0.011831724626,0.0,-0.00791348812441,0.00932435632232,-0.999925213746,0.0,0.542799427557,0.104897285893,0.304341669493,1.0,-0.33998,-0.446830857143,1.582
0.305836531777,0.0211023750734,-0.130337584028,-2.10398143479,0.0156041670816,2.11872360535,-0.0067562406554,-0.645330544927,-1.19368270205,-0.0168063163673,-1.48519792277,-0.202350964632,0.28785647361,-0.569395547766,0.573933167188,0.81888440489,0.00313016455212,0.0,0.818852478668,-0.573865626208,-0.0118155887716,0.0,-0.0078794592428,0.00934468120206,-0.999925292737,0.0,0.537015454963,0.0972811359104,0.304373378912,1.0,-0.33998,-0.446830857143,1.599
0.294719630982,0.000593829179967,-0.13066657763,-2.12877508263,0.0125329091433,2.1232351683,-0.01654225974,-0.667463504455,-1.19102487023,-0.0164166775113,-1.46412132816,-0.184694996232,0.25567224537,-0.587954847195,0.57403199961,0.818814470838,0.00329737352806,0.0,0.818784517981,-0.573963622487,-0.0117652062532,0.0,-0.00774109771775,0.00945362527769,-0.999925349401,0.0,0.531255548074,0.0896307921573,0.304476737112,1.0,-0.33998,-0.446830857143,1.616
0.284092475067,-0.0184196036095,-0.130846902193,-2.15152824865,0.00963450928352,2.12720212173,-0.0260029436722,-0.670189973557,-1.18057362332,-0.0187497245899,-1.42877695172,-0.197006534966,0.225971359319,-0.594467745723,0.573885747646,0.818916327382,0.003456052275,0.0,0.818888466362,-0.57381689949,-0.0116872759887,0.0,-0.00758790601957,0.00953746609165,-0.999925727453,0.0,0.525833591059,0.0825881062178,0.30454413739,1.0,-0.33998,-0.446830857143,1.632
0.271593583504,-0.0396207601701,-0.131189726376,-2.17649998801,0.00629958259054,2.13115378169,-0.0368919492589,-0.703973697073,-1.15951992492,-0.0251840514869,-1.38019559736,-0.187291982256,0.210267542005,-0.614648099086,0.573980552751,0.818849498152,0.00354560868496,0.0,0.818823104401,-0.573911793313,-0.0116070709859,0.0,-0.00746972142829,0.00956564349897,-0.999926348151,0.0,0.519739732359,0.0744955622899,0.30462769312,1.0,-0.33998,-0.446830857143,1.65
0.260930521393,-0.0571444814533,-0.13138763089,-2.1968215478,0.00361552361261,2.1341726074,-0.0462995479727,-0.716015015113,-1.15247623174,-0.00638389872536,-1.35301397852,-0.185703767311,0.194450961369,-0.6207134807,0.573908933026,0.818898877071,0.0037299633068,0.0,0.818874779381,-0.573839501989,-0.0115355343242,0.0,-0.00730617648464,0.00967490534777,-0.999926505295,0.0,0.514655808336,0.0678471234289,0.304714655177,1.0,-0.33998,-0.446830857143,1.665
0.247753291083,-0.0778716589311,-0.131712605973,-2.22064472738,0.000361892440384,2.13739053391,-0.0578787203609,-0.753182179374,-1.15858767836,-0.0257604485699,-1.30842174275,-0.179185975485,0.169663522713,-0.645615337865,0.573898620614,0.818905643106,0.00382986248646,0.0,0.818882633158,-0.573828621726,-0.0115192405018,0.0,-0.00723562564745,0.00974727177725,-0.999926315492,0.0,0.508545314371,0.0598196343116,0.304758969207,1.0,-0.33998,-0.446830857143,1.683
0.23492780704,-0.0970941105958,-0.131983000206,-2.24254884623,-0.00272542154341,2.14002686676,-0.0691686692183,-0.754045485597,-1.15161097218,-0.00714344532838,-1.27354930326,-0.193529904237,0.164430960424,-0.672928880164,0.573821372494,0.818959935256,0.00379523592649,0.0,0.818936076144,-0.573750950894,-0.0115886340408,0.0,-0.00731324756478,0.00975804938102,-0.999925645677,0.0,0.502766384562,0.0522599517962,0.304734994816,1.0,-0.33998,-0.446830857143,1.7
0.222567491904,-0.11493596169,-0.132255144319,-2.26275332473,-0.00566061369967,2.1420934869,-0.0800142889183,-0.782124805037,-1.11497743578,-0.022464699412,-1.24409746601,-0.182542617193,0.111743066864,-0.684441582566,0.573761587335,0.819002814261,0.00357463746621,0.0,0.818975101826,-0.573690599234,-0.0118163379124,0.0,-0.00762702493836,0.0097074867792,-0.999923793692,0.0,0.497270273319,0.0451598251439,0.304632365386,1.0,-0.33998,-0.446830857143,1.716
0.208922028802,-0.133818428449,-0.132597914827,-2.28368506986,-0.00871854247707,2.14406691441,-0.0919544534964,-0.806867865095,-1.10909728645,-0.0131649033048,-1.2371172605,-0.177994298768,0.101552197823,-0.714502156455,0.5738033294,0.818973667598,0.00355216164181,0.0,0.818944977767,-0.57373154596,-0.011915681337,0.0,-0.00772079070535,0.00974647020974,-0.999922694867,0.0,0.491464170741,0.0375369156585,0.304599266483,1.0,-0.33998,-0.446830857143,1.733
0.194953987796,-0.152477605718,-0.132968746771,-2.30398628995,-0.0117517046813,2.14575096852,-0.104279210131,-0.84756714933,-1.0886195283,-0.0273530168697,-1.20120813576,-0.173596827531,0.085264610503,-0.733735679365,0.573787172212,0.81898468987,0.00362017483874,0.0,0.818956595385,-0.573714778746,-0.0119245303818,0.0,-0.00768920805105,0.00980709744539,-0.999922345445,0.0,0.485692659573,0.029945043319,0.304604931162,1.0,-0.33998,-0.446830857143,1.75
0.181421306825,-0.169915267374,-0.133314641114,-2.32256860992,-0.0145663054921,2.14692749998,-0.116149875322,-0.841242331199,-1.10205251045,-0.016363247126,-1.15023011941,-0.165588979294,0.0731383023051,-0.745199555008,0.573846140837,0.818942989186,0.00370594264425,0.0,0.818915550328,-0.573772837588,-0.0119498610599,0.0,-0.00766003318915,0.0098924261726,-0.999921728835,0.0,0.480247788578,0.0227981851772,0.304651584693,1.0,-0.33998,-0.446830857143,1.766
0.165719622129,-0.189140990458,-0.133785227276,-2.34294252143,-0.0177835251911,2.14789034418,-0.129991907798,-0.885145710205,-1.06717060165,-0.0350707691183,-1.1136933845,-0.182240645806,0.0472202752842,-0.77414206587,0.573908921056,0.818899362603,0.00362369438741,0.0,0.818869916488,-0.57383472078,-0.0121045445811,0.0,-0.00783315299758,0.00991443132436,-0.999920169696,0.0,0.474097580435,0.0146932301019,0.30461136563,1.0,-0.33998,-0.446830857143,1.784
0.150555963704,-0.207166823996,-0.134111694406,-2.36160079121,-0.0207104158225,2.14862970652,-0.143477355812,-0.899887190954,-1.05492605683,-0.0192955852515,-1.08489352259,-0.163156524705,0.0261824027969,-0.805774136355,0.573827060458,0.818956039478,0.00377584284275,0.0,0.818928474927,-0.573752159245,-0.0120565176214,0.0,-0.00770750833057,0.0100106940237,-0.999920186975,0.0,0.468326423911,0.00715402205464,0.30465392044,1.0,-0.33998,-0.446830857143,1.801
0.135821321899,-0.223923707531,-0.134548153502,-2.37852874769,-0.0235301449506,2.14901598593,-0.156454642865,-0.919542563649,-1.04740794033,-0.0218201097939,-1.06314734957,-0.176176278608,0.00922883481296,-0.816447718062,0.573945650255,0.818872124556,0.00394728771777,0.0,0.818847614373,-0.57387119498,-0.0118820414294,0.0,-0.00746478150996,0.0100520666589,-0.999921613424,0.0,0.462935637466,-4.72993788983e-05,0.304760213304,1.0,-0.33998,-0.446830857143,1.817
0.119918682648,-0.241285713345,-0.134852865302,-2.39603961947,-0.0264091594877,2.1491261437,-0.170700506936,-0.947994222103,-1.01592673335,-0.017441444925,-0.990862237925,-0.152109230289,0.00733393585301,-0.850040497759,0.573800043522,0.818973954852,0.0039897655252,0.0,0.818949674646,-0.57372502613,-0.0119067917891,0.0,-0.00746246770657,0.0100997292767,-0.999921150414,0.0,0.457177936514,-0.00753896392009,0.304764903749,1.0,-0.33998,-0.446830857143,1.834
0.103464569392,-0.258417021202,-0.135288616241,-2.41310590853,-0.0292710547853,2.14908221368,-0.185417158781,-0.970046929506,-1.01583235636,-0.0170906355275,-1.00110785119,-0.166137017493,-0.00870236464724,-0.877491656341,0.573807985617,0.818967910148,0.00408713718616,0.0,0.818944754233,-0.573732431385,-0.0118883805759,0.0,-0.00739142134786,0.0101689830534,-0.999920976215,0.0,0.451408490968,-0.0151423155803,0.304755012204,1.0,-0.33998,-0.446830857143,1.851
0.0876251940708,-0.274355937751,-0.135739601691,-2.42857745366,-0.0319932471352,2.14886669345,-0.19961326771,-0.99625788621,-1.00063767268,-0.0281508859147,-0.973292560887,-0.177437964011,-0.0233060149404,-0.885276605639,0.573825181191,0.818954875696,0.00428017591023,0.0,0.818935406646,-0.5737506482,-0.0116507653597,0.0,-0.00708583381827,0.0101908863492,-0.99992296543,0.0,0.446023972413,-0.0223046426965,0.304828835572,1.0,-0.33998,-0.446830857143,1.867
0.0704300434746,-0.290875274612,-0.136119972565,-2.44462622998,-0.0347099400648,2.14815159075,-0.2151738533,-1.02483017033,-0.966900364233,-0.0210047560683,-0.930116980681,-0.163135706549,-0.0376229597214,-0.936520403519,0.573733241457,0.819019341474,0.00426999303942,0.0,0.818998305537,-0.573656706862,-0.0118534847619,0.0,-0.00725886289414,0.0102980535684,-0.999920626351,0.0,0.440199521228,-0.0298217141127,0.304771988597,1.0,-0.33998,-0.446830857143,1.884
0.0526925501132,-0.307078718088,-0.136634879817,-2.45990968088,-0.0375107627635,2.14736953742,-0.231175147151,-1.04592951361,-0.933971664312,-0.0265565899024,-0.886835297615,-0.165206822948,-0.0530891900547,-0.938617322034,0.573784804207,0.818982493503,0.00440689201311,0.0,0.818964051429,-0.573708986979,-0.0116887821333,0.0,-0.00704477001864,0.0103161303225,-0.999921971291,0.0,0.434475545329,-0.0374638108176,0.304828515583,1.0,-0.33998,-0.446830857143,1.901
0.0356032606462,-0.3220382168,-0.137102793768,-2.47386709321,-0.0399938726812,2.14633244414,-0.246588953093,-1.08520818121,-0.9111725692,-0.0374892721396,-0.824676783898,-0.154605840891,-0.0582984779381,-0.985541147188,0.573910448561,0.818893802418,0.00452595796149,0.0,0.81887644772,-0.573833557408,-0.0117114756898,0.0,-0.0069934429473,0.0104277394108,-0.999921173896,0.0,0.429036977008,-0.0446249754915,0.304847916744,1.0,-0.33998,-0.446830857143,1.917
0.017162273942,-0.337593846332,-0.137507176115,-2.48813496942,-0.0426566343988,2.14511528449,-0.263518995008,-1.08952280539,-0.90526309385,-0.0157332167559,-0.863729040476,-0.162581929695,-0.0805165494697,-1.00169516376,0.573733840384,0.819016948125,0.00463313968433,0.0,0.819001591177,-0.573657564692,-0.0115818402129,0.0,-0.00682801925719,0.0104396434332,-0.999922192972,0.0,0.4232900636,-0.0521453515314,0.304892632206,1.0,-0.33998,-0.446830857143,1.934
-0.00186273095979,-0.352733684136,-0.138032567833,-2.50175915652,-0.0453105323187,2.14361049721,-0.280861408397,-1.12268481284,-0.885114090803,-0.0291930724764,-0.788076690064,-0.147340779748,-0.0884180191279,-1.04241633243,0.573793383545,0.818974839997,0.00470227105935,0.0,0.818960798487,-0.573717545221,-0.0114950314057,0.0,-0.0067164954105,0.0104469497619,-0.999922871991,0.0,0.417531602011,-0.0597815292157,0.304950179473,1.0,-0.33998,-0.446830857143,1.951
-0.0212770763556,-0.367405253578,-0.138532990566,-2.51485288214,-0.0477752506045,2.1420085207,-0.298735163065,-1.14718251022,-0.836904871464,-0.0234785041537,-0.75981835762,-0.156656957405,-0.106691556428,-1.06009823637,0.573799928899,0.818969456911,0.00483912637478,0.0,0.818956994253,-0.573723400777,-0.0114737904167,0.0,-0.00662049133069,0.0105468995765,-0.999922462996,0.0,0.411774600551,-0.0673678340714,0.304973449356,1.0,-0.33998,-0.446830857143,1.968
-0.0410862875771,-0.381576412405,-0.138991096241,-2.52738461711,-0.0502471498597,2.14017343961,-0.317004604577,-1.17874090787,-0.856958634561,-0.0406515343458,-0.71294739281,-0.14650140025,-0.10812649926,-1.08028504418,0.573771472464,0.818989461123,0.00482771767148,0.0,0.818976326887,-0.573694150498,-0.0115561491681,0.0,-0.00669485988822,0.010584578996,-0.999921569694,0.0,0.405994950273,-0.0749257807224,0.304958757461,1.0,-0.33998,-0.446830857143,1.985
-0.0613175065179,-0.39530843517,-0.139433629807,-2.53934971303,-0.0526535177632,2.13835393969,-0.335805608919,-1.19640307647,-0.802902246047,-0.0157992108005,-0.685585556655,-0.130100433063,-0.120797609182,-1.10417627844,0.573675490453,0.819056390614,0.00487929812021,0.0,0.819044160879,-0.573598410746,-0.0115009835278,0.0,-0.00662132389048,0.0105943969755,-0.999921955366,0.0,0.400240657417,-0.0824771155781,0.304960970349,1.0,-0.33998,-0.446830857143,2.002
-0.0807807661509,-0.407730358184,-0.139922383443,-2.55012964216,-0.0548183783557,2.13636132807,-0.353930761545,-1.21956460182,-0.781761457772,-0.0225504214043,-0.656246535638,-0.136024911915,-0.126231476057,-1.13217174979,0.573682232618,0.819051850747,0.00484857370511,0.0,0.819037683086,-0.573602808835,-0.011740454937,0.0,-0.00683501744396,0.0107066611103,-0.999919321718,0.0,0.394757214911,-0.0896059357922,0.304899565232,1.0,-0.33998,-0.446830857143,2.018
-0.101900483977,-0.420515609738,-0.140441557339,-2.56077735348,-0.0570590946302,2.13441243873,-0.373666002795,-1.24643627303,-0.724425342225,-0.0196015799934,-0.624735534122,-0.144811047658,-0.129412697992,-1.15071198185,0.573704818934,0.819034850945,0.00504386460763,0.0,0.819024551459,-0.573626941319,-0.0114744586946,0.0,-0.00650481017708,0.0107142074774,-0.999921443516,0.0,0.389056776733,-0.0972265907742,0.304996560639,1.0,-0.33998,-0.446830857143,2.035
-0.124671875596,-0.433329700382,-0.140980738727,-2.57170745421,-0.0593235335439,2.13201859735,-0.395044704686,-1.2743535177,-0.691509705713,-0.0363843450663,-0.594263855305,-0.121630197089,-0.131590263819,-1.19286222864,0.573710040506,0.819031569271,0.00498245533814,0.0,0.819018170802,-0.573628630591,-0.011839635291,0.0,-0.00683908771299,0.0108734484471,-0.999917494095,0.0,0.382861613752,-0.105229034119,0.304886920272,1.0,-0.33998,-0.446830857143,2.053
-0.14393527135,-0.443661821196,-0.141357797071,-2.58007159982,-0.061126525099,2.13012899107,-0.413267678582,-1.29328652103,-0.680926095357,-0.0305474898906,-0.535524182686,-0.130367126366,-0.114892181023,-1.21810071722,0.573622651419,0.819091943883,0.00511743564092,0.0,0.819081159737,-0.573542200219,-0.0116681289341,0.0,-0.00662233261354,0.0108849077441,-0.999918828453,0.0,0.377818483215,-0.111882766763,0.304969343014,1.0,-0.33998,-0.446830857143,2.068
-0.166197523031,-0.45467520753,-0.14183911376,-2.58908440314,-0.0631344734744,2.1279556224,-0.434370625306,-1.31237472673,-0.640741677537,-0.0225466578629,-0.521631205689,-0.110042122758,-0.14204624521,-1.25381693673,0.573605635189,0.819103749015,0.0051352245368,0.0,0.819092719697,-0.573524347419,-0.011733983075,0.0,-0.00666630157322,0.0109371144205,-0.999917966611,0.0,0.371694743216,-0.119906971305,0.304950214692,1.0,-0.33998,-0.446830857143,2.086
-0.191461921657,-0.466266627914,-0.142372417456,-2.59847909317,-0.0652424178594,2.12548071331,-0.458472635183,-1.3255819977,-0.592227178066,-0.024805443054,-0.473305413034,-0.0904008503594,-0.131825334945,-1.26116335642,0.573495188574,0.819180711578,0.0051939736454,0.0,0.819169680591,-0.573412464287,-0.0118290786853,0.0,-0.00671199309397,0.011038877976,-0.999916542678,0.0,0.365571239349,-0.12789067803,0.304935877625,1.0,-0.334567428571,-0.439717191837,2.104
-0.212927453115,-0.475149384169,-0.142636708688,-2.60543221806,-0.0667788410725,2.12361989319,-0.478704899132,-1.33774022648,-0.547291665469,-0.0211437413673,-0.417583101111,-0.0930678046476,-0.119693720345,-1.25758990049,0.573646472216,0.819073892762,0.00533198004317,0.0,0.819065639262,-0.573564909632,-0.0116413023635,0.0,-0.0064769748939,0.0110454463345,-0.999918020095,0.0,0.360312792097,-0.134921059482,0.305007085907,1.0,-0.325205142857,-0.427412473469,2.12
-0.235506593102,-0.483739024328,-0.142814989001,-2.61214980809,-0.0682047750721,2.12162550481,-0.500127651799,-1.31651057783,-0.489620745629,0.00227345884713,-0.382062890749,-0.0863685214453,-0.121553478851,-1.23755286345,0.573715798241,0.819024707792,0.00542750185406,0.0,0.819017551758,-0.573633673797,-0.0116363696792,0.0,-0.00641719999919,0.0111214025213,-0.999917563577,0.0,0.354504129479,-0.142580465977,0.305035802152,1.0,-0.314672571429,-0.413569665306,2.138
-0.257802683357,-0.491366169052,-0.142871501886,-2.61827147364,-0.0693966322408,2.11972415417,-0.521286941909,-1.29658865459,-0.435924635097,0.00747997823032,-0.346938271543,-0.0720939275056,-0.108259023809,-1.23094819706,0.57383606972,0.818939925726,0.00550545558086,0.0,0.818932053489,-0.573750666665,-0.0118832306635,0.0,-0.00657301977811,0.0113278385197,-0.999914234065,0.0,0.349442111243,-0.149155965787,0.304972634383,1.0,-0.305310285714,-0.401264946939,2.154
-0.277165312731,-0.497441316041,-0.142800126687,-2.62295335415,-0.070312934993,2.1183486962,-0.539697221025,-1.29170126215,-0.389704384512,-0.00109630569806,-0.296986939613,-0.0507166669078,-0.0878935687008,-1.2244059274,0.573898876462,0.818895058314,0.00563116032343,0.0,0.818889536543,-0.573814266156,-0.0117414563733,0.0,-0.0063839033828,0.0113499254093,-0.999915208891,0.0,0.344917403842,-0.155162830356,0.305008659566,1.0,-0.296533142857,-0.389729273469,2.169
-0.298592608189,-0.503458941896,-0.142570594763,-2.62762297347,-0.0712122041406,2.11679015777,-0.560139079,-1.25508655447,-0.345676032987,0.0236868924338,-0.259580365976,-0.0478748369935,-0.0898930425695,-1.1749464886,0.573881844931,0.818906808719,0.0056580556286,0.0,0.818901301985,-0.573796548528,-0.0117866621609,0.0,-0.00640572843469,0.0113977599896,-0.999914525202,0.0,0.339949563669,-0.161693495917,0.305006161274,1.0,-0.286585714286,-0.376655510204,2.186
-0.320835112259,-0.509022819026,-0.142377267479,-2.63184657821,-0.0719534162344,2.11542732471,-0.581397880618,-1.21829102259,-0.29547917267,0.00946271452854,-0.219335271247,-0.034168226914,-0.0687320489343,-1.16779167648,0.573968198237,0.81884518854,0.00581476729408,0.0,0.818842277568,-0.573883354692,-0.0116604707087,0.0,-0.00621124176014,0.0114543371894,-0.999915105714,0.0,0.335163440971,-0.168074842794,0.305044044799,1.0,-0.276638285714,-0.363581746939,2.203
-0.340102460184,-0.513319798932,-0.142058035074,-2.63519072698,-0.0725478613874,2.11421447613,-0.599872100211,-1.18408037164,-0.252787857502,0.027965703457,-0.201637819588,-0.0352316013382,-0.0731557216978,-1.15542938999,0.573951204797,0.818856979284,0.00583171422057,0.0,0.818853566684,-0.57386497841,-0.0117715667942,0.0,-0.00629273422586,0.011531846957,-0.999913705277,0.0,0.330493697499,-0.174169122109,0.305018738129,1.0,-0.266690857143,-0.350507983674,2.22
-0.360028806981,-0.517165106696,-0.141744229116,-2.63830724346,-0.0729959392078,2.11308112814,-0.619026666496,-1.16117009961,-0.216096295155,0.0147169178065,-0.169153648735,-0.0357572909388,-0.0636334852202,-1.10202976034,0.573983952558,0.818833507851,0.00590385706423,0.0,0.818829281724,-0.573894243738,-0.0120312633139,0.0,-0.00646353640132,0.0117402291463,-0.999910190826,0.0,0.325963113645,-0.180037833634,0.304932657832,1.0,-0.256743428572,-0.337434220408,2.237
-0.380446761767,-0.520574263462,-0.141250059049,-2.64102166595,-0.0734157509208,2.11212082941,-0.63867430606,-1.13051851517,-0.179025703577,0.0162106289247,-0.141111228628,-0.0187195457478,-0.039092262815,-1.07168051579,0.57392326776,0.818876099631,0.00589602225772,0.0,0.818871155861,-0.57383249123,-0.0121263765525,0.0,-0.0065467968396,0.0117879191722,-0.999909088074,0.0,0.321405084389,-0.185993054196,0.304884267269,1.0,-0.246210857143,-0.323591412245,2.255
-0.396932814469,-0.522980185966,-0.140858543426,-2.64282296462,-0.0736411426287,2.1114034959,-0.654583513399,-1.08447393666,-0.159170181189,0.0267858295048,-0.110752960393,-0.00413402533072,-0.0462528978888,-1.06153567785,0.573909685396,0.818885111718,0.00596604699551,0.0,0.818880989891,-0.573818444543,-0.0121269946105,0.0,-0.00650731281529,0.0118455101939,-0.999908665213,0.0,0.317525273528,-0.191099721566,0.304892779268,1.0,-0.236848571429,-0.311286693878,2.271
-0.416157255032,-0.525337124222,-0.140374714648,-2.64457205768,-0.0738869394271,2.11068137342,-0.673070330439,-1.04897528059,-0.119908771026,0.0349629600374,-0.0893158668271,-0.0122189481832,-0.0380696040539,-1.0111864929,0.573965806352,0.818845623316,0.0059870875047,0.0,0.818842092707,-0.573875042576,-0.0120751654252,0.0,-0.0064519804832,0.0118334391521,-0.999909166707,0.0,0.313542464311,-0.196364661356,0.304917448998,1.0,-0.226901142857,-0.298212930612,2.288
-0.432555381193,-0.526957165828,-0.139949499523,-2.64580722756,-0.0739516187925,2.1101884285,-0.688900330383,-1.01622523787,-0.09166714557,0.016553464545,-0.0655943278472,-0.00542117327964,-0.02980198513,-0.977124561876,0.574025684774,0.818802869063,0.00609276080094,0.0,0.818800780371,-0.573934578577,-0.0120469281927,0.0,-0.00636733585588,0.011904232697,-0.999908868987,0.0,0.309740130465,-0.201381646104,0.304922798085,1.0,-0.216953714286,-0.285139167347,2.305
-0.449300946216,-0.528313008721,-0.139419725581,-2.64682021163,-0.0740179990319,2.10976046154,-0.705119200214,-0.959743984911,-0.0644317865661,0.03370020004,-0.055239209968,0.00362667663916,-0.0188009354696,-0.936142469344,0.573997371777,0.818822657495,0.00610079232422,0.0,0.818820883482,-0.573906631016,-0.012011933662,0.0,-0.00633448023184,0.0118905034419,-0.999909241025,0.0,0.306317182808,-0.205882148123,0.304930330521,1.0,-0.207591428572,-0.27283444898,2.321
-0.465501898032,-0.529269804063,-0.138904075913,-2.64755077335,-0.0740356395072,2.10941113058,-0.720652232247,-0.940295208375,-0.0497487892109,0.0379358107077,-0.0388958199435,-0.000816474816453,-0.0199043471206,-0.906541924909,0.574129399897,0.818730004021,0.00611224929474,0.0,0.818728410178,-0.574038641348,-0.012007310622,0.0,-0.00632219991503,0.0118982512677,-0.999909226583,0.0,0.302796483234,-0.210507060977,0.304931352616,1.0,-0.197644,-0.259760685714,2.338
-0.480756611414,-0.529853831905,-0.138262057715,-2.64800562799,-0.0740223037443,2.1091583627,-0.735556923442,-0.88444320904,-0.0257621951511,0.040350237596,-0.0245363306985,-0.000193432022812,-0.0193634310216,-0.86900811099,0.573941965128,0.818861953437,0.00603893859042,0.0,0.818859513351,-0.573851755006,-0.0120003155553,0.0,-0.00636126880316,0.0118327548245,-0.999909756014,0.0,0.299515157951,-0.214821139975,0.30493301923,1.0,-0.187696571429,-0.246686922449,2.355
-0.494610579399,-0.530142971897,-0.137750716113,-2.64823940549,-0.0739920597348,2.10897605319,-0.748905649269,-0.842024529464,-0.00819444152011,0.0420363046403,-0.0129349751993,0.00568329930683,-0.0097062331899,-0.826211497466,0.5739942937,0.818825594779,0.00599525108937,0.0,0.818822532846,-0.57390415617,-0.0120177425099,0.0,-0.00639985885821,0.0118073896347,-0.999909809611,0.0,0.296519464435,-0.218752661345,0.304930084643,1.0,-0.178334285714,-0.234382204082,2.371
-0.509255519608,-0.530241375038,-0.137058374333,-2.64833490347,-0.0739118589491,2.10888159876,-0.763180444504,-0.803673987437,-0.00401293635473,0.0359565926302,-0.00473124106756,0.00106491065289,-0.00155914749614,-0.781327503941,0.573837956694,0.818935886519,0.00589577223379,0.0,0.818931823528,-0.573748798613,-0.0119888032984,0.0,-0.00643549292464,0.0117080913115,-0.999910748531,0.0,0.29337975833,-0.222864465952,0.304932651779,1.0,-0.167801714286,-0.220539395918,2.389
-0.522506933475,-0.530148270979,-0.136447029295,-2.64830118388,-0.0737604749619,2.10885529144,-0.775958043193,-0.751635486713,0.00614606067906,0.0416081508073,0.00848739622658,0.015080515272,0.00337944796713,-0.737432704233,0.573861602486,0.818919573211,0.00586009420445,0.0,0.818915202956,-0.573772868657,-0.0119721535648,0.0,-0.00644199185373,0.0116695041388,-0.999911157761,0.0,0.290529422708,-0.226573171559,0.304927797042,1.0,-0.157854285714,-0.207465632653,2.406
-0.533434214602,-0.529930746666,-0.135855999267,-2.64818219642,-0.0735370456181,2.10885199149,-0.786561593881,-0.721840535573,0.0211048174719,0.0381910146765,0.00734069554789,0.0132728237442,0.00140856174098,-0.699212705794,0.57381412623,0.818952834934,0.00586085252788,0.0,0.818948372308,-0.573725213832,-0.0119870517033,0.0,-0.00645443537298,0.0116783000807,-0.999910974823,0.0,0.288035463677,-0.229796815572,0.304917988033,1.0,-0.148492,-0.195160914286,2.422
-0.545973610515,-0.529529113725,-0.135218410112,-2.6479297334,-0.0732332964552,2.1088643577,-0.798593602788,-0.673128841652,0.0290678923281,0.0429970090426,0.0188944130089,0.0156866012173,0.00152787228349,-0.645643236358,0.573922371825,0.818876702872,0.00589945019562,0.0,0.818872426223,-0.573832706252,-0.012030033599,0.0,-0.00646594126724,0.0117354284547,-0.999910231632,0.0,0.285492688041,-0.233061876,0.304903658958,1.0,-0.138544571429,-0.182087151021,2.439
-0.556810783085,-0.528991553086,-0.134485180892,-2.64759376554,-0.0728598616728,2.10892967942,-0.809174300206,-0.627278205923,0.0292518635517,0.0390510807292,0.0221443530109,0.0116167746325,0.0078147244014,-0.610914900388,0.573793920703,0.818966542214,0.00592336050603,0.0,0.818962226896,-0.573703546103,-0.012077210306,0.0,-0.00649270324139,0.0117810651854,-0.999909521561,0.0,0.283205875021,-0.236011051462,0.304884800352,1.0,-0.128597142857,-0.169013387755,2.456
-0.566560729083,-0.528422436438,-0.133926215288,-2.64720313339,-0.0725404153979,2.10902311294,-0.818433853858,-0.598687352256,0.0396757526589,0.0270526661922,0.0255164745998,0.0201131132104,-0.00106976631555,-0.558957203238,0.573959692846,0.818850040059,0.00596906898125,0.0,0.818846215721,-0.573868899297,-0.0120875274855,0.0,-0.00647253393598,0.0118257307915,-0.999909125069,0.0,0.281126784787,-0.238694473865,0.304876980636,1.0,-0.119234857143,-0.156708669388,2.472
-0.575936415735,-0.527686093291,-0.133190791738,-2.64670533759,-0.0721448883017,2.10916277057,-0.827626355143,-0.528521020531,0.0461924714687,0.0463061367067,0.0253197817795,0.0293418134066,0.0127667062917,-0.525183541774,0.573787700197,0.818970527392,0.00597471896734,0.0,0.818966623229,-0.573696637869,-0.0121072141944,0.0,-0.00648790032246,0.0118402939682,-0.99990885314,0.0,0.279184353563,-0.24123576623,0.304865047269,1.0,-0.109287428572,-0.143634906123,2.489
-0.584664636037,-0.526956086119,-0.132525902188,-2.64619258879,-0.0717926769685,2.10927943611,-0.835979542667,-0.503029783381,0.0441633907664,0.037386835832,0.0289819641244,0.0150225342452,0.00794127521998,-0.47939420502,0.573804547665,0.818958754389,0.00597047655015,0.0,0.818954605568,-0.573713155175,-0.0121374008163,0.0,-0.00651481514495,0.0118542732849,-0.999908512509,0.0,0.277358931871,-0.243603113841,0.304858168867,1.0,-0.0993400000001,-0.130561142857,2.506
-0.592294555628,-0.526282183663,-0.131946249545,-2.64569600809,-0.0714223695176,2.10938192095,-0.843177969899,-0.463861151979,0.0407517245475,0.0335797766896,0.029700042116,0.0325493253634,0.0055798720017,-0.440724288466,0.573934130607,0.818867617489,0.00601545130101,0.0,0.818863938196,-0.573842300405,-0.0121495633818,0.0,-0.00649708869652,0.011899114334,-0.999908095235,0.0,0.275762726971,-0.24566631451,0.304860877786,1.0,-0.0899777142858,-0.11825642449,2.522
-0.599480656309,-0.525517597646,-0.131263106848,-2.64514424703,-0.0710011501073,2.1095315768,-0.850108234216,-0.403297818693,0.0435081970756,0.0452821439754,0.0272646747736,0.0210944674739,0.00896351686774,-0.388393317815,0.573871280258,0.81891148511,0.00603988009285,0.0,0.818908093711,-0.573779299148,-0.0121489433612,0.0,-0.0064834759108,0.0119182658371,-0.999907955504,0.0,0.27430577654,-0.247587049346,0.304861881641,1.0,-0.0800302857144,-0.105182661225,2.539
-0.60594908892,-0.524840732232,-0.130561081343,-2.64465334239,-0.0705902003217,2.10966415703,-0.856308016167,-0.369708588457,0.0371885019375,0.0411365594167,0.0309126487423,0.0253549288473,0.0119745357922,-0.344942828318,0.573797430547,0.818963183089,0.00604651505324,0.0,0.818959899031,-0.57370547397,-0.0121433034154,0.0,-0.00647612431925,0.0119198791502,-0.999907983914,0.0,0.27300240954,-0.249284118529,0.304866085515,1.0,-0.070082857143,-0.0921088979593,2.556
-0.611457995483,-0.524237593685,-0.129914105275,-2.64419657671,-0.0702105067115,2.10978763853,-0.861369291126,-0.324704614425,0.0380246649077,0.0466231517349,0.029402000839,0.0243138513237,0.00689206157146,-0.303534853185,0.573888521181,0.81889935624,0.00604619773457,0.0,0.818896301326,-0.573796976832,-0.012108837836,0.0,-0.00644675364729,0.0119005611235,-0.999908403811,0.0,0.27184892386,-0.250802528985,0.304882141443,1.0,-0.0601354285715,-0.079035134694,2.573
-0.6167563114,-0.523572727345,-0.129224868591,-2.64369172399,-0.0697385152712,2.10993456507,-0.866316781561,-0.276969233067,0.0337577069781,0.0377069414147,0.0293122777225,0.0281909216563,0.00279056032363,-0.255137583787,0.573921887374,0.818875617055,0.00609408624795,0.0,0.818873354883,-0.573830441163,-0.0120747818819,0.0,-0.00639089530876,0.0119204959646,-0.999908524933,0.0,0.27088856128,-0.252090259623,0.304894810072,1.0,-0.0501880000001,-0.0659613714287,2.59
-0.621024990186,-0.523049275857,-0.128543331464,-2.64332526059,-0.0693260816755,2.11003437024,-0.870254444462,-0.238290787562,0.0353542389292,0.0411100570167,0.0233701083088,0.0274991687623,0.00414444939668,-0.221634328831,0.573906578839,0.818886277115,0.00610334491285,0.0,0.818884050405,-0.573814936786,-0.012086240717,0.0,-0.00639518931695,0.011934534641,-0.999908330017,0.0,0.270080118943,-0.253146909665,0.304894738423,1.0,-0.0402405714287,-0.0528876081634,2.607
-0.624280363269,-0.522664685195,-0.127799133062,-2.64305210495,-0.0689229114921,2.11012651592,-0.873197794843,-0.190973767344,0.0219424849791,0.0419779514436,0.0144149818518,0.018685517354,0.00659557870876,-0.177759239387,0.573822058968,0.818945734367,0.00607253694786,0.0,0.818943259055,-0.573730852591,-0.0120662394433,0.0,-0.00639771669733,0.0118971666175,-0.999908759161,0.0,0.269517599181,-0.253892770327,0.30490391152,1.0,-0.0308782857144,-0.0405828897961,2.623
-0.627044272445,-0.522370279923,-0.127039498308,-2.64283001305,-0.0685254791782,2.11020734887,-0.875647207345,-0.144921004164,0.0161375669601,0.0435250759705,0.0085065904357,0.0328438059858,0.00487359929687,-0.130471200227,0.573723142505,0.819015351949,0.00602958762171,0.0,0.819012639922,-0.573632738067,-0.0120218287577,0.0,-0.00638741643177,0.0118357377239,-0.999909554022,0.0,0.269069252195,-0.254489386236,0.30492223572,1.0,-0.020930857143,-0.0275091265308,2.64
-0.629309459609,-0.522095751882,-0.126470840956,-2.64263875487,-0.0681755201425,2.11023492195,-0.877551789616,-0.116690469388,0.0133541998069,0.0247653396342,0.0123184444353,0.01376139056,0.00238140670508,-0.0999209165809,0.57377531674,0.818978697124,0.00604371232173,0.0,0.818975999686,-0.573684527973,-0.0120466262241,0.0,-0.00639886919732,0.011861940497,-0.999909170295,0.0,0.268686706256,-0.254983657891,0.304924557893,1.0,-0.0196525,-0.025829,2.658
-0.630899360148,-0.52190030905,-0.126153845566,-2.64248729713,-0.0679748749477,2.11027805566,-0.878966593834,-0.103611256827,0.00997160623703,0.0210196919257,0.00749352390273,0.0097789040681,0.00139127485931,-0.0947879339411,0.573787794629,0.818969884985,0.00605319117764,0.0,0.818967418503,-0.573697162746,-0.0120282911793,0.0,-0.00637823244025,0.0118592813493,-0.999909333688,0.0,0.26840403292,-0.255360610464,0.30493298441,1.0,-0.0193525,-0.0254347142857,2.673
-0.632667299984,-0.521645518619,-0.125933487487,-2.6422748077,-0.0678080031415,2.11034668528,-0.88066046056,-0.0960910293344,0.0161364246742,0.0159955858753,0.010303953938,0.0102821093399,0.000934252787284,-0.0857829313472,0.573774674786,0.818978904275,0.00607649801829,0.0,0.818976997566,-0.573684426485,-0.0119834538971,0.0,-0.00632832550126,0.0118525426635,-0.99990973069,0.0,0.268068722935,-0.255827770696,0.304947158317,1.0,-0.0189925,-0.0249615714286,2.691
-0.634193513511,-0.521378496698,-0.125777521341,-2.64208800492,-0.0677263669807,2.11039340669,-0.882112721858,-0.0846987589376,0.0155680629556,0.00680431558616,0.0145569931134,0.00198856766825,0.00246817575754,-0.0886809739653,0.573769572346,0.818982583027,0.00606246240961,0.0,0.818980369292,-0.573679151217,-0.0120055435234,0.0,-0.00635454510071,0.0118536814964,-0.999909550905,0.0,0.267763520259,-0.25624303643,0.30494167464,1.0,-0.0186525,-0.0245147142857,2.708
-0.63555987887,-0.521148429707,-0.12568530983,-2.64195888038,-0.0677005047513,2.11040435402,-0.883494630048,-0.0832329943579,0.00906959124002,0.00315675375895,0.00682934872133,0.00208834804365,0.000786802467067,-0.0859733587611,0.573709687917,0.819024681989,0.00604244853776,0.0,0.819021699557,-0.573618421402,-0.012087563198,0.0,-0.00643407668858,0.0118838773824,-0.999908683888,0.0,0.267461811822,-0.256616048067,0.304918933622,1.0,-0.0183325,-0.0240941428571,2.724
-0.63693096591,-0.520930562864,-0.12560967934,-2.64179422081,-0.06766428369,2.1104151312,-0.884826565223,-0.08472874919,0.0147907942843,0.00652969612212,0.0111499102016,0.00635930232353,6.2066026435e-05,-0.0762102648067,0.573712346646,0.819022881506,0.00603405142892,0.0,0.819019579097,-0.573620727972,-0.01212173248,0.0,-0.00646684379813,0.0118966228949,-0.999908320945,0.0,0.267164249493,-0.257001751368,0.304916406555,1.0,-0.0179925,-0.0236472857143,2.741
-0.638260959818,-0.520704427911,-0.125551413982,-2.64160875208,-0.0676291489707,2.1104922775,-0.886245919185,-0.0777582080953,0.0113570131255,0.00193351765507,0.00422994419541,-9.60440803093e-05,0.00215003386147,-0.087223387299,0.573622543979,0.819085844069,0.00602527900248,0.0,0.819082716461,-0.573531514472,-0.012076936856,0.0,-0.00643648454933,0.0118630335358,-0.999908915903,0.0,0.266888150553,-0.25739441665,0.304925529371,1.0,-0.0176525,-0.0232004285714,2.758
-0.639533735481,-0.520513818051,-0.125555621221,-2.6414427133,-0.0675991015154,2.11056519861,-0.887502532123,-0.0809051111125,0.0126917602473,0.00248755641974,0.00422551492874,0.00311134342552,0.00295939276561,-0.0793225418995,0.573660193886,0.819059343213,0.0060432729135,0.0,0.819056794065,-0.573569716716,-0.0120206099163,0.0,-0.0063794773547,0.0118457572209,-0.999909486056,0.0,0.266607956664,-0.257780879476,0.304937025835,1.0,-0.0173325,-0.0227798571429,2.774
-0.640958028677,-0.520319002029,-0.125568690015,-2.64126295809,-0.0675772226982,2.11056211338,-0.888874985899,-0.0840657792801,0.0184201526905,-0.00117230067713,0.011512252891,-0.000423449990955,0.000127323132218,-0.0840707024516,0.57373056778,0.819009880992,0.00606608056047,0.0,0.819007547916,-0.573639829324,-0.0120303604098,0.0,-0.00637336133707,0.0118705798192,-0.99990923068,0.0,0.266276418301,-0.258203046125,0.304946494666,1.0,-0.0169725,-0.0223067142857,2.792
-0.642261569635,-0.52014387112,-0.125563287252,-2.64109466898,-0.0675440812835,2.11057808476,-0.890204937225,-0.075507601065,0.00752471648356,0.00193599357779,0.0123252061926,0.00221297670373,-0.00051168607436,-0.0715253372795,0.573727916331,0.819011577495,0.0060877626352,0.0,0.819009616159,-0.573637253883,-0.0120123477065,0.0,-0.00634620658832,0.011877984047,-0.999909315467,0.0,0.265981263024,-0.258587531473,0.304960055472,1.0,-0.0166325,-0.0218598571429,2.809
-0.64343450362,-0.519968103943,-0.125547273439,-2.640940953,-0.067521179035,2.11063705698,-0.891323038024,-0.0731069561746,0.00509629966347,0.00146856874534,0.00539151660211,0.000206201469513,0.00545918700438,-0.0642123902651,0.573779207419,0.81897562506,0.00609045091334,0.0,0.81897397598,-0.57368904303,-0.011968937984,0.0,-0.00630836496626,0.0118556768087,-0.999909819663,0.0,0.265724229883,-0.258937959884,0.304970665816,1.0,-0.0163125,-0.0214392857143,2.825
-0.644666281004,-0.519769993536,-0.125508117399,-2.64077230237,-0.0674980159199,2.11068187929,-0.892604684186,-0.0682667543581,0.0134758431328,0.00241650101498,0.0126737481871,0.00397038378574,0.00421794983603,-0.0782148039276,0.573729259567,0.819010665387,0.00608388041924,0.0,0.819009074088,-0.573639401963,-0.0119465467188,0.0,-0.00629451684091,0.0118370645726,-0.999910127441,0.0,0.265457220975,-0.259300124232,0.304979172058,1.0,-0.0159725,-0.0209924285714,2.842
-0.645868019015,-0.519564189274,-0.12544548142,-2.64062273835,-0.0674704500639,2.11070367542,-0.893808411605,-0.0699068765424,0.0107262818886,0.00478693299957,0.00619926971206,0.000475810965717,-0.00015460923791,-0.070171645374,0.57370290846,0.819029198101,0.00607391004361,0.0,0.819027311971,-0.57361278748,-0.0119741048196,0.0,-0.00632319073837,0.0118445050208,-0.999909858417,0.0,0.265194790575,-0.259640235401,0.304974754923,1.0,-0.0156325,-0.0205455714286,2.859
-0.646958316547,-0.519362154312,-0.125402629072,-2.64048564115,-0.0674481622363,2.11074340901,-0.894904315664,-0.0697312095116,0.0135867499933,5.92550816238e-05,0.00864838016092,0.00165955253829,-0.000519282586029,-0.068561884466,0.573684753189,0.819041960361,0.00606778602699,0.0,0.819039878747,-0.573594444811,-0.0119931982547,0.0,-0.00634260636701,0.0118503018676,-0.999909666765,0.0,0.264956195687,-0.259954806418,0.304967105848,1.0,-0.0153125,-0.020125,2.875
-0.648113137433,-0.519166874591,-0.125356810228,-2.64034434817,-0.0674239784142,2.11077872834,-0.896075367253,-0.0655963115328,0.0151591581416,0.00250062704226,0.0170924944685,0.00213356240239,0.00407544996556,-0.0724563899245,0.573656757549,0.819061608732,0.00606238574515,0.0,0.819059383574,-0.573566340831,-0.012005238304,0.0,-0.00635597176211,0.0118525682092,-0.999909555035,0.0,0.264701673397,-0.260285971209,0.304963532239,1.0,-0.0149725,-0.0196781428571,2.892
-0.649227568076,-0.518984911356,-0.125348139715,-2.64020317554,-0.0674081169836,2.11081463353,-0.897181983267,-0.0636453262349,0.0122401624057,-0.00496920059002,0.00906588300215,-0.000120204088522,0.00170279762918,-0.0645483656923,0.573671180209,0.819051472454,0.00606707263213,0.0,0.819049312366,-0.573580748439,-0.0120039924458,0.0,-0.00635205392359,0.011855804442,-0.999909541565,0.0,0.264448796519,-0.260615448776,0.304963960746,1.0,-0.0146325,-0.0192312857143,2.909
-0.650343090874,-0.518796807629,-0.125340433271,-2.64005321591,-0.0673800854764,2.1108660675,-0.898285265279,-0.065627770867,0.00896652711662,0.00221973521294,0.0107036843934,0.000104620628541,0.00164592542867,-0.0596658133142,0.573695525675,0.819034326537,0.00607969376227,0.0,0.819032447759,-0.57360525503,-0.0119836480499,0.0,-0.00632779664872,0.0118546599702,-0.999909708937,0.0,0.264200447095,-0.260948283459,0.304967420507,1.0,-0.0142925,-0.0187844285714,2.926
-0.651430186263,-0.518623541244,-0.125337558482,-2.639900023,-0.0673605404609,2.11090616719,-0.899436144272,-0.0624339767199,0.0106988558892,0.000261431988835,0.00876241793572,0.000282379833111,0.00180785620386,-0.062540406976,0.573657494919,0.819060900296,0.00608826995299,0.0,0.819059287576,-0.573567486613,-0.0119569493631,0.0,-0.00630155733984,0.0118460757424,-0.99990997638,0.0,0.26395657854,-0.261274788173,0.304976716462,1.0,-0.0139525,-0.0183375714286,2.943
-0.652512527451,-0.518444469755,-0.125324730445,-2.63973996776,-0.0673392767256,2.11093485215,-0.900482277356,-0.0635934683935,0.0139837920731,0.000326674965246,0.00810041726529,3.7674335974e-05,0.00304455825894,-0.0606115241782,0.573694098423,0.819035223658,0.00609350015117,0.0,0.819033806791,-0.573604301648,-0.0119363044827,0.0,-0.0062811168438,0.0118387979977,-0.999910191184,0.0,0.263729892067,-0.261578782431,0.304988978088,1.0,-0.0136325,-0.017917,2.959
-0.653476057878,-0.518274565721,-0.12532895861,-2.63959907939,-0.0673187173581,2.11096759389,-0.901440339614,-0.0616731999044,0.00943600694427,-0.00021098788457,0.00681326079482,0.000313876216986,0.002327123851,-0.0564195500048,0.573718958822,0.819017718652,0.00610571232094,0.0,0.819016478621,-0.573629140999,-0.0119316069794,0.0,-0.00626990372937,0.0118462962158,-0.999910172752,0.0,0.263497874137,-0.261888339817,0.304990375044,1.0,-0.0132925,-0.0174701428571,2.976
-0.6544827596,-0.518083621381,-0.125321869465,-2.63946816465,-0.0673057968099,2.11100092092,-0.902477884944,-0.0570237616554,0.00629496942973,0.00143770295278,0.0105509273775,0.000174285955003,0.00015750289691,-0.0576846798176,0.573701141812,0.819030166672,0.00611006269228,0.0,0.819028843951,-0.573611046867,-0.0119526812338,0.0,-0.00628492805006,0.0118618128315,-0.999909894478,0.0,0.263267726827,-0.262185797352,0.304982524496,1.0,-0.0129525,-0.0170232857143,2.993
-0.655585434153,-0.51788120394,-0.125306713882,-2.63932550099,-0.0672899760032,2.11102134898,-0.903517917519,-0.0546959797057,0.0109040517892,-0.000218046088405,0.00783862180854,0.000825279124247,0.00122926162794,-0.0514599730439,0.573756008852,0.818991708191,0.0061131924087,0.0,0.818990216832,-0.573665494689,-0.0119863187714,0.0,-0.00630988962315,0.0118840960011,-0.99990947268,0.0,0.263014485416,-0.262507265811,0.304974864903,1.0,-0.0125725,-0.0165238571429,3.012
-0.656380602818,-0.517729718591,-0.125288630227,-2.6392199335,-0.0672776312159,2.11105679597,-0.904268416308,-0.0566347541443,0.00801880295558,0.00137354665266,0.00631347527383,-0.000487061513236,0.000862273772781,-0.0544517589139,0.573790615563,0.818967485677,0.00611013882084,0.0,0.818965920073,-0.573700041966,-0.011992935799,0.0,-0.00631655919257,0.0118856583114,-0.999909412,0.0,0.26283703412,-0.262740814089,0.304970459684,1.0,-0.0122925,-0.0161558571429,3.026
-0.657311649581,-0.517567369582,-0.12526819655,-2.6390837635,-0.0672645266836,2.11110116809,-0.905242693203,-0.0553061285168,0.00941420178213,0.00272164252599,0.00706022804619,-0.00013568666254,-0.000202389690733,-0.0561957611153,0.57375334767,0.818993641222,0.00610398040814,0.0,0.818992143131,-0.573663085515,-0.0119699920344,0.0,-0.00630184045674,0.0118671634771,-0.999909724544,0.0,0.262632363734,-0.263018326642,0.304976764342,1.0,-0.0119525,-0.015709,3.043
-0.658257326974,-0.517381770709,-0.125229548691,-2.63894348008,-0.0672476531011,2.11114583001,-0.906218126061,-0.0516037785268,0.0159150488569,0.00505860650335,0.0052704436498,4.14669681776e-06,0.000806057512264,-0.0507760961264,0.573716088545,0.819019828321,0.00609241027493,0.0,0.819018214111,-0.573625946861,-0.011965991135,0.0,-0.00630574079751,0.01185510486,-0.999909842997,0.0,0.262428376441,-0.263295896188,0.304976815564,1.0,-0.0115925,-0.0152358571429,3.061
-0.659043566033,-0.517240876695,-0.125187203541,-2.63883784642,-0.0672335288685,2.1111658594,-0.906969849288,-0.0589777210798,0.00822324747935,0.00287679883758,0.00684537286942,0.000773630143307,0.00233025801975,-0.0516837351768,0.573725864764,0.819013070295,0.00608027042019,0.0,0.819011239303,-0.573635660881,-0.0119777027106,0.0,-0.0063221568524,0.0118519558446,-0.999909776668,0.0,0.262255937758,-0.263519286023,0.30497558027,1.0,-0.0112925,-0.0148415714286,3.076
-0.659959727021,-0.517068389908,-0.125154944262,-2.63872779676,-0.0672221468749,2.11119865331,-0.907883434454,-0.0469203315821,0.0117194307118,0.000120237138625,0.00779765522602,0.00240432310387,0.000546409426027,-0.0420629651239,0.573715813491,0.819020172147,0.00607205629149,0.0,0.819018082238,-0.573625361448,-0.0120030234278,0.0,-0.00634775504314,0.0118596765849,-0.999909522946,0.0,0.262048876824,-0.263781485997,0.304965544702,1.0,-0.0109325,-0.0143684285714,3.094
-0.660838056017,-0.516895807999,-0.125142071471,-2.63862206763,-0.0672043900236,2.11123811879,-0.908779633745,-0.0485671347124,0.00841236900013,-0.000299258852051,0.00788007246925,0.000486906179163,0.000386143497722,-0.0523286902105,0.573705295251,0.819027492101,0.00607851016152,0.0,0.819025337471,-0.573614540458,-0.0120250761652,0.0,-0.00636226865429,0.0118775323874,-0.99990921876,0.0,0.261847903456,-0.264037007036,0.304953618153,1.0,-0.0105725,-0.0138952857143,3.112
-0.661596858523,-0.516742068114,-0.125148864966,-2.6385202223,-0.0671951794121,2.11127065427,-0.909527533516,-0.0422820847464,0.0111285683111,-0.00118220167567,0.00706181677721,0.000648921695026,0.000241642036848,-0.0506336648036,0.573728395704,0.819011253079,0.00608622985003,0.0,0.819009095811,-0.573637410695,-0.0120403043936,0.0,-0.00636997829862,0.0118927711026,-0.999908988544,0.0,0.26167159857,-0.264264550702,0.304945807602,1.0,-0.0102525,-0.0134747142857,3.128
-0.66238071544,-0.516578990894,-0.12514571266,-2.63839591215,-0.0671778011775,2.11128665831,-0.910274871231,-0.0429783444454,0.00771497165729,-0.00034569538746,0.0092587818661,0.00186757565945,0.00152870724072,-0.036392194654,0.573769991401,0.818982048553,0.00609491726016,0.0,0.818979883124,-0.573678733972,-0.0120585292744,0.0,-0.00637931741182,0.0119106661807,-0.999908716004,0.0,0.26149371321,-0.264498876441,0.304943580506,1.0,-0.0099125,-0.0130278571429,3.145
-0.663139901911,-0.516429642571,-0.12512868018,-2.63827435065,-0.0671604218553,2.11132410974,-0.911000606326,-0.041983153893,0.00907819331061,0.00146485316886,0.00848056567141,0.000753454578225,0.00628353413331,-0.0408111388606,0.573799002985,0.818961732613,0.006093569591,0.0,0.818959640876,-0.573707915667,-0.01204495824,0.0,-0.00636855337488,0.0119020017434,-0.99990888779,0.0,0.261328266428,-0.26472621395,0.304947318498,1.0,-0.0095725,-0.012581,3.162
-0.663770393472,-0.516291911872,-0.125111615612,-2.63818526039,-0.0671465359343,2.11134323693,-0.911665222426,-0.0423921128272,0.00766181855652,0.00450404474684,0.00729199660238,0.00296229380622,-0.000111838507883,-0.0457515965865,0.57376961641,0.818982307545,0.00609541749487,0.0,0.81898007036,-0.573678210831,-0.0120706947294,0.0,-0.00638900022847,0.011918052793,-0.999908566167,0.0,0.261186458811,-0.264909336341,0.304939020349,1.0,-0.0092725,-0.0121867142857,3.177
-0.664503680238,-0.516145449437,-0.125082906131,-2.63809453739,-0.0671232949218,2.11137268094,-0.912440115834,-0.0379617919696,0.00855830452156,0.00167465927916,0.00376752802073,0.0042874930799,0.00213529191834,-0.0374549126451,0.57372992877,0.819010078985,0.00609969311517,0.0,0.819007752317,-0.573638242327,-0.0120919595868,0.0,-0.00640454284625,0.0119334448163,-0.999908283157,0.0,0.261022498248,-0.265117509846,0.304929396751,1.0,-0.0089125,-0.0117135714286,3.195
-0.665188615125,-0.516022564682,-0.125043472436,-2.63801430555,-0.0670974013416,2.11140493883,-0.913091245377,-0.038493871263,0.00512730337433,0.00172900419971,0.00301770223451,0.000314129137867,0.000116390684439,-0.0486712923319,0.573744914386,0.818999582308,0.00609953251359,0.0,0.818997216795,-0.57365315701,-0.0120979848045,0.0,-0.00640935181882,0.0119368872303,-0.999908211254,0.0,0.260872417779,-0.265308470115,0.304924195628,1.0,-0.0085725,-0.0112667142857,3.212
-0.665805262553,-0.515905736836,-0.125019364921,-2.63793764809,-0.0670791882716,2.11142017587,-0.913697487098,-0.0375613308681,0.00829255868195,0.000424322840877,0.00953513769323,-8.81468743339e-05,-0.000174205890172,-0.0406277419714,0.573748162846,0.8189972857,0.00610233951008,0.0,0.818994818923,-0.573656135882,-0.0121190446465,0.0,-0.00642494386761,0.0119512941429,-0.999907939095,0.0,0.26073289424,-0.265482361853,0.304917783734,1.0,-0.0082525,-0.0108461428571,3.228
-0.666438057607,-0.515787773171,-0.12501433832,-2.63785959555,-0.0670593963489,2.11143869884,-0.914321592242,-0.0350029999307,0.0102263137742,0.000761287246937,0.00798314619482,0.000150523273383,-0.000303341788579,-0.0319972233685,0.573764303522,0.818985879685,0.00611553616091,0.0,0.818983464818,-0.57367199114,-0.0121358080237,0.0,-0.00643086741775,0.0119718469278,-0.999907655149,0.0,0.260585667329,-0.265665162204,0.304911414276,1.0,-0.0079125,-0.0103992857143,3.245
-0.667028171786,-0.515696134279,-0.125000481777,-2.63777848207,-0.0670357915776,2.1114639623,-0.914940302899,-0.0299391137517,0.00481876413632,0.000381614860906,0.00563680340166,0.000282935039572,-2.74276341131e-05,-0.0369150130881,0.573741600382,0.819001687798,0.00612848072971,0.0,0.818999518334,-0.573649378283,-0.0121213310241,0.0,-0.00641191485587,0.0119739651622,-0.999907751498,0.0,0.260445952874,-0.26584570953,0.304914461605,1.0,-0.0075525,-0.00992614285715,3.263
-0.66758348955,-0.515614629496,-0.124988775926,-2.63771923669,-0.0670112672362,2.11147508032,-0.915477102773,-0.0365376739424,0.00505976478751,0.00118045629977,1.19038517929e-06,0.0064905883384,-0.000332524248247,-0.031866102091,0.57376569606,0.81898472424,0.00613957556899,0.0,0.818982680608,-0.573673384482,-0.012122858645,0.0,-0.00640644829243,0.0119841172174,-0.999907664915,0.0,0.260324766534,-0.265991942081,0.30491499871,1.0,-0.00725250000001,-0.00953185714286,3.278
-0.668144269599,-0.515549530725,-0.12496401348,-2.6376468048,-0.066990983978,2.11148933986,-0.916016377996,-0.0327429456055,0.00249860829316,0.00183926098813,0.00906698774878,0.000274581128498,0.0005518668376,-0.0256178058002,0.573786781372,0.818969948843,0.00613997691302,0.0,0.818968109063,-0.573694835558,-0.0120921004299,0.0,-0.00638071667359,0.011966963069,-0.999908034896,0.0,0.260193371704,-0.266162104468,0.304927058507,1.0,-0.00689250000001,-0.00905871428572,3.296
-0.668698889154,-0.515441982436,-0.12492465314,-2.63754072364,-0.0669666445632,2.11150705923,-0.916538858404,-0.0353471392443,0.00673987044513,0.0079582254215,0.00852605010832,0.000310949760228,0.000257412706291,-0.0256989675819,0.573792123012,0.818966245385,0.00613476890458,0.0,0.818964432305,-0.573700376206,-0.0120782392038,0.0,-0.00637227366908,0.0119547862149,-0.999908234397,0.0,0.260087661683,-0.266312033866,0.304936617191,1.0,-0.00655250000001,-0.00861185714286,3.313
-0.669167289472,-0.51534571475,-0.124873893718,-2.63744994634,-0.0669389787311,2.11153684428,-0.916999090387,-0.0288587962339,0.0115358457881,0.00256191391073,0.00452095997866,0.00396908377111,8.52065098896e-05,-0.0314587732347,0.573779158009,0.818975399625,0.00612531992077,0.0,0.818973645125,-0.573687795816,-0.0120510755918,0.0,-0.00635563553033,0.0119313613049,-0.999908620082,0.0,0.259999694574,-0.266446427039,0.304946061707,1.0,-0.00623250000001,-0.00819128571429,3.329
-0.669638317136,-0.515260846653,-0.124833448389,-2.63736324788,-0.0669199813921,2.11156783786,-0.917482434384,-0.019172410876,0.00615524968292,0.00244027865743,0.00284600987418,0.00151913753702,0.00244862180749,-0.0316602811761,0.573752798319,0.818993953235,0.00611374572257,0.0,0.818992281252,-0.57366192916,-0.0120158721469,0.0,-0.00633382541135,0.0119014799652,-0.999909114585,0.0,0.259907386762,-0.266583865263,0.304957714828,1.0,-0.00589250000001,-0.00774442857144,3.346
-0.670087250303,-0.515184543354,-0.124802056687,-2.63730761753,-0.0668996446105,2.11159251113,-0.917933670406,-0.0259452672141,0.00679621069563,0.00155670382877,0.00228489534281,0.000357970131085,-0.000186259345242,-0.0229996441533,0.573740181699,0.819002798454,0.00611284957575,0.0,0.819001159479,-0.573649402945,-0.0120087540446,0.0,-0.00632869250597,0.0118965646635,-0.999909205578,0.0,0.259811222744,-0.266708477938,0.304957664278,1.0,-0.00555250000001,-0.00729757142858,3.363
-0.670475124601,-0.515094673137,-0.124779077858,-2.63726052405,-0.0668764034497,2.11160629588,-0.918361243863,-0.0245403067806,0.00846142993288,0.000244062072837,0.000836120818846,0.00634031779279,0.000612389122276,-0.0195761507766,0.573703838072,0.819028189417,0.00612192962748,0.0,0.819026494861,-0.573612701815,-0.0120339491924,0.0,-0.00634464917881,0.0119181748652,-0.999908847113,0.0,0.259725768746,-0.266814690957,0.304947598899,1.0,-0.00523250000001,-0.00687700000001,3.379
-0.670881950185,-0.515043014677,-0.124773582313,-2.63723621052,-0.0668572256523,2.11161732308,-0.918755612909,-0.0223773816479,0.00634282968714,0.000791789294453,0.000892637490643,-0.000143288976983,0.0011311875382,-0.016856633697,0.573719677872,0.819016975878,0.00613769886639,0.0,0.819015392929,-0.57362829439,-0.012046282499,0.0,-0.00634547430075,0.0119382890127,-0.999908601929,0.0,0.259626224209,-0.266924280186,0.304940647276,1.0,-0.00489250000001,-0.00643014285715,3.396
-0.671275499345,-0.514981585139,-0.124763900287,-2.63719878716,-0.0668412747471,2.11162792015,-0.919121724014,-0.0241390830551,0.0029117309839,0.00157750295012,0.00358948301309,0.00118309674301,-0.00067783156191,-0.017234174316,0.573744081567,0.818999812315,0.00614680381633,0.0,0.818998275726,-0.573652517672,-0.01205654295,0.0,-0.00634829915279,0.0119518219981,-0.999908422331,0.0,0.259533482918,-0.267033001532,0.304936100925,1.0,-0.00455250000001,-0.00598328571429,3.413
-0.671622124093,-0.514945317826,-0.124748437594,-2.63715973769,-0.0668268643845,2.11163159827,-0.919448918224,-0.0248751280605,0.00476021215985,0.000190001636026,0.00679639156856,-6.22107621905e-05,-0.000182340502844,-0.0185447631817,0.573757118185,0.818990652181,0.00615043685015,0.0,0.818989217683,-0.573665639009,-0.012047524298,0.0,-0.00633863753456,0.011949724356,-0.999908508696,0.0,0.25945422898,-0.267128297059,0.304941129713,1.0,-0.00423250000001,-0.00556271428572,3.429
-0.671978141118,-0.514879501215,-0.124723633476,-2.63712047791,-0.0668088069605,2.11163994386,-0.919788593108,-0.0161396611037,0.00233837154468,-0.000141280978572,0.00299749269987,1.93248262723e-05,0.000232673246162,-0.0181389777583,0.573762689162,0.818986723778,0.00615383630734,0.0,0.818985232611,-0.57367100384,-0.012062960691,0.0,-0.00634924944626,0.0119614081191,-0.999908301669,0.0,0.259374979678,-0.267223845491,0.304935959425,1.0,-0.00387250000001,-0.00508957142858,3.447
-0.672293508477,-0.514842734413,-0.124706515206,-2.63707925867,-0.0667933509251,2.11164581164,-0.920083912038,-0.0144855770607,0.00366344586127,0.00153965667528,-9.08574729139e-05,0.000234690992439,0.000302591037806,-0.0103145845865,0.573775599585,0.818977658696,0.00615652337909,0.0,0.818976281656,-0.573684049053,-0.0120502634412,0.0,-0.00633711928869,0.0119564239543,-0.999908438231,0.0,0.259305294844,-0.26731140364,0.304942014226,1.0,-0.00353250000001,-0.00464271428572,3.464
-0.672550675546,-0.514801185726,-0.124685979028,-2.6370380775,-0.0667803725023,2.11165105291,-0.920344084265,-0.0163315238975,0.00703111798521,0.00567253694695,0.00345300938146,0.000119926454041,0.00474343734059,-0.0134789413676,0.573766162556,0.818984278661,0.00615539703646,0.0,0.818982929356,-0.573674698909,-0.0120435939826,0.0,-0.00633244050787,0.0119516019044,-0.999908525521,0.0,0.259251471696,-0.267383183568,0.304946310217,1.0,-0.00321250000001,-0.00422214285715,3.48
-0.672802161221,-0.514732349726,-0.124659025756,-2.63699587057,-0.0667670932841,2.11166455536,-0.920588736687,-0.0118553030098,0.000437880539394,0.00239273660707,0.000929073475683,-0.000230990076648,0.00101020897395,-0.0147495623518,0.573760519402,0.818988260822,0.0061515780492,0.0,0.818986791528,-0.573668940971,-0.0120552216669,0.0,-0.00634423790829,0.0119551015872,-0.999908408901,0.0,0.259201527271,-0.267453051901,0.304941847364,1.0,-0.00287250000001,-0.00377528571429,3.497
-0.673036194799,-0.514702935188,-0.124633335526,-2.63696185335,-0.0667532123539,2.11168461165,-0.920812208507,-0.0123787903055,0.00110707187603,0.000585444739141,0.00216114103831,-7.44684510827e-05,-0.000267510168077,-0.0126088666152,0.573758513576,0.818989702648,0.00614670296674,0.0,0.818988340417,-0.57366727816,-0.0120290951531,0.0,-0.0063256644906,0.0119361036235,-0.999908753537,0.0,0.259156050441,-0.26751808882,0.304948755196,1.0,-0.00253250000001,-0.00332842857144,3.514
-0.673245694325,-0.51465691729,-0.124601904021,-2.63694188357,-0.0667439390568,2.11170015717,-0.921016977573,-0.0136107314626,0.00564196033935,0.00197918793963,0.000850812535621,0.000459138501105,0.0018074768998,-0.0161780704928,0.573745121984,0.818999142652,0.00613891155309,0.0,0.818997625514,-0.573653822044,-0.0120386360798,0.0,-0.00633814458133,0.0119350924988,-0.999908686576,0.0,0.259113776215,-0.267571367733,0.30494289537,1.0,-0.00221250000001,-0.00290785714286,3.53
-0.673458922426,-0.514640875401,-0.124573714955,-2.63692208182,-0.0667316275351,2.11171279675,-0.92119833505,-0.00827850373041,0.00248253205139,0.00105657767874,-0.00121019496714,0.000107865964577,0.00033058570964,-0.00250511752011,0.573757411247,0.818990573494,0.00613355265676,0.0,0.818989105421,-0.573666355473,-0.0120210108055,0.0,-0.0063266035416,0.0119206863539,-0.999908931516,0.0,0.259070214346,-0.26762606313,0.304947710195,1.0,-0.00185250000001,-0.00243471428572,3.548
-0.673631368024,-0.514622682125,-0.124557358991,-2.63690348313,-0.0667177349766,2.11171997885,-0.921357238896,-0.0109175868414,0.00157233919886,0.00334597611359,-0.000663764431178,0.00097717033476,-3.75677129152e-05,-0.0146934076727,0.573763737644,0.818986121991,0.00613614305507,0.0,0.818984744244,-0.573672776237,-0.0120117193182,0.0,-0.00631741483089,0.0119175259714,-0.999909027284,0.0,0.259033885379,-0.267671432794,0.304950441644,1.0,-0.00153250000001,-0.00201414285715,3.564
