nelsonifechukwu/NELSON_IML_WORK/CNN-GradCAM/train2dof/data_sample_2022-02-22-07-21-17/robot_state.csv
position_joint1,position_joint2,position_joint3,position_joint4,position_joint5,position_joint6,position_joint7,velocity_joint1,velocity_joint2,velocity_joint3,velocity_joint4,velocity_joint5,velocity_joint6,velocity_joint7,ee_T_00,ee_T_10,ee_T_20,ee_T_30,ee_T_01,ee_T_11,ee_T_21,ee_T_31,ee_T_02,ee_T_12,ee_T_22,ee_T_32,ee_T_03,ee_T_13,ee_T_23,ee_T_33,v_x,v_y,time
0.465041817113,0.547692386039,-0.124077651275,-1.35585125455,0.0795192375315,1.89416262433,0.159139788766,0.000329698301672,-0.00123545377447,0.000808084645918,-9.25528902163e-05,0.000295547627607,-0.00014545288495,0.000262312201629,0.57388460164,0.818921866208,0.00204644780798,0.0,0.818880317839,-0.573825966816,-0.0118123564467,0.0,-0.00849925573071,0.00845488808809,-0.999928136178,0.0,0.661715342767,0.26082416505,0.30327697844,1.0,0.0,0.0,0.0
0.465039550586,0.547692304896,-0.12408043501,-1.35585117802,0.0795153316392,1.89416342618,0.159140183468,-0.000527448573125,-0.000645281487937,-0.000219172513642,0.000294285323526,-6.15046338882e-05,0.000230769208817,-0.00191911324996,0.57388507404,0.818921556628,0.00203783827491,0.0,0.818879930026,-0.57382650692,-0.0118130037503,0.0,-0.00850472154294,0.00844821405014,-0.999928146114,0.0,0.66171596433,0.260820424963,0.303272220318,1.0,-0.0002,-0.000262857142857,0.011
0.465039405308,0.547690750855,-0.12407538206,-1.35585276068,0.0795185254547,1.89416262579,0.159142625849,-0.000177554544658,-0.00228658839052,0.00226504117482,0.000844587365433,-4.94679492233e-05,5.92295479777e-06,9.33451874719e-05,0.573887205272,0.81892004079,0.00204678253537,0.0,0.818878490586,-0.573828562644,-0.0118129272305,0.0,-0.0084995042109,0.00845551678239,-0.999928128749,0.0,0.661715188992,0.260823609854,0.30327734357,1.0,-0.00054,-0.000709714285714,0.028
0.465036092813,0.547657877098,-0.124082576053,-1.35588331809,0.0795159252643,1.89416503992,0.15913984573,-0.0013825858845,-0.00579845066675,-0.000396193171701,-0.00630623032829,0.000329657655701,-3.85475408309e-06,0.00151398376902,0.573893606197,0.818915548691,0.00204933618551,0.0,0.818874063752,-0.573834984549,-0.0118078415818,0.0,-0.00849380780156,0.00845475581722,-0.999928183588,0.0,0.661712196427,0.260813802237,0.303286530367,1.0,-0.0009,-0.00118285714286,0.046
0.465038229694,0.547572768144,-0.124083660845,-1.355968614,0.0795151104628,1.8941870832,0.15913655647,-0.00049020125704,-0.00412561269946,-0.00246133508145,-0.0091721948336,0.000108675639107,0.00202959584004,-0.00038479294467,0.573894364889,0.818914961981,0.00207120587577,0.0,0.818873715947,-0.573835611282,-0.0118015023656,0.0,-0.00847605836165,0.008469034812,-0.999928213365,0.0,0.661699027398,0.260806950002,0.303308172148,1.0,-0.00122,-0.00160342857143,0.062
0.465026854466,0.547431620102,-0.124079896801,-1.35615773593,0.0795157692366,1.89421958587,0.159131460461,-0.00210309193459,-0.0123106507172,5.53497329498e-05,-0.00960936512643,7.90319080756e-05,0.00195355748962,0.000161640622182,0.573907357693,0.818905866032,0.00206742963539,0.0,0.818864395106,-0.573848441933,-0.0118243401595,0.0,-0.00849679383313,0.00847918358578,-0.999927951375,0.0,0.661667941482,0.260783316509,0.303320840254,1.0,-0.00156,-0.00205028571429,0.079
0.465013579223,0.547291790887,-0.124083631273,-1.35635324429,0.0795093570994,1.8943011726,0.159129391548,-0.00225192556855,-0.0117454765401,-0.00131190561696,-0.0132180979043,0.000355398238879,0.00205364646121,-0.000431483942666,0.573928438185,0.818891031569,0.00209121016855,0.0,0.818849853624,-0.573869409234,-0.0118137744346,0.0,-0.0084742755455,0.00849281176366,-0.999928026811,0.0,0.661647758426,0.260755504936,0.303334030062,1.0,-0.00188,-0.00247085714286,0.095
0.464996749237,0.54710802222,-0.124075754094,-1.3565386887,0.0795055139988,1.89440805255,0.15911540652,-0.000881740488723,-0.011139815043,0.00129675297071,-0.0121300114925,6.26369756124e-05,0.00935105859525,-0.00256799332502,0.573935100855,0.818886104883,0.00218955193482,0.0,0.818846137506,-0.573875618992,-0.0117696184893,0.0,-0.00838160794068,0.00854806789617,-0.999928337024,0.0,0.661631434574,0.260736168829,0.303385649029,1.0,-0.00222,-0.00291771428571,0.112
0.464971432977,0.546894186527,-0.124081084013,-1.35680904231,0.0794993024526,1.8945468979,0.159097791109,-0.000862928927396,-0.0175860447207,0.000586113452041,-0.018197678013,0.000601463809302,0.00678843160257,-0.000896327586829,0.573948048817,0.818876830108,0.00226302281654,0.0,0.818837806666,-0.573888275083,-0.0117320500096,0.0,-0.00830854162704,0.00858680117369,-0.999928614943,0.0,0.661614709265,0.26070010548,0.303421033437,1.0,-0.00254,-0.00333828571429,0.128
0.464941586096,0.546668314219,-0.124078580312,-1.35713326802,0.0794915903198,1.89466709239,0.159054292653,-0.00523044541437,-0.0131308968229,0.000742933174226,-0.0226078653942,-0.00130397997934,0.0138090022201,-0.00019854904641,0.573961635276,0.818867241752,0.00228659532363,0.0,0.818828423926,-0.573901667255,-0.0117318112211,0.0,-0.00829467472501,0.00860610449241,-0.999928564117,0.0,0.66157690844,0.260648388612,0.303435933998,1.0,-0.00288,-0.00378514285714,0.145
0.464909771212,0.546386444883,-0.124080788146,-1.35753545941,0.0794745054613,1.89480825318,0.158962937374,-0.00213172983814,-0.0214121558741,-0.000144546059806,-0.0267202171776,-0.00234570456984,0.0117296638663,-0.00542012563467,0.573932310598,0.818887732271,0.00230904496627,0.0,0.818849139088,-0.573872192656,-0.0117277794748,0.0,-0.00827879743349,0.00862187705277,-0.999928559823,0.0,0.661529970219,0.260588839123,0.303456412944,1.0,-0.00322,-0.004232,0.162
0.464867033628,0.546117110714,-0.124076152099,-1.3579706652,0.0794465172637,1.89495056831,0.158924754902,-0.0027963868636,-0.0179592470786,-0.00100953411027,-0.0255417474881,-0.00490795425398,0.0144330412623,0.00129372353316,0.57395671916,0.818870702878,0.00228109642552,0.0,0.818831758995,-0.573896715753,-0.0117412525574,0.0,-0.00830561389626,0.0086069707061,-0.999928465858,0.0,0.661474579007,0.260512775559,0.303447853553,1.0,-0.00356,-0.00467885714286,0.179
0.464805422159,0.545758705443,-0.124078715254,-1.35856611464,0.0794117595843,1.89515110398,0.158862317077,-0.00521912604285,-0.023689647117,0.00061866068954,-0.0344451447952,4.4354123863e-05,0.0153644752004,-0.000513784045268,0.573974733521,0.818858140343,0.00225791384854,0.0,0.818818819855,-0.573914737624,-0.0117626991257,0.0,-0.008336292397,0.00860048003486,-0.999928266413,0.0,0.661408521269,0.260420015589,0.303439917705,1.0,-0.00392,-0.005152,0.197
0.464741921313,0.545411668819,-0.124081536881,-1.35917056998,0.0793817516594,1.8953390879,0.158769748211,-0.00488563672769,-0.0253486110515,0.000676474511561,-0.0386574056037,-7.86151745068e-05,0.012315151548,0.00145192685417,0.57397856564,0.818855606772,0.00220189574469,0.0,0.818815458061,-0.573918681931,-0.0118041971977,0.0,-0.00840238572719,0.00857846761094,-0.999927902305,0.0,0.661335178912,0.260317080957,0.303414263656,1.0,-0.00426,-0.00559885714286,0.214
0.464684345933,0.545033327598,-0.124081564135,-1.35982803294,0.0793465802109,1.89554076405,0.158696922053,-0.00432425595107,-0.0209020756899,-0.000293415314385,-0.0369388687886,0.000312382100173,0.0136155361077,-0.0131636775926,0.573993281322,0.818845459597,0.00213850326699,0.0,0.818804381683,-0.573933538806,-0.0118500831578,0.0,-0.00847619123474,0.0085530486336,-0.999927497142,0.0,0.661251246311,0.26021389943,0.303386600691,1.0,-0.00458,-0.00601942857143,0.23
0.464620432719,0.544639238886,-0.124084643741,-1.36049670443,0.0793128117269,1.89577031753,0.158615237334,-0.00482783708387,-0.0243737700456,-0.0002587993481,-0.0416681558733,-0.00531484305291,0.0162879286039,0.000907660990219,0.574009182616,0.818834406236,0.00210245978528,0.0,0.81879278288,-0.573949505679,-0.0118781536789,0.0,-0.00851969919097,0.00853981260054,-0.999927240516,0.0,0.661172908955,0.260105763203,0.303367243215,1.0,-0.0049,-0.00644,0.246
0.464558635843,0.544183798855,-0.124087153985,-1.36124486939,0.0792789993422,1.8960206694,0.158519172986,-0.00145849328344,-0.0324871505233,-0.000812575376067,-0.0429157436327,-0.00525315402984,0.00717613012687,-0.00650629455609,0.574015492284,0.818830060404,0.00207212402006,0.0,0.818787906767,-0.573955802517,-0.0119099702306,0.0,-0.00856309890467,0.00853330180647,-0.999926925379,0.0,0.66108128939,0.259992135534,0.303355217329,1.0,-0.00524,-0.00688685714286,0.263
0.464489529201,0.54371838873,-0.124088047926,-1.36200879395,0.0792403804521,1.89629886205,0.158423897846,-0.00100692639143,-0.0286385964827,-0.000811075301033,-0.0490222176519,-0.00120139709043,0.00897929970555,-0.00200590976778,0.574027016509,0.818822017498,0.00205788224527,0.0,0.818779599888,-0.573967305656,-0.0119266821146,0.0,-0.0085848380682,0.0085313540075,-0.999926755595,0.0,0.660993561236,0.259873990054,0.303345055819,1.0,-0.00556,-0.00730742857143,0.279
0.464408812619,0.543193645828,-0.124087913293,-1.36285037703,0.0791841369237,1.89658063687,0.158319030995,-0.00999760483691,-0.032162043322,0.000194093585928,-0.0496300883466,-0.00529350430252,0.0125206116666,-0.00528581629881,0.574038864513,0.818813792204,0.00202549404486,0.0,0.818770951413,-0.573979284968,-0.0119438876234,0.0,-0.00861739420652,0.00851483531234,-0.999926616356,0.0,0.660893882261,0.259737725901,0.303340100063,1.0,-0.0059,-0.00775428571429,0.296
0.464340658793,0.542638500845,-0.12409640893,-1.36374285351,0.0791301347677,1.89689840845,0.158200408925,-0.00331240887798,-0.0342829692794,-0.000505299633249,-0.0534506055632,-0.00130364332728,0.0239718180757,-0.0122019435042,0.57403871125,0.818813946609,0.00200642120442,0.0,0.818770872983,-0.573979226674,-0.0119520626746,0.0,-0.00863503776868,0.00850390962226,-0.999926557125,0.0,0.660788921747,0.259601934257,0.303335779197,1.0,-0.00624,-0.00820114285714,0.313
0.464265769774,0.542048342258,-0.124091816448,-1.36465933282,0.0790785017478,1.89723690922,0.158098867382,-0.00489914679231,-0.0378658240789,0.00121065952609,-0.0522303453165,-0.00571743346194,0.0241117765201,-0.00726370999494,0.574050845507,0.818805407426,0.00201951598485,0.0,0.818762439585,-0.573991240827,-0.0119528188816,0.0,-0.0086280143642,0.00851519356355,-0.999926521724,0.0,0.660681966719,0.259468687086,0.303346095322,1.0,-0.00658,-0.008648,0.33
0.46417991964,0.54137134416,-0.124094767718,-1.36568014503,0.0790165969652,1.89759837552,0.157944706667,-0.00342895584649,-0.0384469741634,0.00275244619262,-0.0540690857931,-0.00461378465804,0.0186953384838,-0.00348840086165,0.57403700187,0.818815074731,0.00203489028054,0.0,0.818772292463,-0.573977320315,-0.0119463701769,0.0,-0.00861405296605,0.00852393441167,-0.999926567621,0.0,0.660562800262,0.259312488946,0.30337029098,1.0,-0.00694,-0.00912114285714,0.348
0.464091639773,0.540743766714,-0.124093127866,-1.36664501741,0.0789651907163,1.89795371435,0.157825134227,-0.00687044152664,-0.0421290078709,0.0068413365396,-0.0600015062828,-0.00349353310758,0.0155975715166,-0.0038622453187,0.574050007718,0.818805908101,0.00205436089097,0.0,0.81876329921,-0.573990164128,-0.0119456373893,0.0,-0.0086021411433,0.00853959295003,-0.999926536562,0.0,0.660452839347,0.259164628207,0.303385415239,1.0,-0.00726,-0.00954171428571,0.364
0.464005701771,0.540051417708,-0.12410226597,-1.3676779923,0.0788980768689,1.89832084123,0.157689849265,-0.00948952614376,-0.0455444206168,-0.000507664877517,-0.0706980661423,-0.00519525005965,0.0224668188398,-0.00591042488248,0.574055161195,0.818802247515,0.00207322714557,0.0,0.818759945301,-0.573995299615,-0.0119287422644,0.0,-0.00857742348149,0.00854539593309,-0.999926699321,0.0,0.66033376798,0.259003103791,0.303415154848,1.0,-0.00758,-0.00996228571429,0.38
0.463898279856,0.539210118578,-0.124103213893,-1.36895558491,0.0788212914718,1.89880377933,0.157545232388,-0.00653690125565,-0.0497984053629,0.000698494147363,-0.0660222266547,-0.000840993202249,0.0238371763395,-0.000581414898387,0.574075577115,0.818787833485,0.00211243869368,0.0,0.818746049438,-0.574015560089,-0.0119075692842,0.0,-0.00853736454714,0.0085655604576,-0.999926869616,0.0,0.660189184258,0.258811360842,0.303443370418,1.0,-0.00796,-0.0104617142857,0.399
0.463791807119,0.538443848265,-0.124103904208,-1.3701334766,0.0787603789259,1.89926121922,0.157379560418,-0.00354598058729,-0.0476801416903,0.000413684980023,-0.0748195407002,-0.00138785824902,0.0292831713964,-0.00902515686436,0.574076531958,0.818787050198,0.00215610390584,0.0,0.81874576523,-0.574016268174,-0.0118929681163,0.0,-0.00850033322197,0.00859294027391,-0.999926950188,0.0,0.660059148286,0.258632089885,0.303463695333,1.0,-0.0083,-0.0109085714286,0.416
0.463676411145,0.53760692596,-0.12411422223,-1.37143708812,0.078688389555,1.89975926122,0.157228826283,-0.00249131839196,-0.0485390321986,0.000591182420268,-0.0734074216086,-0.00953636667225,0.0255657213748,-0.0117396170884,0.574107635876,0.818765170799,0.00218275445967,0.0,0.818724233946,-0.574047262528,-0.0118792270104,0.0,-0.00847345625005,0.00860719462302,-0.99992705571,0.0,0.659914820687,0.258428323584,0.303477767662,1.0,-0.00866,-0.0113817142857,0.434
0.463584345809,0.536822733354,-0.124121288652,-1.37264700546,0.0786117588472,1.90020283539,0.15707713829,-0.00631285621241,-0.0518839156132,-0.000729336518279,-0.0780024855362,-0.00656733015728,0.0293587498622,-0.00475022070803,0.574109889329,0.818763559941,0.00219426237345,0.0,0.818722821198,-0.574049518996,-0.0118675478724,0.0,-0.00845726331228,0.0086099350444,-0.999927169206,0.0,0.659773151442,0.258247844146,0.303494202188,1.0,-0.00898,-0.0118022857143,0.45
0.463471903939,0.53602651832,-0.124119638788,-1.37389444166,0.0785354312573,1.90066789972,0.156926238858,-0.00768297809285,-0.0509548040037,0.00133980317593,-0.0788033273054,-0.00218216431424,0.0218990087864,-0.0111402241873,0.574125461707,0.818752611186,0.00220517504297,0.0,0.818712006552,-0.574065038073,-0.0118629376982,0.0,-0.0084470599538,0.00861638375949,-0.999927199905,0.0,0.65963037434,0.258056201911,0.303502713325,1.0,-0.0093,-0.0122228571429,0.466
0.463343754443,0.535017008167,-0.124123054889,-1.37547134405,0.078448916794,1.90122811401,0.156740315252,-0.00585769174554,-0.0537075978724,-0.000158809146272,-0.0848717333644,-0.00204139093685,0.0252185276179,-0.00356005275429,0.574143832598,0.818739736089,0.00220248491217,0.0,0.818698970683,-0.574083289133,-0.0118793704367,0.0,-0.00846186575071,0.00862380543687,-0.99992701074,0.0,0.659451269084,0.257831090393,0.303511484811,1.0,-0.00966,-0.012696,0.484
0.463223679585,0.534181428085,-0.124125587974,-1.37685211261,0.0783761742686,1.90172627518,0.156567544257,-0.00972925996441,-0.054058027703,3.29518981056e-05,-0.0884668296029,-0.00554396821142,0.0301029349504,-0.0058196660476,0.57415873969,0.818729376071,0.00216732471819,0.0,0.818688042377,-0.574098223248,-0.0119107612382,0.0,-0.00850759664473,0.0086131963227,-0.999926714139,0.0,0.659277095998,0.257608223363,0.303488716056,1.0,-0.01,-0.0131428571429,0.501
0.463111557633,0.533375007855,-0.124126278266,-1.37814643885,0.0783006270456,1.90219640413,0.156406500559,-0.0119588335006,-0.0550437908276,-0.00034084914878,-0.0899254088027,-0.00755134339536,0.0361748071166,-0.00906854981057,0.574179689396,0.818714729376,0.00215013686936,0.0,0.818673138225,-0.574119206077,-0.0119237940205,0.0,-0.00852791511106,0.00860682535364,-0.999926595917,0.0,0.659116123431,0.257390437747,0.303479940213,1.0,-0.01032,-0.0135634285714,0.517
0.46296309584,0.532317660908,-0.124129494586,-1.37984750539,0.078211578834,1.9028471023,0.156192306097,-0.0111521661537,-0.0589022693759,-0.000657600392866,-0.089364180769,1.09170507323e-05,0.0300627687986,-0.0185760956049,0.574187522809,0.818709201044,0.00216325640222,0.0,0.818667658882,-0.57412686195,-0.011931369963,0.0,-0.00852650292154,0.00862199781729,-0.999926477248,0.0,0.658929471385,0.257152496936,0.303474528358,1.0,-0.01068,-0.0140365714286,0.535
0.462838517286,0.531405498764,-0.12412480938,-1.3813224609,0.078124566284,1.90338555374,0.156000741274,-0.00490751076642,-0.052932207349,0.00063097909162,-0.0900544848193,-0.00673037805139,0.0286367667806,-0.01341919445,0.574186483961,0.818709980535,0.00214390073684,0.0,0.818668107641,-0.574125823109,-0.0119505511062,0.0,-0.00855333136649,0.00861715398719,-0.999926289873,0.0,0.658752746946,0.256932489402,0.303461940481,1.0,-0.011,-0.0144571428571,0.551
0.462711023435,0.530447888897,-0.124131004303,-1.38287222598,0.078022293198,1.90392403891,0.155800177096,-0.00768276836609,-0.0597723839308,-0.00141008602293,-0.0914537174719,-0.00137768653614,0.0238108728646,-0.0151048590554,0.574187723614,0.818709245014,0.00209214742459,0.0,0.818666725988,-0.574127305047,-0.0119739826612,0.0,-0.00860221696104,0.00858825067962,-0.999926119178,0.0,0.658563437842,0.256693533978,0.303445912906,1.0,-0.01132,-0.0148777142857,0.567
0.462558353312,0.529345624548,-0.124131977649,-1.38461378012,0.0779081146447,1.90456935397,0.155569581611,-0.0119046056101,-0.0601359874751,-0.000313157522367,-0.0983027489257,-0.0114896289238,0.0332530334031,-0.0103800647016,0.574188540731,0.818708673795,0.0020914220742,0.0,0.818666204141,-0.57412818381,-0.011967524916,0.0,-0.00859733762097,0.00858395750622,-0.999926198006,0.0,0.65835992594,0.256425505102,0.303449354524,1.0,-0.01168,-0.0153508571429,0.585
0.462441064684,0.528442877103,-0.124135169416,-1.38602274827,0.0778191450124,1.90509976504,0.155379287334,-0.00957370663018,-0.0697990851546,-0.000678537755554,-0.10199339378,-0.00732269036681,0.0391662722237,-0.0166188456797,0.57418354654,0.818712132319,0.00210859623334,0.0,0.818669928048,-0.574123160683,-0.011953751651,0.0,-0.00857625268871,0.00859005722926,-0.999926326689,0.0,0.658195610409,0.256212640462,0.303460473453,1.0,-0.01196,-0.0157188571429,0.599
0.462301521399,0.52733872347,-0.124130394924,-1.38775443544,0.0777085139437,1.90576339746,0.155131189046,-0.004971256898,-0.0677989856518,0.000382949358829,-0.100856503875,-0.00693355434797,0.0403127926259,-0.0214231776324,0.57415538692,0.818731809507,0.00213604150306,0.0,0.818689996353,-0.574094925464,-0.0119353814362,0.0,-0.00854575038508,0.00860168496597,-0.999926487881,0.0,0.657992297443,0.255959654071,0.303470851199,1.0,-0.0123,-0.0161657142857,0.616
0.462161810324,0.526250522798,-0.124138365718,-1.38944493993,0.0776130012384,1.90640069821,0.154902084526,-0.0100368081406,-0.0709966332912,-0.000341253800425,-0.103331663593,-0.00818148257764,0.0460611684506,-0.0143461832215,0.574153521001,0.818733036369,0.00216711352544,0.0,0.81869159797,-0.574092902869,-0.0119228012768,0.0,-0.00851763078748,0.00861988192781,-0.999926571105,0.0,0.657794567711,0.255704501077,0.303487476863,1.0,-0.01262,-0.0165862857143,0.632
0.462017927983,0.525066089619,-0.124147502599,-1.39127186137,0.0774799606541,1.90705467085,0.154661398988,-0.0072951260464,-0.0720280516891,-0.000632920827696,-0.108117622838,-0.003339502689,0.037858702645,-0.0208809510678,0.574143043807,0.818740393508,0.00216337419106,0.0,0.8186990923,-0.574082630239,-0.0119028074656,0.0,-0.00850351744154,0.00860523227208,-0.999926817406,0.0,0.657573534816,0.255426145918,0.303507999669,1.0,-0.01296,-0.0170331428571,0.649
0.461861273761,0.523907839417,-0.124159515786,-1.39316852215,0.0773766757016,1.90772732357,0.154406834414,-0.0107735229387,-0.0713655589596,0.00173282156079,-0.115372887171,-0.00451943217974,0.0443920116762,-0.0145781872628,0.574135928783,0.818745519269,0.00211112739408,0.0,0.81870336639,-0.574075556898,-0.0119498843096,0.0,-0.00857213263992,0.00858941040411,-0.999926367575,0.0,0.657326650739,0.255121094197,0.303477144239,1.0,-0.01332,-0.0175062857143,0.667
0.461682381585,0.522535922558,-0.124152532868,-1.39531746475,0.0772411514594,1.90854950232,0.154114666263,-0.00525273935768,-0.0721677236643,-0.000911859799242,-0.114835672207,-0.0158178815258,0.0435045649619,-0.0180698709098,0.574126657109,0.818751929924,0.00214609981981,0.0,0.818710291032,-0.574066201758,-0.0119248588726,0.0,-0.00853166210483,0.00860357901466,-0.999926591891,0.0,0.657086697485,0.254818466207,0.303490932661,1.0,-0.01368,-0.0179794285714,0.685
0.461528369913,0.521382207836,-0.124158572747,-1.39716437455,0.0771292712732,1.90928615784,0.153862054061,-0.0119919015401,-0.0733705810083,-0.00038462856924,-0.117121876281,-0.00622062946309,0.0506236239895,-0.017198586751,0.574119238793,0.818757046408,0.00217841815863,0.0,0.818715897665,-0.57405872359,-0.0118999025808,0.0,-0.00849275265383,0.0086156344673,-0.99992681932,0.0,0.656875526083,0.254541539306,0.303486535117,1.0,-0.014,-0.0184,0.701
0.46136959098,0.520167463852,-0.124161450113,-1.39908655949,0.0770053950512,1.90998383913,0.153604517382,-0.00903101023161,-0.0776590873055,-0.00438392613572,-0.118271095116,-0.0107643405014,0.0447149408342,-0.0124098792875,0.574109441055,0.818763951237,0.00216535145408,0.0,0.818722655125,-0.574049002814,-0.0119039175677,0.0,-0.00850364446146,0.00860713946702,-0.999926799911,0.0,0.656640939992,0.254250715313,0.30348534499,1.0,-0.01432,-0.0188205714286,0.717
0.461202538346,0.518836264023,-0.124164646395,-1.40115808341,0.0768689990338,1.91072219413,0.153322756526,-0.00714780522456,-0.0851656521515,-0.00107823544907,-0.128596423857,-0.0118162119372,0.0467698542275,-0.0210615933672,0.574090926794,0.818776951745,0.00215823172167,0.0,0.818735595975,-0.574030553047,-0.0119035689052,0.0,-0.00850764071271,0.00860091763414,-0.999926819455,0.0,0.656384435494,0.253938880101,0.303497986667,1.0,-0.01466,-0.0192674285714,0.734
0.461033208898,0.517564018037,-0.124170317978,-1.40315330566,0.0767398049037,1.91143706267,0.153059539303,-0.0082143224702,-0.0770413086207,-0.000605048887097,-0.126543890773,-0.00856767722023,0.0495288074266,-0.0142524904578,0.574088873456,0.818778423078,0.00214620041657,0.0,0.818736939095,-0.574028577354,-0.0119064622374,0.0,-0.00851693798077,0.00859270648868,-0.999926810903,0.0,0.656139765018,0.25363200377,0.303503243153,1.0,-0.01498,-0.019688,0.75
0.460848679692,0.516216352997,-0.124181655884,-1.405267531,0.0765958002724,1.91222814312,0.152764963151,-0.00792431943734,-0.0791315063321,-0.000942324889769,-0.127212972284,-0.00929763140075,0.0482653622902,-0.0149663486859,0.574079775018,0.818784778811,0.00215518068558,0.0,0.818743576797,-0.574019610555,-0.0118822999871,0.0,-0.00849209388803,0.00858609375536,-0.999927079009,0.0,0.655889332455,0.25330152787,0.303511163762,1.0,-0.01532,-0.0201348571429,0.767
0.460654478117,0.514758999403,-0.124179917506,-1.40758899827,0.0764559097857,1.91311571835,0.15245011253,-0.00924710457853,-0.0790170892522,0.000120127943571,-0.133480694674,-0.0136978115057,0.0595031255775,-0.0184482368478,0.574064718348,0.818795285568,0.00217402420064,0.0,0.818754302336,-0.574004453496,-0.0118754652503,0.0,-0.00847583857386,0.00859744280924,-0.999927119413,0.0,0.655610318919,0.252956406101,0.303504930659,1.0,-0.01568,-0.020608,0.785
0.460470521958,0.513353108343,-0.12418335013,-1.40985733693,0.0763309427342,1.91389718726,0.152141915136,-0.0149564432689,-0.0786292943291,-0.000590831978757,-0.130154815987,-0.00553758094803,0.0529053750718,-0.0207378756094,0.574050813518,0.818805194671,0.00211271865159,0.0,0.818763176353,-0.573990559833,-0.0119350396619,0.0,-0.00855995671783,0.00858130067782,-0.999926541512,0.0,0.655318214679,0.252615968496,0.303478445848,1.0,-0.01602,-0.0210548571429,0.802
0.460280506633,0.512002711033,-0.124186302766,-1.41200539766,0.0761917158658,1.91466728429,0.151838040956,-0.0109302672819,-0.0844597191766,-0.00018285040119,-0.135479024458,-0.00981668849235,0.0458828902877,-0.010189392419,0.574034518242,0.818816691447,0.00208436443296,0.0,0.818774309582,-0.57397438926,-0.0119489474151,0.0,-0.0085877911279,0.00856589724251,-0.999926434918,0.0,0.655052349304,0.252282379602,0.303468839154,1.0,-0.01634,-0.0214754285714,0.818
0.460069989638,0.510461451834,-0.1241869934,-1.41446607774,0.0760424089098,1.91560459127,0.151480884369,-0.0114742679282,-0.0846424316692,0.000825735672883,-0.144203506402,-0.00537556647739,0.053555095364,-0.0212405679842,0.574003493091,0.81883840661,0.00209778003474,0.0,0.818796179925,-0.573943293005,-0.0119439966756,0.0,-0.00857636154684,0.00857371516264,-0.999926466012,0.0,0.654754724148,0.251911800951,0.30345809098,1.0,-0.0167,-0.0219485714286,0.836
0.459883436809,0.509060996839,-0.124195444223,-1.41668243108,0.0759031181389,1.91642802339,0.151179893105,-0.00974089268994,-0.0846960360827,-0.0012088121045,-0.139762995856,-0.00388416752867,0.05102405024,-0.0166907857228,0.573993686618,0.818845277297,0.0020991600907,0.0,0.81880310292,-0.573933516397,-0.0119391919939,0.0,-0.00857173767916,0.0085719846609,-0.999926520496,0.0,0.654483172686,0.251573526978,0.30345492306,1.0,-0.01702,-0.0223691428571,0.852
0.45967306548,0.507558447083,-0.124193139058,-1.41904211452,0.0757497283702,1.91727391529,0.150839946959,-0.0158406721568,-0.0903584877695,0.000754318715891,-0.142944633955,-0.00701156493219,0.0466947402931,-0.0207391658961,0.573966765728,0.818864181073,0.00208607215182,0.0,0.818821817869,-0.573906634573,-0.0119478984255,0.0,-0.00858666073145,0.00856598292981,-0.999926443892,0.0,0.654187940919,0.251209662666,0.303456063786,1.0,-0.01736,-0.022816,0.869
0.459478348468,0.506185686112,-0.124198264811,-1.42119944036,0.0756076208857,1.91807318665,0.150561697926,-0.0170018797807,-0.0929714234508,0.000490889907431,-0.138432265562,-0.0075293632294,0.0560878835291,-0.0133572993103,0.573975214032,0.818858246486,0.00209110994042,0.0,0.818816023532,-0.573915135518,-0.0119366549917,0.0,-0.0085744738158,0.0085637433085,-0.999926567654,0.0,0.653924673591,0.250872701796,0.30345848209,1.0,-0.01766,-0.0232102857143,0.884
0.459251999958,0.504567891859,-0.124199839041,-1.42367302043,0.0754528990023,1.91902930668,0.150214407534,-0.0109515862374,-0.0992896464303,0.000442301778719,-0.149771931916,-0.0115031786052,0.0536727534989,-0.0214724322199,0.573963310096,0.818866376607,0.00217320665448,0.0,0.818825277737,-0.573902954709,-0.0118873889536,0.0,-0.0084871368032,0.00860256728069,-0.999926979507,0.0,0.653630276839,0.250491444138,0.303494574102,1.0,-0.018,-0.0236571428571,0.901
0.459024298937,0.502903102271,-0.124213249171,-1.42616007509,0.0753028817689,1.91996897867,0.149863378321,-0.00960660959184,-0.103888385338,-0.00156194988818,-0.151294436001,-0.010084330942,0.0608983591826,-0.0210598473609,0.573959302385,0.818868916912,0.00227222850551,0.0,0.818829141709,-0.573898592169,-0.0118317156527,0.0,-0.0083847568739,0.00865165675018,-0.99992741971,0.0,0.653332273371,0.250101150415,0.303555352798,1.0,-0.01834,-0.024104,0.918
0.458790735727,0.501207786784,-0.124219667048,-1.42870143852,0.0751402116065,1.92087523323,0.149510668025,-0.0116179800832,-0.105214626538,-0.00185584461178,-0.153797565176,-0.00458637058563,0.0542831822289,-0.0195870566525,0.573952125356,0.818873809477,0.00232139028828,0.0,0.818834676324,-0.573891228991,-0.0118058052497,0.0,-0.00833539967553,0.00867696893847,-0.999927613041,0.0,0.653014770413,0.249700979266,0.303607805268,1.0,-0.01868,-0.0245508571429,0.935
0.45857194436,0.49960225547,-0.124211852392,-1.43113802612,0.0749851203968,1.92174075587,0.149177073525,-0.0131212620341,-0.101420860202,0.000614296919394,-0.153324455345,-0.0051692706389,0.0533733419144,-0.0211399701554,0.573934567027,0.818886028309,0.00235208676168,0.0,0.818847215279,-0.573873473119,-0.0117992279586,0.0,-0.00831258276413,0.00869815195097,-0.999927618941,0.0,0.652703623516,0.249328602825,0.30364290448,1.0,-0.019,-0.0249714285714,0.951
0.458308927475,0.497945983263,-0.12421245565,-1.43377031189,0.0748189593388,1.92272911406,0.148791405412,-0.0163561847564,-0.100669970343,0.000371722504002,-0.156229071969,-0.00266332605357,0.0612677097112,-0.0216467594926,0.573917169581,0.818898228411,0.00234965265038,0.0,0.818859389513,-0.573856093177,-0.0117996369025,0.0,-0.00831449934492,0.00869621677711,-0.999927619838,0.0,0.652361770389,0.248883890061,0.303625793261,1.0,-0.01936,-0.0254445714286,0.969
0.458044051198,0.496173874412,-0.12421256395,-1.43661276918,0.0746385828474,1.92372886619,0.14836353439,-0.0188263395365,-0.096148657379,-0.000250928699717,-0.156307710751,-0.0096032499108,0.0539152688867,-0.0202914838164,0.573885157475,0.818920812857,0.00229678079984,0.0,0.818881184318,-0.5738241825,-0.0118389378581,0.0,-0.00837736553955,0.00867514832204,-0.99992727813,0.0,0.652017749629,0.248458777081,0.303599545558,1.0,-0.0197,-0.0258914285714,0.986
0.457755602859,0.494398448103,-0.124212566722,-1.43951455497,0.0744577388904,1.92472597555,0.147958409581,-0.0188920027252,-0.0971494016922,-0.000476156814282,-0.159852507544,-0.00809981661064,0.0604427646338,-0.023472209266,0.573886745431,0.818920000897,0.0021868814219,0.0,0.818878766866,-0.573826026883,-0.0119164990071,0.0,-0.00850393362703,0.00862967774218,-0.999926603194,0.0,0.651641542537,0.247988734616,0.303541591607,1.0,-0.0212297142857,-0.0279019102041,1.004
0.457486258954,0.492461466772,-0.124271830902,-1.44247405499,0.0742741408841,1.92580835862,0.147530355417,-0.0159118783138,-0.135490323869,-0.00268688539729,-0.202374983301,-0.0156077025079,0.0776364001078,-0.0352479695404,0.573898374272,0.818911747826,0.00222534990512,0.0,0.81887122174,-0.573837711113,-0.0118722538372,0.0,-0.00844550104651,0.0086359084397,-0.999927044638,0.0,0.651279863023,0.247497038078,0.30357684793,1.0,-0.0278948571429,-0.0366618122449,1.02
0.457126478717,0.489931216898,-0.124295686598,-1.44651165972,0.0740535073247,1.92732096133,0.146924980094,-0.0288224583536,-0.162730957832,-0.000204081847367,-0.258372678348,-0.0198777843841,0.092629341405,-0.0425582419509,0.573857510577,0.818940348773,0.00223821513552,0.0,0.818899771061,-0.57379657718,-0.0118911678873,0.0,-0.00845403975968,0.00865687653543,-0.99992679117,0.0,0.650771944071,0.246870490291,0.303547097986,1.0,-0.0349765714286,-0.0459692081633,1.037
0.456635678165,0.486744726395,-0.12432815942,-1.45154905125,0.0737625809471,1.92918965831,0.146200243016,-0.0323930015004,-0.196831854379,-0.00508459813067,-0.310875868202,-0.0154573855264,0.117899444027,-0.0436798684962,0.573861555992,0.818937464726,0.00225617447772,0.0,0.818896973848,-0.573800399728,-0.0118993443507,0.0,-0.00845038777348,0.00867631776268,-0.999926653538,0.0,0.650143142319,0.246057023378,0.303526935313,1.0,-0.0420582857143,-0.0552766040816,1.054
0.45609593678,0.48318773563,-0.124420439019,-1.45708764879,0.0734276427475,1.9312319415,0.145346020279,-0.0322670215091,-0.22692871771,-0.0060210740816,-0.360134599041,-0.0123757964086,0.119498862016,-0.0552983619155,0.573853492844,0.818943012717,0.00229294001879,0.0,0.818903202056,-0.573792400073,-0.0118563983864,0.0,-0.00839420467241,0.00868169869971,-0.999927080059,0.0,0.649459019037,0.245127395456,0.303539642048,1.0,-0.0487234285714,-0.0640365061224,1.07
0.455273324796,0.47797293838,-0.124536507116,-1.46526608799,0.0729391429407,1.93409827043,0.144122339726,-0.0404461555001,-0.28025880142,-0.00589049644788,-0.429158870262,-0.0227344841076,0.156039067469,-0.0627393363282,0.573875971671,0.818927507146,0.00220319770132,0.0,0.818886420452,-0.573815122334,-0.0119156486037,0.0,-0.00849398778411,0.00864243949344,-0.99992657751,0.0,0.648409398722,0.243741750634,0.303513531631,1.0,-0.0570548571429,-0.0749863836735,1.09
0.454703893697,0.47443026688,-0.124594786995,-1.47069642109,0.0725978566328,1.93609776024,0.143348234625,-0.0486616861044,-0.295302736921,-0.00797420371467,-0.469712606906,-0.0294079546628,0.173600770746,-0.0665153317375,0.573920709668,0.818895927528,0.00228599938956,0.0,0.818856072089,-0.573859682699,-0.0118551540436,0.0,-0.00839645613998,0.00867598994256,-0.999927110705,0.0,0.647729704679,0.242823150637,0.303555643277,1.0,-0.0620537142857,-0.0815563102041,1.102
0.453792565857,0.468960302498,-0.124642284841,-1.47907322514,0.0721067517517,1.93914888648,0.142056498086,-0.0539898761314,-0.344194304585,-0.00459406988322,-0.50000552115,-0.0235878408247,0.191521373079,-0.0803904504938,0.573912133397,0.818901545548,0.00242254819072,0.0,0.818863137419,-0.573850235825,-0.0118243782314,0.0,-0.00829298142386,0.00877005839966,-0.999927153614,0.0,0.646661153825,0.241414585496,0.303614184001,1.0,-0.0691354285714,-0.0908637061224,1.119
0.452655497533,0.462160920156,-0.124685928402,-1.48947077269,0.0714352129645,1.94289256165,0.140386710882,-0.0604374113791,-0.368722584623,-0.000498591271239,-0.571896708253,-0.033014839782,0.192419892009,-0.0873605988767,0.57381483425,0.818969380525,0.00253705716549,0.0,0.818932420847,-0.573752476407,-0.0117699958942,0.0,-0.00818378097789,0.00883164664606,-0.999927511246,0.0,0.645310249184,0.239661608921,0.303679477009,1.0,-0.0770502857143,-0.101266089796,1.138
0.451578962123,0.455912482832,-0.12476342382,-1.4991908704,0.0707878835807,1.94619553486,0.138942475327,-0.0636534875244,-0.396478566885,-0.00817894374582,-0.629937086063,-0.0391563805978,0.212844654595,-0.0945552690921,0.573843324802,0.818949906463,0.00237406526134,0.0,0.818910731543,-0.573781479544,-0.011864838709,0.0,-0.00835467472615,0.00875287453287,-0.999926790619,0.0,0.643999922958,0.237978156333,0.303640822311,1.0,-0.0837154285714,-0.110025991837,1.154
0.450412086645,0.449077308976,-0.12485551433,-1.50933921052,0.0700764900075,1.94998441707,0.137300239305,-0.0686165876243,-0.438343187737,-0.0093292788165,-0.643102959352,-0.0460220154378,0.248886016154,-0.102825111923,0.57378962038,0.818986429809,0.00272877880762,0.0,0.818952696288,-0.57372740319,-0.0115799383493,0.0,-0.00791838964047,0.00887936014674,-0.99992922553,0.0,0.642704875274,0.236209559467,0.30383270504,1.0,-0.0903805714286,-0.118785893878,1.17
0.449036474952,0.44144099393,-0.12487558449,-1.52098309156,0.0693399818922,1.9540946118,0.135517886874,-0.079999156426,-0.454471934363,-0.00206249609004,-0.706585141335,-0.0522903112456,0.244087337782,-0.111439327732,0.573792448165,0.8189841057,0.00282983042061,0.0,0.818951177562,-0.573729323837,-0.0115921801093,0.0,-0.00787040609587,0.0089691710441,-0.999928802805,0.0,0.641129279876,0.234205869431,0.303876018324,1.0,-0.0974622857143,-0.128093289796,1.187
0.447628585793,0.433777854105,-0.124908417996,-1.53266664561,0.0685416054581,1.95813180953,0.13360783318,-0.0936106027026,-0.502186958533,-0.000254404933436,-0.731023881172,-0.0476103741989,0.274713278534,-0.117158341831,0.573698362868,0.819050012693,0.00283055682639,0.0,0.81901692813,-0.573635059272,-0.0116119383227,0.0,-0.00788720345085,0.00898019685895,-0.999928571492,0.0,0.639518708316,0.232160217328,0.303898693886,1.0,-0.104127428571,-0.136853191837,1.203
0.445992801987,0.425161052404,-0.124941930679,-1.54574268109,0.0676198509267,1.96272859485,0.131473434976,-0.0999330716705,-0.509945776151,-0.00013786258796,-0.800818523426,-0.0543051657644,0.269758078527,-0.131645087107,0.573621559597,0.81910350261,0.00291638127027,0.0,0.819071651898,-0.573558122985,-0.0115522948299,0.0,-0.00778996097196,0.00901554417902,-0.999929015716,0.0,0.63771868155,0.229841378705,0.303941225603,1.0,-0.111209142857,-0.146160587755,1.22
0.444185740788,0.416050063268,-0.12505303303,-1.55956696651,0.0666213720746,1.96744751063,0.129208212334,-0.104833073946,-0.549161043524,-0.00928308122151,-0.842528814342,-0.0602975765197,0.293883517747,-0.131779727196,0.573630402198,0.819097470519,0.00287095197114,0.0,0.819065337103,-0.573567463764,-0.0115362458474,0.0,-0.0078027753798,0.00896921127445,-0.999929332476,0.0,0.635788978106,0.227290544242,0.303957177374,1.0,-0.118290857143,-0.155467983673,1.237
0.442229216241,0.406472690826,-0.125130150332,-1.57407354028,0.0656491467303,1.9724564,0.126796628321,-0.11774537851,-0.576873667973,-0.00289400647438,-0.854326019071,-0.0550228602357,0.294106864356,-0.135728700651,0.573640095389,0.819090446275,0.0029374621401,0.0,0.819058782014,-0.573576487893,-0.0115529668145,0.0,-0.00777821528102,0.00903337306862,-0.999928946245,0.0,0.6337403576,0.22462302534,0.30396735101,1.0,-0.124956,-0.164227885714,1.254
0.440046384087,0.396394175566,-0.125270294408,-1.58917747715,0.0646077067856,1.97760538991,0.124216995389,-0.128665812611,-0.602852232406,-0.00997660845424,-0.905327597923,-0.0581986541604,0.314859334286,-0.155656038467,0.573731271096,0.819026268627,0.0030243621678,0.0,0.818995623077,-0.573667249852,-0.0115240066057,0.0,-0.0077036349214,0.00908879732356,-0.999929021367,0.0,0.631602678281,0.221721088835,0.304020926942,1.0,-0.132454285714,-0.17408277551,1.271
0.437760084279,0.385956779381,-0.125401147749,-1.60498914793,0.0633814564776,1.98288124196,0.121473785446,-0.141366434798,-0.619808358375,-0.00626737121981,-0.952408230441,-0.0698728323434,0.307322830017,-0.16514776524,0.573716728345,0.819037048213,0.00285940081439,0.0,0.819004814632,-0.573653872968,-0.0115366606774,0.0,-0.00780879649944,0.00896081077718,-0.999929360789,0.0,0.629296971485,0.218675245213,0.303964284313,1.0,-0.139536,-0.183390171429,1.288
0.435263712185,0.374979897387,-0.125507007423,-1.62122084838,0.062191204177,1.9883021525,0.118533676771,-0.159273723109,-0.652033410691,-0.00416377509542,-0.974163969528,-0.0670938040143,0.321886230383,-0.181335175189,0.573702437966,0.819046657576,0.00297191634048,0.0,0.819015838136,-0.573639178371,-0.0114846341399,0.0,-0.00770179184138,0.00902298287804,-0.999929631615,0.0,0.626913445144,0.215499416175,0.304050750711,1.0,-0.146617714286,-0.192697567347,1.305
0.432729921374,0.364357484699,-0.125643621876,-1.63702387024,0.0609761134609,1.9935497658,0.115756757258,-0.159425716117,-0.678183299353,-0.00601755486571,-0.974559944416,-0.0722913371606,0.339616426905,-0.176249813636,0.573829755478,0.81895747532,0.00296854295606,0.0,0.818926950195,-0.573766886248,-0.0114436615583,0.0,-0.00766876817716,0.00899790658089,-0.999930111394,0.0,0.624569586029,0.212326619364,0.304061529177,1.0,-0.153282857143,-0.201457469388,1.321
0.429506957978,0.351250350299,-0.12578603999,-1.6565694382,0.0594848536063,1.99988585333,0.112136904496,-0.180902503534,-0.706056177766,-0.00855556740443,-1.060812226,-0.0770979651848,0.335010664002,-0.190934615884,0.573869671439,0.818929874712,0.00286485748128,0.0,0.818897861145,-0.573806950631,-0.0115162198622,0.0,-0.0077872512823,0.00895500738409,-0.999929580801,0.0,0.621754035242,0.208586602314,0.304016319929,1.0,-0.160781142857,-0.211312359184,1.339
0.426590054727,0.339717024421,-0.125917722457,-1.67331048813,0.0582005086534,2.00535656767,0.108971407871,-0.183890559956,-0.726943527113,-0.00709002091876,-1.0728823937,-0.0841905242934,0.350044909062,-0.201606514581,0.573947369883,0.818874836997,0.00302734849983,0.0,0.818844932819,-0.573884142742,-0.0114330051201,0.0,-0.00762499971039,0.00904104626568,-0.999930056985,0.0,0.619026742329,0.204916109335,0.30411779966,1.0,-0.167862857143,-0.220619755102,1.356
0.423374044441,0.327211962053,-0.125992482704,-1.69163340818,0.0566791083105,2.01120930916,0.105393813504,-0.193492108732,-0.768357674947,-0.00829555878706,-1.07474344816,-0.0973567460008,0.357749315689,-0.220083549135,0.573844743403,0.818946922961,0.00298240549702,0.0,0.818916737202,-0.573782018484,-0.0114157652119,0.0,-0.00763780219884,0.00899339178805,-0.999930389018,0.0,0.616129787531,0.201152076425,0.304116461741,1.0,-0.174944571429,-0.22992715102,1.373
0.419742649048,0.313542011224,-0.126027350477,-1.71164205071,0.0550467132378,2.0174425879,0.101468884407,-0.200608514879,-0.761965495413,0.00127157621975,-1.11919434194,-0.0931413593501,0.347836842384,-0.225887202283,0.573755935623,0.819009595827,0.00285572784433,0.0,0.818977337643,-0.573693113464,-0.0115359825154,0.0,-0.00780991934435,0.00895778729361,-0.99992937911,0.0,0.612876487065,0.197020480719,0.304063387846,1.0,-0.182442857143,-0.239782040816,1.391
0.416754440884,0.302540471339,-0.126118772395,-1.72741041518,0.0537068458838,2.02243308528,0.098163454582,-0.215235371283,-0.787955888659,-0.00370187592472,-1.14587187349,-0.109314328822,0.348472722863,-0.236833547281,0.573621985276,0.819102972195,0.00298091439192,0.0,0.819072733249,-0.57355925323,-0.0114187382769,0.0,-0.00764353859057,0.00899179813831,-0.999930359517,0.0,0.610320734321,0.193671362729,0.304140919017,1.0,-0.188274857143,-0.247446955102,1.405
0.412842423455,0.288873142488,-0.126253412641,-1.74694035171,0.0521446107504,2.02840043306,0.0941762901646,-0.232220179583,-0.797161626271,-0.0096546488176,-1.15292189852,-0.0911458975429,0.364508037152,-0.240638342865,0.573737790954,0.819021551063,0.0030648045612,0.0,0.818991745487,-0.573674018798,-0.0114624552516,0.0,-0.00762994602982,0.00908666833866,-0.999929605713,0.0,0.607087862883,0.189414676763,0.304200766913,1.0,-0.195356571429,-0.25675435102,1.422
0.408468196782,0.274120175631,-0.126411701685,-1.76809539198,0.0503363567796,2.03471552417,0.0896377378499,-0.250956652471,-0.820705555976,-0.014784165344,-1.16824163237,-0.0987724658134,0.367782101051,-0.258956184333,0.573725470486,0.8190306272,0.00294331876952,0.0,0.818998935802,-0.573661713375,-0.0115641110234,0.0,-0.00778304166383,0.0090453741291,-0.9999288002,0.0,0.603503948779,0.184728182725,0.304164205494,1.0,-0.202854857143,-0.266609240816,1.44
0.404012145759,0.259788006514,-0.126584087058,-1.78847479178,0.0485421838234,2.0407793621,0.085177540233,-0.271781929161,-0.830886260019,-0.00797938817891,-1.21271729959,-0.0985961470392,0.343978842765,-0.258928201279,0.573799213324,0.818979142209,0.00289384105733,0.0,0.818946819785,-0.573735619945,-0.0115884283571,0.0,-0.00783053218442,0.00901950665929,-0.999928663088,0.0,0.600018301909,0.180090899677,0.30414726181,1.0,-0.209936571429,-0.275916636735,1.457
0.399850772261,0.246792897085,-0.126744185634,-1.8066411828,0.0469063823716,2.04608702357,0.0810751580072,-0.281256108316,-0.879188059636,-0.0113784851239,-1.22554028932,-0.111533530182,0.352341418572,-0.279673062241,0.573875966466,0.818925158203,0.00295080947394,0.0,0.81889369689,-0.57381232061,-0.0115447308653,0.0,-0.00776120914572,0.00904181694487,-0.999929002069,0.0,0.596864305607,0.175869610914,0.304212496922,1.0,-0.216185142857,-0.284129044898,1.472
0.394977065176,0.231782649735,-0.126863311606,-1.82750432005,0.0450736244415,2.05218166004,0.0762024300156,-0.293155763735,-0.882611093706,-0.00353663465148,-1.2336859823,-0.107289529533,0.366134620251,-0.28275502417,0.573839408331,0.818950089642,0.0031354462685,0.0,0.81892059144,-0.573774680147,-0.0115077468783,0.0,-0.00762537746984,0.00917145675144,-0.99992886647,0.0,0.593167230278,0.171056658991,0.304282092523,1.0,-0.223266857143,-0.293436440816,1.489
0.389510585213,0.215542647322,-0.126981064922,-1.84996898735,0.0428999375437,2.05854313506,0.070790817127,-0.312405555412,-0.942748714293,-0.0123438780824,-1.24218568492,-0.127146931916,0.372166656078,-0.302123749826,0.573713712351,0.819038101585,0.00314822396916,0.0,0.819009222951,-0.573649509451,-0.0114402765922,0.0,-0.00756419092021,0.00914204403334,-0.999929600545,0.0,0.589093771663,0.165771044332,0.304316824316,1.0,-0.230765142857,-0.303291330612,1.507
0.383986672662,0.199984188728,-0.127149534943,-1.87144279361,0.0408941647805,2.06435814345,0.0654651509274,-0.332235239915,-0.936744800998,-0.0075949899701,-1.25026731207,-0.118504645068,0.342114566096,-0.327737807375,0.573741076409,0.819019345294,0.00303910781392,0.0,0.818988350306,-0.57367636924,-0.011586731228,0.0,-0.00774644183107,0.00913695345643,-0.999928251786,0.0,0.585107848244,0.160567869933,0.304280349431,1.0,-0.237846857143,-0.312598726531,1.524
0.378053982586,0.184061494299,-0.127388476058,-1.89320868353,0.0388045813392,2.07026592952,0.0598351841288,-0.3585619346,-0.912088152632,-0.0139042298843,-1.28848684198,-0.111972859056,0.332354403839,-0.330588579903,0.573841813123,0.818948746658,0.00304479222614,0.0,0.818917611308,-0.573776821745,-0.0116125629674,0.0,-0.00776321214713,0.00915738447299,-0.999927934827,0.0,0.581044194979,0.155118886365,0.304267393939,1.0,-0.244928571429,-0.321906122449,1.541
0.372538133083,0.169673539937,-0.127569253716,-1.91247178551,0.0368952749909,2.07539096589,0.0547164873908,-0.374831757212,-0.954487493152,-0.0071656091851,-1.29440351435,-0.136416582859,0.33496767862,-0.353386510339,0.573950677605,0.818871854002,0.00320207777052,0.0,0.818842876467,-0.573885315694,-0.0115210672409,0.0,-0.00759679854133,0.00923470071853,-0.999928501921,0.0,0.577390142737,0.15020828473,0.304362108235,1.0,-0.251177142857,-0.330118530612,1.556
0.366139317337,0.153180551944,-0.12772338408,-1.93452189288,0.0346437456781,2.08108347261,0.0486263402861,-0.376225365044,-0.973700967041,-0.0106451538352,-1.29878120282,-0.132802447551,0.334916965123,-0.360020736488,0.573843121307,0.818947023169,0.00325457700319,0.0,0.81891869272,-0.573777573309,-0.0114986078261,0.0,-0.00754949270586,0.00926380930746,-0.999928590949,0.0,0.573083885076,0.144622285182,0.304395685403,1.0,-0.258258857143,-0.339425926531,1.573
0.358927563381,0.135378968309,-0.127919440341,-1.9581360307,0.032195011915,2.08695261757,0.0418926865045,-0.410889639816,-1.01619912825,-0.0126770746314,-1.31318969157,-0.126517998675,0.329406983282,-0.390580532018,0.573805987284,0.818973051561,0.00325218000845,0.0,0.818944386268,-0.573740079227,-0.0115395229826,0.0,-0.00758479836578,0.00928498070353,-0.999928127401,0.0,0.568373519564,0.138490996451,0.304405986891,1.0,-0.265757142857,-0.349280816326,1.591
0.35168059726,0.118269752256,-0.128178700531,-1.98058306741,0.0297760927632,2.09240750619,0.0352151878322,-0.438240715634,-1.02388536599,-0.0236179417927,-1.32307434426,-0.150211783963,0.342135455799,-0.399355095057,0.573836155406,0.818951824368,0.00327460149333,0.0,0.818923606584,-0.573770367415,-0.0115082126062,0.0,-0.00754594768999,0.00928565572023,-0.999928415073,0.0,0.563831492542,0.132473847154,0.304428004836,1.0,-0.272838857143,-0.358588212245,1.608
0.344020971221,0.100918257696,-0.128409579528,-2.00311404412,0.02730761758,2.09764494373,0.028237267368,-0.45123958318,-1.03064227026,-0.00634077334128,-1.29137243141,-0.152084789166,0.304815416097,-0.41630164192,0.573865256389,0.818931458543,0.00326812189869,0.0,0.818903000556,-0.573799292213,-0.0115323387532,0.0,-0.00756909469176,0.00929446231158,-0.999928158307,0.0,0.559165325712,0.126315161467,0.304444300638,1.0,-0.279920571429,-0.367895608163,1.625
0.337054243406,0.0853569254338,-0.128571451677,-2.02323576025,0.0251531778768,2.10217197467,0.0217737212179,-0.471881244479,-1.03920042638,-0.0152408297734,-1.36189594134,-0.141399635718,0.28915822333,-0.43549404989,0.573746846518,0.819014469675,0.00325599074244,0.0,0.818984848232,-0.573679706667,-0.0116687371302,0.0,-0.00768911677777,0.00936168845686,-0.999926615444,0.0,0.554883610554,0.120855534543,0.304407205324,1.0,-0.286169142857,-0.376108016326,1.64
0.328691080359,0.0673780189232,-0.128805646482,-2.04592975988,0.0225442060331,2.1071905791,0.014105410246,-0.502069850222,-1.05982141902,-0.0200796881253,-1.35581330951,-0.151561208767,0.301976066036,-0.453472512305,0.573635072065,0.819092011485,0.00343914516606,0.0,0.819065144981,-0.57356784043,-0.011531157918,0.0,-0.00747264013947,0.0094317421276,-0.999927598324,0.0,0.550012300584,0.114467075153,0.304510348567,1.0,-0.28998,-0.381116571429,1.657
0.320393283431,0.0505934882998,-0.129091474289,-2.06699159208,0.0200520452366,2.11151616561,0.0067714489662,-0.525385294864,-1.04728728333,-0.0158193955842,-1.30200892907,-0.155744662753,0.256399575745,-0.460331652026,0.573770462535,0.818997240629,0.00342389610049,0.0,0.818970148709,-0.573703223641,-0.011543552663,0.0,-0.00748998175318,0.00942759975986,-0.99992750764,0.0,0.545389813639,0.108288491932,0.30454491578,1.0,-0.28998,-0.381116571429,1.673
0.311404899329,0.0328773579775,-0.129278677122,-2.08900105972,0.0174693609603,2.11592752723,-0.00119749318439,-0.537450422412,-1.0415638764,-0.014298560016,-1.2777424849,-0.150021937774,0.261215315184,-0.466235083017,0.573791187082,0.818982363736,0.00350833557085,0.0,0.818955955451,-0.573723167741,-0.0115592703155,0.0,-0.00745416864466,0.00950596276482,-0.999927033359,0.0,0.540451622277,0.101834541358,0.304576482292,1.0,-0.28998,-0.381116571429,1.69
0.302138130477,0.0153177037927,-0.129505888944,-2.1104556267,0.0147649493076,2.12000921106,-0.00940166774226,-0.551108874839,-1.04864744363,-0.0197821662145,-1.234700388,-0.155816779839,0.247805776317,-0.490445944396,0.573774567947,0.81899372129,0.00357443230661,0.0,0.818968743319,-0.573707093792,-0.0114505414699,0.0,-0.0073273854735,0.00949756067635,-0.999928050293,0.0,0.53554932383,0.0953350595833,0.304652878119,1.0,-0.28998,-0.381116571429,1.707
0.292526573914,-0.00200561981584,-0.129754707875,-2.13158980478,0.0121767639319,2.12368543315,-0.0178014667103,-0.557413021911,-1.02779063195,-0.0129781117176,-1.22917876793,-0.14944417857,0.203476051824,-0.503974764502,0.573898438206,0.818907315585,0.00348396431699,0.0,0.818880146717,-0.573829914829,-0.0116310387232,0.0,-0.00752568464371,0.00952816761574,-0.999926286329,0.0,0.530585102966,0.0887820184068,0.304619732894,1.0,-0.28998,-0.381116571429,1.724
0.282215825729,-0.020187817791,-0.129925785528,-2.1534660764,0.00935993994101,2.12749133052,-0.0269410400247,-0.581336560732,-1.00320749122,-0.010953726978,-1.21459711207,-0.164914148693,0.197396491355,-0.515957146292,0.57377839686,0.818991250252,0.00352565006939,0.0,0.818964763842,-0.573709940004,-0.0115916878504,0.0,-0.00747093427401,0.00953862689631,-0.999926597175,0.0,0.52536342961,0.0819723301208,0.304620255183,1.0,-0.28998,-0.381116571429,1.742
0.272705313467,-0.0362797938753,-0.130165900447,-2.17240443605,0.00682527812011,2.13053140505,-0.0351446741228,-0.602199491704,-1.00716114952,-0.0184611412207,-1.19409442526,-0.167482251919,0.182123148047,-0.51248163656,0.573904657634,0.818902377444,0.00361760462687,0.0,0.818877645669,-0.573836634893,-0.0114745273967,0.0,-0.00732074464674,0.0095478441025,-0.999927620066,0.0,0.520757909816,0.0758221788418,0.304699241752,1.0,-0.28998,-0.381116571429,1.758
0.26237544206,-0.0532370537612,-0.130362278203,-2.192110641,0.00431866937222,2.13348987565,-0.0442277468713,-0.611681728888,-0.99640238396,-0.00681509614826,-1.14277793944,-0.153147000836,0.184855389934,-0.529145834835,0.573915359688,0.818893890443,0.00383445044018,0.0,0.81887145563,-0.573846041727,-0.0114458049011,0.0,-0.00717265359323,0.00970903217918,-0.999927141213,0.0,0.51585425046,0.0693614694123,0.304788086686,1.0,-0.28998,-0.381116571429,1.775
0.251840669838,-0.0697837537972,-0.130552937717,-2.21152801568,0.00163336130544,2.13610774434,-0.05348718745,-0.628763175929,-0.980936494948,-0.00939573761837,-1.11871143986,-0.158763562489,0.157017681156,-0.548973256122,0.573825828241,0.818957666308,0.00360645818255,0.0,0.818931719568,-0.573756460604,-0.0116236613277,0.0,-0.00745020131218,0.00962358537336,-0.99992593781,0.0,0.510882297838,0.0629060845579,0.304678775469,1.0,-0.28998,-0.381116571429,1.792
0.240278778183,-0.0872752529323,-0.130853031921,-2.23160041457,-0.00112018503399,2.13866709673,-0.0635879232891,-0.636422808759,-0.953939467265,-0.00220806589196,-1.11390264805,-0.155884955759,0.132034413719,-0.570074843205,0.573899742202,0.81890587124,0.00360650117933,0.0,0.818879418186,-0.573829710276,-0.0116922614357,0.0,-0.00750548851486,0.00966366146657,-0.999925137842,0.0,0.505660842346,0.0559839881948,0.304657407918,1.0,-0.28998,-0.381116571429,1.81
0.229921614665,-0.102816113131,-0.131011741059,-2.24900632456,-0.003588113101,2.14064959809,-0.0727160253704,-0.655656399,-0.971221459885,-0.0154932270813,-1.08736407245,-0.160441786582,0.113248058313,-0.571761016587,0.57377665394,0.818991752366,0.00368888210816,0.0,0.818966506115,-0.573706556177,-0.0116359856785,0.0,-0.0074135831854,0.00969771453057,-0.999925493783,0.0,0.501015198656,0.0499770542675,0.304726926315,1.0,-0.28998,-0.381116571429,1.826
0.219098991763,-0.117999480169,-0.131315855675,-2.26610885508,-0.00607400599594,2.14237620627,-0.082052860713,-0.687583791988,-0.940499319231,-0.0253866942874,-1.04395887288,-0.151421793051,0.109968077643,-0.595166076238,0.573944152468,0.81887500834,0.00354647223499,0.0,0.818847256294,-0.57387364934,-0.0117878053226,0.0,-0.00761765888161,0.00966974716706,-0.999924230761,0.0,0.496355244121,0.0437852997021,0.304657575286,1.0,-0.28998,-0.381116571429,1.842
0.207468490364,-0.134106401828,-0.131511281918,-2.28396120695,-0.00860216367638,2.14400154523,-0.0922834558129,-0.685963531276,-0.935781079806,-0.0101156082574,-1.05230444654,-0.164384799483,0.0911788463887,-0.603358041045,0.573890193881,0.818912918958,0.0035246887762,0.0,0.818883795934,-0.573818401921,-0.0119380599653,0.0,-0.00775384953769,0.00973763355221,-0.999922525154,0.0,0.491374921331,0.0373580538967,0.304618830479,1.0,-0.28998,-0.381116571429,1.859
0.196210271449,-0.149136961692,-0.131771402959,-2.30023905873,-0.0110124240943,2.14541283515,-0.102207487902,-0.718170327525,-0.915232182877,-0.0205589605701,-1.01967493104,-0.153749838933,0.0899645009183,-0.620783664181,0.573875713805,0.818922444215,0.00366638342925,0.0,0.818895413439,-0.57380373748,-0.0118456575997,0.0,-0.00759703662665,0.00980050847481,-0.999923114578,0.0,0.486770674682,0.031250209304,0.30467099844,1.0,-0.28998,-0.381116571429,1.875
0.183951493825,-0.164908535776,-0.132041345405,-2.31720414741,-0.0135738599166,2.14648909092,-0.112898262451,-0.715775875675,-0.932540837723,-0.0111617107326,-0.9733525269,-0.141417721242,0.0587227535001,-0.638035625547,0.573949321,0.81887105414,0.00362222547264,0.0,0.81884274733,-0.573876591475,-0.0119565799421,0.0,-0.00771233529967,0.00982869322953,-0.999921955291,0.0,0.481816442959,0.0247546028327,0.304665208641,1.0,-0.28998,-0.381116571429,1.892
0.171538088334,-0.180566145388,-0.132249635618,-2.33377369214,-0.0160653733621,2.14741629556,-0.123948406045,-0.741623046745,-0.930345546839,-0.0182924526571,-0.96821474962,-0.156771456149,0.037853938744,-0.655027689811,0.573811164108,0.818967529383,0.00369873803273,0.0,0.818939765189,-0.573737593798,-0.0119825438183,0.0,-0.00769135733007,0.00990495177438,-0.999921364385,0.0,0.476875508733,0.0183666989526,0.304692663941,1.0,-0.28998,-0.381116571429,1.909
0.158647771401,-0.196112646224,-0.132547483739,-2.34984343578,-0.0186408600273,2.14822799745,-0.135254504441,-0.757182845352,-0.92779638474,-0.00239239729955,-0.941456675345,-0.147777600274,0.0445756576437,-0.667767873517,0.573866183924,0.818928078994,0.00389246521896,0.0,0.818904018169,-0.573793489176,-0.0117468169226,0.0,-0.00738646922968,0.00992884757011,-0.999923426097,0.0,0.472001503387,0.0118430035717,0.304804371572,1.0,-0.28998,-0.381116571429,1.926
0.145615213045,-0.211318076096,-0.132782167332,-2.36569980086,-0.0210492314067,2.1486505278,-0.146919480955,-0.781498114298,-0.891991312528,-0.0227714904086,-0.924910601213,-0.133355995183,0.0144190995051,-0.68301613825,0.57374321645,0.819014426545,0.00385195925562,0.0,0.818988284512,-0.573668609892,-0.011969242174,0.0,-0.00759338009987,0.0100221739641,-0.999920945179,0.0,0.467018771639,0.0054436496708,0.304744355885,1.0,-0.28998,-0.381116571429,1.943
0.132147082111,-0.226333241472,-0.13313931783,-2.38093696663,-0.0235831194113,2.14897187742,-0.158747395533,-0.794810951918,-0.863760830202,-0.0171960931822,-0.904082247457,-0.145821505795,0.0109146836672,-0.703211513508,0.573869419347,0.818925643842,0.0039276324562,0.0,0.818901057356,-0.573795285131,-0.0118649030402,0.0,-0.00746296006134,0.0100254404104,-0.999921894336,0.0,0.462139729127,-0.00108873472123,0.304792187289,1.0,-0.28998,-0.381116571429,1.96
0.119287852223,-0.240326737981,-0.133360712197,-2.39505161648,-0.0259102973583,2.14907227947,-0.170237997251,-0.814588190731,-0.873726821447,-0.0164686750781,-0.863621197977,-0.144955108019,0.00711735760626,-0.714935668069,0.57375979059,0.819002377244,0.00394406794717,0.0,0.8189780077,-0.573685620553,-0.0118565836594,0.0,-0.00744805853349,0.010033129036,-0.999921928325,0.0,0.457496905181,-0.00713202088498,0.304794603911,1.0,-0.28998,-0.381116571429,1.976
0.105222954264,-0.25496220418,-0.133707645264,-2.40960569385,-0.0282573699281,2.14907313828,-0.182787550644,-0.81717453329,-0.843218499004,-0.0036054924443,-0.871909946892,-0.132907356,0.000783404168346,-0.750541712774,0.573825116332,0.81895580463,0.00410765512525,0.0,0.818933379199,-0.573750129344,-0.011817631456,0.0,-0.00732149117981,0.0101453449666,-0.999921730808,0.0,0.452599109862,-0.0136337454231,0.304813189683,1.0,-0.28998,-0.381116571429,1.993
0.0908961462677,-0.269428913804,-0.134035887843,-2.42377129144,-0.0306628938504,2.1489049803,-0.195580852435,-0.848842342268,-0.839764466339,-0.0249796821251,-0.801353490711,-0.14662986869,-0.0085726418527,-0.770801724474,0.573849197341,0.818938250637,0.00424113846186,0.0,0.81891813101,-0.573774575972,-0.0116866407519,0.0,-0.00713731712604,0.0101797105886,-0.999922713112,0.0,0.447702797346,-0.0201124163757,0.304849003636,1.0,-0.28998,-0.381116571429,2.01
0.0771278126358,-0.282779354046,-0.134297460528,-2.43674905119,-0.0328872833376,2.14851746286,-0.207946960448,-0.859501838249,-0.815591604467,-0.010823341501,-0.82049218161,-0.141759407823,-0.0310134999184,-0.785281855505,0.573775751509,0.818989421121,0.00429673985177,0.0,0.818970056235,-0.573701015541,-0.0116592735221,0.0,-0.00708391404339,0.0102089062583,-0.999922795217,0.0,0.442784714422,-0.0265543304244,0.304850496443,1.0,-0.28998,-0.381116571429,2.027
0.062193568804,-0.296802697891,-0.134676841307,-2.45008437935,-0.0351657112867,2.14794993917,-0.221473500969,-0.897502814079,-0.814954632528,-0.0272928032926,-0.747795476657,-0.15026754849,-0.0235791578153,-0.800734141529,0.573837111956,0.818945399656,0.00448867745488,0.0,0.818928985687,-0.573762474863,-0.0115189296855,0.0,-0.00685807182869,0.010286095458,-0.999923578625,0.0,0.437900923062,-0.0330661385642,0.30491725263,1.0,-0.28998,-0.381116571429,2.044
0.0460800953957,-0.311386937366,-0.134964650839,-2.46386847963,-0.0376017359429,2.14711786054,-0.23600617159,-0.90162592654,-0.795913516839,-0.020121330796,-0.755151783225,-0.12739385861,-0.0549325321186,-0.806298169515,0.573763570228,0.818996834899,0.00450519765213,0.0,0.818980453289,-0.573688624559,-0.0115380276881,0.0,-0.00686515968871,0.0103099672738,-0.999923284136,0.0,0.432958917757,-0.0394727011462,0.304906846868,1.0,-0.28998,-0.381116571429,2.061
0.0313609180395,-0.32406679681,-0.135344035763,-2.4756330438,-0.0397115857012,2.14624653841,-0.249327019392,-0.921755504507,-0.823757721876,-0.019400451357,-0.731448062684,-0.129132974855,-0.0499026433302,-0.84427080215,0.573839831502,0.818942772044,0.00461852789653,0.0,0.818928012674,-0.573764786977,-0.0114728455211,0.0,-0.00674578511686,0.0103660171904,-0.999923517111,0.0,0.428344261445,-0.0456108042963,0.304942274915,1.0,-0.28998,-0.381116571429,2.077
0.0155956430922,-0.337275472647,-0.135595722122,-2.48777683171,-0.041880680123,2.14522169343,-0.263837482129,-0.937024268376,-0.792894278637,-0.0173065698965,-0.698480983896,-0.135504163259,-0.0617263216134,-0.860333790905,0.57364128997,0.819081268402,0.00472155648658,0.0,0.819068135737,-0.573566453958,-0.0113867825095,0.0,-0.00661870128025,0.0103994052974,-0.999924019695,0.0,0.42344998981,-0.0519869111808,0.304967477088,1.0,-0.28998,-0.381116571429,2.094
-0.00165031057347,-0.350905132676,-0.136003531941,-2.50015303285,-0.0442171699565,2.14383533717,-0.279510945885,-0.958472705159,-0.756620210312,-0.0220938291023,-0.668640874481,-0.125355763507,-0.0859333622054,-0.88601741773,0.573719992193,0.81902618407,0.00471458038368,0.0,0.819012706767,-0.573644763312,-0.0114288485774,0.0,-0.00665616004207,0.0104184607456,-0.999923572684,0.0,0.418225649356,-0.0588888485582,0.304973614615,1.0,-0.28998,-0.381116571429,2.112
-0.0172180322797,-0.362758029014,-0.13638715306,-2.51072451451,-0.046165252574,2.14266380236,-0.293791605871,-0.99042449835,-0.73130568282,-0.0329147296443,-0.657725825987,-0.116014633223,-0.0886028030885,-0.902824459196,0.573773997512,0.818987319532,0.00489051383944,0.0,0.81897652673,-0.573698955474,-0.0113006218742,0.0,-0.00644950750936,0.0104894209791,-0.999924185076,0.0,0.413633799392,-0.0649996764321,0.305019780867,1.0,-0.28998,-0.381116571429,2.128
-0.0329781966501,-0.374263527378,-0.136654346778,-2.52111958886,-0.0481175530832,2.14123073579,-0.308411531131,-0.993540969278,-0.710378541857,-0.0181181390495,-0.640578884567,-0.113320235375,-0.0905141251012,-0.919097069107,0.573610472212,0.819102418419,0.00479595761811,0.0,0.819089273239,-0.573533901237,-0.0115053681844,0.0,-0.00667355910846,0.0105281198161,-0.999922308133,0.0,0.408950067046,-0.0710163126784,0.304938090804,1.0,-0.28998,-0.381116571429,2.144
-0.0511836724678,-0.386975158909,-0.137068322069,-2.53206124647,-0.0503236163535,2.13965690437,-0.32513621341,-1.01017285571,-0.698023312736,-0.0220974128663,-0.609453295773,-0.120550676558,-0.0867883473501,-0.933739783457,0.573684720897,0.819049577313,0.00493738932938,0.0,0.819039687313,-0.573610065592,-0.0112352195832,0.0,-0.00637018827946,0.0104895935805,-0.999924691728,0.0,0.403799276362,-0.07792033081,0.305042953135,1.0,-0.28998,-0.381116571429,2.162
-0.0697004646533,-0.399193908342,-0.137484467514,-2.54273872484,-0.0523733130018,2.1378710752,-0.342353214574,-1.04210576277,-0.66416005121,-0.0348599447067,-0.580139482642,-0.115423211506,-0.105759776558,-0.971185377409,0.573679319593,0.819053249837,0.00495571437582,0.0,0.819042573775,-0.573602941465,-0.0113874838421,0.0,-0.00648446815141,0.0105919089667,-0.999922878595,0.0,0.398550493821,-0.0847734252134,0.304999293832,1.0,-0.28998,-0.381116571429,2.18
-0.0863668217395,-0.409744913903,-0.137762051385,-2.55177582171,-0.0540777735835,2.13616409305,-0.357931308711,-1.05010238115,-0.651025336601,-0.0161653362541,-0.544670654611,-0.10191330065,-0.0942372790097,-0.97458774251,0.573609714215,0.819101674802,0.00500889156707,0.0,0.819090802205,-0.573531755144,-0.0115034988822,0.0,-0.00654990293463,0.0107014617544,-0.999921285646,0.0,0.393907189011,-0.0907918983699,0.304994202001,1.0,-0.28998,-0.381116571429,2.196
-0.102419535797,-0.419369502439,-0.138153239044,-2.55978820697,-0.0557669261898,2.13472155182,-0.372814339394,-1.07556302798,-0.640401773544,-0.0136689146608,-0.530114425487,-0.107171014979,-0.0956816052862,-0.999940133812,0.573736091414,0.819012313076,0.00514541934577,0.0,0.819004432053,-0.573659789367,-0.0112664653734,0.0,-0.00627577451568,0.0106783046468,-0.99992329129,0.0,0.389603058681,-0.0965887752665,0.305070323459,1.0,-0.28998,-0.381116571429,2.211
-0.121863262393,-0.430436153854,-0.13855594614,-2.56921968649,-0.0577416555259,2.13264411633,-0.391036980894,-1.10087922726,-0.602921247584,-0.0321180579032,-0.511484396904,-0.10357399695,-0.106208794135,-1.01025634025,0.573710036833,0.819031306898,0.00502581920395,0.0,0.819020289298,-0.573631416282,-0.0115546905208,0.0,-0.00658081219111,0.0107454967068,-0.999920610454,0.0,0.384299984361,-0.10343087221,0.304987881745,1.0,-0.28998,-0.381116571429,2.229
-0.140405495674,-0.440445462719,-0.138842268271,-2.57752234329,-0.0594090688005,2.1308030995,-0.408572133739,-1.10255557135,-0.576515375692,-0.0199416003896,-0.463061360065,-0.0946133489576,-0.107080045433,-1.04313966238,0.573601740022,0.819106737286,0.00509349361916,0.0,0.819096221659,-0.573522319587,-0.0115877305968,0.0,-0.00657048242855,0.0108190121112,-0.99991988566,0.0,0.379398241925,-0.109819628354,0.30498872069,1.0,-0.28998,-0.381116571429,2.246
-0.160591879927,-0.450613524724,-0.139254240453,-2.58567697604,-0.061217053603,2.12893510977,-0.427534837426,-1.12296136758,-0.553319780706,-0.016942604744,-0.45894565046,-0.103313056036,-0.10581187572,-1.04360205288,0.573699197041,0.819037665802,0.00522304633663,0.0,0.819030179734,-0.573621665487,-0.011335628325,0.0,-0.00628837509586,0.0107812810209,-0.999922107125,0.0,0.374237294128,-0.116751304676,0.305081567989,1.0,-0.28998,-0.381116571429,2.264
-0.178675715929,-0.45915699124,-0.139590900806,-2.59272018973,-0.0627616238541,2.12705225007,-0.444746779598,-1.13353959293,-0.527626967641,-0.0105038363407,-0.414761967133,-0.092353995407,-0.113574588748,-1.07194273166,0.573619016247,0.819094270104,0.00515245419014,0.0,0.819084426162,-0.573539260173,-0.0115830375845,0.0,-0.00653259072418,0.0108647547882,-0.999919637952,0.0,0.36954689376,-0.122818850894,0.305021182781,1.0,-0.28998,-0.381116571429,2.28
-0.199316204351,-0.468240180709,-0.140004339096,-2.60013153722,-0.0643882659493,2.12516771621,-0.464414458045,-1.17495250433,-0.488377578913,-0.0361994651007,-0.398823918987,-0.0959258153752,-0.114767959909,-1.08800607097,0.573615626585,0.819096359396,0.00519748615545,0.0,0.819086417253,-0.573534595061,-0.0116728848317,0.0,-0.00658040604499,0.0109531503427,-0.999918360044,0.0,0.364320063768,-0.129671610039,0.304975733581,1.0,-0.289686857143,-0.380731297959,2.298
-0.217813114022,-0.47586732816,-0.140197140818,-2.6060533833,-0.0656646664511,2.12353339671,-0.482001342777,-1.15213541111,-0.458221095729,-0.00474701360411,-0.353068176317,-0.0722098747538,-0.0999207931063,-1.09595815385,0.573624292395,0.819089486365,0.00532272504848,0.0,0.819082043871,-0.573544356979,-0.011498821099,0.0,-0.00636586711515,0.0109559625642,-0.999919718087,0.0,0.359788611343,-0.135698119189,0.305054101637,1.0,-0.283021714286,-0.371971395918,2.314
-0.236292330694,-0.482871664375,-0.140380978096,-2.61161098303,-0.0668561250147,2.12193344423,-0.49960705063,-1.15056555865,-0.421466239172,-0.00186031788336,-0.340703447949,-0.0732516399424,-0.107454741337,-1.11244880043,0.573650332212,0.819070890658,0.005377669556,0.0,0.819063820445,-0.573569642685,-0.0115355940208,0.0,-0.00636412379225,0.0110222641266,-0.99991900053,0.0,0.355274632677,-0.141633881382,0.305047528047,1.0,-0.276356571429,-0.363211493878,2.33
-0.256928778009,-0.490034719622,-0.140515466507,-2.6173871139,-0.0680160725692,2.1201072078,-0.519195991224,-1.1415425614,-0.387274690533,-0.0025706070021,-0.303730671385,-0.0662009977966,-0.104910332206,-1.09557727132,0.57378149101,0.818978828913,0.00540603999263,0.0,0.818970098486,-0.573697202827,-0.0118424725651,0.0,-0.00659743131164,0.0112225927405,-0.999915260066,0.0,0.35024883346,-0.14813696988,0.304968349521,1.0,-0.268858285714,-0.353356604082,2.348
-0.276188159207,-0.496195379587,-0.140482331726,-2.62215642052,-0.0689621610144,2.11870239884,-0.537531691223,-1.13500635041,-0.346503079064,-0.00792274436972,-0.268961591492,-0.052043347205,-0.0813828979595,-1.07571471965,0.573835389636,0.818940337424,0.00551509231992,0.0,0.818933553889,-0.573751623554,-0.0117326759294,0.0,-0.00644419248261,0.0112493354016,-0.999915958887,0.0,0.345719230731,-0.154129873586,0.304995977569,1.0,-0.261776571429,-0.344049208163,2.365
-0.29284542023,-0.501085944653,-0.140402325537,-2.62590943665,-0.06970002161,2.1174555526,-0.553414534508,-1.1025004262,-0.308995181693,0.00166263204362,-0.241994941984,-0.0309203999015,-0.0723670583992,-1.06525127814,0.573879217763,0.818909217371,0.00557530503982,0.0,0.818903152149,-0.573795125977,-0.0117272207695,0.0,-0.00640456963238,0.0112958606333,-0.999915688956,0.0,0.341828023113,-0.159248919953,0.305014839087,1.0,-0.255528,-0.3358368,2.38
-0.312579488547,-0.506318541837,-0.140269949429,-2.62989344147,-0.0705102046,2.11616022006,-0.572289450547,-1.07662326848,-0.283024063784,0.00797179552243,-0.207855269966,-0.0446865325709,-0.0694792402259,-1.04395681763,0.573909455046,0.818887619966,0.00563472951619,0.0,0.818882837032,-0.573826067585,-0.0116314348254,0.0,-0.00629160443362,0.0112897910776,-0.999916474677,0.0,0.337291010784,-0.165273846783,0.305045866818,1.0,-0.248029714286,-0.325981910204,2.398
-0.328698220624,-0.510242550936,-0.140118551877,-2.63283824253,-0.0710162181376,2.11517311558,-0.587741813757,-1.08172057743,-0.251563569885,0.000765852353297,-0.189585758261,-0.0331119408438,-0.0699533389862,-1.02948739939,0.573958279499,0.81885256615,0.00575458114838,0.0,0.818849736782,-0.57387522505,-0.0115360975497,0.0,-0.00614406982275,0.0113335941672,-0.999916896572,0.0,0.333619412314,-0.170135910545,0.305083341129,1.0,-0.241781142857,-0.317769502041,2.413
-0.346514818922,-0.514126436815,-0.139853181433,-2.6358867594,-0.0715242603381,2.11402725321,-0.604990917388,-1.02939328917,-0.220638512321,0.0134840647006,-0.174577409715,-0.0247563804628,-0.0689526384035,-1.00640191081,0.573838514351,0.81893631087,0.00578144343867,0.0,0.818932690198,-0.573753302234,-0.0117108497588,0.0,-0.00627343861714,0.0114549701995,-0.999914710176,0.0,0.329537126898,-0.175418814851,0.305043606156,1.0,-0.234699428571,-0.308462106123,2.43
-0.364091524448,-0.517442980626,-0.139621801953,-2.63857258708,-0.0720193546822,2.11308902466,-0.621859493691,-1.02636613504,-0.175772944089,0.0199966735489,-0.14361533622,-0.0251856028409,-0.0534411723811,-0.981748240814,0.573885495202,0.818903427543,0.0057759550209,0.0,0.81889866479,-0.573798352721,-0.0118816716544,0.0,-0.00641583169099,0.0115488632271,-0.999912726623,0.0,0.325541641821,-0.180622789571,0.304972082734,1.0,-0.227617714286,-0.299154710204,2.447
-0.383159661521,-0.520630751522,-0.139346923807,-2.64103987071,-0.0723677873268,2.11221423134,-0.640253721971,-0.994428566739,-0.155164640656,0.00777801395286,-0.117014019984,-0.0241395633188,-0.0448313520349,-0.954665823949,0.573948351798,0.818858492056,0.00589969120286,0.0,0.818855015503,-0.573860133539,-0.0119062009475,0.0,-0.0063640186996,0.0116647607242,-0.999911712414,0.0,0.321274914447,-0.186238542434,0.304955987716,1.0,-0.219702857143,-0.288752326531,2.466
-0.397762989598,-0.522763216971,-0.139030396705,-2.6426855485,-0.0726280172962,2.11156783165,-0.654459656192,-0.958172122958,-0.140548105591,0.0176298279205,-0.106582978951,-0.0157521990721,-0.0433155930294,-0.942268333961,0.573841352411,0.818933402994,0.00591021360578,0.0,0.818929762435,-0.573752563289,-0.0119493606331,0.0,-0.0063948534817,0.0116973122998,-0.999911135418,0.0,0.318025254767,-0.190493022781,0.304943925153,1.0,-0.213454285714,-0.280539918367,2.481
-0.415045061459,-0.524989323532,-0.138769901406,-2.64429793656,-0.0728874973015,2.11090202233,-0.671061828761,-0.94554255934,-0.108613850858,0.0135760410846,-0.0837527493346,-0.00541994636968,-0.0276281844545,-0.906993265468,0.574007170861,0.818816554446,0.00599707149242,0.0,0.818814388989,-0.573918642727,-0.0118800175081,0.0,-0.00628584489348,0.0117299295069,-0.999911444533,0.0,0.314196195001,-0.195555634665,0.304976827637,1.0,-0.205956,-0.270685028572,2.499
-0.430717930793,-0.526658780459,-0.138431211543,-2.64550822025,-0.0730526953311,2.11040838459,-0.686289874225,-0.916686572372,-0.0889053746477,0.0147766504,-0.0643529928692,-0.00974064645835,-0.0300658128544,-0.893434845232,0.573989583866,0.818828507056,0.00604818545563,0.0,0.818827461203,-0.573901718544,-0.0117963186323,0.0,-0.00618821708977,0.0117236100803,-0.999912127607,0.0,0.310757071718,-0.200107062587,0.305004324066,1.0,-0.198874285714,-0.261377632653,2.516
-0.444226342695,-0.527853532253,-0.138144364519,-2.64640350679,-0.0731810388182,2.11002503134,-0.699389607685,-0.867963632292,-0.0757542484344,0.0307414015039,-0.0514346818954,-0.0110433250079,-0.0217004131758,-0.866112952819,0.574013936581,0.818811240751,0.00607449840283,0.0,0.818810618297,-0.573926121871,-0.0117781534354,0.0,-0.00615788967598,0.0117349139456,-0.999912182239,0.0,0.30778215093,-0.20401463592,0.305008825186,1.0,-0.192625714286,-0.25316522449,2.531
-0.459894673942,-0.528903600767,-0.137760532464,-2.64720630242,-0.0732064189232,2.10967011992,-0.714585594513,-0.87705242005,-0.0528538812163,0.0192407922591,-0.0393499760817,0.00180398934059,-0.0174667066583,-0.832022519134,0.574071591977,0.818770273734,0.00614760409447,0.0,0.818770567021,-0.573983423961,-0.0117700679885,0.0,-0.00610847654858,0.011790565963,-0.999911830647,0.0,0.304359025665,-0.208521327901,0.305007175522,1.0,-0.185127428571,-0.243310334694,2.549
-0.474164718728,-0.529579716003,-0.137329175716,-2.64771788339,-0.0732131168349,2.10939827451,-0.728495071858,-0.818724518257,-0.0387446390095,0.028693131841,-0.0213710933173,0.00233071236087,-0.00712284917422,-0.818440309274,0.574029499455,0.818799714036,0.00615702460256,0.0,0.818800143845,-0.573941331787,-0.0117651607412,0.0,-0.00609965678756,0.0117951490547,-0.999911830436,0.0,0.301260424939,-0.212604191935,0.305009458998,1.0,-0.178045714286,-0.234002938776,2.566
-0.487159529153,-0.52996365064,-0.136978639489,-2.64804470489,-0.0732221964898,2.1091953045,-0.741102303646,-0.807179252555,-0.0181995849993,0.0101638980941,-0.0144297550937,-0.000769193776062,-0.00740718957698,-0.780390214577,0.574076822696,0.818766527303,0.00615810942191,0.0,0.818766687998,-0.573988094374,-0.0118120719426,0.0,-0.00613676578447,0.0118233192215,-0.999911270678,0.0,0.298422112819,-0.216325853493,0.304992757808,1.0,-0.171380571429,-0.225243036735,2.582
-0.501140396185,-0.530173718611,-0.136459122644,-2.64822608094,-0.073196744529,2.10902355402,-0.754831855041,-0.764814481495,-0.00360080904733,0.0289194069796,-0.0089330736928,0.00131793593114,-0.012854616722,-0.746628438514,0.573916676255,0.818879228101,0.00609962316879,0.0,0.818878495947,-0.573827954685,-0.0118420521776,0.0,-0.00619719557423,0.0117914284936,-0.999911274554,0.0,0.29539340524,-0.220290112126,0.304985776234,1.0,-0.163882285714,-0.215388146939,2.6
-0.513947061799,-0.530226160166,-0.136057993119,-2.6482918557,-0.073170670052,2.10891844692,-0.767217074322,-0.758792273722,-0.00182147245707,0.0197036903576,-0.00234335417187,0.00980599216418,-0.00873340262998,-0.718379947287,0.57398643342,0.818830549003,0.00607068122282,0.0,0.818829341719,-0.573897623149,-0.0118648297663,0.0,-0.00623145552153,0.0117813300573,-0.999911180668,0.0,0.292590718592,-0.223929022859,0.304976429821,1.0,-0.156800571429,-0.206080751021,2.617
-0.525380096238,-0.530111688525,-0.135589021205,-2.64825440658,-0.0730839012135,2.10890302361,-0.778443876279,-0.699484097127,0.00588645352433,0.0273828633919,0.00590607319467,0.00751242785647,-0.00120580427442,-0.69236875315,0.5738641298,0.818916568046,0.00603009203663,0.0,0.818914847145,-0.573775530298,-0.0118684816794,0.0,-0.00625949754347,0.011749254019,-0.999911382934,0.0,0.290110838694,-0.227143376061,0.304962554159,1.0,-0.150135428572,-0.19732084898,2.633
-0.537789953159,-0.529883118682,-0.135161655197,-2.64809546516,-0.072923140744,2.108901635,-0.790507687646,-0.681253152153,0.0161154334179,0.021579662289,0.0135052927544,0.0123649986781,-0.000404842618305,-0.662138448742,0.5739238682,0.818874402129,0.00607074535999,0.0,0.818873283001,-0.57383523577,-0.0118497036877,0.0,-0.00621993118066,0.0117722256125,-0.999911359652,0.0,0.287398695182,-0.230641081384,0.304962418705,1.0,-0.142637142857,-0.187465959184,2.651
-0.548295220512,-0.529509826606,-0.134713798131,-2.64783630625,-0.0727437382688,2.10892352581,-0.800695420358,-0.633871837008,0.0287322362268,0.03093611466,0.0186492880778,0.013856129225,-0.000753088730959,-0.626751761843,0.573959505238,0.818849351471,0.00608052984937,0.0,0.818848264738,-0.573870647664,-0.0118636413582,0.0,-0.00622521728418,0.0117885080054,-0.999911134926,0.0,0.28512082066,-0.233581350879,0.304957488713,1.0,-0.135972,-0.178706057143,2.667
-0.558229539279,-0.528985153321,-0.134224270358,-2.64751160856,-0.0725568864491,2.10897045174,-0.810492787197,-0.619731468827,0.0357245859816,0.0319841707929,0.0208712882309,0.0119268437109,0.00515006402654,-0.601263957834,0.573825019366,0.818943757075,0.00605943878064,0.0,0.818941924257,-0.573735385057,-0.0119406670045,0.0,-0.00630234159622,0.011814409394,-0.999910346092,0.0,0.282973591882,-0.236343570887,0.304930192665,1.0,-0.129306857143,-0.169946155102,2.683
-0.567895460175,-0.528398330164,-0.133838036195,-2.64710587966,-0.0723439560366,2.10906137631,-0.81978291353,-0.59172546385,0.0393079098307,0.0300779628355,0.0268324113606,0.00760610984293,0.0078466952067,-0.576695175495,0.573974312914,0.818838835176,0.00609893624842,0.0,0.818837355575,-0.573884183836,-0.0119614196056,0.0,-0.00629451303456,0.0118598127672,-0.999909857911,0.0,0.280871306353,-0.239055751448,0.304918041254,1.0,-0.122641714286,-0.161186253061,2.699
-0.5767906513,-0.527666815619,-0.133335370346,-2.64662279033,-0.0720707369027,2.10918743535,-0.82865620957,-0.546174437962,0.045413982483,0.0269737186339,0.0351312493379,0.0118036415931,0.00399487555769,-0.5447437625,0.573781712401,0.818973689492,0.00611468192931,0.0,0.818972046495,-0.573690864763,-0.0120135610294,0.0,-0.00633097512733,0.0119011443267,-0.999909136631,0.0,0.278979079382,-0.241522189351,0.304894019018,1.0,-0.115976571429,-0.152426351021,2.715
-0.585918014174,-0.526874501952,-0.13285913682,-2.64608457172,-0.0718294850624,2.10929321921,-0.837487640936,-0.533361375422,0.049945546476,0.0278988833651,0.0302164392254,0.0184252876746,0.0144419759993,-0.502105521636,0.573821407794,0.818945893032,0.00611253991592,0.0,0.81894371332,-0.573729607734,-0.0120945658748,0.0,-0.00639797310378,0.0119461769544,-0.999908173182,0.0,0.277009190457,-0.244057242773,0.304870171106,1.0,-0.108894857143,-0.143118955102,2.732
-0.594583024326,-0.526046687669,-0.132429388567,-2.64546353764,-0.071548914354,2.10943833222,-0.845840849728,-0.49381975738,0.0507636636589,0.0267869354266,0.03713958759,0.0139523041211,0.0126189597719,-0.486592963517,0.57392767757,0.818871120048,0.00615276944934,0.0,0.818869450046,-0.573835651355,-0.0120919773289,0.0,-0.00637121521995,0.0119784660234,-0.999907957748,0.0,0.275149739284,-0.246480380992,0.30487294033,1.0,-0.101813142857,-0.133811559184,2.749
-0.602400145042,-0.52512619298,-0.131887228599,-2.64481342288,-0.0712256157447,2.1095857162,-0.85362096646,-0.452016759963,0.0523047996129,0.0377367891833,0.0398524753936,0.0167590585068,0.00841442230249,-0.448389868049,0.573749273171,0.818996054299,0.00616291158938,0.0,0.818994103204,-0.5736564644,-0.0121518175883,0.0,-0.00641702013215,0.0120197161761,-0.999907169829,0.0,0.27351229097,-0.248633817082,0.304857761542,1.0,-0.0947314285715,-0.124504163265,2.766
-0.60994572758,-0.524283140857,-0.131408999286,-2.64418807599,-0.0709567279381,2.10974372855,-0.860840326943,-0.432228672892,0.0506743727265,0.0250580650539,0.0373347551431,0.0187412892835,0.0070123818805,-0.410480018149,0.573827793752,0.818941092265,0.00615608798494,0.0,0.818939043619,-0.573734982852,-0.0121556237472,0.0,-0.00642290041492,0.0120169269264,-0.9999071656,0.0,0.271905920483,-0.250719060382,0.304858658751,1.0,-0.0876497142858,-0.115196767347,2.783
-0.617311181743,-0.523383737648,-0.130900915535,-2.64346987545,-0.0706278227771,2.10992427948,-0.867939735497,-0.395491728567,0.0529287898413,0.0261754869582,0.0404434967838,0.0191728353556,0.00972682764737,-0.383255768314,0.573865965853,0.818914222395,0.00617223592159,0.0,0.818912735045,-0.573773733361,-0.0120988506228,0.0,-0.00636657657801,0.0119978721945,-0.999907754628,0.0,0.270365103456,-0.252757794706,0.304883510221,1.0,-0.0801514285715,-0.105341877551,2.801
-0.622926033188,-0.522598125995,-0.130487949508,-2.64288796043,-0.0703431979061,2.11007284114,-0.873386355863,-0.358819506441,0.0495077112317,0.0303154246623,0.037561642959,0.018307879782,0.00655180368181,-0.354930383724,0.573864953389,0.818914745048,0.00619697636973,0.0,0.818913494396,-0.573772449545,-0.0121083335548,0.0,-0.00636016102734,0.0120235673356,-0.999907486811,0.0,0.269196345423,-0.254304968969,0.304882779476,1.0,-0.0739028571429,-0.0971294693879,2.816
-0.629051553643,-0.521793295513,-0.129923503658,-2.64227459632,-0.0700077027113,2.11022684557,-0.879358179866,-0.33558558143,0.0378047550239,0.0292110787541,0.033221674492,0.0128549193905,0.00439420895637,-0.321198379482,0.573767815641,0.818982842962,0.00619221841079,0.0,0.818981610562,-0.573675505517,-0.0120947440042,0.0,-0.00635318612092,0.0120111191063,-0.999907680761,0.0,0.267932812154,-0.255953296933,0.304893271533,1.0,-0.0664045714287,-0.0872745795919,2.834
-0.634754009167,-0.521012016223,-0.12941598398,-2.64166496093,-0.0696722079178,2.11039048629,-0.884763642511,-0.307878697642,0.0412411095127,0.0295238705724,0.0340474738982,0.0160696475312,0.00322469846241,-0.28080610735,0.57382771589,0.81894074979,0.00620868023502,0.0,0.81893997312,-0.573735778045,-0.0120550536612,0.0,-0.00631035419265,0.0120022914134,-0.999908057989,0.0,0.266757334246,-0.257495820939,0.30490987779,1.0,-0.0589062857144,-0.077419689796,2.852
-0.639204383231,-0.520304778745,-0.128989730823,-2.64112970049,-0.0693767727807,2.11054456111,-0.889006765319,-0.268872271253,0.0427178175319,0.0238543655697,0.0259483760808,0.0169963929717,0.011678196798,-0.252840850419,0.57385041961,0.818924699973,0.00622724578086,0.0,0.818924280888,-0.573758616831,-0.0120340635168,0.0,-0.00628217688046,0.0120056263173,-0.999908195381,0.0,0.26585916552,-0.258703093561,0.304916844816,1.0,-0.0522411428572,-0.0686597877552,2.868
-0.643032697532,-0.519708063323,-0.128626738607,-2.64070862363,-0.0690955290315,2.11065617725,-0.892590995241,-0.248056664932,0.0381018755385,0.0209367198525,0.0278722923084,0.0158944643375,0.00614416986091,-0.223918773716,0.573935899148,0.818864430254,0.00627498489954,0.0,0.818864419652,-0.573843459993,-0.0120620293367,0.0,-0.00627642857506,0.0120614257408,-0.999907559954,0.0,0.265071792529,-0.259724370734,0.30490722905,1.0,-0.0459925714287,-0.0604473795919,2.883
-0.646881091305,-0.519137539164,-0.128137706028,-2.64029994673,-0.0688028206403,2.110774301,-0.896121472907,-0.210021544602,0.0300583753112,0.0329523047212,0.0261326433559,0.0180916935455,0.0107365045662,-0.198382705795,0.573996478907,0.818822004934,0.00627003503164,0.0,0.818821885611,-0.573903963575,-0.0120709211637,0.0,-0.00628565893063,0.0120629404015,-0.999907483701,0.0,0.264302636566,-0.260718058599,0.304905090619,1.0,-0.0389108571429,-0.0511399836736,2.9
-0.650052349598,-0.518633711004,-0.127577547445,-2.63996000526,-0.068500864214,2.11087706085,-0.899127730566,-0.176064269645,0.027124448276,0.0336407893243,0.0190444488067,0.0149668854013,0.00903295675497,-0.176685677723,0.573881583813,0.818902754206,0.00624129915849,0.0,0.818902090367,-0.573788896079,-0.0121002492052,0.0,-0.00632786107741,0.0120553552088,-0.999907308997,0.0,0.263706752063,-0.26149579594,0.304896536465,1.0,-0.0318291428572,-0.0418325877552,2.917
-0.652719798525,-0.518197450882,-0.127019725177,-2.63965081437,-0.0682157420243,2.11097340504,-0.901671172354,-0.149668014778,0.0270742509982,0.0335837281451,0.0170316578416,0.0167352410219,0.0107748496243,-0.130997325386,0.573725624589,0.819012362762,0.00619711503881,0.0,0.819011128457,-0.573633177568,-0.0121035514359,0.0,-0.0063582098831,0.0120198552079,-0.99990754385,0.0,0.263232231835,-0.262134087698,0.304898138687,1.0,-0.0247474285715,-0.0325251918369,2.934
-0.654801958672,-0.517855221649,-0.126561437802,-2.63944110755,-0.0679459579445,2.11104999086,-0.903497382133,-0.117133312669,0.0170814200595,0.0241348981048,0.00828879119128,0.0145004365887,0.00122825865746,-0.0933212825274,0.573746960134,0.818997434894,0.00619469734865,0.0,0.818995966056,-0.573654136107,-0.0121361696244,0.0,-0.00638600098612,0.0120367543139,-0.999907163459,0.0,0.262842536546,-0.262640316989,0.304885244856,1.0,-0.0198688888889,-0.0261133968254,2.951
-0.65668204929,-0.517570560125,-0.126261122478,-2.63924951405,-0.0677210475347,2.11107410471,-0.90507283449,-0.105697220614,0.0111145048554,0.0150707818895,0.00903970068936,0.0084906030649,-0.000316632035999,-0.100693500881,0.573879179996,0.818904482798,0.00623552096102,0.0,0.818903235524,-0.573785554639,-0.0121809292251,0.0,-0.0063972888616,0.0120969028683,-0.999906365434,0.0,0.262496307823,-0.263067988374,0.304876498991,1.0,-0.0195488888889,-0.0256928253968,2.967
-0.658332027342,-0.517301812358,-0.126053089108,-2.63902188877,-0.067572254928,2.1111356099,-0.906695722374,-0.090370429465,0.0138663603847,0.00997000881856,0.015119875287,0.00577786862462,0.0109006538975,-0.0883211170494,0.573829047122,0.81893951852,0.00624792650083,0.0,0.818938653075,-0.57373579296,-0.0121436929468,0.0,-0.00636041344726,0.0120853049449,-0.999906740924,0.0,0.262176620579,-0.263503719168,0.304891137646,1.0,-0.0192088888889,-0.025245968254,2.984
-0.659885527579,-0.517016686572,-0.125898273932,-2.63880275662,-0.0674866906026,2.11122467921,-0.908169891329,-0.0858627689178,0.0162378311757,0.00647951219843,0.0117093358877,0.00527134677192,0.00333443836304,-0.0783547319385,0.573832120508,0.818937500542,0.0062301349252,0.0,0.818936635337,-0.573739387132,-0.0121099074228,0.0,-0.00634290564349,0.0120513716152,-0.999907261695,0.0,0.261866254735,-0.263933106645,0.304896896209,1.0,-0.0188688888889,-0.0247991111111,3.001
-0.661355070473,-0.516763683531,-0.125796391117,-2.63860805154,-0.0674444145068,2.11125134357,-0.90964148525,-0.0847655308777,0.0182941656804,0.00155241580732,0.0134930271415,0.000250134478733,0.000783914070438,-0.0867281085744,0.573786384445,0.818969684944,0.00621184902452,0.0,0.818968445658,-0.573693485877,-0.0121332674539,0.0,-0.00637320360738,0.0120494439933,-0.999907092272,0.0,0.261547175099,-0.264341312756,0.304896769107,1.0,-0.0185288888889,-0.0243522539683,3.018
-0.662740087082,-0.516521127368,-0.125755076351,-2.63840685863,-0.0674063840651,2.11128615101,-0.910993162299,-0.0807211235077,0.0174690255644,0.00299284146296,0.00747492282213,-0.00031082496554,0.000777123384445,-0.0827580267036,0.573811057084,0.818952367399,0.00621591513883,0.0,0.818951191523,-0.573718154533,-0.0121314452442,0.0,-0.00636901506382,0.0120519205657,-0.999907089113,0.0,0.261239018157,-0.264743600699,0.304902677475,1.0,-0.0181888888889,-0.0239053968254,3.035
-0.664001993636,-0.516263129363,-0.125713273842,-2.63820799651,-0.067360891677,2.11137517542,-0.912326669494,-0.0786195434927,0.0173173202266,0.0032072934891,0.0127686575983,0.00417784464997,0.00463754374215,-0.0870953571179,0.573752538731,0.818993333737,0.00622016849076,0.0,0.818992447268,-0.573660073314,-0.0120929113655,0.0,-0.00633587346659,0.0120328412808,-0.999907529444,0.0,0.2609712862,-0.26511941888,0.304906452726,1.0,-0.0178688888889,-0.0234848253968,3.051
-0.665428318831,-0.516014393701,-0.12569718067,-2.6380011326,-0.0673238040877,2.11141314399,-0.913746331358,-0.075137076098,0.0117269236912,-0.000336109058127,0.0151313170457,0.000618792107617,0.000681009076821,-0.0737558494478,0.573773148224,0.818978777224,0.00623568236274,0.0,0.818978113716,-0.573680649021,-0.0120875594537,0.0,-0.00632228607969,0.0120426362793,-0.999907497527,0.0,0.260646938557,-0.265539178561,0.30491229062,1.0,-0.0175088888889,-0.0230116825397,3.069
-0.666683266618,-0.515771937125,-0.125694335138,-2.63781970464,-0.0672891735909,2.11142709352,-0.915008034738,-0.0742067103873,0.0162664322926,-0.00178970918007,0.0133672656946,0.000517506210736,-0.000213939060615,-0.0838058678219,0.573789938823,0.818966822963,0.00626066236569,0.0,0.818966221491,-0.573696821753,-0.0121256615551,0.0,-0.0063389144626,0.0120850862789,-0.999906880091,0.0,0.260354994928,-0.26590707916,0.304906509431,1.0,-0.0171888888889,-0.0225911111111,3.085
-0.667991606865,-0.515541053358,-0.125677198708,-2.63762789459,-0.0672569268926,2.11149828569,-0.91629833102,-0.0799294657337,0.0187843046463,0.000882634105132,0.0152283967008,0.00108382909402,0.00466942845364,-0.0714391421584,0.573816238476,0.818948346065,0.00626720349129,0.0,0.818948079293,-0.573723562913,-0.0120856808185,0.0,-0.00630202733438,0.0120677065091,-0.999907323161,0.0,0.260062795835,-0.266296820877,0.304914916947,1.0,-0.0168488888889,-0.0221442539683,3.102
-0.669345904233,-0.515290451245,-0.125657495457,-2.63742275483,-0.0672224157201,2.11155096886,-0.917593803618,-0.0722103914944,0.0147597374215,0.000356195790409,0.0108857186591,0.00100531361065,0.00077914064163,-0.080694264924,0.573875796705,0.818906546609,0.00627572923228,0.0,0.81890648558,-0.573783251797,-0.0120704073121,0.0,-0.00628374822343,0.0120663822981,-0.999907454181,0.0,0.259758237059,-0.266697897293,0.304920566247,1.0,-0.0164888888889,-0.0216711111111,3.12
-0.670653796982,-0.515039033526,-0.12560968447,-2.63720303433,-0.0671875358587,2.11158401718,-0.918991197559,-0.069933817513,0.0109770296724,0.00318067929329,0.0143213793604,0.00351065236079,0.00157551467395,-0.0810842343901,0.573794750074,0.818963364037,0.00627216493169,0.0,0.818963308697,-0.573702338618,-0.0120612011391,0.0,-0.00627944706848,0.0120575589837,-0.999907587638,0.0,0.25947200171,-0.267081496121,0.304931507338,1.0,-0.0161288888889,-0.021197968254,3.138
-0.671787704175,-0.514818573352,-0.125574412345,-2.63702868579,-0.0671587156982,2.11164541892,-0.920126755036,-0.0676488782626,0.0125731590134,0.00296579005484,0.0110346759427,0.00183499200794,0.0104525115928,-0.0685715858068,0.573789694526,0.818966934324,0.00626848000694,0.0,0.818966969453,-0.57369756641,-0.0120396072352,0.0,-0.00626394910325,0.01204211248,-0.99990787099,0.0,0.259223292042,-0.267415732401,0.304935372139,1.0,-0.0158088888889,-0.0207773968254,3.154
-0.673028608016,-0.514554693426,-0.125529332826,-2.63683441303,-0.0671307335732,2.11168865312,-0.921378934322,-0.0721678824759,0.0122418572963,0.00468401071191,0.00448067998378,0.00480588838195,0.00195424853766,-0.0707420692982,0.573770561681,0.818980385483,0.00626239924784,0.0,0.818980220792,-0.573678232852,-0.0120594363059,0.0,-0.00628396064628,0.0120483626298,-0.999907670136,0.0,0.258948333615,-0.267777276385,0.304930913362,1.0,-0.0154488888889,-0.0203042539683,3.172
-0.673981688289,-0.514361523896,-0.125499120501,-2.63667238943,-0.0671038785025,2.11172257875,-0.922381244829,-0.0700038669278,0.0163211621793,0.00446318103568,0.0134219451974,0.000587853058725,0.0051317380391,-0.0650813883672,0.573728600686,0.819009783927,0.00626206735994,0.0,0.819009664176,-0.573636376871,-0.0120508928486,0.0,-0.00627777038249,0.0120428674391,-0.999907775219,0.0,0.258739505953,-0.268058819799,0.304936765141,1.0,-0.0151688888889,-0.0199362539683,3.186
-0.675110630623,-0.5141349662,-0.125473471213,-2.63648918625,-0.0670810482038,2.11177809471,-0.923466377307,-0.0626611893729,0.017821574465,0.000506829440734,0.0102943022871,0.000639464182575,0.0023459238863,-0.0649461759135,0.573765476962,0.818983988321,0.00625709366038,0.0,0.818983923361,-0.573673496414,-0.0120332742502,0.0,-0.00626565077363,0.0120289680493,-0.999908018544,0.0,0.258489128643,-0.268395133995,0.304941618707,1.0,-0.0148288888889,-0.0194893968254,3.203
-0.676342345915,-0.513880649655,-0.125444013156,-2.63628362641,-0.0670482684849,2.11182993074,-0.924721936167,-0.0632720304342,0.0173389037382,0.00274690578329,0.0109083372606,0.000283179213096,0.00362620143595,-0.0691804705375,0.57374964398,0.818995065051,0.00625910182662,0.0,0.818995087099,-0.57365777501,-0.0120229521976,0.0,-0.00625627654248,0.0120245696989,-0.999908130144,0.0,0.258216295071,-0.26876081897,0.304946132918,1.0,-0.0144488888889,-0.018989968254,3.222
-0.677362348665,-0.513671312713,-0.125429483332,-2.63611980018,-0.0670197080018,2.11186950966,-0.925758121388,-0.0647016949621,0.0144234394054,0.00108419412693,0.0062341472543,-9.46967013548e-05,0.00122736354964,-0.063177448389,0.573746767738,0.818997010078,0.00626824498902,0.0,0.818997145922,-0.573654849553,-0.0120222900128,0.0,-0.0062505307807,0.0120316564383,-0.99990808083,0.0,0.25798596779,-0.269063271288,0.304946899635,1.0,-0.0141288888889,-0.0185693968254,3.238
-0.67844014879,-0.513453854372,-0.125419881431,-2.6359363156,-0.0669953774438,2.11192316241,-0.926807807446,-0.0597289752431,0.0164791289162,-2.54378776309e-05,0.00717349524416,0.00279074385828,0.0038493337672,-0.0639348568696,0.573782793978,0.818971745686,0.00627152333003,0.0,0.818972084491,-0.573691162791,-0.0119967270956,0.0,-0.00622718291288,0.0120199495473,-0.999908367305,0.0,0.257744590352,-0.269388971572,0.304954660584,1.0,-0.0137888888889,-0.0181225396825,3.255
-0.679534572372,-0.513221638186,-0.125418708308,-2.63575213942,-0.0669705812727,2.11196681897,-0.927895936698,-0.0626296159611,0.0108328138911,-0.00208459886787,0.00755521834039,0.00242757424057,0.00188515791731,-0.062116855673,0.57380725346,0.818954527879,0.00628204137751,0.0,0.818955009584,-0.57371558328,-0.011994527095,0.0,-0.00621898697591,0.0120274874719,-0.999908327671,0.0,0.257494759595,-0.269718972314,0.304956212694,1.0,-0.0134288888889,-0.0176493968254,3.273
-0.680360077856,-0.513033145551,-0.125406335652,-2.63560742748,-0.0669521155009,2.11198848414,-0.928777470842,-0.0543434838878,0.0127819452797,0.00207283893327,0.0116352608919,0.000689324045397,-0.000238524695026,-0.0658804187894,0.57376799147,0.8189820024,0.00628638293059,0.0,0.818982425284,-0.573676088029,-0.0120116610581,0.0,-0.00623110662616,0.0120405755967,-0.999908094701,0.0,0.257307887981,-0.269964967075,0.304954380057,1.0,-0.0131488888889,-0.0172813968254,3.287
-0.68149116741,-0.512804999841,-0.125396464978,-2.63542669568,-0.0669307902861,2.11202386758,-0.929865297201,-0.0661069970346,0.0111005698612,0.000566209300057,0.0116322062291,1.97692276174e-05,0.00210074036317,-0.0570192879407,0.57381487722,0.81894911542,0.00629125856762,0.0,0.818949564805,-0.573722870959,-0.0120176763825,0.0,-0.00623254651136,0.0120483769325,-0.999907991756,0.0,0.257047136118,-0.270300449816,0.304955340849,1.0,-0.0127688888889,-0.016781968254,3.306
-0.682308255792,-0.512633354515,-0.12537269963,-2.63528133173,-0.0669159106813,2.11207395628,-0.930622003183,-0.0631347651189,0.0115938155224,0.00525600728846,0.0111829748477,-0.000284259795652,0.00876087263718,-0.0535842460509,0.573861223558,0.818916725168,0.00628014638099,0.0,0.818917212898,-0.573769609243,-0.0119908644343,0.0,-0.00621628198217,0.0120242436107,-0.999908383505,0.0,0.256869134658,-0.270546510331,0.304962703841,1.0,-0.0124888888889,-0.016413968254,3.32
-0.683266712362,-0.512433363279,-0.125356969517,-2.63510469883,-0.0668962766271,2.11211350518,-0.931609670073,-0.054733446423,0.0118822017286,-0.000537760959292,0.0137995398343,0.000649861387847,0.00135090751036,-0.0541235376379,0.573843524478,0.818929146842,0.00627764042101,0.0,0.818929733478,-0.573752179272,-0.0119697663452,0.0,-0.00620070005139,0.0120099505323,-0.999908652031,0.0,0.256655926274,-0.270836218952,0.304972685117,1.0,-0.0121488888889,-0.0159671111111,3.337
-0.684161422932,-0.512237424404,-0.12533673219,-2.63494553863,-0.0668740884305,2.11215094375,-0.932529079432,-0.0489403002985,0.0109835833752,-3.07543798297e-05,0.00812478038844,0.000491823746113,-0.000206867429777,-0.0511700335614,0.57382657913,0.818941022374,0.00627740850158,0.0,0.818941639115,-0.573735302724,-0.0119641561428,0.0,-0.00619648669804,0.0120064131599,-0.999908720632,0.0,0.256456849678,-0.271103351123,0.304976145728,1.0,-0.0118088888889,-0.0155202539683,3.354
-0.685042973381,-0.512036905594,-0.12529926381,-2.63478622909,-0.0668554249884,2.11219489169,-0.933390447624,-0.0508760579844,0.0103877135449,0.00108740892339,0.0117317615533,0.000267934074984,0.00138185986476,-0.0510846098123,0.573832632329,0.818936880154,0.00626444729686,0.0,0.818937380441,-0.573741510617,-0.0119579601976,0.0,-0.00619876050728,0.0119922887254,-0.999908876038,0.0,0.256265606473,-0.271364556964,0.304978925466,1.0,-0.0114688888889,-0.0150733968254,3.371
-0.685957990531,-0.511827226611,-0.125263118522,-2.63461580446,-0.0668381481296,2.11224119535,-0.934301249788,-0.0544343971513,0.0133769613197,0.00143201221028,0.0106364955477,0.00460882658902,0.000981140043913,-0.0510539837485,0.573822886443,0.818943791629,0.00625364279792,0.0,0.818944228586,-0.573731961733,-0.0119471106062,0.0,-0.00619621660478,0.0119771407668,-0.999909073366,0.0,0.256055852836,-0.271650845036,0.304982983375,1.0,-0.0110888888889,-0.014573968254,3.39
-0.686734283123,-0.511651046064,-0.125247341392,-2.6344681568,-0.0668143176345,2.11227024908,-0.935102925115,-0.0465017096389,0.0145854948414,0.00142362232008,0.00843487988436,0.00234746646097,0.000311541510421,-0.0468247585991,0.573812239752,0.818951251436,0.00625365360372,0.0,0.818951717763,-0.573721373787,-0.0119421997112,0.0,-0.00619234388348,0.0119742512664,-0.999909131963,0.0,0.255895263545,-0.271871021376,0.304988209951,1.0,-0.0107888888889,-0.0141796825397,3.405
-0.687496459607,-0.511477066153,-0.12523694319,-2.63433512153,-0.0667924831405,2.11231314144,-0.935868234105,-0.0489069712079,0.0130346797508,0.00195129741577,0.00801298818491,0.00611787875631,0.00094858908719,-0.0495552706549,0.573818482855,0.818946840781,0.0062584032304,0.0,0.818947405348,-0.5737276662,-0.0119356278356,0.0,-0.00618414469313,0.0119744174883,-0.999909180716,0.0,0.255724487749,-0.27210010769,0.30498812347,1.0,-0.0104688888889,-0.0137591111111,3.421
-0.688324608866,-0.511282009033,-0.125232000301,-2.63418998998,-0.0667698872515,2.11235096821,-0.936671468993,-0.0443994031827,0.0102219101432,5.22042755192e-05,0.00301489619179,-8.70827196928e-06,0.000181258745051,-0.041113632865,0.573852561739,0.818922895258,0.00626704951148,0.0,0.818923523622,-0.573761607226,-0.0119426728042,0.0,-0.00618445485962,0.0119857984151,-0.999909042441,0.0,0.255535803681,-0.272349128749,0.304985155242,1.0,-0.0101088888889,-0.013285968254,3.439
-0.689044355009,-0.511126754495,-0.125209699582,-2.63405569966,-0.0667460391066,2.11237324593,-0.937385704347,-0.0490819530768,0.00910629587062,0.00388486975387,0.0103816666498,0.00077544004112,-0.000210677211168,-0.0461687285057,0.573858245442,0.818918901265,0.00626850782798,0.0,0.818919582237,-0.573767348803,-0.0119370924852,0.0,-0.00617896450904,0.0119838334869,-0.999909099935,0.0,0.25537662939,-0.272562089618,0.304991077304,1.0,-0.00978888888889,-0.0128653968254,3.455
-0.689780870428,-0.510968435519,-0.125183116559,-2.63394219087,-0.0667214584724,2.11240964211,-0.938167345498,-0.0410800808231,0.00588031457197,0.000208315670637,0.00534064279034,0.00385303386412,0.000356571908202,-0.0445097951168,0.573818772588,0.818946539378,0.00627126523875,0.0,0.818947227082,-0.573727816328,-0.0119406418469,0.0,-0.00618086700827,0.011987830529,-0.999909040264,0.0,0.255211279047,-0.272774753301,0.304987724126,1.0,-0.00944888888889,-0.0124185396825,3.472
-0.690496577124,-0.510797644432,-0.125162347453,-2.63382467526,-0.0666981029194,2.1124347003,-0.938875218614,-0.0424370464596,0.00897996863058,0.00115071861766,0.00294178421901,0.000214300992628,-4.15843494319e-05,-0.0399848814507,0.573826538306,0.818941054644,0.00627693047566,0.0,0.818941664781,-0.573735263198,-0.0119642947518,0.0,-0.00619687511265,0.0120061008888,-0.999908721974,0.0,0.255048872919,-0.272982543447,0.304980457556,1.0,-0.00910888888889,-0.0119716825397,3.489
-0.691141807485,-0.510640666311,-0.125138263011,-2.63373201332,-0.0666752929114,2.11246362991,-0.939521653839,-0.0385997276605,0.0110991872022,-0.000583906074212,0.00539904066,0.000596349593967,-0.000280962199573,-0.0361119736911,0.573823099674,0.818943419088,0.00628279507311,0.0,0.818943906827,-0.573731415521,-0.0119952997256,0.0,-0.00621895459366,0.0120286684022,-0.999908313667,0.0,0.254901698426,-0.273165828424,0.30496742157,1.0,-0.00878888888889,-0.0115511111111,3.505
-0.691820637563,-0.510481540129,-0.125120800766,-2.63364226538,-0.0666480105528,2.11249716587,-0.940172672585,-0.0432249347798,0.00832074406905,-0.0013217279504,0.0043358438167,0.00080776320306,0.000453568354284,-0.033365327726,0.573849924694,0.818924522946,0.006295756328,0.0,0.818924979322,-0.573757791502,-0.0120258818751,0.0,-0.00623617039658,0.0120570356644,-0.99990786479,0.0,0.254744123267,-0.273358424632,0.304952499374,1.0,-0.00844888888889,-0.0111042539683,3.522
-0.692449232083,-0.510323960621,-0.125100228029,-2.63354902739,-0.0666236318816,2.11251062406,-0.940814703128,-0.0380360060642,0.00918528302476,0.00099132314027,0.00867791794737,0.000159021136458,0.00042115178897,-0.044547332498,0.573839682236,0.818931613427,0.00630702164532,0.0,0.81893191708,-0.573746923137,-0.0120718797231,0.0,-0.00626753034496,0.012092577771,-0.999907239511,0.0,0.254598335573,-0.273535771961,0.304938086937,1.0,-0.00810888888889,-0.0106573968254,3.539
-0.693010513712,-0.510181920275,-0.125080501983,-2.63346687317,-0.0665963648639,2.11253575639,-0.941406874185,-0.0373322942545,0.00834249024927,0.00298191609725,0.00755893879214,0.00261905332501,8.5177506873e-05,-0.0405606708527,0.573819338295,0.818945792986,0.0063168069146,0.0,0.818946041718,-0.573726187854,-0.0120991332671,0.0,-0.00628453773421,0.0121160739363,-0.99990684833,0.0,0.254461589676,-0.273706108564,0.304926793632,1.0,-0.00776888888889,-0.0102105396825,3.556
-0.693588776615,-0.510040922206,-0.125049200491,-2.63337434981,-0.0665769113671,2.1125603754,-0.941996462855,-0.0339641456665,0.0121010363667,0.0016035923816,0.00394021398121,0.00318351251895,0.00336430769376,-0.0361867891392,0.573797996117,0.818960737259,0.00631802035267,0.0,0.818960853373,-0.57370455893,-0.0121221535671,0.0,-0.00630301209527,0.0121301123073,-0.999906561842,0.0,0.254342282586,-0.273859216753,0.304917967178,1.0,-0.00744888888889,-0.00978996825398,3.572
