nelsonifechukwu/NELSON_IML_WORK/CNN-GradCAM/train2dof/data_sample_2022-02-21-07-49-54/robot_state.csv
position_joint1,position_joint2,position_joint3,position_joint4,position_joint5,position_joint6,position_joint7,velocity_joint1,velocity_joint2,velocity_joint3,velocity_joint4,velocity_joint5,velocity_joint6,velocity_joint7,ee_T_00,ee_T_10,ee_T_20,ee_T_30,ee_T_01,ee_T_11,ee_T_21,ee_T_31,ee_T_02,ee_T_12,ee_T_22,ee_T_32,ee_T_03,ee_T_13,ee_T_23,ee_T_33,v_x,v_y,time
0.465079738111,0.547518419104,-0.124005567272,-1.35572411352,0.0794183135562,1.89411535048,0.15914615059,-0.000567367760483,-0.00187054918253,-0.00648411357324,-0.000783292149741,-0.000172426301,7.3815756048e-05,-0.00162502408867,0.573774045228,0.818998857182,0.00222797176278,0.0,0.81896027379,-0.573715346117,-0.0116412406512,0.0,-0.00825610015399,0.00850422583744,-0.999929755009,0.0,0.661718891838,0.260888824373,0.303454059231,1.0,0.0,0.0,0.0
0.465079764356,0.547513402063,-0.124005940308,-1.35572415971,0.079417919258,1.89411561123,0.159142271868,-0.00036805155824,-0.00241301295045,-0.00122868311769,0.000495315114878,-6.79397136383e-05,-3.2098057301e-05,-0.00165566188717,0.573770997743,0.819000980405,0.00223229602438,0.0,0.818962458261,-0.573712288525,-0.0116382497308,0.0,-0.00825120114014,0.008506020567,-0.999929780182,0.0,0.661719166711,0.260888640691,0.303457625816,1.0,-0.00014,-0.000184,0.008
0.465076241422,0.547519410341,-0.124005646337,-1.355732277,0.0794186702712,1.8941145503,0.159153766423,-0.00188401538404,-0.00158870694134,-0.000108994295148,-0.00173311098351,0.000116087795048,0.000159131477309,0.00188642198767,0.573783739806,0.818992087409,0.00221981904669,0.0,0.81895338749,-0.573725058283,-0.0116470389916,0.0,-0.00826542609901,0.00850097358827,-0.999929705619,0.0,0.661717744888,0.260885484736,0.30344940456,1.0,-0.00034,-0.000446857142857,0.018
0.465078310226,0.54751231578,-0.124006556003,-1.35573863027,0.0794165368199,1.89411489926,0.159143797745,-0.000153886032842,-0.00127004263584,-0.000260625596282,-0.00016518650681,-0.000461033042887,0.000177957317307,-0.0013774739888,0.573774288742,0.818998708691,0.00221982929063,0.0,0.818960025278,-0.573715625163,-0.0116449706684,0.0,-0.0082638242952,0.00849969986024,-0.999929729686,0.0,0.661716334336,0.26088534415,0.303451462744,1.0,-0.00072,-0.000946285714286,0.037
0.465076752767,0.547465637699,-0.124004129482,-1.35577224476,0.0794164421684,1.8941188408,0.159148923656,-0.00308652490901,-0.00550356867546,4.93463264542e-05,-0.00364351488614,0.000295774271885,0.000317388635065,7.234831818e-05,0.573779817481,0.818994788835,0.00223692039746,0.0,0.818956288005,-0.573721050443,-0.0116405118551,0.0,-0.00825030907256,0.00851119465976,-0.999929743515,0.0,0.661710501485,0.260882594439,0.303468791415,1.0,-0.00098,-0.001288,0.05
0.465083284091,0.547326331235,-0.124001345434,-1.35592744784,0.0794136411492,1.89414511828,0.15914766114,0.00102060567837,-0.00594253686122,0.00354538018691,-0.0112754155009,-0.000390380533241,-0.000192492887096,0.000954190321691,0.573779151434,0.818995213575,0.00225220385048,0.0,0.818956800629,-0.573720214711,-0.0116456358945,0.0,-0.00824574393607,0.00852664490554,-0.999929649542,0.0,0.661681653437,0.260873262916,0.303495782156,1.0,-0.00134,-0.00176114285714,0.068
0.465067047349,0.54717415715,-0.124004129169,-1.35613206573,0.0794100591625,1.89419234547,0.159138909014,-0.000907283514534,-0.0110348241421,0.000395930878179,-0.015233070552,-8.70895878926e-05,0.000416887237418,-0.000896090793346,0.573797503569,0.818982352712,0.00225338557984,0.0,0.818943856778,-0.573738458635,-0.0116570764232,0.0,-0.00825424482533,0.00853436194102,-0.99992951357,0.0,0.661653252207,0.260841241715,0.303510364003,1.0,-0.0017,-0.00223428571429,0.086
0.465044680308,0.546993418025,-0.124004365753,-1.35634138912,0.0793999183878,1.89431201398,0.1591304704,-0.0014960034345,-0.0146767588334,-0.0010877407227,-0.00951765430269,-0.00494476143162,0.00631406451328,-0.00172946197882,0.573818294843,0.818967566741,0.00233152986563,0.0,0.818930116838,-0.573758998856,-0.0116112819393,0.0,-0.00817168440534,0.00857229107181,-0.999929867241,0.0,0.661640353174,0.260810327714,0.303549136318,1.0,-0.00204,-0.00268114285714,0.103
0.465029328525,0.54682057463,-0.124001451551,-1.35653871093,0.0793971554969,1.89442467974,0.159123750632,-0.000891321801928,-0.0170206790397,-0.000581363558406,-0.0108672654178,0.000196101908653,0.00960378699768,-0.00109267362081,0.573833803297,0.818956468012,0.0024117620665,0.0,0.818920014551,-0.573774177155,-0.0115736900034,0.0,-0.00809469733987,0.0086165806753,-0.999930112764,0.0,0.661625624674,0.260787918283,0.303587324109,1.0,-0.00234,-0.00307542857143,0.118
0.464997466737,0.546608616498,-0.124002084202,-1.35681644095,0.0793860923132,1.89454041629,0.159108401653,-0.00188229165758,-0.014118388337,-0.0001692762362,-0.0198433795142,-0.000942044880629,0.00926480198096,-0.00228468255163,0.57386039062,0.81893770238,0.00245735600913,0.0,0.818901810895,-0.57380057328,-0.0115530566608,0.0,-0.00805135640404,0.00864234128596,-0.999930240365,0.0,0.661599673647,0.260742358789,0.303615298403,1.0,-0.00268,-0.00352228571429,0.135
0.464959408199,0.546312920096,-0.124001419415,-1.35724104951,0.0793588268211,1.89469805971,0.159058046084,0.000882244617763,-0.0190657533679,0.00146541512846,-0.0259140809598,-0.000195176425218,0.00392995143845,-0.0127622505363,0.573866334606,0.818933464466,0.00248146828984,0.0,0.818897894885,-0.573806444677,-0.0115390077756,0.0,-0.00802595164167,0.00865408387391,-0.99993034304,0.0,0.661552802896,0.26067733402,0.303636213294,1.0,-0.00306,-0.00402171428571,0.154
0.464915441465,0.546036178874,-0.124004218998,-1.35767233877,0.0793296938773,1.89485739531,0.158926893394,-0.00565336493774,-0.0207662586109,0.000156390922965,-0.0258950519333,0.0005472181967,0.0114282447369,-0.00488853103133,0.573813284591,0.818970629499,0.00248381688826,0.0,0.818935120415,-0.573753425632,-0.011533517588,0.0,-0.00802066813381,0.00865233707683,-0.999930400551,0.0,0.661506646751,0.260605166482,0.303640763296,1.0,-0.0034,-0.00446857142857,0.171
0.464874186644,0.545757840332,-0.124007078208,-1.35813695673,0.0792900817302,1.89501418786,0.1589133272,-0.00409955897889,-0.0213058097042,-0.00104819058606,-0.0334019954054,-0.000599341537739,0.0167903955338,0.00051432651811,0.573853364208,0.818942645282,0.00245092344607,0.0,0.818906804593,-0.573793713613,-0.011539779515,0.0,-0.00804424797283,0.00862938532686,-0.99993040947,0.0,0.661452235492,0.260528952385,0.303630321741,1.0,-0.00372,-0.00488914285714,0.187
0.464818404204,0.545428965814,-0.124010273495,-1.35870219298,0.0792571302765,1.89519976865,0.158849502837,-0.00183723667414,-0.021678450131,-0.000427500367597,-0.0383970763131,0.00022685207633,0.00962690828679,-0.00115895676315,0.573871762536,0.818929882554,0.00240718192197,0.0,0.818893448247,-0.573812231202,-0.0115667905149,0.0,-0.00809127575043,0.00860924571895,-0.999930203637,0.0,0.661385239328,0.260434689444,0.303610269425,1.0,-0.00406,-0.005336,0.204
0.464753213536,0.545036201609,-0.124010180056,-1.35937503576,0.0792254790322,1.89542053896,0.158742823295,1.81937939866e-05,-0.0269932653534,7.46406270099e-05,-0.038625268319,-0.00252496288911,0.011898212758,-0.00055512601653,0.573866778557,0.818933507718,0.00236163195468,0.0,0.818896363126,-0.573807280371,-0.0116059619662,0.0,-0.00814954643832,0.00859437329266,-0.99992985836,0.0,0.661303784633,0.260326777963,0.303587149566,1.0,-0.00442,-0.00580914285714,0.222
0.464700634851,0.544683154835,-0.124008473805,-1.35998738312,0.0791968480629,1.89562088594,0.158685638624,0.000455597974235,-0.0273384391157,0.00100139205463,-0.0400849005984,-0.00336046850452,0.0103823723224,-0.000403373595913,0.573888280317,0.818918570633,0.00231587754992,0.0,0.818880715233,-0.573828819929,-0.0116450221163,0.0,-0.00820756560599,0.00857953436369,-0.999929511244,0.0,0.661227213517,0.260233907549,0.303562860468,1.0,-0.00472,-0.00620342857143,0.237
0.464640420243,0.544311795005,-0.124017310205,-1.3606389614,0.0791595706777,1.89583367373,0.158596988104,-0.00490763038635,-0.0249601920655,0.00125214758667,-0.0398561972571,-0.00312956527928,0.00967375307169,-0.00686487927245,0.5738975078,0.818912268339,0.00225703467012,0.0,0.81887363194,-0.573838243064,-0.0116787247894,0.0,-0.00826883739973,0.00855078185772,-0.999929252726,0.0,0.661149405841,0.260124913554,0.303534244915,1.0,-0.00502,-0.00659771428571,0.252
0.464574885857,0.543834788685,-0.12402571509,-1.36141259717,0.0791249427375,1.89610406916,0.158511732261,-0.00212772492544,-0.0301376961472,-0.0006595491673,-0.0455849501578,-0.00018439058012,0.0152629582602,-0.00635800749353,0.573921074442,0.818895801994,0.00223890358913,0.0,0.818856839229,-0.573861780123,-0.0116996180552,0.0,-0.00829610663694,0.00854816345979,-0.999929049241,0.0,0.661058848581,0.260003897664,0.303527250549,1.0,-0.00536,-0.00704457142857,0.269
0.464502906536,0.543333028195,-0.124024522039,-1.36223850967,0.0790704832286,1.8963967967,0.158398647347,-0.00622279710143,-0.0240387051792,0.000503887517976,-0.0501049737718,-0.00612135589877,0.0194004567641,-0.00431329555172,0.57391803461,0.818898012669,0.00220936579977,0.0,0.818858675709,-0.573858860841,-0.0117142627556,0.0,-0.00832508263304,0.00853234928473,-0.999928943483,0.0,0.660961839792,0.259876612722,0.30351442399,1.0,-0.0057,-0.00749142857143,0.286
0.464433948127,0.54279882358,-0.12403541391,-1.36311098122,0.0790284799366,1.89670563989,0.158284278309,-0.0007280094331,-0.0270735805942,-0.00143609396005,-0.0537783426118,-0.00194404989729,0.0247791477357,-0.00548111651253,0.573925785082,0.818892640661,0.00218705068588,0.0,0.818852945824,-0.573866625117,-0.0117344191664,0.0,-0.00835431494821,0.00852572277596,-0.999928756199,0.0,0.660859343707,0.259742336921,0.303504151235,1.0,-0.00604,-0.00793828571429,0.303
0.464361502213,0.542248894574,-0.124032809813,-1.3639569995,0.0789765250241,1.89700243251,0.158181824684,-0.00397914334705,-0.0277915657906,-0.00157411691024,-0.052265782406,-0.001494297322,0.0157162883712,-0.00361636166251,0.573932436971,0.818887975344,0.00218827142721,0.0,0.818848263272,-0.573873237779,-0.0117377850868,0.0,-0.00835630154039,0.00852872206158,-0.999928714021,0.0,0.660759191101,0.259614504433,0.303516012661,1.0,-0.00636,-0.00835885714286,0.319
0.46429200085,0.541637808633,-0.124038551216,-1.36489659411,0.0789110112248,1.89734874194,0.158055865716,-0.00810050048552,-0.037371980813,-0.000513644745706,-0.0527651447221,-0.00185200376635,0.0223583090733,-0.00621398669828,0.573924898651,0.818893234881,0.00219715166656,0.0,0.818853732641,-0.573865763259,-0.0117216551933,0.0,-0.00833807455506,0.00852665977682,-0.999928883764,0.0,0.660650724253,0.259474650088,0.303531060656,1.0,-0.0067,-0.00880571428571,0.336
0.464191061104,0.540923708945,-0.124031506978,-1.36600057271,0.0788557912119,1.89775998632,0.1579091704,-0.00504317782923,-0.0415748525814,9.4603367097e-05,-0.0656196572838,-0.000678523611875,0.0194866223623,-0.0119869722241,0.573928995871,0.81889029338,0.0022230626385,0.0,0.818850984924,-0.573869615952,-0.0117249851576,0.0,-0.00832588873215,0.00854983059992,-0.999928787451,0.0,0.660524477916,0.259309356255,0.303545844741,1.0,-0.00708,-0.00930514285714,0.355
0.464109558834,0.540258412401,-0.124039273439,-1.36699709613,0.0787911874254,1.8981276226,0.15777803172,-0.00333474281002,-0.0454058608034,-0.000955935155894,-0.0671096351819,-0.000996831544155,0.0171398195675,-0.00514989300086,0.573931688791,0.818888332005,0.00225015729409,0.0,0.818849441886,-0.573872275479,-0.0117025578871,0.0,-0.00829194486745,0.00855917364635,-0.999928989577,0.0,0.660411731409,0.259155965046,0.303573846019,1.0,-0.0074,-0.00972571428571,0.371
0.463997264187,0.53949431896,-0.124039273883,-1.36816842647,0.078719221445,1.89856983343,0.157636528747,-0.00860839705885,-0.0409388972105,-0.00028007139299,-0.0654711735574,-0.000427056899775,0.0232825553822,-0.00284817160339,0.57395338161,0.818873048864,0.00227870222481,0.0,0.818834541669,-0.573893872615,-0.0116860277513,0.0,-0.0082617989947,0.0085732802995,-0.999929118259,0.0,0.660282486897,0.258971167518,0.303594566508,1.0,-0.00776,-0.0101988571429,0.389
0.463913652375,0.538879625953,-0.124044975457,-1.36910773962,0.0786676980756,1.89892746993,0.157508045226,-0.00734327886405,-0.0423663540596,-6.19853612489e-05,-0.0651055052296,-0.00154035326329,0.0274653736933,-0.0136578566804,0.573958822508,0.818869153331,0.00230796220756,0.0,0.818831011417,-0.573899190323,-0.0116722315789,0.0,-0.00823365127155,0.00858937669389,-0.999929212292,0.0,0.660178614044,0.258825159449,0.303612927019,1.0,-0.00804,-0.0105668571429,0.403
0.463800610415,0.538108926863,-0.124051250017,-1.37031279534,0.078601414661,1.89939707344,0.157373686083,-0.00519158240256,-0.0430548696967,-0.000921390884987,-0.0716677645209,-0.00140444140554,0.0304829817975,-0.0061965176326,0.573994727301,0.818843899841,0.00233829544427,0.0,0.818806145377,-0.573934973908,-0.0116571402771,0.0,-0.00820350661365,0.00860591342446,-0.999929317869,0.0,0.660048075526,0.258635111351,0.303624624872,1.0,-0.00838,-0.0110137142857,0.42
0.463691579247,0.537319751728,-0.124060260806,-1.37155886467,0.0785153705717,1.89986091725,0.157215845516,-0.00853374138719,-0.0452889121468,-0.00107611621976,-0.0716176740948,-0.00547493946097,0.0315478328158,-0.0103206325294,0.574006768364,0.818835467965,0.00233520358602,0.0,0.818797800068,-0.573947157555,-0.0116434461947,0.0,-0.00819394101185,0.00859564197455,-0.999929484649,0.0,0.659907795107,0.258437932293,0.303629267769,1.0,-0.00872,-0.0114605714286,0.437
0.463577774357,0.536488315199,-0.124058508771,-1.37286066243,0.0784580990862,1.90034420895,0.157057807177,-0.00437034656942,-0.0500413013138,0.000774642796458,-0.0747626260764,-0.00628821978537,0.0240690860071,-0.00317333241916,0.574025677084,0.818822148006,0.00235772850215,0.0,0.818784566984,-0.573965766937,-0.0116566785771,0.0,-0.00819164885778,0.00862187052119,-0.999929277618,0.0,0.659756482388,0.258243766632,0.303638467378,1.0,-0.00906,-0.0119074285714,0.454
0.463473390176,0.535678047181,-0.124072959645,-1.37412326319,0.0783640208325,1.90080705068,0.156897391817,-0.00975124399083,-0.0452716250056,0.000664830436354,-0.0832604648485,-0.0081344983653,0.0273153819398,-0.0149373691096,0.574035423968,0.818815310712,0.0023592103877,0.0,0.818777959383,-0.573975728954,-0.0116302494165,0.0,-0.00816905406719,0.00860801035251,-0.999929581877,0.0,0.659602686105,0.25803379984,0.303653382588,1.0,-0.0094,-0.0123542857143,0.471
0.463360085071,0.534786824738,-0.124068452921,-1.37553112583,0.0782981833814,1.90131431968,0.156731920854,-0.00560516640324,-0.0477379763925,0.00113169200609,-0.0819009454588,-0.00407267813267,0.0233822754536,-0.0130524036464,0.574047762756,0.818806668292,0.0023564671388,0.0,0.818769052118,-0.573987834681,-0.0116598384734,0.0,-0.00819472779666,0.00862287257238,-0.999929243749,0.0,0.659442176066,0.257839713243,0.303652483913,1.0,-0.00972,-0.0127748571429,0.487
0.463218462903,0.533780682393,-0.124076928346,-1.37716423511,0.0782003679157,1.9019097414,0.156519680353,-0.0089823278018,-0.0566657149076,-0.00012654559219,-0.0902810624871,-0.00869247060399,0.0358154686157,-0.0131083045308,0.574059146863,0.818798771871,0.00232679749175,0.0,0.818760769265,-0.573999323695,-0.0116758730598,0.0,-0.00822476868756,0.00860789796059,-0.999929126125,0.0,0.659251614292,0.257585347936,0.303636756673,1.0,-0.0101,-0.0132742857143,0.506
0.46310112178,0.532927371987,-0.124074688828,-1.37856291306,0.0781167709378,1.90244884271,0.156352371774,-0.0124969032936,-0.0552972317986,-0.000154589048119,-0.0881061326949,-0.0045329424653,0.0366317996685,-0.00899058580206,0.574070923447,0.818790534966,0.00231982850606,0.0,0.818752431508,-0.574011113431,-0.0116809443022,0.0,-0.00823279779727,0.00860522138951,-0.999929083088,0.0,0.659090440552,0.257377526716,0.303619414414,1.0,-0.01042,-0.0136948571429,0.522
0.462968699791,0.531951977169,-0.124077531043,-1.38011463052,0.0780421731544,1.90302521141,0.156154494547,-0.00519799548701,-0.053489043499,-0.000264480120971,-0.0940540560599,-0.00894274928651,0.0342377081802,-0.0142640623458,0.574084098685,0.818781272206,0.0023286956988,0.0,0.818743112069,-0.574024074864,-0.0116972140578,0.0,-0.00824089107602,0.0086219541523,-0.999928872281,0.0,0.658908440928,0.257144249319,0.303618534184,1.0,-0.01076,-0.0141417142857,0.539
0.462857101322,0.5310736879,-0.124077357973,-1.38151910378,0.0779461487518,1.90352767989,0.155987772722,-0.00644560975541,-0.0601642865962,-0.000439016007327,-0.0995897204272,-0.0026112247451,0.0324504802649,-0.011732318305,0.574086957076,0.818779363105,0.00229503150303,0.0,0.818740854263,-0.574027149364,-0.0117043690447,0.0,-0.00826604458755,0.008598527211,-0.999928866388,0.0,0.65872607417,0.256919659934,0.303608871412,1.0,-0.01108,-0.0145622857143,0.555
0.462718062202,0.530046887907,-0.124074810571,-1.38315228478,0.0778430612231,1.90409970345,0.155761355419,-0.0108170453394,-0.0625720472724,0.000867880436429,-0.0968339691878,-0.00811240759667,0.0336825394226,-0.012651797305,0.574077018953,0.818786396576,0.00227156181003,0.0,0.818747505337,-0.57401721933,-0.0117260956375,0.0,-0.0082974117501,0.00859168300924,-0.999928665426,0.0,0.658538904883,0.256685904438,0.303608088915,1.0,-0.0114,-0.0149828571429,0.571
0.46257495163,0.529012250132,-0.124080916885,-1.38479949674,0.077743963526,1.90471131923,0.15554613742,-0.00588183150683,-0.0621422953482,6.63588436407e-05,-0.0984388572584,-0.00455916457254,0.0381455195908,-0.0139080796572,0.574085085653,0.81878074913,0.00226852057197,0.0,0.818741820765,-0.574025298891,-0.0117274918548,0.0,-0.00830021617183,0.0085900762151,-0.999928655956,0.0,0.658346759848,0.256431654096,0.303605975134,1.0,-0.01174,-0.0154297142857,0.588
0.462438893836,0.527920623527,-0.124078060628,-1.38650538091,0.077636937798,1.90537129284,0.155317667066,-0.000400207874015,-0.0614524367186,8.94246003102e-05,-0.101278415804,-0.000373914843876,0.0401347170706,-0.00919961035031,0.574071162215,0.818790411079,0.00230441722884,0.0,0.818751981003,-0.574011276833,-0.0117044681233,0.0,-0.00826090383822,0.00860610948407,-0.999928843642,0.0,0.65814814538,0.256183060975,0.303619699903,1.0,-0.01208,-0.0158765714286,0.605
0.462300146038,0.526845476664,-0.124080901333,-1.38816091864,0.0775333167892,1.90601009244,0.155070953131,-0.00945946155215,-0.065098909875,-4.73511276972e-05,-0.108892291776,-0.000202615530142,0.0383524400067,-0.0227417485967,0.574046466043,0.818807593619,0.002350820273,0.0,0.818769817983,-0.573986467977,-0.0116733303057,0.0,-0.00820903052104,0.00862598077283,-0.999929099623,0.0,0.65795796866,0.255934284985,0.303643863056,1.0,-0.0124,-0.0162971428571,0.621
0.462135307215,0.525609967782,-0.124084258797,-1.39009126558,0.0774040008604,1.90671171193,0.154833506049,-0.011307662155,-0.0701210239825,-0.00181548238059,-0.108728206427,-0.0076839550964,0.0395212851581,-0.0120412465449,0.574058493346,0.818799167101,0.00234884501103,0.0,0.818761445015,-0.573998584176,-0.011664837023,0.0,-0.00820308306276,0.00861960845604,-0.999929203383,0.0,0.657727766427,0.255637705794,0.30365521231,1.0,-0.01276,-0.0167702857143,0.639
0.461984150444,0.524515822514,-0.124091849559,-1.39182843297,0.0772874791133,1.90733510247,0.154582721472,-0.0116909530925,-0.0729979380416,0.00100777806253,-0.10965156589,-0.0114215871376,0.0419552849634,-0.0156329222881,0.574044185403,0.818809268165,0.00232432204973,0.0,0.818771305712,-0.573984448737,-0.0116682668868,0.0,-0.00822011862266,0.00860135456236,-0.99992922067,0.0,0.657519743337,0.25536554152,0.303652135376,1.0,-0.01308,-0.0171908571429,0.655
0.461837703164,0.523331854268,-0.124099324085,-1.39372031532,0.0771650351601,1.90801287726,0.154329018598,-0.00807534931265,-0.0698711766826,-0.000456906239468,-0.109252555027,-0.0091430515659,0.0388752174507,-0.0160979258672,0.574030042133,0.818819273211,0.00229247647634,0.0,0.818780937601,-0.573970465562,-0.0116802304984,0.0,-0.00824834286337,0.00858200447403,-0.99992915451,0.0,0.657287103354,0.255082125627,0.303643010402,1.0,-0.01342,-0.0176377142857,0.672
0.461677301197,0.522121659355,-0.124094015752,-1.39567408211,0.0770559452837,1.90876770563,0.154072893918,-0.0129910091561,-0.070862236758,0.00187606950214,-0.114415480436,-0.00422737850783,0.0466074068848,-0.00791340840737,0.57402342255,0.818823876972,0.00230559446092,0.0,0.818785612099,-0.573963694938,-0.0116852562298,0.0,-0.00824499803545,0.0085955638376,-0.999929065629,0.0,0.657055273416,0.254797345272,0.303628867722,1.0,-0.01376,-0.0180845714286,0.689
0.4615173005,0.520877702231,-0.124104995393,-1.39766747709,0.0769273345598,1.90953898718,0.153785845892,-0.00946288840862,-0.0753467339288,-0.00127596004941,-0.116190812835,-0.0100761526286,0.0444780545876,-0.0179288614438,0.57399916669,0.818840854459,0.00231486702147,0.0,0.818802834471,-0.573939538109,-0.0116649800048,0.0,-0.00822332680983,0.00859127388947,-0.999929280954,0.0,0.656822273894,0.254497100377,0.303621161655,1.0,-0.0141,-0.0185314285714,0.706
0.461346022482,0.519583302072,-0.124108199486,-1.3997205257,0.0768073143253,1.91028480004,0.153515234835,-0.0128822555602,-0.0803168691864,-0.000487112010855,-0.12350220865,-0.00134497817296,0.0415197793371,-0.0152260490535,0.573997034755,0.818842375588,0.00230541417382,0.0,0.81880415339,-0.573937357973,-0.0116796581651,0.0,-0.00824079437887,0.00859193727597,-0.99992913145,0.0,0.656571356281,0.254187289379,0.303617670069,1.0,-0.01444,-0.0189782857143,0.723
0.461186935391,0.518321418693,-0.124106302508,-1.40167595231,0.0766686645909,1.91098633848,0.153251384842,-0.00820162748978,-0.0757949859093,0.00135229402018,-0.1239626187,-0.0147499351309,0.053296438339,-0.00817691830773,0.573976017537,0.818857115763,0.00230264146087,0.0,0.818818958459,-0.573916458648,-0.0116687043815,0.0,-0.00823363630475,0.00858316820596,-0.999929265727,0.0,0.656329863531,0.253893695097,0.303633369054,1.0,-0.01476,-0.0193988571429,0.739
0.460986389393,0.516808835445,-0.124108780779,-1.40404680984,0.0765184133128,1.91184445148,0.15292341668,-0.0125747935699,-0.0771202358281,0.000992859694208,-0.124335227851,-0.0100581784116,0.046367101628,-0.017877169479,0.573958258667,0.818869573794,0.00229898291995,0.0,0.818831365438,-0.573898711603,-0.0116709338833,0.0,-0.00823774792122,0.00858127342825,-0.999929248125,0.0,0.656039284087,0.253533113339,0.303640582117,1.0,-0.01514,-0.0198982857143,0.758
0.460808182707,0.515538705475,-0.124112090666,-1.40608787018,0.0763889597962,1.91261857058,0.152638035579,-0.00897477303485,-0.0796189964497,0.000531881649303,-0.133108185579,-0.0113528670196,0.0545537039541,-0.00885956849292,0.573945814329,0.818878304528,0.0022959722018,0.0,0.818840103444,-0.573886328061,-0.0116668057661,0.0,-0.00823622564162,0.00857631357187,-0.999929303217,0.0,0.655796254516,0.25322034611,0.303627057837,1.0,-0.01546,-0.0203188571429,0.774
0.46063551475,0.514226470864,-0.124119923483,-1.40818210666,0.0762679788338,1.91338032254,0.152356608232,-0.0119356484759,-0.0798730704628,0.00135163694415,-0.135905140583,-0.00617069934999,0.0428215255424,-0.0187238210848,0.573936679602,0.818884758771,0.00227740221486,0.0,0.818846196566,-0.573877137888,-0.0116911881339,0.0,-0.00826694587421,0.00857500893535,-0.999929060898,0.0,0.655519718832,0.252886722686,0.303614267699,1.0,-0.0158,-0.0207657142857,0.791
0.460431786045,0.512734543957,-0.124115897703,-1.41058836429,0.0761259043603,1.91420846852,0.152023217196,-0.0110349575198,-0.0839352027253,0.00102213041848,-0.133124805282,-0.00748754356623,0.0406848045127,-0.0177949147956,0.573918568308,0.818897633273,0.00221135092917,0.0,0.818858063355,-0.573859121864,-0.0117442425241,0.0,-0.00834848923953,0.0085511860314,-0.999928587423,0.0,0.65522832335,0.252539594377,0.303588200763,1.0,-0.01614,-0.0212125714286,0.808
0.460256782718,0.511503759936,-0.124124180796,-1.41260869262,0.0759997178087,1.91495363837,0.151739190943,-0.0133331533908,-0.0801635656377,-0.000342530441794,-0.137259317465,-0.0105738778377,0.0502368515317,-0.0194683207035,0.573906919139,0.818905912607,0.00216826261523,0.0,0.818865799823,-0.573847656286,-0.0117650395773,0.0,-0.00839036959258,0.00852771790301,-0.999928437302,0.0,0.654981230133,0.252226730435,0.303553515389,1.0,-0.01644,-0.0216068571429,0.823
0.460057457111,0.510031837895,-0.124124776984,-1.41492656636,0.0758613117839,1.91583730799,0.151413190482,-0.0152037776427,-0.0833177218871,-0.000809872917859,-0.134393489172,-0.00748503421651,0.0508533322068,-0.0198208357543,0.573887395341,0.818919509672,0.00220023813908,0.0,0.818879777488,-0.573827976745,-0.0117520222777,0.0,-0.0083615631076,0.00854623251414,-0.999928520531,0.0,0.654701479957,0.251877722875,0.303557352966,1.0,-0.01678,-0.0220537142857,0.84
0.459860844892,0.508531027336,-0.1241245287,-1.41729463989,0.07570304222,1.91669196268,0.151088895839,-0.0132082097291,-0.0874711296645,0.00168557583285,-0.135514044023,-0.0115992361409,0.0536165597169,-0.0186525570459,0.573862776744,0.818936809446,0.00218231610782,0.0,0.818896885609,-0.573803471765,-0.0117564208732,0.0,-0.00837570649955,0.00853382849361,-0.9999285081,0.0,0.654403941667,0.251520405673,0.303554437289,1.0,-0.01712,-0.0225005714286,0.857
0.459625420268,0.506836322277,-0.1241255327,-1.41997271824,0.0755361873322,1.91766539323,0.150700686354,-0.00894505316355,-0.0880827250478,0.00115932142625,-0.13991080026,-0.00486349365348,0.0643200905907,-0.0180372379922,0.573831956745,0.818958432598,0.00217209471923,0.0,0.818918327595,-0.573772645609,-0.011767360798,0.0,-0.00839085237126,0.00853142010354,-0.999928401671,0.0,0.654070520235,0.251109464053,0.303549388989,1.0,-0.0175,-0.023,0.876
0.459400280106,0.505239042008,-0.124133757532,-1.42242695038,0.0753780772365,1.91859415314,0.150383643466,-0.0151899198236,-0.0927686729097,-0.000473357291241,-0.143672237477,-0.00196866565663,0.0532919173912,-0.0124581907379,0.573846564903,0.818948051599,0.00222612511928,0.0,0.818908741225,-0.573787140715,-0.0117276423855,0.0,-0.00832716823817,0.0085530252888,-0.999928749475,0.0,0.653776667331,0.250724739828,0.303578433506,1.0,-0.01784,-0.0234468571429,0.893
0.459220262375,0.503870816086,-0.124134536409,-1.42447343726,0.0752437920762,1.91938463829,0.150095068716,-0.0125179540325,-0.109931608844,-0.00107143131394,-0.147339469984,-0.0123482930912,0.0598097605602,-0.0209907366135,0.573827243956,0.818961339506,0.00231633121576,0.0,0.818923291553,-0.573767582043,-0.0116683867746,0.0,-0.00822708029874,0.00859270124396,-0.999929237814,0.0,0.653531819933,0.250413752221,0.303628708993,1.0,-0.01812,-0.0238148571429,0.907
0.458984849108,0.502194177505,-0.124140738976,-1.42695595269,0.0750859198392,1.92032334982,0.149738484479,-0.0136409270768,-0.102522506066,0.00104913144743,-0.144082334991,-0.0124846035314,0.0588787398444,-0.0293507919579,0.573817017273,0.818968187471,0.00242600479704,0.0,0.8189316258,-0.573757031584,-0.0116020633835,0.0,-0.00810993965065,0.0086443598883,-0.999929749493,0.0,0.653235406172,0.250022057897,0.303699301262,1.0,-0.01846,-0.0242617142857,0.924
0.458752954727,0.500477821586,-0.124144151418,-1.42953365862,0.0749242518953,1.92122091779,0.149396662083,-0.0181485408529,-0.105679203712,-4.62018192322e-05,-0.157267567641,-0.0102736868824,0.0501645764539,-0.0258544521571,0.573816946614,0.818968141728,0.00245794925669,0.0,0.818931921773,-0.573756771984,-0.0115940072674,0.0,-0.00808501321726,0.00866589780297,-0.999929764922,0.0,0.652906456417,0.249620350852,0.303748009893,1.0,-0.0188,-0.0247085714286,0.941
0.458505112838,0.498786602418,-0.124149747818,-1.43213438984,0.0747574028172,1.92218524364,0.149015722344,-0.0180842294847,-0.102097699114,-0.00289742775842,-0.154655818981,-0.0114059710378,0.0612469977343,-0.0238444315433,0.573799158591,0.818980477888,0.00249986790168,0.0,0.818944839699,-0.573738882898,-0.0115667922633,0.0,-0.00803886041107,0.00868443678858,-0.999929976189,0.0,0.652588234261,0.249207620856,0.303773485232,1.0,-0.01914,-0.0251554285714,0.958
0.458265093319,0.497215804751,-0.124147245428,-1.43462997098,0.0746055094604,1.92310724139,0.148648821559,-0.016213571748,-0.0985590268444,-8.44725006942e-05,-0.156232238849,-0.00454154535103,0.061271928147,-0.0206837037799,0.573779093049,0.818994541026,0.00249820949698,0.0,0.81895880207,-0.573718739903,-0.0115773441249,0.0,-0.00804866699499,0.00868893595778,-0.999929858216,0.0,0.65227807064,0.248815277056,0.303760616563,1.0,-0.01946,-0.025576,0.974
0.457997134065,0.495541414536,-0.124148041783,-1.43733564542,0.0744352423195,1.9240342883,0.148255992803,-0.0138071658647,-0.0989898393609,-0.000441703741362,-0.164256637132,-0.00374647004808,0.0520944677842,-0.0249786118545,0.573767718013,0.819002824106,0.00239306769886,0.0,0.818965565827,-0.573707569099,-0.0116522122525,0.0,-0.00817043099579,0.00864566973191,-0.999929245723,0.0,0.651906739964,0.248349289477,0.303710379834,1.0,-0.01982,-0.0260491428571,0.992
0.457727702356,0.493877160043,-0.124147930215,-1.44008056406,0.0742543001534,1.92499751469,0.147877195478,-0.0123135882874,-0.0956026840564,0.000209441456271,-0.163164609954,-0.0145728442439,0.0523210741073,-0.0300007449375,0.573767001848,0.819003585856,0.00230235656671,0.0,0.818965139333,-0.573707172252,-0.0117016223621,0.0,-0.00826295128694,0.00859972011719,-0.999928881696,0.0,0.651575377983,0.247934179251,0.30365603502,1.0,-0.02038,-0.0267851428571,1.008
0.45743681931,0.492106071896,-0.124153667437,-1.44292416301,0.0740734633509,1.92605096722,0.147474358172,-0.0131761835349,-0.103987619525,-0.000800909088257,-0.164431610703,-0.00873054642039,0.0551068530001,-0.019154423734,0.573773150712,0.81899934003,0.00228023100471,0.0,0.818960615436,-0.573713412094,-0.0117123033297,0.0,-0.00828432908616,0.00858778991208,-0.999928807344,0.0,0.651224631811,0.247469931272,0.303626825036,1.0,-0.0213514285714,-0.028061877551,1.025
0.457146109106,0.4902877891,-0.124156138795,-1.44590709082,0.0738776694435,1.92709138258,0.147045425991,-0.0140998314858,-0.106025362622,0.000936222934827,-0.174127455754,-0.0174026651217,0.060623855917,-0.0194886195679,0.573757253676,0.819010781598,0.00216803634336,0.0,0.818970545274,-0.573697887529,-0.0117782307397,0.0,-0.00840286187481,0.00853356752628,-0.999928282497,0.0,0.650837124188,0.246988860638,0.303562246294,1.0,-0.0223228571429,-0.0293386122449,1.042
0.456807719584,0.48820953702,-0.124170214857,-1.44917682136,0.0736774723518,1.92828737131,0.146586398658,-0.015757656071,-0.118508581119,-0.00252865060209,-0.185248973995,-0.00856406161034,0.0671008642914,-0.027308534653,0.573773592335,0.818999365366,0.00215665716642,0.0,0.818958944357,-0.57371423102,-0.011788786378,0.0,-0.00841786572421,0.00853047222374,-0.999928182711,0.0,0.650451447238,0.24647617782,0.303549664481,1.0,-0.0232942857143,-0.0306153469388,1.059
0.456483542609,0.486250723893,-0.124180629841,-1.45215965752,0.073490692116,1.92945787597,0.146144013882,-0.0212417868547,-0.124902559612,-0.000196918665866,-0.180019461666,-0.0111580913051,0.0748561995831,-0.0327961008602,0.573785039628,0.818990986876,0.00228880230245,0.0,0.818952375254,-0.573725269393,-0.0117076568028,0.0,-0.00827548101006,0.00859226383235,-0.999928842176,0.0,0.650079135576,0.245953968924,0.303597428969,1.0,-0.0242657142857,-0.0318920816327,1.076
0.456150904646,0.484214455033,-0.124207108158,-1.45525183402,0.073303563426,1.93055854316,0.1456784949,-0.0201365960223,-0.123915167284,-0.000587792679849,-0.20089495965,-0.00791144982324,0.0641468630194,-0.0298855136601,0.573794779166,0.818984072636,0.00232100667092,0.0,0.818945836743,-0.573734844451,-0.0116957960575,0.0,-0.00824718707045,0.00861193127252,-0.999928906745,0.0,0.649667236658,0.245391995474,0.303634356923,1.0,-0.0252371428571,-0.0331688163265,1.093
0.45571606333,0.481596836974,-0.124246602745,-1.45931048559,0.0730398877933,1.93193894947,0.145066429186,-0.0206258398788,-0.132420257282,-0.000621976064729,-0.203593766349,-0.0135167856157,0.0714656761425,-0.0360925533542,0.573806652585,0.818975906458,0.00226649331198,0.0,0.81893697409,-0.573746930772,-0.0117234295386,0.0,-0.00830097257124,0.00858326228947,-0.99992870819,0.0,0.649170790801,0.244727279506,0.303640038563,1.0,-0.0263228571429,-0.034595755102,1.112
0.455367393887,0.479559785827,-0.124255931701,-1.4624396412,0.0728520625536,1.93312618003,0.14459642866,-0.0251007298497,-0.140153815454,-0.000193656204193,-0.209800943569,-0.00762213149667,0.0758732680417,-0.0296614283798,0.573816020957,0.818969111554,0.00234847063902,0.0,0.818931202876,-0.573755952165,-0.0116849994904,0.0,-0.00822236294951,0.00862844192204,-0.999928968846,0.0,0.64878908398,0.244202146268,0.30366571015,1.0,-0.02718,-0.0357222857143,1.127
0.45496263615,0.477181730632,-0.124268358114,-1.46607038213,0.072625899893,1.93443931861,0.144083020233,-0.0241267256196,-0.141786058299,0.0010821218023,-0.212492929952,-0.011339275322,0.0733555433154,-0.0283571683367,0.573850595808,0.818944737453,0.00239949787022,0.0,0.818907432342,-0.573790275636,-0.011665493643,0.0,-0.00817674351207,0.00865938383724,-0.999929075453,0.0,0.648332296788,0.243586761923,0.303698700757,1.0,-0.0281514285714,-0.0369990204082,1.144
0.454594425269,0.475035738344,-0.124281184089,-1.46939506067,0.0724165130484,1.93566681917,0.143610471902,-0.0232817925749,-0.142148150574,-0.000715227562131,-0.226718536207,-0.0111657126589,0.0870628816156,-0.0394294209483,0.573878053499,0.81892538519,0.00243723299085,0.0,0.818888568629,-0.573817593622,-0.011645957249,0.0,-0.00813879955325,0.00867934861683,-0.999929211919,0.0,0.647915989939,0.243025131138,0.30370820039,1.0,-0.0290085714286,-0.0381255510204,1.159
0.454165096087,0.472522328284,-0.124284661012,-1.47328701153,0.0721602299715,1.93699216543,0.143046181976,-0.0271237028894,-0.143314727868,-0.000902515844588,-0.230803755152,-0.0135627906464,0.0744790490198,-0.0280197399183,0.573886210123,0.818919808947,0.00238982136176,0.0,0.818882255122,-0.573825790333,-0.0116859529518,0.0,-0.00819867507691,0.00866355635756,-0.999928859729,0.0,0.647401393231,0.242366949376,0.303708752511,1.0,-0.02998,-0.0394022857143,1.176
0.453736133049,0.469952204612,-0.124281511946,-1.47722960496,0.0719159841811,1.93846475354,0.142431133276,-0.0230285394336,-0.151516854275,-0.00141484833366,-0.239245514358,-0.0133193816463,0.0810822911553,-0.0366314774024,0.573853399683,0.818942540169,0.00247759477285,0.0,0.818906028074,-0.573792564903,-0.0116514611798,0.0,-0.00812040809877,0.00871531570074,-0.999929048605,0.0,0.646900359179,0.241719543684,0.303735440228,1.0,-0.0309514285714,-0.0406790204082,1.193
0.453282755552,0.467290882578,-0.124276865969,-1.48127424499,0.0716423646017,1.9400040701,0.141774841366,-0.0262696574513,-0.156446715989,0.000442775986316,-0.243824046492,-0.0196577543383,0.0868332568509,-0.0352469011417,0.573800869579,0.818978967153,0.00260006408388,0.0,0.818944173243,-0.573739758142,-0.0115705634756,0.0,-0.00798444171125,0.00876867553957,-0.999929677037,0.0,0.646393972863,0.241046587579,0.303780560854,1.0,-0.0319228571429,-0.041955755102,1.21
0.452833393827,0.46470777362,-0.124282301593,-1.48527555142,0.0713630697408,1.9413319261,0.141177791306,-0.0266863597148,-0.165445972419,0.000548114911051,-0.257236712618,-0.016073250538,0.0758973757493,-0.033749207121,0.573794704076,0.818983554208,0.00251444081452,0.0,0.818947598925,-0.573733831788,-0.0116218491617,0.0,-0.00807563905071,0.00872791880775,-0.999929301244,0.0,0.645852569577,0.240360267301,0.303772795642,1.0,-0.0328371428571,-0.0431573877551,1.226
0.452310726194,0.461778581114,-0.124285505433,-1.48991492304,0.0710538230127,1.94298001624,0.140490612125,-0.030837468425,-0.167719220149,0.000706933512253,-0.259679178052,-0.0252648376843,0.091981460414,-0.0446864760695,0.573794490084,0.818983889229,0.00245341247499,0.0,0.818947085107,-0.573733772044,-0.0116609396008,0.0,-0.00814267284433,0.00870036539608,-0.99992899774,0.0,0.645240270426,0.239574293361,0.303726105113,1.0,-0.0338657142857,-0.0445092244898,1.244
0.451731978697,0.458604501908,-0.12428967045,-1.49484032274,0.0707310787951,1.94471092605,0.139744343631,-0.0300760995176,-0.167265862123,-0.00294366874901,-0.257928880902,-0.0185275343219,0.0938781811587,-0.0391588495324,0.573800291402,0.818979884697,0.00243330012798,0.0,0.81894269281,-0.573739509852,-0.0116870710225,0.0,-0.00817555306045,0.00869894559923,-0.9999287418,0.0,0.644589534246,0.238725211116,0.30371674275,1.0,-0.0349514285714,-0.0459361632653,1.263
0.451274844991,0.45624039166,-0.124298728653,-1.49862735326,0.0704763058761,1.94603027636,0.139158832743,-0.0311736200519,-0.168792895656,-0.00131334079815,-0.272973120517,-0.0215163298341,0.0940840727719,-0.0486231425122,0.573806223798,0.818976007589,0.00233739738077,0.0,0.818937510962,-0.573745731982,-0.0117445762885,0.0,-0.00827761379809,0.00865345996924,-0.9999282968,0.0,0.644086426784,0.238058864545,0.303654902711,1.0,-0.0357514285714,-0.0469875918367,1.277
0.450485459556,0.451945203406,-0.12434487928,-1.5051994764,0.0700352896801,1.94836579343,0.138114534779,-0.037093535503,-0.186578847587,-0.000508434451631,-0.273657238557,-0.0116322675841,0.114130561402,-0.0469851943923,0.573810265356,0.8189730801,0.00237072663952,0.0,0.818935129821,-0.573749768247,-0.0117133890659,0.0,-0.00823290497062,0.00866290100409,-0.999928584161,0.0,0.643227141143,0.236893727072,0.303680672947,1.0,-0.0371228571429,-0.0487900408163,1.301
0.450149968259,0.450079958448,-0.124358146224,-1.50794641298,0.0698435918805,1.94941803719,0.13770002292,-0.0303815803932,-0.192807084261,-0.000765855717362,-0.276386115054,-0.0189119215612,0.0978157776432,-0.0409048214367,0.573827189055,0.818960827012,0.00250356195646,0.0,0.818924813143,-0.573766439811,-0.0116176532009,0.0,-0.00807809857113,0.00871692211481,-0.999929377302,0.0,0.642883174537,0.236411737763,0.303744282068,1.0,-0.0376942857143,-0.0495410612245,1.311
0.449393627147,0.445938631672,-0.124371261244,-1.51422916505,0.0694015405841,1.95150830086,0.136776395908,-0.0330741687485,-0.189199560311,0.00441331853448,-0.287294032759,-0.0153283807844,0.0910374000872,-0.044834524163,0.573859129022,0.818938614803,0.00244788133319,0.0,0.818901813354,-0.573798502233,-0.0116552916037,0.0,-0.00814053444894,0.00869323732258,-0.999929077147,0.0,0.642018291367,0.235305199401,0.303773651545,1.0,-0.0389514285714,-0.0511933061224,1.333
0.449022060355,0.443857949362,-0.124369510492,-1.51741646008,0.069190591614,1.95266494702,0.136278286625,-0.03040358654,-0.186082876226,0.000208718739935,-0.294040130163,-0.0191961544942,0.109110424885,-0.0494451733793,0.573838603884,0.818952874955,0.00248841263757,0.0,0.818916552482,-0.573777785605,-0.0116395755425,0.0,-0.00810462400004,0.00871720791068,-0.999929160169,0.0,0.641590295093,0.234765040122,0.30378136407,1.0,-0.03958,-0.0520194285714,1.344
0.448328715771,0.440250284034,-0.124377260044,-1.52301169995,0.0688039247467,1.95466016166,0.135355192068,-0.0365373385262,-0.191443463124,-0.00122635361464,-0.296177846043,-0.0140025007708,0.100831193897,-0.0394654039053,0.573797249907,0.818981870051,0.0024818197253,0.0,0.81894548605,-0.573736485832,-0.0116396995266,0.0,-0.00810894847987,0.00871147036215,-0.999929175111,0.0,0.640839097892,0.233779570501,0.303759123238,1.0,-0.0406657142857,-0.0534463673469,1.363
0.447749915454,0.437343484087,-0.124383694833,-1.52755443461,0.0684978898422,1.95623403798,0.134631223725,-0.0365190733959,-0.194054908827,-0.00056579131406,-0.297574248486,-0.0199039624698,0.106094131035,-0.0524874531277,0.573798086224,0.818981454648,0.00242488981535,0.0,0.818944205275,-0.573737390354,-0.011685138305,0.0,-0.00817881907987,0.00869092678667,-0.999928784819,0.0,0.64021856702,0.232968079422,0.303719735286,1.0,-0.0415228571429,-0.0545728979592,1.378
0.44711359058,0.434076989603,-0.124398636015,-1.5324198311,0.0681621576078,1.95795228697,0.133861436681,-0.0381238839953,-0.205954787815,0.000423324994065,-0.29815089298,-0.0206454433417,0.110354661828,-0.0490956480642,0.573818606277,0.818966797615,0.00251761709832,0.0,0.818930798771,-0.573757628292,-0.0116308943302,0.0,-0.00808096985147,0.00873594594969,-0.99992918808,0.0,0.639566363526,0.232087328136,0.30378211973,1.0,-0.0424371428571,-0.0557745306122,1.394
0.446420920195,0.430604859285,-0.124414627956,-1.53775353715,0.0677687425359,1.95980264342,0.133009980894,-0.0396022484839,-0.203097740893,-0.0013888909048,-0.316711270031,-0.0279796767045,0.105722341494,-0.0552313037911,0.573820536346,0.818965546518,0.00248446896029,0.0,0.818929288222,-0.573759858225,-0.0116272474441,0.0,-0.00809698239111,0.00870672539328,-0.999929313406,0.0,0.63883689616,0.231118852913,0.303771054976,1.0,-0.0434085714286,-0.0570512653061,1.411
0.445715373276,0.42705058228,-0.124440014711,-1.54322480819,0.0673747936813,1.96159255533,0.132126986491,-0.0418427740741,-0.213782777364,-0.0037488969006,-0.321218630784,-0.0243502555331,0.116833076098,-0.0525374139866,0.573820369052,0.818966048815,0.00235411376109,0.0,0.818928056524,-0.573760114387,-0.0117011229117,0.0,-0.00823228431382,0.0086423588669,-0.999928767027,0.0,0.638105418863,0.230175202152,0.303737236665,1.0,-0.0443228571429,-0.0582528979592,1.427
0.444948780832,0.423209213028,-0.124455365037,-1.54897156863,0.0669641303903,1.96364735956,0.131169281286,-0.0424853548813,-0.21509630856,-0.00212809420684,-0.322992369976,-0.025594734556,0.110215862815,-0.0544907535982,0.573799333284,0.818980470651,0.00246185224437,0.0,0.818944007647,-0.573738832495,-0.0116280405799,0.0,-0.00811083407309,0.00868844835494,-0.999929360123,0.0,0.637236596588,0.229011903189,0.303790642471,1.0,-0.0454657142857,-0.0597549387755,1.447
0.444192646568,0.419563539441,-0.124459950584,-1.55457314378,0.0665750002626,1.96554871498,0.130290516093,-0.0437487525494,-0.215394627585,0.00104618614321,-0.3264343623,-0.020292640497,0.109820542155,-0.0494801375946,0.573829992811,0.818959112633,0.00242034851374,0.0,0.818921972005,-0.573769487555,-0.0116672970369,0.0,-0.00816647433165,0.00867728861731,-0.999929004159,0.0,0.636493991022,0.228050186321,0.303771378098,1.0,-0.04638,-0.0609565714286,1.463
0.443421333476,0.415790821501,-0.12446749502,-1.56014264013,0.0661897630291,1.967597599,0.129366904321,-0.0446692358712,-0.216866158036,0.00172215061858,-0.326328927847,-0.0266748842373,0.11870909347,-0.0572370365637,0.573835027088,0.818954955351,0.00262482273864,0.0,0.818920577531,-0.573773933146,-0.0115459187481,0.0,-0.00794968556233,0.0087751428993,-0.999929897226,0.0,0.635744938272,0.227031922947,0.303855816552,1.0,-0.0473514285714,-0.0622333061224,1.48
0.442681403622,0.412212911148,-0.124483481772,-1.5656047869,0.0658030530305,1.96945305322,0.128422725309,-0.0499181214371,-0.223292721708,-0.00152721568619,-0.340210768837,-0.0264795380588,0.111719740792,-0.0593351985002,0.573795534738,0.818982732367,0.00259138988452,0.0,0.818947848678,-0.573734478169,-0.0115722343152,0.0,-0.00799084420448,0.00876247825289,-0.999929680219,0.0,0.634969119791,0.22602756631,0.303840197371,1.0,-0.0482657142857,-0.0634349387755,1.496
0.441919743689,0.408556563327,-0.124505507357,-1.57115496063,0.0653981969028,1.9712283862,0.127538825444,-0.0448175700996,-0.234681781292,0.000406804041041,-0.351957968322,-0.0265632272933,0.11448173579,-0.0558727171581,0.573822604822,0.818964109746,0.0024803314425,0.0,0.818927659168,-0.573761792091,-0.0116465396933,0.0,-0.00811513483963,0.00871442754589,-0.999929099156,0.0,0.634157620576,0.224990404891,0.303825623779,1.0,-0.04918,-0.0646365714286,1.512
0.440984304608,0.404264876784,-0.124510465543,-1.57776763035,0.0649633693981,1.97352291221,0.12644589405,-0.0487465210569,-0.222874230627,-0.000788847589947,-0.351658360293,-0.0262804797383,0.119104420985,-0.0595481941806,0.573842723242,0.818950057034,0.00246575896997,0.0,0.818913039466,-0.573781555307,-0.0117007471182,0.0,-0.00816767775613,0.00873379891568,-0.999928502342,0.0,0.633217440361,0.223768964873,0.303775928001,1.0,-0.0502657142857,-0.0660635102041,1.531
0.440210998143,0.400746758554,-0.124529163081,-1.58300592963,0.064596316066,1.97537018447,0.125527060675,-0.0524102705686,-0.238751344008,-0.00400032773217,-0.345731677933,-0.0276283693951,0.124637419772,-0.0627237435156,0.573842941521,0.8189495958,0.00256610733815,0.0,0.818913900684,-0.573781437651,-0.0116461141186,0.0,-0.00806535097545,0.00878463048434,-0.999928887662,0.0,0.632487497251,0.222773542248,0.303815315185,1.0,-0.0511228571429,-0.0671900408163,1.546
0.439305568701,0.396655268228,-0.12454214318,-1.58901276453,0.0641320976087,1.97743954651,0.124496471492,-0.0529409399444,-0.240666549834,0.000669845139088,-0.359318699345,-0.030319684174,0.12275003593,-0.066727829077,0.573853661661,0.818941752463,0.00266982627146,0.0,0.818907680459,-0.573792108208,-0.0115574367642,0.0,-0.00793309500944,0.00881878843472,-0.999929645012,0.0,0.631640262606,0.221618126366,0.303890266,1.0,-0.0520942857143,-0.0684667755102,1.563
0.438350427188,0.392278214422,-0.124556506387,-1.59565379368,0.0636318911809,1.97957059257,0.123405305254,-0.0517860314015,-0.242671559928,0.000352945667874,-0.371842900933,-0.0273936272195,0.118038840648,-0.0665009222805,0.57386765472,0.818932356316,0.0025411699893,0.0,0.818896498167,-0.573806409586,-0.0116394376777,0.0,-0.00807392794398,0.00876062067692,-0.999929029088,0.0,0.630649578723,0.220362449311,0.303857371954,1.0,-0.0531228571429,-0.0698186122449,1.581
0.437556400893,0.388630147285,-0.124560898014,-1.60113995697,0.0632206659939,1.9814372583,0.12244996162,-0.0490255794928,-0.241385346385,-0.000502927608136,-0.368114171979,-0.0336372046242,0.133318940764,-0.064079955878,0.573832029693,0.818957290814,0.00255037696334,0.0,0.818921579938,-0.573770787057,-0.0116308525899,0.0,-0.00806199494774,0.00876288319364,-0.999929105545,0.0,0.629846848201,0.219335321119,0.303857035457,1.0,-0.05398,-0.0709451428571,1.596
0.43662257008,0.384493566465,-0.124552764607,-1.60744248826,0.0627566815267,1.98353826742,0.121287183579,-0.0566407569453,-0.2440450857,-0.000553805875278,-0.372417269979,-0.028714360361,0.122188216508,-0.0705804680133,0.573745002924,0.819018453431,0.0024882645661,0.0,0.818981743415,-0.573683782465,-0.0116862564873,0.0,-0.00814393948263,0.00874294284364,-0.999928616052,0.0,0.628909332149,0.218149456211,0.303812511765,1.0,-0.0549514285714,-0.072221877551,1.613
0.435645863599,0.380173465663,-0.124564510699,-1.61372543161,0.0622998133523,1.98576209386,0.120204462412,-0.0527078953822,-0.248959609149,0.00297044640836,-0.375632354822,-0.0323124474577,0.126212574088,-0.0645649009169,0.573772461875,0.818998554666,0.00269747083741,0.0,0.818964679926,-0.573710647226,-0.0115625772955,0.0,-0.00792231888239,0.00884359204796,-0.999929511387,0.0,0.628012634592,0.216939970053,0.303905479406,1.0,-0.0559228571429,-0.0734986122449,1.63
0.434683093868,0.376106755206,-0.124575853883,-1.61990699028,0.0618176091281,1.98768708879,0.119118922075,-0.0584681324364,-0.257786575629,0.000356193651892,-0.386476105737,-0.0285000374034,0.12551166594,-0.0661461074989,0.57376888407,0.819001626315,0.00252005315664,0.0,0.818965306108,-0.573707522341,-0.0116727503897,0.0,-0.0081143843271,0.00876146575532,-0.9999286942,0.0,0.627067150249,0.215728155061,0.303848285678,1.0,-0.0568371428571,-0.074700244898,1.646
0.433513465091,0.371179615789,-0.12462143538,-1.62722641041,0.0612615996879,1.99008921312,0.117821161851,-0.0621322822957,-0.264906377737,-0.00113797406682,-0.383293409121,-0.0223535300671,0.124447598364,-0.0651602909081,0.573804768125,0.818976525783,0.00250702898036,0.0,0.818940085948,-0.573743501622,-0.0116737686702,0.0,-0.00812230730208,0.00875173915172,-0.999928715052,0.0,0.6259785091,0.214269575291,0.303860380235,1.0,-0.0579228571429,-0.0761271836735,1.665
0.432577833228,0.367272544474,-0.124647811829,-1.63300847999,0.0608150573604,1.99202473563,0.116828250917,-0.063657210845,-0.267264402013,-0.00191852443249,-0.380516402996,-0.026471904656,0.134475846801,-0.0628613815089,0.573856434415,0.818940230582,0.00253738379963,0.0,0.818904310628,-0.573795190202,-0.0116428792303,0.0,-0.00807903912808,0.00875938433794,-0.999928998636,0.0,0.625120373922,0.213119406517,0.303878393997,1.0,-0.05878,-0.0772537142857,1.68
0.431354809124,0.362241006535,-0.124669735668,-1.64028320021,0.0602387195263,1.99456636636,0.115442913184,-0.0675642427627,-0.270290799747,-0.00286984538236,-0.384584610111,-0.0303477826417,0.132628730207,-0.0773290102312,0.573830474592,0.818957716288,0.00275540598998,0.0,0.818925056369,-0.573768986197,-0.0114738586117,0.0,-0.00781578902239,0.00884069094891,-0.999930375389,0.0,0.624064532608,0.211658859705,0.303980467652,1.0,-0.0598657142857,-0.0786806530612,1.699
0.430289646686,0.357960459574,-0.124687977663,-1.64674690847,0.059756541362,1.99654176759,0.114263535362,-0.0727318648527,-0.268162005419,-0.00356779822036,-0.40804485325,-0.0305906546207,0.119062598793,-0.0834501233138,0.573836293714,0.818954208657,0.00258051174052,0.0,0.818918861953,-0.573774916819,-0.0116184882059,0.0,-0.00803453159482,0.00878050900045,-0.999929171974,0.0,0.623049704788,0.210363516022,0.303916873692,1.0,-0.06078,-0.0798822857143,1.715
0.429213376475,0.353636562973,-0.124709580369,-1.65320884957,0.0592659902582,1.99861300785,0.113091694597,-0.0705850681368,-0.268152801771,-0.00194943616452,-0.404668846675,-0.0299110453074,0.133529376735,-0.0722657522936,0.573854115529,0.818941924067,0.0025151534898,0.0,0.818905546858,-0.573792767698,-0.0116752714496,0.0,-0.00811834868618,0.00875974436747,-0.999928677103,0.0,0.622051499774,0.209067146928,0.303886209769,1.0,-0.0616942857143,-0.0810839183673,1.731
0.428103273575,0.349317779471,-0.124714863256,-1.65966259738,0.0587929673084,2.00071461406,0.111874127413,-0.0722094777644,-0.27428800599,-0.00113409399762,-0.400468321957,-0.0280184167854,0.133991567471,-0.0704149231584,0.573852209834,0.818943336837,0.00248982352597,0.0,0.818906295608,-0.573790593151,-0.0117294981051,0.0,-0.00817731443845,0.00877009941981,-0.999928105858,0.0,0.621056823011,0.207767429748,0.30385362396,1.0,-0.0626085714286,-0.0822855510204,1.747
0.426899544688,0.344562829223,-0.124715009955,-1.66640935424,0.0582704050902,2.00305377167,0.110601822063,-0.0700321061782,-0.272180015012,0.000285969425376,-0.400738937999,-0.0340827252012,0.128533627186,-0.0705195637518,0.573868876227,0.818930767735,0.00276721075793,0.0,0.818897550935,-0.57380654252,-0.0115585351682,0.0,-0.00787794811665,0.00889931703981,-0.99992936755,0.0,0.620052910424,0.206395157337,0.303982720169,1.0,-0.06358,-0.0835622857143,1.764
0.425674691932,0.339798921389,-0.124715810018,-1.6734759154,0.0576918657168,2.00520155739,0.109298938439,-0.073832892789,-0.279892544827,0.000821020964743,-0.430668970706,-0.0336589901869,0.126573188767,-0.0698765920026,0.573865411048,0.81893368616,0.00261812464579,0.0,0.818898361076,-0.573803388883,-0.0116572738587,0.0,-0.00804440033705,0.00883385431523,-0.999928622773,0.0,0.618919346895,0.204958327043,0.303945040884,1.0,-0.0645514285714,-0.0848390204082,1.781
0.424241581935,0.334164472043,-0.124717200947,-1.68185309898,0.0569960576259,2.00783004023,0.107677244597,-0.0693881729227,-0.281968111122,0.000704600477287,-0.417113269127,-0.0337943866122,0.141739815526,-0.0751744106845,0.573774452812,0.818997813454,0.00249113628616,0.0,0.818960818763,-0.573712872754,-0.0117244986798,0.0,-0.00817329918875,0.00876752962915,-0.999928161222,0.0,0.617576496959,0.203274262736,0.303891633426,1.0,-0.0656942857143,-0.0863410612245,1.801
0.423208118515,0.330136319594,-0.124716775765,-1.68762711396,0.0565443658294,2.00973988886,0.106561689945,-0.0743863884746,-0.293637498372,-0.000647158783716,-0.412486248613,-0.0303712821301,0.134691437172,-0.0836919923234,0.573756509465,0.819009978308,0.00262110278315,0.0,0.818974674213,-0.573694471254,-0.0116569100465,0.0,-0.00804356833261,0.00883501491872,-0.999928619212,0.0,0.616674907634,0.202100589557,0.303951947594,1.0,-0.0664942857143,-0.0873924897959,1.815
0.4219758012,0.325544501437,-0.124719251703,-1.69423448851,0.0560261172332,2.01196831796,0.105220815678,-0.0824022293926,-0.288522454138,-0.00120654717716,-0.42393177391,-0.0350987031714,0.1318329243,-0.0736329096115,0.573722673182,0.819033129915,0.00278806020975,0.0,0.819000071628,-0.57366016305,-0.0115605754056,0.0,-0.0078692466909,0.00891615740035,-0.999929286047,0.0,0.615654420129,0.200730232172,0.304008192138,1.0,-0.0674085714286,-0.088594122449,1.831
0.420439917986,0.320023463641,-0.124750671898,-1.70244224482,0.0553418593644,2.01441435021,0.103689464744,-0.0833099253717,-0.288703562155,-0.00455230650816,-0.429089181349,-0.0316798575503,0.131271487993,-0.0788427063099,0.573795752053,0.818982678286,0.00256017476122,0.0,0.818946463947,-0.573733794251,-0.0117033937093,0.0,-0.00811617420686,0.00881217332442,-0.999928234084,0.0,0.614313204706,0.198986273906,0.303925509069,1.0,-0.0684942857143,-0.0900210612245,1.85
0.419167242778,0.31528079594,-0.124791505098,-1.70935729145,0.0547772283613,2.01653932549,0.102286203921,-0.0772084918755,-0.289484697116,-0.00249639828513,-0.43493600908,-0.0363726551508,0.129812046259,-0.0926084193962,0.573758389301,0.819009029668,0.00250338362614,0.0,0.818971990968,-0.573696548478,-0.0117428776824,0.0,-0.00818149782952,0.00878794485243,-0.999927914961,0.0,0.613186766984,0.197532277321,0.30391408213,1.0,-0.0694085714286,-0.0912226938775,1.866
0.417576258313,0.309573018211,-0.124806594128,-1.71738944852,0.0540781664636,2.01923186396,0.100618830043,-0.0813943468649,-0.303311422599,-0.00125176877066,-0.41860383345,-0.038196591486,0.138521682648,-0.0914785694656,0.573731805205,0.819026813849,0.00276419859779,0.0,0.818993825115,-0.573669800438,-0.0115248162919,0.0,-0.00785354751492,0.00887618613287,-0.999929765089,0.0,0.611935583048,0.195807065922,0.304039256969,1.0,-0.0704942857143,-0.0926496326531,1.885
0.416449990215,0.305677472512,-0.124812533927,-1.72300116828,0.0536232113588,2.02099123346,0.0994780038804,-0.0869490065955,-0.303998152614,-0.00151350320199,-0.442891309476,-0.0284724983517,0.133545123287,-0.0952922948399,0.57373973279,0.819021155246,0.00279520636234,0.0,0.818988473817,-0.573677519761,-0.0115208496447,0.0,-0.00783242333067,0.00889938233004,-0.9999297246,0.0,0.610956933469,0.194500020096,0.304055889303,1.0,-0.0712942857143,-0.0937010612245,1.899
0.414963962378,0.300534735181,-0.124864947314,-1.73053483348,0.0529940748654,2.02316474826,0.097948087356,-0.0862367920951,-0.305633701688,-0.00473957261513,-0.441444470194,-0.0433560397635,0.12608123648,-0.0850229617561,0.573776506553,0.818996050852,0.00259540316273,0.0,0.818960482076,-0.57371463129,-0.0116617984497,0.0,-0.00806210132805,0.00881696835392,-0.999928629249,0.0,0.609762350723,0.192948991367,0.30399248437,1.0,-0.0722085714286,-0.0949026938775,1.915
0.413429884989,0.295399198591,-0.124904766425,-1.73805668245,0.0524093632525,2.02546164803,0.0964596993344,-0.0904524707406,-0.296849854661,-0.00192910035513,-0.439037543676,-0.0410714253151,0.130410702525,-0.0895698392789,0.573878683811,0.818924678876,0.00252457853187,0.0,0.81888773002,-0.573816550347,-0.0117558100729,0.0,-0.00817863550872,0.00881392489035,-0.999927709712,0.0,0.608519641132,0.191300094463,0.303937358543,1.0,-0.07318,-0.0961794285714,1.932
0.411788553522,0.289762935122,-0.124927148229,-1.74584102432,0.0517487859124,2.02807836839,0.0947468734849,-0.0904954492705,-0.310307152518,-0.00364726378373,-0.44011447716,-0.0390868502186,0.147392161691,-0.0964095116664,0.57384788023,0.818945071943,0.00288554978148,0.0,0.818913360086,-0.573785135338,-0.0115010451241,0.0,-0.0077631881201,0.00896303819839,-0.999929695957,0.0,0.607288285689,0.189586488679,0.304096704738,1.0,-0.0742085714286,-0.0975312653061,1.95
0.410031141047,0.283878196532,-0.124944183548,-1.75442070331,0.0510081751906,2.03048885748,0.0929917270371,-0.0941426456523,-0.307363361089,-0.00023687090641,-0.453795428372,-0.0398629607461,0.132341310444,-0.0914434150057,0.573861554626,0.818936341427,0.00263281457215,0.0,0.818900897944,-0.573799141717,-0.0116880799095,0.0,-0.00806124186144,0.008863524575,-0.99992822458,0.0,0.605801765689,0.187708485483,0.304014730385,1.0,-0.0752942857143,-0.0989582040816,1.969
0.408620232271,0.27918142408,-0.124945437828,-1.76122741622,0.0503923193785,2.03250902877,0.0914990860875,-0.097064302531,-0.303899969198,0.000202298019773,-0.451113390264,-0.0306625418402,0.132185614599,-0.0990066393045,0.57377989443,0.818993889259,0.00252764839645,0.0,0.818957103164,-0.573717894723,-0.0117382858331,0.0,-0.00816358442534,0.00880539754584,-0.999927907833,0.0,0.604637069204,0.186222857532,0.303969975441,1.0,-0.0761514285714,-0.100084734694,1.984
0.406871162459,0.273414476461,-0.124959465834,-1.76922722514,0.0497258390001,2.03508290206,0.0897956684846,-0.0942563170505,-0.318836771389,-0.000543847559475,-0.438240974114,-0.0384677826177,0.148466474001,-0.0927598733961,0.573826472337,0.818960372577,0.00279905257009,0.0,0.818927277976,-0.573763710044,-0.0115786581802,0.0,-0.00787661907931,0.00893653313604,-0.999929046106,0.0,0.603320959851,0.184442223956,0.304082412366,1.0,-0.07718,-0.101436571429,2.002
0.405479242459,0.268955805122,-0.124985828347,-1.7755536174,0.0491672751079,2.03698857628,0.0883644786434,-0.0999912851625,-0.316048967971,-0.00115361654981,-0.457668157445,-0.0416988919549,0.136466653827,-0.0968103978527,0.573806244318,0.818974530612,0.00280340703962,0.0,0.818941552768,-0.573743538694,-0.0115685719738,0.0,-0.00786608057318,0.0089341173599,-0.999929150652,0.0,0.602168373004,0.18290367029,0.304089741003,1.0,-0.0780371428571,-0.102563102041,2.017
0.403751809073,0.263460224604,-0.125052294249,-1.78340863002,0.0484756934592,2.03917489241,0.0867061836771,-0.0994715863077,-0.329134564653,-0.00409904185031,-0.461021958479,-0.0386242102627,0.123514388984,-0.100427199348,0.573879459219,0.818923752834,0.00264579516723,0.0,0.818888484883,-0.573817006011,-0.0116807465234,0.0,-0.00804759345855,0.00887012247126,-0.999928276011,0.0,0.600872281266,0.181211990493,0.304052125709,1.0,-0.0789514285714,-0.103764734694,2.033
0.402004513307,0.257972988135,-0.12506502791,-1.79123824607,0.0477752824117,2.04147184478,0.0849543814071,-0.0951003740633,-0.328793865282,0.00133567754677,-0.460402019218,-0.0406970158902,0.133763644343,-0.113287523485,0.573849956253,0.818944620323,0.00258523763733,0.0,0.818908478707,-0.573787626597,-0.0117221997322,0.0,-0.00811661131081,0.00884402709911,-0.999927949307,0.0,0.599509002067,0.179445622546,0.30402124708,1.0,-0.0799228571429,-0.105041469388,2.05
0.400117865663,0.252027014087,-0.12505476255,-1.79936015234,0.0470350863889,2.04399530693,0.0831239816195,-0.104421275838,-0.325971474682,0.00118529274549,-0.462611172008,-0.046789898724,0.141547765066,-0.103552626016,0.573839948372,0.818950781542,0.00284217620674,0.0,0.818918396829,-0.573777215456,-0.011537471952,0.0,-0.007817996243,0.00894834497537,-0.999929400536,0.0,0.598127307838,0.177597987388,0.3041498888,1.0,-0.0809514285714,-0.106393306122,2.068
0.39807614206,0.245807226735,-0.12507035573,-1.80828286528,0.046274400858,2.04647474122,0.0810801305254,-0.104143332457,-0.329489656202,-0.00214247561118,-0.467341546238,-0.0451797633249,0.137482156861,-0.107060030177,0.573809993256,0.818972367693,0.00266448803385,0.0,0.818936931599,-0.573747029528,-0.0117215644092,0.0,-0.00807105065533,0.00890816995917,-0.999927748715,0.0,0.596523617826,0.175567799907,0.304062087255,1.0,-0.0820371428571,-0.107820244898,2.087
0.396436683017,0.240840438368,-0.125057683722,-1.81534880925,0.0456452424664,2.04849173688,0.0794572172889,-0.114541460244,-0.329337232482,0.00225616819876,-0.46474786136,-0.0410989087656,0.136275680764,-0.112045136033,0.573766388128,0.819003159253,0.00258918693087,0.0,0.818966414455,-0.57370334239,-0.0117997384096,0.0,-0.00817875530589,0.00889092160305,-0.999927027075,0.0,0.595255306615,0.173967032971,0.304014820939,1.0,-0.0828942857143,-0.10894677551,2.102
0.39464800143,0.235362377099,-0.125065105379,-1.82266091563,0.0450134699566,2.05074317238,0.0777460021672,-0.116369174267,-0.336490427916,-3.50631567936e-05,-0.453813494958,-0.0414563212565,0.142122352498,-0.102089561282,0.573789850743,0.818985566608,0.00293185495483,0.0,0.81895346981,-0.573725824784,-0.0116034117305,0.0,-0.0078210964089,0.00905914708983,-0.999928378588,0.0,0.593993884258,0.172264732323,0.304181374948,1.0,-0.0838085714286,-0.110148408163,2.118
0.392965250644,0.230329005805,-0.125066734366,-1.82972866803,0.0443135071724,2.05275006444,0.0760985159034,-0.117520762081,-0.335100449056,-3.0069900247e-05,-0.479739214937,-0.0456194211654,0.120882644599,-0.11217375602,0.573729594971,0.819028002168,0.00286887078915,0.0,0.818995355682,-0.573666092623,-0.0116003640914,0.0,-0.00785540037117,0.00900523742278,-0.999928596643,0.0,0.59263090127,0.170522716163,0.304165923146,1.0,-0.0847228571429,-0.111350040816,2.134
0.390959320324,0.224535545782,-0.125094480602,-1.83786992601,0.0435605452323,2.05493962468,0.0741274481352,-0.114437983481,-0.339731566692,-0.00582209416587,-0.480082788584,-0.047373441096,0.122953576669,-0.10879810125,0.573704166275,0.819046406966,0.00269438969984,0.0,0.819011069609,-0.573640788844,-0.0117413854778,0.0,-0.00807128315277,0.00894298893673,-0.999927436036,0.0,0.591133099942,0.1685923196,0.304097282389,1.0,-0.0856942857143,-0.11262677551,2.151
0.388918098687,0.218725213914,-0.125144403345,-1.84586299894,0.0428537377106,2.05727337371,0.0721932065606,-0.120248765418,-0.351171858914,-0.00168203178971,-0.466058718288,-0.0336951419657,0.139804984758,-0.120982120078,0.573759543367,0.819007133181,0.0028370926085,0.0,0.818973632692,-0.57369563996,-0.0116725552673,0.0,-0.0079324310906,0.00902091770059,-0.999927847187,0.0,0.589799454314,0.166779244645,0.304147956542,1.0,-0.0866085714286,-0.113828408163,2.167
0.386819417869,0.212861881898,-0.125201742064,-1.8538532149,0.0421064465002,2.05959754197,0.0702614838938,-0.126434570052,-0.341035201075,-0.00517363800426,-0.477210938601,-0.050286791482,0.126927192231,-0.123408608586,0.573847400897,0.818945098824,0.00297195166381,0.0,0.818913622806,-0.573783354029,-0.0115709949387,0.0,-0.00777090281384,0.00907393177648,-0.999928635869,0.0,0.588374916542,0.164819122807,0.304207068492,1.0,-0.08758,-0.115105142857,2.184
0.384423980937,0.206262400448,-0.125266796903,-1.86306341506,0.0411953335568,2.06196764223,0.0679756474921,-0.127902616845,-0.347084526403,-0.00569942991389,-0.486247695134,-0.0400355146538,0.122166021745,-0.118962414472,0.573852054358,0.818942663244,0.00273512863979,0.0,0.818907932789,-0.573788599465,-0.0117127127893,0.0,-0.00802280903781,0.00896135537041,-0.999927661706,0.0,0.586646719622,0.162560614876,0.304140131807,1.0,-0.0886657142857,-0.116532081633,2.203
0.382524777611,0.20102929789,-0.125287553274,-1.87029863,0.0405022746906,2.06395103054,0.0661605514373,-0.128973203129,-0.354807668558,-0.00176330421758,-0.474357746244,-0.0430326884,0.138107397131,-0.120071624265,0.573833764389,0.818955595231,0.00270014598981,0.0,0.818920326819,-0.57377034315,-0.0117404661465,0.0,-0.00806581204208,0.00894845260643,-0.999927431303,0.0,0.585300351063,0.160811541524,0.304118654452,1.0,-0.0895228571428,-0.117658612245,2.218
0.380296643346,0.194996782644,-0.125309852201,-1.87831594688,0.0397621733998,2.06632092351,0.0641025550373,-0.127427042672,-0.347322238569,-0.00492480189065,-0.478055144139,-0.0473149753761,0.133452539888,-0.112108957701,0.573881736124,0.818920919573,0.00300455167112,0.0,0.818889903841,-0.573817624422,-0.0115501597864,0.0,-0.00773475168904,0.00908899777113,-0.999928779332,0.0,0.583856278141,0.158824682318,0.304241414193,1.0,-0.0904942857143,-0.118935346939,2.235
0.378141040391,0.189383759024,-0.125385337626,-1.88614814512,0.0390264483751,2.0683234353,0.0620466699619,-0.131899941368,-0.355056329402,-0.00634882406897,-0.494878479997,-0.0452278613666,0.120314580174,-0.135716288105,0.573905600725,0.81890484533,0.00282181748577,0.0,0.818870930778,-0.573841486269,-0.0117087259997,0.0,-0.00796920994573,0.00903058160629,-0.999927467514,0.0,0.582366556535,0.156853733393,0.304157037393,1.0,-0.0914085714286,-0.120136979592,2.251
0.375826530184,0.183289112483,-0.125432371422,-1.89446742004,0.0382214714881,2.07046252654,0.0599297678807,-0.132368739052,-0.36212955008,0.000609371258905,-0.488608886343,-0.0382093504546,0.131823607433,-0.127869479293,0.573963714932,0.818864395473,0.00273910013231,0.0,0.818829092528,-0.573899534924,-0.0117893148709,0.0,-0.00808203750699,0.00900966729948,-0.9999267506,0.0,0.580775739759,0.154773408263,0.304137505415,1.0,-0.09238,-0.121413714286,2.268
0.373499284689,0.177111885308,-0.125422678535,-1.90254973169,0.0374092911934,2.0727693108,0.0577655246639,-0.134468641983,-0.357231366026,0.000157776316824,-0.47230449808,-0.0483649511943,0.136846921562,-0.129778859517,0.573934418645,0.818883888457,0.00303434041202,0.0,0.818853036635,-0.573869943347,-0.0115645759409,0.0,-0.00772887695931,0.00912216265997,-0.99992852275,0.0,0.579274964449,0.15275778603,0.304280056865,1.0,-0.0933514285714,-0.12269044898,2.285
0.371156508864,0.170993003476,-0.125413797768,-1.91091805033,0.0365665952964,2.07486951024,0.0555248041015,-0.135875511961,-0.36147060952,-0.000236550886404,-0.488055091222,-0.0500562009181,0.112885430785,-0.136353445403,0.573842231645,0.818948999222,0.00289426240126,0.0,0.818915988748,-0.573777833824,-0.0116768012271,0.0,-0.00790219320966,0.00907097407503,-0.999927633767,0.0,0.577630397614,0.150702213612,0.304226938996,1.0,-0.0943228571428,-0.123967183673,2.302
0.368897432455,0.165226973851,-0.125411989297,-1.91885798763,0.0357784345801,2.0768462009,0.0533921182093,-0.143404126817,-0.358350048448,-0.0040256135799,-0.498145367935,-0.0414329617047,0.122687211254,-0.137947763327,0.573782764923,0.818991246685,0.00272459762457,0.0,0.818955511141,-0.573718390218,-0.0118248213133,0.0,-0.00812142974871,0.00901637650132,-0.999926370956,0.0,0.576058619703,0.148737321279,0.304142082225,1.0,-0.0952371428571,-0.125168816327,2.318
0.366448958437,0.158893701986,-0.125417609617,-1.92705417444,0.0349592019879,2.07908976992,0.0510935944612,-0.143010860885,-0.373768156803,0.000148167447959,-0.480610747645,-0.0455026566433,0.138061357547,-0.129918449695,0.573735114076,0.819023608588,0.0030156846569,0.0,0.818992093226,-0.573670229374,-0.0116260941103,0.0,-0.00779218706686,0.0091402962993,-0.9999278658,0.0,0.574493128054,0.146660514883,0.30428681887,1.0,-0.0962085714286,-0.12644555102,2.335
0.36358199984,0.151900684607,-0.125428276732,-1.93643320692,0.0339759406296,2.08141366986,0.0484784331652,-0.150599940787,-0.365930577377,-0.000160636365207,-0.498061516877,-0.0543495399191,0.112984704703,-0.138793335539,0.573722684082,0.819032620335,0.00293180802877,0.0,0.818999952882,-0.573658007793,-0.0116753662154,0.0,-0.00788080236165,0.00909974827854,-0.999927541143,0.0,0.572639087428,0.144237231971,0.304267955323,1.0,-0.0972942857143,-0.127872489796,2.354
0.361136661514,0.145998891056,-0.125468202479,-1.94445309471,0.033171275028,2.08330712839,0.046264132097,-0.145022990606,-0.361102377627,-0.00294105887839,-0.499171646711,-0.0458425209848,0.121259029116,-0.143155395726,0.573757550743,0.819008837111,0.00274674371757,0.0,0.818973124092,-0.573692802113,-0.0118464222295,0.0,-0.00812669385816,0.00904665766314,-0.999926054682,0.0,0.57102003169,0.142162548204,0.304187468865,1.0,-0.0982085714286,-0.129074122449,2.37
0.358488601669,0.139599557809,-0.125509393238,-1.95270113742,0.0323456896167,2.08552167951,0.0438709533064,-0.154673458038,-0.371680943491,0.000345113186029,-0.485215721885,-0.0602817243021,0.133045434637,-0.138868079437,0.573812430701,0.81896936113,0.00303756556599,0.0,0.818937852069,-0.573747137274,-0.01165177322,0.0,-0.0077998008926,0.00917368635537,-0.999927500664,0.0,0.569330039282,0.139846625495,0.304306945115,1.0,-0.0992371428571,-0.130425959184,2.388
0.355776136214,0.133251417108,-0.125565469167,-1.96110369621,0.0314572288457,2.08764671202,0.0413569469384,-0.160547437557,-0.378688861906,-0.006260451366,-0.503784608075,-0.056988444241,0.113669459704,-0.140874887969,0.573784222361,0.818989057698,0.00305555907642,0.0,0.818957934003,-0.573719052262,-0.0116231797359,0.0,-0.00776637408869,0.00917174807916,-0.999927778627,0.0,0.567755503888,0.137737915182,0.304310880311,1.0,-0.100151428571,-0.131627591837,2.404
0.352999055015,0.126807143996,-0.12567101625,-1.96970672178,0.030526402421,2.08957274702,0.0388642247708,-0.167320284878,-0.375763015953,-0.00837957151113,-0.518310733657,-0.0533012088205,0.115593404473,-0.146282279211,0.573853729422,0.818941140437,0.00283771540852,0.0,0.81890686611,-0.573788923897,-0.0117712510468,0.0,-0.00801186633929,0.00907897574368,-0.999926688411,0.0,0.565986129598,0.135414032282,0.304246966173,1.0,-0.101122857143,-0.132904326531,2.421
0.350505245048,0.121076146019,-0.125738480791,-1.97710197289,0.02973449974,2.0914471284,0.0366743110347,-0.167678679421,-0.390804716412,-0.00146997357554,-0.479880362588,-0.0534692984294,0.12317495395,-0.155021871777,0.573941785342,0.818878934354,0.0029773832753,0.0,0.818846892183,-0.57387696578,-0.0116508459184,0.0,-0.00783213140276,0.00912510403548,-0.999927692483,0.0,0.56451342444,0.133392733853,0.304311435459,1.0,-0.10198,-0.134030857143,2.436
0.347598937315,0.114587025858,-0.125755164365,-1.98548210883,0.0288629172698,2.09357160492,0.034048007486,-0.172622660364,-0.378910649194,0.000658646795975,-0.498477373207,-0.0431820844625,0.11974636305,-0.15490469002,0.573944607643,0.818876295156,0.00315396420556,0.0,0.818846728482,-0.573879436992,-0.0115401020193,0.0,-0.00764006787969,0.0092061698444,-0.999928435339,0.0,0.562831844382,0.131106424143,0.304369490059,1.0,-0.102951428571,-0.135307591837,2.453
0.3448767979,0.108453643055,-0.125758806368,-1.99358323009,0.0279581728206,2.09530887443,0.0315776058973,-0.172670087759,-0.38128225369,-0.000672311454613,-0.506835447422,-0.0533686390213,0.108421435133,-0.155086596728,0.573888126385,0.818916659558,0.00294448532238,0.0,0.818883981862,-0.5738231831,-0.011692975978,0.0,-0.00788611071995,0.00912182756464,-0.999927298117,0.0,0.561111229775,0.128941853596,0.304306360873,1.0,-0.103865714286,-0.13650922449,2.469
0.341811547574,0.101473323065,-0.125733689252,-2.00256294803,0.0269861113163,2.09741915918,0.0287459830813,-0.173219980621,-0.396888780794,0.00909671989932,-0.491013749684,-0.0416804756604,0.113824954547,-0.157973124335,0.573770420645,0.818998864665,0.00301843869656,0.0,0.818967150757,-0.573705247437,-0.0116551252977,0.0,-0.00781399071059,0.0091595446334,-0.999927519519,0.0,0.559232199283,0.126560357653,0.304342915245,1.0,-0.104894285714,-0.137861061224,2.487
0.339035067675,0.0952399632251,-0.125732625217,-2.01050641264,0.0261919238132,2.09930418436,0.0261760988509,-0.174825572011,-0.383026299832,0.000830378131688,-0.509854264028,-0.0474055081028,0.112292563137,-0.160751678487,0.573704302664,0.81904455344,0.0031842558897,0.0,0.819014670796,-0.573638213468,-0.0116153334864,0.0,-0.00768701276743,0.00927189760001,-0.999927468244,0.0,0.557570060996,0.12442868258,0.304398348473,1.0,-0.105808571429,-0.139062693878,2.503
0.335938176588,0.088629540806,-0.125767578776,-2.01913970306,0.0252774124596,2.10111935116,0.0234609414402,-0.184043395575,-0.385613430254,-0.000249802248068,-0.500611723085,-0.0567046008601,0.102908086923,-0.162522050126,0.573761555508,0.819005030778,0.00303049205115,0.0,0.818972324636,-0.573694998046,-0.0117952362489,0.0,-0.00792193221744,0.00924972030346,-0.999925840082,0.0,0.555710949118,0.122043880273,0.304332648637,1.0,-0.10678,-0.140339428571,2.52
0.332580457999,0.0815663884823,-0.125834909272,-2.02818437905,0.0242396552707,2.1031391937,0.0204052438965,-0.185577051379,-0.397504364256,-0.0067755596856,-0.492001637434,-0.0574848153881,0.121418040108,-0.167735227216,0.573725557044,0.819030274736,0.00302343534324,0.0,0.818997685932,-0.573659273388,-0.0117718050721,0.0,-0.0079071952582,0.00923014968106,-0.999926137572,0.0,0.553793138655,0.119477639889,0.30433778784,1.0,-0.107808571429,-0.141691265306,2.538
0.329572653364,0.0751893028211,-0.125879879173,-2.03612037092,0.0233361547268,2.10498702342,0.0177556179478,-0.186208215074,-0.396701100031,-0.00223955611618,-0.498019797983,-0.052202893929,0.111408446499,-0.164188046276,0.573755020668,0.819008872823,0.00322325874768,0.0,0.818979471401,-0.57368876974,-0.0116003361366,0.0,-0.00765177819855,0.00929571281647,-0.99992751738,0.0,0.55212099431,0.117219757273,0.304437263057,1.0,-0.108722857143,-0.142892897959,2.554
0.325673824325,0.0672585901161,-0.12599625494,-2.04635605562,0.022170657016,2.10707475755,0.0143147490976,-0.199481479602,-0.399637833694,-0.00408084666597,-0.516218707686,-0.0555647616656,0.10098706469,-0.179160003154,0.573827457219,0.818958856639,0.00303106841214,0.0,0.818926463016,-0.57376124535,-0.0117570577627,0.0,-0.00788958889494,0.00922892237962,-0.999926287973,0.0,0.549882774977,0.114270836864,0.304358044728,1.0,-0.109865714286,-0.144394938775,2.574
0.323095750991,0.062111040176,-0.126077462705,-2.05290442141,0.0214105157941,2.10841492478,0.0120235386989,-0.196667353017,-0.403561089783,-0.00540894710757,-0.503056267785,-0.0587046022975,0.11199159165,-0.175906911533,0.573862595042,0.818934475558,0.00296540969801,0.0,0.818901112353,-0.57379647523,-0.0118033936364,0.0,-0.00796481769249,0.00920208057131,-0.999925938954,0.0,0.548451663245,0.112345962382,0.304338936204,1.0,-0.110608571429,-0.145371265306,2.587
0.319078112446,0.0540572189929,-0.126099362269,-2.06280710777,0.0202759498547,2.11069036083,0.00850025284415,-0.20417930873,-0.401154371124,-0.000305998226123,-0.508529627875,-0.0642572122054,0.111207442147,-0.176793872519,0.573877468405,0.818922867879,0.00327637350256,0.0,0.818894338759,-0.573811258428,-0.0115519934088,0.0,-0.00758031751406,0.009312611742,-0.999927904426,0.0,0.546217405911,0.109315568862,0.304467098858,1.0,-0.111808571429,-0.146948408163,2.608
0.316456613749,0.0488287410992,-0.126098650657,-2.06944936907,0.0195461199108,2.11194283481,0.00617978277625,-0.204083361768,-0.396970298252,-0.00170727483635,-0.510321430862,-0.0553036891324,0.100006390066,-0.180419834062,0.573855269307,0.818938864696,0.00316428205767,0.0,0.818908064482,-0.573788434489,-0.0117115871753,0.0,-0.0077755951613,0.00931219139637,-0.999926408898,0.0,0.544705272949,0.107429866623,0.304418123304,1.0,-0.112551428571,-0.147924734694,2.621
0.312124527309,0.040323607149,-0.126102557801,-2.08012350289,0.0183137429565,2.11404362524,0.00230903893249,-0.213215865678,-0.410685570785,-0.000319189767107,-0.492698086875,-0.0581428347496,0.107439690028,-0.191333779116,0.573786612437,0.818987170659,0.00311200674098,0.0,0.818955292604,-0.573719492152,-0.0117864303985,0.0,-0.00786766783425,0.00931166964074,-0.999925693545,0.0,0.54241071032,0.104498508362,0.304392701366,1.0,-0.113694285714,-0.14942677551,2.641
0.309368481939,0.0349692176207,-0.12613650076,-2.08655342198,0.0175348825299,2.11544144646,-0.000140258235633,-0.219084435552,-0.413938627083,-0.00658526679587,-0.502766998366,-0.062834891486,0.104243345361,-0.192505351936,0.573768462754,0.81899900651,0.00333547378679,0.0,0.818970807093,-0.573701545223,-0.0115802003012,0.0,-0.00757075183676,0.00937618990511,-0.999927382753,0.0,0.540999670789,0.102564240611,0.304503872647,1.0,-0.114437142857,-0.150403102041,2.654
0.3050564131,0.0268186669297,-0.126236055445,-2.09674714772,0.0163223509005,2.11728622156,-0.00390159320367,-0.214167360826,-0.41827117448,-0.00322951043667,-0.505893341296,-0.0653628968937,0.0862388976808,-0.197836031132,0.573829989434,0.818956550384,0.0031715469707,0.0,0.818925632537,-0.573762879503,-0.0117351343997,0.0,-0.00779099926474,0.00933141281629,-0.999926109803,0.0,0.538654186151,0.0995123031936,0.304446257554,1.0,-0.11558,-0.151905142857,2.674
0.301530293199,0.0202534089521,-0.126293054481,-2.10490785416,0.0153750830318,2.11878579917,-0.00704930102159,-0.222783777988,-0.417289242639,-0.00534525372079,-0.502247545453,-0.0523466249651,0.0987462528429,-0.194564390851,0.573812132754,0.818969307768,0.00310743302326,0.0,0.818937002001,-0.573744589959,-0.011835503676,0.0,-0.00791019366258,0.00933632724375,-0.999925128112,0.0,0.53676892718,0.0970650989048,0.304409343905,1.0,-0.116494285714,-0.15310677551,2.69
0.297707528561,0.0131466265538,-0.126392740102,-2.11334215546,0.0143173826771,2.12047602322,-0.01034555729,-0.230209623455,-0.403780311023,-0.00478019624856,-0.505628834048,-0.0666047613235,0.0886848164849,-0.191610121345,0.573896786946,0.818909038207,0.0033484289596,0.0,0.818880851537,-0.573829618933,-0.0115959614702,0.0,-0.00757475577827,0.00939703030901,-0.999927156795,0.0,0.534864228971,0.094434052199,0.304542751467,1.0,-0.117465714286,-0.154383510204,2.707
0.293789034643,0.00617304078506,-0.126424180233,-2.12202737688,0.0133138152488,2.12194470587,-0.0137949994927,-0.225028405753,-0.406284343427,-0.00176511287438,-0.507640059722,-0.0554161883271,0.0934024583564,-0.209030529753,0.573894939804,0.818910967078,0.00318950906624,0.0,0.818879648795,-0.57382699967,-0.0118085621674,0.0,-0.00784008559237,0.00938887890325,-0.999925188207,0.0,0.53280814057,0.0917921458946,0.304455430594,1.0,-0.118437142857,-0.155660244898,2.724
0.290578205428,0.000352501919088,-0.126429816685,-2.12915095526,0.0124520960419,2.12321972002,-0.0166551004832,-0.228988097662,-0.411859773556,-0.00103707588652,-0.506545742344,-0.0645576022186,0.0950197945418,-0.203034915337,0.573826807353,0.818958798441,0.00316678381393,0.0,0.81892694535,-0.573758671487,-0.0118487119776,0.0,-0.00788678909538,0.00939265399834,-0.999924785476,0.0,0.53112429623,0.0896512050247,0.304432714056,1.0,-0.119237142857,-0.156711673469,2.738
0.286630291992,-0.00682206161896,-0.12642211369,-2.13757363053,0.0113996984081,2.12482094069,-0.0202071233075,-0.23620687586,-0.418852684771,-0.000492404914604,-0.497074876078,-0.0573108988785,0.0985262700322,-0.204020831906,0.57369748848,0.81904838867,0.00341696214303,0.0,0.819020597449,-0.573629516169,-0.0116269529968,0.0,-0.00756311238965,0.00946909841828,-0.999926565057,0.0,0.529158061763,0.0870661507836,0.304556257292,1.0,-0.11998,-0.157688,2.755
0.28228065794,-0.0143284956499,-0.126460656047,-2.14667990996,0.0102662000983,2.12631840308,-0.023964582208,-0.246587833709,-0.416285033398,-0.00608344838053,-0.508249561887,-0.0652045987804,0.0745890950809,-0.216089596024,0.573723841351,0.819030275626,0.00333292294965,0.0,0.819001016918,-0.573655671599,-0.0117154441122,0.0,-0.00768350119841,0.00945127885064,-0.999925815817,0.0,0.52696792875,0.0842176411678,0.304519022266,1.0,-0.11998,-0.157688,2.773
0.278606668854,-0.0205094147222,-0.126544890498,-2.15422985428,0.00933219766721,2.12741985684,-0.027195005207,-0.248655827132,-0.409451035812,-0.00369146609701,-0.496367651037,-0.0558656488257,0.0772648070662,-0.213989992561,0.573749121986,0.819013323412,0.00314133671247,0.0,0.818980587507,-0.573680435206,-0.0119290590343,0.0,-0.0079680882829,0.00941716224294,-0.999923910417,0.0,0.524990899968,0.0816524028198,0.304440958056,1.0,-0.11998,-0.157688,2.789
0.274142246206,-0.0281049979235,-0.126632690883,-2.16295132033,0.00821071849896,2.12901174389,-0.0309883959056,-0.247905455623,-0.423930691203,-0.00253598318285,-0.483057464159,-0.0622362392843,0.0833285119793,-0.215211560409,0.573866450574,0.818929788692,0.00347059060544,0.0,0.818902577653,-0.57379813998,-0.0116193704572,0.0,-0.0075241750229,0.00951022557626,-0.999926468496,0.0,0.523054682383,0.0789429094953,0.304601518285,1.0,-0.11998,-0.157688,2.806
0.269599918417,-0.0355010815292,-0.126731527014,-2.17184255871,0.00709221525772,2.13034406868,-0.0348674175104,-0.260717833289,-0.412105199252,-0.000558456456294,-0.496954202096,-0.0555246424108,0.0630120350116,-0.21685049404,0.573983108239,0.818848508222,0.0033554343562,0.0,0.818819163102,-0.573914360276,-0.0117572151157,0.0,-0.00770179437979,0.00949611965749,-0.999925250244,0.0,0.520861937888,0.0760391393025,0.304540676907,1.0,-0.11998,-0.157688,2.824
0.265591273778,-0.0420754385309,-0.126734202489,-2.17967825569,0.0061385763739,2.13149500187,-0.0384543931122,-0.245656646237,-0.408393294435,0.000866337523721,-0.488825885471,-0.0551813260704,0.0752388995207,-0.223623475514,0.573890581869,0.818913567332,0.00330396463426,0.0,0.818882792324,-0.573821095108,-0.0118772954023,0.0,-0.00783074450963,0.00952201108312,-0.999924002485,0.0,0.518902593032,0.0735460837762,0.304500527275,1.0,-0.11998,-0.157688,2.84
0.261064140374,-0.0495163669052,-0.126730674345,-2.18819673097,0.00502204959598,2.13289758369,-0.0423731416316,-0.249722135827,-0.424035735565,-0.00166199377384,-0.465822649387,-0.0606508139242,0.0716218294284,-0.219790659338,0.573865159577,0.818930445894,0.00352849991236,0.0,0.818903463359,-0.573796001942,-0.0116624506072,0.0,-0.00752624163691,0.0095823593676,-0.999925764282,0.0,0.516807592127,0.0707698462701,0.304606716137,1.0,-0.11998,-0.157688,2.858
0.25719577909,-0.0556653630451,-0.126737016219,-2.19530842116,0.00405449321092,2.13390443175,-0.045785864573,-0.260804897826,-0.411570256123,0.00104096561767,-0.484573621552,-0.0694266972048,0.0624322861989,-0.227278479495,0.573786728386,0.818985364732,0.0035368890649,0.0,0.818958747583,-0.573717882252,-0.0116236071632,0.0,-0.00749053186389,0.00956622194453,-0.999926186941,0.0,0.51501527214,0.0684104405297,0.304635290646,1.0,-0.11998,-0.157688,2.873
0.252772428161,-0.0625584270054,-0.126785455978,-2.20350346696,0.00303750160784,2.13493988996,-0.0496010223741,-0.254935014858,-0.414550641519,0.000611524855304,-0.479429813476,-0.0605800690429,0.0633337941345,-0.227522208226,0.573834945419,0.818952251018,0.00337829387997,0.0,0.818922355169,-0.573765094251,-0.0118549451214,0.0,-0.00777043649137,0.00956952641034,-0.999924019354,0.0,0.512900556803,0.0657178324101,0.304543891149,1.0,-0.11998,-0.157688,2.89
0.248030301659,-0.0698413683491,-0.126840145922,-2.21186315577,0.00192004744522,2.13612457115,-0.0537315365518,-0.270101959315,-0.406741669057,-0.00795135509875,-0.447905734246,-0.062925056818,0.0636410551213,-0.229326538435,0.573838547585,0.818949429562,0.00344964165822,0.0,0.818920736873,-0.573768789561,-0.0117876947006,0.0,-0.00767437688782,0.00958940132078,-0.999924570816,0.0,0.510775054092,0.0628696196511,0.30457474992,1.0,-0.11998,-0.157688,2.908
0.243761574232,-0.0762950566163,-0.126931989637,-2.21915459406,0.000942288749245,2.13715492973,-0.0574405375168,-0.265307715095,-0.396457163473,-0.00201786908954,-0.462441562708,-0.0523338182305,0.0612516875275,-0.235011879871,0.573891602483,0.818911652934,0.00358889802053,0.0,0.81888523111,-0.573821962436,-0.0116653588675,0.0,-0.00749365408318,0.00963373255818,-0.999925515399,0.0,0.508918164298,0.0603163968624,0.304639140012,1.0,-0.11998,-0.157688,2.924
0.23949873392,-0.082730509183,-0.126938701243,-2.22664054375,-2.70010678619e-05,2.13799201464,-0.0611618093479,-0.26197517893,-0.402651940762,-0.000604921885657,-0.46609674133,-0.0550581835802,0.0576310473542,-0.229587299976,0.573856630619,0.818936718886,0.00345902532598,0.0,0.818907677996,-0.573786250359,-0.0118448604043,0.0,-0.0077155984926,0.00963005948806,-0.999923862849,0.0,0.506931724414,0.0578187367408,0.304576558295,1.0,-0.11998,-0.157688,2.94
0.234974118744,-0.0895334790017,-0.126915998772,-2.23449380676,-0.00105934336739,2.13890917213,-0.0651650972122,-0.268818478411,-0.406738991411,0.000682555340807,-0.454273632064,-0.057586111872,0.0510770824535,-0.24537688974,0.573744301192,0.81901575244,0.00337949792819,0.0,0.818985039907,-0.573673435967,-0.0119599404361,0.0,-0.00785680269487,0.00962989131861,-0.99992276494,0.0,0.504842847575,0.0552082430382,0.304526575583,1.0,-0.11998,-0.157688,2.957
0.230589480147,-0.0959858151464,-0.126947896749,-2.24156300815,-0.00205311260112,2.13984660029,-0.0689858498231,-0.277764168016,-0.392478432383,-0.000465970516033,-0.442832401598,-0.0634785900864,0.0600983386838,-0.235976958629,0.573728654518,0.819025803307,0.0035932442672,0.0,0.818998938295,-0.573658382148,-0.0117280247089,0.0,-0.00754440541859,0.00967175328747,-0.999924766738,0.0,0.503001185875,0.0526912287638,0.304643312075,1.0,-0.11998,-0.157688,2.973
0.22558592981,-0.103122855732,-0.127037601682,-2.24966037629,-0.0031646427429,2.14067540885,-0.0732800348362,-0.276984401879,-0.394269038093,-0.00492394919887,-0.45125148846,-0.0553924704358,0.0444703648863,-0.239808583244,0.573811215169,0.818968332228,0.00350814135352,0.0,0.818939835875,-0.573740551911,-0.011835168389,0.0,-0.00768001302491,0.00966429512695,-0.999923806497,0.0,0.50081634934,0.0498123653357,0.30461260699,1.0,-0.11998,-0.157688,2.991
0.221061049374,-0.109486105873,-0.127153118683,-2.25688697815,-0.00414360489702,2.14138866603,-0.0771595440186,-0.283551671145,-0.387273839807,-0.00740900959811,-0.449235512846,-0.0590152654893,0.0469961152075,-0.245821937428,0.573923738485,0.818889836834,0.00342409609241,0.0,0.818859519584,-0.57385245429,-0.0119664026996,0.0,-0.00783439044415,0.00967184246778,-0.999922535894,0.0,0.498848712343,0.0472197412692,0.304565947944,1.0,-0.11998,-0.157688,3.007
0.216244399425,-0.116240107299,-0.1272191384,-2.26427911269,-0.00520146851383,2.14223087468,-0.0813133465219,-0.284429140548,-0.402364564125,-0.0011290340052,-0.423644309632,-0.0556742429942,0.0563598218588,-0.246352763704,0.573963349518,0.818861639301,0.00352647026361,0.0,0.818833255113,-0.573892441537,-0.0118453690656,0.0,-0.00767605148937,0.00968658532696,-0.999923621232,0.0,0.496968902808,0.0446744623659,0.304622446561,1.0,-0.11998,-0.157688,3.023
0.210601605209,-0.124048133836,-0.127207923199,-2.27287732223,-0.00636572853722,2.14313434789,-0.086325256042,-0.279560873663,-0.389618642002,0.000327307345044,-0.43586268466,-0.0577763093434,0.0456744376885,-0.237932353324,0.57385409704,0.818937605594,0.00366338034577,0.0,0.818911220916,-0.573783019624,-0.0117560857162,0.0,-0.00752566014303,0.00974644887437,-0.999924182713,0.0,0.494499515549,0.0414363960398,0.304670275238,1.0,-0.11998,-0.157688,3.044
0.206593355376,-0.129529606962,-0.127206483441,-2.27900493152,-0.00723656833785,2.14358737087,-0.089803920146,-0.290853007099,-0.392451014081,-0.000129269452523,-0.434086380549,-0.057469378707,0.0334611897013,-0.259932643826,0.573820463231,0.818961759004,0.003529896259,0.0,0.818933011734,-0.573749049934,-0.0118952466746,0.0,-0.00771662608438,0.00971667160756,-0.999923017024,0.0,0.492763697613,0.0392531908544,0.304625433832,1.0,-0.11998,-0.157688,3.058
0.202509750275,-0.135014507753,-0.127231224042,-2.28506286173,-0.0080819630223,2.14411570236,-0.0933784606779,-0.296141220043,-0.388488653167,-0.00198109645693,-0.429231873963,-0.0604788842606,0.0340727291243,-0.245600212602,0.573799903,0.818976239499,0.00351245708826,0.0,0.818946997915,-0.573728219671,-0.0119369786745,0.0,-0.0077610555783,0.00972614065165,-0.999922581105,0.0,0.491060831204,0.0370425337535,0.304610649438,1.0,-0.11998,-0.157688,3.072
0.196032646539,-0.143617785368,-0.127324168912,-2.29417284252,-0.00936869173852,2.14505909412,-0.0990323914275,-0.297370617756,-0.389680116203,-0.00578967839704,-0.420792464226,-0.0564824702066,0.0450887183039,-0.254277596892,0.573846712687,0.818941982115,0.00383759929321,0.0,0.818918193725,-0.573775517306,-0.0116359196884,0.0,-0.00732736368816,0.00982010321115,-0.99992493484,0.0,0.488533502349,0.0335603574437,0.30475523289,1.0,-0.11998,-0.157688,3.094
0.191249106937,-0.149754672034,-0.127434818667,-2.30096460685,-0.0103299421963,2.14551717008,-0.103158613508,-0.303273625638,-0.38553505022,0.00184442169011,-0.435309219431,-0.061771652143,0.0194447947783,-0.258002745176,0.57394408918,0.818874251452,0.00372688953828,0.0,0.818848196178,-0.573872141095,-0.0117959396404,0.0,-0.00752077796253,0.00982215571564,-0.99992347865,0.0,0.486572000716,0.0309868066895,0.304691995819,1.0,-0.11998,-0.157688,3.11
0.185916611867,-0.156698786515,-0.1274300193,-2.30855172516,-0.0114531291059,2.14597585468,-0.107906046019,-0.29686092817,-0.383557280979,0.00125253069422,-0.417986342621,-0.0615286411934,0.0315977297597,-0.266793325077,0.573798129238,0.81897713607,0.00359226651018,0.0,0.818948841345,-0.573726041894,-0.0119151589937,0.0,-0.00769741414122,0.00977896671188,-0.999922557814,0.0,0.484351040614,0.02819803073,0.304646347972,1.0,-0.11998,-0.157688,3.128
0.181132875059,-0.162821072353,-0.127420198129,-2.31507897759,-0.0123822354715,2.14643896227,-0.112093316705,-0.30530802275,-0.381844889496,0.000979010426638,-0.405390192138,-0.0544030107526,0.033567127944,-0.263540210078,0.573756016033,0.819006381911,0.00365066504825,0.0,0.818978930424,-0.57368383378,-0.0118792795229,0.0,-0.00763502521897,0.0098058146413,-0.999922773213,0.0,0.482449426254,0.0257350709108,0.304671873617,1.0,-0.11998,-0.157688,3.144
0.176222555403,-0.168943790057,-0.127443163619,-2.32142435109,-0.0132623433019,2.14693679669,-0.116412920019,-0.308668898585,-0.378217512335,-0.00132004134058,-0.393617047,-0.0552186744376,0.0343241341612,-0.275273015826,0.573756047534,0.819005306402,0.0038798072021,0.0,0.818981452771,-0.573683909576,-0.0117003765571,0.0,-0.00735702916868,0.00989084237628,-0.999924019793,0.0,0.480609107894,0.0232249123278,0.304770677868,1.0,-0.11998,-0.157688,3.16
0.171599433468,-0.17459764064,-0.127484605106,-2.3276158939,-0.0141279372487,2.1471945367,-0.120431180699,-0.313865678435,-0.376495818718,-0.00740842713231,-0.40701195099,-0.0649575986223,0.0157955994389,-0.262666809415,0.573787776323,0.818983768926,0.00373106947738,0.0,0.818956727374,-0.573714482084,-0.0119297374961,0.0,-0.00762983968207,0.00990091262205,-0.999921875686,0.0,0.478739785941,0.0208624403895,0.304683288845,1.0,-0.11998,-0.157688,3.175
0.165905259882,-0.181410190101,-0.127646223363,-2.33485093232,-0.0152420008645,2.14755289853,-0.125385135364,-0.318553586497,-0.376140399792,-0.0063150671581,-0.399443488022,-0.0576722726947,0.0295740740756,-0.287792388919,0.573891505832,0.818911270408,0.0036902077385,0.0,0.818883542095,-0.573818144002,-0.0119678319422,0.0,-0.00768323223034,0.00989027789731,-0.999921572097,0.0,0.476565206597,0.0179236510349,0.304669195142,1.0,-0.11998,-0.157688,3.193
0.16090417967,-0.187447591248,-0.12767372673,-2.34115848005,-0.016143927748,2.14789223971,-0.129789669799,-0.308325414046,-0.36275167219,-0.000285029910633,-0.391067124698,-0.0549949299294,0.0263517399878,-0.281313949139,0.573877133362,0.818920966439,0.0037727221372,0.0,0.818894336983,-0.573803507077,-0.0119309272465,0.0,-0.00760583171351,0.00993653842891,-0.999921705199,0.0,0.474660769393,0.0154295411698,0.304694676868,1.0,-0.11998,-0.157688,3.209
0.155887220449,-0.19349070655,-0.127674422775,-2.34728738271,-0.017079724098,2.14824749845,-0.13424337708,-0.314672789065,-0.371718460153,-0.00118567100682,-0.388701250199,-0.0568083879313,0.0132930309372,-0.289913016811,0.57379742749,0.818975979596,0.00395018361989,0.0,0.818952742103,-0.573724655562,-0.0117120750823,0.0,-0.00732573146995,0.00995556393558,-0.999923607285,0.0,0.472809400013,0.0129575203277,0.304793588675,1.0,-0.11998,-0.157688,3.225
0.150406340327,-0.199798171116,-0.127704433186,-2.35398338251,-0.0181100500844,2.14843012496,-0.13906979884,-0.324592305379,-0.362288578139,-0.000879668254303,-0.395947834165,-0.0641176239951,0.0152962537047,-0.273526490863,0.573758009932,0.819004245546,0.00381296707421,0.0,0.818978632466,-0.573684907086,-0.0118479469265,0.0,-0.00751622188267,0.00992078401623,-0.999922539226,0.0,0.470720029059,0.0102637128208,0.304732495622,1.0,-0.11998,-0.157688,3.242
0.144913156963,-0.206100265796,-0.127772680887,-2.3605944829,-0.0190419285216,2.14861771994,-0.143887270494,-0.326640532515,-0.37369011499,-0.00807268878312,-0.3898810825,-0.0511951657711,0.0114247250466,-0.29032542628,0.57380802786,0.818969273451,0.00379778985226,0.0,0.818942580923,-0.573733812183,-0.0119711658042,0.0,-0.0076252433208,0.00997951500131,-0.999921129362,0.0,0.46864562115,0.00758459563442,0.30469465331,1.0,-0.11998,-0.157688,3.259
0.138660939789,-0.213130076739,-0.127919369913,-2.36772884448,-0.020087934034,2.14883919057,-0.149359021431,-0.329433702602,-0.368977375672,-0.0100081455682,-0.366949425343,-0.0480436127654,0.0169582173538,-0.285634934374,0.573938227617,0.818877369836,0.00393839457155,0.0,0.818852555134,-0.573863550786,-0.0119107065612,0.0,-0.00749345124066,0.0100611679801,-0.999921307447,0.0,0.466401629975,0.00453379109646,0.304746083953,1.0,-0.11998,-0.157688,3.278
0.134100997013,-0.218290730195,-0.127912991705,-2.37285174131,-0.0208860661253,2.14900677674,-0.15335346055,-0.325872814831,-0.368664278761,0.000199907945794,-0.370411954914,-0.0523304392029,0.00198424195883,-0.287955397329,0.573921403191,0.818888504104,0.00407280081634,0.0,0.818866325691,-0.573847485984,-0.0117367107961,0.0,-0.00727403108516,0.0100712228709,-0.999922826493,0.0,0.464782802682,0.00237433881142,0.304827324077,1.0,-0.11998,-0.157688,3.292
0.12785744074,-0.225193430123,-0.127911927439,-2.38005992341,-0.0220325258616,2.14907482118,-0.158992208323,-0.332411588326,-0.357110761993,-0.00263949247887,-0.377940356153,-0.0592018064778,0.000844683431743,-0.298208758447,0.573738386463,0.819017600408,0.00389628317662,0.0,0.818992485207,-0.573664219416,-0.0118919904894,0.0,-0.00750473575696,0.0100141108798,-0.999921695196,0.0,0.462319554227,-0.00072426817596,0.304744509848,1.0,-0.11998,-0.157688,3.312
0.122446417684,-0.230999947532,-0.1279433194,-2.38597593791,-0.0229222679986,2.14909467049,-0.163753978432,-0.33248387863,-0.369148634107,0.000473626907316,-0.370338516511,-0.0513291054044,0.000704560572797,-0.307362390266,0.573748217906,0.819010774186,0.00388344148954,0.0,0.818985083946,-0.573673552096,-0.0119513514302,0.0,-0.0075606034788,0.0100377404966,-0.999921037403,0.0,0.460502841855,-0.00309363100666,0.304732717785,1.0,-0.11998,-0.157688,3.327
0.116319345794,-0.237523000294,-0.128089413855,-2.3925003625,-0.0238965487372,2.14912344819,-0.169140960446,-0.343708162222,-0.364481115913,-0.0106923116797,-0.356845581371,-0.0532854253901,0.00225815724,-0.302735634287,0.573871674225,0.818923860105,0.00396985827151,0.0,0.818899018203,-0.573796308311,-0.0119558126189,0.0,-0.00751315485139,0.0101122099367,-0.999920644709,0.0,0.458350702859,-0.00597636983521,0.304756551707,1.0,-0.11998,-0.157688,3.345
0.110435924622,-0.243638394374,-0.128190409006,-2.39845866118,-0.0248998438428,2.14922433304,-0.174328464406,-0.339396682784,-0.356133994708,-0.0054206899718,-0.356492122347,-0.0622763218691,0.00618577695338,-0.297178230586,0.57391920008,0.818889825764,0.0041172733792,0.0,0.81886822942,-0.573845146325,-0.0117182672393,0.0,-0.00723343173905,0.0100970373216,-0.999922860676,0.0,0.456387471642,-0.00871500717069,0.304844772411,1.0,-0.11998,-0.157688,3.362
0.105018688892,-0.249355495183,-0.128169788764,-2.40423523179,-0.0257568372252,2.14920420177,-0.179219127699,-0.342077713486,-0.345608382994,0.0024211875828,-0.363658861524,-0.0526921514193,-0.000388415126971,-0.301745247088,0.573798933805,0.818974152052,0.00410715661598,0.0,0.818951995329,-0.573724334204,-0.0117798382876,0.0,-0.00729114775512,0.0101230176551,-0.999922178811,0.0,0.454442401485,-0.0111500656156,0.304815030411,1.0,-0.11998,-0.157688,3.378
0.0990693050357,-0.255356287859,-0.128201312914,-2.41031488758,-0.0266808739272,2.14915162136,-0.184531767491,-0.353810189782,-0.357396762924,0.000176178418516,-0.348428340024,-0.0583477778067,-0.000799606101005,-0.305182612511,0.573769276741,0.818995114965,0.00407008999313,0.0,0.818971888846,-0.573693996007,-0.0118739684671,0.0,-0.00738987825561,0.0101464029386,-0.999921217,0.0,0.452249343752,-0.0139833909133,0.304763041758,1.0,-0.11998,-0.157688,3.396
0.0938079579305,-0.260609409661,-0.128240583314,-2.41551990594,-0.0274880825339,2.14910869385,-0.189156036045,-0.351935583328,-0.352516314434,-0.00875476146172,-0.342478899083,-0.0525524040978,-0.00794667420845,-0.312682301688,0.573816572691,0.818961836433,0.00409856973253,0.0,0.818938938288,-0.573741127728,-0.0118693138133,0.0,-0.00736913889607,0.0101674830733,-0.999921155932,0.0,0.450584261334,-0.0161803076269,0.304758392352,1.0,-0.11998,-0.157688,3.41
0.0862845277661,-0.268015823646,-0.128408529794,-2.422548319,-0.0286272130123,2.14902210629,-0.195872237215,-0.357328041351,-0.352409681756,-0.00508378138979,-0.32968809907,-0.0540394643828,-0.0013506376533,-0.332711896281,0.573900705369,0.818901725243,0.00432338668578,0.0,0.818882831688,-0.5738260497,-0.0116326933256,0.0,-0.00704529637413,0.010216554737,-0.999922989939,0.0,0.448146013066,-0.0195688651843,0.30487493564,1.0,-0.11998,-0.157688,3.431
0.0816855003821,-0.272543758215,-0.128423550358,-2.42694248288,-0.0293367549248,2.1489268205,-0.199955443094,-0.350148211883,-0.356279052395,0.00365683011512,-0.34228610924,-0.0498379612676,-0.0109642640226,-0.312460863626,0.57389009244,0.818908988449,0.0043562985543,0.0,0.818890781069,-0.573815717105,-0.0115826760568,0.0,-0.00698557944839,0.0102147124235,-0.999923427733,0.0,0.446601567191,-0.0215824627192,0.304891214581,1.0,-0.11998,-0.157688,3.444
0.0745370307938,-0.27941905732,-0.128431067507,-2.43382609554,-0.0304326771196,2.14865649118,-0.206445770968,-0.358447312697,-0.341257578111,-0.00130780776008,-0.339385856337,-0.0520719944722,-0.0213802562253,-0.324477977012,0.573741623205,0.819013776448,0.00421078283419,0.0,0.818992689961,-0.573666303746,-0.0117767838758,0.0,-0.00722990321024,0.0102056279472,-0.99992178377,0.0,0.444134659438,-0.0246732181641,0.304797236507,1.0,-0.11998,-0.157688,3.464
0.0697635155071,-0.283897803354,-0.128467153996,-2.43811356768,-0.031122378529,2.1485268458,-0.210701134226,-0.367375918358,-0.341252286265,-0.00310927131017,-0.325840707656,-0.0432600627584,-0.00534015912773,-0.328519212789,0.573756153311,0.819003289687,0.00427023667798,0.0,0.818983260342,-0.573681043634,-0.0117143653782,0.0,-0.00714448750087,0.0102186383153,-0.999922264843,0.0,0.442591949191,-0.0267360723955,0.304820274461,1.0,-0.11998,-0.157688,3.477
0.061980053854,-0.291075802412,-0.12863616951,-2.44494888611,-0.0321880595827,2.14825705046,-0.217635288804,-0.375900738021,-0.339031658698,-0.0129014458061,-0.325238138497,-0.0489169978652,-0.0104982637296,-0.335251721517,0.573896738826,0.818904077724,0.00440358409504,0.0,0.818885734221,-0.573821121572,-0.0116714021568,0.0,-0.00703102462365,0.010304410222,-0.999922188884,0.0,0.440092838017,-0.0301108956098,0.304852983112,1.0,-0.11998,-0.157688,3.498
0.0571682101329,-0.295494729647,-0.128690424625,-2.44903975321,-0.0328400974308,2.14811191278,-0.221935846273,-0.369358325465,-0.337792099487,-0.00256125153093,-0.318244718664,-0.0517775456204,-0.00898009123339,-0.328891287665,0.573937112956,0.818874984435,0.00454941090972,0.0,0.818859205745,-0.573862058279,-0.0115189468129,0.0,-0.00682197442768,0.0103366770953,-0.999923303945,0.0,0.438588615766,-0.032161263987,0.304920427623,1.0,-0.11998,-0.157688,3.511
0.0497749166392,-0.302241438783,-0.128680659723,-2.45547777321,-0.0338906869576,2.14773176251,-0.228668267188,-0.379284035018,-0.337018391283,0.000580628527333,-0.328318472208,-0.0540227266678,-0.0284468897599,-0.331836853566,0.573794223244,0.818975232135,0.00452829121985,0.0,0.818959075076,-0.573719093585,-0.0115404466225,0.0,-0.00685350476869,0.0103305256894,-0.999923151903,0.0,0.436174405202,-0.0352427764604,0.304912307758,1.0,-0.11998,-0.157688,3.531
0.0448440650673,-0.306541393326,-0.128713349967,-2.45967150896,-0.0346165556424,2.14742134953,-0.233034065967,-0.381431630225,-0.335069762827,-0.00348592259458,-0.322317074282,-0.0598684693211,-0.0273316958536,-0.339970183581,0.573821073779,0.818957102549,0.00440299590673,0.0,0.818938745857,-0.573745462149,-0.0116714222781,0.0,-0.0070323306443,0.0103032903803,-0.999922191239,0.0,0.434568799623,-0.0373013595463,0.304852038242,1.0,-0.11998,-0.157688,3.544
0.0368530831078,-0.313453790515,-0.128862239515,-2.46617435139,-0.0356452580835,2.14703553535,-0.240255093841,-0.381537566435,-0.323592719294,-0.00716182968306,-0.309577260245,-0.0441782107102,-0.0196926234302,-0.34876697775,0.573891602003,0.818907119256,0.004506227155,0.0,0.818889931568,-0.573815406701,-0.011657869037,0.0,-0.00696110340491,0.010380657044,-0.999921889449,0.0,0.432070915384,-0.0406395868674,0.304858927046,1.0,-0.11998,-0.157688,3.565
0.0318209834479,-0.317735474339,-0.128940460061,-2.47014757718,-0.036296805431,2.14673498479,-0.244760700982,-0.381835753582,-0.328871899596,-0.00703409789505,-0.305982806009,-0.0585085972523,-0.0188731709989,-0.348108531021,0.573957460383,0.818860706131,0.00455241985421,0.0,0.818844094599,-0.573881077486,-0.0116449364711,0.0,-0.00692316658289,0.010411620733,-0.999921830904,0.0,0.430514641746,-0.0427206981094,0.304875166298,1.0,-0.11998,-0.157688,3.578
