nelsonifechukwu/NELSON_IML_WORK/CNN-GradCAM/train2dof/data_sample_2022-02-21-14-13-57/robot_state.csv
position_joint1,position_joint2,position_joint3,position_joint4,position_joint5,position_joint6,position_joint7,velocity_joint1,velocity_joint2,velocity_joint3,velocity_joint4,velocity_joint5,velocity_joint6,velocity_joint7,ee_T_00,ee_T_10,ee_T_20,ee_T_30,ee_T_01,ee_T_11,ee_T_21,ee_T_31,ee_T_02,ee_T_12,ee_T_22,ee_T_32,ee_T_03,ee_T_13,ee_T_23,ee_T_33,v_x,v_y,time
0.465094983077,0.547805235971,-0.123981785609,-1.35576196143,0.0794796857151,1.89408756238,0.159168412803,0.00085880953659,3.79744256216e-05,-0.000493928736026,8.12371530695e-05,0.000285080251093,-0.000143701427827,0.000177900883976,0.57378184752,0.818994072918,0.00196134732398,0.0,0.818951279535,-0.573723432668,-0.0118731401453,0.0,-0.0085989260425,0.00841900228088,-0.999927586814,0.0,0.661684180024,0.260912414841,0.303229764715,1.0,0.0,0.0,0.0
0.465092160041,0.5478051565,-0.123984261488,-1.35576671796,0.0794816148047,1.894087318,0.159168775484,1.71844784796e-05,0.000244523668512,-0.000953432231396,-0.000343617742281,0.00021562969865,-0.00680369645997,0.00104891426016,0.573786955337,0.818990502994,0.00195775158578,0.0,0.818947652724,-0.573728544738,-0.0118762768827,0.0,-0.00860350565374,0.00841791088993,-0.999927556609,0.0,0.661684239213,0.260908845494,0.303227621451,1.0,-0.00018,-0.000236571428571,0.01
0.465096668989,0.54780979687,-0.123979218184,-1.35576381378,0.0794781674395,1.89408615569,0.159164528701,0.00130069596284,0.0021570676288,0.000452046161244,0.000852233243312,-0.000323811306306,-0.000214805489538,0.000305455122067,0.573775189022,0.81899875412,0.00195451118295,0.0,0.818955868001,-0.573716799355,-0.0118771758136,0.0,-0.00860622199003,0.00841564922714,-0.999927552271,0.0,0.661682408682,0.26091439308,0.303225442058,1.0,-0.00046,-0.000604571428571,0.024
0.465090722809,0.547793451843,-0.123982167638,-1.35578015264,0.0794796811056,1.89409079257,0.159166469859,-0.000357458845257,-9.88823753553e-05,-3.62596732187e-05,0.000151426428098,6.68168257804e-05,-7.83340501601e-05,-0.00430640730132,0.573785005902,0.818991865102,0.00195928562231,0.0,0.818949032315,-0.573726586815,-0.0118757295856,0.0,-0.00860219728906,0.00841883272343,-0.999927560105,0.0,0.661682164891,0.260907588186,0.303229747902,1.0,-0.00084,-0.001104,0.043
0.465090405493,0.547710952446,-0.123984952029,-1.35586470106,0.0794782616234,1.89410780964,0.159157328144,-0.000738176746497,-0.00724851413782,-0.00153225746385,-0.00214150863731,-5.18679345075e-05,0.00205224009412,-0.0021904824148,0.573783936876,0.818992577005,0.00197471380559,0.0,0.818949907105,-0.573725417553,-0.0118718914748,0.0,-0.00859021287839,0.00842925460547,-0.999927575332,0.0,0.661669162597,0.260897743063,0.303249517895,1.0,-0.00116,-0.00152457142857,0.059
0.465087474401,0.547585675498,-0.123977183626,-1.35603312833,0.0794795463828,1.89413782257,0.159161688555,-0.00288836857578,-0.00614124981373,0.000952555877837,-0.0104388854555,0.00046935704233,7.56649302508e-05,-0.000269180049662,0.57379400118,0.818985529525,0.00197320561147,0.0,0.818942654249,-0.573735304631,-0.0118943756659,0.0,-0.00860938958793,0.00844102616162,-0.999927311102,0.0,0.661638753271,0.260884195522,0.30326045109,1.0,-0.00148,-0.00194514285714,0.075
0.465075107373,0.547441963729,-0.123982249484,-1.35624484614,0.0794750222687,1.89421030027,0.159150941845,-0.00421940671153,-0.00675181195374,4.4788757866e-05,-0.0143604207829,-4.98366404487e-05,0.00227437009801,-0.00116456420325,0.573809474378,0.818974670964,0.00198048831755,0.0,0.818931833471,-0.573750689967,-0.0118972598677,0.0,-0.00860741366625,0.00844880802602,-0.999927262391,0.0,0.661613106441,0.260854026471,0.303267937378,1.0,-0.00182,-0.002392,0.092
0.465060550821,0.54725988474,-0.123980088077,-1.35645949169,0.0794702909994,1.89434019021,0.159148362863,-0.000939059121575,-0.0139175631102,0.00211508598104,-0.0141325679822,0.000306259550895,0.0112545783503,0.0011095140502,0.573828810282,0.818960908713,0.0020672182692,0.0,0.818919185534,-0.573769656151,-0.0118531070463,0.0,-0.00852128826341,0.00849470256522,-0.999927611217,0.0,0.661598179336,0.260830631418,0.30330594926,1.0,-0.00216,-0.00283885714286,0.109
0.465033318436,0.54706898158,-0.123983203392,-1.35668685166,0.0794672931773,1.89445710235,0.159135561992,-0.00533601579926,-0.017125819374,-0.001156343327,-0.013897476699,0.000130510382854,0.00678977409341,-0.000162178920655,0.573854883418,0.81894245091,0.00214050812282,0.0,0.818901647897,-0.573795401253,-0.0118184378855,0.0,-0.00845056947033,0.00853509825119,-0.999927867385,0.0,0.661582389758,0.260793797503,0.303343203536,1.0,-0.00248,-0.00325942857143,0.125
0.465000691234,0.546844632323,-0.123979405575,-1.35701361625,0.0794583813714,1.89457914523,0.159114104969,-0.00600230784005,-0.0141226951099,0.000920969933214,-0.0212147714763,0.000130932860666,0.00837101886532,-0.00245978069864,0.573877285652,0.818926690605,0.00216410013342,0.0,0.818886081464,-0.573817593687,-0.0118195457029,0.0,-0.00843770516784,0.00855528499951,-0.999927803509,0.0,0.661545836457,0.26074541426,0.303357029114,1.0,-0.00282,-0.00370628571429,0.142
0.464971516542,0.546576272273,-0.123980348301,-1.35741787754,0.07945003029,1.89472733149,0.159006545745,-0.00128692854888,-0.0169964400881,-0.000275144160704,-0.0232369079843,-0.00481502019528,0.00576746808188,-0.0108219098249,0.573830787042,0.818959213276,0.00218671777405,0.0,0.818918790208,-0.57377090236,-0.0118200486685,0.0,-0.00842562494741,0.00857361717308,-0.999927748356,0.0,0.661498059902,0.260682414805,0.303370112001,1.0,-0.00318,-0.00417942857143,0.16
0.4649313787,0.546292733587,-0.123980588697,-1.35786065692,0.0794343261977,1.8948891362,0.158937254874,-0.00421881786038,-0.0183753836656,0.00056975917159,-0.0307673424657,-0.00174587148222,0.00929373859602,-0.0013439378033,0.573831023817,0.81895903277,0.00219217969519,0.0,0.818918537357,-0.573770971732,-0.0118341907876,0.0,-0.00843407074912,0.00858620771641,-0.999927569121,0.0,0.661447545098,0.260622729848,0.303371622363,1.0,-0.0035,-0.0046,0.176
0.46487884633,0.545967199304,-0.123985364911,-1.35840218565,0.0793917996158,1.89507546127,0.158903150531,-0.00424594916421,-0.0190203340237,-0.000834111522201,-0.0299122990017,-0.00204114891869,0.0098507547486,-0.00765173675571,0.573868391639,0.818932935072,0.00215959118316,0.0,0.818892105876,-0.573808555004,-0.0118409475604,0.0,-0.00845791288452,0.00856378258316,-0.999927560045,0.0,0.661386136362,0.260530966932,0.30336063644,1.0,-0.00386,-0.00507314285714,0.194
0.46482203877,0.545654389668,-0.123988936451,-1.35895104753,0.0792960206506,1.89526458709,0.158820983164,-0.00194484697765,-0.0187611412096,-0.0025933425942,-0.0355353667919,-0.00302088893427,0.0106928753648,-0.010091327297,0.573855324906,0.818942288531,0.0020835148485,0.0,0.818901022948,-0.573796347813,-0.0118157840543,0.0,-0.00848109531093,0.00848690643754,-0.99992801913,0.0,0.661327029624,0.260427603758,0.303337234543,1.0,-0.00418,-0.00549371428571,0.21
0.464762758075,0.54528734536,-0.123986047118,-1.35958946175,0.0792820188054,1.89546910049,0.158750192955,-0.0036663584302,-0.0225285699293,-0.000258809201692,-0.0430103148213,-0.00054300324657,0.0107166477492,-0.00333690402288,0.573875667932,0.818928141493,0.00204052165656,0.0,0.818886032042,-0.573816577187,-0.0118722017266,0.0,-0.00855175959065,0.00848428572712,-0.999927439519,0.0,0.661246363742,0.260330718522,0.30331085546,1.0,-0.0045,-0.00591428571429,0.226
0.464690581196,0.54486344766,-0.123988632683,-1.36029476968,0.0792608686966,1.89570647354,0.158648786069,-0.00538066229635,-0.0244058967271,-0.000474505741775,-0.0391318345395,-0.000516490807325,0.0163411875709,-0.00511090295852,0.573887169207,0.818920146861,0.00201419596366,0.0,0.81887747304,-0.573827965412,-0.0119120594595,0.0,-0.00859938907508,0.00848572115997,-0.999927018859,0.0,0.661163314393,0.260216022966,0.303295870282,1.0,-0.00484,-0.00636114285714,0.243
0.464619827652,0.544430140996,-0.123990032534,-1.36103016342,0.0792303094098,1.8959654302,0.158573107764,-0.00275952995454,-0.0262140766333,-0.000556000918464,-0.0423052390051,-0.00235478455569,0.0159448818555,-0.00147969504909,0.573916977375,0.818899331441,0.00198367007612,0.0,0.818856115512,-0.573857754476,-0.0119451504053,0.0,-0.00864369764333,0.00848002825472,-0.999926685118,0.0,0.661077691115,0.260099454357,0.303275004966,1.0,-0.00518,-0.006808,0.26
0.464561135639,0.543961093968,-0.123997720516,-1.36179059141,0.0791960003211,1.89623559435,0.158476218323,-0.00431739703859,-0.0327359191394,-0.00191621936268,-0.0489141809405,-0.000635099059334,0.0245758492131,-0.0107000616202,0.573924283064,0.818894244961,0.00196971555246,0.0,0.818850756265,-0.573865028731,-0.0119630541496,0.0,-0.00866629217613,0.00847895359195,-0.999926498662,0.0,0.660987907389,0.259984876298,0.303268644231,1.0,-0.0055,-0.00722857142857,0.276
0.464478027412,0.543435424346,-0.124004143341,-1.36263277045,0.0791467236861,1.89652548297,0.158359564578,-0.00750761324478,-0.037176681115,-0.00545690074431,-0.0473865910453,-0.000169067423078,0.0213682539298,-0.00384978070874,0.573934955792,0.818886820169,0.00194658012771,0.0,0.818843009025,-0.573875777513,-0.0119777066437,0.0,-0.00869145825962,0.0084685311076,-0.999926368556,0.0,0.66089151372,0.259844853638,0.303265026799,1.0,-0.00584,-0.00767542857143,0.293
0.464405540743,0.542895293104,-0.124001919271,-1.36351719617,0.0790928040425,1.89684118202,0.158244204593,-0.00276891667205,-0.0322400722345,0.000220165619882,-0.0582286894723,-0.000396300857157,0.0215028531371,-0.00920503878842,0.57393308694,0.818888188378,0.00192186152045,0.0,0.818844020865,-0.57387398101,-0.0119945952456,0.0,-0.00871949392657,0.00845796273284,-0.999926213924,0.0,0.660786303154,0.259713042625,0.303253421044,1.0,-0.00618,-0.00812228571429,0.31
0.464345519713,0.542340017935,-0.124010393344,-1.36438724885,0.0790423721131,1.89715761584,0.158148291845,-0.00269294324383,-0.033565257319,-0.000495414743236,-0.0573705688092,-0.00537105274954,0.0187291361217,-0.00121442375082,0.573944509568,0.818880182248,0.00192196785965,0.0,0.818836024951,-0.573885410332,-0.0119936213332,0.0,-0.00871851736787,0.00845761247158,-0.999926225402,0.0,0.66068384427,0.259585798126,0.303259719202,1.0,-0.0065,-0.00854285714286,0.326
0.464258625148,0.541666317243,-0.124008055035,-1.3653970314,0.0789804859877,1.89753428843,0.158002465317,-0.00482074300818,-0.0442226227271,-0.00098500337842,-0.0590153653993,-0.00309400988722,0.0207524603564,-0.00526384569076,0.573934140733,0.81888736656,0.00195701063714,0.0,0.818843658732,-0.573874886511,-0.0119759795705,0.0,-0.00868406631037,0.00847607248521,-0.999926368883,0.0,0.660569294278,0.259434280352,0.303288027163,1.0,-0.00686,-0.009016,0.344
0.464180707725,0.541009234035,-0.124003014556,-1.36641707812,0.0789207119372,1.8979194465,0.157868617795,-0.00446456316843,-0.0423571909593,0.00159243095073,-0.060826416424,-0.000295244686916,0.0287594807526,-0.00661436496182,0.573925466761,0.818893396485,0.00197754826828,0.0,0.818849914639,-0.573866086047,-0.0119699407265,0.0,-0.00866742440731,0.00848933249517,-0.999926400786,0.0,0.660450381042,0.259289744374,0.303300258987,1.0,-0.0072,-0.00946285714286,0.361
0.46409946697,0.540341618725,-0.124008421191,-1.36742549898,0.0788654595054,1.89828074561,0.157738546577,-0.00800502463726,-0.0401801125092,-0.000361235303269,-0.0674702492412,-0.00460568179759,0.0244826660308,-0.0042787806615,0.573930260276,0.818889988459,0.00199750892808,0.0,0.818846718434,-0.573870747546,-0.0119651043314,0.0,-0.00865195878305,0.00850295278212,-0.999926418995,0.0,0.660332495067,0.259137597559,0.303323645905,1.0,-0.00752,-0.00988342857143,0.377
0.463998212556,0.539597341336,-0.124005915574,-1.3685755505,0.0788011081886,1.89872114891,0.157608906012,-0.00599808050739,-0.0454019353612,0.000701346368119,-0.0633768184196,-0.00756780091744,0.0238520244522,0.000350126892219,0.573951782698,0.818874825464,0.00202934976897,0.0,0.81883192372,-0.573892088052,-0.0119540314869,0.0,-0.00862439371746,0.00852289814979,-0.999926487318,0.0,0.660203361483,0.258964919256,0.303340291188,1.0,-0.00786,-0.0103302857143,0.394
0.463889478059,0.538845737785,-0.124011608716,-1.36973960455,0.0787327929221,1.89917402441,0.157467989079,-0.0091856375839,-0.0374089838553,0.000146762286131,-0.0707792707713,-0.00450366167217,0.0218702982432,-0.00934524547707,0.573975622944,0.818858033262,0.00206216645411,0.0,0.818815591398,-0.573915821242,-0.0119333278277,0.0,-0.00858835675369,0.00853813770399,-0.999926667478,0.0,0.660077470264,0.258781198444,0.303356669082,1.0,-0.0082,-0.0107771428571,0.411
0.463779953334,0.538059197498,-0.124018026796,-1.37095396526,0.0786650051289,1.89963728896,0.15730837924,-0.00760472230532,-0.0457768282069,0.000699460440625,-0.0753795477984,-0.000671563477615,0.0305606179011,-0.00201318324665,0.573988077796,0.818849224448,0.00209310042932,0.0,0.818807175683,-0.57392813765,-0.0119184212413,0.0,-0.00855826553192,0.00855504206069,-0.999926780993,0.0,0.659943017998,0.2585918255,0.303374577271,1.0,-0.00854,-0.011224,0.428
0.463674920816,0.537305724412,-0.124023291412,-1.37214594753,0.0785994823708,1.90007883969,0.157152209832,-0.00868427058222,-0.0476169607651,-0.0011444621341,-0.0767508242811,-0.0045162638906,0.0266887076157,-0.0165031472302,0.57400241048,0.818839140878,0.00210737542821,0.0,0.818797250766,-0.573942382953,-0.0119142808775,0.0,-0.0085465319901,0.00856450404301,-0.999926800352,0.0,0.659800217649,0.258396027789,0.303383723437,1.0,-0.00888,-0.0116708571429,0.445
0.46354608407,0.536401441103,-0.124024389485,-1.37354618464,0.0785051461279,1.90060880337,0.15698845241,-0.0078982072276,-0.0499246491508,0.00170828626498,-0.0813556783088,-0.0104702770485,0.0343547666311,-0.0108967135537,0.574022077625,0.818825322336,0.00211962275209,0.0,0.818783670853,-0.573962077273,-0.0118987855659,0.0,-0.00852660801223,0.00856584302857,-0.999926958977,0.0,0.65965028453,0.258187936068,0.303395589756,1.0,-0.00922,-0.0121177142857,0.462
0.46344610081,0.535641664457,-0.124035393254,-1.3747526514,0.0784351733355,1.90103777388,0.156840494814,-0.00352619367068,-0.0533352118868,0.00146735752774,-0.0812064920483,-0.000436641399917,0.0351406275283,-0.0132305458131,0.574034194072,0.81881686958,0.00210357519483,0.0,0.818774965434,-0.573974213605,-0.0119123883523,0.0,-0.00854683117463,0.00856063777352,-0.999926830902,0.0,0.659497159234,0.25798900869,0.303394607457,1.0,-0.00954,-0.0125382857143,0.478
0.463313075601,0.534694724974,-0.124036321172,-1.37628564345,0.0783624585399,1.90159523862,0.156658037525,-0.00635201524315,-0.047716857569,-0.00576446927726,-0.0818098991171,-0.00168424239896,0.0359844876686,-0.0179714337561,0.574062774181,0.818796871086,0.00208856413264,0.0,0.818754593632,-0.574002673916,-0.0119412162565,0.0,-0.00857875427863,0.00856519411554,-0.999926518513,0.0,0.659326484063,0.257768397874,0.303381980057,1.0,-0.00988,-0.0129851428571,0.495
0.46318061603,0.533727929193,-0.124042466117,-1.37785492215,0.0782725264826,1.90217149811,0.15645953252,-0.00943007545121,-0.0515414299141,-0.000340100547341,-0.0855789114359,-0.000535099848519,0.0315816965399,-0.00565953216766,0.574074865967,0.818788450457,0.00206605058628,0.0,0.818745834769,-0.574014812666,-0.0119582519771,0.0,-0.0086055006488,0.00855666695523,-0.999926361693,0.0,0.659142385204,0.257528462609,0.303367156261,1.0,-0.01024,-0.0134582857143,0.513
0.463067032903,0.532906026124,-0.124043457933,-1.37918533853,0.0781824331584,1.90268519655,0.156289932395,-0.00781941550585,-0.0563506050968,0.000582872409908,-0.0886223560408,-0.00180674862879,0.0332753702369,-0.0146634738883,0.57407840244,0.818785979363,0.00206270470949,0.0,0.818743422069,-0.574018463985,-0.0119481682485,0.0,-0.00859912761177,0.0085481758316,-0.999926489145,0.0,0.658991187838,0.257326167042,0.303358044306,1.0,-0.01054,-0.0138525714286,0.528
0.462923541101,0.531874948963,-0.124046157637,-1.38083288739,0.0781011045264,1.90328214124,0.156095581838,-0.00530579697633,-0.0608716108039,0.000114445839105,-0.0954353670915,-0.00388556004709,0.0346242303189,-0.00948160315338,0.574106717672,0.818766145966,0.00205471269815,0.0,0.81872329114,-0.574046616915,-0.0119750179445,0.0,-0.00862540448294,0.00855734414414,-0.999926184405,0.0,0.658795435283,0.25707535316,0.303352587676,1.0,-0.0109,-0.0143257142857,0.546
0.462798535419,0.530875697274,-0.124045815651,-1.38246707713,0.0779893241485,1.90385898309,0.155885230236,-0.00650285684792,-0.058961280183,-0.00052198288066,-0.0981563490522,-0.00727862315358,0.0242551350574,-0.0146713372964,0.574095381573,0.818774235868,0.00199760767571,0.0,0.818730681413,-0.574035567124,-0.0119994120924,0.0,-0.00867827869557,0.00852447387991,-0.999926007675,0.0,0.65859370386,0.256833420388,0.303328941429,1.0,-0.01124,-0.0147725714286,0.563
0.462676934972,0.529963208696,-0.12404828852,-1.38389878104,0.0779207551565,1.90437696827,0.155688461884,-0.00870404046371,-0.0569365561643,-0.000372737819841,-0.0913900300814,-0.00201942658394,0.0299249302186,-0.0187879415605,0.574096628305,0.818773373557,0.00199274286175,0.0,0.818729537074,-0.574036619896,-0.0120270961225,0.0,-0.00870372626331,0.00853639712501,-0.999925684775,0.0,0.658407086988,0.256604116713,0.303325886945,1.0,-0.01156,-0.0151931428571,0.579
0.462531169216,0.528841017421,-0.124049274642,-1.3856664529,0.0777991836491,1.90503754875,0.155453416903,-0.0077873296113,-0.0653492289924,-0.000299226805402,-0.104341518839,-0.0125414897663,0.0453875203047,-0.00628058725178,0.574085722943,0.818780978449,0.00200971251265,0.0,0.818737511368,-0.574025789072,-0.0120011608218,0.0,-0.00867286236879,0.00853528643842,-0.999925962431,0.0,0.658214509212,0.25635151881,0.303341603407,1.0,-0.0119,-0.01564,0.596
0.462391598846,0.527728433624,-0.12404928381,-1.38738713955,0.077689456961,1.90571360328,0.155212252424,-0.00700157947199,-0.071950414108,-0.000666930836155,-0.105652054389,-0.0055914576601,0.0369878122502,-0.0174181134042,0.574066367326,0.818794417038,0.00206287053353,0.0,0.818751726295,-0.574006294909,-0.0119637366774,0.0,-0.0086119059324,0.0085571224156,-0.99992630265,0.0,0.658017659305,0.256098125204,0.303364483901,1.0,-0.01224,-0.0160868571429,0.613
0.462250973932,0.526633952959,-0.124049946271,-1.3890678607,0.0775947302627,1.90634692746,0.154984029494,-0.00848190864088,-0.0679410498715,0.00056363754603,-0.113062862094,-0.00805797584266,0.0451686476625,-0.00810469443022,0.574060450638,0.818798454391,0.00210641912458,0.0,0.818756265533,-0.574000133036,-0.0119487164741,0.0,-0.00857467081222,0.0085840946902,-0.99992639146,0.0,0.657820255112,0.255847722357,0.303389699474,1.0,-0.01256,-0.0165074285714,0.629
0.462098887872,0.52545760265,-0.124058359818,-1.39090013692,0.0774612361641,1.90700830846,0.154728889702,-0.0104921699114,-0.0672747995357,0.000316122475293,-0.107743900831,-0.00832287268482,0.0441305291433,-0.014056275825,0.574044553773,0.818809623113,0.00209720808178,0.0,0.818767505079,-0.573984466999,-0.0119311010119,0.0,-0.00856570037614,0.00856627431247,-0.999926621169,0.0,0.657601333255,0.255564072459,0.303402730093,1.0,-0.0129,-0.0169542857143,0.646
0.4619339859,0.524217309723,-0.124066994773,-1.39288953042,0.0773466796162,1.90771722356,0.154459628776,-0.00931251718917,-0.068572168227,-0.00127144342291,-0.116716144465,-0.00737761243624,0.0358490828727,-0.0122948663107,0.574041188586,0.818812066181,0.00206421524694,0.0,0.818769429645,-0.573981150175,-0.0119585627624,0.0,-0.00860716055692,0.00855498863236,-0.999926361767,0.0,0.657358327354,0.255260355098,0.30338983404,1.0,-0.01326,-0.0174274285714,0.664
0.4617980285,0.523157119781,-0.124070916801,-1.39458020831,0.0772428762561,1.9083514041,0.154232558099,-0.0144922553817,-0.071102961962,-0.000796689041487,-0.110533954134,-0.00913517149547,0.0463943943013,-0.0155554859081,0.574032138276,0.818818410388,0.00206444590152,0.0,0.818775788944,-0.573972112051,-0.0119569614938,0.0,-0.00860581151768,0.00855416318949,-0.99992638044,0.0,0.657156279029,0.255008190122,0.303385541154,1.0,-0.01356,-0.0178217142857,0.679
0.461613043772,0.521759930672,-0.124071322784,-1.39676409792,0.0771098431063,1.90921151343,0.153939622244,-0.0136501983362,-0.0723652037109,-0.000955940475965,-0.116766960781,-0.00514908712617,0.0388248500633,-0.0137263864582,0.574025337662,0.818823025951,0.00212386313341,0.0,0.818781225938,-0.573965114971,-0.0119204760743,0.0,-0.00854190140046,0.00858179978998,-0.999926691629,0.0,0.656904742298,0.254682346484,0.303402475118,1.0,-0.01394,-0.0183211428571,0.698
0.461449401412,0.520496508155,-0.12407737243,-1.3987895924,0.076986407031,1.90995581242,0.153665118175,-0.00769656029584,-0.0787076912418,-0.00100035201084,-0.118814107928,-0.00501589510772,0.052159698806,-0.00812055650815,0.574013631387,0.818831278357,0.00210605503931,0.0,0.818789232644,-0.573953469215,-0.0119312440144,0.0,-0.00856106301954,0.00857327695538,-0.999926600867,0.0,0.656658443522,0.254378066479,0.303390587194,1.0,-0.01428,-0.018768,0.715
0.461296718968,0.519333118951,-0.124083296173,-1.40061037909,0.0768714111281,1.91059993614,0.153425668412,-0.00931358826599,-0.0776788991515,-0.00139280265433,-0.120806462508,-0.0127666076239,0.0403959777046,-0.00878458372329,0.574012413316,0.818832168716,0.00209182590604,0.0,0.81878993196,-0.573952304106,-0.0119392978619,0.0,-0.00857583797413,0.00856623609689,-0.999926534603,0.0,0.65643392237,0.254098681197,0.303396820708,1.0,-0.01458,-0.0191622857143,0.73
0.461115322358,0.517971441582,-0.124078696065,-1.40270653082,0.0767308950109,1.91135882266,0.153125940603,-0.013406141032,-0.0770146895461,0.00119071015888,-0.125361386434,-0.0102003179241,0.0488075243794,-0.0243191638519,0.573996483499,0.818843315243,0.0020997416034,0.0,0.818801237819,-0.573936399938,-0.0119284815757,0.0,-0.00856260411923,0.00856634243051,-0.999926647104,0.0,0.65616220164,0.253756453843,0.303417138225,1.0,-0.01494,-0.0196354285714,0.748
0.460920760729,0.516551839583,-0.124086796414,-1.40497079477,0.076576120571,1.9121929126,0.152815181374,-0.0136766504508,-0.0741151427296,0.000379081723484,-0.125309996487,-0.012033192244,0.04758887025,-0.0129199542817,0.573973833374,0.818859226354,0.00208636473633,0.0,0.818817097223,-0.573913929936,-0.0119209572326,0.0,-0.00856435692216,0.00855083326746,-0.999926764839,0.0,0.655905121171,0.253429377012,0.303411143806,1.0,-0.01528,-0.0200822857143,0.765
0.460761144399,0.515323974663,-0.124093336062,-1.40689785505,0.0764648965457,1.91291981803,0.152564070575,-0.0107932200094,-0.0782329613249,-0.00101642570889,-0.128794786517,-0.00560253876878,0.0425676861474,-0.00886453598306,0.573975376303,0.818858082729,0.00211060386099,0.0,0.818816232151,-0.573915336469,-0.0119126585131,0.0,-0.00854363327664,0.00856593427464,-0.999926812872,0.0,0.655673343569,0.253139629527,0.303418186974,1.0,-0.01558,-0.0204765714286,0.78
0.460556638888,0.513840490953,-0.124093988963,-1.40929293248,0.0763307716435,1.91376826823,0.152234275263,-0.0118074738061,-0.08706778463,0.000247249830903,-0.132529672046,-0.00296301330506,0.0489404630512,-0.0201395096776,0.573962983279,0.818866889972,0.00206330662702,0.0,0.818824212782,-0.57390292979,-0.0119617156718,0.0,-0.00861108098258,0.00855523215145,-0.99992632593,0.0,0.655371882949,0.252776349987,0.303391669411,1.0,-0.01594,-0.0209497142857,0.798
0.460374873249,0.512528102794,-0.124099916711,-1.41143518688,0.0761970468625,1.91451322318,0.151930733783,-0.00871034384335,-0.0803120376765,-9.17993654465e-05,-0.128329432562,-0.0104388949401,0.0448997654526,-0.0182866129243,0.573945723352,0.818879165464,0.00199146053701,0.0,0.818835533633,-0.573885956434,-0.0120010319718,0.0,-0.00868469101799,0.00851878364053,-0.999926000496,0.0,0.655086128354,0.252421668508,0.303359432642,1.0,-0.01628,-0.0213965714286,0.815
0.460172307356,0.511078562508,-0.124108425232,-1.41374172492,0.0760564184851,1.91538634804,0.151602090634,-0.0127205795686,-0.0879663487818,-2.09666158e-05,-0.134822109036,-0.0116059481552,0.0526002560274,-0.021422736393,0.573929127996,0.818890779802,0.00199842282609,0.0,0.81884721096,-0.573869306291,-0.0120004708791,0.0,-0.00868040856007,0.00852398685781,-0.999925993339,0.0,0.654823361668,0.252089994985,0.30334960872,1.0,-0.0166,-0.0218171428571,0.831
0.45997527463,0.509585523543,-0.124108931817,-1.41610351818,0.0759083969932,1.91627144573,0.151277783562,-0.0156793067702,-0.0991207722514,0.00114476019717,-0.144137076034,-0.00916812479237,0.0567526478833,-0.0119885373844,0.573908455922,0.818905242188,0.00200884020551,0.0,0.818861813893,-0.573848597266,-0.0119943346691,0.0,-0.00866962032009,0.00852877682965,-0.99992604609,0.0,0.654533438166,0.251736207632,0.303347313115,1.0,-0.01694,-0.022264,0.848
0.459760742901,0.508002495742,-0.124110260358,-1.41861375934,0.0757440552988,1.9171692496,0.150931267365,-0.0139139816618,-0.0883971455984,-0.000226202943371,-0.140653865586,-0.0060301303268,0.0510706514531,-0.0206179583519,0.573887014364,0.818920343639,0.00197798363646,0.0,0.81887651819,-0.573827294673,-0.0120096105794,0.0,-0.00870006092677,0.00851204779565,-0.999925924247,0.0,0.654217385107,0.251352437358,0.303337915448,1.0,-0.0173,-0.0227371428571,0.866
0.459566488055,0.506655232928,-0.124118108476,-1.42073748487,0.0756199528689,1.91794313643,0.150628977529,-0.0115883144828,-0.0914054111904,-0.000860314271935,-0.145016048123,-0.00915485389655,0.0542982284022,-0.0256311499569,0.57388060598,0.81892483616,0.00197729665001,0.0,0.818880924283,-0.573820814247,-0.0120188137016,0.0,-0.00870805872486,0.00851669857144,-0.999925815028,0.0,0.653956142974,0.25101899279,0.303336572922,1.0,-0.0176,-0.0231314285714,0.881
0.459350598818,0.505053628574,-0.124119539318,-1.42319325416,0.0754682477099,1.91889919198,0.150297695364,-0.0136259365341,-0.0871845333262,0.001333307625,-0.148448143026,-0.0125445218161,0.054789575265,-0.0213880132165,0.573873153268,0.818929851931,0.00206118320829,0.0,0.818887083252,-0.573813056487,-0.0119694606858,0.0,-0.00861958078405,0.00855699320081,-0.999926237627,0.0,0.653663002322,0.250647011878,0.303370020349,1.0,-0.01794,-0.0235782857143,0.898
0.459119107883,0.503376003191,-0.124122773861,-1.42566945968,0.0753122933018,1.91983873133,0.149946197244,-0.0127493279712,-0.0943617755937,0.000648471333176,-0.144869079862,-0.0061710168204,0.052585399707,-0.0237892165843,0.573862337697,0.818937125234,0.00217926338773,0.0,0.818895953646,-0.57380181693,-0.0119012138359,0.0,-0.0084960441293,0.00861441421762,-0.999926801872,0.0,0.653367146045,0.250260679079,0.30344474936,1.0,-0.01828,-0.0240251428571,0.915
0.458881332297,0.5016863748,-0.124131597436,-1.42818828703,0.0751440755821,1.92076139298,0.149600883749,-0.0117555422783,-0.0928227508242,-0.00142917729315,-0.142699418618,-0.00928461892118,0.0572451474935,-0.0246617924894,0.573863809045,0.818935899332,0.00225130094144,0.0,0.818895781762,-0.573803120371,-0.0118500872244,0.0,-0.00841282030601,0.0086440834619,-0.999927249491,0.0,0.653060359428,0.249859125586,0.303505633502,1.0,-0.01862,-0.024472,0.932
0.458659608748,0.500065515148,-0.124132132565,-1.4306408756,0.0749855305754,1.92161932673,0.149254322312,-0.0105197488845,-0.0995769874686,0.000335358276335,-0.153630736937,-0.0116920369173,0.0521943369703,-0.0240781671567,0.57384379294,0.818949866565,0.00227250060442,0.0,0.818909985998,-0.573782983784,-0.0118435321767,0.0,-0.00839549855766,0.00865747754748,-0.999927279199,0.0,0.652747281749,0.249477189531,0.303543588993,1.0,-0.01894,-0.0248925714286,0.948
0.458392574745,0.49828245371,-0.124135152354,-1.43341355121,0.0748112849503,1.92266409965,0.148858840859,-0.0162218762359,-0.0962692200713,-0.000864555624106,-0.150810883875,-0.0116377017064,0.0612123329725,-0.0223083190535,0.573834780941,0.818956060112,0.0023157482672,0.0,0.81891676514,-0.573773828957,-0.0118182857677,0.0,-0.00835010176476,0.00867831558892,-0.99992747869,0.0,0.652410127166,0.249038532841,0.30355805586,1.0,-0.0193,-0.0253657142857,0.966
0.458143771477,0.496705516082,-0.124129944612,-1.43593463935,0.0746598008212,1.92355662235,0.148475692701,-0.019239313803,-0.098555002846,0.000410425101851,-0.153924816219,-0.00696087027698,0.0516928509622,-0.0206943562213,0.573807702567,0.81897514433,0.0022760374347,0.0,0.818935157602,-0.573746727154,-0.0118594951061,0.0,-0.00840692454646,0.00866916362397,-0.999927081952,0.0,0.652089054307,0.248637280176,0.303534546599,1.0,-0.01962,-0.0257862857143,0.982
0.45787395047,0.49501912603,-0.124132459051,-1.43865611903,0.0744939446128,1.92449980486,0.148089724141,-0.0151221917609,-0.0986380851087,-0.000535394608108,-0.156392849004,-0.00804657511361,0.0571950545798,-0.0235719983797,0.573806672388,0.81897607507,0.00219956514332,0.0,0.818934924865,-0.573745829964,-0.0119188227602,0.0,-0.0084994029947,0.00864056709986,-0.999926547677,0.0,0.65173898136,0.248196788294,0.303495989435,1.0,-0.01996,-0.0262331428571,0.999
0.457590603605,0.493249552089,-0.124148835079,-1.4415029235,0.0743113855551,1.92552976041,0.147694779679,-0.0193778119665,-0.109018842678,0.000515529764521,-0.17299595291,-0.00535692254236,0.0701597618967,-0.0252030765046,0.573820693933,0.818966379541,0.0021511154186,0.0,0.818924630322,-0.573760079374,-0.0119401871853,0.0,-0.00854455222597,0.00861329372792,-0.999926398191,0.0,0.651384051211,0.24772889106,0.30346297834,1.0,-0.0227571428571,-0.0299093877551,1.016
0.457312755675,0.491329354969,-0.124175375373,-1.44452379677,0.0741293772335,1.92665072641,0.147261234697,-0.0178860570778,-0.129078797119,-0.000481590075502,-0.197244981948,-0.0075084765644,0.0768704144121,-0.0186265333506,0.573814526536,0.818970666484,0.002164134157,0.0,0.818929106719,-0.573753879604,-0.0119310816498,0.0,-0.00852968974503,0.008618666356,-0.999926478789,0.0,0.651008384329,0.247246292135,0.303459320832,1.0,-0.0257194285714,-0.033802677551,1.032
0.456960770481,0.489071295096,-0.124184438757,-1.44819095378,0.0739135687745,1.92794089784,0.146735278546,-0.029703439511,-0.137922687143,0.000886270563997,-0.221114525535,-0.00514397353779,0.0843192246767,-0.0291251730469,0.573802932432,0.818979039183,0.00206761024146,0.0,0.81893596088,-0.573742426954,-0.0120110945696,0.0,-0.00865072552548,0.00858540696125,-0.999925725109,0.0,0.65053229306,0.246659906406,0.303396379587,1.0,-0.0288668571429,-0.0379392979592,1.049
0.456524028429,0.48629321186,-0.124220350246,-1.45247389649,0.0736508904187,1.92958618683,0.14610148364,-0.0217314079709,-0.162025747108,-0.00180813714749,-0.247675832291,-0.0134812458477,0.0953900207347,-0.0462989010602,0.573809113678,0.818974421328,0.00217834143268,0.0,0.81893293976,-0.573748301402,-0.0119362354198,0.0,-0.00852581594729,0.00863320243606,-0.99992638643,0.0,0.650017303786,0.245953091017,0.30343164529,1.0,-0.0321994285714,-0.0423192489796,1.067
0.456087826236,0.483604677417,-0.124249759613,-1.45660870565,0.073398333548,1.93106613529,0.145467029514,-0.0286043856059,-0.172417631663,-0.00321352121096,-0.268414563413,-0.0124311577649,0.086300935946,-0.041673397421,0.573803042743,0.818978600194,0.00220623310352,0.0,0.818937421298,-0.573742056275,-0.0119289462928,0.0,-0.00850390674576,0.00865179910202,-0.999926412264,0.0,0.649497824593,0.245257850469,0.303458927701,1.0,-0.0351617142857,-0.0462125387755,1.083
0.455577463244,0.480478989449,-0.124299406998,-1.46152224427,0.0730944112008,1.93277280156,0.144731417143,-0.0271428456869,-0.18750883713,8.76907639072e-05,-0.295998402267,-0.0136924077039,0.108977694432,-0.0430835486361,0.57381207046,0.818972471995,0.00213185608378,0.0,0.818930242676,-0.573751305922,-0.0119767894405,0.0,-0.00858567094335,0.00861843369795,-0.99992600169,0.0,0.648865802644,0.244423832937,0.303437321694,1.0,-0.0383091428571,-0.0503491591837,1.1
0.455026557465,0.477072085653,-0.124333327601,-1.46674018686,0.0727713626326,1.93467393323,0.143977757277,-0.0287658322131,-0.206708286364,-0.00169096845684,-0.31912868597,-0.0201579384794,0.107177186334,-0.0426264454695,0.573836364222,0.818955256777,0.00220485717901,0.0,0.818913968473,-0.573775286088,-0.0119406957548,0.0,-0.00851396691951,0.00865776046928,-0.999926275058,0.0,0.648208049701,0.243550893467,0.30347939488,1.0,-0.0414565714286,-0.0544857795918,1.117
0.454447207728,0.473640008286,-0.124368039161,-1.47199791669,0.0724577403748,1.93661439518,0.143223889667,-0.0365249021989,-0.222395888096,0.00105784707087,-0.334710281743,-0.0200367623012,0.11675545943,-0.0492395347507,0.573887373086,0.818919238729,0.00230442048797,0.0,0.818879168676,-0.57382580783,-0.0118994234542,0.0,-0.00842249300743,0.00871613861352,-0.999926542572,0.0,0.64755074479,0.242659396916,0.303520678761,1.0,-0.0444188571429,-0.0583790693878,1.133
0.453789341011,0.469748356831,-0.124390544388,-1.47794391354,0.0720857758428,1.93873311658,0.142315114242,-0.0404082396955,-0.236031902579,-0.00178186563361,-0.353266350011,-0.0267528982316,0.132883747525,-0.0530421408229,0.573880957864,0.818923574312,0.00236062233888,0.0,0.8188840927,-0.573819022575,-0.0118877649329,0.0,-0.00838076230192,0.00875540657746,-0.999926550142,0.0,0.646784347756,0.241652675806,0.303563992763,1.0,-0.0475662857143,-0.0625156897959,1.15
0.453099142747,0.465594813337,-0.124404017124,-1.48420671701,0.0716854572707,1.941063872,0.141297671899,-0.0422727218714,-0.249869843198,0.000667642974471,-0.380596698357,-0.0226747967611,0.133211373564,-0.0593711166664,0.573810340462,0.818972502716,0.00254555983209,0.0,0.818935469097,-0.573747752592,-0.0117881614791,0.0,-0.0081938286328,0.0088489885574,-0.999927275643,0.0,0.645989171067,0.240606890922,0.303651479975,1.0,-0.0507137142857,-0.0666523102041,1.167
0.452397836608,0.461478723988,-0.124417027032,-1.49061158066,0.0712568691605,1.94323603949,0.140348174053,-0.0384971987203,-0.262798078954,-0.00199274592161,-0.410266839459,-0.0234769829692,0.140129034037,-0.0606242300096,0.573798448048,0.818981157778,0.00243949253661,0.0,0.81894255614,-0.573736061901,-0.0118645656091,0.0,-0.0083173909736,0.00880584312664,-0.999926636376,0.0,0.645122551704,0.239523567692,0.303628104224,1.0,-0.053676,-0.0705456,1.183
0.451549497273,0.456645965394,-0.1244252452,-1.4981008734,0.0707494868703,1.94588132646,0.139205557028,-0.0491937165296,-0.272839877052,0.000265026156469,-0.423432207673,-0.0203591818365,0.150710296893,-0.0705879857833,0.573770877453,0.819000542747,0.00241620950185,0.0,0.818961599257,-0.573708544133,-0.0118807505354,0.0,-0.0083443017548,0.00879578080333,-0.999926500733,0.0,0.644127182986,0.238250300732,0.303618180512,1.0,-0.0570085714286,-0.0749255510204,1.201
0.450688688074,0.451806054343,-0.12445427908,-1.50546333624,0.0702386680259,1.94857635458,0.13801095397,-0.0517982675934,-0.296997675134,-0.000606210740637,-0.429376972987,-0.0318414093843,0.165073419963,-0.0709921770207,0.573715293051,0.819039115801,0.00253696838971,0.0,0.819002058196,-0.573652843816,-0.011780931813,0.0,-0.00819386260124,0.00883685321706,-0.999927382684,0.0,0.643171855389,0.236975955407,0.303672583011,1.0,-0.060156,-0.0790621714286,1.218
0.449771660995,0.44669145702,-0.12450432804,-1.51319490218,0.0697229629418,1.95135725746,0.136869461674,-0.0570850920263,-0.306872503786,0.000878282347497,-0.469735140548,-0.0296337802498,0.153538663048,-0.0744838014599,0.573776123653,0.818996113988,0.00265934205767,0.0,0.818960801761,-0.573713393005,-0.011700203708,0.0,-0.00805687633449,0.00889136561957,-0.999928012589,0.0,0.642155458745,0.235620097858,0.303741846314,1.0,-0.0633034285714,-0.0831987918367,1.235
0.448857430698,0.441724634195,-0.124529329494,-1.52094120009,0.0691927898486,1.9539267152,0.135670195272,-0.0626480314274,-0.314135801279,-0.00427253070813,-0.491471004196,-0.0441731617353,0.172542553027,-0.077373112502,0.573759541692,0.819008319843,0.00247128451301,0.0,0.818970293363,-0.573697210262,-0.0118286275141,0.0,-0.00827013454122,0.00881086614041,-0.999926984091,0.0,0.641072783443,0.234263550328,0.303678365279,1.0,-0.0662657142857,-0.0870920816326,1.251
0.447751976344,0.435896663439,-0.124543916866,-1.52988739386,0.0685889268006,1.9570578802,0.134211602479,-0.0663940141176,-0.334730390498,0.000790045926313,-0.489319704983,-0.0316539404142,0.180325769278,-0.0764078284153,0.573707957897,0.819044445158,0.00247442972994,0.0,0.81900628978,-0.57364544017,-0.0118470744846,0.0,-0.00828399470892,0.00882350430184,-0.99992675792,0.0,0.639852469238,0.232689032277,0.30367381307,1.0,-0.0695982857143,-0.0914720326531,1.269
0.446767206049,0.430816795535,-0.124571117134,-1.53745789098,0.0680669756506,1.95986174952,0.132966823255,-0.0668163159125,-0.333450137939,-0.00214646389375,-0.51323417285,-0.0352474840849,0.175927633355,-0.0825456659161,0.573699554279,0.819049550726,0.00272062064816,0.0,0.819014901981,-0.573636471353,-0.0116848605861,0.0,-0.00800998680191,0.00893200013223,-0.999928027152,0.0,0.638858698437,0.231328537493,0.303777542574,1.0,-0.0723754285714,-0.0951219918367,1.284
0.445512239719,0.42456349866,-0.124659649571,-1.54714119281,0.0673608869699,1.96305184745,0.131398056696,-0.0722001747367,-0.357408091813,-0.00729649380023,-0.539454576552,-0.0379239347697,0.176900180141,-0.0861299869645,0.573723639314,0.819033454101,0.00247662213982,0.0,0.818995764684,-0.573661577743,-0.0117931569971,0.0,-0.0082384057607,0.00879452531647,-0.999927389861,0.0,0.637498552758,0.229528914209,0.303703363604,1.0,-0.075708,-0.0995019428571,1.302
0.444255176235,0.418394923714,-0.124743624545,-1.5565557533,0.0666972011887,1.96622171389,0.129897946661,-0.0815862614198,-0.365592878546,-0.0031041465279,-0.549177789554,-0.0352114247177,0.202166232145,-0.0848151349874,0.573796945828,0.818982368206,0.0023858808281,0.0,0.818943543379,-0.573735266752,-0.0118348360733,0.0,-0.00832381836058,0.00874486285838,-0.999927118055,0.0,0.636182726729,0.227769604894,0.30368786955,1.0,-0.0788554285714,-0.103638563265,1.319
0.443012503781,0.412341238061,-0.12476652129,-1.56552158006,0.0660859244383,1.96950403389,0.128383738325,-0.0789932703566,-0.381676168154,-0.00290636976636,-0.570696229535,-0.0368635796649,0.195960652077,-0.0973737073592,0.573792925716,0.818984243577,0.00268962317842,0.0,0.81894949701,-0.573730277766,-0.0116634738916,0.0,-0.008009237292,0.00889525561863,-0.999928360707,0.0,0.634969606553,0.226124359727,0.303806019882,1.0,-0.0818177142857,-0.107531853061,1.335
0.441614174515,0.405817992415,-0.124811813738,-1.57551979779,0.0653731982543,1.97278580697,0.126735908163,-0.085074057005,-0.392140967167,-0.00492698569606,-0.592687613478,-0.0459718066416,0.192581920368,-0.0965649701552,0.573827628739,0.818960496999,0.00251072736232,0.0,0.818923146401,-0.573765314511,-0.0117894467469,0.0,-0.00821468105059,0.00882137286101,-0.999927348559,0.0,0.633525705221,0.224243274219,0.303742611582,1.0,-0.0849651428571,-0.111668473469,1.352
0.440145493637,0.399024134916,-0.12489568055,-1.58567659509,0.0646578114562,1.9763235954,0.125012293628,-0.0930525083508,-0.407554673775,-0.00361833223863,-0.598440700829,-0.0385903395604,0.220411089376,-0.098139756036,0.573885994423,0.818919205982,0.00263559872781,0.0,0.8188836373,-0.573823391142,-0.0117068886311,0.0,-0.00807478320724,0.00887683900302,-0.999927997211,0.0,0.632104010349,0.222300290114,0.303797752055,1.0,-0.0881125714286,-0.115805093878,1.369
0.438685882535,0.392479479883,-0.124920657905,-1.59550927259,0.0638951807732,1.9796783787,0.123329390585,-0.0918135619964,-0.404370993985,-0.00269654496096,-0.63135718777,-0.0453979676678,0.197448746988,-0.106516934729,0.573888249619,0.818917590182,0.00264657171379,0.0,0.818882517161,-0.573825996426,-0.0116574360569,0.0,-0.00802796235576,0.00885746741425,-0.999928545993,0.0,0.630694441497,0.220418361789,0.303811024406,1.0,-0.0910748571428,-0.119698383673,1.385
0.436982275965,0.384943226758,-0.124986869115,-1.60701468544,0.0630326287194,1.98334673548,0.121310554495,-0.0954438621275,-0.423505848189,-0.00540272736832,-0.645258776637,-0.0494234865772,0.214391102756,-0.122036584519,0.573873227905,0.81892898189,0.00236385627788,0.0,0.818889991098,-0.573811750352,-0.011832351341,0.0,-0.00833360737642,0.00872617591004,-0.999927199771,0.0,0.628972669782,0.218190972413,0.303711125824,1.0,-0.0944074285714,-0.124078334694,1.403
0.435322090812,0.377503451747,-0.125008122174,-1.61787174048,0.0622668416534,1.98710891166,0.119396896847,-0.103171973317,-0.433277132083,-0.000988507797608,-0.647028559997,-0.0430308663129,0.220598247642,-0.111682749574,0.573871403532,0.818929367187,0.00265530945206,0.0,0.818894022039,-0.573808696451,-0.0117007455433,0.0,-0.00805859964107,0.00888931145107,-0.999928016966,0.0,0.62739573391,0.21611662298,0.303845783458,1.0,-0.0975548571428,-0.128214955102,1.42
0.433636857922,0.370445701616,-0.125049381489,-1.6285115899,0.0614444248886,1.99057522952,0.11749475238,-0.10418528929,-0.443988708106,-0.00262104103209,-0.671449999944,-0.0540355230998,0.210955810586,-0.112185718446,0.573876720118,0.818926057061,0.00252390049494,0.0,0.818888986416,-0.573814467685,-0.0117699406638,0.0,-0.00819061817547,0.00882145910269,-0.999927545192,0.0,0.625798522001,0.214014743097,0.303792043173,1.0,-0.100517142857,-0.132108244898,1.436
0.431815908716,0.362654859336,-0.12514931954,-1.63989708183,0.0605501545926,1.99434554297,0.115482981918,-0.107557540784,-0.47102257375,-0.00242256388221,-0.669530535333,-0.0566852170657,0.226622357786,-0.123671607313,0.573943641003,0.818878849499,0.00262177353044,0.0,0.818843510903,-0.573881529328,-0.0116636979635,0.0,-0.00804672309038,0.00884129774155,-0.999928538297,0.0,0.624100440645,0.211733529664,0.30388372244,1.0,-0.103664571429,-0.136244865306,1.453
0.429877879556,0.354791548899,-0.125162868753,-1.65160904783,0.0596943003158,1.99814529166,0.113255131886,-0.119858652983,-0.470891844466,-0.000618126453143,-0.68096726078,-0.0500378785779,0.220839305736,-0.133074357236,0.573878383902,0.818924694457,0.00258692857951,0.0,0.818888288721,-0.573815732907,-0.0117567922993,0.0,-0.0081436640134,0.0088655451713,-0.999927538797,0.0,0.622301394841,0.209410925289,0.303854460227,1.0,-0.106812,-0.140381485714,1.47
0.427847458271,0.346719830602,-0.125221447647,-1.66353404153,0.0587785721712,2.00198135035,0.111027847268,-0.124900159019,-0.489221967248,-0.00572053241845,-0.689956357857,-0.0415061990271,0.24167045689,-0.137497110479,0.573899708535,0.818909859871,0.00255202895235,0.0,0.818872802014,-0.573836968132,-0.01179894177,0.0,-0.00819797903141,0.00886136695064,-0.999927132003,0.0,0.620461306728,0.206985614208,0.30384928193,1.0,-0.109959428571,-0.144518106122,1.487
0.425517408631,0.337467525716,-0.12523889535,-1.67701034993,0.0577146752036,2.00644636939,0.10849220185,-0.126182253356,-0.486718347428,-1.30949004204e-05,-0.718562382044,-0.0556732366663,0.224569583319,-0.13918862332,0.573876378805,0.818925661096,0.0027221957065,0.0,0.818890931949,-0.573813155196,-0.011698350141,0.0,-0.00801820179081,0.00894276037183,-0.999927865137,0.0,0.618378536378,0.204268352374,0.303918077145,1.0,-0.113477142857,-0.149141387755,1.506
0.423602718182,0.330044258814,-0.125254090191,-1.68798893065,0.0567945424877,2.00981818985,0.106376715499,-0.130461910875,-0.502970291462,-0.00183118325893,-0.730910289621,-0.0652048846692,0.2326862261,-0.140762222157,0.573799340721,0.818980262351,0.00252851138478,0.0,0.818942921403,-0.573736725456,-0.0118071269626,0.0,-0.00821926234152,0.00884579847624,-0.99992709513,0.0,0.616605730321,0.20202894863,0.303861031493,1.0,-0.116254285714,-0.152791346939,1.521
0.421608358413,0.322435038596,-0.125243494084,-1.69896683231,0.0559098369775,2.01342483219,0.104207925743,-0.136919897163,-0.50502432636,0.0028068663118,-0.736432394935,-0.0574187455437,0.242529540998,-0.138212607476,0.573727076558,0.819030323343,0.002705174864,0.0,0.818995345755,-0.57366390156,-0.0117089102355,0.0,-0.00803824613044,0.00893341645812,-0.999927787727,0.0,0.614872752477,0.199785734137,0.303929601984,1.0,-0.119031428571,-0.156441306122,1.536
0.418938587896,0.312671111887,-0.125291275878,-1.71319792058,0.0547806418857,2.01781904759,0.101379669382,-0.142553476924,-0.520845507184,-0.00363512868602,-0.750855779047,-0.0625325777497,0.231263681649,-0.158299476972,0.573726159475,0.819031199361,0.00263349742224,0.0,0.818994753187,-0.573662651844,-0.0118111402072,0.0,-0.00816311038004,0.00893335267617,-0.999926776739,0.0,0.612560684508,0.196788935279,0.30390892403,1.0,-0.122549142857,-0.161064587755,1.555
0.416612316644,0.304228777672,-0.125371795728,-1.72523214072,0.0537242649603,2.02168952302,0.0988834263368,-0.146501359678,-0.522066501138,-0.00237640197103,-0.751158105663,-0.0626407349373,0.241734110997,-0.155846118249,0.57367788028,0.819064488517,0.00279288908132,0.0,0.819030937941,-0.573614731652,-0.0116279502795,0.0,-0.00792215135319,0.00895833290783,-0.999928491338,0.0,0.610637092152,0.19419818905,0.304004441926,1.0,-0.125511428571,-0.164957877551,1.571
0.414144479566,0.295733513613,-0.12542337824,-1.73769141666,0.0527344931175,2.02534136116,0.0964015720044,-0.159905395841,-0.535842736372,-0.00667596171119,-0.766998103375,-0.0617609064536,0.222873520308,-0.156456070639,0.573758699868,0.819008701311,0.00253937073304,0.0,0.818970877524,-0.573695377218,-0.0118769873564,0.0,-0.00827068997606,0.00889436674566,-0.999926240244,0.0,0.608538828678,0.19150403446,0.303896585345,1.0,-0.128473714286,-0.168851167347,1.587
0.41144004993,0.286436329072,-0.125533690117,-1.75076128663,0.0516389801241,2.0295280249,0.0936081054883,-0.159914562202,-0.54034279909,-0.0121442973396,-0.775305014886,-0.0751946088079,0.248511736795,-0.159425848528,0.573793050216,0.818983637729,0.00284315967222,0.0,0.818950264688,-0.573729177126,-0.0116637122186,0.0,-0.00792133831331,0.00902113706168,-0.999927933146,0.0,0.606423045542,0.188605435183,0.304038470977,1.0,-0.131621142857,-0.172987787755,1.604
0.408460446223,0.276558261498,-0.12557575571,-1.76508389255,0.0504084778153,2.03368162111,0.0905644571753,-0.171565581009,-0.555272437641,0.000660956037502,-0.794135521758,-0.0743155862635,0.232268192293,-0.176116005062,0.573766485146,0.819003132848,0.0025760062867,0.0,0.818965659536,-0.573702884907,-0.0118741421721,0.0,-0.00824725618589,0.00892281729768,-0.999926180324,0.0,0.60395941111,0.18545259072,0.303933210727,1.0,-0.134953714286,-0.177367738775,1.622
0.405851957982,0.268076920551,-0.12567505653,-1.77691421869,0.0493660371818,2.03740082429,0.0879553765023,-0.178139026372,-0.56471236211,-0.000736524755447,-0.79405255119,-0.0717215597477,0.244835083777,-0.176282250758,0.5738161408,0.818967497527,0.00283221720633,0.0,0.818934000908,-0.573752323117,-0.0116670808972,0.0,-0.00793012152351,0.00901433185685,-0.999927924899,0.0,0.602001684063,0.182752360364,0.304054399232,1.0,-0.137730857143,-0.181017697959,1.637
0.402407425726,0.257297828888,-0.125838140338,-1.79229394253,0.0480169694462,2.04185689174,0.084604807211,-0.185125598568,-0.575116455256,-0.00663921953851,-0.780463671446,-0.0779685950317,0.236912992124,-0.176816835296,0.573967652342,0.818861868128,0.00266868738753,0.0,0.818826040422,-0.573904160968,-0.011776096633,0.0,-0.00811158186521,0.00894446147344,-0.999927096767,0.0,0.599346723506,0.179189495506,0.303996978589,1.0,-0.141248571429,-0.185640979592,1.656
0.399239130356,0.247417258413,-0.125892510237,-1.806081421,0.0467396748378,2.04595395201,0.081456258217,-0.187390646845,-0.579671791188,0.0012721963824,-0.821513820944,-0.0779802815419,0.238856039425,-0.192702035401,0.573934859051,0.818884531094,0.00276571899812,0.0,0.818850390821,-0.573871502969,-0.0116740067617,0.0,-0.00797264973304,0.00896500211194,-0.999928030207,0.0,0.596954190057,0.176021302155,0.304060463306,1.0,-0.144396,-0.1897776,1.673
0.396372063016,0.238641888085,-0.125907709397,-1.8184375324,0.0456829252815,2.04948547155,0.0785877162373,-0.1909004358,-0.598089286994,-0.00206577924559,-0.79968400024,-0.0745084306012,0.237463706449,-0.192777225551,0.573881482707,0.818922033649,0.00273742809444,0.0,0.818886727285,-0.573817339916,-0.0117870772206,0.0,-0.00808206914578,0.00900620228287,-0.999926781559,0.0,0.594743369045,0.173207420885,0.304033241804,1.0,-0.147173142857,-0.193427559184,1.688
0.393036284805,0.228468604226,-0.125906347036,-1.83238523227,0.0444010867698,2.05360952333,0.0753178309186,-0.191060493093,-0.587793547244,0.00223083413556,-0.816557471063,-0.0767037216865,0.234605439805,-0.197750833159,0.573811572144,0.818970129688,0.00299219876789,0.0,0.818938370628,-0.573746826402,-0.0116306150855,0.0,-0.00780851213595,0.00912438358344,-0.999927883781,0.0,0.592264460552,0.170001422595,0.304152640767,1.0,-0.150320571429,-0.197564179592,1.705
0.389292731844,0.217568877,-0.12594982489,-1.84750860789,0.0429812798651,2.05779388517,0.0716382037023,-0.214063661898,-0.613788929952,-0.00594142313424,-0.842801977785,-0.0810422931156,0.24906100417,-0.202943434895,0.573732575584,0.81902571988,0.00292383130442,0.0,0.818992820875,-0.573667777608,-0.0116956056649,0.0,-0.00790184617767,0.00910492210689,-0.99992732797,0.0,0.589500979055,0.166430200445,0.304145717575,1.0,-0.153653142857,-0.201944130612,1.723
0.38606393134,0.208383904149,-0.126051893322,-1.86008923218,0.0418279651122,2.06134894165,0.0685647883661,-0.223068644091,-0.615360880876,-0.00561479307602,-0.850192017947,-0.0811569911139,0.230979728161,-0.214580222193,0.573798459577,0.818979158166,0.00303532180838,0.0,0.818947641532,-0.573733200794,-0.0116499629763,0.0,-0.00779976214403,0.00917067701014,-0.999927528571,0.0,0.587214384374,0.163384637053,0.30419374564,1.0,-0.156430285714,-0.205594089796,1.738
0.382283631673,0.197855511924,-0.126136274738,-1.87458422528,0.0404271693031,2.06518855174,0.0649020701363,-0.226997293108,-0.633245001782,-0.00576154156259,-0.859134086594,-0.079165049033,0.239227707718,-0.216935140992,0.57375025453,0.819013439527,0.00289451230545,0.0,0.818979763771,-0.573685101869,-0.0117599884321,0.0,-0.00797120345813,0.00911801891045,-0.999926658134,0.0,0.584492919595,0.15986229671,0.304164321309,1.0,-0.159577714286,-0.209730710204,1.755
0.378285964122,0.187187699593,-0.126281408253,-1.88913628994,0.0390634277863,2.06917809349,0.0611669886278,-0.244865428455,-0.627459529199,-0.00786776055211,-0.856149595474,-0.0736085420074,0.234626611183,-0.224911398503,0.573866888047,0.818931480457,0.00296175973154,0.0,0.818898474136,-0.573801248046,-0.011754305579,0.0,-0.00792666205198,0.00917096385814,-0.999926528026,0.0,0.581788050646,0.156215885859,0.304174750944,1.0,-0.162725142857,-0.213867330612,1.772
0.374372175775,0.176982259366,-0.126430768921,-1.90285451291,0.0377402310407,2.07281666949,0.057548970125,-0.242138758272,-0.646268436246,-0.00961487058707,-0.838998071393,-0.0833501035785,0.235318415231,-0.221476510774,0.573992927372,0.818842849424,0.00304206755515,0.0,0.818810796269,-0.573926886761,-0.0117284042936,0.0,-0.00785794691954,0.00922307644383,-0.999926591071,0.0,0.579202164205,0.152705678445,0.304233179449,1.0,-0.165687428571,-0.217760620408,1.788
0.36941551968,0.164205986529,-0.126454166146,-1.92033652038,0.035950735767,2.07725114912,0.0528696475712,-0.257079409501,-0.643226438622,0.000437544320727,-0.878837303103,-0.0868463909435,0.213108225116,-0.239242844602,0.573870344505,0.818929735596,0.00276816823144,0.0,0.818893598631,-0.573804717539,-0.0119233867668,0.0,-0.00817618539909,0.00910948870206,-0.999925080798,0.0,0.575775615314,0.14836133169,0.304109587601,1.0,-0.169390285714,-0.222627232653,1.808
0.365556842411,0.154348989335,-0.126498486737,-1.93322171888,0.0346257895995,2.0807441252,0.0492341699382,-0.259966745569,-0.640971392577,-0.00430450089443,-0.861425047048,-0.0969331847266,0.229011617455,-0.239044195873,0.573796415823,0.818980347589,0.00310005694806,0.0,0.818949274557,-0.573730473306,-0.0116694731275,0.0,-0.00777862178066,0.00923486904367,-0.999927102461,0.0,0.573302335809,0.145070177871,0.304267223614,1.0,-0.172167428571,-0.226277191837,1.823
0.361557144298,0.144586926671,-0.126574967184,-1.94647661444,0.0332357796034,2.08394087783,0.0455687403728,-0.268891632851,-0.647623703462,-0.00107739392511,-0.888088858277,-0.0887607158876,0.210024242904,-0.237248260221,0.573802387657,0.818977175369,0.00282011429089,0.0,0.818941941148,-0.573736827586,-0.011869987464,0.0,-0.00810340139387,0.00912071262194,-0.999925570974,0.0,0.570639645901,0.141652093788,0.304145393882,1.0,-0.174944571429,-0.22992715102,1.838
0.356573704725,0.13254991041,-0.126716365746,-1.96218894009,0.0316551427087,2.08791973705,0.0409248289462,-0.280993371488,-0.652230277512,-0.00735771724273,-0.894786707913,-0.0957000797786,0.215591498172,-0.253718349161,0.573809863382,0.818971083033,0.00305822545617,0.0,0.818938896055,-0.5737433878,-0.0117624990942,0.0,-0.0078786616771,0.00925411594763,-0.999926141287,0.0,0.567525730674,0.137494624929,0.304252315914,1.0,-0.178277142857,-0.234307102041,1.856
0.351632735012,0.121107043664,-0.126905658842,-1.97722427886,0.030028621046,2.0915138318,0.0365189806876,-0.295095338926,-0.680731626202,-0.0126334323955,-0.851874568513,-0.0986756233718,0.218285719721,-0.261005244231,0.573963481235,0.818863633013,0.003003271307,0.0,0.818830842934,-0.57389730742,-0.0117761665161,0.0,-0.00791965765772,0.00921843818853,-0.999926146983,0.0,0.564483932897,0.133403897086,0.304253285999,1.0,-0.181424571429,-0.238443722449,1.873
0.346810347361,0.110199791969,-0.127022330389,-1.99137958845,0.028481254706,2.0949174339,0.0321133185334,-0.302136296666,-0.678635415086,-0.00889058691417,-0.881881301646,-0.100010215616,0.203268106289,-0.274364758713,0.573960077818,0.818865730617,0.00308077800231,0.0,0.818834241824,-0.573893982131,-0.0117016491134,0.0,-0.00781418994222,0.00923910383685,-0.999926786018,0.0,0.561597104383,0.129529965342,0.304297116576,1.0,-0.184386857143,-0.242337012245,1.889
0.341321379304,0.097769116748,-0.127080078772,-2.00739136217,0.0267061113758,2.09860671773,0.0270929276163,-0.303429966419,-0.704841242652,-0.00332000447697,-0.881557807068,-0.0922788035731,0.215082161656,-0.282885657554,0.573858550896,0.818936718124,0.00312444778542,0.0,0.818905859966,-0.573792397839,-0.0116714864842,0.0,-0.00776557396163,0.00925658913929,-0.999927003045,0.0,0.558243446351,0.125207937307,0.304342778414,1.0,-0.187719428571,-0.246716963265,1.907
0.335950274001,0.0859947649204,-0.127140295511,-2.02269500001,0.0251366295563,2.10198106475,0.0221816631084,-0.319459475591,-0.701403166654,-0.00694743707963,-0.918530021285,-0.0954205115269,0.189480907153,-0.298021161914,0.573804772067,0.818974671703,0.00305246855108,0.0,0.818941382913,-0.573737115468,-0.011894561321,0.0,-0.0079901837872,0.00932512840179,-0.999924596629,0.0,0.554964599549,0.121061985322,0.304270737247,1.0,-0.190866857143,-0.250853583673,1.924
0.32965757849,0.0725769580852,-0.12729628303,-2.03954737769,0.0231793578935,2.10577728144,0.0164980902193,-0.336896305472,-0.696050512341,-0.00944047960582,-0.883867599389,-0.0995600134432,0.199092544577,-0.29802057145,0.57377959135,0.818991474562,0.0032698693927,0.0,0.81896191588,-0.573712258329,-0.01167783722,0.0,-0.00768823299308,0.00937858373726,-0.999926463916,0.0,0.551385056781,0.116270550177,0.304403870208,1.0,-0.194384571429,-0.255476865306,1.943
0.32443822068,0.0620047977795,-0.127486409192,-2.053101519,0.0216306243521,2.1085247974,0.0118980405736,-0.346269429034,-0.702555613849,-0.0132733509064,-0.904422663639,-0.101408530656,0.174937685181,-0.309650192089,0.573907492478,0.818902636914,0.00306728450742,0.0,0.818869733766,-0.573839993103,-0.011864583388,0.0,-0.00795596127862,0.00932105920873,-0.999924907448,0.0,0.54841440478,0.11232932852,0.304323481555,1.0,-0.197161714286,-0.25912682449,1.958
0.318381583747,0.0498076717352,-0.127603074311,-2.06824660534,0.0198493259809,2.11176422838,0.00651665175438,-0.347266172841,-0.698222889198,-0.00531959551858,-0.893448686342,-0.108530743592,0.183945006503,-0.319222867746,0.573915139845,0.818896552684,0.00325502071385,0.0,0.818866640498,-0.573847641855,-0.0117070883406,0.0,-0.00771915694092,0.00938448379925,-0.999926170315,0.0,0.545105390023,0.107908739423,0.304420052224,1.0,-0.19998,-0.262830857143,1.975
0.312609375046,0.0383823428802,-0.127655558868,-2.08258969499,0.0182321135663,2.11460495581,0.0013636892891,-0.368893703134,-0.71004097862,-0.0054971339262,-0.873453008022,-0.105923891255,0.175066494198,-0.317893528439,0.573866214833,0.818930976642,0.00322022828034,0.0,0.818899681004,-0.573797718027,-0.0118422185091,0.0,-0.00785035107403,0.00943307463847,-0.99992469171,0.0,0.541867970144,0.103784133037,0.304381299556,1.0,-0.19998,-0.262830857143,1.991
0.306635759691,0.0269553822737,-0.127730633188,-2.09669431242,0.0164795806615,2.11739287234,-0.00390800429051,-0.375730235198,-0.698403502197,-0.00375124661822,-0.876098671913,-0.104572141486,0.16829777687,-0.319900679326,0.57382318809,0.818961025435,0.00324569407477,0.0,0.818930543341,-0.573755189989,-0.0117683493044,0.0,-0.0077757353005,0.00941113092201,-0.999925481501,0.0,0.538678710493,0.0995837654624,0.304408246078,1.0,-0.19998,-0.262830857143,2.007
0.300150108587,0.0148177565626,-0.127892450607,-2.11147033199,0.0146708494605,2.12015648944,-0.00961427675222,-0.391534610826,-0.721030033814,-0.0137344450104,-0.839429656115,-0.112837341597,0.172457783981,-0.335974290003,0.573870918152,0.81892729297,0.00331738300003,0.0,0.818897861835,-0.573802816113,-0.0117203670757,0.0,-0.00769475292225,0.00944275746279,-0.999925809802,0.0,0.535288206103,0.0950712092127,0.304470310845,1.0,-0.19998,-0.262830857143,2.024
0.293859391021,0.00354414518554,-0.128043315837,-2.12525357772,0.0130227023182,2.1226107996,-0.0150699778407,-0.394416873895,-0.709862018853,-0.00569286405336,-0.871796347557,-0.099668207265,0.157846673347,-0.346868188937,0.574000288293,0.818836725509,0.00329133674125,0.0,0.818806271915,-0.573931421721,-0.0118219768272,0.0,-0.00779141722785,0.00948096781172,-0.999924699698,0.0,0.532071641249,0.0907875191581,0.304450790671,1.0,-0.19998,-0.262830857143,2.04
0.286838098185,-0.0091157050867,-0.12807607671,-2.14036777738,0.0111469148648,2.12533933074,-0.0213123258909,-0.392347039551,-0.71435468413,-0.00147224231419,-0.860397917485,-0.107605975761,0.160409658578,-0.349323937211,0.573868920319,0.818927972801,0.00349063850865,0.0,0.818900455961,-0.573799829891,-0.011685261912,0.0,-0.00756660574739,0.00956447824927,-0.999925630851,0.0,0.52850683494,0.0861514860471,0.304545815105,1.0,-0.19998,-0.262830857143,2.058
0.280408856443,-0.0202003324252,-0.128133045097,-2.15383461916,0.00941958995925,2.1274723954,-0.0269646579494,-0.405065515543,-0.697475040765,-0.00484630373838,-0.852574338161,-0.108847315586,0.125399343207,-0.361724119224,0.57379738113,0.818978964314,0.00328151210792,0.0,0.818948021137,-0.573728138451,-0.0118704981644,0.0,-0.00783914338738,0.00949883148848,-0.99992415714,0.0,0.525234019105,0.0819520812167,0.304459855998,1.0,-0.19998,-0.262830857143,2.074
0.273429996995,-0.0320346117485,-0.128311600925,-2.16764329324,0.00763223445442,2.1297752784,-0.032984197061,-0.415966919416,-0.703106919664,-0.0121919190551,-0.825117337057,-0.103215978811,0.134355521513,-0.348274898578,0.573941639852,0.818876937867,0.00350736003899,0.0,0.818849662846,-0.573872516435,-0.0116752489565,0.0,-0.00754795990437,0.00957309642898,-0.999925689302,0.0,0.521709586643,0.0771730860765,0.304583480235,1.0,-0.19998,-0.262830857143,2.092
0.265889334398,-0.0443103572466,-0.128436866819,-2.18233562581,0.00583623186546,2.13191892888,-0.0395911641116,-0.407699534683,-0.680817315825,-0.0016283966001,-0.818482370346,-0.0935973846177,0.110234067886,-0.369950222318,0.573967419596,0.818859428382,0.00337412132034,0.0,0.818828679239,-0.573896583171,-0.0119604674893,0.0,-0.00785769615952,0.00962793133383,-0.999922776793,0.0,0.518243911156,0.0726887856135,0.304484625706,1.0,-0.19998,-0.262830857143,2.109
0.259145717975,-0.0552971293192,-0.128468734728,-2.19487850464,0.0041130684585,2.13391433453,-0.0454597923276,-0.432790325662,-0.671989315373,-0.00805999952506,-0.777556775932,-0.111847352501,0.120105745472,-0.3731027497,0.573901112404,0.818904730929,0.00364715571509,0.0,0.818879023963,-0.573831233047,-0.0116450416264,0.0,-0.00744347112851,0.00966986783053,-0.999925541425,0.0,0.515139137509,0.0685502093677,0.304635580123,1.0,-0.19998,-0.262830857143,2.125
0.252713744089,-0.0653605638954,-0.128546077648,-2.20686762845,0.00253206955354,2.13545042517,-0.0511457180922,-0.424053822862,-0.661459950528,-0.00188688329555,-0.802616548432,-0.100500427764,0.0917179817504,-0.382782028187,0.573815512627,0.818965902856,0.00336961849177,0.0,0.818935245845,-0.573744899272,-0.011941548157,0.0,-0.00784657041651,0.00961192998464,-0.999923018104,0.0,0.512043753705,0.0646232255605,0.304487873183,1.0,-0.19998,-0.262830857143,2.14
0.244306477764,-0.078214714841,-0.12878021178,-2.22147862816,0.000568738649709,2.13743312632,-0.0584455022273,-0.447313145543,-0.659546679515,-0.0185234310549,-0.775534211279,-0.102051123492,0.0957353876128,-0.390020517332,0.573949873123,0.818870987278,0.00354911783322,0.0,0.818842960967,-0.573878968593,-0.0118271544255,0.0,-0.00764829679296,0.00969455058743,-0.999923756716,0.0,0.508303216459,0.0595474040811,0.304573524838,1.0,-0.19998,-0.262830857143,2.159
0.23629303226,-0.0902083062535,-0.128857732592,-2.23535453866,-0.00123535455122,2.13902691987,-0.0654482843381,-0.442577935802,-0.667134872349,-0.00143211742729,-0.77326718453,-0.0980896655175,0.0788069541614,-0.393045073232,0.573930953092,0.818884864143,0.00340400672022,0.0,0.818853271973,-0.57385849937,-0.0121032467038,0.0,-0.00795790055869,0.00973399736653,-0.999920957433,0.0,0.504620948489,0.0548588499949,0.304474710448,1.0,-0.19998,-0.262830857143,2.177
0.229487624301,-0.10024005173,-0.128918678863,-2.24647938028,-0.00286079199856,2.14039939668,-0.0714202786662,-0.458404958584,-0.660190874988,-0.00606665804097,-0.749152299829,-0.108371860564,0.0877589738701,-0.396857775861,0.573838431329,0.818949050811,0.00355721910973,0.0,0.81892070265,-0.573766973457,-0.0118781245342,0.0,-0.00768671196324,0.00972939204362,-0.99992312374,0.0,0.501684226177,0.0509435533337,0.304578873665,1.0,-0.19998,-0.262830857143,2.192
0.221142024816,-0.112081571643,-0.129108056855,-2.25995875579,-0.00473121042872,2.14173095339,-0.0786339732204,-0.468110903236,-0.650872270482,-0.0155680684695,-0.755569612807,-0.109333162947,0.0645271965337,-0.408748637492,0.573946377043,0.818874207612,0.00336679211953,0.0,0.818842034916,-0.573873951639,-0.0121308031853,0.0,-0.0080016416045,0.00971948857941,-0.999920749496,0.0,0.498008464145,0.046163255408,0.304477553445,1.0,-0.19998,-0.262830857143,2.21
0.213549382625,-0.122681305213,-0.129244095346,-2.27147445145,-0.00636795445686,2.1429958617,-0.0852165019933,-0.465135505765,-0.65261075229,-0.0070860210085,-0.723604485705,-0.0970356186969,0.0763672984233,-0.418110287243,0.574019205482,0.818822046452,0.00362696614634,0.0,0.818794216763,-0.573946978947,-0.0119013803225,0.0,-0.0076635738764,0.00980154849209,-0.999922596646,0.0,0.494885357682,0.0419229359642,0.304605005651,1.0,-0.19998,-0.262830857143,2.226
0.20597026776,-0.13310222957,-0.129300695692,-2.28302106282,-0.00798604843949,2.14400459579,-0.0919056019667,-0.478609259614,-0.656833017535,-0.0076702105792,-0.719161989208,-0.107515659103,0.0606871537456,-0.432850108858,0.57392239231,0.818890115725,0.00357950744819,0.0,0.818860934156,-0.573849420792,-0.0120149769679,0.0,-0.00778499748916,0.0098269723375,-0.999921409126,0.0,0.491647823599,0.0377820447392,0.304573739041,1.0,-0.19998,-0.262830857143,2.242
0.197712694134,-0.144184845215,-0.12941862863,-2.29491484867,-0.00974701282125,2.14509247127,-0.0991581080693,-0.491793498119,-0.655398123111,-0.00913378597808,-0.704390985509,-0.0999022995877,0.0709531683112,-0.433369908583,0.573885212475,0.818915329639,0.00376731810534,0.0,0.818889566616,-0.573812830829,-0.0118093084066,0.0,-0.00750923279596,0.00986239483636,-0.999923169344,0.0,0.488309819554,0.0333197782456,0.30467813162,1.0,-0.19998,-0.262830857143,2.259
0.189259906132,-0.155075170247,-0.129615098963,-2.3067840409,-0.0114855472906,2.14594899229,-0.106503247422,-0.501597421258,-0.657633014627,-0.00989348827351,-0.692828410441,-0.0991914549853,0.0414694843723,-0.430713613475,0.57399037143,0.818841882577,0.00371103009734,0.0,0.818814762294,-0.573917354775,-0.0119164524125,0.0,-0.007628012613,0.00987876537024,-0.999922108676,0.0,0.484889163208,0.0287904464339,0.304641063803,1.0,-0.19998,-0.262830857143,2.276
0.181313880955,-0.165302940455,-0.129668114852,-2.31769655701,-0.0130737610534,2.14661787619,-0.113501796625,-0.501586491783,-0.640506773531,-0.0044769562939,-0.66718916554,-0.0927937078466,0.0436007315527,-0.435819392177,0.573915614175,0.818894154997,0.00373866543379,0.0,0.818867056125,-0.573842070724,-0.0119486049673,0.0,-0.0076393863357,0.00991915189038,-0.99992162203,0.0,0.481685905524,0.0246640179295,0.304667518741,1.0,-0.19998,-0.262830857143,2.292
0.172669228552,-0.176043359165,-0.129770372737,-2.32917818577,-0.0147570356006,2.14732688309,-0.121132644922,-0.510505986486,-0.628316048421,-0.00467894180306,-0.674550746095,-0.102572687703,0.0240135468554,-0.438236554761,0.573869237852,0.818926561466,0.00375921188496,0.0,0.818899343126,-0.573795123659,-0.0119903625908,0.0,-0.00766235648294,0.00995950813621,-0.999921045128,0.0,0.478281779326,0.0202268707821,0.304649391938,1.0,-0.19998,-0.262830857143,2.309
0.163777966804,-0.186782679217,-0.12998892977,-2.34050667661,-0.0164644563898,2.14784146336,-0.128895211453,-0.526285674729,-0.622140229616,-0.00988238742861,-0.656417613908,-0.0920272046081,0.0268636894787,-0.457390026537,0.5739805903,0.818848503184,0.00376267108263,0.0,0.818820756176,-0.573905701606,-0.012064900364,0.0,-0.00772005585155,0.0100061644636,-0.999920135516,0.0,0.474657401471,0.0154228603581,0.304648212485,1.0,-0.19998,-0.262830857143,2.327
0.155428059322,-0.196830835441,-0.130064973991,-2.35077676696,-0.0180619888996,2.14839929946,-0.136337954947,-0.523409657492,-0.619076498715,-0.00816861476477,-0.647118673515,-0.100365383482,0.0281317438581,-0.467723039017,0.573865230185,0.818928301953,0.00398506535931,0.0,0.818904800685,-0.57379135894,-0.0117962164159,0.0,-0.00737380137949,0.0100330207694,-0.999922479769,0.0,0.4717353933,0.0115391291608,0.304764197064,1.0,-0.19998,-0.262830857143,2.342
0.145799398963,-0.207915397373,-0.130188766735,-2.36246669431,-0.0197977751553,2.14866793423,-0.144842664855,-0.539887494216,-0.616038383859,-0.0123720068928,-0.643057238288,-0.093471325707,0.0172219998195,-0.469453181451,0.573854527516,0.818936490762,0.00384086560576,0.0,0.81890940207,-0.57377889025,-0.012079867796,0.0,-0.00768898497367,0.0100776018082,-0.999919657498,0.0,0.468054675245,0.00682675084904,0.304664831175,1.0,-0.19998,-0.262830857143,2.36
0.136495713908,-0.218398611083,-0.130378314834,-2.3729992117,-0.0214198586295,2.14898368583,-0.1529741602,-0.544245461831,-0.612862123723,-0.00900668555593,-0.608566078971,-0.0962931850077,0.0251716518174,-0.478376763641,0.573997342096,0.818835255654,0.00407704127752,0.0,0.818811966004,-0.573921790415,-0.0118949450308,0.0,-0.00740024000327,0.0101661927467,-0.999920939361,0.0,0.464728079223,0.00231699430723,0.30477545841,1.0,-0.19998,-0.262830857143,2.377
0.127237383098,-0.228661296472,-0.130453148916,-2.38359066592,-0.0231152859337,2.14913639013,-0.161283430807,-0.553526059656,-0.606498945278,-0.00703762648117,-0.624358464155,-0.0952136836373,0.00361708033586,-0.50175829469,0.573819382312,0.818960510183,0.00396814126571,0.0,0.818935346579,-0.573743628322,-0.0119955818807,0.0,-0.00754735739951,0.0101331436224,-0.999920175212,0.0,0.461296315118,-0.00206116616336,0.304710626552,1.0,-0.19998,-0.262830857143,2.394
0.117656522916,-0.238918573196,-0.130623553026,-2.39390263402,-0.0247939566072,2.1491578989,-0.16975690663,-0.564955416455,-0.612026396376,-0.0169156310127,-0.594380359353,-0.104634457747,0.00287926702496,-0.499032581869,0.573848086655,0.818940385544,0.00397055011018,0.0,0.818915212978,-0.573772265213,-0.0120003553136,0.0,-0.00754952942817,0.0101381200152,-0.999920108373,0.0,0.45789144416,-0.00656183344605,0.304723176212,1.0,-0.19998,-0.262830857143,2.411
0.107936815067,-0.249098298535,-0.130781903029,-2.40391271597,-0.0263275811792,2.14923157637,-0.178402942365,-0.569775184749,-0.587174440983,-0.00746619575689,-0.600391290133,-0.0871413743375,0.00484346972178,-0.519332244484,0.573900773446,0.818902215113,0.00422033435505,0.0,0.818880804452,-0.573824764806,-0.0118369884743,0.0,-0.00727174371677,0.0102494049652,-0.999921032603,0.0,0.454557270488,-0.0110369715471,0.30480818896,1.0,-0.19998,-0.262830857143,2.428
0.0987590531204,-0.258521038447,-0.130933620439,-2.41341634979,-0.0278531439094,2.14912633399,-0.186653946385,-0.58405145509,-0.59418568741,-0.0157680712721,-0.587549424662,-0.107494513994,-0.0145484963353,-0.513173079095,0.573834589072,0.818948941664,0.00415237671589,0.0,0.818925831407,-0.573757690448,-0.011972560654,0.0,-0.00742260071028,0.0102709557251,-0.99991970301,0.0,0.451308581897,-0.0152075733678,0.304734526631,1.0,-0.19998,-0.262830857143,2.444
0.0886906327979,-0.268490820664,-0.131130455217,-2.42304177951,-0.0294588675866,2.14901568766,-0.19553634128,-0.597229190556,-0.593924010518,-0.0145662450346,-0.55653108021,-0.0926357132205,-0.00160068654406,-0.53738070165,0.573964828423,0.818856733774,0.00433268827683,0.0,0.818837003675,-0.573888749438,-0.0117648452038,0.0,-0.00714737926922,0.0103005711632,-0.999921403513,0.0,0.44797503184,-0.0197375848315,0.304819227248,1.0,-0.19998,-0.262830857143,2.461
0.0786667821898,-0.278295966312,-0.131220309111,-2.43259808369,-0.0310217258051,2.14876844286,-0.204603379121,-0.585822872115,-0.576548294917,-0.00125552955933,-0.572348815059,-0.0937185179846,-0.0230153983017,-0.533824370071,0.573833963754,0.818948211623,0.00437671366733,0.0,0.818929124753,-0.573757865805,-0.0117365650352,0.0,-0.00710060176173,0.0103192566055,-0.999921544121,0.0,0.444592001035,-0.0241275571436,0.30482053169,1.0,-0.19998,-0.262830857143,2.478
0.0690090519956,-0.287403388468,-0.131368393222,-2.4415184708,-0.032502453386,2.14837216272,-0.213317051968,-0.612383675963,-0.566178077061,-0.0097490089481,-0.555593283871,-0.0869658465601,-0.025011957091,-0.54976209547,0.573784732113,0.818983108587,0.00430069117516,0.0,0.818962181949,-0.573707671556,-0.011882720038,0.0,-0.00726454734009,0.0103404258477,-0.999920147784,0.0,0.441350072023,-0.0283225603493,0.304758734555,1.0,-0.19998,-0.262830857143,2.494
0.0584366768644,-0.297082066359,-0.131570159464,-2.45054876802,-0.0339787988216,2.1480196123,-0.222690288469,-0.611816063537,-0.572520403313,-0.00611276460192,-0.528233903335,-0.0883983720567,-0.0180987417752,-0.553788709868,0.573974298997,0.81884879341,0.00457214654919,0.0,0.81883237038,-0.573897751204,-0.0116476299192,0.0,-0.00691383619548,0.0104294626139,-0.999921709525,0.0,0.438025227193,-0.0328697705652,0.304872279518,1.0,-0.19998,-0.262830857143,2.511
0.0480421892317,-0.306562333785,-0.131671669278,-2.4595660371,-0.0355470779909,2.14746898055,-0.232204271305,-0.624919742603,-0.550494344744,-0.00556022042476,-0.54045168344,-0.0912443674832,-0.0349374004113,-0.562737767935,0.573774347798,0.818989128921,0.00453336731577,0.0,0.818972190215,-0.573697933073,-0.0116610524175,0.0,-0.00694962550465,0.0104037148089,-0.999921729649,0.0,0.434622461233,-0.0372367367632,0.304860419579,1.0,-0.19998,-0.262830857143,2.528
0.0365632966919,-0.316470154977,-0.131914068377,-2.4689846814,-0.0371297846776,2.14675876556,-0.24243907149,-0.64749036173,-0.544216990439,-0.0120814670593,-0.513709213142,-0.0940133956119,-0.0321538983248,-0.575459547283,0.573952438631,0.818864501753,0.00450253912343,0.0,0.818846043693,-0.573874432758,-0.0118338098616,0.0,-0.0071065315535,0.0104791321319,-0.999919839287,0.0,0.430965048768,-0.0420354331723,0.304805709457,1.0,-0.19998,-0.262830857143,2.546
0.0263670156899,-0.325216575337,-0.132000426382,-2.47688301976,-0.0385139547617,2.14623157977,-0.251728221671,-0.626514364145,-0.541585331755,-0.0047626015105,-0.484752291388,-0.0774990891659,-0.0346172353653,-0.575669130303,0.573864237878,0.81892512898,0.00471343931463,0.0,0.818911053232,-0.573788078037,-0.0115184763479,0.0,-0.00672838398583,0.0104701307869,-0.999922549606,0.0,0.427864502394,-0.0462000781131,0.304930304774,1.0,-0.19998,-0.262830857143,2.562
0.0154348808876,-0.33426759292,-0.132170334936,-2.48537167932,-0.0399170818199,2.14547397413,-0.261771644588,-0.655662606342,-0.534921770419,-0.0118580874816,-0.500523272029,-0.0793346994338,-0.0502507351077,-0.590482220833,0.573790038843,0.818977117541,0.00471372140447,0.0,0.818961996001,-0.573712265639,-0.0116718577435,0.0,-0.00685479660063,0.0105577576675,-0.99992076962,0.0,0.424438709158,-0.0506117172598,0.304871342639,1.0,-0.19998,-0.262830857143,2.579
0.00473572262462,-0.342730099949,-0.132371074504,-2.4931287303,-0.0413281319129,2.14462898989,-0.271293620929,-0.665056586586,-0.529066180652,-0.00597167192769,-0.489130312983,-0.0840044987781,-0.0484982037711,-0.598941818337,0.573989808959,0.818837338415,0.00467539623142,0.0,0.818821350226,-0.573911559305,-0.0117416102994,0.0,-0.0069313384345,0.010568082376,-0.999920132902,0.0,0.421201686846,-0.054908600786,0.30486102828,1.0,-0.19998,-0.262830857143,2.595
-0.0064226884439,-0.351581007061,-0.1325136213,-2.50103032123,-0.0427179225467,2.14379437486,-0.281688257951,-0.66158188289,-0.520224273593,-0.00879172309043,-0.451967796998,-0.0841479696691,-0.0480352107904,-0.6188910442,0.573802470627,0.818967865243,0.00480700554533,0.0,0.818954190581,-0.573724776766,-0.0116043593461,0.0,-0.00674582909589,0.0105955313951,-0.99992111114,0.0,0.417863346487,-0.0592961024828,0.304927048625,1.0,-0.19998,-0.262830857143,2.612
-0.0180255855132,-0.360232310534,-0.132755809508,-2.50881848879,-0.0441798461291,2.14289593278,-0.292188868807,-0.68951802038,-0.510763718494,-0.0164291870877,-0.462996300547,-0.0961945387982,-0.0566704412608,-0.630987136117,0.573934006549,0.81887560515,0.00482144360787,0.0,0.818862299276,-0.573856533569,-0.0115741351976,0.0,-0.00671108925771,0.0105910920962,-0.999921391935,0.0,0.414467607098,-0.0638502544914,0.304928942759,1.0,-0.19998,-0.262830857143,2.629
-0.0288506169449,-0.36827625363,-0.132828729822,-2.51609873975,-0.0454378249746,2.14191005187,-0.302252414765,-0.672861339473,-0.501475625482,-0.010330197175,-0.459166081534,-0.0765421984764,-0.0556736143766,-0.620508634058,0.573761464327,0.818996752267,0.00478003463873,0.0,0.818981987449,-0.573682706055,-0.0117219413331,0.0,-0.00685814071593,0.0106405653564,-0.999919868927,0.0,0.411232868857,-0.06795593664,0.304881976818,1.0,-0.19998,-0.262830857143,2.645
-0.0406435172488,-0.376633827515,-0.133051180171,-2.52355451286,-0.0467501840833,2.14083909141,-0.313025389627,-0.705381179471,-0.498742533382,-0.0151871651253,-0.427486054399,-0.0838229842898,-0.0654288590362,-0.645112076279,0.573876609369,0.818915902659,0.00480920909984,0.0,0.818900614546,-0.573796336614,-0.011844597367,0.0,-0.00694035620427,0.0107358083612,-0.999918283599,0.0,0.407810625932,-0.0724378841153,0.30485344196,1.0,-0.19998,-0.262830857143,2.662
-0.0525923546778,-0.38487274155,-0.133181575242,-2.53058003318,-0.0481240470927,2.13987152204,-0.324035351753,-0.691545299065,-0.482624799525,-0.00628525846849,-0.417488193065,-0.0792257349223,-0.0667949341264,-0.661906839551,0.573837910513,0.818942285193,0.00493283703996,0.0,0.818930367519,-0.573760036681,-0.0115421126215,0.0,-0.00662218682286,0.0106631571385,-0.999921218758,0.0,0.40450234796,-0.0769220972349,0.30495970271,1.0,-0.19998,-0.262830857143,2.679
-0.0646019055923,-0.392937251098,-0.13338255963,-2.53771388037,-0.0494258224788,2.13869752116,-0.335195401583,-0.716034875898,-0.477451252112,-0.0200149108519,-0.422734625293,-0.0721134659271,-0.0761753673715,-0.657051288932,0.573802531841,0.818967257706,0.00490226070088,0.0,0.818953888657,-0.57372307358,-0.0117093977938,0.0,-0.00677720380598,0.0107338142238,-0.999919424124,0.0,0.401054960934,-0.0813589637389,0.304905648582,1.0,-0.19998,-0.262830857143,2.696
-0.0761604770505,-0.400369442133,-0.133538980468,-2.54416301553,-0.0506905834154,2.13755119447,-0.345846944179,-0.715683103376,-0.455335979797,-0.00542908322955,-0.406002067041,-0.074408282213,-0.0761831367603,-0.660103054306,0.573808826276,0.81896321042,0.00484125667992,0.0,0.818948646267,-0.57372893396,-0.0117886392763,0.0,-0.00687702523827,0.0107293724445,-0.999918790248,0.0,0.397625158096,-0.0858393407932,0.304885503221,1.0,-0.19998,-0.262830857143,2.713
-0.0891256570111,-0.408556404556,-0.133694174091,-2.55112118199,-0.0519590319554,2.13632614582,-0.358006463192,-0.728934258178,-0.447766231839,-0.0139007308117,-0.383560628962,-0.0732394886241,-0.0722754729256,-0.67620415948,0.573724345186,0.819021747725,0.00494968639634,0.0,0.819008800377,-0.573644438692,-0.011721337976,0.0,-0.00676080080658,0.0107788611991,-0.999919050585,0.0,0.394263202898,-0.0902491623799,0.304921080586,1.0,-0.19998,-0.262830857143,2.73
-0.101041309782,-0.415635114633,-0.133895541164,-2.55698854712,-0.0530512006929,2.13528352897,-0.368985587197,-0.741759733898,-0.44194787724,-0.00482149073284,-0.368673487541,-0.074477004156,-0.0705049614555,-0.677651235554,0.57389178799,0.818903298353,0.0051332764088,0.0,0.818893612386,-0.573812718617,-0.011530934343,0.0,-0.00649730596826,0.0108213241331,-0.999920338807,0.0,0.391123089811,-0.0945322064056,0.304998921026,1.0,-0.19998,-0.262830857143,2.746
-0.113571559692,-0.422998429553,-0.134028261181,-2.56327578468,-0.0542822395362,2.13394702625,-0.380830362113,-0.743057496119,-0.42747395212,-0.00729760946557,-0.367094427179,-0.075640943305,-0.0879367565081,-0.695908166036,0.573723599397,0.819021705201,0.00504230167957,0.0,0.819009871349,-0.573643250123,-0.0117046624118,0.0,-0.00669401912438,0.0108451447012,-0.999918783174,0.0,0.387480483658,-0.0991863804275,0.304951119311,1.0,-0.19998,-0.262830857143,2.764
-0.126456521429,-0.430156346878,-0.134249963371,-2.56935935283,-0.0554826546212,2.13266823241,-0.392749793795,-0.760428824316,-0.421968650065,-0.0109606309608,-0.348589619294,-0.0733169588932,-0.069364042097,-0.701883185214,0.573858232563,0.818927400707,0.00503866980868,0.0,0.818914898426,-0.573776868782,-0.0118000376197,0.0,-0.0067724323408,0.0108980003275,-0.999917680486,0.0,0.384238161253,-0.103437443431,0.304918013908,1.0,-0.19998,-0.262830857143,2.78
-0.138472842209,-0.436632152033,-0.134356201686,-2.57479691522,-0.0565163723982,2.13151487799,-0.40417134483,-0.758235254843,-0.400877248659,-0.0142201490324,-0.334647235463,-0.0635295044401,-0.0750116527368,-0.725339819085,0.573709047323,0.819031780377,0.00506148735807,0.0,0.81901926001,-0.573627124879,-0.0118372394255,0.0,-0.00679179960379,0.0109367975515,-0.999917125525,0.0,0.381069759943,-0.107560079203,0.30489892554,1.0,-0.19998,-0.262830857143,2.796
-0.152473973995,-0.443801564387,-0.134565928744,-2.58049720817,-0.0577398022412,2.13020794092,-0.417188322746,-0.774253422326,-0.387606175765,-0.00167166522849,-0.315386997525,-0.0655752991777,-0.0765074673087,-0.729019033872,0.573853730915,0.818929805473,0.00515908172668,0.0,0.818919971452,-0.573773787253,-0.0115960475981,0.0,-0.00653632898728,0.0108795197028,-0.999919452983,0.0,0.37752337391,-0.112392409685,0.305002604029,1.0,-0.19998,-0.262830857143,2.814
-0.165497243509,-0.450412784113,-0.13468377667,-2.58591247925,-0.0587521070471,2.12891002154,-0.429620862742,-0.767638974114,-0.383968509558,-0.00238739994534,-0.322288629721,-0.0605956986002,-0.0778141896666,-0.738733533576,0.573712590802,0.819028260778,0.00522667239136,0.0,0.819018947289,-0.573631867329,-0.0116271951479,0.0,-0.00652494120124,0.0109516228245,-0.999918740248,0.0,0.374130151023,-0.116756036906,0.305006028185,1.0,-0.19998,-0.262830857143,2.831
-0.177342461004,-0.456006943547,-0.134908799979,-2.59056986447,-0.0596769467445,2.12769005731,-0.440755475343,-0.78892366424,-0.369927610869,-0.00461539304802,-0.306321126052,-0.0718415054322,-0.0746856199498,-0.741896397999,0.573821920517,0.818951693365,0.00522248697775,0.0,0.818940946856,-0.573738895508,-0.0118385913575,0.0,-0.00669901950576,0.0110703647983,-0.999916281576,0.0,0.371058110791,-0.120732541733,0.304950768792,1.0,-0.19998,-0.262830857143,2.846
-0.191467999956,-0.462442715138,-0.135017999912,-2.59575740024,-0.0607363654856,2.12640772023,-0.454282384441,-0.790374761589,-0.348313309495,-0.00842928143828,-0.280675368927,-0.0683616405859,-0.0746362432862,-0.752298213752,0.573665173165,0.819061229943,0.00526475109008,0.0,0.819051352848,-0.573582562072,-0.0117759409564,0.0,-0.00662557482744,0.0110677617994,-0.999916799742,0.0,0.367509104216,-0.125401162698,0.304966453713,1.0,-0.19998,-0.262830857143,2.864
-0.205191453556,-0.468267045271,-0.135231686763,-2.60049522554,-0.0617812467448,2.12517594982,-0.467158804342,-0.793563474206,-0.338646009683,-0.00764040612551,-0.275703676025,-0.0559646776171,-0.0693719405416,-0.751194513189,0.573815208612,0.818956206534,0.00525214676299,0.0,0.818945900047,-0.573732171291,-0.0118218156003,0.0,-0.00666835207857,0.011084975063,-0.999916324703,0.0,0.364083488554,-0.129939075568,0.304941102186,1.0,-0.19998,-0.262830857143,2.881
-0.217950965869,-0.473635162322,-0.135355138706,-2.60461993911,-0.0626259654439,2.12401518026,-0.479425841731,-0.812463502159,-0.333526431768,-0.00800285056015,-0.248971197715,-0.054670542894,-0.0690923979728,-0.773274927569,0.573724069311,0.819019305818,0.00536804350309,0.0,0.819011255332,-0.573641923818,-0.0116727794021,0.0,-0.00648102166039,0.0110936561342,-0.999917460169,0.0,0.360949772037,-0.134093498615,0.305017941633,1.0,-0.19998,-0.262830857143,2.897
-0.23269004335,-0.479394023116,-0.135562129361,-2.60915351321,-0.0636741095507,2.12274059434,-0.493413223048,-0.810920403521,-0.308679542692,-0.00394620467588,-0.256661495,-0.067336605463,-0.0730076305394,-0.788081948093,0.573799469695,0.818966353302,0.00538773034739,0.0,0.81895891078,-0.573717853263,-0.0116135352965,0.0,-0.00642018117025,0.011076383426,-0.999918044144,0.0,0.357535472052,-0.138625881885,0.305038130072,1.0,-0.19998,-0.262830857143,2.914
-0.24565520909,-0.484249477683,-0.135652810331,-2.61307265938,-0.0644678521986,2.12158962982,-0.505930792821,-0.810292241383,-0.299863254525,-0.00756408123572,-0.241474507384,-0.0570693492729,-0.081103933735,-0.776406203473,0.573673388154,0.81905468777,0.005386006597,0.0,0.81904639019,-0.573590371052,-0.0117406922107,0.0,-0.00652703313596,0.0111469265535,-0.999916568453,0.0,0.354137108053,-0.142994877331,0.304996421123,1.0,-0.19998,-0.262830857143,2.931
-0.259817644473,-0.489115676346,-0.135827501009,-2.61697668904,-0.0652925070255,2.12038272734,-0.519427178736,-0.826430052037,-0.277991069766,-0.00045114981191,-0.22344970279,-0.049553752434,-0.0747974279012,-0.794368899651,0.573777418485,0.818981639617,0.00541247711493,0.0,0.818972626203,-0.573692484869,-0.0118961017474,0.0,-0.00663771926541,0.0112586019107,-0.999914588635,0.0,0.350697501521,-0.147494278295,0.304952842787,1.0,-0.199506857143,-0.262209012245,2.948
-0.273829059381,-0.493684861861,-0.135911218478,-2.62056296874,-0.0660531538689,2.11934316018,-0.532989940708,-0.841344900723,-0.261773506833,-0.0065224298034,-0.203677141753,-0.0483663231491,-0.0627217770594,-0.792851404683,0.573680678543,0.819049038384,0.00546796941232,0.0,0.819040877901,-0.573595784352,-0.0118601602681,0.0,-0.00657777530137,0.0112826524841,-0.999914713676,0.0,0.347364133308,-0.151898431808,0.304951435445,1.0,-0.196359428571,-0.258072391837,2.965
-0.287884437399,-0.498005299271,-0.135979999592,-2.62390866514,-0.0667456120569,2.1182383968,-0.546414043801,-0.808618018635,-0.245876091669,0.0108269854783,-0.191457286905,-0.0407435746246,-0.0672159259609,-0.786732140126,0.573763703847,0.818990502836,0.00552406674016,0.0,0.818982718631,-0.573677979959,-0.0119007897137,0.0,-0.0065777249447,0.0113525749538,-0.999913922584,0.0,0.344030191724,-0.156272850446,0.304954673274,1.0,-0.193212,-0.253935771429,2.982
-0.300974308846,-0.501825757861,-0.13600547851,-2.62681951701,-0.0673541814053,2.11725714307,-0.559023235789,-0.823732647909,-0.234253417907,-0.00500555347368,-0.178479922632,-0.035196452256,-0.0589483253704,-0.783093948339,0.573751288418,0.818998833986,0.00557815997745,0.0,0.818991762661,-0.573665381856,-0.0118856743206,0.0,-0.00653448194521,0.0113881072839,-0.999913802064,0.0,0.340950680724,-0.160310586109,0.304974977651,1.0,-0.190249714286,-0.250042481633,2.998
-0.31487690744,-0.505507025524,-0.135977602699,-2.62958982371,-0.0679153286706,2.11636722455,-0.572316649376,-0.79376947847,-0.213989779151,0.00703097831659,-0.155224184586,-0.0330279659128,-0.0497079579283,-0.78753589489,0.573833353317,0.818940791798,0.00565765415703,0.0,0.818935358475,-0.573748207606,-0.0117736913967,0.0,-0.00639601036596,0.0113896091356,-0.999914680288,0.0,0.337757968768,-0.164578779548,0.305012151424,1.0,-0.187102285714,-0.245905861225,3.015
-0.32856709923,-0.508912913162,-0.135978404535,-2.63213845259,-0.0684329012387,2.11555544046,-0.585478791326,-0.822932924458,-0.198538082577,-0.00331813265399,-0.146999103518,-0.0362332205039,-0.0535541935114,-0.773500006928,0.573900095423,0.818893331762,0.00575661096807,0.0,0.818889858024,-0.573815813671,-0.011642993917,0.0,-0.00623125564477,0.0113961650698,-0.99991564588,0.0,0.334621174679,-0.168764333988,0.305049799535,1.0,-0.183954857143,-0.241769240816,3.032
-0.342081941554,-0.512045631508,-0.135897659706,-2.63456215443,-0.0689119484621,2.11464885883,-0.598588109223,-0.784516317489,-0.176766146033,0.00476839888946,-0.134264293359,-0.0274512702184,-0.0488198658636,-0.768989472316,0.573831914717,0.81894099157,0.00577346337497,0.0,0.818937092423,-0.573746413208,-0.0117404806647,0.0,-0.00630237831417,0.0114653865532,-0.999914408806,0.0,0.331489640956,-0.172821386834,0.305033561331,1.0,-0.180807428571,-0.237632620408,3.049
-0.355488910795,-0.514822438904,-0.135841329105,-2.63678698265,-0.0693264369158,2.11384882688,-0.611544083759,-0.796884043395,-0.156809686917,-0.00143862495813,-0.12905417763,-0.025562252681,-0.0435375208349,-0.758465261566,0.57385767188,0.81892267071,0.00581194660832,0.0,0.818918232008,-0.573770137619,-0.0118956026629,0.0,-0.00640698065136,0.0115861149594,-0.999912352428,0.0,0.328398378095,-0.176831178114,0.304981878836,1.0,-0.17766,-0.233496,3.066
-0.368691066501,-0.517291363686,-0.135720926643,-2.63873612097,-0.0697306903206,2.1131555362,-0.624300294688,-0.766883695608,-0.138443122014,0.0132164385233,-0.104460975474,-0.0153059741395,-0.0353623530244,-0.734103611701,0.573853361842,0.81892572473,0.00580718344471,0.0,0.818920771035,-0.573765030406,-0.0119669358025,0.0,-0.00646819732201,0.0116231132663,-0.999911528917,0.0,0.325399062458,-0.180762854999,0.30495045894,1.0,-0.174512571429,-0.229359379592,3.083
-0.380985617142,-0.519390541099,-0.135634194406,-2.64036896889,-0.0700612371459,2.11257601857,-0.636208205644,-0.773317642266,-0.121823312502,0.00628196042294,-0.0994199781314,-0.0204714619476,-0.0379700039868,-0.734092914138,0.573873773974,0.818911186918,0.00584006733987,0.0,0.818906454354,-0.573784934505,-0.0119922830824,0.0,-0.00646979668035,0.0116647501721,-0.99991103371,0.0,0.322622742324,-0.184421415965,0.304933861857,1.0,-0.171550285714,-0.225466089796,3.099
-0.392304649742,-0.521200474981,-0.135502039214,-2.64170844352,-0.0703537388362,2.11205433085,-0.647233788381,-0.741093978061,-0.121247523371,0.0182369827753,-0.0882028047453,-0.0175387582861,-0.0340463549592,-0.735087444083,0.573818168294,0.81895009647,0.00584774559088,0.0,0.818945674546,-0.573729689892,-0.0119570891147,0.0,-0.00643735795868,0.0116504052378,-0.999911410316,0.0,0.32008548312,-0.187770151238,0.30494914307,1.0,-0.168773142857,-0.221816130612,3.114
-0.406484522485,-0.523258477758,-0.13539281961,-2.64320072584,-0.0706317710421,2.11145196207,-0.661022412772,-0.750510387496,-0.0978158401475,0.00391508395153,-0.0748826473563,-0.0128229262421,-0.0268099167986,-0.70927922056,0.573856105461,0.818922863242,0.00593811296286,0.0,0.818919866283,-0.573767718601,-0.0118997730826,0.0,-0.00633802074378,0.0116918212144,-0.999911561494,0.0,0.316911486637,-0.191961694449,0.304977554384,1.0,-0.165255428571,-0.21719284898,3.133
-0.418295955122,-0.524782735552,-0.135269504647,-2.64427647599,-0.07086519512,2.11098555001,-0.672501475499,-0.71814311518,-0.0840121736771,0.0184278955737,-0.0677162734813,-0.0126592439465,-0.027569207041,-0.712118767478,0.573878810108,0.818906683842,0.00597506223764,0.0,0.818904539216,-0.573790965877,-0.0118334284936,0.0,-0.0062621575196,0.0116841844087,-0.999912128748,0.0,0.314279668835,-0.195440468425,0.305010523652,1.0,-0.162293142857,-0.213299559184,3.149
-0.430559374035,-0.526102617141,-0.135157403477,-2.64524905295,-0.0710675388788,2.11059950649,-0.684488881804,-0.723472248747,-0.0729496288258,-0.000653396970276,-0.0539161903632,-0.0149883242397,-0.0188260424702,-0.696855500936,0.573882977227,0.818903386772,0.00602648193034,0.0,0.818902134159,-0.573795357767,-0.011786813665,0.0,-0.00619441353591,0.0116995758854,-0.999912370743,0.0,0.311558335885,-0.199051187894,0.305021512246,1.0,-0.159145714286,-0.209162938776,3.166
-0.443429608132,-0.527305702818,-0.135031192664,-2.64616605072,-0.0712501536038,2.1102056604,-0.696998965469,-0.697699529077,-0.0592701882911,0.0104716228227,-0.048193250286,-0.00205379794445,-0.0163371618793,-0.697484026535,0.573957972489,0.818850461563,0.00607571523954,0.0,0.818849679692,-0.57386983111,-0.0118053339995,0.0,-0.00618025250501,0.0117510892896,-0.999911854305,0.0,0.308687316014,-0.202815534737,0.305014241058,1.0,-0.155813142857,-0.204782987755,3.184
-0.453802293011,-0.528108142523,-0.134868911824,-2.64680626956,-0.0713728416775,2.10993320745,-0.707226260462,-0.693360759004,-0.0498528320884,0.00861920185254,-0.0410145750565,-0.0127377222616,-0.00815350339595,-0.674788021097,0.573873426335,0.818909611371,0.00608981547673,0.0,0.818908781124,-0.573784807797,-0.0118384729104,0.0,-0.00620051502656,0.011781015202,-0.99991137672,0.0,0.30638335199,-0.205825300903,0.304997309803,1.0,-0.153036,-0.201133028571,3.199
-0.465649775526,-0.528833348763,-0.134744135488,-2.64738350767,-0.0715143387905,2.10963325,-0.71865518623,-0.688514465282,-0.0397131775419,0.0171218896675,-0.0287594131923,-0.0155910620826,-0.0150173860428,-0.673733605775,0.574021047514,0.818806016677,0.00610663289443,0.0,0.818804948985,-0.573931466332,-0.0119111029511,0.0,-0.00624821428766,0.011837592939,-0.999910411593,0.0,0.303597256506,-0.209469340058,0.304975774163,1.0,-0.149703428571,-0.196753077551,3.217
-0.476932937794,-0.529340454799,-0.134536946824,-2.6478013444,-0.0715603892867,2.10942222127,-0.729907627624,-0.662516800251,-0.0266641942962,0.0107013638527,-0.0205115195429,-0.00395780046176,-0.0131268695244,-0.656629999644,0.573870199507,0.818911420862,0.00615026826779,0.0,0.818910630269,-0.573779920364,-0.011946946097,0.0,-0.00625471058888,0.0118927453759,-0.999909716526,0.0,0.30126028882,-0.212538481073,0.304959725436,1.0,-0.146741142857,-0.192859787755,3.233
-0.488275949671,-0.529733377807,-0.134411763616,-2.64810296709,-0.0716226669092,2.10922886061,-0.740898104381,-0.667399132207,-0.0191717744628,0.00851183822924,-0.0193021996601,-0.00484132342758,-0.0173929249063,-0.630228960509,0.574026704792,0.81880132617,0.00620301130508,0.0,0.818801022532,-0.5739357922,-0.0119724196592,0.0,-0.00624302308452,0.011951750713,-0.999909086026,0.0,0.298743773702,-0.215835133896,0.304952655383,1.0,-0.143593714286,-0.188723167347,3.25
-0.4985384201,-0.529916752138,-0.134182285984,-2.64826370221,-0.0716534701753,2.1090899739,-0.751123063782,-0.631329974943,-0.00768105125153,0.0159916058671,-0.00902072167087,-0.000480647411666,-0.00567871017283,-0.635567171084,0.573873395462,0.818908805941,0.00620003496623,0.0,0.818908206404,-0.573782036904,-0.0120112659872,0.0,-0.00627878368167,0.0119704359777,-0.999908638596,0.0,0.29649045637,-0.218787816724,0.304940458788,1.0,-0.140631428571,-0.184829877551,3.266
-0.511248491914,-0.530066277758,-0.134018967288,-2.64839569314,-0.071677237372,2.10896513433,-0.76355379273,-0.635571672224,-0.00640947747131,0.00492647621366,-0.00384194449122,-0.00096002833022,-0.00903569757184,-0.603512675235,0.573946841352,0.81885689775,0.00625709283829,0.0,0.818856824364,-0.573854805512,-0.0120378687664,0.0,-0.00626674973414,0.0120329915988,-0.999907963245,0.0,0.293802187452,-0.222273966604,0.304926261386,1.0,-0.137113714286,-0.180206595918,3.285
-0.519999140118,-0.530049413547,-0.133856487253,-2.64839053001,-0.0716909891648,2.10891703443,-0.7721290836,-0.605491709374,0.00314576731679,0.0132482739668,0.00119394265887,0.000507748267718,-0.0014709888626,-0.602154680779,0.573992979592,0.818824474461,0.00626787872251,0.0,0.818824584742,-0.573900969786,-0.0120300956633,0.0,-0.00625351548146,0.0120377154101,-0.999907989243,0.0,0.291725770683,-0.224978319455,0.304924688966,1.0,-0.134336571429,-0.176556636735,3.3
-0.530786510471,-0.529915337404,-0.133659405426,-2.64829765792,-0.0716926574063,2.10891392322,-0.78286983939,-0.604225983612,0.00789120954896,0.00963598904992,0.0065084223947,-0.000684709723419,-0.00139728169679,-0.601726672321,0.573896897221,0.818891711543,0.00628196048951,0.0,0.818892179418,-0.57380518332,-0.0119982075529,0.0,-0.00622073099648,0.012030214022,-0.999908284022,0.0,0.289339026721,-0.228084659013,0.304922717563,1.0,-0.131004,-0.172176685714,3.318
-0.540985401103,-0.52972999842,-0.133509147098,-2.64813669424,-0.0716948357227,2.10890497492,-0.792805706107,-0.600559313311,0.0112845957167,0.00782718421979,0.0138926852229,0.00181200078747,-0.000217077728477,-0.584234522488,0.574014486634,0.81880912767,0.00630305325505,0.0,0.818810079156,-0.573923062578,-0.0119632526925,0.0,-0.00617827182442,0.0120283154698,-0.999908570112,0.0,0.28706111558,-0.231022280234,0.30493129068,1.0,-0.127856571429,-0.168040065306,3.335
-0.549538886192,-0.529405345161,-0.133276972317,-2.64788028751,-0.0716886006882,2.10892723247,-0.801357657211,-0.563263434552,0.0209760858811,0.0157306818155,0.016948724892,0.00122390654762,-0.00114021895452,-0.572028717386,0.573858053345,0.818919093833,0.00626093193266,0.0,0.818919552499,-0.573766949005,-0.0119583303481,0.0,-0.00620070862234,0.0119898145924,-0.999908893629,0.0,0.285053457751,-0.233632454247,0.304933128732,1.0,-0.124894285714,-0.16414677551,3.351
-0.559687460688,-0.528928389519,-0.133077695789,-2.64754826581,-0.0716872349961,2.1089487295,-0.811393799692,-0.561594090815,0.0251441424528,0.00960927904032,0.0200703065508,-0.00121532181612,9.15971409745e-05,-0.546052264062,0.573840514745,0.818931593686,0.00623341009054,0.0,0.818931438907,-0.573749039827,-0.012003523157,0.0,-0.00625377169902,0.0119930743058,-0.99990852407,0.0,0.282910304999,-0.236382691667,0.304920759773,1.0,-0.121746857143,-0.160010155102,3.368
-0.569185611895,-0.528371515455,-0.132930278541,-2.64710283659,-0.0716616216713,2.10904681092,-0.820638073155,-0.552756226526,0.0358817609145,0.011353635631,0.0302232487689,-0.000260635409714,0.0034658405875,-0.532020121004,0.5739804646,0.818833518425,0.0062323561152,0.0,0.818833658715,-0.573889557605,-0.0119566688062,0.0,-0.00621395673135,0.0119663876667,-0.999909092022,0.0,0.28079670749,-0.239133363734,0.304931923901,1.0,-0.118599428571,-0.155873534694,3.385
-0.577581266442,-0.527671166131,-0.132694626276,-2.64661853207,-0.0715947949575,2.10916982052,-0.829179377372,-0.518769034873,0.0406706609254,0.00909160717889,0.0258451917033,0.00414808839097,0.00676220583925,-0.524740578601,0.573751078056,0.818994476967,0.00620435555985,0.0,0.818994035318,-0.573659921125,-0.0119921603415,0.0,-0.00626244353696,0.0119620754277,-0.999908841121,0.0,0.278954346361,-0.241543566661,0.304912593628,1.0,-0.115637142857,-0.151980244898,3.401
-0.587052381691,-0.526863809502,-0.132488246502,-2.6460102434,-0.0715577157158,2.10929701945,-0.838473637238,-0.52202423357,0.0416278610041,0.00950401673143,0.0361454683846,0.00386988931989,0.00655243915335,-0.509272225595,0.573800377792,0.81896025636,0.00616213031368,0.0,0.818959231499,-0.573709325907,-0.01200555748,0.0,-0.00629692403842,0.0119355567202,-0.999908941471,0.0,0.2768486544,-0.244276438652,0.304909911502,1.0,-0.112304571429,-0.147600293878,3.419
-0.595249379647,-0.526025136214,-0.132325001288,-2.64537158271,-0.0714897538528,2.10943526057,-0.846543211537,-0.501572098639,0.0549238167776,0.0137755755669,0.0418492838669,0.00961783174801,0.00717523774072,-0.500721651029,0.573854294373,0.818922568671,0.00614997990799,0.0,0.818921331286,-0.573763179878,-0.0120172160616,0.0,-0.00631265895551,0.0119327105187,-0.999908876227,0.0,0.275032940031,-0.246655687684,0.30490924527,1.0,-0.109342285714,-0.143707004082,3.435
-0.602935687383,-0.525088400512,-0.132060190167,-2.64471752188,-0.0713359841214,2.10957884451,-0.854366261152,-0.481659224083,0.0568412399872,0.0205051696153,0.0447109672764,0.017124754365,0.00994915918496,-0.485833553745,0.573657699414,0.819060259312,0.00615486961749,0.0,0.819058510067,-0.573565521255,-0.0121035868722,0.0,-0.00638346890326,0.0119847448818,-0.999907804357,0.0,0.273354711802,-0.248853039548,0.304882503038,1.0,-0.10638,-0.139813714286,3.451
-0.611610500157,-0.524096402253,-0.131830878823,-2.64394832683,-0.071191740824,2.10973840764,-0.862891674149,-0.473827342571,0.0507435996689,0.0174927666024,0.0456883080944,0.0154791476809,0.00563569151029,-0.468372227549,0.573722243941,0.819014968126,0.00616568691412,0.0,0.819013301705,-0.573629894826,-0.0121120722017,0.0,-0.00638326898988,0.0119989758566,-0.999907634962,0.0,0.271431116796,-0.251346400491,0.304888008696,1.0,-0.103047428571,-0.135433763265,3.469
-0.620055875266,-0.522998937268,-0.13165482995,-2.64305724336,-0.071024868259,2.10993431944,-0.871200995664,-0.469110412667,0.0598500738353,0.0118738032824,0.0548517524356,0.00586454859502,0.00994873965094,-0.468433328368,0.573829455098,0.818939570528,0.00620348174174,0.0,0.818938641748,-0.573737379277,-0.0120692822184,0.0,-0.00632496521477,0.0120062117073,-0.999907918608,0.0,0.269565978368,-0.253806547355,0.304911680728,1.0,-0.0997148571429,-0.131053812245,3.487
-0.627096557907,-0.52193676604,-0.13140523471,-2.64225449836,-0.0708473278701,2.11012327121,-0.878318188316,-0.428527236936,0.0639524603395,0.0167546255696,0.0504125456142,0.00692231444346,0.00999444227791,-0.439751425365,0.573710324968,0.819022976569,0.00621077927653,0.0,0.819021972346,-0.573617919038,-0.0120929183276,0.0,-0.00634188578082,0.0120248283116,-0.999907587724,0.0,0.268034273645,-0.255836636277,0.3049090396,1.0,-0.0967525714286,-0.127160522449,3.503
-0.634527893962,-0.520857028449,-0.131194545453,-2.6414140517,-0.0706825009558,2.11032950651,-0.885673746885,-0.439419860737,0.0625015303877,0.011828100938,0.0511310148535,0.00941509493269,0.00713941800921,-0.4244136299,0.573739730963,0.819002276522,0.00622407159892,0.0,0.819001522056,-0.57364740525,-0.0120792475599,0.0,-0.00632263045766,0.0120280999363,-0.999907670316,0.0,0.266388366689,-0.257983248952,0.30491721084,1.0,-0.0936051428572,-0.123023902041,3.52
-0.641301355155,-0.519789852289,-0.131002453509,-2.64055524458,-0.0705051154083,2.11054606366,-0.892364973672,-0.423474487909,0.0684536491735,0.00757420160039,0.0540586235921,0.0140013191072,0.0187098309365,-0.424248420885,0.573789674863,0.818967119655,0.00624602630773,0.0,0.818967007686,-0.573697923546,-0.0120199726336,0.0,-0.0062607505818,0.0120124569415,-0.999908247731,0.0,0.264808409722,-0.260075536109,0.304940421034,1.0,-0.0904577142858,-0.118887281633,3.537
-0.648255309065,-0.518597413026,-0.130814093779,-2.63965170631,-0.0703136648346,2.11078732531,-0.899216064304,-0.403883369251,0.0695320623238,0.0113146163096,0.0540149879843,0.00897109113955,0.0187951604322,-0.403163359039,0.57387545392,0.818906772549,0.00627759210541,0.0,0.818906982818,-0.573783376103,-0.0120306982673,0.0,-0.00625016263251,0.0120451183454,-0.999907921056,0.0,0.263361467398,-0.261976831644,0.304935466031,1.0,-0.0874954285715,-0.114993991837,3.553
-0.654779772357,-0.517419739765,-0.13053500104,-2.63877010284,-0.0701155864627,2.11102054223,-0.905890676996,-0.386674093396,0.0624546758733,0.0134278033689,0.0474050263744,0.0126852010827,0.0156770539784,-0.37694766626,0.57368721074,0.819038695774,0.00627263574358,0.0,0.819038698374,-0.573594920012,-0.0120509419712,0.0,-0.00627235655961,0.0120512347247,-0.999907708384,0.0,0.261936076493,-0.263851016872,0.304929115108,1.0,-0.0843480000001,-0.110857371429,3.57
-0.661278834161,-0.516254303758,-0.130308648751,-2.63787809502,-0.0699232053308,2.11125354505,-0.912266605974,-0.378721742267,0.0707816187509,0.0187640180088,0.0495580188331,0.0159675803592,0.0142454682465,-0.370721658933,0.573757947829,0.818989057328,0.006283962191,0.0,0.818989206257,-0.573665589559,-0.012050655248,0.0,-0.00626458251932,0.0120608886415,-0.99990764072,0.0,0.26049476138,-0.265725800132,0.304930240115,1.0,-0.0812005714286,-0.10672075102,3.587
