nelsonifechukwu/NELSON_IML_WORK/CNN-GradCAM/train2dof/data_sample_2022-02-21-14-28-18/robot_state.csv
position_joint1,position_joint2,position_joint3,position_joint4,position_joint5,position_joint6,position_joint7,velocity_joint1,velocity_joint2,velocity_joint3,velocity_joint4,velocity_joint5,velocity_joint6,velocity_joint7,ee_T_00,ee_T_10,ee_T_20,ee_T_30,ee_T_01,ee_T_11,ee_T_21,ee_T_31,ee_T_02,ee_T_12,ee_T_22,ee_T_32,ee_T_03,ee_T_13,ee_T_23,ee_T_33,v_x,v_y,time
0.465084022365,0.547820417546,-0.123973278156,-1.35577948647,0.0794769391947,1.89408911356,0.159166987884,0.00227443626229,-7.5734390935e-05,0.00142213884705,-0.00056750458695,0.00144892428751,0.000119130495296,0.0011595464132,0.573783979093,0.818992641234,0.00193541784383,0.0,0.818949475092,-0.573725636327,-0.0118911046381,0.0,-0.00862849448595,0.00840809664424,-0.999927423863,0.0,0.661681125245,0.260907459384,0.30321051679,1.0,0.0,0.0,0.0
0.465075839584,0.547820278008,-0.12397577841,-1.35577698082,0.0794769391947,1.89409162013,0.159161387954,0.00140345447183,0.000938657626245,0.000387191116538,0.000117663007191,-5.86731467338e-05,-0.00011611514988,-0.00117408077238,0.573787722144,0.818990010181,0.00193908277386,0.0,0.818946910534,-0.573729382087,-0.0118869995744,0.0,-0.00862299116013,0.00840878215099,-0.999927465572,0.0,0.661684913175,0.260901068639,0.303212108688,1.0,-0.00028,-0.000368,0.015
0.465070259673,0.547820025134,-0.123981648872,-1.35579013809,0.0794789736819,1.89409000544,0.159167277894,-0.000768586509652,0.0022621208056,-0.000101459940797,-0.00107037707005,6.83768652273e-05,0.00176896938657,-0.000837525086235,0.573802462248,0.818979712075,0.00192676642011,0.0,0.818936448412,-0.573744167756,-0.0118941300208,0.0,-0.00863574644852,0.00840294212391,-0.999927404588,0.0,0.661684269196,0.260892637591,0.303206083589,1.0,-0.0006,-0.000788571428571,0.031
0.465074751716,0.547789311636,-0.123973720346,-1.35580520387,0.0794769391947,1.89409312697,0.159165192035,0.00104194121071,-0.0056805898404,0.00136252770617,-0.00226092894947,-6.43568629137e-05,-0.000654409038471,0.000105269975709,0.573791787086,0.818987148727,0.00194478648656,0.0,0.818944086269,-0.573733386829,-0.0118882843128,0.0,-0.00862072911075,0.00841423329352,-0.999927439221,0.0,0.661679374916,0.260898699893,0.303220675812,1.0,-0.00094,-0.00123542857143,0.048
0.46507970518,0.547662720419,-0.123976386772,-1.35594917869,0.0794730125858,1.89412817759,0.159161390966,-0.00142958353866,-0.00989578513057,-4.7805244224e-05,-0.00708472647155,0.000157454190596,0.000378005917204,-0.000552808221048,0.573793319387,0.818986031031,0.00196328922495,0.0,0.818943156248,-0.573734790713,-0.0118845976833,0.0,-0.00860707786739,0.00842728728019,-0.999927446888,0.0,0.661656249664,0.260886754891,0.303244953836,1.0,-0.00134,-0.00176114285714,0.068
0.4650659043,0.547562925229,-0.123976474468,-1.35609979963,0.079473110921,1.89415572634,0.159160974479,-0.00182380408367,-0.00976296074165,0.000304784799436,-0.0120561355598,5.24599326866e-05,0.000980588753471,-0.000439433930526,0.573812869856,0.818972372607,0.00194684249381,0.0,0.818929144653,-0.573754270863,-0.0119096434012,0.0,-0.00863682600334,0.00842839498997,-0.999927181046,0.0,0.661629474964,0.260865128604,0.303245966876,1.0,-0.00162,-0.00212914285714,0.082
0.465055250752,0.547395483354,-0.123977421833,-1.35631454634,0.0794659682962,1.89425126332,0.159154043708,0.000512190319081,-0.00738278801141,0.000266703165724,-0.0123372194651,6.77402253007e-05,0.0114343083192,-0.00319256641,0.573824038924,0.818964432445,0.00199440308965,0.0,0.818921810666,-0.573765229507,-0.01188597178,0.0,-0.00859003437122,0.0084538792861,-0.99992736898,0.0,0.661610197942,0.260835271086,0.303269682527,1.0,-0.00196,-0.002576,0.099
0.46502783656,0.547206300796,-0.123973969778,-1.35654110245,0.0794637692572,1.89438731732,0.159133327723,-0.000422968812413,-0.0110088981315,0.000788729877321,-0.0144987861925,-3.09720649953e-05,0.00633933716255,-0.00165018501964,0.57384196877,0.818951647513,0.00208346231322,0.0,0.818910142284,-0.573782754499,-0.0118438340557,0.0,-0.00850423640075,0.00850282117735,-0.999927687383,0.0,0.66159777302,0.260805692192,0.303308939008,1.0,-0.0023,-0.00302285714286,0.116
0.46500913958,0.546987629189,-0.123973622528,-1.3568153478,0.0794567432711,1.89451720611,0.159126103479,0.00118476782753,-0.0184075631001,0.00147951326762,-0.0169154040962,5.55018121913e-05,0.00760066879784,-8.06220677817e-05,0.573864726626,0.818935524169,0.00215167123617,0.0,0.818894860416,-0.573805193401,-0.0118133192448,0.0,-0.00843986915172,0.00854140418404,-0.999927903913,0.0,0.661571750266,0.260771536353,0.303344547721,1.0,-0.00264,-0.00346971428571,0.133
0.464969061246,0.546770681402,-0.12397729398,-1.35716138078,0.0794478323827,1.89464041818,0.159101246031,8.94637576035e-05,-0.0162259844927,-0.000185730402493,-0.0182617015301,-0.00156133809429,0.00961130564004,-0.00058562774678,0.573896739172,0.818913089673,0.00215202950787,0.0,0.818872335237,-0.573837104111,-0.0118246957413,0.0,-0.00844864640583,0.00854855634245,-0.999927768671,0.0,0.661534461029,0.260711592205,0.303344304777,1.0,-0.00296,-0.00389028571429,0.149
0.464927176191,0.54646240741,-0.12397431516,-1.35760721717,0.0794335826689,1.89480076173,0.158962308568,-0.00420869229445,-0.0178306553626,0.00384607245561,-0.0262926904727,-0.001517268876,0.0121588674258,-0.00492057857886,0.573836272318,0.818955385771,0.0021807315777,0.0,0.818914862106,-0.573776387307,-0.0118259414983,0.0,-0.00843382857282,0.00857215272578,-0.999927691752,0.0,0.661483307672,0.260645317284,0.303364216443,1.0,-0.00332,-0.00436342857143,0.167
0.464891975606,0.546212108161,-0.123977156333,-1.35802968359,0.0794115155489,1.89494399511,0.158916521176,-0.00519119731731,-0.0182392872368,-0.00438077311359,-0.0256032346128,-5.15914589686e-05,0.0101600302957,-0.00119557809342,0.57384731236,0.818947712994,0.00215693773675,0.0,0.818906841386,-0.573787480852,-0.0118430929138,0.0,-0.00846141289459,0.00856262296469,-0.999927540365,0.0,0.661432568615,0.260579672775,0.303352871359,1.0,-0.00362,-0.00475771428571,0.182
0.464839556643,0.545894758504,-0.123977480677,-1.35857396265,0.0793534861294,1.8951309341,0.158892414753,-0.004340897582,-0.0199193565352,-0.00146810242231,-0.0332507292874,-0.00254563912475,0.00785166443857,0.00124570776106,0.573885700972,0.818920940193,0.00210780302846,0.0,0.818879634824,-0.573826267101,-0.0118450731255,0.0,-0.00849082915174,0.00852391917976,-0.999927621692,0.0,0.661370231353,0.260487660755,0.303334654366,1.0,-0.00396,-0.00520457142857,0.199
0.464774165923,0.545518536895,-0.123981871774,-1.35922096149,0.0792785123492,1.89535088148,0.158794734102,-0.00145872379116,-0.0228367559698,-0.000736903172754,-0.0379911657208,-0.0010512417515,0.0163841304695,-0.00801103779486,0.573874971823,0.818928610175,0.00204818304603,0.0,0.818886844099,-0.573816092287,-0.011839581689,0.0,-0.00852065583487,0.00847183286789,-0.99992781063,0.0,0.661302541616,0.260379885334,0.303313418591,1.0,-0.0043,-0.00565142857143,0.216
0.464718290958,0.545171364108,-0.123980352146,-1.35984010334,0.0792708469957,1.89554598274,0.158701740508,-0.00190962315713,-0.0258761503674,-5.77369704997e-05,-0.0486900961261,0.00020152276124,0.0134477225137,-0.00935556047643,0.573879411213,0.818925632011,0.00199437248243,0.0,0.818882829801,-0.573820417978,-0.0119073871865,0.0,-0.00860701863764,0.00846672474047,-0.999927114245,0.0,0.661218034539,0.260279785157,0.303280132126,1.0,-0.00462,-0.006072,0.232
0.464640705896,0.544716544666,-0.12398037985,-1.36059147913,0.0792460829806,1.89580705246,0.158630272065,-0.00461393846222,-0.0268665248752,0.000328488609082,-0.041658277025,-0.00186061528453,0.0162585259578,9.6848237169e-05,0.573919705244,0.818897441036,0.00197481588393,0.0,0.818854167847,-0.573860575995,-0.0119431159641,0.0,-0.00864708460353,0.0084716389164,-0.999926726946,0.0,0.661130922059,0.260158962093,0.30326706306,1.0,-0.00498,-0.00654514285714,0.25
0.464577071286,0.544246712093,-0.123989949337,-1.36136199319,0.0792052895006,1.89608093703,0.158525693075,-0.000242880588528,-0.0294377045972,-0.00221691568653,-0.0467502400581,-0.00352766611515,0.0186720526063,-0.00969810661934,0.57392494028,0.818893826036,0.00195230777354,0.0,0.818850231227,-0.573865877172,-0.0119582916129,0.0,-0.00867237532886,0.00846197239076,-0.99992658977,0.0,0.661041714855,0.260038042027,0.303256861757,1.0,-0.00532,-0.006992,0.267
0.464503710644,0.543765495519,-0.123987149043,-1.36214098229,0.0791669296632,1.89635734778,0.158437787533,-0.00722252874947,-0.0300781167524,0.000236782398295,-0.0485367205857,-0.00115461799284,0.0215897620521,-0.00170367675591,0.573944199712,0.81888035907,0.00193908429314,0.0,0.818836474583,-0.573885075834,-0.0119789201441,0.0,-0.00869665832987,0.00846318762462,-0.999926368584,0.0,0.660950812479,0.25991757376,0.303250448039,1.0,-0.00564,-0.00741257142857,0.283
0.464419085058,0.543230399645,-0.124000913578,-1.36299351919,0.0791150362662,1.89665204105,0.158329430788,-0.00746977975585,-0.029979164802,-0.00158230231539,-0.0486049790512,-0.00270747019541,0.0134257474126,-0.0132688165972,0.573967906245,0.818863796625,0.00191626709019,0.0,0.818819652286,-0.573908913107,-0.0119868005519,0.0,-0.00871596205564,0.00844927864263,-0.999926318133,0.0,0.660855407635,0.259771098829,0.303249200942,1.0,-0.00598,-0.00785942857143,0.3
0.464348185908,0.542660027133,-0.124001054132,-1.36389907367,0.0790675005539,1.89697512162,0.158198314671,5.09232897111e-05,-0.0387485271923,6.14918490128e-05,-0.0506160943125,-0.00415459748331,0.0220798410081,-0.0063856670197,0.573956315267,0.818871935898,0.00190988602558,0.0,0.818827615304,-0.573897260727,-0.0120007269099,0.0,-0.00873114822018,0.00845192314328,-0.999926163297,0.0,0.660747313888,0.259638398857,0.30324963165,1.0,-0.00632,-0.00830628571429,0.317
0.46427739776,0.542099457819,-0.124007454237,-1.36476880599,0.0790154044497,1.89730432491,0.158081996432,-0.0101491592639,-0.0335076820606,-0.000510747242978,-0.0544774649624,-0.00518924613907,0.0194514464771,-0.00885206878567,0.573957987214,0.818870728406,0.00192509092201,0.0,0.818826637043,-0.573898897438,-0.011989198838,0.0,-0.00871296417939,0.00845777499738,-0.999926272431,0.0,0.660649970096,0.259505954424,0.303260833358,1.0,-0.00664,-0.00872685714286,0.333
0.464186204567,0.541420959968,-0.124004850129,-1.36579367875,0.0789408463082,1.89768496784,0.157954478627,-0.00745106823574,-0.0387842198005,0.000321468321157,-0.055459842456,-0.00681930434141,0.0206019865819,-0.00594296006055,0.573963355533,0.818866911459,0.00194800508719,0.0,0.818823216889,-0.573904263221,-0.0119659116314,0.0,-0.00868068780621,0.00846322952737,-0.999926507002,0.0,0.660534541447,0.259348251222,0.303285628468,1.0,-0.007,-0.0092,0.351
0.464104090282,0.540730817271,-0.124005915574,-1.3668602572,0.0788884117255,1.89807699475,0.157827227584,-0.00714120629815,-0.0398926922096,0.00102924922469,-0.0614826187257,-0.00319467788718,0.0224944808589,-0.0126612318866,0.573972237716,0.818860639306,0.00196739090038,0.0,0.818817080194,-0.573912947996,-0.0119693026398,0.0,-0.00867224666781,0.00848114398103,-0.999926428461,0.0,0.660409122145,0.259193975508,0.303299856052,1.0,-0.00734,-0.00964685714286,0.368
0.46402429126,0.540038878981,-0.124009110784,-1.3679052238,0.0788303183488,1.89845996534,0.157680265686,-0.00367611738491,-0.0428362131028,0.000416071778471,-0.06408722481,-0.000881069738786,0.0294463416649,-0.00695975835071,0.573961753982,0.818867919883,0.00199540801227,0.0,0.818824681627,-0.573902304284,-0.0119596319576,0.0,-0.00864835619508,0.00849842428671,-0.999926488658,0.0,0.660286948518,0.259041063582,0.30332480041,1.0,-0.00766,-0.0100674285714,0.384
0.463923337665,0.539301131595,-0.124014158258,-1.36904860613,0.0787641159582,1.89890063965,0.157543662705,-0.00446042820049,-0.0459491730486,-0.000553002200827,-0.0640447543615,-0.000607369276151,0.0249174716782,-0.0171522968275,0.573981747827,0.818853834174,0.00202443091565,0.0,0.818810988645,-0.573922188801,-0.0119429048878,0.0,-0.00861779355563,0.00851279959892,-0.999926630247,0.0,0.660160891123,0.258864637233,0.303340224672,1.0,-0.008,-0.0105142857143,0.401
0.46381931447,0.538542716156,-0.124017214962,-1.37024002244,0.0786806101606,1.89936210897,0.157401451352,-0.00598133726684,-0.0419828562539,-0.000997479082059,-0.0678506768217,-0.0071665795534,0.0286293116532,-0.00854953228313,0.573996213874,0.81884365534,0.00203996766112,0.0,0.818801149272,-0.573936724393,-0.0119189448201,0.0,-0.0085891053539,0.00851192094637,-0.999926884563,0.0,0.660029474059,0.258680534998,0.303348976717,1.0,-0.00834,-0.0109611428571,0.418
0.463713889,0.537807817209,-0.12401280065,-1.37138883747,0.0786293984399,1.8998120518,0.157256058009,-0.00563530266476,-0.0461009598276,0.00182735673504,-0.0716844276242,-0.00613256662861,0.0342466625412,-0.0167752254819,0.574010231903,0.818833727451,0.00208023095546,0.0,0.8187915824,-0.573950412904,-0.0119170054378,0.0,-0.00856426145547,0.00854392314774,-0.999926824724,0.0,0.659901620259,0.258509035661,0.303360082126,1.0,-0.00866,-0.0113817142857,0.434
0.463608958623,0.536988301095,-0.12402653357,-1.37268998812,0.0785518986626,1.90028271293,0.157099466155,-0.00521477619944,-0.0487320407423,0.000273457015008,-0.0789580412755,-0.0025717931297,0.032767761928,-0.00134730387709,0.574028435353,0.818820998276,0.00206762907934,0.0,0.818778717196,-0.573968693768,-0.0119204757466,0.0,-0.00857414656776,0.00853578706705,-0.999926809496,0.0,0.659750042164,0.258307536405,0.303360653861,1.0,-0.009,-0.0118285714286,0.451
0.463484571674,0.53607090238,-0.124032235091,-1.37409641972,0.0784663603763,1.9008113471,0.15692200183,-0.00210461706715,-0.0549910400134,0.000303691101861,-0.0838902166248,-0.00697999055535,0.022910033352,-0.0102226663113,0.574043419513,0.818810413099,0.00209924170956,0.0,0.818768575612,-0.573983578806,-0.0119003257475,0.0,-0.00853934478092,0.00855026144883,-0.999926983644,0.0,0.659591513296,0.258089299802,0.303384799649,1.0,-0.00936,-0.0123017142857,0.469
0.463375245616,0.535294369683,-0.124030795303,-1.37534133592,0.0783847281915,1.90126395498,0.156767910157,-0.00512588643778,-0.0516370060793,0.000623158083209,-0.0887547531417,-0.0139869412533,0.0292017994752,-0.00795413313912,0.57405217639,0.818804318143,0.00208189171846,0.0,0.818762277466,-0.573992427965,-0.011906827404,0.0,-0.00855453631285,0.00853987900912,-0.999926942519,0.0,0.659445542756,0.257897961233,0.303379418773,1.0,-0.00966,-0.012696,0.484
0.463241888712,0.534343808817,-0.124033981144,-1.37687787777,0.078312900976,1.90181817815,0.156582440828,-0.00663308453091,-0.0543916809615,0.00090423159533,-0.091085801271,-0.0112272346181,0.0247553001996,-0.0193339925253,0.574076707521,0.818787162625,0.00206472835172,0.0,0.818744682485,-0.574016811402,-0.0119411905382,0.0,-0.00859227016213,0.00854580924013,-0.999926568323,0.0,0.659263039753,0.257664244424,0.303366873059,1.0,-0.01002,-0.0131691428571,0.502
0.463107890767,0.533418502666,-0.124043499065,-1.37836198989,0.0782124339645,1.90237211584,0.156405959533,-0.0045119645117,-0.0596475104185,-0.00281876384951,-0.0896584336863,-0.00350974180752,0.0265357922446,-0.00668641697502,0.574102906254,0.818768828287,0.00205079422729,0.0,0.818726297979,-0.574043194973,-0.0119334070607,0.0,-0.0085936227,0.00853020707363,-0.999926689921,0.0,0.659094808117,0.257427704585,0.303361395872,1.0,-0.01036,-0.013616,0.519
0.462982600117,0.532526178637,-0.124040376658,-1.37979665419,0.0781434657068,1.90291923376,0.156214395357,-0.0086105373956,-0.0564894771239,-0.00010805889044,-0.0893239912558,-0.00382444411864,0.0334219289536,-0.0126671851114,0.574106489442,0.818766283526,0.00206364793792,0.0,0.818723745267,-0.574046550281,-0.0119471313209,0.0,-0.00859744385809,0.00854864777814,-0.999926499589,0.0,0.658928619514,0.25721431542,0.303355065082,1.0,-0.01068,-0.0140365714286,0.535
0.462847222783,0.531548461833,-0.124043537503,-1.38136881628,0.0780536131052,1.90348567501,0.156011445107,-0.0105160957866,-0.0575807797726,-0.000921121170727,-0.0953351917575,-0.00695773457365,0.0268154775074,-0.00869359332156,0.574114923462,0.818760425621,0.00204132206505,0.0,0.818717517999,-0.574054998339,-0.0119679365549,0.0,-0.00862720779333,0.00854240158146,-0.999926296614,0.0,0.658741267876,0.256973406586,0.303345146946,1.0,-0.01102,-0.0144834285714,0.552
0.462710988488,0.530528132086,-0.124043563859,-1.38302075829,0.0779440276209,1.90406427454,0.155803781399,-0.00491828804778,-0.0599503136959,-0.000350119923662,-0.0961426397216,-0.00743153579051,0.0338523214039,-0.0177928276745,0.57411668393,0.818759315857,0.00199068637612,0.0,0.818715760816,-0.574056984206,-0.0119928635829,0.0,-0.00867666841748,0.00851527332742,-0.999926100042,0.0,0.6585389821,0.256722526419,0.303327993033,1.0,-0.01136,-0.0149302857143,0.569
0.462578849878,0.529549139868,-0.124046415629,-1.38456334842,0.0778369673534,1.90463158559,0.155598748053,-0.00742887488211,-0.0625360417873,-0.00031696364343,-0.0951850477393,-0.016959237517,0.0348926144768,-0.00885313008146,0.574113917725,0.818761268973,0.00198514608876,0.0,0.818717752629,-0.574054350625,-0.0119829444952,0.0,-0.00867175605023,0.00850501330231,-0.999926229977,0.0,0.658357917673,0.256484803255,0.303332633907,1.0,-0.01168,-0.0153508571429,0.585
0.462431894034,0.528387929917,-0.12404684847,-1.3863659676,0.0777311050896,1.90531974137,0.155351679546,-0.00945726452829,-0.0627165549176,0.000520483727566,-0.101639277299,-0.00983996448904,0.0397564636291,-0.0106918260031,0.574101592782,0.818769811948,0.00202561333315,0.0,0.818726800035,-0.574041834348,-0.0119643730968,0.0,-0.00863344693769,0.00852735375184,-0.999926371205,0.0,0.65814766984,0.256218655306,0.303352008295,1.0,-0.01204,-0.015824,0.603
0.462286564662,0.527267082522,-0.124052098905,-1.38811363086,0.077625806808,1.90599275533,0.155101095843,-0.00874170228812,-0.0656667626305,-0.00313581880159,-0.101102937787,-0.00150304390464,0.0404455923722,-0.00972173853253,0.574085448398,0.818781039096,0.00206273007535,0.0,0.818738542679,-0.574025569153,-0.011941172122,0.0,-0.00859331096044,0.00854425427126,-0.999926572667,0.0,0.657946307072,0.255955861192,0.303367673162,1.0,-0.01238,-0.0162708571429,0.62
0.46214891091,0.526174234342,-0.124053070428,-1.389815197,0.0775265598266,1.90663223617,0.154879816165,-0.0112579355292,-0.0686500164806,0.000374501458101,-0.112018212637,-0.00495741953431,0.0391426167753,-0.0184870567861,0.574082813309,0.818782817377,0.00209005550706,0.0,0.818740636705,-0.574022781657,-0.0119315903456,0.0,-0.0085698066783,0.00856109915713,-0.999926630306,0.0,0.657744527714,0.255704449971,0.303382254001,1.0,-0.0127,-0.0166914285714,0.636
0.461999732495,0.524991231644,-0.12405611809,-1.39166416441,0.077395477547,1.90728843641,0.15463557823,-0.0061020003539,-0.0706834226706,3.60831746675e-05,-0.109382256664,-0.00825174109316,0.0292088555065,-0.00892464961042,0.574071045303,0.818791115936,0.00207130642276,0.0,0.818748808186,-0.574011209054,-0.01192760976,0.0,-0.00857743294396,0.00854333955368,-0.999926716811,0.0,0.657518473216,0.255424010074,0.303391282776,1.0,-0.01304,-0.0171382857143,0.653
0.461858419272,0.523949295154,-0.124064840866,-1.39334223992,0.0772849450406,1.90788821962,0.154400273438,-0.0125026537446,-0.0672000444572,-0.000367856177251,-0.110657381776,-0.0114371182368,0.0421752791774,-0.00870871717849,0.574060449466,0.818798640128,0.00203326952442,0.0,0.818755896056,-0.574000830417,-0.0119405298927,0.0,-0.00860995701138,0.00851950139524,-0.999926640677,0.0,0.657315207877,0.255163381583,0.303377502739,1.0,-0.01334,-0.0175325714286,0.668
0.461697485922,0.522656305238,-0.124065837548,-1.39538636164,0.07716074905,1.90866713961,0.154120129879,-0.0123201999302,-0.0708793210956,0.000160225577333,-0.11536427057,-0.00417204551227,0.0409870839068,-0.0193359007804,0.574039753584,0.818813095717,0.00205486942,0.0,0.81877063543,-0.573980050153,-0.0119287671021,0.0,-0.00858814201456,0.00853021750171,-0.999926736919,0.0,0.65707160963,0.254864146026,0.303380976759,1.0,-0.0137,-0.0180057142857,0.686
0.461521596532,0.521356124853,-0.124074307617,-1.39749125717,0.0770406808007,1.90949114464,0.153845862248,-0.00813317253625,-0.0685155327038,-0.00133971659046,-0.118947218269,-0.0127478381696,0.051463268416,-0.0216852239435,0.574045741327,0.81880886035,0.00206977731773,0.0,0.818766590285,-0.573985971879,-0.0119214772367,0.0,-0.00857355311207,0.00853830214394,-0.999926793112,0.0,0.656827428733,0.254547348086,0.303364398665,1.0,-0.01406,-0.0184788571429,0.704
0.46134993621,0.520054332599,-0.124071641663,-1.39952448447,0.0769123700202,1.91022151868,0.153556909332,-0.0108234009035,-0.0749303881544,-0.000354320803455,-0.121848178763,-0.00379258670132,0.0458377212176,-0.014813637366,0.574021346399,0.818825967797,0.00206766558745,0.0,0.818783633452,-0.573961552051,-0.0119266616977,0.0,-0.00857926493493,0.00853929355608,-0.999926735656,0.0,0.656577591632,0.254240787567,0.303374127817,1.0,-0.0144,-0.0189257142857,0.721
0.461220714838,0.519036449971,-0.124072332258,-1.4011080813,0.0768091466723,1.91078104308,0.15335429411,-0.0111757956876,-0.0755585044187,-0.00547628629757,-0.120070826046,-0.0127010209053,0.0401824986854,-0.00901013345434,0.574017818695,0.818828461964,0.00205927167365,0.0,0.818786020724,-0.573958061789,-0.0119307366205,0.0,-0.00858745647373,0.00853472258945,-0.999926704365,0.0,0.656380414685,0.254002285782,0.303383495056,1.0,-0.01466,-0.0192674285714,0.734
0.46102012482,0.517523025216,-0.12407576884,-1.40347672117,0.0766504279686,1.91163138256,0.153023347607,-0.012081191828,-0.0780765200512,0.000458822246624,-0.124445876018,-0.00551515027978,0.0459611780852,-0.0183105283813,0.573995957251,0.818843817587,0.00204703713423,0.0,0.818801285533,-0.573936321601,-0.0119289755502,0.0,-0.00859326436335,0.00852346448008,-0.999926750498,0.0,0.65608976127,0.253639501121,0.303391960715,1.0,-0.01504,-0.0197668571429,0.753
0.460819941575,0.516075183496,-0.124084429925,-1.40575467805,0.0765075831204,1.91248517972,0.152708919633,-0.0132248367079,-0.0824944124615,-0.000665144252684,-0.129228401435,-0.00313742238122,0.0514330343021,-0.0219198992722,0.573990450266,0.81884764088,0.00206177848643,0.0,0.818805354455,-0.573930807911,-0.0119149547378,0.0,-0.00857337944992,0.00852742967869,-0.999926887381,0.0,0.655818840465,0.253286653225,0.303397581045,1.0,-0.0154,-0.02024,0.771
0.460648386233,0.514785613098,-0.124090078475,-1.40782751957,0.0763746238132,1.91326501869,0.152429984452,-0.00691245791489,-0.0827658769394,-0.000688686960603,-0.132723385914,-0.00290329425161,0.050190624339,-0.0177145869139,0.573979961353,0.818855018058,0.00205189374017,0.0,0.818812666199,-0.573920423761,-0.0119126723973,0.0,-0.00857729298559,0.00851791582263,-0.999926934908,0.0,0.655568343409,0.252973241816,0.303382937142,1.0,-0.01572,-0.0206605714286,0.787
0.460442055653,0.513302752205,-0.124091426797,-1.41023187045,0.0762370647428,1.91409413248,0.152095751703,-0.0148888264488,-0.0806448167775,-0.00056287007669,-0.131684102377,-0.00432414117609,0.0436140169717,-0.0128097040708,0.573965121158,0.818865599844,0.00197888533404,0.0,0.818822080381,-0.573905675959,-0.0119759210018,0.0,-0.00867114315595,0.00849427949606,-0.999926326532,0.0,0.655261190709,0.252605461291,0.3033497405,1.0,-0.01608,-0.0211337142857,0.805
0.460251004768,0.511932268594,-0.12409159778,-1.41237099751,0.0761046607946,1.91486848612,0.151787829232,-0.0127969365649,-0.0876376410089,0.00130971403862,-0.127738649961,-0.00671916016532,0.0468281400543,-0.0209749149142,0.573945668599,0.818879223491,0.00198336393723,0.0,0.818835714452,-0.573886159907,-0.0119789443052,0.0,-0.00867125044572,0.00849947606619,-0.999926281444,0.0,0.654997973034,0.252275543089,0.303358711166,1.0,-0.0164,-0.0215542857143,0.821
0.460066267735,0.510557034145,-0.124102129747,-1.41457969832,0.0759681547766,1.91571780763,0.151480857574,-0.00936261793153,-0.087530492611,-0.000777733966802,-0.144457466888,-0.0136551216043,0.0559875871744,-0.02099070669,0.573931821732,0.818888910537,0.00199075461961,0.0,0.818845562243,-0.573872346785,-0.0119675265651,0.0,-0.00865780245483,0.0084988285377,-0.999926403477,0.0,0.654733436098,0.251939941455,0.303344361034,1.0,-0.01672,-0.0219748571429,0.837
0.459845262036,0.508971901921,-0.124102955602,-1.41707415519,0.0758042820903,1.91662618933,0.151135242726,-0.0140089391841,-0.0922342587492,0.00242681873771,-0.144665722113,-0.0132910305284,0.052360044732,-0.0228907942421,0.573915709999,0.818900220068,0.00198350442885,0.0,0.818856813692,-0.573856303285,-0.0119669859199,0.0,-0.0086616876486,0.00849241084254,-0.999926424356,0.0,0.654425468825,0.251554862066,0.30334518077,1.0,-0.01708,-0.022448,0.855
0.459653467849,0.50755232579,-0.124108517096,-1.41931347942,0.0756679272013,1.91742166423,0.150821889044,-0.0102136127878,-0.0885740551374,-0.000601478735903,-0.139018747797,-0.00177200751092,0.0515150472476,-0.0173328771561,0.573899265525,0.818911794566,0.00196281719538,0.0,0.818868044209,-0.573839875585,-0.0119862530851,0.0,-0.00868950854886,0.00848635350848,-0.999926234402,0.0,0.654142835419,0.251211094375,0.303341474452,1.0,-0.0174,-0.0228685714286,0.871
0.45943525393,0.505976807899,-0.124112833762,-1.4217512509,0.0755113724154,1.91833849045,0.150484014214,-0.0103928611391,-0.0991001322711,-0.00115349927584,-0.144054476235,-0.00586133993002,0.0459047122295,-0.0151246393734,0.573888086705,0.818919529767,0.00200364820051,0.0,0.818876375495,-0.573828588614,-0.0119574013117,0.0,-0.00864256523656,0.0085031140482,-0.999926498858,0.0,0.653847553864,0.250834282216,0.303362281965,1.0,-0.01774,-0.0233154285714,0.888
0.459221004993,0.504345702922,-0.124114219521,-1.42423327033,0.0753570754597,1.91930129141,0.150143063702,-0.00817921665332,-0.103338329681,0.000768134751542,-0.143783514653,-0.00838789790649,0.0600395843111,-0.0192165622599,0.573871711114,0.818930774012,0.00209605842219,0.0,0.818888874067,-0.573811883663,-0.0119029827206,0.0,-0.00854514014138,0.00854738854629,-0.999926958697,0.0,0.653549500704,0.250460773326,0.303404154287,1.0,-0.01808,-0.0237622857143,0.905
0.458988154752,0.502674766839,-0.124117098445,-1.42670382619,0.0751983708671,1.92023268159,0.149805035068,-0.0104126481563,-0.100232610294,0.000700020600439,-0.144429460733,-0.0154757739071,0.0523500834157,-0.0217940871209,0.573871439637,0.818930678858,0.00220474392475,0.0,0.818890264684,-0.573811249363,-0.0118377114024,0.0,-0.00842932045942,0.00859893337669,-0.999927499823,0.0,0.653253133462,0.250073419849,0.303475908445,1.0,-0.01842,-0.0242091428571,0.922
0.458766793363,0.501076939586,-0.124124496541,-1.42911496521,0.0750430656555,1.92108762375,0.14945398754,-0.0114357994723,-0.102738313197,0.000342290273795,-0.149963666477,-0.00137355852283,0.0573739146037,-0.0227974829838,0.573851462983,0.818944588542,0.00223746061021,0.0,0.818904605668,-0.573791153115,-0.011819742939,0.0,-0.00839604106406,0.00861520944579,-0.999927639712,0.0,0.65295075149,0.249692565335,0.303517844475,1.0,-0.01874,-0.0246297142857,0.938
0.458526595594,0.499376374095,-0.124125556134,-1.43172649019,0.0748792267165,1.92202531867,0.149097486955,-0.0134834219218,-0.0934995501331,-0.00110140274139,-0.152709310813,-0.00789281836936,0.0493324998588,-0.0197464942551,0.573845526093,0.818948687348,0.00225977337377,0.0,0.818908942555,-0.573785076778,-0.0118142444562,0.0,-0.00837879706847,0.00863026610867,-0.999927654516,0.0,0.652621950202,0.249285031749,0.303542500992,1.0,-0.01908,-0.0250765714286,0.955
0.458257709123,0.497611083663,-0.124121333652,-1.43451444963,0.0747062478763,1.92306144798,0.148685009181,-0.0143913643947,-0.0991658605297,0.000450497802293,-0.156563866691,-0.00905475942615,0.0611754490627,-0.0277382624732,0.573819762209,0.818966709874,0.00227057641859,0.0,0.818927046257,-0.573759213133,-0.0118154625251,0.0,-0.00837386755343,0.00863954867441,-0.999927615651,0.0,0.652277117971,0.248847074925,0.303536105743,1.0,-0.01944,-0.0255497142857,0.973
0.458014864999,0.496030079045,-0.12412372253,-1.43705298859,0.0745500314813,1.92394937416,0.148313083788,-0.0149236180746,-0.100679941695,-0.000552010337354,-0.163271506932,-0.00225563583114,0.0590275608103,-0.0248244979581,0.573801697968,0.818979526809,0.00221200771449,0.0,0.818938975081,-0.573741250956,-0.0118608155411,0.0,-0.00844480761489,0.00861742133941,-0.999927209988,0.0,0.651950977135,0.248442268533,0.303506730828,1.0,-0.01976,-0.0259702857143,0.989
0.457745352459,0.494355470939,-0.124126643581,-1.43980027845,0.0743827080188,1.92489981844,0.147927844832,-0.0116217400486,-0.102066637232,-0.00222758594874,-0.160079811307,-0.00858584448667,0.0584556916259,-0.0229823558871,0.573801985664,0.818979596782,0.00210907684783,0.0,0.818937528183,-0.573741775198,-0.0119351258078,0.0,-0.00856472392435,0.00857576617822,-0.999926548172,0.0,0.651595319302,0.247998862731,0.303448134802,1.0,-0.0210114285714,-0.0276150204082,1.006
0.457467093436,0.492427741588,-0.124165492273,-1.44280941658,0.0741932326248,1.92601793502,0.14749495871,-0.0241166096482,-0.118186169209,-0.00128165068347,-0.182856060661,-0.013574200875,0.0689661822813,-0.0325029638458,0.57380310916,0.818978758165,0.00212896554632,0.0,0.818937105198,-0.573742974442,-0.0119064650384,0.0,-0.00852982715184,0.00857562064696,-0.999926847714,0.0,0.651226288058,0.247508813121,0.303455881137,1.0,-0.0245182857143,-0.0322240326531,1.023
0.457162027238,0.490414525254,-0.124185564618,-1.44608999693,0.0740021097803,1.92719854047,0.147030962371,-0.0232022379362,-0.121911389596,-0.000473018740959,-0.20887346045,-0.00633361130829,0.0765392367652,-0.0280493025782,0.573799834586,0.818981238715,0.00205605521966,0.0,0.818938485857,-0.573739850383,-0.0119619131537,0.0,-0.00861710754396,0.00854769110691,-0.999926338504,0.0,0.65080674127,0.246985453006,0.303398087915,1.0,-0.0278188571429,-0.0365619265306,1.039
0.456766599785,0.487906740987,-0.124200555182,-1.45004299156,0.0737644864228,1.9286296324,0.146454181363,-0.0234182252775,-0.154284148868,0.000119473393049,-0.237910238718,-0.00653978408443,0.0918444378843,-0.0421990481549,0.573794341643,0.818985114114,0.00204530159605,0.0,0.818942087375,-0.573734270652,-0.0119829506643,0.0,-0.00864056495537,0.008550897477,-0.999926108665,0.0,0.65030776897,0.246342850303,0.303384388214,1.0,-0.0313257142857,-0.0411709387755,1.056
0.456289133588,0.484895489066,-0.124243713944,-1.4546353062,0.0734737938021,1.93038646008,0.1457670552,-0.0337027665782,-0.173389049841,-0.00284530585961,-0.264763258512,-0.0219058282079,0.0954507811957,-0.0393398929023,0.573802226183,0.818979240438,0.00218079357228,0.0,0.818938232285,-0.573741852346,-0.0118829907521,0.0,-0.00848087347963,0.00860458744529,-0.999927015267,0.0,0.649757100069,0.245574999127,0.303443293453,1.0,-0.0350388571429,-0.0460510693878,1.074
0.455840276019,0.482173381499,-0.124284300961,-1.4588949942,0.0732193279083,1.93184693951,0.145116976014,-0.0296077110639,-0.185905606377,-0.00265487145585,-0.292872297023,-0.01052010635,0.102150595606,-0.0409309862556,0.57380653492,0.818976388092,0.00211734083008,0.0,0.818934372154,-0.573746234841,-0.0119372949841,0.0,-0.00856171124,0.00858382631972,-0.999926504812,0.0,0.649207969226,0.244849362418,0.303432326963,1.0,-0.0381331428571,-0.050117844898,1.089
0.455259163466,0.478573801679,-0.124334771422,-1.46448877123,0.0728765193287,1.93385509235,0.144290184447,-0.0299349171419,-0.202097728019,0.00045445815762,-0.316709404552,-0.0156854457497,0.110930595516,-0.0522437716073,0.57382147898,0.818965899518,0.00212428556872,0.0,0.818923934486,-0.573761108824,-0.0119384432946,0.0,-0.00855851028607,0.00859032887438,-0.999926476373,0.0,0.648498490561,0.24390901511,0.303440251518,1.0,-0.0418462857143,-0.0549979755102,1.107
0.454644212055,0.474856736526,-0.124380406006,-1.47016445009,0.0725338279028,1.93595189915,0.143481176802,-0.0335856995161,-0.219655074102,-0.00442471951157,-0.343289981736,-0.0246897144048,0.128242785889,-0.0519942126241,0.573877394439,0.818926410878,0.00223978118224,0.0,0.818885941437,-0.573816542334,-0.0118801330243,0.0,-0.00844389377592,0.00865203168605,-0.999926918832,0.0,0.647791206104,0.242947995059,0.303494803958,1.0,-0.0453531428571,-0.0596069877551,1.124
0.454009866633,0.471121741172,-0.124401656098,-1.47592663849,0.0721785021268,1.93797841099,0.142618648898,-0.0385081738533,-0.232517877374,0.00683089819931,-0.364875448096,-0.0298027140551,0.132756338465,-0.0569248501051,0.573885231398,0.818920908248,0.00224368419621,0.0,0.818880251688,-0.573824118961,-0.011906334246,0.0,-0.00846302888705,0.00867034499418,-0.999926598436,0.0,0.647042973302,0.241973105981,0.303510584023,1.0,-0.0486537142857,-0.0639448816326,1.14
0.453347794206,0.467089884542,-0.124423288786,-1.48194966382,0.0717854457201,1.9402725953,0.141634203013,-0.0418423903533,-0.255901478577,-0.00117535970116,-0.387478852188,-0.0311568293239,0.148166580241,-0.0685872662532,0.573816164741,0.818968593013,0.00248990781627,0.0,0.818931372165,-0.573754358561,-0.0117511964153,0.0,-0.00819542311975,0.00878225916839,-0.999927850879,0.0,0.646293985052,0.240965644371,0.30362654893,1.0,-0.0519542857143,-0.0682827755102,1.156
0.452531732747,0.462330460964,-0.124431483799,-1.48932482821,0.0713103224289,1.94281098607,0.140515714358,-0.0460105825166,-0.269099451077,0.000751800207553,-0.428493427429,-0.0219062166914,0.144451085678,-0.0624293240963,0.57379056994,0.818986715751,0.00242655577974,0.0,0.818948342706,-0.573728654485,-0.0118232780542,0.0,-0.00829108270951,0.00877147816572,-0.999927156906,0.0,0.645305959702,0.239721856896,0.30361755695,1.0,-0.0556674285714,-0.0731629061224,1.174
0.451712280776,0.457561243666,-0.124450505466,-1.49668372547,0.0708054562733,1.94536722095,0.1394200472,-0.050675249191,-0.28176451271,9.59654472298e-05,-0.443844889175,-0.0321512007706,0.152660207889,-0.0672003798571,0.573780585047,0.818993844822,0.00238102263587,0.0,0.818954883584,-0.573718849898,-0.0118459624805,0.0,-0.00833589328105,0.00874710180687,-0.999926997882,0.0,0.644320922579,0.238469632345,0.303619467279,1.0,-0.0591742857143,-0.0777719183673,1.191
0.450821596911,0.452551299397,-0.124467173825,-1.50439147947,0.0702884716303,1.94814286261,0.138178582223,-0.053347093877,-0.305737835357,-0.00179026004056,-0.449274097493,-0.0276882612519,0.161296231902,-0.0744174099633,0.573717177228,0.81903810901,0.0024338127467,0.0,0.818999861229,-0.573655276164,-0.0118151740731,0.0,-0.00828106774335,0.00877202950823,-0.99992723506,0.0,0.64330537995,0.237149190334,0.30363416497,1.0,-0.0626811428571,-0.0823809306122,1.208
0.449933998581,0.447525063125,-0.124513193677,-1.51191001964,0.0697815362794,1.95094021482,0.137029406056,-0.0556216730138,-0.323285684121,0.00516844625437,-0.47040710193,-0.0331401055933,0.163514990503,-0.0749790970602,0.57373837379,0.819022522362,0.00267080599349,0.0,0.818987699694,-0.573675984509,-0.0116515856778,0.0,-0.00801088806806,0.00887248989874,-0.999928549745,0.0,0.642337366901,0.235840406889,0.30374629033,1.0,-0.0659817142857,-0.0867188244898,1.224
0.448990296882,0.442360223456,-0.124543167113,-1.5199892802,0.0692360255222,1.95362534076,0.135804023838,-0.0574644457547,-0.325663625717,-0.000934539375816,-0.50923415428,-0.0385532775695,0.173797862955,-0.0779638756332,0.573739783231,0.819022170696,0.00246818708703,0.0,0.818984403076,-0.573677784809,-0.0117937965114,0.0,-0.00824359543372,0.00878814618113,-0.999927403175,0.0,0.64120858334,0.234430509443,0.303671034685,1.0,-0.0692822857143,-0.0910567183673,1.24
0.447856301307,0.43626130921,-0.124566489963,-1.52942023014,0.0686030900417,1.95686834348,0.134276305423,-0.0612947780604,-0.344419831808,-0.00475716891714,-0.529019843544,-0.027431771793,0.191251669963,-0.0959031211251,0.573675081528,0.819067733436,0.00238658295117,0.0,0.81902861288,-0.573613095121,-0.0118699322288,0.0,-0.00835346408339,0.00876433280368,-0.999926700368,0.0,0.639904770839,0.232782117345,0.303631753909,1.0,-0.0729954285714,-0.0959368489796,1.258
0.446675054426,0.430198049838,-0.124591425901,-1.53846439769,0.0679742746118,1.96019880434,0.132799214132,-0.0710423180512,-0.353265325016,-0.00100087270528,-0.547833592857,-0.0384703805094,0.188020667706,-0.0855516455925,0.573669587338,0.819070741502,0.00265930072474,0.0,0.819035505634,-0.573606955288,-0.0116896645814,0.0,-0.00804942382106,0.00888423781937,-0.999928135965,0.0,0.63871287909,0.231156170921,0.303749909013,1.0,-0.0765022857143,-0.100545861224,1.275
0.445502057661,0.424340620977,-0.124677194428,-1.54751397172,0.067316418293,1.96320365112,0.131317782096,-0.0726978368111,-0.376484214813,-0.00334896967467,-0.570832175745,-0.0385462345603,0.192004746954,-0.0912221685304,0.573682189123,0.819062530599,0.00246246903799,0.0,0.819024898234,-0.573620442761,-0.0117707527512,0.0,-0.00822861838199,0.00876966350237,-0.999927688806,0.0,0.637446330988,0.229474590069,0.3036911662,1.0,-0.0798028571429,-0.104883755102,1.291
0.444098066924,0.417422960624,-0.124771923141,-1.55800167455,0.066572050503,1.96676782376,0.12964956804,-0.0792500794316,-0.393006721554,-0.00523119521522,-0.578429262735,-0.0293958344817,0.214370668436,-0.0885407238787,0.573767853023,0.819002636639,0.00242464787434,0.0,0.818964678851,-0.573706413525,-0.0117708443009,0.0,-0.00824947530979,0.00873960129493,-0.999927780155,0.0,0.635988007784,0.227513936843,0.303706717147,1.0,-0.083516,-0.109763885714,1.309
0.442769738038,0.411047863349,-0.124797790276,-1.56754210625,0.0659238121079,1.97018062592,0.128007263349,-0.0871908874664,-0.402779875736,7.38393500516e-05,-0.604797931978,-0.0374300859162,0.200647604015,-0.10137988191,0.573743258227,0.819019238277,0.00262828329691,0.0,0.818983877359,-0.573681031712,-0.0116717342773,0.0,-0.00805173366462,0.00884927087462,-0.999928427434,0.0,0.634677885372,0.22575376515,0.303779083604,1.0,-0.0868165714286,-0.114101779592,1.325
0.441376922506,0.404556230888,-0.12485125831,-1.57752784972,0.0652145361789,1.97345585091,0.126396891564,-0.0885757346191,-0.412674813565,-0.00534180964243,-0.640980020084,-0.0473585824632,0.209571373489,-0.102150260362,0.57380931391,0.818973581308,0.00242719802447,0.0,0.818935318616,-0.573747501578,-0.0118108110713,0.0,-0.00828030286037,0.00876504033927,-0.999927302684,0.0,0.633231794713,0.223873382131,0.303698043262,1.0,-0.0901171428571,-0.118439673469,1.341
0.439713874647,0.396888759833,-0.124941394639,-1.58881741035,0.06441247701,1.97745014898,0.124425879994,-0.0997790743352,-0.423721737214,-0.00400953256173,-0.630668360299,-0.0475070186247,0.219638996499,-0.112694617811,0.573847378995,0.818946011081,0.00271356897924,0.0,0.818911823284,-0.573784918085,-0.0116206869228,0.0,-0.00795986349901,0.00889084562949,-0.999928794183,0.0,0.631668270239,0.221701758319,0.303838770966,1.0,-0.0938302857143,-0.123319804082,1.359
0.438157800167,0.389972838272,-0.124967889728,-1.59934194104,0.0636066642426,1.98094019227,0.12266331792,-0.101857048636,-0.437574613366,-0.000230359476407,-0.653334084781,-0.0465874353078,0.216892397434,-0.106566142956,0.573876344989,0.818926162177,0.00257458075618,0.0,0.818890243643,-0.573814443898,-0.011683310408,0.0,-0.00809059269801,0.00881324421926,-0.999928431957,0.0,0.630128169282,0.219687682166,0.303780869906,1.0,-0.0971308571428,-0.127657697959,1.375
0.436543703024,0.382795778355,-0.12502798476,-1.6101189723,0.0627876530132,1.98440990814,0.120710085367,-0.101888259855,-0.463977067234,-0.00396936090424,-0.674575194497,-0.0520796951504,0.213600476399,-0.125915525134,0.573811176987,0.818972193498,0.00245486134307,0.0,0.818934606254,-0.573749596041,-0.0117583427411,0.0,-0.00822143833081,0.00875760800617,-0.999927853524,0.0,0.628422769108,0.217469816202,0.303771065415,1.0,-0.100637714286,-0.132266710204,1.392
0.434646287219,0.374505573161,-0.125066077798,-1.6224233772,0.0619229195388,1.98863628347,0.11853520733,-0.106959393986,-0.460218468368,-0.000859565908738,-0.70134408694,-0.0498489092763,0.231878168389,-0.126296218545,0.573832275263,0.818956921745,0.00261287068599,0.0,0.818921156396,-0.573769867829,-0.0117057797546,0.0,-0.00808749859574,0.00885705983987,-0.999928069842,0.0,0.626721657248,0.215224595822,0.30381512409,1.0,-0.104144571429,-0.136875722449,1.409
0.432728030979,0.366498985656,-0.125164142655,-1.63444155566,0.0609820565568,1.99247568525,0.116467711821,-0.113955043693,-0.477688531462,-0.00489511868684,-0.689920182459,-0.0585913192452,0.229885946793,-0.118381124084,0.573946380455,0.818877552617,0.00241931469637,0.0,0.818839386046,-0.573884790824,-0.0117920999907,0.0,-0.00826803725746,0.00874923171805,-0.999927542627,0.0,0.624905544789,0.21280855272,0.303764880381,1.0,-0.107651428571,-0.141484734694,1.426
0.430875080029,0.35869988016,-0.125222322817,-1.64583555865,0.0600856150231,1.99631959231,0.114326005834,-0.122108348074,-0.489020503796,-0.00218783287323,-0.719510495824,-0.0507045194959,0.234696283077,-0.13472892155,0.573895859989,0.818912454712,0.00258462874426,0.0,0.8188768542,-0.573834125632,-0.011655076897,0.0,-0.00806149466478,0.00880546256684,-0.999928735527,0.0,0.623206037605,0.210539483394,0.303855528226,1.0,-0.110952,-0.145822628571,1.442
0.428766180011,0.350341535058,-0.125249432613,-1.65841620897,0.0591660842558,2.00024216357,0.111997564476,-0.128159877869,-0.495092518269,-0.00259325124214,-0.742022901182,-0.0572608767854,0.23053193737,-0.13792987445,0.573903244383,0.818907999046,0.00234565281896,0.0,0.818868299758,-0.573841341437,-0.0118982944516,0.0,-0.00839773762369,0.0087494189775,-0.999926460131,0.0,0.621232282206,0.208015040138,0.303744060834,1.0,-0.114458857143,-0.150431640816,1.459
0.426475951851,0.341122187514,-0.125328024141,-1.67166559874,0.0581459867663,2.00472168537,0.109495519887,-0.121353575108,-0.50294721758,-0.00425386274191,-0.753516624067,-0.0553747969798,0.250823055612,-0.143633463625,0.573934959207,0.81888470624,0.00269209709696,0.0,0.818849858564,-0.573872136548,-0.0116801936696,0.0,-0.00801996685836,0.00890826631612,-0.999928158881,0.0,0.619229865505,0.205313177222,0.303909294362,1.0,-0.118172,-0.155311771429,1.477
0.424363866278,0.332869203396,-0.125312029767,-1.68394988689,0.057164088058,2.00853131101,0.107141524573,-0.136110762132,-0.523506618821,0.00123163077134,-0.78939898218,-0.0621817667133,0.225113597677,-0.145560526191,0.573831384213,0.818957930129,0.00248959266227,0.0,0.818919913946,-0.573768730797,-0.0118475737529,0.0,-0.00827437336304,0.00883745680338,-0.999926714366,0.0,0.61724826384,0.202849959278,0.303820450179,1.0,-0.121472571429,-0.159649665306,1.493
0.422014590397,0.323782589119,-0.125322538523,-1.69698607776,0.0560726845295,2.01277979524,0.104553350281,-0.141143872046,-0.536892993969,0.000544261497008,-0.788293514821,-0.0586075429445,0.246122038403,-0.151285430425,0.573726282731,0.819030932042,0.00268919357501,0.0,0.818995956628,-0.573663396975,-0.0116908895465,0.0,-0.00803266289397,0.0089099808106,-0.999928041695,0.0,0.615194441705,0.200173805609,0.30393687358,1.0,-0.124979428571,-0.164258677551,1.51
0.419537011352,0.314629082442,-0.125344061441,-1.7104338211,0.0550156500236,2.01692961438,0.101955147156,-0.151369266614,-0.535303058371,-0.00461438513693,-0.791033056747,-0.0623841527136,0.234631250643,-0.1599317043,0.573737509717,0.819023465634,0.0025650701771,0.0,0.818986176811,-0.573674308211,-0.0118396449037,0.0,-0.00822559050964,0.00889377663334,-0.999926617506,0.0,0.612999283333,0.197381514623,0.30387372431,1.0,-0.128486285714,-0.168867689796,1.527
0.417102671851,0.305713810811,-0.125421674817,-1.72306717196,0.0539110445931,2.02099916398,0.0993151141024,-0.154046719956,-0.560604882444,-0.00477572937297,-0.818833245939,-0.0708424942437,0.25565172474,-0.163699274864,0.573663420126,0.81907464024,0.0027858619469,0.0,0.819041085171,-0.573600395049,-0.0116204347276,0.0,-0.00792018436878,0.00894812600049,-0.999928598311,0.0,0.610985623284,0.194669504851,0.304012019821,1.0,-0.131786857143,-0.173205583673,1.543
0.41417492242,0.295698829141,-0.125480858872,-1.73776349477,0.0527364752238,2.02537767839,0.0963550156361,-0.168165388666,-0.556686544555,-0.00373757886966,-0.801272561905,-0.0681275813434,0.237075276189,-0.171322017673,0.573743855859,0.819019118677,0.00253337858193,0.0,0.818981320398,-0.57368066936,-0.0118673224891,0.0,-0.00826637283874,0.0088837641397,-0.999926370197,0.0,0.608531105408,0.1914837617,0.303889226817,1.0,-0.1355,-0.178085714286,1.561
0.41150714143,0.286476209116,-0.125607037598,-1.75074271059,0.0516645044768,2.02950650469,0.0935791073046,-0.167577474812,-0.568524252704,-0.00287534295256,-0.803548757481,-0.0692020302042,0.251701980282,-0.181214103097,0.573780709385,0.818992394364,0.00281112291231,0.0,0.818958549823,-0.573716884844,-0.0116865999143,0.0,-0.00795860099337,0.00900791216301,-0.999927756485,0.0,0.606422859196,0.188606884454,0.304021586162,1.0,-0.138800571429,-0.182423608163,1.577
0.408735535946,0.277239147956,-0.12565485726,-1.76415665651,0.0505019817784,2.03339377628,0.0907061053619,-0.171494868282,-0.582523105248,0.00118788339062,-0.849524359718,-0.0736792694485,0.234512590834,-0.180833084888,0.573725600123,0.819031886178,0.00254009619436,0.0,0.818994005226,-0.573662207345,-0.0118843665678,0.0,-0.008276677328,0.00889886022769,-0.999926150723,0.0,0.60411420743,0.185658093973,0.30391474797,1.0,-0.142101142857,-0.186761502041,1.593
0.405614585139,0.267119345458,-0.125771223114,-1.77832702565,0.0492723583893,2.03781406547,0.0876025502604,-0.189156555642,-0.583364173654,-0.0104972367182,-0.832161410372,-0.0806656069393,0.257899828709,-0.183817174847,0.573804792191,0.818975564529,0.00279858264638,0.0,0.818941552611,-0.573741002855,-0.0116936714239,0.0,-0.00797132301436,0.00900193363399,-0.999927708987,0.0,0.601758641691,0.182428054458,0.304031935253,1.0,-0.145608,-0.191370514286,1.61
0.402149218096,0.256315075901,-0.125945655796,-1.79368728462,0.0479043881589,2.04227572012,0.0842326785349,-0.198630948887,-0.606725441049,-0.0132011710647,-0.859438773788,-0.0811375602218,0.24610714195,-0.196939706466,0.573957264895,0.818869161162,0.00266493387218,0.0,0.818833430282,-0.573893949049,-0.0117599148774,0.0,-0.00810059816874,0.00893199749108,-0.999927297222,0.0,0.599113440025,0.178848113536,0.303997056421,1.0,-0.149321142857,-0.196250644898,1.628
0.398997324226,0.246515164357,-0.12599226527,-1.8073982263,0.04664771575,2.04632912323,0.081128754719,-0.197619500879,-0.608560214538,-0.000262123198927,-0.863351044251,-0.0739928474554,0.245089320179,-0.203440993813,0.573945585663,0.818877123261,0.00273287376105,0.0,0.818842498752,-0.573882277729,-0.0116978821885,0.0,-0.00801093453131,0.00895191337502,-0.999927841484,0.0,0.596723900784,0.175703708769,0.304039696942,1.0,-0.152621714286,-0.200588538775,1.644
0.395546755092,0.235892603848,-0.126010898722,-1.82212805167,0.0453830697047,2.05060443386,0.0776869197105,-0.203141064833,-0.641083959071,-0.00160257930831,-0.869306623014,-0.075026659962,0.258166078398,-0.200128995289,0.573886099268,0.818918295013,0.00288410480515,0.0,0.818884992157,-0.573821546593,-0.0117025290988,0.0,-0.00792860634731,0.00907784369342,-0.99992736234,0.0,0.594104690856,0.172338147657,0.30410708871,1.0,-0.156128571429,-0.20519755102,1.661
0.391997518349,0.225190496296,-0.126010086248,-1.83701602878,0.0439823087416,2.05491987396,0.0741585615655,-0.213574124211,-0.633700961633,0.00100575143376,-0.896761099522,-0.0834016893605,0.254082396966,-0.211273695686,0.573753533414,0.8190109761,0.00294122831029,0.0,0.818978547376,-0.573688955842,-0.0116562336861,0.0,-0.00785938444816,0.00909678329401,-0.999927736694,0.0,0.591423878655,0.168918877844,0.304121662569,1.0,-0.159635428571,-0.209806563265,1.678
0.388234070851,0.21422123729,-0.126076337553,-1.85201101996,0.0425996822597,2.05911000086,0.0705244080651,-0.221035126217,-0.656040590163,-0.00462147120584,-0.874956338913,-0.0818616550026,0.248112164263,-0.208476272644,0.573751263265,0.819012150416,0.00305487711224,0.0,0.818981027628,-0.57368611127,-0.011621919927,0.0,-0.00776610258194,0.00917015419021,-0.999927795355,0.0,0.588694566855,0.165349857085,0.304207542742,1.0,-0.163142285714,-0.21441557551,1.695
0.384311145827,0.203288544698,-0.126194038627,-1.86725957991,0.0411692167214,2.06321512014,0.0667441401909,-0.233633159837,-0.645711235805,-0.0081354400234,-0.911725849612,-0.0904302892105,0.220590575135,-0.228971345091,0.573767821688,0.819001275152,0.00285394398786,0.0,0.818966973117,-0.573702698644,-0.0117922607494,0.0,-0.0080207156467,0.00910348090236,-0.999926394669,0.0,0.585859634174,0.161651094696,0.304113542305,1.0,-0.166649142857,-0.219024587755,1.712
0.379977360356,0.19138926319,-0.12631508973,-1.88334546648,0.0396222111583,2.06765840556,0.0626435731913,-0.249843301453,-0.657953723881,-0.00921373937259,-0.89145361472,-0.0823998603852,0.248571613523,-0.23223779063,0.573812535808,0.818969347074,0.00302145712498,0.0,0.81893744678,-0.573747082559,-0.0116829113763,0.0,-0.00783454493051,0.00917836209786,-0.999927186137,0.0,0.582882750247,0.157675131743,0.304207713463,1.0,-0.170362285714,-0.223904718367,1.73
0.37615992109,0.181419777618,-0.126482260436,-1.89698047612,0.0383603456296,2.07121623125,0.0590400702134,-0.256461125065,-0.672593150388,-0.0105519218018,-0.890005333535,-0.0880681579312,0.240449174025,-0.247207406116,0.573916018873,0.818897132109,0.00293891240034,0.0,0.818863383409,-0.573849939914,-0.0118217034584,0.0,-0.00799441827172,0.00919140969997,-0.999925800879,0.0,0.580302492931,0.15420839157,0.30416931292,1.0,-0.173456571429,-0.227971493878,1.745
0.371491664452,0.169286675751,-0.126575108519,-1.91334202466,0.0366860487027,2.0755381651,0.0547184572883,-0.258990968381,-0.666109721943,-0.00275760688964,-0.911136655899,-0.0930607557752,0.230792362511,-0.247713320202,0.573940770787,0.818879754188,0.00294732266352,0.0,0.818846415754,-0.573875004935,-0.011780196068,0.0,-0.00795532241697,0.00917471605209,-0.999926265997,0.0,0.577172415535,0.150078725411,0.304189830991,1.0,-0.177169714286,-0.23285162449,1.763
0.366959697727,0.157595873301,-0.12660340533,-1.92893815039,0.0351214043028,2.07959579835,0.0503967507958,-0.270889154118,-0.698107049628,-0.00329961329787,-0.886839116701,-0.0946240333553,0.249682898522,-0.254382293003,0.573805748731,0.818974011893,0.00304589367069,0.0,0.818941822399,-0.573739501698,-0.0117483027619,0.0,-0.00787415673091,0.00923583119448,-0.999926345826,0.0,0.574130062018,0.146170423705,0.304238076183,1.0,-0.180676571429,-0.237460636735,1.78
0.362513229055,0.146579462675,-0.126676185283,-1.943788032,0.0335217616295,2.08330889739,0.0462847521568,-0.27924407064,-0.687148058822,-0.00323692256655,-0.931967721875,-0.105024250485,0.229434970871,-0.257003264514,0.573757776671,0.819008251593,0.00287131218011,0.0,0.81897394053,-0.57369232544,-0.0118130167436,0.0,-0.00802786298875,0.00912951584467,-0.999926099948,0.0,0.571181652016,0.142360487646,0.304167656842,1.0,-0.183977142857,-0.241798530612,1.796
0.357604825935,0.134596178838,-0.126812008774,-1.95943970561,0.0319595172922,2.08727139088,0.0417142852377,-0.288929582063,-0.713978068773,-0.0106481522763,-0.918665071277,-0.097491956335,0.238475614493,-0.273336982371,0.573770116579,0.818998742806,0.00310797445207,0.0,0.818967354883,-0.573703655254,-0.011718979667,0.0,-0.00781492377213,0.00926950841252,-0.999926498889,0.0,0.568079722495,0.138247670799,0.30427673715,1.0,-0.187484,-0.246407542857,1.813
0.352437524124,0.122627400244,-0.127001247367,-1.97530713614,0.0302642551906,2.09104459405,0.0370425077652,-0.310703363567,-0.710966826755,-0.01225502342,-0.934193364564,-0.0950973533574,0.216872415571,-0.275746430296,0.573879672868,0.818922527457,0.00296006634044,0.0,0.818888966731,-0.573813422135,-0.0118221675168,0.0,-0.00798306720514,0.00920864458908,-0.999925732994,0.0,0.564862482094,0.133957117722,0.304220074001,1.0,-0.190990857143,-0.251016555102,1.83
0.347357198538,0.111106083152,-0.127153175695,-1.99019571699,0.0286349384778,2.09466142777,0.0324598946815,-0.323175932323,-0.712415628593,-0.00887187223526,-0.935219105719,-0.102893133876,0.210809260091,-0.293782913887,0.573950254573,0.818872522991,0.00310536097678,0.0,0.818841373457,-0.573884101129,-0.01168719334,0.0,-0.00778835415409,0.00925084374743,-0.999926879041,0.0,0.561845294854,0.129858750207,0.304301786679,1.0,-0.194291428571,-0.25535444898,1.846
0.341906349027,0.0987486302004,-0.12723902174,-2.00613151217,0.0268660311918,2.09833926985,0.0274512580369,-0.318555893496,-0.730795640574,-0.00244353969691,-0.929195988836,-0.101281352033,0.22777263025,-0.297738269113,0.573853829079,0.818939970519,0.00313917806655,0.0,0.818909351115,-0.573787684607,-0.011658239639,0.0,-0.00774632585269,0.00926100603375,-0.999927111445,0.0,0.558514820938,0.125544045733,0.304343144906,1.0,-0.197798285714,-0.259963461224,1.863
0.336240076735,0.0863417542834,-0.12732801328,-2.02225555988,0.025209102959,2.10190852245,0.0222970483586,-0.336623604225,-0.745892055397,-0.00601008279446,-0.962580725352,-0.095613229456,0.205669403612,-0.314178251783,0.573840819606,0.818949342228,0.00307172917279,0.0,0.818916350671,-0.573773141834,-0.0118802026311,0.0,-0.00796696182065,0.00933301414879,-0.999924708349,0.0,0.555070123089,0.121154992201,0.304271636251,1.0,-0.201305142857,-0.264572473469,1.88
0.330685999343,0.0743975194814,-0.127452349988,-2.03724845188,0.0234415520613,2.10525940813,0.0172321940918,-0.350408352435,-0.746653310105,-0.0143340977373,-0.949955532724,-0.107486410126,0.216185141547,-0.307800135414,0.573754469466,0.819009202262,0.00323763480932,0.0,0.818979265517,-0.57368729558,-0.0116874481605,0.0,-0.00771488617202,0.009357461557,-0.999926456518,0.0,0.551878495563,0.116915847994,0.30439529327,1.0,-0.204605714286,-0.268910367347,1.896
0.32445847363,0.061780101657,-0.127666412942,-2.05340405494,0.0216129723298,2.10859272797,0.0117456233823,-0.375401761479,-0.743009835324,-0.0095400581213,-0.927718933556,-0.115507356101,0.1912614144,-0.335488032092,0.573908314706,0.818902077812,0.00306270596342,0.0,0.818869069315,-0.573840778283,-0.0118724639666,0.0,-0.00796503318887,0.00932184044265,-0.999924827943,0.0,0.548352687644,0.112222744337,0.304316377631,1.0,-0.208112571429,-0.273519379592,1.913
0.318065148592,0.0489180357307,-0.127795534018,-2.06941150213,0.0197392275441,2.1119881489,0.00607868251157,-0.367533285929,-0.725588232332,-0.0019522129119,-0.955893701749,-0.103007073266,0.201008994867,-0.331565958069,0.573934279064,0.818883262255,0.00322382001122,0.0,0.81885271775,-0.573866608815,-0.0117511200323,0.0,-0.00777290250238,0.00938438506014,-0.999925754896,0.0,0.544845165955,0.107554490891,0.304397336941,1.0,-0.20998,-0.275973714286,1.93
0.311976376423,0.0368633562877,-0.127835589789,-2.08443912944,0.0180415173077,2.11498295124,0.000635173039549,-0.390033780024,-0.775537102065,-0.00138349893358,-0.910264754588,-0.112889412428,0.19523932941,-0.348596864369,0.573864215571,0.818932185727,0.00326866456824,0.0,0.818901445708,-0.573795457866,-0.0118296936065,0.0,-0.00781232237054,0.00946553422329,-0.999924682804,0.0,0.541456822638,0.103225426168,0.3043999511,1.0,-0.20998,-0.275973714286,1.946
0.305309208557,0.0241385461925,-0.127950088608,-2.10021368112,0.0160388526888,2.11803489143,-0.00525965559221,-0.395911090947,-0.738440020602,-0.00381986237999,-0.931637704523,-0.121071511717,0.173892597933,-0.346412412186,0.573807959708,0.818971940474,0.00318323622425,0.0,0.81894059469,-0.57374011826,-0.0118036422031,0.0,-0.00784065238887,0.00938008581195,-0.999925266288,0.0,0.537867217753,0.0985211199654,0.304385783501,1.0,-0.20998,-0.275973714286,1.963
0.298470099136,0.0114127841404,-0.128130098571,-2.11558676388,0.0141616897424,2.12092124311,-0.0112439064074,-0.405041721759,-0.755013871988,-0.0129589138907,-0.890807242551,-0.114893333135,0.169434858783,-0.352748518306,0.573899021566,0.818907467788,0.00334949956853,0.0,0.818878558712,-0.573830938345,-0.0116921845695,0.0,-0.00765291812074,0.00945314866592,-0.999926032677,0.0,0.534340020164,0.093788664226,0.304491930574,1.0,-0.20998,-0.275973714286,1.98
0.291471849813,-0.00107422452183,-0.128254787719,-2.13088825848,0.0123591521319,2.12357907351,-0.0174062988372,-0.413668139731,-0.725319175446,-0.00520999025532,-0.890276368806,-0.103336874992,0.152064354182,-0.37192845038,0.573936962353,0.818881184117,0.00327359809252,0.0,0.818850022833,-0.573867589187,-0.0118902097281,0.0,-0.00785820847107,0.00950499972658,-0.999923948878,0.0,0.530732741484,0.0890702678705,0.304433681628,1.0,-0.20998,-0.275973714286,1.997
0.284426128011,-0.013557917074,-0.128305665084,-2.145760568,0.0104786300072,2.1262733968,-0.0235892218268,-0.423038567981,-0.710926575447,-0.00663500712459,-0.856724549347,-0.109452866145,0.149627557303,-0.373080532164,0.573878315354,0.818921434425,0.00347998659445,0.0,0.818893592769,-0.573809023064,-0.0117147629999,0.0,-0.00759676907314,0.00957277148578,-0.999925322785,0.0,0.527221669023,0.0844457146249,0.304524489635,1.0,-0.20998,-0.275973714286,2.014
0.277219242859,-0.0259573346202,-0.12842041254,-2.16056717592,0.00854215823689,2.12854971814,-0.0299578201213,-0.424656104891,-0.722595506664,-0.00824334148391,-0.823088238613,-0.109488252072,0.14337083861,-0.378507958258,0.573802643846,0.818974991805,0.00335195673165,0.0,0.818945128857,-0.57373335145,-0.011817963294,0.0,-0.00775563634232,0.00952643063381,-0.999924545765,0.0,0.523608107925,0.0797506913335,0.304516369802,1.0,-0.20998,-0.275973714286,2.031
0.270195568187,-0.0375535359854,-0.128621909351,-2.17427965104,0.00677869413758,2.13076584419,-0.0359461031557,-0.441466019602,-0.722468744428,-0.00428594843876,-0.862718582782,-0.107917731016,0.130647022653,-0.383952077015,0.574015674265,0.818825400333,0.0034229182802,0.0,0.818796465158,-0.573946113338,-0.011787897662,0.0,-0.00768780739306,0.00956929565155,-0.999924660261,0.0,0.520270973535,0.0752394134348,0.304534457078,1.0,-0.20998,-0.275973714286,2.047
0.262713217492,-0.0498152554387,-0.128693038995,-2.18862812152,0.00498853372795,2.13291791324,-0.0425090829336,-0.439626161685,-0.726319847725,-0.000324438256122,-0.838185948551,-0.110899732149,0.135328215263,-0.382513108079,0.573987069408,0.818844898228,0.00355298463986,0.0,0.81881721408,-0.573916516769,-0.0117876463837,0.0,-0.00761328411407,0.00967538786868,-0.999924209515,0.0,0.516493934544,0.070323668476,0.304578270387,1.0,-0.20998,-0.275973714286,2.065
0.254655149936,-0.0626042233918,-0.128790727329,-2.2036121063,0.00295975499252,2.13506423698,-0.0496052728739,-0.448056714332,-0.716747551886,-0.00670620900177,-0.861393869904,-0.116986901529,0.102326624367,-0.403269181799,0.573894448884,0.818910226639,0.00345675401142,0.0,0.818881014127,-0.573823893982,-0.011864665975,0.0,-0.00773267713321,0.00963992176973,-0.999923635891,0.0,0.512898359776,0.0656494546682,0.304520518197,1.0,-0.20998,-0.275973714286,2.082
0.247345474058,-0.0740037752366,-0.128942952696,-2.21663108865,0.00117186680726,2.13680051557,-0.0560088020245,-0.456765924168,-0.728757466746,-0.0142000778071,-0.806898802394,-0.110238117967,0.115520425729,-0.400407954856,0.573890353898,0.818912793595,0.0035277600335,0.0,0.818884784411,-0.573819904527,-0.0117972001075,0.0,-0.00763672620161,0.0096593143309,-0.999924186156,0.0,0.509557822856,0.0612228677761,0.304579200143,1.0,-0.20998,-0.275973714286,2.098
0.239362582889,-0.0859199246467,-0.129083663605,-2.23040787614,-0.000620782734213,2.13852247151,-0.0629414177046,-0.46626559106,-0.709048824394,-0.00556117805169,-0.842591844423,-0.110273871676,0.106620967331,-0.405255054431,0.573968803952,0.81885799931,0.00348366997477,0.0,0.818828271684,-0.573897062403,-0.0119653733054,0.0,-0.00779882383248,0.00972046561859,-0.999922342432,0.0,0.50595523916,0.0565000841307,0.3045127416,1.0,-0.20998,-0.275973714286,2.115
0.230893962651,-0.0985634901723,-0.129136431767,-2.24458267517,-0.0026151343719,2.14018552961,-0.0704142834492,-0.481461251561,-0.715886968421,-0.00479797932471,-0.769087504833,-0.11898557994,0.0950901477407,-0.417447579695,0.573821239,0.81896104232,0.00356983696075,0.0,0.818932827062,-0.573749699453,-0.011876617302,0.0,-0.00767844183531,0.0097386994299,-0.999923096675,0.0,0.501986495217,0.0513346685087,0.304583665623,1.0,-0.20998,-0.275973714286,2.134
0.22364446066,-0.108934069785,-0.12926188719,-2.25634201737,-0.00425552246244,2.14142882916,-0.0766790814313,-0.48624394506,-0.691866641529,-0.005029317294,-0.780789990677,-0.10723522632,0.0783785355177,-0.419785446776,0.573874723496,0.818923980859,0.00347306905712,0.0,0.818893849936,-0.57380270506,-0.0120027123815,0.0,-0.00783660346364,0.00973231551765,-0.999921931793,0.0,0.499009754657,0.047466820859,0.304527204059,1.0,-0.20998,-0.275973714286,2.148
0.215191622199,-0.120732520081,-0.129460992095,-2.269317916,-0.0061405430953,2.1427775184,-0.0839927691229,-0.496548794426,-0.707923420343,-0.0110821790802,-0.762289351122,-0.113285424111,0.0879272008643,-0.437291236549,0.573980417062,0.818849415582,0.00358640932805,0.0,0.818821317834,-0.573908671207,-0.0118841690484,0.0,-0.00767322120139,0.00975809659274,-0.999922947645,0.0,0.49547988741,0.0426937853548,0.304601352015,1.0,-0.20998,-0.275973714286,2.165
0.206239620091,-0.133042558426,-0.129547954893,-2.28296635733,-0.00803233484722,2.14400300271,-0.0918849529327,-0.506284510206,-0.691075195358,-0.00826491684883,-0.757092022151,-0.108006503418,0.0596485310734,-0.4382087046,0.57389942741,0.818906285146,0.00356234027495,0.0,0.818876941652,-0.573826601404,-0.0120138608551,0.0,-0.00779421061277,0.00981205508765,-0.999921483846,0.0,0.491664469731,0.0377896448628,0.304567046009,1.0,-0.20998,-0.275973714286,2.183
0.198104901164,-0.143989495655,-0.129682271063,-2.29474401828,-0.00977837205862,2.14506719187,-0.0990417609844,-0.513108948345,-0.686873914473,-0.00575604552395,-0.72992662251,-0.104951962791,0.0740818996768,-0.444226604272,0.573861444639,0.818932192391,0.00372203226666,0.0,0.818905734305,-0.573789082401,-0.0118420496908,0.0,-0.00756231983486,0.00984387883468,-0.999922951716,0.0,0.48835501534,0.0333822175397,0.304656030712,1.0,-0.20998,-0.275973714286,2.199
0.189227738633,-0.155439718133,-0.129871776231,-2.30721148852,-0.0115933560456,2.14597441251,-0.106764954402,-0.523817109227,-0.670028672444,-0.00873005998845,-0.743494563888,-0.108775969914,0.0467497003185,-0.459933404448,0.573954914,0.818866860556,0.00368351456094,0.0,0.818839226442,-0.573881800519,-0.0119476849282,0.0,-0.00766980894722,0.00987382879096,-0.999921837713,0.0,0.484762646365,0.028636104811,0.304622744681,1.0,-0.20998,-0.275973714286,2.216
0.180889314209,-0.16617768997,-0.129939539928,-2.318641094,-0.0132694000862,2.14669173178,-0.114115888073,-0.522347437782,-0.669194148072,-0.00591908024823,-0.708491521146,-0.0987044932793,0.0470011171836,-0.462458004685,0.573875603661,0.818922202817,0.0037368646158,0.0,0.818895093546,-0.573802089643,-0.0119471581841,0.0,-0.00763971946051,0.00991647363688,-0.999921646049,0.0,0.481410131804,0.0243035443362,0.304661750134,1.0,-0.20998,-0.275973714286,2.232
0.172332212956,-0.176797632797,-0.130048110977,-2.32996589496,-0.0149369766477,2.14736887607,-0.121646627983,-0.533367577622,-0.662109046207,-0.00484304813873,-0.700295202208,-0.10813283225,0.0240897929392,-0.473663562558,0.573852734764,0.818938120446,0.00376039700734,0.0,0.818910943327,-0.573778652227,-0.011986327586,0.0,-0.00765857250885,0.00995800884809,-0.99992108905,0.0,0.478046114405,0.0199130365438,0.304651432018,1.0,-0.20998,-0.275973714286,2.248
0.162427327806,-0.188708354305,-0.13028005525,-2.34247565085,-0.0168343793557,2.14794364318,-0.130310699518,-0.549401390465,-0.663208260642,-0.0122798354692,-0.680805753806,-0.10619877155,0.0347885697157,-0.486335339947,0.573962731595,0.81886088445,0.00379230249553,0.0,0.818833753646,-0.573888033358,-0.0120231426691,0.0,-0.00766907187222,0.0100062937483,-0.999920526553,0.0,0.474257617437,0.0148667458325,0.304666229902,1.0,-0.20998,-0.275973714286,2.266
0.153097562098,-0.199836665593,-0.130391154147,-2.35399388664,-0.0186071626366,2.14849823012,-0.138648118391,-0.553270080503,-0.638699035312,-0.00773067919638,-0.687199464205,-0.100477456301,0.0246050071711,-0.492190573269,0.573831366939,0.818952317487,0.00392567215708,0.0,0.818927502337,-0.573756972656,-0.011892398679,0.0,-0.00748706983544,0.0100392655717,-0.999921575391,0.0,0.470731127292,0.010242851226,0.304718413596,1.0,-0.20998,-0.275973714286,2.283
0.144055833394,-0.21019398076,-0.130560313345,-2.36483755986,-0.0202221030015,2.14871371543,-0.146604587846,-0.567043468941,-0.645473534743,-0.0155094022299,-0.672956620892,-0.101482149032,0.015716857675,-0.500266005277,0.573886507052,0.818914127412,0.00383090723897,0.0,0.818886594874,-0.573810492381,-0.0121247873975,0.0,-0.00773109377012,0.0100955248426,-0.999919152015,0.0,0.467514807813,0.00609445342552,0.304651000435,1.0,-0.20998,-0.275973714286,2.298
0.134311305168,-0.221186408528,-0.130721496978,-2.37585614133,-0.0219837240321,2.14904483054,-0.155161470481,-0.564897680051,-0.631631427546,0.00116129479543,-0.654502710594,-0.112870072622,0.0246758575453,-0.510026783153,0.573948400101,0.81886968331,0.00405249043382,0.0,0.818846198712,-0.573873112303,-0.0118869984298,0.0,-0.00740842997708,0.0101410853651,-0.999921133666,0.0,0.463811325764,0.00111664045859,0.304767549315,1.0,-0.20998,-0.275973714286,2.316
0.123914194608,-0.232584991815,-0.130845420885,-2.38758043429,-0.023811349476,2.14914242239,-0.164479543384,-0.592514938704,-0.629050851796,-0.0102980177006,-0.652724457267,-0.102962089396,0.00176791398382,-0.523295899237,0.573824240694,0.818957141414,0.00396083583254,0.0,0.818931411448,-0.573747881922,-0.0120606067574,0.0,-0.00760474527907,0.0101645170922,-0.999919421974,0.0,0.459982539695,-0.0037845448525,0.304694201492,1.0,-0.20998,-0.275973714286,2.334
0.114346746372,-0.242703782198,-0.131042011587,-2.39758785674,-0.0254958727331,2.14920979876,-0.172894592849,-0.606454126957,-0.635615010198,-0.0174043221188,-0.61500422151,-0.105551626946,0.0145720568125,-0.533203835538,0.573910135115,0.818896400735,0.0040729075658,0.0,0.818873144711,-0.573834731418,-0.0118836354189,0.0,-0.00739443281884,0.0101555289609,-0.999921090684,0.0,0.45667444621,-0.00826957710992,0.304772088983,1.0,-0.20998,-0.275973714286,2.35
0.104211405751,-0.25328484556,-0.131139988992,-2.40817122325,-0.0270898691073,2.1491998802,-0.182011502467,-0.594805862231,-0.620716000268,-0.00271525041513,-0.6235476756,-0.0985981347994,-0.00649837180594,-0.540935735421,0.573822569378,0.818957249181,0.00417489955443,0.0,0.818934740465,-0.573746020111,-0.0119223389868,0.0,-0.00736869580691,0.0102604750194,-0.999920209304,0.0,0.453109614538,-0.0128737378303,0.304759541266,1.0,-0.20998,-0.275973714286,2.367
0.0931713574958,-0.264408049546,-0.131352161669,-2.41919320048,-0.0289161207137,2.14903877023,-0.191792740537,-0.628898426167,-0.62828620842,-0.0087000654695,-0.595699354626,-0.0976002564136,-0.0132805004791,-0.537277272623,0.573891575069,0.818908889313,0.00417587959948,0.0,0.818886234871,-0.573814790848,-0.0119443310028,0.0,-0.00738527954566,0.0102745190712,-0.999919942747,0.0,0.449308640488,-0.0178713820034,0.304739548705,1.0,-0.20998,-0.275973714286,2.385
0.0831553687456,-0.274191352414,-0.131529745941,-2.42854166846,-0.0305029490905,2.14887701617,-0.200696930968,-0.621730154585,-0.60580593383,-0.00364784061301,-0.586538646234,-0.0987379302028,-0.00786218285325,-0.559483403444,0.573954964129,0.818863457866,0.00436845797109,0.0,0.818844591859,-0.573879350515,-0.011694970596,0.0,-0.00706975235334,0.0102896727214,-0.999922067582,0.0,0.446032577393,-0.0223334947129,0.304843713415,1.0,-0.20998,-0.275973714286,2.401
0.073257738844,-0.283804028369,-0.131643923926,-2.43797750481,-0.0320543048582,2.14853355487,-0.209773524705,-0.630571918134,-0.594333966978,-0.00744283456047,-0.580425292856,-0.0925378459161,-0.0244647091166,-0.579439818564,0.573734389644,0.819018290353,0.00431707172042,0.0,0.818998094027,-0.57365802027,-0.0118044339661,0.0,-0.0071916629708,0.0103084816977,-0.999921004474,0.0,0.44264455968,-0.0266387090424,0.304788075559,1.0,-0.20998,-0.275973714286,2.417
0.0622348017541,-0.293941100804,-0.131869687418,-2.44765652322,-0.0335973953275,2.14811588122,-0.219557301756,-0.65565112936,-0.592159521337,-0.0169300256855,-0.556412020816,-0.0856609745033,-0.0148983520047,-0.576653138467,0.573928668874,0.818881351196,0.00446795352709,0.0,0.818862806585,-0.573851317312,-0.01179476626,0.0,-0.00709470970998,0.0104281962393,-0.999920455745,0.0,0.439091672335,-0.0314020132481,0.304813533136,1.0,-0.20998,-0.275973714286,2.434
0.0512621564653,-0.303965103572,-0.131979123496,-2.45706328713,-0.0352814625099,2.14766170696,-0.229502571981,-0.637980899361,-0.574796171399,-0.00889006527827,-0.561532591922,-0.0974438739943,-0.0295490009108,-0.588716391198,0.57379209246,0.818976632744,0.00454494788477,0.0,0.818960353843,-0.573716405259,-0.0115832668887,0.0,-0.00687904619311,0.0103687187035,-0.999922581201,0.0,0.435579628652,-0.0360447727092,0.304878711011,1.0,-0.20998,-0.275973714286,2.451
0.0400753551797,-0.313815285284,-0.132197265769,-2.46650644832,-0.0368594666725,2.14694049021,-0.239579265542,-0.671693953,-0.573356418403,-0.0225189843126,-0.546833143192,-0.0960727971632,-0.0369737884897,-0.589774396707,0.573845047254,0.818940007292,0.00445792562241,0.0,0.818921081469,-0.573767374861,-0.0118325302708,0.0,-0.00713245746642,0.0104409291844,-0.999920054328,0.0,0.431935099678,-0.0407268400698,0.304795713245,1.0,-0.20998,-0.275973714286,2.468
0.0292639957568,-0.323007553703,-0.132376850089,-2.47492079535,-0.0383543537964,2.14634533994,-0.249296869119,-0.66736301113,-0.576675915366,-0.012299916323,-0.51385359324,-0.08971821392,-0.0321904851028,-0.611457285325,0.573916073418,0.818889450632,0.00459948013366,0.0,0.81887337605,-0.573839441831,-0.0116376929024,0.0,-0.00689075350317,0.0104456519505,-0.99992169987,0.0,0.428631238103,-0.0451967786461,0.304877201688,1.0,-0.20998,-0.275973714286,2.484
0.0206042798512,-0.330353289531,-0.13247505396,-2.48167207028,-0.0394801976084,2.1458460215,-0.257330572968,-0.670967433128,-0.552783664383,-0.0126013241617,-0.527527047282,-0.0816995498637,-0.0393389432459,-0.616184488167,0.573758904966,0.818998863504,0.00472519348855,0.0,0.818984736268,-0.573682411198,-0.0115429521186,0.0,-0.00674303409705,0.0104929349322,-0.999922211878,0.0,0.425947046743,-0.0486978613529,0.304909515072,1.0,-0.20998,-0.275973714286,2.497
0.00601744609408,-0.342043274814,-0.1327651549,-2.49249759129,-0.0413876434486,2.14470572013,-0.270408055443,-0.70086633614,-0.559220369239,-0.0106638006034,-0.506798495743,-0.102294511488,-0.054651573374,-0.631218912181,0.573966090672,0.818854005882,0.00466805224787,0.0,0.818837982111,-0.573887959842,-0.0117352248155,0.0,-0.00693063030526,0.0105582028717,-0.999920242177,0.0,0.42146747224,-0.0545698000416,0.304856061726,1.0,-0.20998,-0.275973714286,2.518
-0.00573376871183,-0.351362587504,-0.13290301107,-2.50083041896,-0.0428986137623,2.14380268357,-0.281266614556,-0.694669491784,-0.555314688772,-0.0153848743516,-0.475311939445,-0.0825774051167,-0.0519685576184,-0.643324826403,0.573809429162,0.818963307219,0.00475261352776,0.0,0.818949059725,-0.5737321055,-0.0116041197381,0.0,-0.00677675178565,0.0105509048403,-0.99992137393,0.0,0.417945070453,-0.059193849329,0.30491893695,1.0,-0.20998,-0.275973714286,2.535
-0.0164076579422,-0.359408119248,-0.133132623985,-2.50803665791,-0.0442170260733,2.14300185618,-0.290989203467,-0.719962147278,-0.537826057208,-0.0175888696365,-0.487262730087,-0.0943166731031,-0.0567135321041,-0.646156339679,0.573894072203,0.818903527787,0.00483249106363,0.0,0.818890613407,-0.573816966193,-0.0115325402687,0.0,-0.00667120099035,0.0105759416887,-0.999921819211,0.0,0.414817349972,-0.0633842972985,0.30494140274,1.0,-0.20998,-0.275973714286,2.55
-0.0292688351523,-0.368910146743,-0.133242481148,-2.51662454855,-0.0457355353088,2.14182962419,-0.302862562846,-0.71178789903,-0.53057111136,-0.006623045817,-0.464069338263,-0.0799532904811,-0.0591162413744,-0.652742077789,0.573765667536,0.818993861752,0.00477075165332,0.0,0.818979171321,-0.573687240692,-0.0116967393119,0.0,-0.00684277009145,0.0106185381147,-0.99992020839,0.0,0.410992839739,-0.0682793213899,0.304890319481,1.0,-0.20998,-0.275973714286,2.568
-0.0416330715712,-0.377671574854,-0.133488993241,-2.52439835375,-0.0471413383475,2.14070724482,-0.314202733813,-0.736666642051,-0.519416962146,-0.0228588748057,-0.444684496913,-0.0752713080828,-0.0685228455176,-0.676748420012,0.573846050918,0.818937343744,0.00480455718083,0.0,0.818922453497,-0.573766509246,-0.0117794280992,0.0,-0.00689005221112,0.0106943439506,-0.99991907582,0.0,0.407413784266,-0.0729827722334,0.304876760179,1.0,-0.20998,-0.275973714286,2.585
-0.054170243153,-0.386270246395,-0.133631874817,-2.53179609614,-0.0485818940945,2.13967693537,-0.32576945136,-0.7361777852,-0.505182771482,-0.00671035113055,-0.431879645322,-0.0815081257378,-0.0634716554123,-0.689234979105,0.573795978393,0.81897188482,0.00489632055049,0.0,0.818959580862,-0.573718357865,-0.0115411292719,0.0,-0.00664287930298,0.0106323468938,-0.999921409589,0.0,0.403921828891,-0.077675874253,0.304952704487,1.0,-0.20998,-0.275973714286,2.602
-0.0668751179415,-0.394713174555,-0.133859110931,-2.53923887161,-0.0499779997966,2.1384127727,-0.337523895656,-0.75721265231,-0.498452945851,-0.0166394566172,-0.431246817895,-0.086714064071,-0.0797503161957,-0.701500702615,0.573805579494,0.81896546904,0.00484400288038,0.0,0.818951424183,-0.573726435196,-0.0117170511499,0.0,-0.00681685903174,0.0106905182082,-0.999919618396,0.0,0.400292391358,-0.0823697068017,0.304900001407,1.0,-0.20998,-0.275973714286,2.619
-0.0796853547574,-0.40292695375,-0.134006804605,-2.54638267697,-0.0513558812615,2.13715317188,-0.349412476513,-0.753615175688,-0.485503563081,-0.0116636003823,-0.421383405918,-0.0833972362593,-0.076561039014,-0.693368252058,0.573745883552,0.819007618404,0.00478842405846,0.0,0.818992379693,-0.573666197746,-0.0118034939581,0.0,-0.00692032769043,0.0106940947791,-0.99991886941,0.0,0.396706438249,-0.0870200577493,0.304870000899,1.0,-0.20998,-0.275973714286,2.636
-0.0919121836443,-0.410510633252,-0.134205572946,-2.55274881898,-0.052490916502,2.13603156582,-0.360849245297,-0.771164893931,-0.46615973869,-0.0148513473478,-0.392729206739,-0.0757133306107,-0.0609876343712,-0.717487074441,0.573752806313,0.819001656821,0.00497496471467,0.0,0.818989176272,-0.573673035171,-0.0116929366686,0.0,-0.00672266082897,0.0107835050972,-0.999919257665,0.0,0.393399317584,-0.0914278837833,0.304929759484,1.0,-0.20998,-0.275973714286,2.652
-0.10514674322,-0.418377083607,-0.134352389137,-2.55931515186,-0.0537587181326,2.13480323742,-0.373130716269,-0.767344290734,-0.45412564891,0.00314114932009,-0.389944169192,-0.0764252861738,-0.0784991317318,-0.730972171105,0.573781047596,0.818981305182,0.00506735467826,0.0,0.818970745603,-0.573702160083,-0.0115540583455,0.0,-0.00655553167346,0.0107797224836,-0.999920408126,0.0,0.389870096591,-0.0961335855149,0.304985131156,1.0,-0.20998,-0.275973714286,2.669
-0.118408036734,-0.426011089805,-0.134588235776,-2.56585956373,-0.0550662057115,2.13336544185,-0.38560696553,-0.786704192654,-0.455669713726,-0.0244572735268,-0.38287366723,-0.0814571894726,-0.0789604498973,-0.733300597416,0.573717304401,0.819026524843,0.00497525227627,0.0,0.819013366185,-0.573636448486,-0.0117931284704,0.0,-0.00680502999997,0.0108409287124,-0.99991807956,0.0,0.386234742021,-0.100798189813,0.304919069903,1.0,-0.20998,-0.275973714286,2.686
-0.129526698926,-0.432129403557,-0.134730808464,-2.57101410362,-0.0560588425625,2.13230499515,-0.395928626601,-0.779616810587,-0.426243714842,-9.89555265119e-05,-0.358270359913,-0.0721803744298,-0.0760349506179,-0.742267453554,0.573740147702,0.819010344968,0.00500446319986,0.0,0.818997484858,-0.573659059681,-0.0117961834616,0.0,-0.00679047137035,0.0108667960348,-0.999917897751,0.0,0.38287608638,-0.105192691548,0.304908536674,1.0,-0.20998,-0.275973714286,2.702
-0.144696969073,-0.440154540611,-0.134957689067,-2.57759818276,-0.0573889507845,2.13084033835,-0.410273830494,-0.802590566643,-0.412763520782,-0.0170402837511,-0.332313122846,-0.0679737469941,-0.0771240919823,-0.763880492144,0.573733709536,0.819014438558,0.00507216686342,0.0,0.819002547518,-0.573652539064,-0.0117617381831,0.0,-0.00672350144297,0.0109024331666,-0.999917962375,0.0,0.37934268072,-0.109893938286,0.304936981405,1.0,-0.20998,-0.275973714286,2.719
-0.159320914698,-0.447616555775,-0.135117679598,-2.58353898314,-0.0585821311015,2.12949047993,-0.424018131938,-0.797530052069,-0.409642713255,-0.00626642772564,-0.33318395585,-0.058358816933,-0.0743298983987,-0.76724886962,0.573754716082,0.818998810828,0.00521733044504,0.0,0.818990086204,-0.573675209038,-0.0115212905833,0.0,-0.00644299420083,0.0108835462604,-0.999920014924,0.0,0.375623903313,-0.114870794156,0.30503505362,1.0,-0.20998,-0.275973714286,2.737
-0.172422332638,-0.453940337519,-0.135356759838,-2.58886217896,-0.0596066688859,2.12813243189,-0.436392276632,-0.835843663332,-0.387169476238,-0.0194019525048,-0.326805797035,-0.0698232323406,-0.0881880498264,-0.763546580771,0.573811851895,0.818958829034,0.00520978631462,0.0,0.818948192047,-0.573729326767,-0.0118010699428,0.0,-0.00667571175499,0.011038351404,-0.999916791374,0.0,0.372191557218,-0.119271367498,0.304952986134,1.0,-0.20998,-0.275973714286,2.753
-0.186437313991,-0.460459985993,-0.135500725353,-2.59413825582,-0.0606965232103,2.12677735274,-0.449740676151,-0.821865729323,-0.381916968445,-0.00898724389395,-0.299628469377,-0.0606705642057,-0.0724458796177,-0.785102972117,0.573718440394,0.819024163758,0.00522658910842,0.0,0.819013611236,-0.573635652431,-0.0118148115078,0.0,-0.0066785868454,0.0110592357765,-0.999916541408,0.0,0.368627702315,-0.123922673434,0.304957729678,1.0,-0.20998,-0.275973714286,2.77
-0.200713499335,-0.46662238306,-0.135735308443,-2.5991672643,-0.0617826927624,2.12552387725,-0.46325015773,-0.847889821198,-0.357759006613,-0.0187231562474,-0.286105118032,-0.0658222297245,-0.0728674211878,-0.801086815827,0.573785038816,0.818977390343,0.00524502039641,0.0,0.818966879835,-0.573701847014,-0.0118400746132,0.0,-0.00668780428011,0.011089369165,-0.999916146067,0.0,0.365056009939,-0.128658026307,0.304931010209,1.0,-0.20998,-0.275973714286,2.787
-0.214130456111,-0.472331247862,-0.13585555889,-2.60360099769,-0.0627101808902,2.12428700992,-0.47604822887,-0.834936898795,-0.35213594501,-0.0144704046229,-0.275746321268,-0.0516159348783,-0.0748941100539,-0.806829969014,0.573742810994,0.819006444646,0.00532704057617,0.0,0.818997620408,-0.573660385963,-0.0117220409824,0.0,-0.00654464096063,0.0110884837872,-0.999917103165,0.0,0.361741623421,-0.133031597987,0.304993826173,1.0,-0.20998,-0.275973714286,2.803
-0.228661699192,-0.478108950975,-0.136107057766,-2.60809494542,-0.0637297293402,2.12303752224,-0.489866669768,-0.858451172796,-0.330823920197,-0.0152925609047,-0.261237849736,-0.0555732320248,-0.0759775825228,-0.816831644734,0.573827607507,0.818946523477,0.00540513172316,0.0,0.81893934437,-0.573745996431,-0.0116029618493,0.0,-0.00640115582423,0.0110847882841,-0.99991807298,0.0,0.358185527165,-0.137780952192,0.305041111956,1.0,-0.20998,-0.275973714286,2.82
-0.244017393878,-0.483904800334,-0.136221215197,-2.61274037546,-0.0647252528792,2.12166971124,-0.504653402774,-0.853845029096,-0.312824633614,-0.00818141467522,-0.255493837336,-0.0539537493205,-0.080760778777,-0.81109039447,0.573695613943,0.819039105569,0.0053882270975,0.0,0.819031073098,-0.573612989478,-0.0117041233427,0.0,-0.00649550271922,0.0111279438959,-0.999916985209,0.0,0.35440039648,-0.142671297893,0.305009478,1.0,-0.20998,-0.275973714286,2.838
-0.257951205732,-0.488724928564,-0.136415115733,-2.61662058415,-0.0655284039132,2.12046256046,-0.517954997976,-0.866152191623,-0.288039502177,-0.00536946174209,-0.241305038959,-0.0529676307547,-0.0711390289188,-0.833183989466,0.573795776281,0.818968666157,0.00542935317854,0.0,0.818959888605,-0.573710805093,-0.011889485973,0.0,-0.00662236538649,0.0112687762666,-0.99991457583,0.0,0.351003117048,-0.147101683279,0.304959298573,1.0,-0.207732571429,-0.27301995102,2.854
-0.272571194774,-0.493485381052,-0.136458593217,-2.62038201076,-0.0662962261735,2.11937215256,-0.532057003315,-0.867286699364,-0.275282022273,-0.000708181411042,-0.2101765136,-0.041730834974,-0.0615642459256,-0.821724729774,0.573713552892,0.819025914806,0.00548242691921,0.0,0.819017774373,-0.573628311531,-0.0118824396546,0.0,-0.00658727753697,0.01130753947,-0.999914369997,0.0,0.347528481848,-0.15168177909,0.304947306651,1.0,-0.204225714286,-0.268410938776,2.871
-0.287236549246,-0.497996678524,-0.136537057052,-2.62386386742,-0.0670765391954,2.11824137438,-0.546039184389,-0.834670262445,-0.263413633564,0.002097648105,-0.198784003014,-0.0446045000301,-0.0684635610052,-0.817921902722,0.573799817694,0.818965319892,0.00550644439829,0.0,0.818957469342,-0.573714433075,-0.0118810602428,0.0,-0.00657117619166,0.0113271120528,-0.999914254412,0.0,0.344054990183,-0.156259928099,0.304957772104,1.0,-0.200718857143,-0.263801926531,2.888
-0.299979423857,-0.501716348588,-0.136527404542,-2.62670733912,-0.0676262037787,2.11729630909,-0.558305701888,-0.860471744914,-0.238679416053,-0.00302619104501,-0.187683621616,-0.03823619251,-0.0623055377231,-0.818625366776,0.573787301102,0.818973588056,0.00558050731156,0.0,0.818966652979,-0.573701563363,-0.0118694736445,0.0,-0.00651936516796,0.0113810217628,-0.999913981411,0.0,0.341063849802,-0.160175470991,0.304975075548,1.0,-0.197624571429,-0.25973515102,2.903
-0.31525428404,-0.505756043246,-0.136482781332,-2.62977155884,-0.0682726104858,2.1162927502,-0.572936627352,-0.833963374315,-0.215744140428,0.0110616067161,-0.164677946625,-0.0366032488153,-0.0489366129551,-0.809059023152,0.57383216561,0.818941830278,0.00562772011744,0.0,0.818935956891,-0.573747035661,-0.0117891680153,0.0,-0.00642587881507,0.0113739651565,-0.999914666858,0.0,0.337544222941,-0.164857852987,0.305002754479,1.0,-0.193911428571,-0.254855020408,2.921
-0.329494088274,-0.509269703519,-0.136471329092,-2.6324203529,-0.0687692149161,2.11542505308,-0.586599631757,-0.854200811963,-0.198141269131,-0.00455854592799,-0.156359747649,-0.0288837924018,-0.0543631042449,-0.798272588545,0.573952254976,0.818856771551,0.00575704731274,0.0,0.818852955438,-0.573867326535,-0.011699393466,0.0,-0.00627646705401,0.0114292885175,-0.999914985049,0.0,0.334083173576,-0.169451681763,0.30503332005,1.0,-0.190198285714,-0.249974889796,2.939
-0.341849648049,-0.512111434007,-0.136365230253,-2.6346053392,-0.0692256434093,2.11462221769,-0.598581210835,-0.807881205907,-0.180968955622,0.0064377614056,-0.141258998189,-0.0289881297525,-0.0535946484763,-0.79532556481,0.573843573847,0.818933067694,0.00573849218965,0.0,0.818928671053,-0.573758115443,-0.0117560024028,0.0,-0.00633499461561,0.0114457425817,-0.999914427749,0.0,0.331428013758,-0.172902418361,0.305023838686,1.0,-0.187310285714,-0.246179232653,2.953
-0.357399887839,-0.515289781927,-0.136287329711,-2.63714959176,-0.0697028653833,2.11370354297,-0.613567370335,-0.82814144461,-0.155182083233,0.00245022196393,-0.126703125739,-0.0224219284506,-0.0426236239038,-0.787506454021,0.57390112527,0.818892465106,0.00577718856562,0.0,0.818887394425,-0.573813392856,-0.0119319877788,0.0,-0.00645611101391,0.0115788710337,-0.999912120327,0.0,0.327850443869,-0.177550381262,0.304965529194,1.0,-0.183390857143,-0.241027983674,2.972
-0.370175152594,-0.517664739048,-0.136143689807,-2.63902800025,-0.070082272001,2.11305167117,-0.625992341915,-0.795453438378,-0.147033476362,0.0038867525293,-0.108294527645,-0.013049423528,-0.0363600025604,-0.761936547747,0.573841257315,0.81893440361,0.00577935016649,0.0,0.818929003405,-0.573752888117,-0.0119857273877,0.0,-0.00649973080057,0.011611005894,-0.999911465102,0.0,0.324769133634,-0.181578301956,0.304933838766,1.0,-0.179884,-0.236418971429,2.989
-0.382927189994,-0.519834472276,-0.136062029108,-2.64065784821,-0.0704072399776,2.11246957637,-0.638287295126,-0.801974739691,-0.134358730447,0.00279059086331,-0.0950618529949,-0.0260125562517,-0.0377913395609,-0.765048850607,0.573899896288,0.818892923797,0.00583397780352,0.0,0.818888440917,-0.573811669768,-0.0119430260716,0.0,-0.00643257884104,0.0116317023581,-0.999911658813,0.0,0.32208545548,-0.185142473976,0.304945561784,1.0,-0.176789714286,-0.232352195918,3.004
-0.396114137077,-0.521834941289,-0.13588387829,-2.64217100888,-0.0706875299935,2.11184950363,-0.651183931159,-0.764255317956,-0.110335772186,0.00803337540026,-0.0856972591262,-0.0122210357381,-0.0388890602943,-0.754547892271,0.573792269882,0.818968070733,0.00587171559332,0.0,0.818963844146,-0.573703489728,-0.0119697433861,0.0,-0.00643433780242,0.0116770938217,-0.999911118438,0.0,0.318962735252,-0.189250663767,0.304947203552,1.0,-0.173076571429,-0.227472065306,3.022
-0.410048394164,-0.523795899099,-0.135796317155,-2.64357006472,-0.0709716624153,2.11127036551,-0.664599213458,-0.778004334113,-0.109246774652,-0.000602441829599,-0.0718988485372,-0.00928542866219,-0.0356227971224,-0.740156600224,0.573964529929,0.818846818514,0.00594584676515,0.0,0.81884390013,-0.573876050116,-0.0119034963197,0.0,-0.0063350830044,0.0117011303074,-0.999911471218,0.0,0.3160148597,-0.193149963727,0.304980636672,1.0,-0.169569714286,-0.222863053061,3.039
-0.422075353571,-0.525246012068,-0.135618963633,-2.64462574353,-0.0711660336718,2.11084713319,-0.676400865774,-0.74960987503,-0.0849047947114,0.0100626247416,-0.064002952705,-0.011660629417,-0.0264198292303,-0.737188224256,0.573879273946,0.818906281678,0.00598562146223,0.0,0.818904193712,-0.573791238792,-0.0118441001726,0.0,-0.00626483149585,0.0116989593662,-0.999911939241,0.0,0.313350857294,-0.196673274843,0.305000437593,1.0,-0.166269142857,-0.218525159184,3.055
-0.434768253242,-0.526563486185,-0.135513839159,-2.64561444472,-0.071364358878,2.11042761653,-0.688699180234,-0.750831217004,-0.0727921743374,-0.00503720417533,-0.0542269735772,-0.00510956008754,-0.0307499429999,-0.72006354174,0.573999936611,0.818821175374,0.00605825308664,0.0,0.818819883747,-0.57391131812,-0.0118551176941,0.0,-0.00623044134529,0.0117656814189,-0.999911371243,0.0,0.310348342757,-0.200620200836,0.304997653484,1.0,-0.162556,-0.213645028571,3.073
-0.447080094203,-0.527640693185,-0.135311956298,-2.64644643727,-0.0715269226579,2.1100789991,-0.700819959426,-0.712746958104,-0.0608540747927,0.00986497131434,-0.0459172555423,-0.00427059689642,-0.0113754668264,-0.720582297546,0.573882738444,0.818903335452,0.00605612110212,0.0,0.818901979811,-0.5737940839,-0.0118593272959,0.0,-0.00623679629674,0.0117654593067,-0.999911334239,0.0,0.307787156662,-0.203976433013,0.304990997089,1.0,-0.159255428571,-0.209307134694,3.089
-0.458527582985,-0.528442861203,-0.135167465296,-2.6470732873,-0.0716548245053,2.10979149376,-0.711954115953,-0.718732904965,-0.0479963000067,0.0072081960175,-0.0371224767334,-0.00292406980619,-0.0162328200032,-0.688324156597,0.57394667425,0.818858305871,0.00608579694254,0.0,0.818857112263,-0.57385746665,-0.0118905242894,0.0,-0.00624439478353,0.0118081523247,-0.999910783556,0.0,0.305246744819,-0.207310560903,0.304978222469,1.0,-0.155954857143,-0.204969240816,3.105
-0.471166327518,-0.529121072853,-0.134939944732,-2.64761835054,-0.0717653489618,2.10951761168,-0.724320701262,-0.681057750685,-0.0311513843035,0.0141340989565,-0.0283360118752,-0.00181530474865,-0.0140105225004,-0.682445042342,0.573930609748,0.81886953373,0.00609005941723,0.0,0.818868093728,-0.573840818468,-0.0119376310674,0.0,-0.00628075862955,0.011838555152,-0.999910196309,0.0,0.302456278393,-0.210968731912,0.304960477541,1.0,-0.152241714286,-0.200089110204,3.123
-0.482767113075,-0.529566574741,-0.134770592993,-2.64798508605,-0.071810880511,2.10930685489,-0.735762472791,-0.683717123187,-0.0264547353187,0.00999620906463,-0.0180190020443,0.000353109922752,-0.00877331535587,-0.672462983767,0.573900980913,0.818889889091,0.00614496161809,0.0,0.818888777133,-0.57381023866,-0.0119886444121,0.0,-0.00629145893044,0.0119125642467,-0.999909250061,0.0,0.299891716252,-0.214328489239,0.304942688467,1.0,-0.148734857143,-0.195480097959,3.14
-0.492968160171,-0.529844254322,-0.134617094868,-2.64819710376,-0.0718532750773,2.10914275272,-0.745638961452,-0.666623577883,-0.0163505966044,0.0193891442636,-0.00489827747578,0.000588148617887,-0.0145718464066,-0.669342908652,0.574028217314,0.818800471373,0.00617581639441,0.0,0.818799567233,-0.573936949721,-0.0120163782376,0.0,-0.00629460813241,0.0119547261349,-0.99990872705,0.0,0.297636424874,-0.217281747299,0.304937516131,1.0,-0.145640571429,-0.191413322449,3.155
-0.50463583041,-0.530019069102,-0.134371739194,-2.64833952067,-0.0718671434645,2.10901910451,-0.757271932642,-0.654968083205,-0.00974224232169,0.0123426149099,-0.00547712120595,-0.00266975558073,-0.00967504986757,-0.647950309587,0.573869593678,0.81891149653,0.00619654766441,0.0,0.818910787389,-0.573778128583,-0.0120219947852,0.0,-0.00628962731308,0.0119737075205,-0.999908531275,0.0,0.29507048826,-0.22063773976,0.304932252774,1.0,-0.141927428571,-0.186533191837,3.173
-0.51569575017,-0.530068044555,-0.134218956144,-2.64838883475,-0.0718767318573,2.10889730053,-0.767992311023,-0.647550827763,-0.0014659975041,0.0111584324998,0.00034995063652,-0.00109290615907,-0.00444945558659,-0.631016100976,0.574033083801,0.818796545798,0.00624357215478,0.0,0.818796120417,-0.573940751743,-0.012069531052,0.0,-0.00629917111723,0.0120407546095,-0.999907666073,0.0,0.292607141974,-0.223827040428,0.304921181978,1.0,-0.138420571429,-0.181924179592,3.19
-0.525588774683,-0.529985716531,-0.133977219554,-2.6483315035,-0.0718773422092,2.10889644068,-0.777869905953,-0.611019643287,0.00865727897541,0.0204323920508,0.00564264009089,-0.000436307584012,0.00349664380574,-0.616405930452,0.573878386541,0.818905070028,0.00623142400972,0.0,0.818904776711,-0.573786696149,-0.0120225165186,0.0,-0.00626991225201,0.0120026363571,-0.999908308257,0.0,0.290436556656,-0.226665166088,0.304923284752,1.0,-0.13512,-0.177586285714,3.206
-0.536639534206,-0.529811109701,-0.133795858172,-2.64820777994,-0.0718748770185,2.10888533089,-0.788641526836,-0.610460903167,0.011251589742,0.0048635953732,0.00887435449508,0.000837451006539,-0.0018550701729,-0.583581919031,0.573987319363,0.818828554508,0.00625319384773,0.0,0.818828614775,-0.573895646158,-0.012009739711,0.0,-0.00624535732629,0.0120139636653,-0.999908325892,0.0,0.287974103349,-0.22984254146,0.304919469751,1.0,-0.131406857143,-0.172706155102,3.224
-0.546773555267,-0.529514816579,-0.133573433344,-2.64795775186,-0.0718690775647,2.10890142544,-0.798637740215,-0.575998638455,0.0199513924111,0.02048098206,0.0112158173075,0.000189437322955,0.000966494841088,-0.579941144034,0.573959951757,0.818847886848,0.00623368951188,0.0,0.818847959301,-0.573868879557,-0.0119697755036,0.0,-0.00622422479707,0.0119748462592,-0.999908926894,0.0,0.28573202574,-0.232752583939,0.304932005016,1.0,-0.1279,-0.168097142857,3.241
-0.555328026424,-0.529121105706,-0.133350638266,-2.64767940309,-0.0718617919292,2.10892649886,-0.807229630301,-0.576930686577,0.0218753866149,0.0112905976777,0.0164073157264,-0.000500936295794,0.00321384838118,-0.56575558369,0.573791334302,0.818966373773,0.00619113969005,0.0,0.818965728264,-0.573700164281,-0.0120001805794,0.0,-0.00627600734905,0.0119561610447,-0.999908826816,0.0,0.283838873287,-0.235198841328,0.304922581351,1.0,-0.124805714286,-0.164030367347,3.256
-0.565634169564,-0.52857981918,-0.133152364448,-2.6472765068,-0.0718229196037,2.10899496411,-0.817265469218,-0.573925105446,0.0314293386012,0.00683627890231,0.0269458159343,0.00483242179334,0.00821663122512,-0.561143813,0.573912366977,0.818881573025,0.00618961161261,0.0,0.8188809037,-0.573821170216,-0.0120032107524,0.0,-0.00627759878676,0.0119575760655,-0.999908799905,0.0,0.281540413404,-0.238158484484,0.304918917299,1.0,-0.121092571429,-0.159150236735,3.274
-0.574865404635,-0.527892608199,-0.132889964593,-2.64676426609,-0.0717494799246,2.10913508501,-0.826500408326,-0.525813861804,0.0420083766364,0.019908394846,0.0259488001981,0.00725697368907,0.0111569337097,-0.548863769781,0.573784549767,0.81897136453,0.00615966143498,0.0,0.818970496575,-0.573693870327,-0.0119756331974,0.0,-0.00627406144738,0.0119162437111,-0.999909315533,0.0,0.279521177172,-0.240810338656,0.304919288628,1.0,-0.117585714286,-0.15454122449,3.291
-0.583366436817,-0.527160366344,-0.132683824212,-2.64623140744,-0.0716727735636,2.1092413204,-0.834910028207,-0.532841383943,0.0442776362693,0.0119466575901,0.0316706717026,0.00316092617947,0.00762964696513,-0.523730642416,0.573776836484,0.818976842207,0.0061498572515,0.0,0.818975616869,-0.573685764705,-0.0120137109024,0.0,-0.00631098696398,0.0119300018617,-0.999908919102,0.0,0.277641952047,-0.243254803836,0.304908093519,1.0,-0.114285142857,-0.150203330612,3.307
-0.592254379105,-0.526333521804,-0.132490527025,-2.64559528196,-0.071556456173,2.10936723503,-0.843589387239,-0.52122665109,0.052044782693,0.0107322397137,0.0449970736762,0.00386284406214,0.00649819678739,-0.510515722344,0.573896469591,0.818892847696,0.0061719595091,0.0,0.818891848704,-0.573805161813,-0.0120217845934,0.0,-0.00630317255087,0.0119536572138,-0.999908685878,0.0,0.275673001502,-0.245816453927,0.304910427764,1.0,-0.110778285714,-0.145594318367,3.324
-0.600636741495,-0.525357302213,-0.13219904084,-2.64489888844,-0.0713778585043,2.10951663336,-0.852025995249,-0.478692585109,0.0611229426677,0.0173651981058,0.046180854058,0.0106411777544,0.010985090284,-0.481541736567,0.573749866214,0.818995486423,0.00618313345798,0.0,0.818994148492,-0.573657624403,-0.0120938662741,0.0,-0.00635794265115,0.0120030353739,-0.999907747598,0.0,0.273741996656,-0.248348909707,0.30488828463,1.0,-0.107065142857,-0.140714187755,3.342
-0.60836114474,-0.524449869785,-0.13196683296,-2.64424025156,-0.0712527792049,2.10967443876,-0.85972283325,-0.488578761085,0.0556818211542,0.00952388231766,0.0394907429616,0.00819006010443,0.00328234781785,-0.473287487579,0.573710307793,0.819023209148,0.00618162676849,0.0,0.819021584966,-0.57361757878,-0.0121352204612,0.0,-0.00639326051607,0.0120252183423,-0.999907255871,0.0,0.272141232214,-0.250424320095,0.30487600305,1.0,-0.103970857143,-0.136647412245,3.357
-0.616907778667,-0.523428796843,-0.13173296451,-2.64341079385,-0.0710654416502,2.10986967089,-0.868058769678,-0.469107845078,0.0597292242149,0.00321893047379,0.0440020368361,0.0101605170636,0.00717162074423,-0.466989362871,0.573843144643,0.818929889124,0.00621521894939,0.0,0.818929060011,-0.573750913127,-0.0120760613188,0.0,-0.00632358175794,0.0120198198329,-0.999907763869,0.0,0.270259844994,-0.252887727813,0.304901216817,1.0,-0.100257714286,-0.131767281633,3.375
-0.624557695712,-0.52232870196,-0.131491969394,-2.64254044604,-0.0708843960779,2.1100590401,-0.875697295436,-0.432522738784,0.0662815721627,0.0166794712213,0.0491196086911,0.00718774124325,0.0146345254302,-0.440520947899,0.573807190619,0.81895498702,0.0062276905146,0.0,0.818954364764,-0.573714996393,-0.0120664099056,0.0,-0.00630904859523,0.0120242186016,-0.999907802786,0.0,0.268593044604,-0.255103696251,0.30491534025,1.0,-0.0967508571429,-0.127158269388,3.392
-0.63144880472,-0.521292859966,-0.131233404108,-2.64176937101,-0.0707168315308,2.11025734762,-0.882626990562,-0.438580715952,0.0634783474144,0.0152914677966,0.0471808252332,0.0100720389586,0.0158275853345,-0.432517702427,0.573706671748,0.819025442121,0.00622309020464,0.0,0.819024617047,-0.573614247559,-0.0120879514155,0.0,-0.00633080843485,0.0120320341005,-0.999907571238,0.0,0.26708599923,-0.257080761426,0.304908767864,1.0,-0.0934502857143,-0.12282037551,3.408
-0.63869198269,-0.520219576115,-0.13099233298,-2.64090075605,-0.0705289509462,2.11046370829,-0.889709209384,-0.411016682368,0.0628277677605,0.017483568295,0.0486247065226,0.0151990961275,0.00865291668266,-0.412246045225,0.573795315342,0.818963261922,0.00623366780953,0.0,0.818962875023,-0.573703398142,-0.0120402323623,0.0,-0.00628435255778,0.0120140027431,-0.999908081101,0.0,0.265494343647,-0.259169727891,0.30493266362,1.0,-0.0899434285715,-0.118211363265,3.425
-0.646009941792,-0.519010483336,-0.130803418325,-2.63995905276,-0.0703190672192,2.11070182894,-0.896945368897,-0.397623146048,0.0646961261757,0.00679990522,0.0593409478832,0.0113706434332,0.0110205119037,-0.391649074926,0.573869428309,0.818910969484,0.00628094044185,0.0,0.818911279517,-0.573777445503,-0.0120210736774,0.0,-0.00624044728522,0.0120422915041,-0.999908015786,0.0,0.263876377378,-0.261298840301,0.30494085031,1.0,-0.0862302857143,-0.113331232653,3.443
-0.652127882238,-0.517890090673,-0.130521289278,-2.63914998116,-0.0701153754988,2.11092493291,-0.903159936704,-0.375323831638,0.073512185986,0.0185410592215,0.0473868437784,0.0121526094184,0.00710918221611,-0.383307628498,0.573721549157,0.819014560053,0.00628341903472,0.0,0.819014590536,-0.573628986948,-0.0120678383702,0.0,-0.00627950493801,0.0120700231779,-0.999907436895,0.0,0.262547052157,-0.263048584361,0.30492201405,1.0,-0.0829297142858,-0.108993338776,3.459
-0.658830568322,-0.516711025993,-0.130233813918,-2.63826117125,-0.0698951627416,2.11115556165,-0.909778218329,-0.36548769128,0.0686641003201,0.0110083960258,0.0493241348639,0.0121825629468,0.00858198258142,-0.368061029543,0.573729023087,0.81900925527,0.00629243596831,0.0,0.819009297225,-0.573636215284,-0.0120834794438,0.0,-0.00628703339141,0.0120864391184,-0.999907191294,0.0,0.261072083831,-0.264962390536,0.30491814539,1.0,-0.0792165714286,-0.104113208163,3.477
-0.664909054243,-0.515553026572,-0.129975687738,-2.63736909605,-0.0696800824443,2.11140086024,-0.915776126474,-0.351098508679,0.0742264815955,0.0150312287522,0.0517309469855,0.011069431035,0.0153998690058,-0.351825916331,0.573751760258,0.818993258116,0.00630140164181,0.0,0.818993530909,-0.573659127061,-0.0120643761044,0.0,-0.00626590676588,0.0120829968417,-0.999907365509,0.0,0.259746493899,-0.266716120758,0.304923612961,1.0,-0.0757097142858,-0.0995041959184,3.494
-0.670397626037,-0.514452344996,-0.129806355233,-2.63653156826,-0.0694897485135,2.11161684443,-0.921172861358,-0.341860104596,0.0683109417023,0.00745096375103,0.0531070106948,0.0169403021999,0.0194978158091,-0.332889875759,0.573833144215,0.818935969779,0.00633615836223,0.0,0.818936605868,-0.573740164891,-0.0120750014657,0.0,-0.00625346489042,0.0121181813934,-0.999907017605,0.0,0.258530107453,-0.268314796084,0.30492036155,1.0,-0.0724091428572,-0.0951663020409,3.51
-0.675598949462,-0.513396859605,-0.129578335637,-2.63573425541,-0.06928220973,2.11182937736,-0.926340318623,-0.315335219244,0.0645532526638,0.0195701570102,0.0513560810295,0.0135346599718,0.0143608635966,-0.3158828773,0.573824066815,0.818942167954,0.00635710558486,0.0,0.818942949967,-0.57373074857,-0.0120921357329,0.0,-0.00625561334628,0.0121450991344,-0.99990667758,0.0,0.257455650755,-0.269718470485,0.304913613112,1.0,-0.0693148571429,-0.0910995265307,3.525
-0.680809923544,-0.512299856502,-0.129274558067,-2.63493171076,-0.0690816365551,2.11203658324,-0.931580141971,-0.307552756671,0.0667775380819,0.0231481610625,0.046280167625,0.00914947505578,0.00413619958318,-0.298156151266,0.573719477959,0.819015550457,0.00634315540012,0.0,0.819015857032,-0.573625678382,-0.012138942816,0.0,-0.00630350747502,0.0121597269041,-0.999906199018,0.0,0.256251162792,-0.271286593079,0.304900319321,1.0,-0.0656017142858,-0.0862193959184,3.543
-0.685585791454,-0.511280812517,-0.129042367842,-2.63414614435,-0.0688895511962,2.11225806785,-0.936253950555,-0.28948068469,0.0615757985659,0.0117420231989,0.0507745249688,0.00937798205254,0.0132541059804,-0.280196846915,0.573761721309,0.818985946523,0.0063445614725,0.0,0.818986391266,-0.57366813735,-0.0121204790081,0.0,-0.00628695025377,0.0121506103402,-0.999906414083,0.0,0.255207670023,-0.272662818244,0.304904556926,1.0,-0.0623011428572,-0.0818815020409,3.559
-0.690331100682,-0.510206506289,-0.128831159444,-2.63333903323,-0.0686860284317,2.11248272649,-0.94093211746,-0.270055166702,0.0621202956131,0.00904373852795,0.0465313345893,0.0108970466019,0.0170725321464,-0.264695957179,0.573812567363,0.818950141016,0.0063679641702,0.0,0.818950816466,-0.573718720671,-0.0121299902305,0.0,-0.006280557873,0.0121756247112,-0.999906149974,0.0,0.254103155657,-0.274116818345,0.304897021967,1.0,-0.0585880000001,-0.0770013714286,3.577
-0.694873210458,-0.509200443117,-0.128648535862,-2.63260521894,-0.0684926486087,2.11267908922,-0.945348041908,-0.263638833894,0.0539769963925,0.00574448632741,0.0479105054849,0.00783542646635,0.00979767545072,-0.24973152553,0.573891264645,0.818894721671,0.00640297470591,0.0,0.818895553006,-0.573796653658,-0.012174580851,0.0,-0.00629581575165,0.0122304885886,-0.99990538445,0.0,0.253146218129,-0.275338144139,0.304879074103,1.0,-0.0552874285715,-0.0726634775511,3.593
