nelsonifechukwu/NELSON_IML_WORK/CNN-GradCAM/train2dof/data_sample_2022-02-22-07-46-52/robot_state.csv
position_joint1,position_joint2,position_joint3,position_joint4,position_joint5,position_joint6,position_joint7,velocity_joint1,velocity_joint2,velocity_joint3,velocity_joint4,velocity_joint5,velocity_joint6,velocity_joint7,ee_T_00,ee_T_10,ee_T_20,ee_T_30,ee_T_01,ee_T_11,ee_T_21,ee_T_31,ee_T_02,ee_T_12,ee_T_22,ee_T_32,ee_T_03,ee_T_13,ee_T_23,ee_T_33,v_x,v_y,time
0.465091405521,0.547669098424,-0.124021918223,-1.35582025834,0.0795246445944,1.89414276334,0.159131876618,0.000588224755931,0.000385223084281,0.000280809680686,0.00145890640322,-0.000163466157057,-0.000189104930618,-0.00140730574602,0.573798129304,0.81898233932,0.00209322470524,0.0,0.818941072659,-0.573738993204,-0.0118251465292,0.0,-0.00848378487147,0.00849963828698,-0.999927888172,0.0,0.66169306946,0.260892752687,0.303304667623,1.0,0.0,0.0,0.0
0.465088621462,0.547662845921,-0.124021915625,-1.35582304237,0.0795253581336,1.89414126414,0.159135025726,-6.5156981491e-05,-0.000154990251554,0.000341937797607,0.000374743831001,-5.58376645231e-05,0.000334589465251,-0.000359978127563,0.573803305845,0.818978706471,0.00209557857953,0.0,0.818937459876,-0.573744149198,-0.0118251839376,0.0,-0.00848241120853,0.00850164111747,-0.999927882799,0.0,0.661692983402,0.260890677793,0.303307642835,1.0,-0.00014,-0.000184,0.008
0.465085471874,0.547657653835,-0.124022154336,-1.35582417898,0.0795259684854,1.8941434161,0.159138895661,-0.000381029900965,-0.00408083398106,0.000784565651403,-0.00242077623248,5.20054990405e-05,-0.000385365299278,-0.00814842110128,0.573809450229,0.818974387107,0.00210118830124,0.0,0.818933211693,-0.573750268803,-0.0118224674028,0.0,-0.00847690384934,0.00850474014727,-0.999927903149,0.0,0.661694132203,0.260888635078,0.303310976024,1.0,-0.00044,-0.000578285714286,0.023
0.465085196401,0.547653902471,-0.12401950074,-1.35583301208,0.0795253581338,1.89414423434,0.159132540206,-0.000836958839189,0.00011783367427,0.000474440363309,0.000321543044874,-6.531033203e-05,-1.21122581106e-05,0.000233666504563,0.573802937203,0.81897895785,0.00209827497885,0.0,0.818937727895,-0.573743751426,-0.0118259220164,0.0,-0.00848147242536,0.00850426906536,-0.999927868415,0.0,0.661691865853,0.26088894507,0.303309411237,1.0,-0.00076,-0.000998857142857,0.039
0.465089258963,0.54758602068,-0.124017960512,-1.35588429848,0.0795224142804,1.89415153198,0.159139696322,0.000872643389352,-0.00161771536491,0.00147562503552,-0.00704807004427,-4.97829576107e-05,0.00046158594637,0.000939877706378,0.573806342758,0.818976514858,0.00212038269512,0.0,0.818935550533,-0.573747047113,-0.0118168060242,0.0,-0.00846128621039,0.0085171789997,-0.999927929552,0.0,0.661682112007,0.260887350477,0.303333665524,1.0,-0.0011,-0.00144571428571,0.056
0.465080778357,0.547467905153,-0.124014361044,-1.35603001257,0.0795224927488,1.8941900255,0.159132111164,-0.00202565339171,-0.00779848275552,0.0022818735586,-0.00719204086183,-2.81790803795e-05,0.00202685879666,-0.00276426224149,0.573812595543,0.818972091763,0.00213658885548,0.0,0.81893122168,-0.573753117775,-0.0118220515437,0.0,-0.00845621857284,0.00853352569939,-0.999927833049,0.0,0.661660886262,0.260870704271,0.303351205306,1.0,-0.00142,-0.00186628571429,0.072
0.465074064299,0.547332671398,-0.12402298383,-1.35621813546,0.0795216217824,1.89425048353,0.159130789899,-0.000969664318611,-0.0105848910627,-0.000580351868963,-0.0103616504381,-7.74734086471e-05,0.00854122554984,0.00132620051178,0.573833257754,0.818957586845,0.00214712524838,0.0,0.818916792595,-0.57377367409,-0.0118239007128,0.0,-0.00845147196941,0.00854342887459,-0.999927788615,0.0,0.661637165073,0.260844680869,0.303362992893,1.0,-0.00174,-0.00228685714286,0.088
0.465054967235,0.547154590567,-0.124025114845,-1.35644956588,0.0795176088914,1.89436245823,0.159115399004,0.00158259909941,-0.00875183950914,6.95387508928e-05,-0.00930253894233,0.000153501218289,0.00949495995756,-0.0003164949598,0.573849807678,0.818945845924,0.00220149335261,0.0,0.818905718159,-0.573789968173,-0.0118001733672,0.0,-0.00840066989847,0.00857450779813,-0.999927950685,0.0,0.661616832995,0.260812641027,0.303388767918,1.0,-0.0021,-0.00276,0.106
0.465032219008,0.546949913925,-0.124020103539,-1.35668588853,0.0795155802084,1.89449403127,0.159104936196,-0.00264547553415,-0.00936644571962,0.000364262257278,-0.0145711621974,0.000423341464958,0.00907683302242,-0.00126453968649,0.573869258465,0.818931962386,0.0022939207227,0.0,0.818892967596,-0.573808991925,-0.0117599026437,0.0,-0.00831444789089,0.00862728825981,-0.99992821735,0.0,0.661599183265,0.260783745992,0.303432516158,1.0,-0.00244,-0.00320685714286,0.123
0.465009166112,0.546747659237,-0.124020103539,-1.35697814188,0.0795102868632,1.89460716999,0.159084291297,-0.00369125824992,-0.0116490679963,-0.00361775890124,-0.0194251417317,0.000303464075843,0.00733431260383,-0.000499077054413,0.573886197274,0.818920017835,0.00232031652803,0.0,0.818881265597,-0.573825724513,-0.0117583009717,0.0,-0.00829781048724,0.00864815686995,-0.999928175283,0.0,0.661566359721,0.2607432842,0.303446473456,1.0,-0.00276,-0.00362742857143,0.139
0.464973996692,0.546466677193,-0.124020112324,-1.35738652405,0.0795008700126,1.89475419862,0.158961730782,-0.00241970711609,-0.0122828924525,-9.25015023133e-05,-0.0267074373412,0.000261683374136,0.003911717799,-0.00953195015503,0.573834939027,0.81895586101,0.00234677849166,0.0,0.818917307165,-0.5737742211,-0.0117615529488,0.0,-0.00828583124883,0.00867117448915,-0.99992807528,0.0,0.661519103052,0.260683681888,0.303463834468,1.0,-0.00312,-0.00410057142857,0.157
0.464943413429,0.546192396051,-0.124022229546,-1.35779718985,0.0794908064976,1.89491005761,0.15891664051,0.000707336098076,-0.022615900925,0.00103625775109,-0.0267279021149,4.5307248303e-05,0.0137931640597,-0.000528019163375,0.573844857743,0.818948841693,0.00237082976509,0.0,0.818910486905,-0.573783929226,-0.0117628185581,0.0,-0.0082729618952,0.00869169764153,-0.999928003655,0.0,0.661472203241,0.260626029322,0.303476181908,1.0,-0.00344,-0.00452114285714,0.173
0.46489449298,0.545916646723,-0.124017319492,-1.3582736886,0.0794751061207,1.89505760652,0.158888197405,-0.000514956202127,-0.0173411624621,0.000632906993172,-0.034725440839,8.78438179409e-05,0.0112574870589,-0.000413316396292,0.573882557162,0.818922529565,0.00233410756134,0.0,0.818883534166,-0.573821592075,-0.011801899868,0.0,-0.00832564067101,0.00868443392682,-0.999927629539,0.0,0.661409291446,0.260544947413,0.303457408108,1.0,-0.00378,-0.004968,0.19
0.464840961247,0.545623688666,-0.124018267257,-1.35877716199,0.0794334070588,1.89522695392,0.158817268213,-0.00237021933753,-0.0165716870608,0.00109843610106,-0.0336267647172,-0.00623843510814,0.00577423184069,-0.00620365253953,0.573883999089,0.818921638493,0.00229183291214,0.0,0.818882147798,-0.573823252814,-0.0118173367572,0.0,-0.0083625267678,0.00865868824085,-0.999927545007,0.0,0.661354399548,0.260463897083,0.303439684832,1.0,-0.00406,-0.005336,0.204
0.464774123931,0.545241317073,-0.12402108775,-1.35942034822,0.0793414457111,1.89543215428,0.158721958786,-0.00762124982584,-0.0261065842705,-0.000984925967327,-0.0372927301264,-0.00242170463815,0.016000761079,0.000444273811209,0.573884988339,0.8189211882,0.00220331050303,0.0,0.818880973208,-0.573825024264,-0.0118127112816,0.0,-0.00840952676516,0.00858355198505,-0.999927798641,0.0,0.661276477457,0.260335119442,0.303415906368,1.0,-0.00442,-0.00580914285714,0.222
0.464701376536,0.544791855856,-0.124025903265,-1.36020475713,0.0793270900086,1.89568508308,0.158649354337,-0.00403290237718,-0.023067472146,0.000542835069262,-0.0427494832187,-0.0001035925471,0.0166400291701,-0.00845759126584,0.573917320032,0.818898641653,0.00216133453732,0.0,0.818857553656,-0.573857185457,-0.0118736860937,0.0,-0.00848321138724,0.00858450449197,-0.999927168051,0.0,0.66118368803,0.260222489901,0.303388866889,1.0,-0.00478,-0.00628228571429,0.24
0.464630335892,0.544381903935,-0.124028985247,-1.36089547945,0.0793012532142,1.89591605144,0.1585626706,-0.00443357165496,-0.0297082195885,-0.000269128006813,-0.0426017475283,-0.00172999903552,0.0159553587346,-0.00561761630497,0.573938233748,0.818884074804,0.00212668203869,0.0,0.818842365721,-0.573878064937,-0.0119119093802,0.0,-0.00853418102826,0.00857828274044,-0.99992678773,0.0,0.661102352256,0.260108612984,0.303370357205,1.0,-0.0051,-0.00670285714286,0.256
0.464564283099,0.543912490666,-0.12402910079,-1.36168408961,0.0792697535695,1.8961978905,0.158444504029,-0.00258796813753,-0.0246805555496,0.000291816423873,-0.0496187685623,0.000358619680258,0.0209033502304,-0.0124873517874,0.573931234186,0.818889041813,0.00210298008329,0.0,0.818846852186,-0.573870991011,-0.0119442556541,0.0,-0.00857434588602,0.00857736515127,-0.999926451995,0.0,0.661008457799,0.259991454642,0.303351605151,1.0,-0.00544,-0.00714971428571,0.273
0.464477109358,0.543362839527,-0.124034703707,-1.36256923686,0.0792220763464,1.89649850469,0.158348470367,-0.0038458271177,-0.025516889348,-0.00118493960751,-0.0482509610842,8.61821211909e-05,0.0147704836554,-0.00400181984831,0.573964368949,0.818865888886,0.00207511380189,0.0,0.818823266366,-0.573904167467,-0.0119671184416,0.0,-0.00860871436564,0.00856801600668,-0.999926236849,0.0,0.660905734841,0.259845414666,0.30334540092,1.0,-0.0058,-0.00762285714286,0.291
0.464405247827,0.54285157857,-0.124041394378,-1.36338623847,0.079169106265,1.89678547286,0.158247010091,-0.00549641937112,-0.0324038636845,-0.000764265177522,-0.0469459032722,-0.000313861781443,0.0212566452524,-0.0126704024124,0.573976096139,0.818857718632,0.00205538293294,0.0,0.818814875529,-0.573916011887,-0.0119732122937,0.0,-0.00862490618393,0.0085554804905,-0.999926204651,0.0,0.660811409636,0.259714676563,0.303343250152,1.0,-0.00612,-0.00804342857143,0.307
0.464333086498,0.542295819696,-0.124041749643,-1.36423838332,0.07912187693,1.89709553755,0.158122031847,-0.00367528858885,-0.0334433537294,-0.00275787473849,-0.0585099891385,-0.000847928928084,0.02196374452,-0.00730001176872,0.573967843371,0.818863467504,0.00206960497007,0.0,0.818820758427,-0.573907649741,-0.0119717183188,0.0,-0.00861560652737,0.00856618178167,-0.999926193203,0.0,0.660712953874,0.259586330181,0.303357588057,1.0,-0.00644,-0.008464,0.323
0.46425442411,0.541639367599,-0.124050148129,-1.36524857228,0.0790630205544,1.89746325181,0.157997721937,-0.00447387017133,-0.0371898406039,-0.000901223232917,-0.0506463327667,-0.00255270286107,0.0208779292546,-0.00178893055007,0.573976717669,0.818857219103,0.00208067254933,0.0,0.818814661215,-0.573916483722,-0.0119652493559,0.0,-0.00860386419118,0.0085716247703,-0.999926247665,0.0,0.660596240527,0.259433624625,0.303373081835,1.0,-0.0068,-0.00893714285714,0.341
0.464171869342,0.540995063245,-0.124047225067,-1.36625683493,0.0790024483708,1.89783752574,0.157866917664,-0.00166270195561,-0.0388357984113,-0.000256436520216,-0.059561127243,-0.00210948653514,0.0264519905855,-0.00665511218266,0.573974956863,0.818858429931,0.00208986250052,0.0,0.8188159662,-0.573914659404,-0.0119634492751,0.0,-0.00859713408625,0.00857809821917,-0.999926250039,0.0,0.660479293517,0.259285153766,0.303381005312,1.0,-0.00714,-0.009384,0.358
0.464092593188,0.540365194252,-0.124045692788,-1.36719451998,0.0789415394923,1.89817437752,0.157741839521,-0.00993951839396,-0.0426855046899,0.000964743121109,-0.0631814581398,-0.0075024065026,0.0199071412481,-0.00539526777291,0.573971960676,0.818860469322,0.00211353716674,0.0,0.818818326143,-0.573911577668,-0.0119497570226,0.0,-0.0085723652386,0.00858959380929,-0.999926364005,0.0,0.66037011888,0.259143651189,0.303409012369,1.0,-0.00744,-0.00977828571429,0.373
0.463994392108,0.539584861945,-0.124056657809,-1.3683821071,0.0788791548223,1.89862563105,0.157606777868,-0.00510056190955,-0.0472861221615,-0.00190245601394,-0.0689285279894,-0.00347161949733,0.0272608598412,-0.000280626939617,0.573998610286,0.818841686435,0.00215286982002,0.0,0.818800037211,-0.573938044018,-0.0119317891798,0.0,-0.0085347968019,0.00861176609933,-0.999926494663,0.0,0.660237646563,0.258962240641,0.303434653946,1.0,-0.0078,-0.0102514285714,0.391
0.46390221253,0.538919946488,-0.124052058063,-1.36941052997,0.0788267098345,1.89900779474,0.157483222209,-0.00725111895742,-0.0442198998629,0.00118479222779,-0.0692001990145,-0.00297726894907,0.0308794379971,0.000388068806536,0.574012548412,0.818831857743,0.0021748359653,0.0,0.818790379795,-0.57395177473,-0.0119340329135,0.0,-0.00852387949,0.0086311855886,-0.99992642035,0.0,0.660119256469,0.258808142072,0.303447889803,1.0,-0.0081,-0.0106457142857,0.406
0.463793490924,0.538147198429,-0.124056938858,-1.37060018687,0.078751293404,1.89947141223,0.157328743722,-0.00965416816663,-0.0459060265145,-0.000479506004372,-0.0696598047537,-0.0122107091539,0.022535877935,-0.00926326758014,0.574024173782,0.818823612985,0.00221034687042,0.0,0.818782677924,-0.573963336622,-0.011906361638,0.0,-0.00848071526914,0.00864449956512,-0.999926672359,0.0,0.659990164174,0.258621723405,0.303467789343,1.0,-0.00844,-0.0110925714286,0.423
0.463669962755,0.537248284463,-0.124063187518,-1.37202378576,0.0786723007813,1.89999803378,0.157157089666,-0.0062311496834,-0.0497296038564,-0.000540162841035,-0.0757826715237,-0.00430614622978,0.0191947611418,-0.0107795318795,0.574046554878,0.818807914499,0.00221334298405,0.0,0.818766971166,-0.573985654643,-0.0119105874001,0.0,-0.0084822194169,0.00864961032662,-0.999926615405,0.0,0.659826820363,0.258402334414,0.303470810395,1.0,-0.00882,-0.011592,0.442
0.463566035664,0.536460429709,-0.124064153469,-1.37324503618,0.0785991342136,1.90046292325,0.157009897693,-0.00225028431096,-0.0482253798785,0.000599406162465,-0.0771306299388,-0.00963162840825,0.0262739363527,-0.00426641801148,0.574059534343,0.818798744089,0.00223933218816,0.0,0.818758146529,-0.573998535845,-0.011896438229,0.0,-0.00845557807985,0.00866290204963,-0.999926725979,0.0,0.659688238942,0.258218278842,0.303486035085,1.0,-0.00914,-0.0120125714286,0.458
0.463441740451,0.535554403347,-0.124076545727,-1.37469342351,0.0785231511803,1.900984241,0.156836797631,-0.0043874940835,-0.0503620480729,6.33860687833e-05,-0.0777996365263,-0.00246860388875,0.033091410618,-0.00789031432452,0.574087521847,0.818779162731,0.00222414903246,0.0,0.818738286374,-0.574026497711,-0.0119140778975,0.0,-0.00847844148239,0.00866088617164,-0.999926549843,0.0,0.659519038708,0.257992130009,0.303481687221,1.0,-0.0095,-0.0124857142857,0.476
0.463321274092,0.534691684347,-0.124077035547,-1.37604803027,0.0784423783343,1.90147695883,0.156670909895,-0.00351805283631,-0.0517417229827,-0.00105690599485,-0.0854460580569,-0.00163635065035,0.0370588924231,-0.00767229029651,0.574102154406,0.818768922256,0.00221701512993,0.0,0.818727921144,-0.574041124662,-0.01192162896,0.0,-0.00848856486774,0.00865953178128,-0.999926475685,0.0,0.659350234566,0.257771620454,0.303483116028,1.0,-0.00984,-0.0129325714286,0.493
0.463193131705,0.533794000956,-0.124084588357,-1.37753149133,0.0783472372378,1.90201056557,0.156494605696,-0.00932079389661,-0.0568432961449,-0.000468792773037,-0.0927957845066,-0.00355244944434,0.0341503025712,-0.0114277268427,0.574124953311,0.818753050226,0.00217431203794,0.0,0.818711527707,-0.574064129395,-0.0119397087058,0.0,-0.00852764255813,0.00863518528763,-0.999926353732,0.0,0.659186081491,0.257550925837,0.303461955721,1.0,-0.01016,-0.0133531428571,0.509
0.463059203769,0.532876149392,-0.124083083152,-1.3790202067,0.0782841564303,1.90257575156,0.156298106423,-0.00881465485188,-0.0564268703028,-0.000603354587611,-0.0893006385216,-7.24764847952e-05,0.0362322672352,-0.0146447699658,0.57413740502,0.818744296343,0.00218271918134,0.0,0.818702631613,-0.574076290092,-0.0119649924712,0.0,-0.00854338649835,0.00865671433494,-0.999926033186,0.0,0.659014059282,0.257326971644,0.303449603941,1.0,-0.0105,-0.0138,0.526
0.462934557344,0.53191679245,-0.124083929781,-1.38056364501,0.0781917871314,1.9031527427,0.156112048551,-0.00559899138467,-0.0541166094802,0.00148765091273,-0.0859104440116,-0.00208682436937,0.0353791408427,-0.00517606973623,0.574147288949,0.81873738485,0.0021753488294,0.0,0.818695604222,-0.574086183015,-0.0119711737148,0.0,-0.00855257441817,0.00865433208086,-0.999925975264,0.0,0.658832102719,0.25709792357,0.303441320411,1.0,-0.01084,-0.0142468571429,0.543
0.462814302545,0.531027894852,-0.124092111294,-1.38199392729,0.0780929562728,1.90366149562,0.155927924528,-0.0079573852332,-0.0586982782569,-0.00116562540921,-0.0985729104704,-0.00442600149434,0.0304309522789,-0.0142544681209,0.574152033691,0.81873415457,0.00213851579862,0.0,0.818691990209,-0.57409117667,-0.0119788538352,0.0,-0.00857995890715,0.00862863517401,-0.999925962739,0.0,0.658661567727,0.25687438259,0.303431336684,1.0,-0.01114,-0.0146411428571,0.558
0.462667997674,0.529935030423,-0.124084814568,-1.38373654677,0.077991965087,1.90428101517,0.155697476503,-0.0045992156308,-0.0611443592149,0.000709117155437,-0.0996126611947,-0.0120569113215,0.0361898534938,-0.0119672413805,0.574145517555,0.818738779897,0.00211704177293,0.0,0.818696193539,-0.574084608422,-0.0120063299706,0.0,-0.00861485271656,0.00862676066784,-0.999925678895,0.0,0.658448439965,0.256615466859,0.303425317042,1.0,-0.0115,-0.0151142857143,0.576
0.462546875335,0.529003982943,-0.124089722904,-1.38519575439,0.0778970924654,1.90482589663,0.155497305418,-0.0113108309362,-0.0645686918906,0.000151475617022,-0.097813688443,-0.00974222617363,0.0409998586366,-0.00817748377185,0.574137976088,0.818744045307,0.00212593270231,0.0,0.818701644216,-0.574077100197,-0.0119936520067,0.0,-0.00859944744703,0.00862668177827,-0.999925812181,0.0,0.658277931865,0.256393503984,0.303433880446,1.0,-0.0118,-0.0155085714286,0.591
0.462403812608,0.527918538869,-0.124090546495,-1.38690572949,0.0777885736367,1.90549070107,0.155248248929,-0.0074026506385,-0.0638861882376,5.83799659387e-06,-0.10168919188,-0.00703509272847,0.0395674667856,-0.0160736791297,0.574115438955,0.81875977149,0.00215551497759,0.0,0.818717824947,-0.574054512411,-0.011970246277,0.0,-0.00856353788165,0.00863722802323,-0.99992602932,0.0,0.658081772714,0.256137671881,0.303441854171,1.0,-0.01214,-0.0159554285714,0.608
0.462265390183,0.526822400411,-0.12409825968,-1.38857393133,0.077695230997,1.90612105171,0.155032429336,-0.00707138294489,-0.0704961635162,-0.000770738341912,-0.103586973244,-0.0108254848827,0.0410092111146,-0.00964203663437,0.574122658158,0.818754571262,0.00220733516751,0.0,0.818713271738,-0.574061489495,-0.0119470439521,0.0,-0.0085147146694,0.00866641008297,-0.999926193762,0.0,0.657887853555,0.255886128557,0.303474201034,1.0,-0.01246,-0.016376,0.624
0.46211040634,0.525663102764,-0.124098851569,-1.39038450072,0.0775788111556,1.90677666556,0.154774565739,-0.013068593204,-0.07016256138,7.71140735345e-05,-0.108025181827,-0.00276585209124,0.036516558929,-0.00864652470495,0.574105032382,0.818766929575,0.00220765234416,0.0,0.818725648008,-0.574043878726,-0.0119451032713,0.0,-0.00851313011851,0.00866537233168,-0.999926216247,0.0,0.657670600754,0.255609810787,0.303484889248,1.0,-0.0128,-0.0168228571429,0.641
0.461944725016,0.524412134327,-0.124107760899,-1.39235639248,0.0774565513906,1.90748356137,0.15451730319,-0.00878863773772,-0.0761855508655,-0.000921703664268,-0.113677616648,-0.00959960044988,0.0413556120718,-0.0141080031586,0.57410938897,0.818763915998,0.00219231768037,0.0,0.818722436966,-0.574048299714,-0.0119527279139,0.0,-0.00852813026977,0.00865723967176,-0.999926158871,0.0,0.657432444405,0.255306248279,0.303487677849,1.0,-0.01316,-0.017296,0.659
0.461790604396,0.523225333759,-0.12411139111,-1.39426479395,0.0773249906116,1.90818462816,0.154261670843,-0.00808168860663,-0.0736408472957,0.00119340086196,-0.11148440985,-0.00833604132885,0.0457628881659,-0.00852516256951,0.574095772451,0.818773538511,0.00216416007449,0.0,0.818731806446,-0.574034915586,-0.0119537317458,0.0,-0.00854526031701,0.00863461979072,-0.999926208211,0.0,0.657202062619,0.255018200581,0.303474556656,1.0,-0.0135,-0.0177428571429,0.676
0.461627348855,0.521997092218,-0.124113049734,-1.39620534149,0.0772141880843,1.90894263368,0.153996326705,-0.00733651976808,-0.0767070161995,0.000799202694726,-0.112039534641,-0.00703697885774,0.0417645307723,-0.0125539259438,0.574087745418,0.818779060187,0.00220410085521,0.0,0.81873782068,-0.574026698282,-0.0119363959931,0.0,-0.00850822216633,0.00865728607445,-0.999926328063,0.0,0.656976692766,0.254729220927,0.303479840754,1.0,-0.01384,-0.0181897142857,0.693
0.461463374566,0.520747634352,-0.124115286965,-1.39822516482,0.0770902060841,1.90971169132,0.153720219014,-0.010562694729,-0.0752628564452,-0.00065079013766,-0.115240341541,-0.00860889232294,0.0411215863692,-0.0188191029976,0.57407411909,0.818788628189,0.00219887263064,0.0,0.81874737599,-0.574013151269,-0.0119324507446,0.0,-0.00850813697614,0.00865059889709,-0.999926386662,0.0,0.656721679249,0.254408799252,0.303464631995,1.0,-0.0142,-0.0186628571429,0.711
0.461299092847,0.519512246859,-0.124121938891,-1.40016187065,0.0769642433425,1.91040951984,0.15346095292,-0.00839456271755,-0.0790043819868,-0.0033051959469,-0.122322661334,-0.0105442450465,0.0461064461098,-0.012050414599,0.574068144034,0.818792839759,0.00219053984641,0.0,0.818751482212,-0.574007214081,-0.0119363084785,0.0,-0.0085161422029,0.00864592866188,-0.999926358908,0.0,0.656500334193,0.254130600678,0.30346928061,1.0,-0.0145,-0.0190571428571,0.726
0.461113830088,0.518095650379,-0.12413007879,-1.40238137783,0.0768233237178,1.91120354811,0.153160904033,-0.0146215162506,-0.0780113654985,-0.00104340318614,-0.123625945077,-0.00912519699775,0.0504206354843,-0.0200384916936,0.574059598596,0.818798863119,0.00217851230938,0.0,0.818757362821,-0.573998732859,-0.0119407873945,0.0,-0.00852680400563,0.008638562931,-0.999926331708,0.0,0.656227787621,0.25379055361,0.303476221574,1.0,-0.01486,-0.0195302857143,0.744
0.460933869702,0.516732423929,-0.12413364839,-1.40451064983,0.0766885204225,1.91196247692,0.152871342215,-0.0106155095883,-0.0780884010877,-0.000326040089418,-0.124957529967,-0.00646312825125,0.0486400656334,-0.00979236140412,0.574048554453,0.818806629415,0.00216971359857,0.0,0.818764999116,-0.573987710507,-0.0119470210166,0.0,-0.00853707543441,0.00863482194429,-0.999926276379,0.0,0.655964646824,0.253465329515,0.303485030488,1.0,-0.0152,-0.0199771428571,0.761
0.460759089448,0.515439018664,-0.124134420868,-1.40656816079,0.0765598374717,1.91275071454,0.152576840938,-0.0116611389782,-0.0837228996517,0.000755646775791,-0.12920185772,-0.00854353168269,0.0489007351877,-0.0149878106106,0.574025215793,0.818822947231,0.00218623465543,0.0,0.818781564944,-0.573964340574,-0.0119344693432,0.0,-0.00851756061836,0.00864090133676,-0.999926390283,0.0,0.655719504767,0.25315570769,0.303481116558,1.0,-0.01552,-0.0203977142857,0.777
0.460572739279,0.514061759387,-0.124139205681,-1.40880195454,0.0764284000483,1.91355201601,0.152273769648,-0.0124467712281,-0.0830316460122,-0.000153597318197,-0.134071105057,-0.00638026339853,0.0482730024183,-0.0313694173401,0.574015184159,0.818830101612,0.00214008161296,0.0,0.818788010434,-0.573954390993,-0.011970711338,0.0,-0.00857383461529,0.00862380927429,-0.999926056903,0.0,0.655440505842,0.252816881161,0.303452989811,1.0,-0.01586,-0.0208445714286,0.794
0.460382874605,0.512659818582,-0.12413766095,-1.41107105201,0.0762946550844,1.91433253095,0.151959014957,-0.00564514075772,-0.0843699970746,0.000522811393197,-0.135277522683,-0.0035844993881,0.0348640805425,-0.0213368647367,0.573994582354,0.818844722777,0.00207034048494,0.0,0.818801529934,-0.573933892083,-0.0120286740078,0.0,-0.00866154442243,0.00859975724192,-0.999925508137,0.0,0.655148302822,0.252473905988,0.30342291351,1.0,-0.0162,-0.0212914285714,0.811
0.460187108258,0.511303321262,-0.12414083089,-1.41323097123,0.0761516630241,1.91515677086,0.151656055794,-0.0138778525251,-0.0847842193569,0.00115795536885,-0.135041532081,-0.013483363385,0.050822553116,-0.01996697068,0.573983622938,0.818852382741,0.00207912957144,0.0,0.81880941374,-0.573923005355,-0.0120114443834,0.0,-0.00864250595641,0.00859694874731,-0.999925697021,0.0,0.654891864969,0.252138143466,0.303416434721,1.0,-0.01652,-0.021712,0.827
0.459988670606,0.509838433749,-0.124144179539,-1.41556669027,0.0760085644535,1.91604870767,0.151326526245,-0.0107819585609,-0.0844889239465,-0.00112428173203,-0.135689545278,-0.00682720274443,0.0575654161893,-0.0229211080615,0.573962153451,0.818867394128,0.00209383382705,0.0,0.818824628524,-0.573901488236,-0.0120023508045,0.0,-0.00862684547073,0.00860354346472,-0.999925775534,0.0,0.654609727588,0.251785710273,0.303407624256,1.0,-0.01686,-0.0221588571429,0.844
0.459787722198,0.508422686334,-0.124148685636,-1.41780107813,0.0758713293579,1.91683775466,0.15101931853,-0.00996326862102,-0.085465183554,-2.38430726712e-05,-0.136929659205,-0.0079268133184,0.046069719037,-0.0214279755114,0.573957283381,0.8188708725,0.00206831466506,0.0,0.818827698829,-0.573896651687,-0.0120241304409,0.0,-0.00865937804418,0.00859509606279,-0.999925566978,0.0,0.654329591602,0.251436465214,0.303403266944,1.0,-0.01718,-0.0225794285714,0.86
0.459591655606,0.506978740796,-0.124149372937,-1.42004616085,0.0757180061686,1.91765248882,0.150700568685,-0.0128762890937,-0.089379567834,0.000515068101866,-0.140595855855,-0.0129356977374,0.0445196506508,-0.020310128091,0.573931990277,0.818888591709,0.00207166746335,0.0,0.818845542647,-0.573871427882,-0.0120128451495,0.0,-0.00864847759156,0.00859109719897,-0.999925695682,0.0,0.654050681844,0.251090975987,0.30341512714,1.0,-0.0175,-0.023,0.876
0.459356519991,0.505301645135,-0.124158914911,-1.42264776176,0.0755641002219,1.91863536141,0.150354585754,-0.010029474634,-0.0913777846067,-0.000182590453714,-0.145143212232,-0.00499692222406,0.0509180277103,-0.0258826456771,0.573941112046,0.818882072059,0.00212105262907,0.0,0.818839650338,-0.573880324489,-0.0119894578442,0.0,-0.00860088730506,0.00861821068836,-0.999925872844,0.0,0.653736937022,0.250686822691,0.303434646802,1.0,-0.01786,-0.0234731428571,0.894
0.459100063679,0.503454071578,-0.124159665933,-1.42541082378,0.0753912866157,1.91969972412,0.149969166095,-0.020098274946,-0.0899332843564,0.00113472800532,-0.143107986657,-0.00632352793831,0.0582408539778,-0.0180890979929,0.573931697011,0.818888338923,0.00224553849098,0.0,0.818847606026,-0.573870468317,-0.0119176591811,0.0,-0.00847074699339,0.00867884327043,-0.999926459358,0.0,0.653408355192,0.250259528776,0.303502393872,1.0,-0.01824,-0.0239725714286,0.913
0.458885432998,0.501853551432,-0.124165013314,-1.42778740092,0.0752334948483,1.92056255699,0.149638809134,-0.0150123726295,-0.104158459337,0.000973591190232,-0.150208658858,-0.0163798310278,0.0524473102717,-0.0307359966028,0.573919587206,0.818896635264,0.00231410376221,0.0,0.818856874912,-0.573858169928,-0.0118729152816,0.0,-0.00839488465242,0.00870918609113,-0.999926835318,0.0,0.653114482586,0.249888445666,0.303563511376,1.0,-0.01856,-0.0243931428571,0.929
0.458635810437,0.500053811271,-0.124163805046,-1.43051722765,0.0750562871863,1.92152792249,0.149258082087,-0.0108175177227,-0.0945109018392,0.00149825878741,-0.153544057828,-0.00603880902958,0.057086027032,-0.0149451078697,0.573902428118,0.818908580796,0.00234226391049,0.0,0.818869158682,-0.573840873419,-0.0118616969055,0.0,-0.00836971975354,0.00872563232891,-0.999926902894,0.0,0.65276844072,0.249463043855,0.303603610421,1.0,-0.01892,-0.0248662857143,0.947
0.458415711557,0.49856782355,-0.124168899634,-1.43283525054,0.0749122100821,1.9223922614,0.148925107049,-0.019001227766,-0.0905251094196,0.00145155214679,-0.15187880721,-0.0123564301681,0.0592567219173,-0.0134923592046,0.57389276917,0.818915277829,0.00236730513656,0.0,0.81887618503,-0.573831122032,-0.0118483703546,0.0,-0.00834453879626,0.00873839211309,-0.999927001923,0.0,0.652484460393,0.249096440068,0.303611770105,1.0,-0.01922,-0.0252605714286,0.962
0.458165054863,0.49689785905,-0.1241664203,-1.43548771877,0.0747487828239,1.92336278142,0.148518652191,-0.014016920897,-0.095141227738,-4.24540336131e-05,-0.153243515413,-0.00902284071093,0.0565357744706,-0.021153850015,0.573853801128,0.81894261348,0.00235746862109,0.0,0.81890330587,-0.573792106309,-0.0118634427563,0.0,-0.00836294294267,0.0087385888124,-0.99992684645,0.0,0.652151598572,0.248681318103,0.303597479453,1.0,-0.01956,-0.0257074285714,0.979
0.457897775339,0.495228834311,-0.124166429177,-1.43821107812,0.0745821664511,1.92429037322,0.148136191748,-0.0185581026393,-0.0925684731776,0.000190964026147,-0.163151827029,-0.00606600001204,0.0568083469188,-0.0251915668588,0.573851728146,0.818944363386,0.00225181779021,0.0,0.818903473317,-0.573790239395,-0.0119419205237,0.0,-0.0084878608496,0.00869708058535,-0.999926155777,0.0,0.651796540436,0.248242328049,0.303544599789,1.0,-0.0199,-0.0261542857143,0.996
0.457645556773,0.493685254244,-0.124187223073,-1.44070949442,0.074428034092,1.92518069362,0.147787225613,-0.0187680842935,-0.111243076565,-0.00286536499954,-0.171191115535,-0.0145170579118,0.0671958166912,-0.0292040068063,0.573871500301,0.818930670444,0.00219204210354,0.0,0.818888979557,-0.573810231008,-0.011975176488,0.0,-0.00854918772258,0.00866741849354,-0.999925890877,0.0,0.651484338619,0.24782552716,0.303508214598,1.0,-0.0247857142857,-0.0325755102041,1.011
0.457342020131,0.491292702266,-0.12425867355,-1.44436406307,0.0742192070714,1.92657324021,0.147244385173,-0.0199692314123,-0.146222183261,-0.00505770964065,-0.233127454043,-0.0134749926022,0.090385337288,-0.0295383337849,0.573854341188,0.818942410764,0.00229561596397,0.0,0.818902246451,-0.57379283616,-0.0119012112835,0.0,-0.00842936095612,0.00870961451737,-0.999926541546,0.0,0.651039457305,0.247244894068,0.303556526957,1.0,-0.0329554285714,-0.0433128489796,1.028
0.456904704998,0.488297399332,-0.124268859135,-1.44918440359,0.0739580202566,1.92832881832,0.14652913956,-0.0255477480357,-0.190349956439,-0.0032144086136,-0.307880673314,-0.0124255600676,0.113361190105,-0.0476244989515,0.573804503902,0.81897744715,0.00225372183014,0.0,0.81893628506,-0.573742709379,-0.0119754477107,0.0,-0.00851472906051,0.00871738825251,-0.999925750509,0.0,0.650418174797,0.246499428222,0.303497478518,1.0,-0.0411251428571,-0.0540501877551,1.045
0.456294088598,0.484277528968,-0.124359231566,-1.45543915261,0.0735873047893,1.93067974305,0.145584975585,-0.0374102095483,-0.235843526519,-0.00317888161613,-0.366941071762,-0.0235712370837,0.135331260003,-0.0587626948731,0.573806438766,0.818975848514,0.00234035946463,0.0,0.818936000477,-0.573744485987,-0.0119096105498,0.0,-0.00841107700677,0.0087505843122,-0.999926337816,0.0,0.649653676851,0.245460891359,0.303518578549,1.0,-0.0497754285714,-0.0654191346939,1.063
0.455637583915,0.48009443698,-0.12446411698,-1.46205724825,0.0731863272972,1.9329733403,0.144581524389,-0.0458757731946,-0.276161660015,-0.00901471822298,-0.43386753238,-0.0219600545227,0.151048495196,-0.0659418654433,0.57381357693,0.818971212192,0.00220894397516,0.0,0.818929612655,-0.573752114405,-0.011981136534,0.0,-0.00854498415172,0.00868407563955,-0.999925782284,0.0,0.648801573872,0.244335679916,0.303471710362,1.0,-0.0574645714286,-0.0755248653061,1.079
0.454761890564,0.474586091975,-0.124572092125,-1.47055900339,0.0726721302954,1.93603544299,0.143351846647,-0.0480198084559,-0.322745619556,-0.00757594091055,-0.494287389759,-0.0202399647761,0.178320022156,-0.0739770286495,0.573874941785,0.818928079852,0.00225790220228,0.0,0.818887147931,-0.57381330125,-0.0119532908902,0.0,-0.00849343476495,0.00870882888042,-0.999926006195,0.0,0.647724188093,0.242895780212,0.303507503269,1.0,-0.0661148571429,-0.0868938122449,1.097
0.453860422551,0.469123891679,-0.12463427336,-1.47896104057,0.0721757267801,1.93910394624,0.142077920706,-0.0565106741457,-0.360240852222,-0.00529827126762,-0.533715969206,-0.0354598899765,0.209008443828,-0.0849421312095,0.573883554636,0.818921714028,0.0023746393863,0.0,0.818882080588,-0.573821214183,-0.0119205346264,0.0,-0.00839952790944,0.00878571757816,-0.99992612682,0.0,0.646654076755,0.241482100836,0.303550917635,1.0,-0.073804,-0.0969995428571,1.113
0.452840376205,0.463045028389,-0.124677703744,-1.48822668297,0.0715793736218,1.94249148236,0.140570232137,-0.0673726689611,-0.385122074831,-0.00422228678498,-0.607385633218,-0.0415681703945,0.213029749361,-0.100188501707,0.573777545126,0.818995541473,0.00252560044284,0.0,0.818957908816,-0.573714670648,-0.0118392218187,0.0,-0.0082474546468,0.00886161070196,-0.999926722989,0.0,0.645380517609,0.239814149134,0.303625098794,1.0,-0.0819737142857,-0.107736881633,1.13
0.451457790546,0.455135020731,-0.124781448223,-1.50057359433,0.0707721211556,1.94665060131,0.138726503459,-0.0734860637697,-0.430499407526,-0.0108218620212,-0.676654646009,-0.0436889724572,0.219334616256,-0.102576963073,0.573840597772,0.818952076296,0.00228297631142,0.0,0.81891099934,-0.573778374704,-0.0119957818937,0.0,-0.00851421197616,0.00875338959517,-0.999925440403,0.0,0.643796328265,0.237764850112,0.303557540997,1.0,-0.090624,-0.119105828571,1.148
0.450187585684,0.447688702707,-0.12488916446,-1.51155653967,0.0700045067462,1.95074491437,0.136967189275,-0.0858532050183,-0.469722560876,-0.00910497889279,-0.690686038802,-0.0493029282991,0.265052371203,-0.107729577887,0.573808538726,0.818973255474,0.00270455264678,0.0,0.818938617172,-0.573745741851,-0.01166670111,0.0,-0.0080031447093,0.0089094868555,-0.999928282788,0.0,0.642394781513,0.23584243187,0.303796430627,1.0,-0.0983131428571,-0.129211559184,1.164
0.448771258918,0.439915801275,-0.124922923449,-1.52348898094,0.0692347820905,1.95490829127,0.135103989623,-0.0952379997363,-0.491164375624,0.00041122139948,-0.78070274773,-0.0520629732927,0.256362379854,-0.117277628312,0.573789960714,0.818986242496,0.00271339049305,0.0,0.818951259221,-0.573726623578,-0.0117193566477,0.0,-0.00804140232125,0.00894675600429,-0.999927643085,0.0,0.64076917834,0.233771830394,0.303798436514,1.0,-0.106002285714,-0.139317289796,1.18
0.447133822707,0.430957620849,-0.12497881558,-1.53692382758,0.0683185719976,1.95967700938,0.132892330234,-0.0989206882924,-0.53935672049,0.000351562180161,-0.79772435205,-0.0543715315153,0.289470975847,-0.127684931053,0.57369575943,0.819051447896,0.00294078444612,0.0,0.819019528174,-0.573631787411,-0.0115901614456,0.0,-0.00780616136793,0.00905796075578,-0.99992850604,0.0,0.63894652252,0.231408609371,0.303930594989,1.0,-0.114172,-0.150054628571,1.197
0.44519708625,0.421006032125,-0.125034962699,-1.5521581123,0.067229776291,1.96487216292,0.130373889427,-0.112384703504,-0.565000195893,-0.0065760459196,-0.864846103741,-0.0643972497406,0.286523687167,-0.151236356743,0.573607035657,0.819113985074,0.00282754346817,0.0,0.819080589556,-0.573543444764,-0.0116469601719,0.0,-0.00791862139742,0.00899693748844,-0.999928172696,0.0,0.636811767699,0.228666789552,0.303899167321,1.0,-0.122822285714,-0.16142357551,1.215
0.443333192421,0.411541798482,-0.125157920519,-1.56632691136,0.0662120779304,1.96986615309,0.128055463843,-0.119417682509,-0.604732258972,-0.00542895813615,-0.904764308561,-0.0640205831086,0.309723906413,-0.160536777252,0.57363093316,0.819096566745,0.00301890204112,0.0,0.819066224901,-0.573567383789,-0.0114770371396,0.0,-0.00766940563167,0.009056438587,-0.999929578089,0.0,0.634856474152,0.226055535758,0.304004380184,1.0,-0.130511428571,-0.171529306122,1.231
0.441274090049,0.401758773364,-0.125221657239,-1.58137098436,0.0652192200331,1.97484706925,0.125535460648,-0.134859316615,-0.62456613792,-0.00777994691975,-0.94890416269,-0.063777268011,0.310427280687,-0.165810718641,0.573634284709,0.819094984707,0.0028036288329,0.0,0.819060797786,-0.573570228317,-0.0117196254435,0.0,-0.00799156225595,0.00901929507629,-0.999927390988,0.0,0.632668495634,0.22327164422,0.303884908727,1.0,-0.138200571429,-0.181635036735,1.247
0.43900854849,0.391311585179,-0.125354894908,-1.5968257556,0.0640824175932,1.98023438288,0.122886900576,-0.144755029952,-0.656817100754,-0.00317151951249,-0.976355413223,-0.0803737986894,0.33326646297,-0.173864531242,0.573707296716,0.819042900117,0.00306795750358,0.0,0.819012782972,-0.573643099476,-0.0115066351674,0.0,-0.00766466275518,0.00911431244799,-0.999929088613,0.0,0.630495869101,0.220291787771,0.304026792136,1.0,-0.145889714286,-0.191740767347,1.263
0.436465608548,0.379831312539,-0.1254842145,-1.61406559515,0.0627637448231,1.98593327333,0.119823797973,-0.158507704475,-0.706677176862,-0.00926464886697,-1.01427454602,-0.0853603238176,0.353198741415,-0.17274289492,0.573657668733,0.819078095246,0.00294955808099,0.0,0.819046745474,-0.573594203808,-0.0115267075525,0.0,-0.00774957345085,0.00902838395395,-0.999929213692,0.0,0.627954767952,0.216955384122,0.304010542834,1.0,-0.154059428571,-0.202478106122,1.28
0.433684705153,0.367857369503,-0.12561445752,-1.63197268779,0.0614396523088,1.99183921926,0.116673315662,-0.167426900072,-0.706922717595,-0.0081623356131,-1.05624441686,-0.0878701116481,0.341125186435,-0.17996812792,0.573732916212,0.819025595321,0.00289170622008,0.0,0.818993328069,-0.573669433795,-0.0115782644564,0.0,-0.00782416210858,0.00901129302753,-0.999928787007,0.0,0.625283048533,0.213429079773,0.303990044678,1.0,-0.162229142857,-0.213215444898,1.297
0.430469991815,0.354671234182,-0.125790942373,-1.65145684452,0.0599135596678,1.99829009349,0.113060601909,-0.18321601453,-0.726208907325,-0.00386455644796,-1.09431034073,-0.0843703339105,0.353982298167,-0.20903598763,0.573786447921,0.818987919141,0.00294064365397,0.0,0.818956846752,-0.573723452349,-0.0114817369317,0.0,-0.00771643617386,0.00899649851477,-0.999929757347,0.0,0.622368278937,0.209466535278,0.304032558553,1.0,-0.170879428571,-0.224584391837,1.315
0.427192763065,0.341622184224,-0.12595104874,-1.6705274466,0.0585240660383,2.00447415219,0.109481492878,-0.191434501435,-0.758567178285,-0.00900915126561,-1.13198271108,-0.0838508987277,0.368584190088,-0.210752497956,0.573906367835,0.818903378242,0.00307976664782,0.0,0.818873525929,-0.573842241586,-0.0114881332212,0.0,-0.00764051801143,0.0091152276805,-0.999929265053,0.0,0.619443780064,0.205548247931,0.304112495659,1.0,-0.179049142857,-0.235321730612,1.332
0.423771635893,0.328291410058,-0.126052914854,-1.69013762555,0.0569619202398,2.01075744323,0.105676079724,-0.205936000487,-0.803617741983,-0.00615101534375,-1.15166217592,-0.0998255064504,0.382642215335,-0.223348641656,0.573843454259,0.818947636189,0.00303415328123,0.0,0.81891709099,-0.573779356434,-0.0115236763648,0.0,-0.00769650118364,0.00909768138819,-0.999928995511,0.0,0.616351386674,0.201526367688,0.304084312876,1.0,-0.187218857143,-0.246059069388,1.349
0.420127916124,0.314446019307,-0.126098449936,-1.71037649193,0.0552489609228,2.01712196817,0.10173546976,-0.215997397655,-0.802376520381,-0.00255769620209,-1.20460766032,-0.0937490170191,0.36771107439,-0.23688229128,0.573743208808,0.819018246153,0.002930821847,0.0,0.818986540247,-0.573679660959,-0.0115516404787,0.0,-0.00777980122683,0.00902815273974,-0.999928981054,0.0,0.61307762292,0.197351073429,0.304051115609,1.0,-0.195388571429,-0.256796408163,1.366
0.416207121667,0.300118652313,-0.126214311023,-1.73096960314,0.0535186870107,2.02357509635,0.0974279463696,-0.23497287567,-0.860047155597,-0.00803878549677,-1.23118086794,-0.0972748233696,0.38077204358,-0.258241147167,0.573593587882,0.819122706026,0.00302246815669,0.0,0.81909240187,-0.573530022334,-0.0114759566906,0.0,-0.00766688808058,0.00905839027666,-0.999929579717,0.0,0.609723784921,0.192968372037,0.304118051743,1.0,-0.203558285714,-0.267533746939,1.383
0.412492369737,0.287086928238,-0.126340594386,-1.74951119159,0.0520286959576,2.02924756223,0.0936204093938,-0.246904955749,-0.873062913251,-0.00461407048509,-1.24020420375,-0.0959271062228,0.386798710571,-0.2556869983,0.573678037211,0.819063067696,0.00315399103497,0.0,0.819033924041,-0.573613411323,-0.0114818344472,0.0,-0.00759532122169,0.00917027845926,-0.999929106031,0.0,0.606647145787,0.188932228082,0.304203685279,1.0,-0.210766857143,-0.277007869388,1.398
0.407739217838,0.271123206447,-0.126509697305,-1.77230160529,0.0500787827859,2.03609425972,0.0886912258044,-0.278125934486,-0.911918799188,-0.00833235103622,-1.27659701194,-0.112696610522,0.400375948284,-0.280185390322,0.573657976541,0.819077254274,0.00311839431084,0.0,0.819047424172,-0.573593191738,-0.0115288443114,0.0,-0.00765447177001,0.00916790283794,-0.999928676766,0.0,0.602790019381,0.183869289373,0.304201996986,1.0,-0.219417142857,-0.288376816327,1.416
0.402584617373,0.254721754427,-0.126735951654,-1.79547000686,0.0480088226792,2.04295461345,0.0836017377753,-0.298514586083,-0.936192558382,-0.0160954904506,-1.28931150496,-0.11225484887,0.391383851217,-0.285243933318,0.573800614808,0.818977364494,0.00311091527492,0.0,0.818947707076,-0.573736157431,-0.0114987665612,0.0,-0.0076325319072,0.00914585233966,-0.999929046404,0.0,0.598821091918,0.178534328343,0.304229703632,1.0,-0.228067428571,-0.299745763265,1.434
0.398065971721,0.240786884836,-0.126859672114,-1.81522663435,0.0462440141827,2.04859265287,0.0790808278305,-0.299842917707,-0.928114302363,-0.0116810354806,-1.31537871285,-0.114547850732,0.366755671127,-0.312513934335,0.573769593332,0.818999769178,0.00292895121531,0.0,0.818967132119,-0.573704998505,-0.0116686803152,0.0,-0.00787644417809,0.00909402382421,-0.99992762756,0.0,0.595085380759,0.173685863617,0.304148900198,1.0,-0.235756571429,-0.309851493878,1.45
0.392109207403,0.222607601919,-0.126998628873,-1.84045906096,0.0439493751175,2.05587275048,0.0731213730723,-0.324018712335,-0.945521024817,-0.00328396767002,-1.34933221771,-0.134758380823,0.367972274466,-0.315988174835,0.573676499666,0.819064487552,0.0030636357148,0.0,0.819033388852,-0.573611223034,-0.0116283987312,0.0,-0.00776722216162,0.00918033577244,-0.999927693233,0.0,0.590788807171,0.168147077511,0.304198240174,1.0,-0.244406857143,-0.321220440816,1.468
0.387408985265,0.208823895179,-0.127145593446,-1.8592277402,0.0421508493243,2.06115017727,0.0685179539102,-0.342273295131,-0.978972666971,-0.00930755864862,-1.33590085244,-0.122890798227,0.36773686876,-0.326745908428,0.573639612582,0.819089646412,0.00323927745657,0.0,0.819061214912,-0.573574256789,-0.0114910868575,0.0,-0.00755440955708,0.00924508713865,-0.99992872709,0.0,0.587372466988,0.163652580468,0.304325926679,1.0,-0.251134857143,-0.330062955102,1.482
0.38169798966,0.192892686633,-0.127329673031,-1.88105278485,0.0400482065241,2.06707785891,0.062985525916,-0.364949814728,-1.00047760473,-0.0142736308388,-1.36345014823,-0.128907969985,0.374440641251,-0.34819817639,0.573615656471,0.819106535094,0.00321087511473,0.0,0.819077564748,-0.573550182022,-0.0115272950045,0.0,-0.00760063099934,0.0092423706053,-0.999928401934,0.0,0.583307159832,0.158320190846,0.304331091834,1.0,-0.258824,-0.340168685714,1.498
0.374733938215,0.174531964541,-0.127637432937,-1.90584953607,0.0376670029651,2.07373456271,0.0564401531207,-0.390210093452,-1.04104369513,-0.0137120968628,-1.38234052075,-0.13489692115,0.379403868136,-0.362693284601,0.573793733115,0.818981229376,0.00335330720089,0.0,0.818953886222,-0.573727534826,-0.0114889044321,0.0,-0.00748545652037,0.00933864512525,-0.999928376259,0.0,0.578649636445,0.152010373691,0.304399345852,1.0,-0.267474285714,-0.351537632653,1.516
0.367881082793,0.156884542173,-0.12784064911,-1.92954027426,0.0352213312635,2.07983312729,0.0499841183476,-0.400053102929,-1.05984525766,-0.0101444066768,-1.39213582067,-0.148670279425,0.38184836942,-0.388119504331,0.573765005381,0.819001518758,0.00331327225817,0.0,0.818973785246,-0.573699089839,-0.0114908789481,0.0,-0.0075103706294,0.00930672652767,-0.99992848703,0.0,0.574050321038,0.145972007087,0.30441282722,1.0,-0.275644,-0.362274971429,1.533
0.360652198601,0.139000686578,-0.128048636816,-1.9534036502,0.0327357984298,2.08578920499,0.0432863822681,-0.438503714625,-1.09464176819,-0.0179228768109,-1.39969427119,-0.143328405782,0.364385374673,-0.409688491354,0.573782380782,0.818989673113,0.00323136818403,0.0,0.818960621344,-0.573716398037,-0.0115646968291,0.0,-0.00761762502336,0.00928216128578,-0.999927904037,0.0,0.569311122717,0.139782411207,0.304382549688,1.0,-0.283813714286,-0.373012310204,1.55
0.352981088843,0.120731672154,-0.12831866395,-1.97743573202,0.0302146326273,2.09163017733,0.0361356390426,-0.462681750094,-1.09423297738,-0.0299753479286,-1.39984008337,-0.145726423043,0.348749951831,-0.425136197219,0.573773382014,0.818995881033,0.0032557401429,0.0,0.818966773406,-0.573706869891,-0.0116016549452,0.0,-0.00763401410517,0.0093232432961,-0.999927396846,0.0,0.564453410627,0.133385424913,0.30439435181,1.0,-0.291983428571,-0.38374964898,1.567
0.345287056302,0.103208948522,-0.12865211124,-2.00028881576,0.0276801742354,2.09699844889,0.0291196803177,-0.483182290084,-1.08375056061,-0.0199057214105,-1.42102223453,-0.155563248101,0.31692150176,-0.442040264921,0.573867839916,0.818929907977,0.00320234792066,0.0,0.818900289873,-0.573801706801,-0.0116044568654,0.0,-0.00766587168203,0.00928200694263,-0.999927536754,0.0,0.559749585186,0.127108953184,0.304384576231,1.0,-0.299672571429,-0.393855379592,1.583
0.336292945572,0.0831887104826,-0.128883328718,-2.02610994337,0.0248823195962,2.10276812739,0.0208064548553,-0.507144019316,-1.10354108786,-0.0156486558985,-1.42761160238,-0.146202709895,0.299366660202,-0.47054062518,0.573750202997,0.819012405268,0.0031829986798,0.0,0.818981398085,-0.573682779416,-0.0117594682185,0.0,-0.0078052690964,0.00935399407975,-0.999925787531,0.0,0.55425865496,0.120054251273,0.304362678833,1.0,-0.308322857143,-0.405224326531,1.601
0.327804908128,0.0650776310916,-0.129164718165,-2.04906044022,0.0221694085554,2.10783175278,0.0130709365141,-0.549692654837,-1.10649967207,-0.0201368080358,-1.43308751449,-0.167592775017,0.30276089126,-0.492019349664,0.573668914343,0.8190693254,0.0031880726352,0.0,0.819038893044,-0.573602095612,-0.0116907866214,0.0,-0.00774702872116,0.00931797575088,-0.999926576741,0.0,0.549002642938,0.113144600345,0.304370855673,1.0,-0.30998,-0.407402285714,1.618
0.318880609511,0.0471612260641,-0.129486960588,-2.07154129045,0.0195301558736,2.11240862096,0.0051980957722,-0.560009725277,-1.11378795113,-0.0207757478311,-1.40505943983,-0.167960425948,0.280012443394,-0.487363774882,0.573854063198,0.81893942084,0.00323821670924,0.0,0.818909469857,-0.573786847393,-0.0116910580307,0.0,-0.00771637069991,0.00936094770987,-0.999926412433,0.0,0.544369135934,0.106936979734,0.304432159234,1.0,-0.30998,-0.407402285714,1.633
0.308639254237,0.0271196094161,-0.129691816545,-2.09629488388,0.0165962969874,2.11726530446,-0.00387409682325,-0.582374987939,-1.11120115885,-0.0138339619751,-1.35512522149,-0.169440683007,0.257500365504,-0.502593102605,0.573863279112,0.818932527235,0.00334658405212,0.0,0.818903482838,-0.573795090141,-0.0117058629267,0.0,-0.0076662060104,0.00945827632097,-0.999925882401,0.0,0.538775620401,0.0996400105565,0.304494193061,1.0,-0.30998,-0.407402285714,1.651
0.298634814198,0.00840095461429,-0.129942756045,-2.11907933382,0.0137195449873,2.12151929642,-0.0127049016127,-0.591461931715,-1.0766137651,-0.0145507279271,-1.33840408035,-0.165289090482,0.233455739117,-0.525606605584,0.573869367423,0.818927933902,0.00342565468727,0.0,0.81890034345,-0.573801454252,-0.0116131604953,0.0,-0.00754484115072,0.00946988919186,-0.999926695599,0.0,0.533527214615,0.0926907287126,0.30456993714,1.0,-0.30998,-0.407402285714,1.668
0.291345128162,-0.00469814596049,-0.130112867716,-2.13482463497,0.0118160738053,2.12428391409,-0.0191194867905,-0.604432834418,-1.09620563688,-0.013250451231,-1.28610086858,-0.155323448529,0.234781946306,-0.541618164392,0.573927214041,0.818886858054,0.00355156177928,0.0,0.818860339378,-0.573858184623,-0.0116307968565,0.0,-0.00748635803484,0.00958364843576,-0.999926051329,0.0,0.529826009787,0.0877802519137,0.304631403967,1.0,-0.30998,-0.407402285714,1.68
0.277792944732,-0.0285093081663,-0.130364384091,-2.16308849584,0.0080976916323,2.12908355244,-0.0310916461434,-0.628027448429,-1.09754376579,-0.0167977179819,-1.26314786001,-0.173830576393,0.22397210621,-0.551339779845,0.573796603572,0.818977554744,0.00373757345677,0.0,0.818954309974,-0.573728168798,-0.0114268719754,0.0,-0.0072141393882,0.0096177873924,-0.999927724567,0.0,0.523041234477,0.0788879107273,0.30475025774,1.0,-0.30998,-0.407402285714,1.702
0.267478899372,-0.0454494241528,-0.130654004643,-2.18329527296,0.00549806568439,2.13213831919,-0.0400846105769,-0.641449844408,-1.05904085103,-0.0149109627949,-1.24441396592,-0.152828312214,0.175944967618,-0.561667233903,0.573922608453,0.818889841676,0.00360743773885,0.0,0.818863679943,-0.573852930088,-0.0116548359113,0.0,-0.00747403191587,0.00964315922999,-0.999925571394,0.0,0.518040604603,0.0722948670811,0.304651171536,1.0,-0.30998,-0.407402285714,1.718
0.256380523419,-0.0634531627643,-0.130827741574,-2.20412900679,0.00269025542498,2.13520559044,-0.0498461990306,-0.661897696469,-1.04734603819,-0.013630455856,-1.23972779526,-0.168864725684,0.162291862487,-0.577871322943,0.573826008439,0.818956803611,0.00376998119742,0.0,0.818933078758,-0.573756277301,-0.0115366232068,0.0,-0.00728508594904,0.00970756365515,-0.999926342653,0.0,0.512795718914,0.0654491797024,0.304724330242,1.0,-0.30998,-0.407402285714,1.735
0.246256139849,-0.0791158002919,-0.131099321031,-2.22206783057,0.000202646667893,2.13755315716,-0.0587183783743,-0.677581849057,-1.04365477384,-0.0210759695095,-1.19803404183,-0.16462888512,0.137787549497,-0.608277220432,0.573855212175,0.818936144974,0.00381219301242,0.0,0.818912967058,-0.57378535299,-0.0115181587005,0.0,-0.00724539546638,0.00973179706297,-0.999926395476,0.0,0.508173878857,0.0593088359901,0.304761174736,1.0,-0.30998,-0.407402285714,1.75
0.234521414731,-0.0966565848634,-0.131311074589,-2.24209657826,-0.00257719547756,2.13993020523,-0.06901546725,-0.696871031497,-1.03566988914,-0.0090770542332,-1.14069118591,-0.168691252436,0.142765076633,-0.598203960347,0.573802154706,0.818973612936,0.00374906261602,0.0,0.818948892334,-0.573731529622,-0.0116443361155,0.0,-0.00738559078496,0.00975202358657,-0.999925172743,0.0,0.502876781829,0.0524181258677,0.30471700699,1.0,-0.30998,-0.407402285714,1.767
0.221780130722,-0.115035106383,-0.131591220376,-2.2628853883,-0.00558784175249,2.14206350627,-0.0801656731103,-0.717364403718,-1.03042418767,-0.0246032487175,-1.1378914612,-0.161199273485,0.109078191483,-0.624253853051,0.573773158802,0.81899485805,0.00354000388493,0.0,0.818966505341,-0.573702048407,-0.0118562086554,0.0,-0.00767941429708,0.00970210569774,-0.99992344494,0.0,0.497225740367,0.045100258584,0.304624080225,1.0,-0.30998,-0.407402285714,1.785
0.209331269402,-0.132290169033,-0.131875347335,-2.28190359134,-0.00834201224181,2.14386825221,-0.091037167588,-0.732498283749,-1.00592512908,-0.00896976469925,-1.11299294953,-0.16144425308,0.0964211909107,-0.638762068233,0.573826761926,0.818957130551,0.0035794576721,0.0,0.818928880167,-0.573754984109,-0.011893457862,0.0,-0.00768664843506,0.00975629351499,-0.999922862111,0.0,0.491642097224,0.0377495124916,0.30463449515,1.0,-0.30998,-0.407402285714,1.803
0.196619636891,-0.149365116398,-0.132177420574,-2.30046086909,-0.0110925752047,2.1454766245,-0.102274982233,-0.754336254263,-0.999429974288,-0.0281632690073,-1.08546820436,-0.157859444357,0.0924450615765,-0.668633743226,0.573774715008,0.81899295434,0.00372344733467,0.0,0.818966728879,-0.573702639744,-0.0118120718329,0.0,-0.00753799717229,0.00982703683434,-0.999923301031,0.0,0.486712342958,0.0312443958333,0.304682435116,1.0,-0.30998,-0.407402285714,1.819
0.182722399196,-0.167217232194,-0.132515133933,-2.31960500489,-0.0139612004064,2.14672416862,-0.114379746067,-0.773273392386,-0.995667997942,-0.0117903153981,-1.04090399111,-0.146343045797,0.0750418218642,-0.684515043665,0.573909449321,0.81889839043,0.00375726397112,0.0,0.818871900449,-0.57383631806,-0.0118927554343,0.0,-0.00758304975697,0.00990227326018,-0.999922218145,0.0,0.481125257223,0.0238838455125,0.304697102007,1.0,-0.30998,-0.407402285714,1.837
0.170164823553,-0.182870714827,-0.132801552521,-2.33627200162,-0.0165165403079,2.14759993595,-0.125563011458,-0.79988084376,-0.977166777241,-0.0330975608104,-1.05450192576,-0.161057595792,0.055685364113,-0.700599360346,0.573807256349,0.818970192912,0.00371518286779,0.0,0.818942306275,-0.573733192007,-0.0120195791823,0.0,-0.00771230184169,0.00993963354777,-0.999920858911,0.0,0.476130553718,0.017402632124,0.304661129533,1.0,-0.30998,-0.407402285714,1.853
0.157212058377,-0.198445310275,-0.133098769332,-2.35236260325,-0.0190863509829,2.1483611946,-0.136953862344,-0.799476568954,-0.955109038309,-0.00636980543858,-1.01450254103,-0.147256799961,0.0432849209197,-0.719244318881,0.57383960263,0.818946683561,0.00389702943382,0.0,0.818922061815,-0.573766064422,-0.0118282243541,0.0,-0.00745084531792,0.00997905906991,-0.999922448635,0.0,0.471226041645,0.010873071197,0.304760235375,1.0,-0.30998,-0.407402285714,1.869
0.143161231567,-0.214663470826,-0.133421188695,-2.36912050303,-0.0216775235527,2.14875746717,-0.149444737763,-0.839893854131,-0.938462497299,-0.0291447193343,-0.944468345634,-0.143110484055,0.0161748890197,-0.727520819519,0.573834530727,0.818950140286,0.00391739362093,0.0,0.818924517254,-0.573759229789,-0.0119886685336,0.0,-0.00757062678869,0.0100877558825,-0.999920458232,0.0,0.465937911381,0.00397103178161,0.304745154404,1.0,-0.30998,-0.407402285714,1.886
0.128811735159,-0.230715306331,-0.133723865875,-2.38543617521,-0.0244253883481,2.14903540067,-0.162195525621,-0.840189606683,-0.94676815869,-0.0149493377622,-0.948845855342,-0.158605772301,0.00518766624256,-0.751158914024,0.573752050504,0.819007940545,0.00391468608171,0.0,0.818982759183,-0.57367740829,-0.0119255305589,0.0,-0.0075214820692,0.0100485514858,-0.999921223857,0.0,0.460673485679,-0.00291781834224,0.304759251767,1.0,-0.30998,-0.407402285714,1.903
0.114899271169,-0.245680449639,-0.134074936257,-2.40030868318,-0.0268596947979,2.14915217959,-0.17456284713,-0.882391597282,-0.941271653235,-0.0346191178743,-0.909280382175,-0.151398670896,0.00480733331815,-0.773826747668,0.573812094941,0.818964822985,0.00412859710481,0.0,0.818942925398,-0.5737373955,-0.011774245045,0.0,-0.00727410200811,0.0101374847844,-0.999922156391,0.0,0.455757856163,-0.00945175238216,0.304837587281,1.0,-0.30998,-0.407402285714,1.919
0.0989204357019,-0.262172376695,-0.134397917489,-2.41675064833,-0.0296109053203,2.14901867637,-0.188889585236,-0.897841135566,-0.909121767529,-0.0244577405286,-0.895353026471,-0.153331567904,-0.0123814709136,-0.800236435205,0.573723003487,0.819027189015,0.00413833599404,0.0,0.819005074749,-0.573647807253,-0.011816415324,0.0,-0.00730415868607,0.0101688632524,-0.999921618671,0.0,0.450151310426,-0.0167471087443,0.304795135831,1.0,-0.30998,-0.407402285714,1.937
0.0833820631771,-0.277490646152,-0.13485041935,-2.43153534849,-0.0321884577466,2.14870920105,-0.202742019747,-0.92676428151,-0.889171882737,-0.0217882761388,-0.86733900556,-0.14729705496,-0.0340020210711,-0.834179727785,0.57385845825,0.818931274998,0.00433400806409,0.0,0.81891262775,-0.57378393454,-0.0116125568651,0.0,-0.00702323701924,0.0102133345497,-0.999923178019,0.0,0.444955091314,-0.0237410302808,0.304878889009,1.0,-0.30998,-0.407402285714,1.954
0.0685956780152,-0.291621102257,-0.135137846999,-2.44521868852,-0.0344497134562,2.14812443076,-0.216156687837,-0.934004577314,-0.864952676022,-0.0247859431689,-0.814553860753,-0.140209413137,-0.0475022821689,-0.844585980982,0.573758125411,0.819001278986,0.00438924199519,0.0,0.818982306069,-0.573681928155,-0.011737740685,0.0,-0.00709533242965,0.0103295344987,-0.999921475404,0.0,0.439980915019,-0.0301647723219,0.304845338411,1.0,-0.30998,-0.407402285714,1.97
0.0542493486172,-0.304704451832,-0.13552345316,-2.45748893986,-0.0367164231661,2.14755003419,-0.229038399044,-0.957261690787,-0.847789913186,-0.0171746998055,-0.793303100161,-0.153192094734,-0.043111994422,-0.862453001451,0.573831747745,0.818948858939,0.0045429751474,0.0,0.818933273107,-0.573757146618,-0.0114794514241,0.0,-0.00679465000534,0.0103078656393,-0.999923787414,0.0,0.435401109072,-0.0363491475485,0.304932269234,1.0,-0.30998,-0.407402285714,1.985
0.0378095784633,-0.319170140579,-0.135875391585,-2.4712128806,-0.0391407441337,2.14653847911,-0.243932046379,-0.981981748146,-0.863971174801,-0.0302840113541,-0.779021841068,-0.145167158936,-0.0670493535034,-0.879461230435,0.573804969558,0.818967949486,0.00448347260661,0.0,0.818950455496,-0.573728842198,-0.011666789378,0.0,-0.00698256346237,0.0103664032427,-0.999921887695,0.0,0.430086465332,-0.0432229182999,0.304862346876,1.0,-0.30998,-0.407402285714,2.002
0.0210085480863,-0.333367809633,-0.136258717346,-2.48426191625,-0.0414791622745,2.14553245741,-0.259305728928,-0.990637759831,-0.817211249789,-0.021740866675,-0.76388970354,-0.133935749225,-0.0632680869598,-0.917417979998,0.573744373215,0.81900932067,0.004676939262,0.0,0.81899486883,-0.573668487208,-0.011516011238,0.0,-0.00674883780574,0.0104378368678,-0.999922749391,0.0,0.424881540278,-0.0501138791796,0.304916843237,1.0,-0.30998,-0.407402285714,2.019
0.00373081265754,-0.347218060683,-0.136690147031,-2.4969998845,-0.0439082664482,2.14419303646,-0.275007714379,-1.02619305534,-0.790984714081,-0.0189639150855,-0.748708302276,-0.146507759254,-0.0824160948715,-0.93790275519,0.573791951008,0.818976421997,0.00460044279153,0.0,0.818960406943,-0.573715407835,-0.0116288251533,0.0,-0.00688452125206,0.0104403077816,-0.999921798613,0.0,0.419571837361,-0.0570738976787,0.304871985623,1.0,-0.30998,-0.407402285714,2.036
-0.0159131675893,-0.362369048104,-0.137175892838,-2.51045284824,-0.0464091373335,2.14266161787,-0.293059743772,-1.05550360978,-0.780644641341,-0.0331675190611,-0.702522384434,-0.137970707418,-0.0883912830068,-0.961134743319,0.573810720369,0.818961903612,0.0048378220562,0.0,0.818949617458,-0.573734502453,-0.0114451589081,0.0,-0.00659765072135,0.0105294901253,-0.999922797441,0.0,0.413749582933,-0.0648078680334,0.304964564678,1.0,-0.30998,-0.407402285714,2.055
-0.0348997072629,-0.376236223332,-0.137572004937,-2.52290813221,-0.0488203584279,2.14090211068,-0.31062207618,-1.06291360804,-0.765249718132,-0.0246961120691,-0.677373448557,-0.13521668649,-0.106223823136,-0.976825441956,0.573683324492,0.819051769479,0.00473170302644,0.0,0.819036955134,-0.573605626856,-0.0116532341506,0.0,-0.00683060208086,0.0105609090782,-0.999920901909,0.0,0.40811106599,-0.072081795836,0.304890986787,1.0,-0.30998,-0.407402285714,2.073
-0.0511461644442,-0.387548370713,-0.137993024732,-2.5325736896,-0.0507547393972,2.1395203126,-0.325533794296,-1.07464673529,-0.739764083127,-0.0223704772694,-0.643954552659,-0.126284984907,-0.0861125860638,-0.995825740894,0.573814823259,0.818958393207,0.00494425991053,0.0,0.818947801904,-0.57373883344,-0.0113576256336,0.0,-0.00646483339432,0.0105664681686,-0.999923274896,0.0,0.403539791635,-0.0782489525163,0.305012159745,1.0,-0.30998,-0.407402285714,2.088
-0.0676011848185,-0.398434483691,-0.138341373047,-2.54206886194,-0.0526035365345,2.13794465427,-0.340858824671,-1.11458047499,-0.712926598388,-0.0357359663346,-0.629670259395,-0.116664441203,-0.105447989239,-1.0372691591,0.573758083663,0.818998056025,0.00495908852236,0.0,0.818986986445,-0.573680970634,-0.0114545566188,0.0,-0.00653645073342,0.0106337781525,-0.999922095752,0.0,0.398878487596,-0.0843343628278,0.304983009868,1.0,-0.30998,-0.407402285714,2.103
-0.0864996927008,-0.410396205897,-0.138661999931,-2.55232407912,-0.0545987500766,2.13600869975,-0.358520032269,-1.11051032951,-0.695732793767,-0.0146517932351,-0.579147957037,-0.118830754329,-0.102362557968,-1.05568211118,0.573655331884,0.819069910166,0.00497889173311,0.0,0.819058223311,-0.57357676151,-0.0115789629777,0.0,-0.00662833118569,0.0107205424705,-0.999920564442,0.0,0.393609459755,-0.0911674714287,0.304972311472,1.0,-0.30998,-0.407402285714,2.12
-0.104736990626,-0.421311056846,-0.139054653655,-2.5614285099,-0.0565466734126,2.13435429797,-0.375544524588,-1.13602903541,-0.663444029427,-0.0180328745619,-0.564918207951,-0.126459655061,-0.10709375146,-1.07082546872,0.573636911236,0.819082213878,0.00507620698334,0.0,0.819073025077,-0.573560105099,-0.0113548374048,0.0,-0.00638915856001,0.0106715435265,-0.999922645414,0.0,0.388391720633,-0.0981220984468,0.30503593274,1.0,-0.30998,-0.407402285714,2.137
-0.124383194956,-0.432382089575,-0.139494183166,-2.57086130947,-0.058488370656,2.13224374914,-0.393968083838,-1.16606032913,-0.644501358365,-0.0254915418687,-0.547531570703,-0.117460984605,-0.116542755539,-1.09278513572,0.573660871083,0.819065862072,0.00500654344476,0.0,0.819053908472,-0.57358120388,-0.0116638103896,0.0,-0.00668189834271,0.0107919083823,-0.999919440229,0.0,0.383355866859,-0.104614586294,0.304953147751,1.0,-0.30998,-0.407402285714,2.153
-0.144274219981,-0.443054296612,-0.139865361471,-2.57953554624,-0.0602650110432,2.13030446772,-0.412781211465,-1.19302842712,-0.624264870173,-0.0287411026466,-0.480694704235,-0.103517030867,-0.111365364389,-1.11000809983,0.573601153107,0.819106583257,0.00518356257106,0.0,0.819097451897,-0.573521824017,-0.0115251278928,0.0,-0.00646754638954,0.0108568785713,-0.999920146327,0.0,0.378150687746,-0.11147948532,0.305027355409,1.0,-0.30998,-0.407402285714,2.17
-0.164651597819,-0.453144835968,-0.14029107017,-2.58776957053,-0.0621334446943,2.12835214544,-0.432011188733,-1.20102318775,-0.582718492319,-0.0260868781704,-0.479301090004,-0.104931309482,-0.11996814048,-1.14607087534,0.573611494855,0.819099292161,0.00519128617781,0.0,0.819090525463,-0.573532586732,-0.011481722639,0.0,-0.00642742284421,0.0108383900823,-0.999920605616,0.0,0.372890740009,-0.118438072747,0.305037937239,1.0,-0.30998,-0.407402285714,2.187
-0.185276963852,-0.462736311164,-0.140679396078,-2.5955810002,-0.0639040713303,2.12628372556,-0.451601826784,-1.21585621492,-0.547530490488,-0.0213041034608,-0.445602234701,-0.100576645303,-0.117028906008,-1.16478793351,0.573558127692,0.819136952852,0.00514524366966,0.0,0.81912678256,-0.573478017898,-0.0116199820324,0.0,-0.00656779898345,0.010879551496,-0.999919246427,0.0,0.367587858995,-0.125339077253,0.305007747753,1.0,-0.30998,-0.407402285714,2.204
-0.206197293152,-0.471695096584,-0.141074960871,-2.60276527023,-0.0654364678335,2.1244113484,-0.471504970045,-1.24073114921,-0.518775567744,-0.0113014105152,-0.401156986973,-0.0888396449662,-0.112204218157,-1.16414498454,0.573625207799,0.819089078208,0.005286760773,0.0,0.819080471713,-0.573544189256,-0.0116185511512,0.0,-0.00648456227916,0.0109951880177,-0.999918524827,0.0,0.362358065258,-0.13224472913,0.305009019611,1.0,-0.303682857143,-0.399126040816,2.221
-0.228351868222,-0.480337946826,-0.141345436387,-2.60951716763,-0.0668692966966,2.12250194651,-0.492477957219,-1.23910153056,-0.462145916554,-0.017352207332,-0.36646608872,-0.0737389489191,-0.107709860087,-1.17257236493,0.573794843153,0.818969184826,0.00544969518948,0.0,0.818963004886,-0.573713835798,-0.0115229398771,0.0,-0.00631048864331,0.0110751154578,-0.999918756475,0.0,0.356974649404,-0.139433458807,0.30506200741,1.0,-0.295032571429,-0.387757093878,2.239
-0.248930091615,-0.487784079545,-0.141354038362,-2.61549788421,-0.0680909398596,2.1206893819,-0.512156046537,-1.21562185051,-0.41886153975,0.00121110198575,-0.343460620418,-0.066192125281,-0.103366175099,-1.15821599137,0.573674992113,0.81905325164,0.0054333509902,0.0,0.819045654497,-0.573591962197,-0.0117142500405,0.0,-0.0064781928557,0.0111705498852,-0.99991662244,0.0,0.351955987705,-0.145906376904,0.305006382767,1.0,-0.286862857143,-0.377019755102,2.256
-0.269368989626,-0.494430283881,-0.141365146555,-2.62073749127,-0.0691508983295,2.11909907464,-0.531579689755,-1.19060016881,-0.375666223386,0.00362269195208,-0.296508614653,-0.0486628968902,-0.0808965983255,-1.14721455641,0.573759487177,0.81899362174,0.00549957497069,0.0,0.818986469236,-0.573675497057,-0.0117615553887,0.0,-0.00647779215773,0.0112525981231,-0.999915705069,0.0,0.347104811948,-0.152294494397,0.304989562193,1.0,-0.278693142857,-0.366282416327,2.273
-0.289494247728,-0.500430239765,-0.141246093236,-2.62538492556,-0.0701079118992,2.11760237289,-0.550693114217,-1.16919576839,-0.336713835922,0.0130580374066,-0.259168725218,-0.0528455907504,-0.0908655334916,-1.11666566207,0.573823126579,0.81894888938,0.00552113096296,0.0,0.818942033026,-0.573739078121,-0.0117543047875,0.0,-0.00645861061056,0.0112665950562,-0.999915671537,0.0,0.342396045717,-0.158489434606,0.304998534613,1.0,-0.270523428571,-0.355545077551,2.29
-0.309195395363,-0.505689897586,-0.141154111663,-2.62941937074,-0.0708634380643,2.11626692153,-0.569520573203,-1.1484030545,-0.291697162385,0.00882560582305,-0.226106748928,-0.0455348225491,-0.0720423054705,-1.09782927453,0.57391376919,0.81888456803,0.00563885433011,0.0,0.818879149691,-0.573829135565,-0.0117391770989,0.0,-0.00637741484682,0.0113550342347,-0.999915192293,0.0,0.337852695599,-0.164510186979,0.305013213256,1.0,-0.262353714286,-0.344807738776,2.307
-0.326220111512,-0.509927974602,-0.14093489192,-2.63256711906,-0.0713836408166,2.11523856123,-0.585854494871,-1.13231648286,-0.273787893981,0.0145525429696,-0.207418096528,-0.0382346971857,-0.061950823574,-1.08482076897,0.573914991897,0.818882743389,0.00577767743062,0.0,0.818879985935,-0.573831452472,-0.0115663170327,0.0,-0.00615616291592,0.0113695260578,-0.999916414274,0.0,0.33398770672,-0.169632141042,0.305073818728,1.0,-0.255145142857,-0.335333616327,2.322
-0.346200807766,-0.51426236784,-0.140689772788,-2.63595729452,-0.0719608346664,2.11395974465,-0.605098774228,-1.08390517294,-0.223696103751,0.0137046211892,-0.184272264652,-0.0167059911502,-0.0680418367714,-1.05810143701,0.573897211724,0.818894845616,0.00582830164974,0.0,0.818891495699,-0.573811204436,-0.0117544390252,0.0,-0.00628142567834,0.0115188082101,-0.99991392667,0.0,0.329413775664,-0.175580307121,0.305033627525,1.0,-0.246494857143,-0.323964669388,2.34
-0.362528385901,-0.517397328201,-0.140461513044,-2.63845968199,-0.0723788837878,2.11308017539,-0.620764628872,-1.07371798058,-0.196804323631,0.0228874570545,-0.159413194811,-0.026066989731,-0.0534778304335,-1.04549221109,0.573950940656,0.81885692297,0.00586552013718,0.0,0.818853216631,-0.573863246896,-0.0118798306746,0.0,-0.00636199764914,0.0116216637751,-0.999912227106,0.0,0.325704992543,-0.180404194344,0.304983414441,1.0,-0.239286285714,-0.314490546939,2.355
-0.380488840654,-0.520398489077,-0.140143418632,-2.64080957001,-0.0727149344475,2.11224295116,-0.638096792904,-1.05507543407,-0.166601034218,0.00979904089789,-0.127797934031,-0.0114661889284,-0.0538590883666,-1.01161513592,0.57395730835,0.818851896193,0.00594366849537,0.0,0.818848757761,-0.573868485014,-0.0119340153287,0.0,-0.00636142952345,0.0117168064647,-0.999911120381,0.0,0.321691263776,-0.185678401244,0.304956465568,1.0,-0.231116571429,-0.303753208163,2.372
-0.399934353857,-0.523233899739,-0.139702406044,-2.64294975061,-0.0730499366549,2.11140233066,-0.656933013992,-1.00423293596,-0.144241167783,0.0309372059423,-0.105465837262,-0.0138618848554,-0.0427295832701,-0.980758545182,0.57387353897,0.818910447382,0.00596551251651,0.0,0.818907620907,-0.573784697093,-0.011923787292,0.0,-0.00634171629117,0.0117281754773,-0.999911112317,0.0,0.31738356992,-0.191346280827,0.304964301248,1.0,-0.221985714286,-0.291752653061,2.391
-0.415948007534,-0.525194882914,-0.139405682631,-2.644407364,-0.0732807170077,2.11079459626,-0.672332932673,-0.985649177073,-0.111794993884,0.0244556201971,-0.0893957301895,-0.0143808222444,-0.0401595073291,-0.956302943399,0.573980869361,0.81883488398,0.00601176232618,0.0,0.818832706588,-0.573891909918,-0.0119088728905,0.0,-0.00630142011011,0.0117583192158,-0.999911013058,0.0,0.313844818811,-0.196019775364,0.304976105008,1.0,-0.214296571429,-0.281646922449,2.407
-0.430410349118,-0.526683609542,-0.139036671989,-2.64553826121,-0.073382921797,2.11034138402,-0.686343481585,-0.96730433767,-0.0923698024871,0.0223963146289,-0.0698687414371,-0.00587984843259,-0.0296756040923,-0.930755940432,0.573979235542,0.818835641626,0.00606432769189,0.0,0.818834177709,-0.573890123424,-0.0118938031381,0.0,-0.00625893266022,0.0117927018579,-0.999910875001,0.0,0.310675572223,-0.200192438245,0.304977807658,1.0,-0.207088,-0.2721728,2.422
-0.446361854052,-0.528046742825,-0.13863902766,-2.64656856411,-0.0734923441115,2.10991545225,-0.701778853642,-0.919387928896,-0.0704147331911,0.0350402941134,-0.0506056310798,-0.00231938052836,-0.03075370376,-0.890805626713,0.574013227217,0.81881155393,0.00609926495113,0.0,0.818810689943,-0.573924245259,-0.0118643010412,0.0,-0.00621423038128,0.0118046363479,-0.999911012991,0.0,0.307180107951,-0.204788754607,0.304981762928,1.0,-0.198918285714,-0.261435461225,2.439
-0.462629604635,-0.529076943662,-0.138228011567,-2.64734518137,-0.0735159447454,2.10955412721,-0.717481579212,-0.898994883443,-0.0470180427016,0.0175174254432,-0.0386012871312,-0.000372546064022,-0.0216924343374,-0.849224603178,0.574129666821,0.818729417153,0.00616555482601,0.0,0.818729432678,-0.574040432587,-0.0118509376733,0.0,-0.00616355220197,0.0118521242928,-0.999910764906,0.0,0.303630461493,-0.209465121014,0.304984891304,1.0,-0.190268,-0.250066514286,2.457
-0.477267751297,-0.529714463936,-0.13770005929,-2.64783115838,-0.0735124806287,2.10930179555,-0.731779254755,-0.842449150363,-0.0303083236988,0.0323000340194,-0.0261186819494,0.00792842816566,-0.0113823647444,-0.82965341319,0.574002733608,0.818818631943,0.00613650502801,0.0,0.818818355051,-0.573913803827,-0.0118403593965,0.0,-0.00617340079701,0.0118213092101,-0.999911068931,0.0,0.300283314225,-0.213870444749,0.304984527469,1.0,-0.181617714286,-0.238697567347,2.475
-0.491500703123,-0.530069667307,-0.137298881029,-2.64812384662,-0.0735146077857,2.10909755642,-0.745505169589,-0.834483483508,-0.020096204042,0.0277749897863,-0.0112775007765,0.00228698742079,-0.00737037399145,-0.800600693123,0.574123091238,0.818734292139,0.0061304065272,0.0,0.818733806078,-0.574033912013,-0.0118646341987,0.0,-0.00619504091481,0.0118311593178,-0.999910818592,0.0,0.297365263454,-0.217703443603,0.304978496396,1.0,-0.173928571429,-0.228591836735,2.491
-0.503331529427,-0.530204383817,-0.136785349642,-2.64823484165,-0.0734662007311,2.10897342672,-0.757165762215,-0.785235916423,-0.00965975517659,0.0304371474361,-0.0118999644448,0.0102323687419,-0.00522251184726,-0.769753873915,0.573914580284,0.818880964484,0.00606361636333,0.0,0.818879655652,-0.573825794262,-0.0118665201459,0.0,-0.00623792808582,0.0117759677325,-0.999911203476,0.0,0.294819583083,-0.221038846212,0.304979988027,1.0,-0.16672,-0.219117714286,2.506
-0.516468426299,-0.530204956072,-0.136329289881,-2.64826391737,-0.0734294525339,2.10889184565,-0.769806311033,-0.762239467557,0.00563373267908,0.0312980513516,-0.000670293296489,-0.00171057806871,-0.00314193289779,-0.736912328611,0.574013651544,0.818811884857,0.00601431287337,0.0,0.818809937431,-0.573925043093,-0.0118776334604,0.0,-0.00627390345841,0.0117427289858,-0.999911369298,0.0,0.291956819156,-0.224762977267,0.304971874474,1.0,-0.158550285714,-0.20838037551,2.523
-0.528737224367,-0.530043817402,-0.13573372841,-2.6481861935,-0.0732788148992,2.10889526482,-0.781827051451,-0.71127641094,0.0099913602407,0.0319595246799,0.0021646314074,0.00960274133496,-0.000994050568386,-0.694950253345,0.573865816022,0.818915834175,0.00596897312688,0.0,0.818913448823,-0.573777696801,-0.0118602230906,0.0,-0.00628778189202,0.0116944741262,-0.999911847651,0.0,0.289318488375,-0.228185924211,0.304964241333,1.0,-0.150380571429,-0.197643036735,2.54
-0.540604177833,-0.529772946838,-0.135277072469,-2.64802660032,-0.073103848297,2.10888571437,-0.793288653409,-0.690723522289,0.0148776208925,0.0226201895717,0.011493207153,0.00419283916012,-0.00121838632095,-0.667208217189,0.573959755478,0.818849792245,0.00599697706084,0.0,0.818847527914,-0.573871055318,-0.0118947383166,0.0,-0.00629863371292,0.0117379369285,-0.999911270089,0.0,0.286724010238,-0.231508615763,0.304949039994,1.0,-0.142210857143,-0.186905697959,2.557
-0.552277701858,-0.529305029894,-0.134630272188,-2.64772482947,-0.0728191810061,2.10892570965,-0.80474461434,-0.635244700117,0.031006610745,0.0350629887775,0.0161467606029,0.0215316453518,0.00027392160179,-0.621940943415,0.573820624848,0.818947247413,0.00600361180466,0.0,0.818944831725,-0.573731484431,-0.01192867401,0.0,-0.00632461540162,0.0117617724837,-0.999910825998,0.0,0.284221877103,-0.234727374086,0.304935662851,1.0,-0.133560571429,-0.175536751021,2.575
-0.563439333544,-0.52870035358,-0.134091148342,-2.64731711909,-0.0725441087327,2.10899728833,-0.815528798805,-0.616253649092,0.0361956149141,0.0262144598266,0.0242318240481,0.0191703431921,0.00809400797279,-0.576507542242,0.57389015648,0.818898288033,0.0060356485013,0.0,0.818895992388,-0.573800319333,-0.0119705507814,0.0,-0.00633952855983,0.011812577059,-0.999910132662,0.0,0.281811626149,-0.237828027747,0.304920280221,1.0,-0.124910285714,-0.164167804082,2.593
-0.572752449396,-0.528043930477,-0.133584937687,-2.64686182299,-0.0722861958519,2.10913053738,-0.824554125625,-0.563019275236,0.0465621959581,0.0367988014388,0.0264872295654,0.0182147492431,0.0045576915118,-0.565484831882,0.573904614068,0.818888105042,0.00604253861982,0.0,0.818885910117,-0.573814766276,-0.0119677531836,0.0,-0.00633307477164,0.0118167260178,-0.999910124536,0.0,0.279825290231,-0.24041507801,0.304911859015,1.0,-0.117221142857,-0.154062073469,2.609
-0.580811573971,-0.527354244137,-0.133066495414,-2.64640553276,-0.0719828270069,2.10921957222,-0.83249515172,-0.53735234066,0.043249874823,0.0327419457169,0.0289980104321,0.0148268827964,0.0066187717991,-0.527208605244,0.573790801845,0.818967646783,0.00607092594879,0.0,0.818965272142,-0.57369983529,-0.0120469462743,0.0,-0.0063832929225,0.0118845332984,-0.99990900158,0.0,0.278118121519,-0.242623272987,0.304888102703,1.0,-0.110012571429,-0.144587951021,2.624
-0.589615411873,-0.52658148469,-0.132548110288,-2.64586112209,-0.0716963844451,2.10934559919,-0.840849601003,-0.503506299863,0.0444432793602,0.0324794666274,0.0364521095938,0.0221360311309,0.00783264252606,-0.473863980749,0.573945691069,0.81885903739,0.00608008950631,0.0,0.8188565566,-0.573854232899,-0.0120832942355,0.0,-0.00640555291333,0.0119141052008,-0.999908507309,0.0,0.276235291057,-0.245052031386,0.304876941312,1.0,-0.101842857143,-0.133850612245,2.641
-0.598144615696,-0.525673584937,-0.13196646476,-2.64521277917,-0.071338554137,2.10950071854,-0.849147333792,-0.444369670401,0.0491697525599,0.03843391732,0.0345571617827,0.0189153707883,0.00540297876149,-0.442590604352,0.573913336715,0.818881528227,0.00610504475168,0.0,0.818879109179,-0.573821285977,-0.0121195384178,0.0,-0.00642138514214,0.011955088513,-0.999907916596,0.0,0.274444997115,-0.247396344651,0.304867410608,1.0,-0.0931925714287,-0.122481665306,2.659
-0.605840370203,-0.524777193201,-0.131326288666,-2.64458723533,-0.0709655422312,2.10965771211,-0.856697981569,-0.426703244326,0.0456503349409,0.034331311384,0.0292224266492,0.0172821075053,0.0141845153395,-0.410496047003,0.573773779956,0.818979291789,0.00610867886297,0.0,0.818976581747,-0.573681113909,-0.0121690178814,0.0,-0.00646186436255,0.0119853590776,-0.999907293441,0.0,0.272851686805,-0.249480298925,0.304853031026,1.0,-0.0845422857144,-0.111112718367,2.677
-0.611890873426,-0.524096170831,-0.130820755928,-2.64406576575,-0.0706739937177,2.10979429878,-0.862412542315,-0.392475914442,0.0431879986185,0.0315710669616,0.0379307223878,0.0207008824904,0.00817604580156,-0.368458494942,0.573844491551,0.81892978764,0.00610322314106,0.0,0.818927184138,-0.573752164675,-0.0121436202431,0.0,-0.00644315890899,0.0119668753245,-0.999907635534,0.0,0.271598085667,-0.251120765093,0.304864837563,1.0,-0.0773337142858,-0.101638595918,2.692
-0.618477408168,-0.523240616684,-0.130253019846,-2.64342231701,-0.070299535707,2.10996441578,-0.868695941014,-0.354854207522,0.0471724880085,0.0286670694111,0.0336086751778,0.0190130706628,0.00677953251581,-0.33362193094,0.573886159404,0.818900401403,0.00612825647213,0.0,0.81889818942,-0.573793833568,-0.0121300793864,0.0,-0.00641709465328,0.0119799334525,-0.999907646781,0.0,0.270249712858,-0.252909654223,0.304872300521,1.0,-0.0686834285715,-0.0902696489797,2.71
-0.623957055158,-0.522504916374,-0.129672366161,-2.64287373554,-0.0699155719094,2.11011618058,-0.873963760551,-0.306139959379,0.0405169378361,0.0379856388862,0.0284052459632,0.0206627024513,0.0105741363549,-0.288609772503,0.573842429672,0.818930842574,0.00615531404236,0.0,0.818929048315,-0.573750114714,-0.0121147262546,0.0,-0.00638963386159,0.0119929403208,-0.999907666718,0.0,0.269152656213,-0.254365235464,0.304879107231,1.0,-0.0605137142858,-0.0795323102042,2.727
-0.628563839201,-0.521929635771,-0.12909046622,-2.64242331293,-0.069584832088,2.11023847067,-0.878389225715,-0.281243949551,0.0365141993088,0.0355865001316,0.031222040449,0.0158237132269,0.00800963426698,-0.265102395592,0.573744349669,0.81899967811,0.00613965628081,0.0,0.81899793979,-0.57365261252,-0.0120748361786,0.0,-0.00636737966987,0.0119564650747,-0.9999082455,0.0,0.268242737155,-0.25556098737,0.304897461921,1.0,-0.0528245714287,-0.069426579592,2.743
-0.632752808883,-0.521409831575,-0.128555487852,-2.6420074828,-0.0692622724389,2.11036668768,-0.88224961681,-0.249021723609,0.030756656043,0.0338660160913,0.0237080985811,0.0224666528671,0.00994963691544,-0.23435343676,0.573794440153,0.818964607235,0.00613672933536,0.0,0.818963239189,-0.573703473676,-0.012011829583,0.0,-0.00631672197641,0.0119183062296,-0.999909022362,0.0,0.267418291037,-0.256645907897,0.304919662479,1.0,-0.0451354285715,-0.0593208489797,2.759
-0.636324078323,-0.520871264915,-0.128064209207,-2.641628699,-0.0689215976143,2.11046550761,-0.885515740026,-0.207171589817,0.0312235709567,0.0252141135087,0.0198027786012,0.0161533398012,0.00154350645508,-0.187299991539,0.573862160386,0.81891688892,0.00617226212432,0.0,0.818915804504,-0.573770689234,-0.0120352902556,0.0,-0.00631456093504,0.0119613909639,-0.999908521539,0.0,0.266727212869,-0.257557399658,0.304914430065,1.0,-0.0374462857144,-0.0492151183675,2.775
-0.639531746752,-0.520404021091,-0.12754626007,-2.64130460423,-0.0685881216019,2.11054737478,-0.888455144251,-0.178610054396,0.0236591091676,0.0313305855159,0.0153393523513,0.0237800123646,0.00440064453302,-0.16184454665,0.573874606824,0.818908014778,0.00619240469314,0.0,0.818907008558,-0.57378269666,-0.012061312134,0.0,-0.00632413227078,0.0119929152625,-0.999908083443,0.0,0.266118463885,-0.258350052868,0.304909623413,1.0,-0.0292765714287,-0.038477779592,2.792
-0.642042571292,-0.520074195771,-0.127036975754,-2.64107612048,-0.0682830372555,2.11060553434,-0.890669998183,-0.144668932568,0.0215996529534,0.0343612895187,0.0124269927669,0.0184805190058,0.00670175810857,-0.120038236663,0.573898462771,0.818891266971,0.00619630612262,0.0,0.818890224314,-0.573806364965,-0.012074889199,0.0,-0.00633266334569,0.012004085976,-0.999907895406,0.0,0.265660807938,-0.258935563882,0.304909547497,1.0,-0.0215874285715,-0.0283720489797,2.808
-0.644309490987,-0.519738923722,-0.126493720051,-2.64086429274,-0.0679487210109,2.1106738686,-0.892597341633,-0.109774445703,0.0168380509791,0.021597989868,0.0134101727278,0.0238419756486,0.00219423910565,-0.103089451592,0.573945540296,0.818858195298,0.00620642152794,0.0,0.818857119734,-0.573853075504,-0.0121000866217,0.0,-0.00634680320792,0.0120271947707,-0.999907528062,0.0,0.265272831877,-0.259442207003,0.304901509269,1.0,-0.0196668965517,-0.0258479211823,2.827
-0.646077579378,-0.519467088043,-0.12610590799,-2.64067202431,-0.0677454278287,2.11070969472,-0.894315784029,-0.0997905759446,0.0164487246391,0.0130049149229,0.0125378286359,0.0167795623394,0.001044033073,-0.0906632528053,0.573808232732,0.818954582307,0.0061847449024,0.0,0.818953078511,-0.573715618804,-0.0121239778806,0.0,-0.00638082534295,0.0120220856614,-0.999907372972,0.0,0.264959898639,-0.259854958278,0.304901274621,1.0,-0.0193068965517,-0.0253747783251,2.845
-0.647466800605,-0.519248226838,-0.12589005664,-2.6405033535,-0.0676371534694,2.11075544573,-0.895652882845,-0.0919920005949,0.0131456888701,0.0117752642407,0.0126168145397,0.00279982430115,0.0103839508932,-0.0890140178989,0.573752934737,0.818993481249,0.00616396413627,0.0,0.818991769916,-0.573660544503,-0.0121164100139,0.0,-0.00638736077132,0.0120002927445,-0.999907593029,0.0,0.264696395778,-0.260210534653,0.304906464176,1.0,-0.0190068965517,-0.0249804926108,2.86
-0.649018444195,-0.518985596738,-0.125726830887,-2.64030483428,-0.0675700425547,2.11085116773,-0.897186835084,-0.0869625925817,0.0108072858032,0.00948469566725,0.0142179986672,0.00140059104508,0.00735003660296,-0.0818431566878,0.573690735469,0.819037317292,0.00612860670372,0.0,0.819035438939,-0.57359906516,-0.0120751443403,0.0,-0.0063747534842,0.0119471745393,-0.999908309566,0.0,0.264388752883,-0.260638379829,0.304912064076,1.0,-0.0186468965517,-0.0245073497537,2.878
-0.650205678282,-0.518775736153,-0.125660336001,-2.64014529179,-0.0675434813797,2.11087781222,-0.89835131061,-0.084707772218,0.0171876552275,0.00210703161244,0.0104965374225,0.000875539664938,0.000141620946689,-0.082835398718,0.573681957644,0.819043575926,0.00611384575901,0.0,0.819041409071,-0.57359017366,-0.0120925518084,0.0,-0.00639760819839,0.011945001618,-0.999908189558,0.0,0.264132133767,-0.260976030444,0.304911147131,1.0,-0.0183668965517,-0.0241393497537,2.892
-0.651636846572,-0.518566610434,-0.125629138669,-2.63995758198,-0.0674961392971,2.11090410704,-0.899835240663,-0.0894389166849,0.0120135567348,0.000588452364368,0.0107276719056,0.000335996156423,0.00462484216244,-0.0874145848801,0.573646527414,0.819068241298,0.00613388820285,0.0,0.819066408031,-0.573554799017,-0.012077195875,0.0,-0.00637404928999,0.0119523333716,-0.999908252403,0.0,0.263811906518,-0.261390592266,0.304922429851,1.0,-0.0180268965517,-0.0236924926108,2.909
-0.653112386125,-0.518328176195,-0.125616530737,-2.63975643818,-0.0674726404156,2.11097378596,-0.901256276641,-0.0798995117544,0.0101962036209,-0.0015400384012,0.00698591060452,-0.000251150202802,0.00443995378861,-0.0794847157708,0.573702698397,0.819028879553,0.00613638418093,0.0,0.819027337703,-0.573611433717,-0.0120370306062,0.0,-0.00633889760612,0.0119317730619,-0.999908721418,0.0,0.26348247544,-0.261831987594,0.304932252102,1.0,-0.0176668965517,-0.0232193497537,2.927
-0.654626058766,-0.518064014271,-0.125627149357,-2.63954834635,-0.0674363988017,2.11103028407,-0.902775129777,-0.0818335891698,0.0116615022311,0.00018066808645,0.0100355464998,0.000963996599376,-0.000271723200017,-0.0785494662743,0.573732355871,0.819007898615,0.00616382454188,0.0,0.819006754495,-0.573641043549,-0.0120264769793,0.0,-0.00631407846172,0.0119484229477,-0.999908679631,0.0,0.263137307976,-0.262286274858,0.304934067704,1.0,-0.0172868965517,-0.0227199211823,2.946
-0.655896843099,-0.517857193464,-0.125630376709,-2.63938348578,-0.0674181758691,2.11104756942,-0.903945663521,-0.0775535909436,0.0121840888964,0.00130163000245,0.00912211001671,-0.000155571667371,3.41548262124e-05,-0.0697003993619,0.573833166409,0.81893717125,0.00617685810277,0.0,0.818936082011,-0.57374155909,-0.0120442457377,0.0,-0.00631968200955,0.0119700701034,-0.999908385324,0.0,0.262840427785,-0.262660774982,0.304934169981,1.0,-0.0169668965517,-0.0222993497537,2.962
-0.657035895717,-0.517667056045,-0.125627512624,-2.63921590972,-0.0673938717215,2.11108398735,-0.905067801674,-0.0744522148454,0.0132465195204,-0.000871247136317,0.0185462590937,0.00167839219103,-0.000191038342647,-0.078184842282,0.573864023582,0.818915464382,0.00618801549554,0.0,0.818914643012,-0.573772594178,-0.0120234991344,0.0,-0.00629583688785,0.0119675405036,-0.999908566026,0.0,0.262583556876,-0.263002117852,0.304943422265,1.0,-0.0166668965517,-0.0219050640394,2.977
-0.658180276537,-0.517451011655,-0.125617617382,-2.63902639397,-0.0673659823444,2.11115606762,-0.906309952059,-0.0708089904539,0.00936676798971,-0.000868271018441,0.00901720585428,-0.000201641300961,0.0104206418319,-0.0803762816803,0.57379861339,0.818961254916,0.00619363531932,0.0,0.818960824996,-0.573707780595,-0.0119706519175,0.0,-0.00625028368098,0.0119413180698,-0.999909165313,0.0,0.262336738209,-0.263353010936,0.304956293125,1.0,-0.0163468965517,-0.0214844926108,2.993
-0.659453790368,-0.517208544465,-0.125557440222,-2.63884422965,-0.0673320859077,2.11119287956,-0.907599017017,-0.0693370287336,0.0113454332195,0.00420110441556,0.0105585607438,-0.000372541077132,-0.000319483906694,-0.0745201899035,0.573767209887,0.818983309344,0.00618666105807,0.0,0.818982691881,-0.573676228506,-0.0119867488401,0.0,-0.00626792752752,0.0119446017353,-0.999909015648,0.0,0.262059264725,-0.263718660222,0.304954252615,1.0,-0.0159868965517,-0.0210113497537,3.011
-0.660581011776,-0.51700660163,-0.12550591694,-2.63869184405,-0.0673089636878,2.1111970275,-0.908735521235,-0.0680873326201,0.00873477401271,0.00164349842057,0.00981538414196,0.00107671782485,-0.000110467482995,-0.0696924350581,0.573740923481,0.819001776301,0.00617980904107,0.0,0.819000827235,-0.573649515973,-0.0120260015832,0.0,-0.0063043935723,0.0119613082631,-0.999908586685,0.0,0.261806060628,-0.264037018953,0.304950609676,1.0,-0.0156668965517,-0.0205907783251,3.027
-0.661792675582,-0.51676042002,-0.12548207853,-2.63850634946,-0.0672823271866,2.11124119463,-0.910010612119,-0.0617822352099,0.0131467198599,-0.00177888645721,0.0110263459481,0.000584599135924,0.00376084618732,-0.0713323887184,0.573693157384,0.81903520921,0.00618337658395,0.0,0.81903423933,-0.573601617084,-0.0120352226926,0.0,-0.00631059782689,0.0119691524865,-0.999908453682,0.0,0.261537135705,-0.264396380467,0.304948441513,1.0,-0.0153068965517,-0.020117635468,3.045
-0.662789538838,-0.516553497129,-0.125463883682,-2.63834495907,-0.0672556075603,2.11131217971,-0.910971793026,-0.0687496165685,0.0131774036039,0.000880885267786,0.0145561783249,0.00176704252494,0.00065693705254,-0.0624214171542,0.573729274124,0.819009901403,0.00618452245591,0.0,0.819009144762,-0.573638097904,-0.0120041797381,0.0,-0.00628398535187,0.0119525598988,-0.999908819763,0.0,0.261322957017,-0.264698798957,0.304951940883,1.0,-0.0150068965517,-0.0197233497537,3.06
-0.663977415379,-0.516314141049,-0.125459582995,-2.63818174953,-0.0672315953574,2.11135131949,-0.912214986283,-0.0674692676655,0.0142240789139,-1.089089006e-05,0.00960249520166,0.00016198398469,0.000865390749733,-0.0650877117173,0.573699837292,0.81903041207,0.00619900772529,0.0,0.819029640982,-0.573608219034,-0.0120335011522,0.0,-0.00630012292311,0.0119810193965,-0.999908377615,0.0,0.261049206135,-0.265049568155,0.30494124089,1.0,-0.0146468965517,-0.0192502068966,3.078
-0.665239785807,-0.516082790207,-0.125455824211,-2.63800151376,-0.0672057149118,2.11137464821,-0.913431835237,-0.0674497421649,0.0142384627738,-0.000591686813132,0.00695867372109,0.00332203231,0.00396538235882,-0.0589695131877,0.573754927235,0.818991707882,0.00621391948652,0.0,0.81899099462,-0.573662972927,-0.0120536768187,0.0,-0.00630728727264,0.0120052317047,-0.999908042041,0.0,0.260756825632,-0.265421729363,0.304939851691,1.0,-0.0142668965517,-0.0187507783251,3.097
-0.666263002198,-0.515898163106,-0.125439416372,-2.63784614262,-0.0671825737028,2.11142860781,-0.914439497215,-0.0639229269871,0.010019410484,0.000858781612837,0.00743650655711,0.00128938839373,0.00827708652689,-0.0678130881865,0.573773912933,0.818978395922,0.00621536414894,0.0,0.818977893762,-0.573682314796,-0.0120232325159,0.0,-0.00628124412086,0.0119890938336,-0.999908399605,0.0,0.260530247256,-0.265727533405,0.304947304992,1.0,-0.0139468965517,-0.0183302068966,3.113
-0.667194798391,-0.515716782361,-0.125421734706,-2.63769748941,-0.0671641136816,2.11147260674,-0.915404298857,-0.0590240121892,0.0153128978275,0.000552353743379,0.00853568874461,0.000953882814384,0.00102110635277,-0.0678108194255,0.573749903133,0.818995227875,0.00621387748251,0.0,0.818994808019,-0.573658510663,-0.0120068515225,0.0,-0.00626903109492,0.0119782939131,-0.999908605686,0.0,0.260324503314,-0.266006424703,0.304952071745,1.0,-0.0136468965517,-0.0179359211823,3.128
-0.66822538481,-0.515522917592,-0.12538623449,-2.63752529103,-0.0671404022388,2.11150682785,-0.916406742965,-0.058053512352,0.00908652294612,0.0022604875694,0.00891497406499,0.000907346311723,0.00279085012764,-0.0552177229736,0.57376670071,0.818983515362,0.00620657893653,0.0,0.818983120818,-0.573675565714,-0.0119891625524,0.0,-0.00625848430611,0.0119622959403,-0.999908863272,0.0,0.260100120661,-0.266311021954,0.30496250488,1.0,-0.0133068965517,-0.0174890640394,3.145
-0.669234431798,-0.515321237977,-0.125339650586,-2.63736948954,-0.0671210908248,2.11155361241,-0.917386566624,-0.0591705289446,0.0104180819426,0.00242206470982,0.00848304829357,0.000492258481702,0.00441578570145,-0.0578547546786,0.573773891704,0.818978592687,0.00619135045411,0.0,0.818978049693,-0.573682914694,-0.0119839229883,0.0,-0.00626282498824,0.0119468722651,-0.999909020494,0.0,0.259881305833,-0.266605273463,0.304963922944,1.0,-0.0129668965517,-0.0170422068966,3.162
-0.670156355781,-0.515139773392,-0.12530131489,-2.63721004072,-0.0671032493451,2.11158359886,-0.918339744198,-0.0585748366208,0.00960065491856,8.62180901673e-05,0.0103906975769,0.000331632450608,0.00287491508203,-0.0584397210933,0.57373686211,0.819004627145,0.00617905106818,0.0,0.819004009799,-0.573646108178,-0.0119716918938,0.0,-0.00626040299042,0.0119294982227,-0.999909243095,0.0,0.259682096619,-0.266877540856,0.304972821135,1.0,-0.0126468965517,-0.016621635468,3.178
-0.671160433107,-0.514945830258,-0.125287493625,-2.63705322039,-0.0670777310308,2.11163125977,-0.919374998042,-0.0547960350077,0.00936678729158,0.0015417809401,0.009812191798,-0.000471191695825,0.00131304904701,-0.0546455273512,0.573720516678,0.81901603184,0.00618508153214,0.0,0.819015589393,-0.573629924947,-0.0119549335918,0.0,-0.00624345462201,0.011924698461,-0.999909406317,0.0,0.259457757919,-0.267177123197,0.304976840816,1.0,-0.0122868965517,-0.0161484926108,3.196
-0.67205943015,-0.514766166672,-0.125281033675,-2.63690697944,-0.0670596024864,2.1116621366,-0.920227230999,-0.053818955915,0.0121768301096,7.34202736613e-05,0.0121101234279,0.000954050099468,5.29608166855e-05,-0.0503577114443,0.573769536981,0.818981657864,0.00618946015797,0.0,0.818981287008,-0.573678944548,-0.0119526990431,0.0,-0.00623839841603,0.0119273762806,-0.999909405936,0.0,0.259254199675,-0.267446662963,0.304979707834,1.0,-0.0119668965517,-0.0157279211823,3.212
-0.672978569532,-0.514593936212,-0.125271387524,-2.63675913573,-0.0670417496047,2.11169672935,-0.921143039128,-0.0525396767065,0.00920733411687,0.00121982491132,0.00609254012472,-0.000121757074409,0.00189878632254,-0.0507890176909,0.573780633996,0.818973867382,0.00619156661467,0.0,0.818973617444,-0.573690209397,-0.0119375237702,0.0,-0.00622459870422,0.0119204791714,-0.999909574185,0.0,0.259046764193,-0.267721698664,0.304986431106,1.0,-0.0116268965517,-0.0152810640394,3.229
-0.673971608508,-0.514391449972,-0.125250505858,-2.63657929568,-0.0670173451042,2.11173292617,-0.922154803971,-0.0508824546015,0.00673968752992,0.00174454754683,0.0113207464626,0.000580680728321,0.00292152826654,-0.0515446921223,0.573770086933,0.818981260814,0.00619101585839,0.0,0.818981121397,-0.573679892377,-0.0119185057373,0.0,-0.00620949109639,0.0119090364692,-0.999909804468,0.0,0.258829109744,-0.268020737321,0.304996905639,1.0,-0.0112468965517,-0.014781635468,3.248
-0.674775915578,-0.514223392219,-0.125241239611,-2.63643774384,-0.066998866072,2.11177051422,-0.922918491893,-0.0525838622965,0.00793799632763,-0.000195062356711,0.0128649554861,0.0038309057407,0.00132260571061,-0.0412155173671,0.573811938877,0.818951927832,0.00619238274519,0.0,0.818951903873,-0.573721917377,-0.0119032586437,0.0,-0.0061956101967,0.011901724705,-0.99990997763,0.0,0.2586510116,-0.268264629217,0.305002539965,1.0,-0.0109268965517,-0.0143610640394,3.264
-0.675535480239,-0.514062986663,-0.125224948875,-2.63630165517,-0.0669845651622,2.11181577178,-0.923666677843,-0.0435895262346,0.0115740881843,0.00263312627411,0.0089655068959,0.00184690065567,0.0063782586203,-0.0458261817566,0.573822765997,0.818944389989,0.00618597043888,0.0,0.818944441357,-0.573733073239,-0.0118789537644,0.0,-0.00617922568269,0.0118826089886,-0.999910306364,0.0,0.25848603511,-0.268495557501,0.305009329651,1.0,-0.0106068965517,-0.0139404926108,3.28
-0.676304977417,-0.513888992445,-0.125200062688,-2.63619023227,-0.0669654409963,2.11184059944,-0.924432275717,-0.0474049348585,0.0109346470346,0.00927450804909,0.00948533371715,0.00467248101013,-0.000304116424857,-0.0477161442673,0.573822360597,0.818944661988,0.00618756673113,0.0,0.818944525733,-0.57373226124,-0.0119123081394,0.0,-0.00620563398821,0.0119030518494,-0.999909899673,0.0,0.258311617193,-0.268716968459,0.304998345823,1.0,-0.0102868965517,-0.0135199211823,3.296
-0.677129939928,-0.51370371277,-0.125180317311,-2.63607352182,-0.0669404082785,2.11187218443,-0.925276915083,-0.0475150618769,0.0054956209435,0.00111409764841,0.00823283007973,0.0041442921569,0.00154057920516,-0.0473672087631,0.573809115167,0.818953874799,0.00619654779697,0.0,0.818953648977,-0.573718585938,-0.0119436961513,0.0,-0.00622638147985,0.0119283168068,-0.999909469618,0.0,0.258123457462,-0.268955271743,0.304986041825,1.0,-0.00992689655173,-0.0130467783251,3.314
-0.677805384204,-0.513561760488,-0.125165291293,-2.63597326763,-0.0669238435315,2.11190828626,-0.925916198961,-0.0513621668495,0.0112502507294,0.000924134960476,0.00597841345629,0.000308483527838,-0.000156450268621,-0.0447134077421,0.573840709503,0.818931729831,0.00619749094658,0.0,0.818931519593,-0.573750176002,-0.011943561287,0.0,-0.00622526963946,0.0119292520365,-0.999909465384,0.0,0.257963260743,-0.269166762449,0.30498429298,1.0,-0.00960689655173,-0.0126262068966,3.33
-0.678575326791,-0.513384428472,-0.125139815748,-2.63585178186,-0.0668971730856,2.11193858151,-0.926673329627,-0.0388216949889,0.00859511216974,0.00384234986268,0.00325377906473,0.00686680382334,0.00157904017983,-0.0325778555282,0.57385052632,0.818924808698,0.00620306715897,0.0,0.818924524793,-0.573759687371,-0.0119662334266,0.0,-0.00624049569469,0.0119469031902,-0.999909159733,0.0,0.257800211963,-0.269377518953,0.304975353432,1.0,-0.00926689655173,-0.0121793497537,3.347
-0.67929569274,-0.513211147149,-0.125111629659,-2.63573994111,-0.0668776815375,2.1119626633,-0.927426938745,-0.0408843328971,0.00869411106447,0.00245245280183,0.00593177759912,0.000404839339385,-0.00039128261972,-0.0390578251188,0.573820550952,0.818945802135,0.00620446389272,0.0,0.818945320166,-0.573729299052,-0.0120000370248,0.0,-0.0062678179017,0.0119672149321,-0.999908745949,0.0,0.257630548461,-0.269597784384,0.30496479328,1.0,-0.00888689655173,-0.0116799211823,3.366
-0.679949820491,-0.513051023119,-0.125077560417,-2.63564482419,-0.0668515756793,2.11198595087,-0.928117350358,-0.0373030265921,0.00932364464814,0.0043162204872,0.00638037910091,0.00138760861176,0.000655297887291,-0.0369630104941,0.573779817912,0.81897431572,0.00620786990536,0.0,0.818973641729,-0.573688109358,-0.0120363713637,0.0,-0.00629621907389,0.0119905396482,-0.999908288087,0.0,0.257494042488,-0.269769350964,0.304951586875,1.0,-0.00856689655173,-0.0112593497537,3.382
-0.680516908581,-0.512919828859,-0.125038969796,-2.63557639069,-0.0668327648458,2.11200844182,-0.928697522836,-0.0376616456197,0.00862114989913,-0.000269905994974,0.00114365568962,0.000382046065529,-0.000145395509419,-0.0330112348648,0.573753421819,0.818992825929,0.0062055563166,0.0,0.818991888495,-0.573661285479,-0.0120732358289,0.0,-0.00632812795203,0.012009591878,-0.999907858005,0.0,0.257367303397,-0.269924228203,0.304936979914,1.0,-0.00826689655173,-0.0108650640394,3.397
-0.681147968116,-0.512783902318,-0.125018922285,-2.63550316729,-0.0668084493091,2.11202596124,-0.929316598925,-0.0335032936463,0.00266800562482,0.000143682123361,0.00374313346514,0.00112269091058,0.00234102809721,-0.0333636131284,0.57376334899,0.818985779409,0.00621766702007,0.0,0.818984733372,-0.57367065151,-0.012113504861,0.0,-0.00635401746417,0.0120426913428,-0.999907295727,0.0,0.257219697256,-0.27009937582,0.304921936658,1.0,-0.00792689655173,-0.0104182068966,3.414
-0.681758304525,-0.512646849674,-0.125007074878,-2.63541300154,-0.0667858076082,2.11204551602,-0.929894922591,-0.0396376235264,0.0103058908335,0.00116491990097,0.00249097100116,-0.000340713041365,0.000760521710979,-0.037763853398,0.573800098977,0.818959915229,0.00623302205055,0.0,0.818958911223,-0.573707024612,-0.0121366610343,0.0,-0.00636363287653,0.0120688386174,-0.999906919324,0.0,0.257072043451,-0.270286480367,0.304914640584,1.0,-0.00756689655173,-0.00994506403942,3.432
-0.68242952241,-0.512501604953,-0.124999525671,-2.63531852153,-0.0667581085184,2.11207228323,-0.930528988857,-0.0362337156253,0.00975872847268,0.00229468025042,0.00440356708603,0.000995754128962,0.000649223144271,-0.0299204708632,0.573837463115,0.818933639326,0.00624557502817,0.0,0.818932674496,-0.573744087349,-0.012154989716,0.0,-0.00637089087899,0.012089926693,-0.999906618351,0.0,0.256924312916,-0.270470212855,0.304905795226,1.0,-0.00720689655173,-0.00947192118227,3.45
-0.682933875543,-0.512421604051,-0.12500079189,-2.63523941802,-0.0667394930403,2.11208658909,-0.931021337148,-0.0300458640408,0.00237150590845,0.000469394839747,0.00518696438932,0.000317733292239,-1.70170045155e-05,-0.0344461215897,0.573860139027,0.818917660005,0.00625730522739,0.0,0.81891695027,-0.57376689903,-0.012137587835,0.0,-0.0063495726603,0.0120897239208,-0.999906756404,0.0,0.256807290982,-0.27061976388,0.304913320701,1.0,-0.00690689655173,-0.00907763546799,3.465
-0.683427217727,-0.512309540384,-0.124983417747,-2.63514638892,-0.0667158319847,2.11210938115,-0.931527845315,-0.0302175863953,0.00499344087755,0.00243820065613,0.00768488980659,0.00725466049855,-0.000373545941096,-0.0304182291717,0.573851872173,0.818923410248,0.00626289489478,0.0,0.818922815009,-0.5737586879,-0.0121300461195,0.0,-0.00634031044796,0.0120899099608,-0.999906812928,0.0,0.256701559107,-0.270766320536,0.304916468309,1.0,-0.00658689655173,-0.00865706403942,3.481
-0.683903578466,-0.51222196937,-0.124960610282,-2.63505937763,-0.0667017931989,2.11213911102,-0.932023343137,-0.0247843274442,0.00552648270469,0.00148471489219,0.004496117343,-0.000105757712638,0.00558516353753,-0.0325637081646,0.573830333258,0.818938556551,0.00625588748981,0.0,0.818938073565,-0.573737573723,-0.0120985563321,0.0,-0.00631885820664,0.012065935368,-0.999907238315,0.0,0.25660095546,-0.270908120506,0.30492665619,1.0,-0.00624689655173,-0.00821020689656,3.498
-0.684370980676,-0.512124940995,-0.124916486982,-2.63497225009,-0.0666780416181,2.112163932,-0.932485648148,-0.0264995183244,0.00236623664054,0.0043116249914,0.0065477842132,0.000271149290646,0.00360223990351,-0.0291730704689,0.573817668987,0.818947493541,0.00624759818377,0.0,0.818947019833,-0.573725173124,-0.0120810319228,0.0,-0.00630944793941,0.0120489934711,-0.999907502034,0.0,0.256507525182,-0.27104124362,0.304933481366,1.0,-0.00590689655173,-0.0077633497537,3.515
-0.684789924334,-0.512049665083,-0.124864297874,-2.63490492867,-0.0666589169838,2.11218618429,-0.932902397436,-0.0278101790906,0.011310249165,0.00419124995596,0.00282434783233,0.000289792426204,0.000332104580042,-0.0302603124833,0.573793896923,0.818964258635,0.00623328441204,0.0,0.818963711378,-0.573701685006,-0.0120649479014,0.0,-0.00630483673085,0.0120278587822,-0.999907785572,0.0,0.256424274966,-0.271155417676,0.304939326811,1.0,-0.00558689655173,-0.00734277832513,3.531
-0.685221542249,-0.511959250699,-0.124825835005,-2.6348329699,-0.0666399627567,2.11221757364,-0.933322969853,-0.0254145640604,0.00609118631965,0.00503175377131,0.00764666987864,8.42041030032e-05,0.0017852934997,-0.0255226229093,0.573787346315,0.818968914949,0.006224504584,0.0,0.818968356343,-0.573695370801,-0.0120498851736,0.0,-0.0062976331695,0.0120119751931,-0.999908021904,0.0,0.256336492423,-0.271278044176,0.304942130066,1.0,-0.00524689655173,-0.00689592118227,3.548
-0.685634985172,-0.511898022847,-0.124810840431,-2.63477870454,-0.0666238721891,2.11223700857,-0.933743378726,-0.0230754592695,0.000656074235491,-5.73052414089e-05,0.00395858929267,0.000186908283546,0.000290236204102,-0.0229844224717,0.57378059285,0.818973623105,0.00622758600168,0.0,0.818973198095,-0.573688783797,-0.0120344110594,0.0,-0.00628328996077,0.0120055686809,-0.999908189079,0.0,0.256242864795,-0.271395349835,0.304946128356,1.0,-0.00488689655173,-0.00642277832513,3.566
