nelsonifechukwu/NELSON_IML_WORK/CNN-GradCAM/train2dof/data_sample_2022-02-21-08-28-25/robot_state.csv
position_joint1,position_joint2,position_joint3,position_joint4,position_joint5,position_joint6,position_joint7,velocity_joint1,velocity_joint2,velocity_joint3,velocity_joint4,velocity_joint5,velocity_joint6,velocity_joint7,ee_T_00,ee_T_10,ee_T_20,ee_T_30,ee_T_01,ee_T_11,ee_T_21,ee_T_31,ee_T_02,ee_T_12,ee_T_22,ee_T_32,ee_T_03,ee_T_13,ee_T_23,ee_T_33,v_x,v_y,time
0.465078975406,0.547581879198,-0.123993549779,-1.35573330571,0.079419025579,1.89409791438,0.159161522015,0.000387425472256,-0.000390439218831,0.000155139501657,0.000588218284969,-0.000168068406884,-0.000258148156369,0.00073935981091,0.573779560331,0.818995192308,0.0021536069944,0.0,0.818955549723,-0.573721039946,-0.0116928526145,0.0,-0.00834098102088,0.00847299136348,-0.999929315728,0.0,0.661709027106,0.26089226802,0.303402813651,1.0,0.0,0.0,0.0
0.465071592943,0.547581192426,-0.123991576571,-1.35573588801,0.0794190256331,1.89409791292,0.159163778919,-0.000897538603759,-0.000470677046937,-2.59946672685e-05,-0.000346433824332,5.35891339016e-05,-7.9103514889e-05,0.00119774200902,0.573786216102,0.818990532094,0.00215254561742,0.0,0.818950863971,-0.573727686961,-0.0116948927625,0.0,-0.0083431920605,0.00847336049749,-0.999929294154,0.0,0.661709925763,0.260888227016,0.303402005513,1.0,-0.00018,-0.000236571428571,0.01
0.465075865826,0.547569106663,-0.123994497588,-1.35574180966,0.0794196228414,1.89409709912,0.159158934278,-0.000643755674261,-0.00200382557538,-0.000792802095889,0.000741876207115,3.49913785372e-05,0.000336932395216,0.000280945482919,0.573786528794,0.818990307228,0.00215474854,0.0,0.818950679037,-0.573728002842,-0.0116923462461,0.0,-0.00833983923556,0.0084737066911,-0.99992931919,0.0,0.661710291538,0.260887578834,0.303403929851,1.0,-0.0004,-0.000525714285714,0.021
0.465081125979,0.54756198912,-0.123994532989,-1.35574577497,0.0794203475747,1.8940974533,0.159163975054,0.000812172517074,-0.00313870494817,3.29296007299e-05,0.000683718562621,0.00020845318257,6.09530591876e-06,0.000607380973074,0.573781486263,0.818993823722,0.00216093218992,0.0,0.818954256431,-0.573722917991,-0.0116912850753,0.0,-0.00833547443021,0.00847811077156,-0.999929318254,0.0,0.661706192768,0.260892086772,0.303410963742,1.0,-0.00076,-0.000998857142857,0.039
0.465080076938,0.547486339364,-0.123989243469,-1.3558114383,0.0794174308978,1.89410614304,0.159164380493,-0.000404447832638,-0.00277639034095,0.000239122413727,-0.00405132218492,-0.000324389252369,4.89622869189e-05,0.000836482537781,0.573781716315,0.818993611513,0.00218018924701,0.0,0.818954239184,-0.573723019792,-0.0116874969544,0.0,-0.00832132079296,0.00849171077975,-0.999929320736,0.0,0.661694094186,0.260887771891,0.303433873566,1.0,-0.00108,-0.00141942857143,0.055
0.465080742273,0.547349411174,-0.12398672901,-1.35597302547,0.0794162076123,1.89414047264,0.159159178714,0.00040713280138,-0.00487670034743,0.00227873981726,-0.00776726586463,-9.23767226502e-05,0.000720654875019,0.000245346873914,0.573783642724,0.818992220988,0.00219549653177,0.0,0.818952927206,-0.573724765937,-0.0116937108157,0.0,-0.00831760759843,0.00850783210227,-0.999929214593,0.0,0.6616668301,0.26087441747,0.303456852987,1.0,-0.00142,-0.00186628571429,0.072
0.465063071228,0.547197767571,-0.123997377224,-1.35617839004,0.0794120905126,1.89419891068,0.159156351144,-0.000536003345634,-0.00948540098786,-0.00623263682371,-0.0159142144369,0.000215853537153,0.00463334534196,0.00162838384559,0.573813492034,0.818971289375,0.00220237140985,0.0,0.81893204343,-0.573754543516,-0.0116952528794,0.0,-0.00831461580939,0.0085146503474,-0.999929181439,0.0,0.661642690089,0.260837477482,0.303471938514,1.0,-0.00176,-0.00231314285714,0.089
0.465048817052,0.547006743006,-0.123992547394,-1.35639773189,0.0794055575578,1.89433299786,0.159146801997,-0.000712147498816,-0.0129561342557,-0.00129370632248,-0.012914658352,-1.7116209133e-05,0.00882441407126,0.00129095639765,0.573824772088,0.81896312801,0.00229625769904,0.0,0.818925084668,-0.573765459989,-0.0116468676369,0.0,-0.00822100007622,0.00856388907929,-0.999929534998,0.0,0.661627160226,0.260815376934,0.303514319683,1.0,-0.00212,-0.00278628571429,0.107
0.465023745593,0.546796264217,-0.12399177584,-1.35665604931,0.0793978683038,1.89446189074,0.159127967467,-0.000186373939123,-0.0124278576115,-0.000527738499215,-0.0149266120132,-0.000268099263694,0.00140046880945,-0.00243002648249,0.573841889134,0.818950925842,0.00236943870619,0.0,0.818913801394,-0.573782280785,-0.0116115048121,0.0,-0.00814986758144,0.00860369956297,-0.99992977554,0.0,0.661605975038,0.260778853826,0.303551599621,1.0,-0.00248,-0.00325942857143,0.125
0.464991036462,0.546573456802,-0.12399233012,-1.35695594551,0.0793895988653,1.89458591001,0.159107238252,-0.00467197752835,-0.0170994043018,2.68216343373e-05,-0.0232502051892,-0.000479952398037,0.0107000971705,-0.0044148481825,0.573866697782,0.818933409663,0.00241466699823,0.0,0.818896806604,-0.573806858188,-0.011595539285,0.0,-0.00811057819349,0.00863182312169,-0.999929852615,0.0,0.661576919797,0.260731306439,0.303577426797,1.0,-0.0028,-0.00368,0.141
0.464947393707,0.546301019382,-0.123987459909,-1.35738396365,0.0793729695052,1.89473540244,0.158991687033,-0.00732407617787,-0.0212540604392,0.000453958366874,-0.0266498734238,-0.000871084575199,0.0110018485653,-0.00371354903121,0.573823886663,0.818963402245,0.00241656340008,0.0,0.818926701769,-0.573763915833,-0.0116091738867,0.0,-0.00812110802071,0.00864077593717,-0.999929689826,0.0,0.661526913921,0.260665479776,0.303579416583,1.0,-0.00316,-0.00415314285714,0.159
0.464908360322,0.546025398575,-0.123991720344,-1.35783705724,0.0793437831605,1.89488978799,0.1589396645,-0.00226653610115,-0.0161056100192,0.000156479096027,-0.0305996982691,-0.00245137136358,0.00720174607718,0.0017866028293,0.573833767462,0.818956543288,0.00239466621039,0.0,0.818919575322,-0.573773890209,-0.0116189057272,0.0,-0.00814153867372,0.00862852560915,-0.999929629471,0.0,0.661473778813,0.260592780503,0.303572410956,1.0,-0.0035,-0.0046,0.176
0.464858405204,0.54575349863,-0.12399494506,-1.35828614034,0.0792907222305,1.89504787741,0.158913866706,-0.00316991643051,-0.0157073604198,-0.000915190278799,-0.0322600764168,-0.005188161613,0.0130006469551,-0.00434604222781,0.573866804465,0.818933486854,0.00236257143454,0.0,0.818896332376,-0.573807279677,-0.0116081657592,0.0,-0.00815081190166,0.00859640758015,-0.999929830559,0.0,0.661426114461,0.26051027122,0.303564907181,1.0,-0.0038,-0.00499428571429,0.191
0.464800781165,0.545397089952,-0.123997395185,-1.35890188607,0.0792346084126,1.89525286492,0.158821530099,-0.00149075257627,-0.0199878069727,-0.000601683534242,-0.0357229119234,-0.000113870294671,0.0101739100811,-0.00828667558675,0.573859513556,0.818938760145,0.0023049369752,0.0,0.818901000208,-0.57380034407,-0.0116216997442,0.0,-0.00819504452984,0.00855690290317,-0.999929807865,0.0,0.661353702607,0.260407155458,0.303541926152,1.0,-0.00416,-0.00546742857143,0.209
0.464733994262,0.545024109972,-0.123990346209,-1.35953292203,0.0792283971548,1.89546380902,0.158724742141,-0.0057133362249,-0.025154168136,0.0013156117279,-0.0385855921931,0.000908417614424,0.011724628138,0.000936246386684,0.573863504223,0.818936022185,0.00228407315887,0.0,0.818897644,-0.573804048023,-0.0116751884698,0.0,-0.00825078083223,0.00857055170592,-0.999929232626,0.0,0.661276743964,0.260310374854,0.303523666369,1.0,-0.00448,-0.005888,0.225
0.464671246832,0.544639538046,-0.124003852957,-1.36018821028,0.0792000256437,1.89568034271,0.158679894172,-0.00565524659743,-0.0253880907293,-0.00102702771271,-0.0431006777944,-0.00132949820896,0.0121832794887,-0.00353906239867,0.573916529303,0.818898984193,0.00224008520308,0.0,0.818859967381,-0.573857159636,-0.0117073078078,0.0,-0.0083017733743,0.00855349824218,-0.99992895659,0.0,0.6612004629,0.260198429445,0.303503160775,1.0,-0.0048,-0.00630857142857,0.241
0.464608700581,0.544207560808,-0.124004532825,-1.36092054585,0.0791628819728,1.89594060497,0.158564223028,-0.00343326217209,-0.025808579692,0.000447859132978,-0.0433389932684,-0.00228307340967,0.0133724003933,-0.00383422437505,0.573906514831,0.818906079363,0.00221185835319,0.0,0.818866596453,-0.573847150323,-0.011734231202,0.0,-0.0083401252283,0.0085457331867,-0.999928703836,0.0,0.661108626835,0.260077600668,0.303487324561,1.0,-0.00516,-0.00678171428571,0.259
0.464539056062,0.543710167465,-0.124007621307,-1.36171318014,0.0791239987842,1.89622488603,0.158474037288,-0.00297562408337,-0.0311763297062,0.000189119870144,-0.0457202504018,-0.00335087077021,0.0154117883526,-0.00161324907345,0.57392357055,0.818894148878,0.00220340690723,0.0,0.818854491276,-0.573864169601,-0.011746653397,0.0,-0.00835497031968,0.00854611544094,-0.99992857664,0.0,0.661022278139,0.259964694499,0.30348225869,1.0,-0.00548,-0.00720228571429,0.275
0.464467090992,0.543228828481,-0.124013057587,-1.3624984103,0.0790683349925,1.89649319083,0.158374496222,-0.00740258623558,-0.0267425391924,4.22370181751e-05,-0.0489330114778,-0.00291754323583,0.0196636134324,-0.00564293858096,0.573933573865,0.818887234696,0.00216715118908,0.0,0.818847169627,-0.573874375201,-0.0117584515491,0.0,-0.00838533478243,0.00852329983796,-0.999928517205,0.0,0.660930766029,0.25983629019,0.303472431152,1.0,-0.0058,-0.00762285714286,0.291
0.464394531478,0.542640966819,-0.124016897984,-1.36344681956,0.0790137304919,1.89681441741,0.158242618374,-0.00751163623105,-0.0348688718133,-0.000981233414136,-0.0596820351773,-0.000336261157326,0.0164163103005,-0.000210051677684,0.573925722174,0.81889282322,0.00213457446963,0.0,0.818852280323,-0.57386659521,-0.0117822244559,0.0,-0.00842358024539,0.00851018669908,-0.999928307439,0.0,0.660814635336,0.259694216963,0.303464774184,1.0,-0.00616,-0.008096,0.309
0.464323911171,0.542057156167,-0.12401230816,-1.36436001433,0.0789660529636,1.89716143862,0.158136143287,-0.00609566656197,-0.0324325940651,0.000570188045931,-0.0587038536045,-0.000314349524364,0.015928305059,-0.00606488310878,0.573931235844,0.818888908307,0.0021538978678,0.0,0.818848531208,-0.573871946749,-0.0117821294345,0.0,-0.00841235551158,0.00852601236479,-0.999928267121,0.0,0.660708691915,0.259565318356,0.303472911784,1.0,-0.0065,-0.00854285714286,0.326
0.464254714372,0.541467863313,-0.124020103647,-1.36525878681,0.0789073620305,1.89748638458,0.158004519211,-0.00711359771016,-0.0392778457653,-0.000312490994326,-0.0588372383309,-0.000943143029968,0.0197147744354,-0.00511010250943,0.573919728649,0.818896948593,0.00216322765585,0.0,0.818856751039,-0.573860463991,-0.0117701337353,0.0,-0.0083972974481,0.00852664969401,-0.999928388256,0.0,0.660604754104,0.259428693003,0.303490180382,1.0,-0.00682,-0.00896342857143,0.342
0.464169879506,0.540860157923,-0.124014843707,-1.36620570843,0.0788557260883,1.89784590424,0.157867726239,-0.00591325973092,-0.0357547984159,-0.00497408227707,-0.0599445813828,-0.000841126823589,0.0237454661743,-0.0189505988939,0.573912276394,0.818902115494,0.00218429501254,0.0,0.818862118167,-0.573852856662,-0.0117676349794,0.0,-0.00838323864954,0.00854239108694,-0.999928371867,0.0,0.660497614176,0.2592873243,0.303500059304,1.0,-0.00714,-0.009384,0.358
0.464088952793,0.540198957954,-0.124018949731,-1.36720810261,0.0787938169484,1.8982085021,0.157743319425,-0.00469907059079,-0.0450387185622,0.000159977570643,-0.0615139244808,-0.00129468593927,0.0176105441081,-0.00809701711416,0.573918441205,0.818897749747,0.00220118290434,0.0,0.818857984857,-0.573858969214,-0.0117571676262,0.0,-0.00836491061042,0.00855027613369,-0.999928457965,0.0,0.660381226169,0.25913578258,0.303521811376,1.0,-0.00746,-0.00980457142857,0.374
0.463994101397,0.539524812288,-0.124018602268,-1.36826105651,0.0787339815727,1.89861251054,0.157617855457,-0.00476724354351,-0.0416119767176,0.000769843751605,-0.0681084834594,-0.00760596487958,0.0227133733259,-0.014486951829,0.573935491755,0.818885739047,0.00222364365275,0.0,0.818846240596,-0.573875906049,-0.0117484304908,0.0,-0.00834468733021,0.00856382835679,-0.999928510963,0.0,0.660264049669,0.258974947535,0.303532008045,1.0,-0.00778,-0.0102251428571,0.39
0.463879524528,0.538769143714,-0.124019037422,-1.36943608601,0.0786657166914,1.89905729138,0.1574804108,-0.0127459228423,-0.0460255443735,0.00133860126961,-0.0687696460667,-0.00467301002406,0.0296444495759,-0.0104889074677,0.573963803989,0.818865834782,0.0022457155415,0.0,0.81882660479,-0.573904112379,-0.0117391645208,0.0,-0.0083241356359,0.00857687228756,-0.999928570463,0.0,0.660134464863,0.258788631418,0.303545140321,1.0,-0.00812,-0.010672,0.407
0.46377475671,0.538042451092,-0.124029751116,-1.37056215043,0.0786026184513,1.89949353591,0.157332177374,-0.0041674639986,-0.0459253924226,-0.000346779054962,-0.0661478178299,-0.00586364004137,0.0355943324705,-0.0127078194524,0.573982288156,0.818852794739,0.0022760342598,0.0,0.818813996241,-0.573922519364,-0.0117187127184,0.0,-0.00828979294784,0.00859014763514,-0.999928741809,0.0,0.660004766146,0.258601238187,0.30355841743,1.0,-0.00846,-0.0111188571429,0.424
0.46365959293,0.53720029698,-0.124039246173,-1.37190323738,0.0785246631627,1.89999284629,0.157170652261,-0.00588450569613,-0.0413687791836,-0.000308362228541,-0.0729458423256,-0.000282760348427,0.0273349343195,-0.0198074226897,0.574002917719,0.818838337825,0.00227461206033,0.0,0.818799515313,-0.573943145958,-0.0117203170557,0.0,-0.00829170657601,0.0085901128254,-0.999928726242,0.0,0.659860397309,0.258400152655,0.303560521597,1.0,-0.0088,-0.0115657142857,0.441
0.463545241474,0.536369324614,-0.124042460397,-1.37319379336,0.0784431694946,1.90048333122,0.157009979716,-0.00647692002759,-0.048827147535,-0.000798337556734,-0.0794644343745,-0.00549992675204,0.0325567717416,-0.00843432457158,0.574016496377,0.818828755898,0.00229723799694,0.0,0.818790277263,-0.573956690783,-0.011702387224,0.0,-0.00826389515863,0.00859848499752,-0.999928884518,0.0,0.659715661954,0.258200656586,0.303575466883,1.0,-0.00914,-0.0120125714286,0.458
0.463432889762,0.535553313886,-0.124054287048,-1.3744838441,0.0783693642416,1.90095187446,0.156851550975,-0.00630064658321,-0.0476063081519,0.000636619071275,-0.0807621122383,-0.00882018611407,0.0293461197339,-0.00710215963617,0.574038146957,0.818813593975,0.00229151933177,0.0,0.818775035688,-0.573978354273,-0.0117062659476,0.0,-0.00827012642327,0.00859624753938,-0.999928852238,0.0,0.659567001118,0.257997115268,0.303578332976,1.0,-0.00946,-0.0124331428571,0.474
0.463312791585,0.5346487419,-0.124050101602,-1.37590337523,0.0782973040314,1.90147638054,0.156683233892,-0.0101364644041,-0.0452240688463,0.000576170987143,-0.0866225168786,-0.0055746102665,0.0390997779223,-0.00987682228576,0.574054289949,0.818802231643,0.00230749825084,0.0,0.818763724017,-0.573994272748,-0.0117169103577,0.0,-0.00826950078198,0.00861560439387,-0.999928690816,0.0,0.659399693487,0.257787645438,0.30358624215,1.0,-0.0098,-0.01288,0.491
0.463190991397,0.533746474487,-0.124060918287,-1.3773793682,0.0781989336114,1.90200648775,0.156502614954,-0.00390386557023,-0.0542259106791,-0.000419823517709,-0.088795887247,-0.0120874332099,0.0373381668737,-0.00712036238739,0.574068131244,0.818792655624,0.00226156740105,0.0,0.81875364148,-0.574008377348,-0.0117304816419,0.0,-0.00830683351344,0.00858592752552,-0.999928636636,0.0,0.659225272641,0.257557769429,0.303566412923,1.0,-0.01014,-0.0133268571429,0.508
0.463066856248,0.532821858021,-0.124053839781,-1.37885971727,0.0781268534972,1.90257256726,0.156316991403,-0.00527434724812,-0.0508590074,-0.000382524121517,-0.0845604439957,0.000317386236907,0.0283247216189,-0.0117869308063,0.574074579598,0.818788084145,0.0022797418021,0.0,0.81874912352,-0.574014567618,-0.0117429042046,0.0,-0.00830650495711,0.0086080051276,-0.999928449552,0.0,0.65905229155,0.257343212591,0.303562671302,1.0,-0.01048,-0.0137737142857,0.525
0.462948872769,0.531907977321,-0.12405634949,-1.38032533462,0.0780401474725,1.90311942881,0.156132863629,-0.00833666339512,-0.056702866041,0.000850477934513,-0.0923035729054,-0.0103296973147,0.0361960683552,-0.0082260994305,0.574078958295,0.818785028263,0.00227465104289,0.0,0.818745981905,-0.574018944665,-0.0117479862485,0.0,-0.00831354252288,0.00860679881678,-0.999928401449,0.0,0.658879659371,0.257125112665,0.303556800202,1.0,-0.0108,-0.0141942857143,0.541
0.462811461326,0.530845267871,-0.124054226411,-1.38203163816,0.0779273860831,1.90372709714,0.155911717968,-0.00794818860523,-0.0610976338482,0.000514126150741,-0.100557093574,-0.00725625206911,0.0255524983509,-0.0100252797299,0.574071387627,0.818790434573,0.00223898651122,0.0,0.818750940587,-0.574011526523,-0.0117648463093,0.0,-0.00834790028004,0.00858719928822,-0.999928283713,0.0,0.658671894572,0.25687024684,0.303546144251,1.0,-0.01116,-0.0146674285714,0.559
0.462674286895,0.52982757766,-0.124061647977,-1.38366883264,0.0778347857114,1.90430515859,0.155701257013,-0.00896042429151,-0.0663227521116,-0.00191019330317,-0.0973571395931,-0.0120303838984,0.0306032606165,-0.01074303597,0.574080592313,0.818784072192,0.00220534673342,0.0,0.818744056928,-0.574020773101,-0.0117927178747,0.0,-0.00838993625904,0.00857575010369,-0.99992803015,0.0,0.658473685554,0.256618871179,0.303534194868,1.0,-0.0115,-0.0151142857143,0.576
0.462534173422,0.52882938928,-0.124059103599,-1.38523421257,0.0777255223865,1.90488877614,0.155478090296,-0.0159600340927,-0.0632293317953,-0.00246441885625,-0.100700429437,-0.00655487763976,0.0436756664334,-0.0194006017989,0.574066283705,0.818794087915,0.00221142697368,0.0,0.818754249948,-0.574006543322,-0.0117776617428,0.0,-0.00837426748213,0.00857193877699,-0.999928194177,0.0,0.658291809964,0.256377339456,0.303542575343,1.0,-0.01182,-0.0155348571429,0.592
0.462400134203,0.527739725595,-0.124056328872,-1.38695207193,0.0776275524299,1.90555322451,0.15524775872,-0.00649921067085,-0.0625680839783,0.00102547777436,-0.100927611912,-0.00700626299621,0.0406830377012,-0.0143663928354,0.574052331368,0.818803780203,0.00224438802281,0.0,0.818764316496,-0.573992410942,-0.0117666102018,0.0,-0.00834644391604,0.00859244027522,-0.999928250848,0.0,0.658090110571,0.256130349516,0.303549592901,1.0,-0.01216,-0.0159817142857,0.609
0.462240968373,0.526593437688,-0.124059554561,-1.3887070082,0.0775116422753,1.9062214083,0.154999823539,-0.0114246226282,-0.061616553033,-0.00183063875875,-0.0999338507546,-0.00215052461872,0.0385470050172,-0.0168408838672,0.574045531794,0.818808424965,0.00228856628732,0.0,0.818769636472,-0.57398554991,-0.0117310607949,0.0,-0.00829204708133,0.00860813735296,-0.999928568412,0.0,0.65789022479,0.255857081307,0.303579004404,1.0,-0.0125,-0.0164285714286,0.626
0.462104792097,0.525491357985,-0.124073738137,-1.39043813265,0.0774066709499,1.9068456808,0.154761871012,-0.0100676228744,-0.0714099648828,-0.000353420226148,-0.109072045897,-0.0110677970214,0.0365765871687,-0.0142116131208,0.574037146449,0.818814323891,0.00228131277606,0.0,0.818775459605,-0.573977211895,-0.0117325988106,0.0,-0.00829755816963,0.00860299609273,-0.999928566942,0.0,0.657681467862,0.255593639691,0.303584934577,1.0,-0.01282,-0.0168491428571,0.642
0.461953899061,0.524310243519,-0.124082258054,-1.39230074091,0.0772783083372,1.90750881775,0.154509789688,-0.00901622544071,-0.0727425631593,-0.00127562097365,-0.112363348047,-0.00183622767617,0.0319416827006,-0.0117934724733,0.57402564212,0.818822460235,0.00225559388797,0.0,0.818783371911,-0.573965919432,-0.0117328647007,0.0,-0.00831265916454,0.00858197319258,-0.999928622169,0.0,0.657454868716,0.255308160429,0.303586739142,1.0,-0.01316,-0.017296,0.659
0.461794262951,0.523130489898,-0.124087347558,-1.39421046231,0.0771700415636,1.90821771698,0.154259101388,-0.00744631404998,-0.0654445176664,0.00218796515245,-0.11300902379,-0.00483261395094,0.0531908119334,-0.0180746240897,0.574028081024,0.818820796236,0.00223891689226,0.0,0.818781418206,-0.573968345755,-0.0117504967446,0.0,-0.00833664418185,0.00857846380767,-0.999928452602,0.0,0.65722603463,0.255019665874,0.30356878025,1.0,-0.0135,-0.0177428571429,0.676
0.461633794251,0.521899770096,-0.124088312451,-1.39614792672,0.0770534401877,1.90897726766,0.153994799976,-0.0125252377226,-0.0724590823491,0.00065188488091,-0.113566657364,-0.00209918573516,0.0420384808783,-0.0143675457365,0.574016274007,0.818828955172,0.00228172048284,0.0,0.818790154269,-0.573956400733,-0.0117251963921,0.0,-0.00829148187186,0.00859886936604,-0.999928652842,0.0,0.65700122327,0.254732508148,0.303577340047,1.0,-0.01384,-0.0181897142857,0.693
0.461470868735,0.520654055548,-0.124097056186,-1.39816603284,0.0769241659175,1.90973483774,0.153717476313,-0.0116435419944,-0.0751341560509,-0.000940437741479,-0.115873746229,-0.00886867246691,0.0523444163532,-0.018202827,0.574001752045,0.818839191943,0.00226125809252,0.0,0.818800201453,-0.573942036077,-0.0117267312118,0.0,-0.0083046359259,0.00858284808948,-0.999928681327,0.0,0.656759803763,0.254427725052,0.303557797673,1.0,-0.01418,-0.0186365714286,0.71
0.461311062034,0.519404675732,-0.124096942477,-1.40008806754,0.0767979156413,1.91043938127,0.153480017099,-0.012070104928,-0.077445353188,0.00211305639274,-0.11919143665,-0.00382523303978,0.041201357879,-0.0142267664126,0.574006170247,0.818836033316,0.00228341027635,0.0,0.818797375261,-0.573946417349,-0.0117096190864,0.0,-0.00827786227138,0.00859120935514,-0.999928831527,0.0,0.656526920846,0.254138557104,0.303581254185,1.0,-0.0145,-0.0190571428571,0.726
0.461136279283,0.518069225753,-0.124101469954,-1.4021858666,0.0766610636224,1.91118210102,0.153177561533,-0.0141298179394,-0.084158431426,0.0016582356329,-0.121626305392,-0.0126118903079,0.0458310954197,-0.0200224950409,0.573978982971,0.818855151443,0.00226162882069,0.0,0.818816229687,-0.573919334481,-0.0117186352099,0.0,-0.00829803206469,0.00857827386182,-0.999928775404,0.0,0.656267114535,0.253818074808,0.303584573809,1.0,-0.01484,-0.019504,0.743
0.460956416587,0.516708440525,-0.124103968638,-1.4043101084,0.0765279151424,1.91195240163,0.152894576964,-0.00982363171715,-0.0815285538776,0.00154641703716,-0.123894468625,-0.00846236775616,0.0476964279185,-0.0133160445765,0.573972674198,0.818859564182,0.00226502149599,0.0,0.818820674906,-0.57391300182,-0.0117181734941,0.0,-0.00829577287378,0.00858072301266,-0.999928773136,0.0,0.65600708281,0.253495138107,0.30359500525,1.0,-0.01518,-0.0199508571429,0.76
0.460773955459,0.515330104595,-0.124107046376,-1.40648950619,0.0763895486283,1.9127854949,0.152595073288,-0.00948482205459,-0.083663694158,8.8513417417e-05,-0.12260508366,-0.00428507518849,0.0416574032651,-0.0149464981868,0.573956848938,0.818870596953,0.00228646083231,0.0,0.818832045574,-0.573897160411,-0.0116994578606,0.0,-0.00826830785386,0.00858737670203,-0.999928943499,0.0,0.65574726218,0.253167279752,0.303596558152,1.0,-0.01552,-0.0203977142857,0.777
0.460560931458,0.5137768636,-0.124113571604,-1.40898767681,0.0762478847945,1.91367216234,0.152248073479,-0.0112394788466,-0.0870309338085,-0.000902002076203,-0.128784650511,-0.0103507530854,0.0477174549227,-0.0121961196736,0.57394490803,0.818879091149,0.00224132247802,0.0,0.818839790918,-0.57388522179,-0.011742909426,0.0,-0.00832992152758,0.00857523219957,-0.999928536347,0.0,0.655434810091,0.252785050149,0.303573326128,1.0,-0.0159,-0.0208971428571,0.796
0.460403020178,0.51262973047,-0.124113105859,-1.41086355348,0.076144560286,1.91432123632,0.151983720467,-0.00320560381197,-0.0780767108629,0.000754266728291,-0.136824096998,-0.00482095869834,0.0497068881207,-0.0197526281551,0.573927828882,0.818891226635,0.00218015527484,0.0,0.818850928428,-0.573868171693,-0.0117993826937,0.0,-0.00841145119248,0.00855738101854,-0.999928006768,0.0,0.655193728301,0.252501684998,0.303540486258,1.0,-0.01618,-0.0212651428571,0.81
0.460200017122,0.511190103126,-0.12412166677,-1.41316089588,0.0759959279951,1.91519303539,0.151650554143,-0.0149564612449,-0.0856488499416,-0.00221484330943,-0.131074462509,-0.0130246495719,0.052350936856,-0.0209220849756,0.573907493831,0.818905469227,0.00218355118235,0.0,0.818865312576,-0.573847925113,-0.0117858221774,0.0,-0.00839860962429,0.00855217064582,-0.999928159286,0.0,0.654919633964,0.252145144661,0.30353109082,1.0,-0.01652,-0.021712,0.827
0.460007086997,0.50972494271,-0.124123099204,-1.41549993803,0.0758491390244,1.91607083028,0.151319801537,-0.0136713813983,-0.0845137583591,-0.00136516271904,-0.140743651848,-0.0180713715731,0.0508869159882,-0.0206829910656,0.573878066312,0.818926094049,0.00218274897877,0.0,0.818885936309,-0.57381851383,-0.0117848802898,0.0,-0.00839860590871,0.00855067138057,-0.999928172139,0.0,0.654632279949,0.251795531884,0.303519549825,1.0,-0.01686,-0.0221588571429,0.844
0.45978595505,0.508135212541,-0.124125559055,-1.41800999303,0.0756960418302,1.91696880002,0.150968810596,-0.0093412415516,-0.0932103114648,-0.00188107111909,-0.14176909721,-0.0101059116714,0.0573794994812,-0.0283825344546,0.573862389917,0.818937129053,0.00216402360671,0.0,0.818896643085,-0.573802826011,-0.011804732421,0.0,-0.00842577303925,0.00854656817445,-0.999927978667,0.0,0.654318039776,0.251408683431,0.303515018362,1.0,-0.01722,-0.022632,0.862
0.459583129624,0.506704544721,-0.124125248288,-1.42026762341,0.0755559064008,1.91779021013,0.150666112774,-0.00988439484943,-0.0908693361544,0.000585354342711,-0.141039673483,-0.0102774423311,0.0497766233079,-0.0185261993273,0.573859358597,0.818939268787,0.00215812187435,0.0,0.818898658427,-0.573799769858,-0.0118134769935,0.0,-0.00843635280197,0.00854672198878,-0.999927888147,0.0,0.654037785199,0.25106026134,0.303512128063,1.0,-0.01754,-0.0230525714286,0.878
0.459377967832,0.505194927291,-0.124129087536,-1.42257983996,0.0754067437064,1.91866718518,0.150351433702,-0.0113595627579,-0.0958469915272,0.00149673982686,-0.140637511919,-0.00856618175105,0.0574142707308,-0.0233470031329,0.573851476,0.818944638376,0.00221577744704,0.0,0.818904851957,-0.573791740273,-0.0117740875192,0.0,-0.00837109221772,0.00857125342689,-0.999928226639,0.0,0.653758749015,0.250704798372,0.303542833779,1.0,-0.01786,-0.0234731428571,0.894
0.459151005476,0.503546008468,-0.124135155351,-1.4250555404,0.0752537058654,1.91961176806,0.149998549082,-0.011380479691,-0.0980570127482,0.00111803249253,-0.143314500143,-0.00567074232487,0.0522701426474,-0.0191335765379,0.573838771186,0.818953268909,0.00231407177622,0.0,0.818914798905,-0.5737787064,-0.0117172999323,0.0,-0.00826831516277,0.00861903456118,-0.99992867106,0.0,0.653462843594,0.250320235008,0.303598380019,1.0,-0.0182,-0.02392,0.911
0.458928038332,0.501960537212,-0.124146538587,-1.42740716328,0.0750987461936,1.9204838715,0.149679712061,-0.0129639471785,-0.100363637075,-0.000184800147291,-0.147437801001,-0.011207465028,0.0490545711147,-0.0180654648606,0.573846816359,0.818947392222,0.00239729627461,0.0,0.818910115912,-0.573786565332,-0.0116596056117,0.0,-0.00817322457441,0.00865416434985,-0.99992914941,0.0,0.653179870186,0.249943983655,0.303661899204,1.0,-0.01852,-0.0243405714286,0.927
0.458692763299,0.500240110605,-0.124145088584,-1.42999621252,0.0749306529196,1.9213982247,0.149310170991,-0.01761260646,-0.103116765501,-0.000175292302084,-0.152389822394,-0.0115430840167,0.0517506774637,-0.0306861624318,0.573822113286,0.818964590354,0.00243494396948,0.0,0.818927771709,-0.573761697912,-0.0116432655762,0.0,-0.00813850132815,0.00867537352549,-0.999929248842,0.0,0.652851538525,0.249541742073,0.303709260682,1.0,-0.01886,-0.0247874285714,0.944
0.45845269537,0.498563531993,-0.124147853207,-1.43261872179,0.074764556094,1.92235982974,0.1489428827,-0.00831812557809,-0.0935633815355,-0.000500462186945,-0.152968158288,-0.00307299681456,0.0606651111834,-0.025991199977,0.573808378353,0.81897418399,0.00244495203657,0.0,0.818937486044,-0.573747919382,-0.011638980067,0.0,-0.00812939457492,0.00868097428793,-0.999929274314,0.0,0.65252429879,0.249132946682,0.30371380301,1.0,-0.0192,-0.0252342857143,0.961
0.458185357595,0.496889509644,-0.124144853236,-1.43526336665,0.07459805581,1.92333780181,0.148546583978,-0.0137503095208,-0.0959515066558,-0.00133279600342,-0.151852643031,-0.0135080003435,0.0610806723741,-0.0237210203339,0.57378968132,0.818987270637,0.00244929495602,0.0,0.818950591816,-0.573729169503,-0.0116410965017,0.0,-0.00812883439542,0.00868555982963,-0.999929239047,0.0,0.652199221811,0.248708235145,0.303706660009,1.0,-0.01954,-0.0256811428571,0.978
0.457917284484,0.495228971517,-0.124145236818,-1.4379730895,0.0744311672975,1.92426084772,0.148154096368,-0.01369092031,-0.0913435637584,0.000376363854499,-0.162912641637,-0.0154697125831,0.0547624513204,-0.0215055013363,0.573779459604,0.818994741481,0.00234351561457,0.0,0.818956514257,-0.573719147061,-0.0117181463172,0.0,-0.00825273932499,0.00864303544548,-0.999928592566,0.0,0.651846736031,0.248269673052,0.303653954615,1.0,-0.01988,-0.026128,0.995
0.457658837633,0.493632577704,-0.124150676519,-1.44058167182,0.0742721488353,1.92519506118,0.147793500477,-0.0162916116889,-0.100394853011,0.000671887258036,-0.168230270081,-0.00592180710539,0.059220446246,-0.0234232030512,0.573789432574,0.818987924144,0.00228343453168,0.0,0.818948850732,-0.573729275362,-0.0117577794965,0.0,-0.00831956636059,0.00861667160869,-0.99992826632,0.0,0.651498518126,0.247819773088,0.303608682216,1.0,-0.0207405714286,-0.0272590367347,1.012
0.45737251409,0.491821832396,-0.124147702258,-1.44346814208,0.0740795100025,1.92627516433,0.147381414894,-0.0183455984423,-0.101387326928,0.00175397312384,-0.173098955623,-0.00956907104147,0.0654013152564,-0.0250738260943,0.573775284676,0.818997871468,0.002270710801,0.0,0.818958663404,-0.573715209196,-0.0117606663795,0.0,-0.00832937977604,0.00860776370858,-0.999928261345,0.0,0.651158891816,0.247386849719,0.303585138697,1.0,-0.0218468571429,-0.0287130122449,1.028
0.457071795312,0.489922984577,-0.124156531031,-1.44653823425,0.0738888243753,1.92732908695,0.146941461965,-0.0184530836859,-0.111956290431,-0.000516850219462,-0.184821208478,-0.00875802295125,0.0583518242673,-0.0302979984355,0.573768812474,0.819002677966,0.00217030345186,0.0,0.818962017479,-0.573708975627,-0.0118309810327,0.0,-0.00844464516421,0.00856580894941,-0.999927654826,0.0,0.650758294258,0.246888041224,0.303536303156,1.0,-0.0230222857143,-0.0302578612245,1.045
0.456741324823,0.487898398004,-0.124171733744,-1.44972342744,0.0736898904986,1.92850935659,0.146492955446,-0.0225333701456,-0.123141066288,0.000381259592914,-0.190284632901,-0.0142416272136,0.0759398740039,-0.0207732807105,0.573787538097,0.818989528615,0.00218175278929,0.0,0.81894903525,-0.573727672408,-0.0118229639989,0.0,-0.00843131409161,0.00857077876191,-0.999927724735,0.0,0.650365729218,0.246361411496,0.303530269141,1.0,-0.0241977142857,-0.0318027102041,1.062
0.456390954521,0.485730967436,-0.124182425522,-1.4530092156,0.073492530161,1.92977970443,0.146004791475,-0.0215269973288,-0.130144662608,0.00158747900052,-0.198088512048,-0.0151142769074,0.0715275734509,-0.0286648441959,0.573791844575,0.818986156994,0.00231098493425,0.0,0.818947358066,-0.573731496337,-0.0117533709578,0.0,-0.00830012307117,0.00863672969207,-0.999928254855,0.0,0.649972348817,0.245820875738,0.303582088293,1.0,-0.0253731428571,-0.0333475591837,1.079
0.456043077278,0.483637465657,-0.124206546262,-1.45624195287,0.0732909481408,1.93089446826,0.145502090808,-0.0262033309479,-0.132274249724,0.000205251986575,-0.208507340903,-0.011733178854,0.0729787580289,-0.0325650598936,0.573786419298,0.818990020062,0.00228887960292,0.0,0.818950863315,-0.573726082162,-0.0117734032287,0.0,-0.00832927018361,0.00863006496388,-0.999928070032,0.0,0.64955954156,0.245268742456,0.303593754392,1.0,-0.0264794285714,-0.0348015346939,1.095
0.455661976672,0.481283117993,-0.124238835176,-1.45986602731,0.0730533469513,1.93216210152,0.144963846057,-0.0211742081387,-0.139915594628,0.000393335228536,-0.217340932917,-0.0124997931713,0.0825018505585,-0.033492111249,0.573793404625,0.818985158403,0.00227728464683,0.0,0.818945920019,-0.573733182243,-0.0117712607026,0.0,-0.00833409450097,0.0086194106759,-0.999928121731,0.0,0.649097922578,0.244652193602,0.303612438498,1.0,-0.0276548571429,-0.0363463836735,1.112
0.45525986772,0.478868712671,-0.124247722264,-1.46360368337,0.0728358846202,1.93356090959,0.144419022414,-0.0209732261303,-0.141785671176,0.00207496171289,-0.219029158368,-0.00957440239937,0.0783348953003,-0.031379004206,0.573806523419,0.818975768851,0.00234747057974,0.0,0.818937297038,-0.573745882882,-0.0117521187835,0.0,-0.00827800831335,0.00866604048155,-0.999928184582,0.0,0.648632703007,0.244035233937,0.303628133049,1.0,-0.0288302857143,-0.0378912326531,1.129
0.454824202128,0.47634620914,-0.124265169665,-1.46744231862,0.072588056765,1.93497557532,0.143871419573,-0.0233458335981,-0.147622485788,0.000491716770673,-0.231509754527,-0.0152728218701,0.0819458559653,-0.0304722570365,0.573845885752,0.818947965403,0.00242410156771,0.0,0.818910561947,-0.573785033991,-0.0117035550435,0.0,-0.00819384714734,0.00870132681489,-0.999928571339,0.0,0.648157708969,0.243377625089,0.303670686885,1.0,-0.0300057142857,-0.0394360816327,1.146
0.45440876683,0.47389111154,-0.12427354945,-1.47123862384,0.0723493950566,1.93633642652,0.143327898739,-0.0321145377444,-0.151927202642,0.000217825304792,-0.235813766129,-0.0127081245379,0.0743790923174,-0.0320083171472,0.573864799053,0.818934663976,0.00244037858686,0.0,0.818897380815,-0.573803788799,-0.0117063467711,0.0,-0.00818659229744,0.00871644778907,-0.999928499066,0.0,0.647670592689,0.24274087142,0.303680466841,1.0,-0.031112,-0.0408900571429,1.162
0.453959961315,0.471205040525,-0.124271312424,-1.475389994,0.0720958444091,1.93777636897,0.14269734515,-0.0199111926246,-0.162360829034,0.000746642941636,-0.239516682717,-0.0117009828806,0.0911330019442,-0.037117127441,0.573847077236,0.818947093477,0.0024365826622,0.0,0.818909487636,-0.573785792321,-0.0117414859026,0.0,-0.00821773745655,0.00873332617069,-0.999928096317,0.0,0.647090861503,0.242007630999,0.303692685216,1.0,-0.0323565714286,-0.0425257795918,1.18
0.453466824989,0.468243156261,-0.124271575933,-1.47986796282,0.0718056970698,1.93951273282,0.141978636533,-0.0241780155556,-0.169739791448,-0.000260938540437,-0.241869872813,-0.00668154684042,0.0968351057413,-0.0413409844371,0.573792676458,0.818984642209,0.00262052845454,0.0,0.818949528453,-0.573730853032,-0.0116329285201,0.0,-0.00802386626055,0.008821139567,-0.999928900006,0.0,0.646535821225,0.241273522508,0.303757017821,1.0,-0.0336011428571,-0.0441615020408,1.198
0.45297396624,0.465367702723,-0.124277815621,-1.48429366638,0.0714943735464,1.94104046284,0.141291568953,-0.031519884479,-0.167739511667,-0.00127353206138,-0.26420793435,-0.0145758377289,0.0914127043464,-0.0494468607551,0.573761566119,0.819006578739,0.00257606834937,0.0,0.818970940103,-0.573699958268,-0.0116492081815,0.0,-0.00806304307177,0.00879376235529,-0.999928826007,0.0,0.645980720646,0.240561760053,0.303759974966,1.0,-0.0347074285714,-0.045615477551,1.214
0.452481614681,0.462595698949,-0.124281020192,-1.4886694819,0.0711995631875,1.9425502666,0.140655558878,-0.0335605767733,-0.167405547959,0.0013111465115,-0.272745317526,-0.0114655108472,0.100368930921,-0.0351151318932,0.573770115173,0.819000859221,0.00248886130332,0.0,0.81896399675,-0.573708717473,-0.0117058286494,0.0,-0.00815935938842,0.00875491101185,-0.999928385629,0.0,0.645395435742,0.239817304876,0.30371885102,1.0,-0.0358137142857,-0.0470694530612,1.23
0.451933743973,0.459570283987,-0.124287133014,-1.49335242856,0.0708870037546,1.94420098446,0.139958099515,-0.0381993105224,-0.176294060408,-0.000219693229411,-0.270628181916,-0.0181929151748,0.0945128758726,-0.0453622525801,0.573783991387,0.818991175221,0.00247649758205,0.0,0.81895410075,-0.573722581727,-0.011718659566,0.0,-0.00817681361252,0.00875228561839,-0.999928266035,0.0,0.644779310873,0.239009592648,0.303716263047,1.0,-0.0369891428571,-0.0486143020408,1.247
0.451362253224,0.456526178153,-0.124295685356,-1.49820677847,0.0705608426628,1.94592782923,0.139202177977,-0.0313213695791,-0.183242024099,-0.000197096611701,-0.29184131143,-0.0132317825091,0.108117078077,-0.0443363285634,0.573773835777,0.818998532858,0.00239488106265,0.0,0.818960359953,-0.573712688449,-0.0117654935847,0.0,-0.00826210740241,0.0087122127781,-0.999927914867,0.0,0.644138659244,0.238168924472,0.303649821717,1.0,-0.0381645714286,-0.0501591510204,1.264
0.450798934156,0.453529500845,-0.124337964906,-1.50291152815,0.0702322814708,1.94751871932,0.138468247786,-0.0308042771533,-0.195730633585,-0.00686087268196,-0.289969700789,-0.0251004634516,0.10818292316,-0.0490194162516,0.573789486842,0.818987905437,0.00227649714184,0.0,0.818948280427,-0.573728879004,-0.0118166951135,0.0,-0.00837179941006,0.00864479528417,-0.999927587623,0.0,0.643508627946,0.237322107695,0.303608823287,1.0,-0.0392708571429,-0.0516131265306,1.28
0.450197634211,0.450165858821,-0.124378051646,-1.50790568101,0.0699082911607,1.94941795411,0.137689548788,-0.0330033983956,-0.195633536793,-0.00179516822506,-0.296598733491,-0.0178866927699,0.112336345761,-0.0437600090384,0.573812418911,0.818971206738,0.00249345915682,0.0,0.818934628005,-0.573751239995,-0.0116763247878,0.0,-0.00813210508683,0.00874216853132,-0.999928719138,0.0,0.642881072247,0.236444304301,0.303705683336,1.0,-0.0404462857143,-0.0531579755102,1.297
0.44956245207,0.446727754285,-0.124390183319,-1.51310798705,0.0695485586747,1.95114935788,0.136922559607,-0.042750791232,-0.200114393894,-0.000231624623354,-0.306764854896,-0.0193934310742,0.102558800397,-0.0470670526294,0.573847570932,0.818946680801,0.00245891063846,0.0,0.818909553949,-0.573786405483,-0.0117068457035,0.0,-0.00817655035881,0.00873173849739,-0.999928447824,0.0,0.642167929332,0.235522557218,0.30373657212,1.0,-0.0416217142857,-0.0547028244898,1.314
0.448930977432,0.443253703276,-0.124394372829,-1.51842257872,0.0691781897028,1.95302846308,0.136092750374,-0.0322369752522,-0.210094205056,-9.98269139595e-05,-0.313141341068,-0.019742412277,0.112217260207,-0.055776990351,0.573823020186,0.818963821907,0.00247927677401,0.0,0.8189269937,-0.573761820697,-0.0116918348132,0.0,-0.00815283233511,0.00873955890269,-0.999928573167,0.0,0.641449802707,0.23460400728,0.303748550661,1.0,-0.0427971428571,-0.0562476734694,1.331
0.448255090562,0.439752170482,-0.124395359343,-1.52383310833,0.0688003384984,1.95495029885,0.135188987324,-0.0439586495276,-0.208754612917,0.00439255672427,-0.322571393978,-0.0261966094433,0.111217175378,-0.0562203239224,0.573771955675,0.818999603822,0.00247764430706,0.0,0.818962773996,-0.573710789434,-0.0116898158982,0.0,-0.00815266028204,0.00873655518986,-0.999928600818,0.0,0.640721430002,0.233650647128,0.303734550244,1.0,-0.0439725714286,-0.057792522449,1.348
0.44758418979,0.436380358066,-0.124408919156,-1.52906423355,0.0684510746012,1.95678866616,0.134365496342,-0.045198682756,-0.206405116857,-0.0015242233119,-0.325073183087,-0.0239773670238,0.121578144264,-0.0531643545064,0.573790141953,0.81898693189,0.00245464701243,0.0,0.818949699477,-0.573728945644,-0.0117146727934,0.0,-0.00818601949305,0.00873216431945,-0.99992836663,0.0,0.640013867431,0.232712368103,0.303707687098,1.0,-0.0450788571429,-0.0592464979592,1.364
0.446844996989,0.432637639925,-0.1244273934,-1.53466103406,0.06805829222,1.95881381249,0.133462856413,-0.0435027481928,-0.217359572081,-0.00277408625153,-0.333481170757,-0.0272017762119,0.122903779982,-0.0558929045966,0.573804155443,0.818976717442,0.00258348336156,0.0,0.818941341974,-0.573742698723,-0.0116250148044,0.0,-0.00803851651508,0.00878637229781,-0.999929088443,0.0,0.639273404407,0.231696064651,0.303772575181,1.0,-0.0462542857143,-0.0607913469388,1.381
0.446090797796,0.428885939609,-0.1244571788,-1.5405356133,0.0676206483722,1.96070320742,0.132547251294,-0.0381727978519,-0.21873637691,-0.00735747031386,-0.348644224031,-0.0237061241977,0.114445906456,-0.0485611259942,0.573823161489,0.818964072805,0.0023608674351,0.0,0.818925819977,-0.573762515923,-0.0117398295593,0.0,-0.0082600804227,0.00867012834002,-0.999928297402,0.0,0.638436305371,0.230617366171,0.303697334741,1.0,-0.0474297142857,-0.0623361959184,1.398
0.44536749384,0.425221820804,-0.1244827811,-1.54608061498,0.067220622486,1.96261207615,0.131615991531,-0.0443771930076,-0.226338082284,-0.000906795649918,-0.348611058655,-0.0258591464941,0.119923175419,-0.0615804636058,0.573793302364,0.818984974103,0.00236754248163,0.0,0.818946928326,-0.573732762162,-0.0117214806143,0.0,-0.00824153848501,0.00866476553688,-0.999928496884,0.0,0.637622676133,0.229539194921,0.303718606145,1.0,-0.0486051428571,-0.063881044898,1.415
0.444557873655,0.421299943662,-0.124501475442,-1.55205781351,0.0668083526419,1.96466564457,0.130638464664,-0.04701886974,-0.229122028888,0.000942412847477,-0.356762148855,-0.0233005417351,0.121520648011,-0.0586593529539,0.573812870531,0.818971300824,0.00235476985709,0.0,0.818932947388,-0.573752226552,-0.011745514486,0.0,-0.00826834402017,0.00866829289406,-0.999928245018,0.0,0.63679122829,0.228441100586,0.303713228598,1.0,-0.0497805714286,-0.0654258938775,1.432
0.443679015418,0.417012520458,-0.124527809123,-1.55842616032,0.066372986672,1.9669789747,0.129624436341,-0.048529120943,-0.24018149534,-0.00442522889001,-0.352812010675,-0.0178338188977,0.126099530684,-0.0560637180196,0.573862943042,0.81893564788,0.00254443215219,0.0,0.818899897202,-0.573801757819,-0.0116296167925,0.0,-0.00806406337922,0.00875760995801,-0.999929135064,0.0,0.635983131521,0.227331124359,0.303793477606,1.0,-0.050956,-0.0669707428571,1.449
0.442883550757,0.413158849333,-0.124524379934,-1.56424115046,0.0659661122425,1.96902885052,0.128627655229,-0.0495573484851,-0.23672181652,-0.00271695242492,-0.364634546937,-0.0251621178864,0.122540482798,-0.0651205511795,0.573821575594,0.818964417253,0.00261334232361,0.0,0.818929500946,-0.573760092796,-0.0116006593526,0.0,-0.00800124974122,0.00879702112244,-0.999929293711,0.0,0.635172200304,0.226274564029,0.303813757341,1.0,-0.0520622857143,-0.0684247183673,1.465
0.442018809828,0.408978039805,-0.124543876545,-1.57062089921,0.0655002913361,1.9710563171,0.127584311486,-0.051638567849,-0.249312432786,9.31780675902e-05,-0.370447696848,-0.0295975130478,0.128884403823,-0.0649000911546,0.57381758639,0.818967695592,0.00245723966831,0.0,0.818930554432,-0.573756438656,-0.0117065374535,0.0,-0.00817757636436,0.00872989378803,-0.99992845554,0.0,0.63423363142,0.225091170051,0.303781627247,1.0,-0.0532377142857,-0.0699695673469,1.482
0.441179351721,0.405019427477,-0.124555116769,-1.5766780551,0.0650862800202,1.97315019011,0.126596371716,-0.050375353342,-0.238841242301,0.00183446683805,-0.37418635513,-0.0311453735278,0.133304240366,-0.0605481131235,0.573832908,0.818956978043,0.00245126767538,0.0,0.818919563752,-0.573771571593,-0.0117336540922,0.0,-0.00820304812435,0.00874071619043,-0.99992815236,0.0,0.633370729694,0.223976581981,0.303754508248,1.0,-0.054344,-0.0714235428571,1.498
0.440174389766,0.400454792205,-0.124555209112,-1.58349677439,0.0646121836651,1.97555126728,0.125403747145,-0.0575440732566,-0.259140714588,-0.000239394906837,-0.368901585101,-0.0273038446752,0.145118473637,-0.0645990128577,0.5738179006,0.818967120098,0.00257294610627,0.0,0.818931184627,-0.573756017352,-0.0116830775003,0.0,-0.00809196881898,0.00881119444934,-0.999928438886,0.0,0.632414217003,0.22269625649,0.303795132188,1.0,-0.0555885714286,-0.0730592653061,1.516
0.439260845541,0.396293081894,-0.124567567054,-1.58963911585,0.0641429702008,1.97767404468,0.124347958847,-0.0569047388035,-0.264021297437,0.00072066633028,-0.386584989008,-0.0287684029375,0.126331380177,-0.0691866005264,0.573818222925,0.818966588372,0.00266853351588,0.0,0.818932134649,-0.573756272983,-0.0116036611814,0.0,-0.00797207645315,0.00884391035978,-0.999929113111,0.0,0.631544877448,0.221524187344,0.303857295015,1.0,-0.0566948571429,-0.0745132408163,1.532
0.438270815052,0.391802869509,-0.124580787421,-1.59644877984,0.0636368469675,1.97983755955,0.123235627962,-0.0609799600809,-0.265386817074,-0.000397321098466,-0.405132285812,-0.0416769173788,0.125137075547,-0.0609011904387,0.573847335411,0.818946643317,0.0025254588508,0.0,0.818910108655,-0.573785637147,-0.0117057015083,0.0,-0.00813742961286,0.00878557855119,-0.999928295354,0.0,0.630525605427,0.220230726341,0.303822541627,1.0,-0.0578702857143,-0.0760580897959,1.549
0.437281416759,0.387291847214,-0.124581571872,-1.60327346827,0.0631225509828,1.9821406135,0.12202099234,-0.0556110684265,-0.256738625968,-0.000266143820228,-0.40598105591,-0.037037848607,0.13669639802,-0.0833434700214,0.573777718626,0.818995503572,0.00249832722144,0.0,0.818958607959,-0.573716118073,-0.0117201200479,0.0,-0.00816555223761,0.00877093919438,-0.999928194613,0.0,0.629520204,0.218953296779,0.303801345854,1.0,-0.0590457142857,-0.0776029387755,1.566
0.436259255872,0.38268327192,-0.124584988187,-1.61006421153,0.0626367287217,1.98446175171,0.120788097228,-0.059593575802,-0.278506461618,-0.000549438893687,-0.389250718119,-0.0259631072705,0.145569780071,-0.0714747713904,0.573726177265,0.819031250556,0.002613624859,0.0,0.818995727938,-0.573664035842,-0.0116755514209,0.0,-0.00806345414285,0.00883928726177,-0.999928421292,0.0,0.628528126278,0.2176665714,0.303857344301,1.0,-0.0602211428571,-0.0791477877551,1.583
0.435237900488,0.378329268658,-0.124591414148,-1.61657757821,0.062141621293,1.986699758,0.11966015343,-0.064771584324,-0.270928941855,0.000942696120929,-0.416557873181,-0.0338122357694,0.125984041529,-0.0709115246039,0.573744370177,0.819018359923,0.00265907870522,0.0,0.81898354228,-0.573682194671,-0.0116380364708,0.0,-0.0080064535847,0.00885517009173,-0.999928738793,0.0,0.627580108852,0.216402703868,0.303863313927,1.0,-0.0613274285714,-0.0806017632653,1.599
0.434116661903,0.373602569628,-0.12462680608,-1.62378571268,0.0615601066257,1.98898297952,0.118380595986,-0.0677242524883,-0.285276152337,-0.00434304336044,-0.415542601293,-0.0334061294588,0.145855229702,-0.0699094584038,0.573736597774,0.819024441349,0.0024551475131,0.0,0.818987079256,-0.57367526112,-0.0117305452349,0.0,-0.0081993037291,0.00874114549816,-0.999928179318,0.0,0.626485646243,0.214978004244,0.303787811962,1.0,-0.0625028571429,-0.0821466122449,1.616
0.432973743346,0.368777114671,-0.124680751773,-1.63096034643,0.061025381762,1.99129034491,0.117154538076,-0.0654253097305,-0.290437616024,-0.000683469529099,-0.432747264431,-0.0337745773599,0.140457211014,-0.0738527069733,0.573814728037,0.818969850764,0.00240589459515,0.0,0.818931750306,-0.573753459731,-0.0117687165543,0.0,-0.00825799268437,0.00872349431508,-0.999927850499,0.0,0.62540449606,0.213545260793,0.303790075757,1.0,-0.0636782857143,-0.0836914612245,1.633
0.431720300611,0.3635527886,-0.124704007607,-1.63844549389,0.0604421931677,1.99393366316,0.115768408817,-0.0720666901404,-0.287653828887,0.000596862961668,-0.415113046091,-0.0242901476456,0.148331988542,-0.0783896772484,0.573821455251,0.818964226901,0.00269804566271,0.0,0.818930378968,-0.573759654148,-0.0115603017528,0.0,-0.00791959631815,0.00884323099154,-0.999929536147,0.0,0.624326507549,0.212047892909,0.303930456488,1.0,-0.0649228571429,-0.0853271836735,1.651
0.430576178464,0.358930938195,-0.1247212943,-1.64532729619,0.0599302492989,1.99618594002,0.114465685684,-0.0755479760785,-0.287285427052,-0.00160399809105,-0.428809247838,-0.0334819889234,0.133268280486,-0.078577839711,0.573798045033,0.818980669262,0.00268585026585,0.0,0.818946473077,-0.573736075693,-0.0115903660496,0.0,-0.0079514696433,0.00885026737798,-0.999929220944,0.0,0.623281689756,0.210672770307,0.303919169802,1.0,-0.0660291428571,-0.0867811591837,1.667
0.429314974122,0.353932580065,-0.12475491439,-1.65282713162,0.0593630798344,1.99851674517,0.113120666681,-0.0707983608363,-0.294278445868,-0.00192497980597,-0.440432948443,-0.0275126584884,0.149923819136,-0.0790145871588,0.573848555869,0.81894575883,0.00253494043862,0.0,0.818909267067,-0.573786736595,-0.0117106840399,0.0,-0.00813605647004,0.00879621469558,-0.999928213019,0.0,0.622113286927,0.209150838556,0.303865144558,1.0,-0.0672045714286,-0.0883260081633,1.684
0.428109501962,0.349212038052,-0.124782161195,-1.65990907534,0.0588363973202,2.00076797438,0.111784618042,-0.0743314951181,-0.301182986864,-0.0022948889411,-0.437095908766,-0.0319549469955,0.147395531626,-0.0826888406611,0.573849876616,0.818945120981,0.00244025225249,0.0,0.818907046768,-0.5737880296,-0.0118022346033,0.0,-0.00826535404702,0.0087712195095,-0.999927372178,0.0,0.621012252466,0.207715107485,0.303813080677,1.0,-0.0683108571429,-0.0897799836735,1.7
0.426791839152,0.344019785891,-0.124795943857,-1.66727806469,0.0582731977601,2.00332118766,0.110400817306,-0.0749351614576,-0.300800338796,-0.00240904911081,-0.442613882533,-0.0421070259459,0.137283246805,-0.079278733584,0.573888252899,0.818917270685,0.0027429654482,0.0,0.818883361376,-0.573825571862,-0.0116189689873,0.0,-0.00794114354596,0.00891433020745,-0.999928733939,0.0,0.619917604005,0.206207628618,0.303953019984,1.0,-0.0694862857143,-0.0913248326531,1.717
0.425465663146,0.338825612079,-0.124787174182,-1.67495782841,0.0576479781203,2.00569399121,0.108954354641,-0.0795442707405,-0.307437270471,-0.00219584706154,-0.452156501819,-0.0304905926162,0.138541170726,-0.089398688399,0.57384889384,0.818945222204,0.00263001302595,0.0,0.818909662318,-0.573786404507,-0.0116993105296,0.0,-0.0080721841579,0.0088675502129,-0.999928100613,0.0,0.61868919634,0.204658453757,0.303925152298,1.0,-0.0706617142857,-0.0928696816326,1.734
0.424123041783,0.333581662408,-0.12478141565,-1.6827728511,0.0569890707605,2.0081164839,0.107466993288,-0.0839078442085,-0.313834771464,-0.000224697060194,-0.45351489837,-0.0358672935384,0.150462139978,-0.0800036694018,0.573779961764,0.818994007159,0.0024735838257,0.0,0.818956382363,-0.573718015565,-0.011782584756,0.0,-0.00823088517026,0.00878653746023,-0.999927522018,0.0,0.617428590567,0.203085370656,0.303863507477,1.0,-0.0718371428571,-0.0944145306122,1.751
0.42275141727,0.32820903601,-0.124778883385,-1.69040339977,0.056383621991,2.01065841885,0.10593543076,-0.0807329582938,-0.324922087693,0.00236507678225,-0.445310575503,-0.0381215225111,0.146549208377,-0.100450569047,0.573708293829,0.819043498909,0.00269951630357,0.0,0.819008941225,-0.573645689643,-0.0116500578578,0.0,-0.00799349215813,0.00889483405931,-0.999928490448,0.0,0.616310635003,0.201628568387,0.303980359431,1.0,-0.0729434285714,-0.0958685061224,1.767
0.421290576756,0.322886161446,-0.124789854827,-1.69823310031,0.0557530141612,2.01318807882,0.104415122334,-0.0888922211455,-0.308667139629,-0.00328162412538,-0.47135002804,-0.0409390913172,0.140730071656,-0.0832493193632,0.573723103321,0.819033132255,0.00269738477963,0.0,0.818998514745,-0.573660468834,-0.0116553097213,0.0,-0.00799885581391,0.008896245872,-0.999928434997,0.0,0.615003063883,0.199896044697,0.303952470119,1.0,-0.074188,-0.0975042285714,1.785
0.419889030592,0.317755154177,-0.124830552839,-1.70575991106,0.0551385092123,2.0154658223,0.103005646723,-0.085470285046,-0.32358684086,-0.00269938355834,-0.471183342988,-0.0459206761885,0.144629972756,-0.0906882884148,0.573791979355,0.818985259168,0.00258003761501,0.0,0.818948948507,-0.573729565347,-0.0117368005527,0.0,-0.00813217935268,0.00884757145553,-0.999927791462,0.0,0.613777126739,0.198300812157,0.303920389502,1.0,-0.0752942857143,-0.0989582040816,1.801
0.418362312118,0.312226948,-0.124859464517,-1.71375049398,0.0544698844935,2.01797095295,0.101310508721,-0.0932401121562,-0.333518796151,-0.000599939160902,-0.465025578462,-0.0495476196062,0.162095539716,-0.0940877105466,0.57371225483,0.819041079643,0.00258948199257,0.0,0.819004974288,-0.573649906829,-0.0117210659766,0.0,-0.00811473466207,0.00884548812626,-0.999927951615,0.0,0.61248928538,0.196600510254,0.30393792433,1.0,-0.0764697142857,-0.100503053061,1.818
0.416779294102,0.306651424085,-0.12486656853,-1.72165363728,0.053807209967,2.02056697901,0.0997191871444,-0.0954747898505,-0.327585404552,0.000725817864469,-0.471844670976,-0.0347584042199,0.14762575616,-0.0948145442441,0.573740866999,0.819020393337,0.00278563020288,0.0,0.818987146842,-0.573678185131,-0.0115818873423,0.0,-0.00788789851394,0.00892656928139,-0.999929046192,0.0,0.611240699259,0.194899816232,0.304025997456,1.0,-0.0776451428571,-0.102047902041,1.835
0.415165429283,0.301068062616,-0.12491502236,-1.72986204516,0.0531155028803,2.02298596593,0.0980432694015,-0.0957615492835,-0.331065717204,-0.00754680250755,-0.486253025795,-0.0465899695904,0.138698773694,-0.0823043332512,0.57375077423,0.819014093639,0.00259044246893,0.0,0.818978094789,-0.573688520424,-0.0117093420183,0.0,-0.00810416506329,0.00883992988264,-0.999928086488,0.0,0.609871292865,0.193114910534,0.303953558755,1.0,-0.0788205714286,-0.10359275102,1.852
0.413503132705,0.295441529064,-0.124970460593,-1.73809667744,0.0524776827178,2.02546678853,0.0964144803666,-0.0990400479281,-0.332450150569,-0.00345470296751,-0.481299506243,-0.0335047620339,0.144404538248,-0.09635621878,0.573859422946,0.818938281248,0.00249020149191,0.0,0.818900416197,-0.573796916641,-0.0118302031743,0.0,-0.00825949533741,0.00882827057665,-0.999926918517,0.0,0.608503473763,0.191311391491,0.303893712659,1.0,-0.079996,-0.1051376,1.869
0.411905519943,0.28996577106,-0.124990494828,-1.74566605871,0.0518316577593,2.02800339722,0.0947531629233,-0.103403440386,-0.337773469516,-0.000780271552992,-0.480325478144,-0.042511280036,0.15936759141,-0.0991940964183,0.573831761682,0.818956562263,0.00282936621659,0.0,0.818923664567,-0.573768675415,-0.011588167498,0.0,-0.00786695557403,0.00896686616052,-0.99992885063,0.0,0.607304704338,0.18964399199,0.304045026089,1.0,-0.0811022857143,-0.10659157551,1.885
0.410186584893,0.284196337426,-0.125006669928,-1.75401655539,0.0511209699097,2.0303949542,0.0930192618679,-0.10367252588,-0.334318438789,0.0011021017599,-0.487572741974,-0.0390585610078,0.136186946908,-0.102042202252,0.573835008777,0.818954853321,0.00266041807954,0.0,0.818919342297,-0.573772032037,-0.0117265922447,0.0,-0.00807723165592,0.00890796849361,-0.999927700599,0.0,0.605869910121,0.187815374141,0.303996044966,1.0,-0.0822777142857,-0.10813642449,1.902
0.408432544131,0.278379665716,-0.125020014858,-1.76243899955,0.0503616104281,2.0328658993,0.0911858041225,-0.109329523176,-0.342654373033,0.0007101842212,-0.490365618031,-0.0367573338237,0.137911415966,-0.106872982209,0.573761751178,0.819006646844,0.00251241129852,0.0,0.81896918693,-0.573699298179,-0.0118039413209,0.0,-0.00822629618374,0.00883040749414,-0.999927173325,0.0,0.60442600217,0.185964291553,0.303941171498,1.0,-0.0834531428571,-0.109681273469,1.919
0.406624457161,0.2724035387,-0.125043302563,-1.77069250324,0.0496651419575,2.03554021941,0.0893969618927,-0.10255314205,-0.346952801543,-0.000144827883614,-0.48576313664,-0.0462852713604,0.159184966786,-0.115461771383,0.573789983552,0.818985853274,0.00282379428573,0.0,0.818952763863,-0.573726785106,-0.0116057534584,0.0,-0.00788501329256,0.0089719919595,-0.999928662418,0.0,0.603073182384,0.184120921243,0.304073994913,1.0,-0.0846285714286,-0.111226122449,1.936
0.404980288951,0.267187758104,-0.125090310427,-1.77816850595,0.0490108001054,2.03774397885,0.0877618401389,-0.1082926048,-0.353048741189,-0.00284866723889,-0.509619420915,-0.0444010400875,0.138456800318,-0.105511776804,0.573814451973,0.818968946036,0.00275445756365,0.0,0.818934889823,-0.573751408836,-0.0116496347754,0.0,-0.00796046846969,0.00894062233043,-0.99992834554,0.0,0.601793218114,0.18242057577,0.304044047453,1.0,-0.0856657142857,-0.11258922449,1.951
0.402967642084,0.260823539056,-0.125157889162,-1.78730353755,0.048184481174,2.0402936147,0.0857914479584,-0.114951077625,-0.346712305402,-0.00216601465871,-0.509374823503,-0.0470047656971,0.144105827203,-0.113666540709,0.57386042545,0.818937432739,0.0025377672859,0.0,0.818900377271,-0.573797945851,-0.0117828835024,0.0,-0.00819343645907,0.00884007932649,-0.99992735766,0.0,0.600188318189,0.180331120515,0.303979650873,1.0,-0.0869102857143,-0.114224946939,1.969
0.401039963614,0.254693010385,-0.125157033111,-1.79572432019,0.0474338781253,2.04287144483,0.0839056105623,-0.11180058853,-0.363905933841,0.00193616186005,-0.494738155084,-0.0514297486793,0.154015120697,-0.111998918821,0.573853612928,0.818941508904,0.0027536929287,0.0,0.818907497253,-0.573790628595,-0.0116435553519,0.0,-0.00795550076038,0.00893688815323,-0.999928418457,0.0,0.598749280753,0.178423249104,0.304093180668,1.0,-0.0880857142857,-0.115769795918,1.986
0.399071162771,0.248612258126,-0.125145351312,-1.80431450483,0.046684208955,2.04542709242,0.0819253754297,-0.122157527185,-0.354853543413,-0.000197184508903,-0.517007180302,-0.0339786782758,0.14869124785,-0.11769822417,0.573793273613,0.818983687439,0.00278312190209,0.0,0.818949838505,-0.573729949582,-0.0116556366473,0.0,-0.00794916893845,0.00896733578918,-0.999928196223,0.0,0.597245222562,0.176486220796,0.304084706838,1.0,-0.0892611428571,-0.117314644898,2.003
0.397179589258,0.242860028269,-0.125166916128,-1.81257506454,0.0459572244098,2.04773045143,0.0800668401917,-0.120603949697,-0.352686826868,0.00110037501182,-0.525341970178,-0.0451736046017,0.144863403375,-0.11699340989,0.573788160312,0.818987850269,0.00260674093481,0.0,0.81895118658,-0.573724886434,-0.0118091315029,0.0,-0.00817614049239,0.00891090498417,-0.999926870576,0.0,0.595756912749,0.174602988955,0.303995552123,1.0,-0.0903674285714,-0.118768620408,2.019
0.395119675083,0.23653870544,-0.125154923508,-1.82117716519,0.0452225905007,2.05025429119,0.0780446790578,-0.121777880398,-0.377692418725,0.00182577054992,-0.498443342828,-0.044045689175,0.147405544218,-0.118423861632,0.573760280224,0.819006680876,0.00281858466146,0.0,0.818972514954,-0.573695959009,-0.0117351296565,0.0,-0.00799429287412,0.00904166872912,-0.999927167102,0.0,0.594236284076,0.172630005558,0.304107273462,1.0,-0.0915428571428,-0.120313469388,2.036
0.392900897955,0.229896125465,-0.125152697812,-1.83040330431,0.04433135682,2.05293600668,0.0758944565649,-0.124511565375,-0.368777217987,0.00127686082781,-0.524125423518,-0.0490114223768,0.143772586721,-0.124017602746,0.573715057946,0.819038245683,0.00285154287527,0.0,0.8190048484,-0.573651014707,-0.0116755524232,0.0,-0.00792708613116,0.00903404160859,-0.99992777109,0.0,0.592587546056,0.170494207828,0.304128536894,1.0,-0.0927874285714,-0.121949191837,2.054
0.390837436043,0.223950333537,-0.125193103213,-1.83879563574,0.0435323732946,2.05519834505,0.0738747060567,-0.126509476399,-0.369870203543,5.22703406107e-05,-0.525073194918,-0.0542624828672,0.13621642266,-0.123680820198,0.57368937078,0.819056850076,0.00267003725502,0.0,0.819020894133,-0.5736257498,-0.0117907184562,0.0,-0.00812582304374,0.00895119849047,-0.999926920852,0.0,0.591048771936,0.168500351461,0.304063751243,1.0,-0.0938937142857,-0.123403167347,2.07
0.388599148613,0.2175427911,-0.125245252327,-1.84753119546,0.042756676532,2.05778251051,0.0717278122384,-0.138066589075,-0.384905591992,-0.000898467264819,-0.511198270376,-0.0490982686931,0.149750506528,-0.129941880472,0.573724048571,0.819031875605,0.00287223527998,0.0,0.818998620893,-0.573659789321,-0.0116812667956,0.0,-0.00791979644806,0.00905435473598,-0.999927645125,0.0,0.589499643134,0.166396954255,0.304139195042,1.0,-0.0950691428571,-0.124948016327,2.087
0.386429887018,0.211497292093,-0.125284698529,-1.85582718268,0.0419810080796,2.06012970823,0.0697421855037,-0.140236561204,-0.385817644015,-0.000562352134577,-0.531999414455,-0.0473591484162,0.140209378394,-0.12355202561,0.573806266984,0.8189740721,0.00292986323979,0.0,0.818941620587,-0.573741864965,-0.0116465170084,0.0,-0.00785736153945,0.00908240626213,-0.999927883283,0.0,0.587998068876,0.164377328573,0.304166720028,1.0,-0.0961754285714,-0.126401991837,2.103
0.3839586696,0.204654794889,-0.125358713715,-1.86540941526,0.041032877122,2.06258854484,0.0673831128911,-0.135307635747,-0.37987587345,-0.00448624820091,-0.539786800101,-0.0515758198594,0.132915402986,-0.128768606892,0.573812874133,0.818970368803,0.00265845877948,0.0,0.818934149052,-0.573749155159,-0.0118115778777,0.0,-0.00814820069002,0.0089549105382,-0.999926705515,0.0,0.586191554428,0.162038210243,0.304079465444,1.0,-0.09742,-0.128037714286,2.121
0.381704260718,0.198461942912,-0.125385238794,-1.87373553695,0.0402569613311,2.06497914258,0.0652101399943,-0.143828967862,-0.384963643459,-0.00242447693477,-0.521496592316,-0.0527172210965,0.15510517833,-0.133042821329,0.57378808406,0.818987069901,0.00285671622847,0.0,0.818953579119,-0.573723830392,-0.0116939552963,0.0,-0.00793838484524,0.00904954441615,-0.999927541271,0.0,0.584674946847,0.159996891597,0.304163649704,1.0,-0.0985262857143,-0.129491689796,2.137
0.379082334153,0.191526717428,-0.125446179428,-1.88320854682,0.0393614541451,2.06761776215,0.062803656695,-0.142380922494,-0.378947131955,-0.00803917578108,-0.527848685444,-0.0506080048384,0.133131746161,-0.13502231276,0.573872295973,0.818927844431,0.00291897794595,0.0,0.818895169265,-0.573807826897,-0.0116630376406,0.0,-0.00787640552783,0.00908360601553,-0.999927722557,0.0,0.582926795614,0.157628063275,0.304173234099,1.0,-0.0997708571428,-0.131127412245,2.155
0.376696489631,0.185303390039,-0.125551239591,-1.89178619883,0.0385571593955,2.06977837183,0.0605773075136,-0.148370963287,-0.391551788171,-0.00507269903246,-0.541306839392,-0.0559676216739,0.139896545114,-0.139886358315,0.573953940654,0.818871181485,0.00275844932046,0.0,0.818835831623,-0.573889358193,-0.0118166113772,0.0,-0.00809339363238,0.00904108187728,-0.999926375199,0.0,0.581288679026,0.155447917307,0.30411731997,1.0,-0.100877142857,-0.132581387755,2.171
0.374141794741,0.178559096535,-0.125580972342,-1.90072290599,0.0376742116108,2.07226793509,0.0581982610493,-0.146714297037,-0.402172488208,0.00564800437579,-0.532223006409,-0.0518211648994,0.149607467159,-0.130863389846,0.573958397395,0.818867309309,0.00297232339799,0.0,0.818835147927,-0.573893530265,-0.0116603319432,0.0,-0.00784261847074,0.00912656401915,-0.999927596961,0.0,0.579621430076,0.153201941881,0.304222203419,1.0,-0.102052571429,-0.134126236735,2.188
0.37158242773,0.17184189323,-0.125552399953,-1.90983780079,0.036728977301,2.07463606302,0.0557754210509,-0.154023430374,-0.394278277501,0.000894907374393,-0.548020512204,-0.0593285357819,0.131695590672,-0.151868542758,0.573854438277,0.818940391497,0.00290959551209,0.0,0.818907454761,-0.573789842456,-0.0116852099688,0.0,-0.00790014617836,0.00908847403926,-0.999927491036,0.0,0.577849961858,0.150968005606,0.304204353034,1.0,-0.103228,-0.135671085714,2.205
0.369098779198,0.165519031852,-0.125558599288,-1.91851539603,0.0358646084966,2.07677923561,0.053433478971,-0.159777222311,-0.396870955261,0.000214456534719,-0.538569928972,-0.0603382042328,0.139050337791,-0.148725467639,0.573798413487,0.818980275401,0.0027269184981,0.0,0.818944405683,-0.573733845683,-0.0118440541592,0.0,-0.00813567793739,0.00902946797981,-0.999926136998,0.0,0.576133944083,0.148805419787,0.304123700081,1.0,-0.104334285714,-0.137125061224,2.221
0.366416673544,0.158612782583,-0.125559307592,-1.92750554387,0.0349846224926,2.07924919882,0.0509089729815,-0.161458778169,-0.410307504482,0.00144826605678,-0.525790182748,-0.058745964474,0.143557196853,-0.141870806892,0.57374394203,0.819017367234,0.0030311804599,0.0,0.818985759539,-0.573678660394,-0.0116562078816,0.0,-0.007807863471,0.00917034884796,-0.999927468355,0.0,0.574415510614,0.146535212028,0.304259260354,1.0,-0.105509714286,-0.138669910204,2.238
0.363627438601,0.151749898005,-0.125572399518,-1.93672234069,0.0340248076589,2.0814985689,0.0483491579573,-0.165585261501,-0.395860133731,-0.000539404199235,-0.551914945227,-0.0514045736214,0.121429553006,-0.155014464,0.573721429833,0.819033541814,0.00291980070391,0.0,0.819000273078,-0.573656282016,-0.0117375339481,0.0,-0.00793862482879,0.00912556802873,-0.999926848446,0.0,0.572581589641,0.144168204977,0.304231922109,1.0,-0.106685142857,-0.140214759184,2.255
0.360951087839,0.145277916204,-0.125618976492,-1.9455054904,0.0331451206172,2.0835779385,0.0459114060665,-0.165052594296,-0.397304377268,-0.00514095493696,-0.544195592761,-0.0459126527931,0.13962472826,-0.158232251478,0.573750439042,0.819013875058,0.00273002973536,0.0,0.818977427133,-0.573685179971,-0.0119178449924,0.0,-0.00819486058598,0.00907387622572,-0.999925251721,0.0,0.57080874367,0.141896905812,0.304148436344,1.0,-0.107791428571,-0.141668734694,2.271
0.358051252473,0.138242660565,-0.125662827619,-1.95454752662,0.0322299774192,2.08602397467,0.0432671180498,-0.174908234806,-0.41397269252,-0.00171750986628,-0.535953909405,-0.0548721056882,0.148642400285,-0.160880479342,0.573774523297,0.818995812148,0.00306643116454,0.0,0.818964315343,-0.573708711379,-0.0116838172241,0.0,-0.00780990946949,0.00921535178137,-0.999927038641,0.0,0.5690596122,0.139508411444,0.304293151781,1.0,-0.108966857143,-0.143213583673,2.288
0.3550682091,0.131260959695,-0.125694101119,-1.9638275033,0.0312283913609,2.08824129607,0.0405093832527,-0.176697046355,-0.402996372544,-0.000882455686053,-0.551950993687,-0.0566983220537,0.130770555666,-0.161448111112,0.573723237462,0.819032109462,0.00296603565341,0.0,0.818999243841,-0.57365770017,-0.0117400393909,0.0,-0.00791413240754,0.00916489081719,-0.999926682955,0.0,0.5671802055,0.137051772714,0.304262685307,1.0,-0.110142285714,-0.144758432653,2.305
0.35202013526,0.124230476011,-0.125814140968,-1.97320727361,0.0302228486391,2.09043512612,0.037828813902,-0.179582108156,-0.408687990932,-0.00811251480754,-0.544150675164,-0.0546684668998,0.137711810969,-0.152834643445,0.573851887718,0.81894253518,0.00280747864172,0.0,0.818907409312,-0.573786674752,-0.0118428777266,0.0,-0.00808789819205,0.00909529791326,-0.999925927986,0.0,0.565267523475,0.134514409619,0.304199045373,1.0,-0.111317714286,-0.146303281633,2.322
0.349078404258,0.117443761459,-0.125886885519,-1.98177872242,0.0293214915959,2.09270057883,0.035141729917,-0.183631273694,-0.423583254464,-0.00551502292847,-0.534958063607,-0.0549749293728,0.137863478984,-0.168202547766,0.573873383447,0.818926153914,0.00316877076516,0.0,0.818896493194,-0.573807831016,-0.0115695030576,0.0,-0.00765645057232,0.0092345029246,-0.999928048772,0.0,0.563581717183,0.132159791746,0.304358771671,1.0,-0.112424,-0.147757257143,2.338
0.34588162633,0.110362679795,-0.125891731183,-1.99115251671,0.0282782734942,2.09480336577,0.0322428769636,-0.188242990297,-0.415554036499,-0.000241255379202,-0.552110098984,-0.0612472951919,0.11803569753,-0.178547114638,0.573819043488,0.818964927358,0.00298328487957,0.0,0.818932589526,-0.573753786699,-0.0116941422299,0.0,-0.00786557278199,0.00915360695577,-0.99992716947,0.0,0.561622030672,0.129626992094,0.304289559831,1.0,-0.113599428571,-0.149302106122,2.355
0.342693054795,0.103165694356,-0.125896292331,-2.00052898738,0.0272500903943,2.09693749768,0.0293692397181,-0.187957974941,-0.427890879139,8.61294404811e-05,-0.546721769523,-0.0653695516832,0.128289621757,-0.170602885787,0.573775926727,0.818995347267,0.00292471627018,0.0,0.81896206919,-0.573710670331,-0.011744908578,0.0,-0.00794123744103,0.00913435335672,-0.999926747485,0.0,0.559650525345,0.127120100817,0.304273322955,1.0,-0.114774857143,-0.150846955102,2.372
0.339453509683,0.09587801797,-0.12588349554,-2.00973719739,0.0263271227093,2.09917405015,0.0263700919143,-0.194062148816,-0.427102647708,0.000696276803017,-0.548669159678,-0.0563627079149,0.127750652643,-0.17716723616,0.573691152791,0.819053684473,0.00320469376286,0.0,0.819023894453,-0.573624790959,-0.0116278292984,0.0,-0.00768567261246,0.00929568253152,-0.999927257716,0.0,0.55774012335,0.124643572955,0.304379558052,1.0,-0.115950285714,-0.152391804082,2.389
0.336090439809,0.0886326011315,-0.125916104864,-2.01921187134,0.0253309917541,2.10116129141,0.0233872187821,-0.198302696818,-0.426775632844,-0.00211132695058,-0.556351009543,-0.0589999311322,0.114311527609,-0.18757313769,0.573721195997,0.819033304315,0.00303027865365,0.0,0.819000238749,-0.57365422874,-0.0118398344124,0.0,-0.0079590397736,0.00927474146783,-0.999925313639,0.0,0.555694054713,0.122049358877,0.304302406375,1.0,-0.117125714286,-0.153936653061,2.406
0.33241975671,0.0808698641631,-0.125999944976,-2.02908566455,0.0241942074748,2.10337632277,0.020031044821,-0.201986975102,-0.440015078619,-0.0046617944077,-0.537585656141,-0.0608316507345,0.130068479583,-0.189784408466,0.573675860018,0.819064910372,0.00307036322804,0.0,0.819032729566,-0.573609181978,-0.0117745977216,0.0,-0.00788312306243,0.00926970892034,-0.999925961693,0.0,0.553604910971,0.119240561644,0.304337441434,1.0,-0.118370285714,-0.15557237551,2.424
0.329324809824,0.0743375674545,-0.126052345924,-2.03728802667,0.023267167696,2.1052827181,0.0173125427248,-0.212850115995,-0.433211443444,-0.00143544984773,-0.559233253416,-0.0617156434668,0.127131928494,-0.180175480363,0.573718584913,0.819034365461,0.00323116386881,0.0,0.819004736664,-0.573651912757,-0.0116392102203,0.0,-0.00767949767763,0.00932414924937,-0.999927040117,0.0,0.551871370578,0.116913229141,0.304405392248,1.0,-0.119407428571,-0.156935477551,2.439
0.32569498904,0.0669417753638,-0.126162769525,-2.04686093688,0.0221776000982,2.10717866863,0.0141078834973,-0.215070141404,-0.439138831167,-0.0099865687446,-0.563805936835,-0.061269482764,0.111858322589,-0.179530885694,0.573784368863,0.818989179681,0.00299474803277,0.0,0.818955793996,-0.573717686549,-0.0118393632738,0.0,-0.00797832410989,0.00924598585069,-0.999925426264,0.0,0.549762322335,0.114162826978,0.304313097838,1.0,-0.120582857143,-0.158480326531,2.456
0.321960930513,0.0594819902906,-0.126281577457,-2.05616682688,0.0210851370418,2.10919392278,0.0108334523873,-0.220581199398,-0.44436700928,-0.00404134415767,-0.541953411112,-0.0660050667207,0.133761176324,-0.195365381481,0.573873097364,0.818926650722,0.00309123921799,0.0,0.818894984931,-0.573806607764,-0.0117357335653,0.0,-0.00783708238105,0.00926640047071,-0.999926354269,0.0,0.547760043134,0.111394823366,0.304372638378,1.0,-0.121758285714,-0.16002517551,2.473
0.318223841704,0.0519924766376,-0.126289021746,-2.06551243589,0.0200345530969,2.11123022486,0.00750316483396,-0.220946241913,-0.443850490397,-0.000865738572977,-0.562275668464,-0.0635071952322,0.105017496639,-0.202338894171,0.573837128871,0.818951321534,0.00322945618295,0.0,0.818921529121,-0.573770274585,-0.0116596760928,0.0,-0.00769588935374,0.00933560598759,-0.999926807195,0.0,0.545716127926,0.108710415927,0.304415078345,1.0,-0.122933714286,-0.16157002449,2.49
0.314443883163,0.044506489388,-0.126287061676,-2.07509471979,0.0189706553893,2.11303444294,0.00417750629541,-0.225806576779,-0.439163730695,0.000338098965679,-0.572867791177,-0.0674550845795,0.10143226177,-0.198191627988,0.573818634722,0.818965063687,0.00302420359676,0.0,0.818931412528,-0.573751087174,-0.0119070752992,0.0,-0.00801649292157,0.00930929624777,-0.999924533575,0.0,0.543528752966,0.106002140435,0.30431025283,1.0,-0.124109142857,-0.163114873469,2.507
0.30984259236,0.035511120526,-0.126319669922,-2.08598898297,0.0176791733726,2.11535464881,3.94328370005e-05,-0.235177169265,-0.445138053224,-0.00183346516751,-0.545715332923,-0.0685606498269,0.122945947111,-0.21614836454,0.573736482095,0.819021449324,0.00332589246028,0.0,0.818992572423,-0.573668916123,-0.0116570962037,0.0,-0.00763959779079,0.00941216380234,-0.99992652116,0.0,0.541122995913,0.102769116283,0.304458834902,1.0,-0.125492,-0.164932342857,2.527
0.306773662051,0.029702819157,-0.126384211924,-2.09322332746,0.0168052993708,2.11674109464,-0.00260332221624,-0.238822279973,-0.454283783156,-0.00135106481286,-0.563240251122,-0.0682952430832,0.0960149702373,-0.210587689091,0.573801461846,0.81897618762,0.00326088891634,0.0,0.818946312589,-0.573733912306,-0.0117081966364,0.0,-0.00771800028504,0.00938885406389,-0.999926138218,0.0,0.539348033004,0.100430983139,0.304435895813,1.0,-0.12646,-0.166204571429,2.541
0.302706974944,0.0220652428086,-0.126459506802,-2.10277126363,0.0156835355911,2.11838294908,-0.00622179766743,-0.23912052266,-0.449219979462,-0.00268578801288,-0.560771056099,-0.0602892763534,0.0992286495678,-0.209226154002,0.573787398582,0.818986752021,0.00307703496291,0.0,0.8189535975,-0.573719436895,-0.0119062913239,0.0,-0.00798589384696,0.0093518088293,-0.999924381726,0.0,0.537251016717,0.0977496139259,0.304369361284,1.0,-0.127566285714,-0.167658546939,2.557
0.298529191752,0.0142663370747,-0.126567307925,-2.11204374093,0.0145367013472,2.12026790677,-0.00986753319826,-0.245885728111,-0.455985300381,-0.00731503229442,-0.554437695997,-0.0652386336776,0.108642938324,-0.210610145411,0.573849478925,0.818942141646,0.00336021952591,0.0,0.81891370526,-0.57378178046,-0.0116429656933,0.0,-0.00760702897652,0.0094332212374,-0.999926571028,0.0,0.535163449936,0.0948698810557,0.304514164912,1.0,-0.128741714286,-0.169203395918,2.574
0.293984572347,0.00614845975727,-0.126635840766,-2.12209615775,0.0133643391308,2.12198255726,-0.013860993415,-0.249439399432,-0.454764780631,-0.00283291789784,-0.55320889611,-0.064608893776,0.0986605636069,-0.219568152512,0.573876398386,0.818923851372,0.00321744145803,0.0,0.818892515754,-0.5738079056,-0.0118440708972,0.0,-0.00785335001199,0.00943195307292,-0.999924678741,0.0,0.532793787855,0.0917876409607,0.304440679009,1.0,-0.12998,-0.170830857143,2.592
0.289951006958,-0.0011218131258,-0.126641659472,-2.13101288048,0.0122835204316,2.12355005903,-0.0174425271172,-0.253044045776,-0.457627209587,-0.000937071509702,-0.541191988306,-0.0695362453288,0.10433206123,-0.230524744523,0.57379890962,0.818978382334,0.00315713316103,0.0,0.818945837355,-0.573730139953,-0.011924298275,0.0,-0.00795455321122,0.00942785192377,-0.999923917451,0.0,0.530678972491,0.0891017573519,0.30439976587,1.0,-0.12998,-0.170830857143,2.608
0.285889132937,-0.00845908766957,-0.126632306563,-2.13963056164,0.0111799412293,2.1252296771,-0.021040034913,-0.250984741274,-0.456012824179,-0.00123562923167,-0.546487856901,-0.0669373958013,0.103528607926,-0.222665016518,0.573698502299,0.819047676174,0.00341753041895,0.0,0.819019643789,-0.573630217083,-0.0116595042516,0.0,-0.00758943726671,0.00948824735123,-0.999926184078,0.0,0.528544874685,0.0862803895898,0.304516325416,1.0,-0.12998,-0.170830857143,2.625
0.281411429993,-0.0161210351264,-0.126656328118,-2.14895769255,0.0100129836351,2.12667747244,-0.0249332647452,-0.266976750878,-0.442037126688,0.000969755045402,-0.545464062136,-0.0671133920445,0.0812231861153,-0.230797788719,0.573692123726,0.819052801536,0.00325612824474,0.0,0.819021984217,-0.573623537859,-0.0118225667388,0.0,-0.00781566508107,0.00944953596901,-0.999924807998,0.0,0.526407943977,0.0835291032379,0.304460505162,1.0,-0.12998,-0.170830857143,2.641
0.276905316957,-0.0237571502144,-0.126749218399,-2.15811751485,0.00887715314004,2.12811678653,-0.0288644911891,-0.268120108181,-0.45513530788,-0.00836298189917,-0.520196435214,-0.0692959851494,0.092881108065,-0.235322816594,0.573736623812,0.819021843462,0.00320208232672,0.0,0.81898980497,-0.573667603633,-0.0119133034167,0.0,-0.00792047732476,0.00945775335203,-0.999923905575,0.0,0.524182257759,0.0805970722309,0.304440459465,1.0,-0.12998,-0.170830857143,2.658
0.272302972871,-0.0314609704079,-0.126866825903,-2.16701268426,0.00771482585467,2.12973433838,-0.0328076374326,-0.273066371322,-0.44843555801,-0.00418865777012,-0.524371763596,-0.0586805321426,0.0892361117581,-0.233413772944,0.5738509764,0.818940542505,0.00349165111312,0.0,0.818913479577,-0.573782443218,-0.011626165446,0.0,-0.00751783487265,0.00953123006119,-0.999926316192,0.0,0.522074940816,0.0776429577644,0.30457360142,1.0,-0.12998,-0.170830857143,2.675
0.26765696,-0.0390515807486,-0.126928062296,-2.17610255718,0.00660810726834,2.13098305531,-0.036852290799,-0.272766235293,-0.437877232082,-0.000943679037172,-0.528889361173,-0.0619456345431,0.0775647360818,-0.238793143704,0.573886414421,0.818916324085,0.0033443073151,0.0,0.818886119618,-0.57381684021,-0.0118534336635,0.0,-0.00778810041233,0.00954131508369,-0.999924151523,0.0,0.519796994177,0.0747077489292,0.304508831618,1.0,-0.12998,-0.170830857143,2.692
0.263293235037,-0.0461279326997,-0.126926272809,-2.18450806011,0.00558459410695,2.1322566236,-0.0406490180732,-0.274315720273,-0.448993769961,0.0068364395323,-0.511791757682,-0.0602216617012,0.077186889819,-0.237930275581,0.573873285166,0.818925562474,0.00333505632063,0.0,0.818894594442,-0.573802960351,-0.0119395471686,0.0,-0.00786408659901,0.00958303125319,-0.999923157875,0.0,0.517698667995,0.0720162568577,0.304473189801,1.0,-0.12998,-0.170830857143,2.708
0.258322316415,-0.0541859066451,-0.126929435074,-2.19365912423,0.00433022391511,2.13373694101,-0.0449902844828,-0.275628460564,-0.439654153693,-4.31162705266e-05,-0.521336482638,-0.0703625803147,0.0718794256122,-0.243287117323,0.573802640817,0.818974041679,0.00357705865631,0.0,0.818947570289,-0.57373318479,-0.0116557577904,0.0,-0.00749363008695,0.00961771326699,-0.999925669787,0.0,0.515441085291,0.068982843576,0.304607263036,1.0,-0.12998,-0.170830857143,2.726
0.253824259744,-0.0612206644455,-0.126974504947,-2.20202983017,0.00326582105158,2.13477224543,-0.0489103299413,-0.283227006691,-0.435891205997,-0.00273510066967,-0.529721598854,-0.0573915385688,0.062575486592,-0.245089792073,0.573802784236,0.818974777312,0.00338021155652,0.0,0.81894455955,-0.573732503986,-0.0118982836748,0.0,-0.00780520725703,0.00959565891072,-0.999923498109,0.0,0.513278577568,0.0662366014544,0.304511855011,1.0,-0.12998,-0.170830857143,2.742
0.249002598002,-0.0686821460748,-0.127043958402,-2.21067808406,0.00212958646414,2.1359417477,-0.0531250046891,-0.282298964035,-0.443943862394,-0.00397717478279,-0.493679882218,-0.0751057767165,0.0686401167614,-0.250942394152,0.573805816518,0.818972676604,0.00337443422715,0.0,0.818942147487,-0.57373526682,-0.0119310341814,0.0,-0.00783530993054,0.00960974824035,-0.999923127374,0.0,0.511064397547,0.0633231029163,0.304504452417,1.0,-0.12998,-0.170830857143,2.759
0.244373432136,-0.0757088088795,-0.127158974618,-2.21855167472,0.00103908384713,2.13710261039,-0.0571275643584,-0.288875301559,-0.437730364203,-0.0058699425741,-0.494633056424,-0.0697181780712,0.0633327387679,-0.247405108059,0.573879560674,0.818920126076,0.0035810403081,0.0,0.818893308248,-0.573809570388,-0.0117078409217,0.0,-0.00753309639836,0.00965156637199,-0.999925047054,0.0,0.509075863953,0.0605424501625,0.30460929026,1.0,-0.12998,-0.170830857143,2.775
0.239471283253,-0.0831310567865,-0.127158867555,-2.22714486583,-6.48780251396e-05,2.13808134471,-0.0614155602145,-0.285339291627,-0.444278678268,0.000598579480515,-0.502662525048,-0.0650485480614,0.0604318921358,-0.247183012935,0.573830669494,0.818954835728,0.00347659118184,0.0,0.818925666091,-0.573759784824,-0.0118831661136,0.0,-0.00773719710906,0.00966618101991,-0.999923347425,0.0,0.506800478783,0.0576764595804,0.304556895701,1.0,-0.12998,-0.170830857143,2.792
0.234563695336,-0.0905015911564,-0.127144669011,-2.23562228149,-0.00117242636756,2.13906652874,-0.0657761985387,-0.295158940649,-0.444660369311,0.000331297401057,-0.486234715364,-0.0619858700111,0.0602024966829,-0.263999630269,0.573699658621,0.819046833604,0.00342534124498,0.0,0.819016360427,-0.573628189827,-0.0119853281254,0.0,-0.00785182392483,0.009681575574,-0.999922304959,0.0,0.504422207421,0.0546758155462,0.304519198049,1.0,-0.12998,-0.170830857143,2.81
0.229209880619,-0.098313001815,-0.127164376436,-2.24422382183,-0.00241195758794,2.14018751981,-0.0704054399834,-0.303184637093,-0.430936246922,-0.00194278586995,-0.480434166014,-0.0714903986531,0.0564733867663,-0.26347200721,0.573688572719,0.819053792905,0.00361286044217,0.0,0.819027020216,-0.573618032784,-0.0117405077515,0.0,-0.00754385074747,0.00969461210871,-0.99992454956,0.0,0.502295022919,0.0517843557199,0.304630732535,1.0,-0.12998,-0.170830857143,2.827
0.224397524052,-0.10520157077,-0.127245441669,-2.2520615337,-0.00347289848757,2.14095319601,-0.0745222441626,-0.304540799764,-0.436404851839,-0.0104295257123,-0.495397111257,-0.0661462754184,0.0470465036262,-0.265207575938,0.573775495245,0.818993383398,0.00350227167918,0.0,0.818964371628,-0.573704306363,-0.0118942744908,0.0,-0.00773221263295,0.0096930655831,-0.999923125729,0.0,0.500164388478,0.0490250764608,0.304583215992,1.0,-0.12998,-0.170830857143,2.843
0.219154520861,-0.112447806556,-0.127411600235,-2.26031428267,-0.00462093150028,2.14177164776,-0.0790602550423,-0.308263302741,-0.420525489268,-0.00627244445613,-0.478749752059,-0.0770839408533,0.0533832490017,-0.270085668026,0.573889645001,0.81891391082,0.00338066969746,0.0,0.818882569742,-0.573817966517,-0.0120426398962,0.0,-0.0079221488486,0.00967970418849,-0.999921768382,0.0,0.497916215747,0.0460157181516,0.304513883582,1.0,-0.12998,-0.170830857143,2.86
0.214255284286,-0.119378224113,-0.127448270229,-2.26770549009,-0.00564743559381,2.14266917201,-0.0833163116033,-0.307914406612,-0.430141210783,6.26778561001e-05,-0.461811246555,-0.0664624225148,0.0583920511961,-0.274708489054,0.573904231262,0.818902309871,0.00369961209704,0.0,0.818876373405,-0.573832997462,-0.0117440624842,0.0,-0.00749442468738,0.00976968018553,-0.9999241906,0.0,0.495935885831,0.0433050722757,0.3046702952,1.0,-0.12998,-0.170830857143,2.876
0.209042487743,-0.126519648006,-0.127445439388,-2.27575575596,-0.00672034166169,2.14337698727,-0.0879183573733,-0.308399740717,-0.428718867348,0.000389340872384,-0.474313383594,-0.0636112583464,0.036468837801,-0.272805019634,0.573825693031,0.81895779468,0.00359881259364,0.0,0.818929524107,-0.573753500557,-0.0119206562528,0.0,-0.00769783123955,0.00978774116463,-0.999922468753,0.0,0.493684581532,0.0404597372643,0.304600356782,1.0,-0.12998,-0.170830857143,2.893
0.203695920471,-0.13374854833,-0.127470437637,-2.28373355857,-0.00787045541296,2.14403641807,-0.0925710607586,-0.310401414614,-0.413694597062,9.45902277538e-05,-0.474345866836,-0.071523685151,0.0383350673702,-0.279358449895,0.57379668574,0.818978405365,0.00353297040876,0.0,0.81894902717,-0.573724421399,-0.0119802374113,0.0,-0.00778475420806,0.00976773125935,-0.999921991471,0.0,0.491439183713,0.0375541209625,0.30458537094,1.0,-0.12998,-0.170830857143,2.91
0.198332638516,-0.140963650239,-0.127502167363,-2.29147997709,-0.00896588704268,2.14478505346,-0.0972807648644,-0.319594653938,-0.429099341766,-0.000703623703214,-0.440031911088,-0.056295581,0.0467207680226,-0.272956293406,0.573761129655,0.819002588214,0.00369776925368,0.0,0.818975963526,-0.573689059177,-0.0118313756011,0.0,-0.00756870319622,0.00981695657452,-0.999923168096,0.0,0.489274693047,0.0346777926931,0.304659573995,1.0,-0.12998,-0.170830857143,2.927
0.192840920382,-0.148083682798,-0.127641275957,-2.29915193048,-0.0100588170975,2.145452046,-0.10200309972,-0.325283214499,-0.410745826895,-0.00663994775052,-0.461672952552,-0.0656912206964,0.0265062306615,-0.280791618796,0.573903069758,0.818902658048,0.00380132425277,0.0,0.818877565291,-0.573830872537,-0.011764764665,0.0,-0.00745302333654,0.00986484363404,-0.999923565731,0.0,0.487105181723,0.0317147688482,0.304696826419,1.0,-0.12998,-0.170830857143,2.944
0.187675791529,-0.15473973578,-0.127685119138,-2.30646926778,-0.0111414079093,2.14587274558,-0.106573645259,-0.319927260457,-0.415638873101,3.35942438135e-05,-0.454665184967,-0.0643801218268,0.0287412527259,-0.277370090746,0.57382801195,0.818956012261,0.00363449914667,0.0,0.818928007681,-0.573755437624,-0.011931593936,0.0,-0.00768628492611,0.00982326510108,-0.999922209218,0.0,0.484964185499,0.028984046963,0.304634377073,1.0,-0.12998,-0.170830857143,2.96
0.182208770922,-0.161821986385,-0.127660702418,-2.31410181938,-0.0122551509068,2.1463768123,-0.11140164971,-0.325589271137,-0.420803467332,0.00159930528814,-0.441709499328,-0.0618378418204,0.030208425326,-0.281952045248,0.573709195221,0.81903937791,0.00360605777271,0.0,0.819010876974,-0.573636580983,-0.0119583969794,0.0,-0.0077259801203,0.00981423180039,-0.999921992,0.0,0.482730854523,0.0261614428665,0.304627457967,1.0,-0.12998,-0.170830857143,2.977
0.176574561949,-0.168882078967,-0.127693263072,-2.32140358771,-0.0132677616322,2.14695837882,-0.116345923453,-0.338879911938,-0.406705551675,0.00102205711568,-0.43200148233,-0.0630476343185,0.0304158989172,-0.29046178828,0.573722740999,0.819028601534,0.00388757389448,0.0,0.819004545788,-0.573650175734,-0.0117378346026,0.0,-0.00738365697016,0.0099183942931,-0.99992355061,0.0,0.480616660686,0.0232761841375,0.304749898578,1.0,-0.12998,-0.170830857143,2.994
0.170555637809,-0.176215061497,-0.127769710336,-2.32940026002,-0.0144088071852,2.14730776191,-0.121554844482,-0.334925432988,-0.406262303844,-0.00913558836225,-0.443950955399,-0.0671825625442,0.0110834198541,-0.284326658992,0.573794324518,0.818979243977,0.00371725516929,0.0,0.818951593275,-0.573720523937,-0.0119914631287,0.0,-0.00768824184651,0.00992507661793,-0.99992118879,0.0,0.478206185774,0.0201922972343,0.304650921866,1.0,-0.12998,-0.170830857143,3.012
0.164386503234,-0.183591300134,-0.127936990441,-2.33723579244,-0.0156111221991,2.14769828419,-0.126941069497,-0.339550945285,-0.40608419933,-0.0077076438037,-0.433264918776,-0.0664535079488,0.0225262541125,-0.302112705415,0.573884925995,0.818915938507,0.00367753663623,0.0,0.818887567277,-0.573810998603,-0.0120348220526,0.0,-0.00774544575019,0.00991828295033,-0.999920814732,0.0,0.475845837776,0.0170215315325,0.304630535059,1.0,-0.12998,-0.170830857143,3.03
0.15863535677,-0.190569022484,-0.127932594928,-2.34435486865,-0.016616624673,2.14810534942,-0.132075633482,-0.336327404529,-0.408722219417,0.00178649508109,-0.414452969523,-0.0590885799399,0.0237564710851,-0.305561718309,0.573796526811,0.818976821283,0.00390626693191,0.0,0.818952060294,-0.573722616103,-0.0118587357097,0.0,-0.00747105983362,0.0100037393175,-0.999922051194,0.0,0.473700327086,0.0141855973677,0.304732969056,1.0,-0.12998,-0.170830857143,3.047
0.152791073049,-0.197448056281,-0.127955950895,-2.35150947236,-0.0177396743212,2.14841611338,-0.137256685271,-0.351479481109,-0.404057748668,-0.00473393731431,-0.43298044371,-0.0679490201606,0.0139188850694,-0.312164095321,0.573709584324,0.819037700601,0.00391212869619,0.0,0.819013429247,-0.573636221374,-0.0117997941858,0.0,-0.00742048044193,0.00997393298568,-0.99992272558,0.0,0.471503248315,0.0113046177366,0.304748801141,1.0,-0.12998,-0.170830857143,3.064
0.147569245334,-0.203429959856,-0.128013662183,-2.3579022675,-0.0186847469558,2.14855078374,-0.14182811541,-0.350935525517,-0.394250953653,-0.00320121628034,-0.413029285273,-0.0586770504377,0.00929253956619,-0.306749222734,0.573730644262,0.819023654436,0.0037614106887,0.0,0.818996253965,-0.573656269084,-0.0120153166404,0.0,-0.00768321964768,0.00997432865754,-0.999920737311,0.0,0.469489894735,0.00874400389877,0.304660716059,1.0,-0.12998,-0.170830857143,3.079
0.141540890793,-0.210274107108,-0.128162671077,-2.36495812634,-0.0196981414636,2.14876510936,-0.147119544006,-0.359845595592,-0.410583485937,-0.0125219347709,-0.410662724079,-0.0554934573757,0.0103498203849,-0.315000884067,0.573845656113,0.818942719416,0.0038382517811,0.0,0.818915820185,-0.57377032323,-0.0120516610131,0.0,-0.0076674927015,0.0100591920974,-0.999920007906,0.0,0.467273443227,0.00578797385276,0.304666917366,1.0,-0.12998,-0.170830857143,3.096
0.135828721152,-0.216665255603,-0.128238499165,-2.37130321162,-0.0206731747279,2.14899379562,-0.152099720121,-0.353526115214,-0.395770055239,-0.00369936069363,-0.396638386646,-0.070883151113,0.0177909461097,-0.312868944613,0.573925022279,0.818886121923,0.0040416611077,0.0,0.818862869098,-0.573850285645,-0.0118405311723,0.0,-0.00737688029984,0.0101053378865,-0.999921728828,0.0,0.46527905272,0.00303911835022,0.304772480925,1.0,-0.12998,-0.170830857143,3.112
0.129826512226,-0.223397793394,-0.128215932435,-2.37821790649,-0.021758154537,2.14911078003,-0.157521812316,-0.352640002778,-0.40180396919,-0.000379864958968,-0.412432554815,-0.063749890368,-0.000610203285691,-0.324255491253,0.573734554713,0.819019811654,0.00399446478088,0.0,0.818995925191,-0.573659981837,-0.0118594545048,0.0,-0.00742180649396,0.0100758232191,-0.999921694222,0.0,0.463052488636,0.000218240042781,0.304755814613,1.0,-0.12998,-0.170830857143,3.129
0.123639699946,-0.230055677627,-0.128254909363,-2.38511305134,-0.0228171225446,2.1491286409,-0.162944253233,-0.366626504864,-0.393978983458,-0.00140216449536,-0.399519340846,-0.0602433704567,0.00350878267546,-0.326872853669,0.573751219848,0.819008695497,0.00387831471568,0.0,0.818982433774,-0.573675903694,-0.0120198831565,0.0,-0.00761963982639,0.0100728881826,-0.999920235825,0.0,0.460791715301,-0.00268335413372,0.30469001718,1.0,-0.12998,-0.170830857143,3.146
0.117771014207,-0.236339716688,-0.128334448603,-2.39143143383,-0.0237637955678,2.14914047309,-0.168119845087,-0.368815618773,-0.392194380924,-0.00581821400409,-0.384761054982,-0.0545730083695,0.00174847482758,-0.317878876816,0.573801019366,0.818973612483,0.00391907280274,0.0,0.818947520015,-0.573725063712,-0.0120522873501,0.0,-0.00762218176699,0.0101253246636,-0.999919686848,0.0,0.458706749319,-0.00542262706083,0.304699577242,1.0,-0.12998,-0.170830857143,3.162
0.111409732528,-0.242997563229,-0.128483917877,-2.39788727888,-0.0248432852816,2.14924261296,-0.173732942212,-0.371228150449,-0.391346847121,-0.0101591146971,-0.381712016601,-0.0632295819284,0.00232082195681,-0.328220248166,0.573883092863,0.818915167025,0.00410996879086,0.0,0.818892983131,-0.573808382549,-0.0117885196886,0.0,-0.00729560348856,0.0101310517971,-0.999922064943,0.0,0.456581573936,-0.00840403962604,0.304810264828,1.0,-0.12998,-0.170830857143,3.179
0.105505400133,-0.249203702549,-0.128493346591,-2.4041188407,-0.0257686943365,2.14923659532,-0.179038970583,-0.364085362532,-0.38429824144,0.000621154039465,-0.391323371331,-0.0529899836328,-0.000681416644247,-0.330354799479,0.573802618294,0.818971400943,0.00414084268567,0.0,0.818949303285,-0.573727379044,-0.011818632961,0.0,-0.00730354818815,0.0101728986299,-0.999921582084,0.0,0.454487904677,-0.011073615527,0.304797274388,1.0,-0.12998,-0.170830857143,3.195
0.0990845814993,-0.255686921786,-0.128531505746,-2.41070318153,-0.026784277337,2.14916457469,-0.184777034548,-0.37825748744,-0.390006018732,-0.00425506075617,-0.388296847384,-0.0651325040226,-0.00581045433412,-0.338111427039,0.573759938194,0.819001662576,0.00406901987443,0.0,0.818977891538,-0.5736839351,-0.0119458227438,0.0,-0.00744946077964,0.0101866679615,-0.999920365494,0.0,0.452239951707,-0.013965213306,0.304730694763,1.0,-0.12998,-0.170830857143,3.212
0.0926122168901,-0.262165566361,-0.128625294803,-2.4170829357,-0.0277844144698,2.149098584,-0.190454756189,-0.38048160337,-0.385393948456,-0.00400534125914,-0.375324065094,-0.0553090342499,-0.00460985942243,-0.328935629516,0.573860139823,0.818931141459,0.00413187279726,0.0,0.818908231322,-0.573783956632,-0.0119174949973,0.0,-0.00738894771966,0.0102227968104,-0.999920445774,0.0,0.450045659593,-0.0168766423955,0.30474070831,1.0,-0.12998,-0.170830857143,3.229
0.0860077274204,-0.268654563027,-0.128783228925,-2.42320654862,-0.0287829767082,2.14902990314,-0.196372453043,-0.38949248586,-0.379784075032,-0.00942509318425,-0.35800273241,-0.0590243056412,-0.00259520828378,-0.346611686646,0.57392497435,0.81888454581,0.0043556116752,0.0,0.818865664789,-0.573849626485,-0.0116780184133,0.0,-0.00706361866798,0.0102691649816,-0.999922321754,0.0,0.447919448831,-0.0198514587716,0.304856311856,1.0,-0.12998,-0.170830857143,3.246
0.0794888722537,-0.275032342949,-0.128778000606,-2.42947817231,-0.0297796934563,2.14886375026,-0.202212889301,-0.374498655399,-0.378647130344,0.00210594672389,-0.373564174679,-0.0483135418087,-0.0095684201759,-0.342335949684,0.573847409774,0.818938988333,0.00433942227022,0.0,0.818919772846,-0.57377194462,-0.0117007739213,0.0,-0.00709251775624,0.0102682952034,-0.999922126121,0.0,0.445703618441,-0.0226841340396,0.30483643613,1.0,-0.12998,-0.170830857143,3.263
0.0732418439208,-0.280962954176,-0.128801093401,-2.43539033989,-0.0307533010256,2.14861492302,-0.207858692632,-0.392163185125,-0.370024026822,-0.0016801214426,-0.363521383044,-0.054888711386,-0.0149516536001,-0.353428761099,0.57374591845,0.819010793093,0.00420580087483,0.0,0.818989120175,-0.573669880487,-0.0118505763132,0.0,-0.00729314903536,0.0102439221763,-0.999920932892,0.0,0.443573700755,-0.0253879407193,0.304761376182,1.0,-0.12998,-0.170830857143,3.279
0.0660941487769,-0.287642629052,-0.128864100789,-2.44181465776,-0.0317930349528,2.14839719904,-0.214250446027,-0.397128645798,-0.367585164804,-0.00522348825298,-0.357111297668,-0.0505771559606,-0.00874085576603,-0.361418925553,0.573752847032,0.819005647593,0.00426223349634,0.0,0.818984916628,-0.573676911849,-0.0118005952787,0.0,-0.00721974823101,0.0102615276487,-0.999921285045,0.0,0.441247900525,-0.0284670927344,0.304774187671,1.0,-0.12998,-0.170830857143,3.297
0.0596355490323,-0.293582849504,-0.129023304214,-2.44733618305,-0.0326372844386,2.14817735115,-0.219991753877,-0.40205776487,-0.366827427771,-0.00575994891854,-0.336561312514,-0.0484563238142,-0.0101971726315,-0.352901532338,0.573914343589,0.818891338399,0.00447761305213,0.0,0.818873784141,-0.573838240419,-0.0116681781263,0.0,-0.0069856789034,0.0103633342605,-0.999921897747,0.0,0.439218467979,-0.0312611506804,0.30485624751,1.0,-0.12998,-0.170830857143,3.313
0.0528488641319,-0.299811018249,-0.129047533045,-2.45317884567,-0.0335710155862,2.14790607564,-0.226180330251,-0.395490365971,-0.368474408648,-0.000455502131672,-0.349180250784,-0.0497756981179,-0.0207799683688,-0.360016689833,0.573818593305,0.818957826152,0.00458779502911,0.0,0.818942163259,-0.573742867358,-0.0115586458562,0.0,-0.00683396038371,0.0103899047293,-0.999922670443,0.0,0.437048835829,-0.0341131616407,0.304904768845,1.0,-0.12998,-0.170830857143,3.33
0.0459326828101,-0.305914768081,-0.129073748148,-2.45914810893,-0.0346076609767,2.14746152811,-0.232327596348,-0.414535958664,-0.352061879671,-0.000986358155767,-0.352951529439,-0.0644109010242,-0.0215820981783,-0.357129788765,0.573810773513,0.818964380264,0.00439169222154,0.0,0.818945303409,-0.573734362365,-0.0117566307633,0.0,-0.00710873395578,0.0103428362427,-0.999921242719,0.0,0.43477136853,-0.0369981779405,0.304814739668,1.0,-0.12998,-0.170830857143,3.347
0.0389417431866,-0.312023746451,-0.129163225588,-2.46492960654,-0.0355423642245,2.14710206705,-0.238652098779,-0.415914073323,-0.351974626367,-0.00763309885221,-0.336067870564,-0.0432758123024,-0.0144445953378,-0.368013734761,0.573816265383,0.818960330417,0.00442918572232,0.0,0.818941526739,-0.573739418685,-0.0117729406291,0.0,-0.0071005096128,0.0103829488459,-0.999920885439,0.0,0.432555315797,-0.0399067241996,0.304806269926,1.0,-0.12998,-0.170830857143,3.364
0.0318454844934,-0.318100678419,-0.12929635208,-2.47052950213,-0.0364546852447,2.14671351692,-0.245038172358,-0.410906037628,-0.351442809157,0.0011155808155,-0.327006511998,-0.0611889068524,-0.0206330016724,-0.380188679847,0.573903237053,0.818898721179,0.00455036838257,0.0,0.818881706827,-0.573826304627,-0.0116991129341,0.0,-0.00696940172962,0.0104405732247,-0.999921207831,0.0,0.430371439179,-0.0428529213814,0.304850902017,1.0,-0.12998,-0.170830857143,3.381
0.0248437485825,-0.324101996796,-0.129296926426,-2.47595447388,-0.0373894005667,2.14635902335,-0.25149029564,-0.414738119564,-0.35695081267,0.00110290338944,-0.323442287166,-0.0467904114265,-0.0207550209285,-0.382829761116,0.573747701691,0.819006972869,0.0046797540082,0.0,0.818992875032,-0.573672299255,-0.0114678077809,0.0,-0.00670769843822,0.0104125140205,-0.999923290225,0.0,0.428244752977,-0.0456879213464,0.304935762039,1.0,-0.12998,-0.170830857143,3.398
0.0180537015842,-0.329709611395,-0.129333594208,-2.48119396655,-0.0382725652474,2.14588095424,-0.257612271746,-0.426329778574,-0.34683614265,0.000293761416938,-0.333887665585,-0.0504903656226,-0.0418242877038,-0.386603298096,0.573744341335,0.819009531833,0.00464375421536,0.0,0.818994658371,-0.57366856324,-0.0115271857439,0.0,-0.00677702966949,0.0104170680501,-0.999922775299,0.0,0.426137440761,-0.0484198084191,0.304914343346,1.0,-0.12998,-0.170830857143,3.414
0.0107894666487,-0.335535448758,-0.12947023127,-2.48672878253,-0.0391800607023,2.14531821813,-0.264194307064,-0.432097779207,-0.344824422541,-0.0120462220327,-0.312874554842,-0.0536558805689,-0.0302941106339,-0.390064456395,0.573805884225,0.81896685272,0.00456599129583,0.0,0.818949649756,-0.573728331278,-0.0117481894378,0.0,-0.00700187397002,0.0104806989868,-0.9999205612,0.0,0.423869558623,-0.0513483042287,0.304832664324,1.0,-0.12998,-0.170830857143,3.431
0.00345384979594,-0.341398938506,-0.129576630325,-2.49201235134,-0.0400206893478,2.14483772664,-0.270774416623,-0.429388800233,-0.344473016268,-0.00268060428919,-0.308597988883,-0.0504351651853,-0.0343237999004,-0.383939373661,0.573938588967,0.818873027683,0.00471248653284,0.0,0.818857929468,-0.573860855772,-0.011668610125,0.0,-0.00685093044899,0.0105561258334,-0.999920813344,0.0,0.421687293189,-0.0542715357998,0.304877287538,1.0,-0.12998,-0.170830857143,3.448
-0.00385872793564,-0.347130230962,-0.129588295085,-2.49723380694,-0.0409167510917,2.14426620832,-0.277528886755,-0.429260589863,-0.330840604657,-0.00292796284332,-0.300162238103,-0.0520667906183,-0.0344891855061,-0.397113966105,0.573810925537,0.818962550064,0.00470215150873,0.0,0.818947266835,-0.573733167397,-0.011677913942,0.0,-0.00686612609692,0.0105519318911,-0.999920753383,0.0,0.419490610643,-0.0571268898467,0.304877406606,1.0,-0.12998,-0.170830857143,3.465
-0.0108712042874,-0.352560683619,-0.12964739582,-2.5019648759,-0.0417881550733,2.14377276838,-0.28389985971,-0.434209663432,-0.334962170401,-0.00357718011942,-0.296446448517,-0.0570319148655,-0.0262299793867,-0.404306599566,0.573813696897,0.818959975377,0.00481112101679,0.0,0.818947359875,-0.573737577855,-0.0114525286529,0.0,-0.00661896910033,0.0105118750461,-0.999922841889,0.0,0.417469779742,-0.0598763063221,0.304968887678,1.0,-0.12998,-0.170830857143,3.481
-0.018412426628,-0.358190663967,-0.129801230843,-2.5071177056,-0.0426793745421,2.14312557587,-0.290740231482,-0.448050848155,-0.327283045406,-0.00804178260267,-0.303493245612,-0.049639502243,-0.0456779357927,-0.396600140906,0.573911434397,0.818891656658,0.00478194793462,0.0,0.818877900362,-0.573834179311,-0.0115786810123,0.0,-0.00673776983048,0.0105611722478,-0.99992152897,0.0,0.415220319673,-0.0628241899585,0.304928285717,1.0,-0.12998,-0.170830857143,3.498
-0.0258824051866,-0.363787493217,-0.129814261164,-2.51223448914,-0.0435295656761,2.14245929253,-0.297707690811,-0.438292472638,-0.330175629114,0.00339550725605,-0.296188403448,-0.054779704054,-0.0368524911326,-0.402629918844,0.573755604754,0.819001127314,0.00473353699941,0.0,0.818985981142,-0.573677340367,-0.0117055005773,0.0,-0.00687142754847,0.0105930009545,-0.99992028273,0.0,0.412973011585,-0.0656544139953,0.304881294299,1.0,-0.12998,-0.170830857143,3.515
-0.0330773569621,-0.369009089009,-0.129846975665,-2.51682341838,-0.0443676354755,2.14188714215,-0.304280296168,-0.453616357587,-0.328418264368,-0.00467948211076,-0.286391801346,-0.0508807406417,-0.0335642252367,-0.415464628129,0.573735580103,0.819014959859,0.00476723746196,0.0,0.819000885148,-0.573658198266,-0.0116003702561,0.0,-0.00676624219766,0.0105601201744,-0.999921347821,0.0,0.410916961051,-0.0683885040182,0.304915875837,1.0,-0.12998,-0.170830857143,3.531
-0.0407762435111,-0.374387344916,-0.129935407561,-2.5216408425,-0.0451883968775,2.14117981212,-0.311288794551,-0.456553076771,-0.312733149737,-0.00553523114754,-0.278895871346,-0.0424883280367,-0.0464120179022,-0.419712493409,0.573810463339,0.818962554911,0.00475738555651,0.0,0.818947678668,-0.573732052515,-0.011703778125,0.0,-0.00685562344738,0.0106120045207,-0.999920189709,0.0,0.408702345116,-0.0712984776648,0.304890197299,1.0,-0.12998,-0.170830857143,3.548
-0.0485291099206,-0.379788880666,-0.13005721223,-2.52627102249,-0.045968985618,2.14053910079,-0.318411976237,-0.445548045101,-0.318403775256,-0.00722601867683,-0.266772354674,-0.0448275213654,-0.0340935304036,-0.424410442654,0.573883025819,0.81891079162,0.00491273303819,0.0,0.818898410862,-0.573804878763,-0.0115801855572,0.0,-0.00666431704513,0.0106689066146,-0.999920877525,0.0,0.406541950375,-0.0742236436429,0.304954697231,1.0,-0.12998,-0.170830857143,3.565
-0.0562919525622,-0.385137319191,-0.130080467282,-2.53095211496,-0.0468199505654,2.13984962827,-0.325614664381,-0.466867178078,-0.308446629438,-0.00321771424341,-0.277839753484,-0.0521472707501,-0.0387008636704,-0.426235552402,0.573788317556,0.818977159495,0.00491179824645,0.0,0.818965008589,-0.57371057692,-0.0115427699098,0.0,-0.0066354420606,0.0106459023862,-0.99992131474,0.0,0.404337858215,-0.0770897048924,0.304962991481,1.0,-0.12998,-0.170830857143,3.582
