nelsonifechukwu/NELSON_IML_WORK/CNN-GradCAM/train2dof/data_sample_2022-02-22-09-03-49/robot_state.csv
position_joint1,position_joint2,position_joint3,position_joint4,position_joint5,position_joint6,position_joint7,velocity_joint1,velocity_joint2,velocity_joint3,velocity_joint4,velocity_joint5,velocity_joint6,velocity_joint7,ee_T_00,ee_T_10,ee_T_20,ee_T_30,ee_T_01,ee_T_11,ee_T_21,ee_T_31,ee_T_02,ee_T_12,ee_T_22,ee_T_32,ee_T_03,ee_T_13,ee_T_23,ee_T_33,v_x,v_y,time
0.46507607481,0.547787378814,-0.123991602759,-1.35585117802,0.079527290859,1.8941039439,0.159146151702,-2.03803709334e-05,-0.000164398837457,-0.00078718738092,0.000589872473032,3.42676757439e-05,-0.000136233005544,-0.000271248964165,0.573803527908,0.818978931837,0.00194099680539,0.0,0.818935413538,-0.573744745605,-0.0119374304376,0.0,-0.00866303410062,0.0084394532064,-0.99992686106,0.0,0.661671973697,0.260892683101,0.303201788766,1.0,0.0,0.0,0.0
0.46507583725,0.547786755776,-0.123992896647,-1.35584588831,0.0795258692326,1.89410108783,0.159148422623,0.000312220919523,6.45051289916e-05,0.00244365612534,-0.00022778060846,-2.99083364828e-05,-0.000213332709395,-0.00180739904053,0.573805799756,0.818977336644,0.00194245473172,0.0,0.818933859278,-0.573747032441,-0.0119341440422,0.0,-0.00865948258669,0.00843878548922,-0.999926897458,0.0,0.661673072814,0.260891989532,0.303204539849,1.0,-0.00018,-0.000236571428571,0.01
0.465075836265,0.547787143623,-0.12399604354,-1.35584887579,0.0795266805441,1.89410583621,0.159145797572,-0.000341781338957,0.00154645255927,-0.000745548325088,0.00104436773041,-1.87558389167e-05,0.000457548765143,-0.000568290599178,0.573806261513,0.818977011347,0.00194320194927,0.0,0.818933555368,-0.57374750237,-0.0119324062057,0.0,-0.00865762579366,0.00843840514231,-0.999926916747,0.0,0.661674002227,0.260890262175,0.303203361343,1.0,-0.00048,-0.000630857142857,0.025
0.465075461281,0.547758435067,-0.123991709736,-1.35586676744,0.0795231263593,1.89410732889,0.159153974659,0.00107446660764,-0.00253051770499,0.000434011735464,-0.000169277858748,1.09814686662e-05,-0.000117804887288,0.00181855284556,0.573810232089,0.818974203797,0.00195396158541,0.0,0.818930883421,-0.573751423042,-0.0119272644896,0.0,-0.00864720018405,0.00844430847137,-0.999926957124,0.0,0.661670261844,0.260890303589,0.303215162739,1.0,-0.00084,-0.001104,0.043
0.46507475123,0.547697821182,-0.123988824631,-1.35593863081,0.0795232048357,1.89412496055,0.159149290909,0.000493744568612,-0.00462689782162,-0.000206360345733,-0.00743417935131,-2.34785330806e-05,0.00380125534582,-7.46066446768e-06,0.573808922142,0.818975099404,0.00196324390523,0.0,0.81893183319,-0.573750009292,-0.0119300598203,0.0,-0.00864417714557,0.00845350045297,-0.999926905594,0.0,0.661658425426,0.260884980796,0.303225334439,1.0,-0.00118,-0.00155085714286,0.06
0.465068817581,0.547566446449,-0.123986164537,-1.35611689315,0.0795208602713,1.89417004052,0.159150249954,-0.00257709828397,-0.00656653011802,0.000503183012368,-0.00564631598376,-0.000166149354174,-7.77365237089e-05,0.00107711757654,0.57382189988,0.81896599511,0.00196798712817,0.0,0.818922673369,-0.573762850851,-0.0119412280721,0.0,-0.00865046837413,0.00846393041628,-0.999926762958,0.0,0.661631087227,0.260865840493,0.303237377029,1.0,-0.00152,-0.00199771428571,0.077
0.465056661953,0.547412148011,-0.123993585107,-1.35632663575,0.0795172547847,1.8942572685,0.159143369575,-0.000813101968517,-0.0136526943811,-0.00117805215233,-0.0102633688752,-8.25941639227e-05,0.00652208962854,0.00107176592906,0.573842233753,0.818951674694,0.00199804377254,0.0,0.818908715008,-0.573783027969,-0.0119289647673,0.0,-0.00862296808657,0.00848172254615,-0.999926849727,0.0,0.661609550128,0.260835977906,0.303254662497,1.0,-0.00186,-0.00244457142857,0.094
0.465037101392,0.547214544904,-0.123989216116,-1.35655986897,0.0795195066889,1.89437533166,0.159134442185,-0.00114394869133,-0.0103763412837,0.000143766081111,-0.0082341716693,0.000551756168627,0.00851560996718,0.000781209771446,0.573861684533,0.818937846071,0.00207802768118,0.0,0.818895806456,-0.573802026773,-0.0119012243405,0.0,-0.00855415122581,0.00853150905987,-0.999927017262,0.0,0.661588813693,0.260808872327,0.303293734138,1.0,-0.00222,-0.00291771428571,0.112
0.465019869532,0.547039349852,-0.123991748975,-1.35678591676,0.0795136627111,1.89448779887,0.159114167149,-0.00254235017548,-0.0138766578789,-0.000267201008286,-0.0188069944257,0.000212887549736,0.00877683079836,-0.00154654973709,0.57387221618,0.818930323048,0.00213363312834,0.0,0.818888992116,-0.573812316943,-0.01187393855,0.0,-0.00849978701095,0.00856149694782,-0.999927224547,0.0,0.661569436097,0.260778174379,0.303320074448,1.0,-0.00252,-0.003312,0.127
0.464986674025,0.546806704125,-0.123986737779,-1.3571435604,0.0795078834616,1.89463309162,0.159098140346,-0.00259211870802,-0.0158458587126,0.000382952211069,-0.0238514640305,-6.87346558574e-05,0.0130180871044,-0.0010358907561,0.573901349178,0.818909838213,0.00215990528996,0.0,0.818868701259,-0.573841191604,-0.0118778709847,0.0,-0.00848762619417,0.00858557032196,-0.999927121436,0.0,0.661530343366,0.260728646964,0.303327062769,1.0,-0.00288,-0.00378514285714,0.145
0.464952742903,0.546540137444,-0.123991371388,-1.35752299181,0.0794978558723,1.89477199457,0.159036397984,-0.00335350594687,-0.012067468611,0.000246983316845,-0.0233991590786,0.00028431707373,0.00923971726224,-0.0186042830342,0.573900338462,0.818910469976,0.00218873898945,0.0,0.818869613972,-0.573839970113,-0.0118739594992,0.0,-0.00846788687076,0.00860692693688,-0.999927105193,0.0,0.661488494463,0.260669788348,0.303347445559,1.0,-0.0032,-0.00420571428571,0.161
0.464913659366,0.546269245468,-0.123989360354,-1.35795501606,0.0794883020243,1.89491484739,0.158919437907,0.00053955787526,-0.0182988356372,-0.000138372897223,-0.0311713332197,-0.000234438511495,0.00666493041673,-0.000497721309978,0.573856696394,0.818941066095,0.00218384262031,0.0,0.818899955512,-0.573796159298,-0.011898627572,0.0,-0.00849135772575,0.00861662163134,-0.99992682266,0.0,0.661435234598,0.260605520368,0.303345966997,1.0,-0.00352,-0.00462628571429,0.177
0.46486365352,0.545988853671,-0.123986775782,-1.35844122883,0.0794756996667,1.89508146514,0.158900689842,-0.000838002763652,-0.0178142360582,0.000620171511654,-0.0342256719057,0.000378346495744,0.013241943616,-0.00529142693065,0.573904307299,0.818907766864,0.00215924387028,0.0,0.818866150475,-0.573843676188,-0.0119335580162,0.0,-0.0085335792033,0.00861701796718,-0.99992645981,0.0,0.661377371567,0.260529170592,0.303327447641,1.0,-0.00384,-0.00504685714286,0.193
0.464797599817,0.545632817257,-0.123989349745,-1.3590622557,0.0794033558477,1.89528988107,0.158821815757,-0.0069548077916,-0.0181720392937,0.000779531850531,-0.0399530423698,-0.00878357172049,0.00976343302304,-0.00348983686356,0.573911036919,0.818903228764,0.00209057988755,0.0,0.818861004429,-0.573850974114,-0.0119357377513,0.0,-0.0085746979668,0.00856211082297,-0.999926579711,0.0,0.661307535044,0.260417373612,0.303301988981,1.0,-0.0042,-0.00552,0.211
0.464730148807,0.545267513397,-0.123992352026,-1.35969853474,0.0793235667245,1.89548880779,0.158719916186,-0.00546995879734,-0.0251931696174,0.00135945366912,-0.0445846597581,-0.000580797694123,0.0254768431296,-0.00238805334621,0.573899079564,0.818911820493,0.00200589988774,0.0,0.818868821307,-0.573839694473,-0.0119417519465,0.0,-0.00862834297002,0.00849609290333,-0.999926681364,0.0,0.661233347668,0.260300871327,0.30327498117,1.0,-0.00452,-0.00594057142857,0.227
0.464668681171,0.544838338994,-0.123990250099,-1.36040406929,0.0793099764925,1.89572675069,0.158661770081,-0.00201187323997,-0.0254183357155,0.000508266834156,-0.0391520622741,-0.00218637995005,0.0149401590789,-0.000671092457322,0.573942759099,0.818881275598,0.00197804286192,0.0,0.818837590428,-0.573883168734,-0.0119940004781,0.0,-0.00868666415072,0.00850372930098,-0.999926111497,0.0,0.66114151701,0.260185455683,0.303257120714,1.0,-0.00488,-0.00641371428571,0.245
0.464588959519,0.544365769423,-0.123995714149,-1.3611938091,0.0792844298245,1.89601531419,0.158546659848,-0.00354287753235,-0.027238522943,0.000703145810359,-0.0440719510805,-0.00031707922516,0.011411143056,-0.00544598842279,0.573948117999,0.818877527359,0.00197482473708,0.0,0.818833618646,-0.57388836303,-0.0120165991726,0.0,-0.0087069617181,0.00851412128874,-0.999925846529,0.0,0.661057985489,0.26006931425,0.303247297769,1.0,-0.00522,-0.00686057142857,0.262
0.464532660598,0.543929839689,-0.124004188711,-1.36190635663,0.0792539265492,1.89626970741,0.158474199634,-0.00245842842616,-0.0321551339464,0.000412777858606,-0.052442232593,-0.000589595386559,0.0215607317395,-0.00383163674717,0.573972388732,0.818860551226,0.00195997949178,0.0,0.818816356837,-0.573912604619,-0.0120350711221,0.0,-0.00873035612438,0.00851282568573,-0.999925653577,0.0,0.660974527332,0.259960656269,0.303238951161,1.0,-0.00552,-0.00725485714286,0.277
0.464440076875,0.54337150063,-0.124007375426,-1.36280219586,0.0792068798255,1.89657018783,0.158354469285,-0.00408085711326,-0.0358418329076,-0.000762088361618,-0.0514970293612,-0.00050367111296,0.013253945834,-0.00576596638574,0.573989564295,0.818848578219,0.00193207923007,0.0,0.818803916774,-0.573929798787,-0.0120614609572,0.0,-0.0087678011196,0.00850531051424,-0.999925389895,0.0,0.660870323454,0.259811384982,0.303233721339,1.0,-0.00588,-0.007728,0.295
0.464373223709,0.54281668388,-0.12401051459,-1.36368621211,0.0791517694958,1.89688872655,0.15823734535,-0.00407282674477,-0.0328643138822,5.90989679615e-05,-0.0556526521918,-0.000880791054614,0.0156476926015,-0.009710748902,0.573985057847,0.818851763222,0.00192097312872,0.0,0.818806966148,-0.573925350407,-0.0120661198594,0.0,-0.00877803735054,0.00849884231414,-0.999925355084,0.0,0.660765970482,0.259680434029,0.30323310907,1.0,-0.00622,-0.00817485714286,0.312
0.464302368708,0.54225036431,-0.12400939864,-1.3645530692,0.0791019918858,1.89719634044,0.158107999392,-0.00134431889041,-0.0372494331052,0.000129920472866,-0.0545893056181,-0.00169113265294,0.0139220154113,-0.00926252347591,0.573971183384,0.818861468704,0.00192940859892,0.0,0.818816725278,-0.573911386134,-0.0120680640844,0.0,-0.00877493206178,0.00850671683503,-0.999925315379,0.0,0.6606633337,0.259551624451,0.303247645902,1.0,-0.00654,-0.00859542857143,0.328
0.464225260058,0.541624072234,-0.124021552529,-1.36551538341,0.0790454960746,1.89755256481,0.157996421286,-0.006076301171,-0.0400388618267,-0.000496525796174,-0.0587313849317,-0.000593378596869,0.0177914910144,-0.000874875918544,0.573989830073,0.818848363087,0.00194425917382,0.0,0.818803855171,-0.57393000626,-0.0120557692972,0.0,-0.00875614685797,0.00851201976005,-0.999925434926,0.0,0.66055485583,0.259402665512,0.303263728052,1.0,-0.00688,-0.00904228571429,0.345
0.464134961903,0.540961289141,-0.124011988146,-1.36653348276,0.0789944897943,1.89793649826,0.157854285256,-0.00805699603216,-0.0371714090534,0.000584791778567,-0.058696494925,-0.00130769474997,0.0248007231232,-0.00351505058398,0.573983576805,0.81885266928,0.00197647987934,0.0,0.818808438796,-0.573923474622,-0.0120554027379,0.0,-0.00873741873368,0.00853812597301,-0.999925376175,0.0,0.660437962677,0.259254217026,0.303280669453,1.0,-0.00722,-0.00948914285714,0.362
0.464058495498,0.540290980091,-0.124019445269,-1.36755390593,0.0789284828255,1.89830465985,0.157732866005,-0.00776864280638,-0.0488079573483,-0.000703691806449,-0.0687893065837,-0.00840398814979,0.0300298362315,-0.00872212570852,0.573990807493,0.818847573021,0.0019879566889,0.0,0.818803550404,-0.573930711695,-0.0120428783659,0.0,-0.00872050022149,0.0085404119021,-0.999925504345,0.0,0.660318550757,0.259101372885,0.303300885498,1.0,-0.00754,-0.00990971428571,0.378
0.463956526988,0.539552548729,-0.124023290978,-1.36870134841,0.078857070536,1.89874823834,0.157597880321,-0.00735557505075,-0.0446891020471,-4.68720805368e-06,-0.0643535804372,-0.00443343715719,0.0222418408348,-0.00408608564322,0.574012177018,0.818832517428,0.00201889546712,0.0,0.818788956388,-0.573952002918,-0.0120204053224,0.0,-0.00868411684979,0.0085530730135,-0.999925712769,0.0,0.660185434027,0.258913223193,0.3033193323,1.0,-0.0079,-0.0103828571429,0.396
0.463838285226,0.538749386282,-0.124018338282,-1.36993722218,0.0787926987351,1.89922515732,0.15744130284,-0.00988694244502,-0.0411905650596,0.000241540426698,-0.0654422571675,-0.00609560527507,0.0229007895615,-0.00807337457843,0.574027355583,0.818821780689,0.00205752585682,0.0,0.818778624511,-0.573966917717,-0.0120120070061,0.0,-0.00865490782602,0.00858004400034,-0.99992573495,0.0,0.660055918862,0.258734447525,0.303335460433,1.0,-0.00824,-0.0108297142857,0.413
0.46373386231,0.538002301357,-0.124023625327,-1.37109814883,0.0787260997967,1.89967264015,0.157290968878,-0.00287908013836,-0.0444718493581,0.000664224786328,-0.0785455488655,-0.00501623037115,0.0285050887758,-0.00777719532645,0.574039849973,0.818812950042,0.00208575830671,0.0,0.818770172345,-0.573979301798,-0.0119963697345,0.0,-0.00862576686822,0.00859431643808,-0.999925864187,0.0,0.659927967933,0.258554046564,0.3033495155,1.0,-0.00856,-0.0112502857143,0.429
0.463625266301,0.53719566783,-0.124029749201,-1.3723608835,0.0786529543137,1.90013518506,0.157133804043,-0.00697996519062,-0.0500240140052,0.000127603993273,-0.0728814664327,-0.0113642351667,0.0305114285985,-0.014603350896,0.574054370056,0.818802756687,0.00209111503961,0.0,0.818760031409,-0.573993780204,-0.0119957557034,0.0,-0.008622036813,0.008598502947,-0.999925860366,0.0,0.659782374916,0.258359082101,0.303358360628,1.0,-0.0089,-0.0116971428571,0.446
0.463500999587,0.536357885946,-0.124035426423,-1.37367966232,0.0785790760112,1.90063705527,0.156979601332,-0.00754894935728,-0.048216079074,-0.00251800786315,-0.0741292346589,-0.00355215423703,0.0248364244148,-0.00251046020736,0.574086752304,0.81878000625,0.00210928788283,0.0,0.818737501347,-0.574026065776,-0.0119886028581,0.0,-0.00860540777887,0.00860961693208,-0.999925907982,0.0,0.659636149288,0.258150354165,0.303365774646,1.0,-0.00924,-0.012144,0.463
0.463386305943,0.535478806303,-0.124039684981,-1.37507418212,0.0784936932253,1.90114331656,0.15681229137,-0.00821996466113,-0.0547755976565,0.000409600847272,-0.0854662993999,-0.00603169467924,0.0257142753396,-0.00307576892768,0.574100355755,0.818770493878,0.00209923287534,0.0,0.818727857683,-0.574039709361,-0.0119939164639,0.0,-0.00861538774996,0.00860457780843,-0.999925865419,0.0,0.659471820863,0.25793877915,0.303366442474,1.0,-0.00958,-0.0125908571429,0.48
0.463265148769,0.534584226971,-0.124042856101,-1.37652114509,0.078426745029,1.90166185542,0.156631074288,-0.00886674673067,-0.0519766914511,-0.000125243327366,-0.0887017515578,-0.00128592889158,0.0333521952367,-0.00156082343323,0.574114818823,0.818760400975,0.00208026560901,0.0,0.818717300119,-0.574054033962,-0.0120289434185,0.0,-0.00865480430391,0.0086093098702,-0.999925484297,0.0,0.659298209564,0.257721373366,0.303353986729,1.0,-0.00992,-0.0130377142857,0.497
0.463132852827,0.533617827965,-0.124046394284,-1.37809833761,0.0783222558995,1.902235938,0.156432446589,-0.00606291139024,-0.0518849855834,0.00046580349558,-0.0875750964368,-0.00986091433305,0.0308174649338,-0.0101670581637,0.574121310934,0.818755945635,0.00204174439852,0.0,0.818712401232,-0.574060747872,-0.0120419567606,0.0,-0.00868750563986,0.00858531075467,-0.99992540706,0.0,0.659111919815,0.257479626835,0.30333479632,1.0,-0.01028,-0.0135108571429,0.515
0.463018175117,0.532835991768,-0.124052059043,-1.37935641584,0.0782634015801,1.90271218765,0.156276483147,-0.00852774829005,-0.0553077149634,-0.00357462722578,-0.0913244451048,-0.00360075370876,0.030136588489,-0.0111558273541,0.574144638907,0.818739570883,0.00204831314966,0.0,0.818695981083,-0.574083915134,-0.0120538725506,0.0,-0.00869324617913,0.00859777758051,-0.999925250052,0.0,0.658968612582,0.257284456945,0.303328798568,1.0,-0.01056,-0.0138788571429,0.529
0.462881890772,0.531806455522,-0.124051410889,-1.38100958332,0.078168624504,1.90331678874,0.156069784354,-0.0154421477393,-0.0585914756299,-0.000387166974692,-0.100791389212,-0.00717395255903,0.0382597662063,-0.0153832815107,0.574151305288,0.818734931495,0.00203408146554,0.0,0.818691068008,-0.574090555083,-0.0120713143525,0.0,-0.00871562757467,0.00859621072317,-0.999925068691,0.0,0.658771107993,0.257038004675,0.303320101573,1.0,-0.01092,-0.014352,0.547
0.462749681978,0.530808548375,-0.124043853142,-1.38263642361,0.0780691192455,1.90388300853,0.155855250745,-0.00532034885439,-0.0628856629728,0.00219730653023,-0.0969532822322,-0.0068667572532,0.0284225849316,-0.00877547013464,0.574140248463,0.818742813298,0.00198183458491,0.0,0.818698152993,-0.574079614853,-0.0121110279176,0.0,-0.00877825524263,0.00857611800884,-0.999924693382,0.0,0.658568409866,0.25679763995,0.303297856786,1.0,-0.01126,-0.0147988571429,0.564
0.462617224276,0.529833270968,-0.124052361523,-1.38417494464,0.0779777658986,1.90444761742,0.155658815181,-0.00959114510922,-0.0601835481132,-0.000458362300149,-0.101896849335,-0.00295791355765,0.0308555466876,-0.011212805489,0.574152924548,0.81873392514,0.00198140358182,0.0,0.818689256728,-0.574092288804,-0.0121116372189,0.0,-0.00877886878321,0.00857625087538,-0.999924686856,0.0,0.658388278158,0.256559181459,0.303301859223,1.0,-0.01158,-0.0152194285714,0.58
0.462480165189,0.528764331552,-0.124057765553,-1.38584407463,0.0778719798415,1.90507888915,0.155424346734,-0.01196906824,-0.0640019907026,-0.00148893479382,-0.105163544083,-0.0020493871808,0.0382260433483,-0.0107800969017,0.574139152563,0.818743529913,0.00200315286521,0.0,0.81869921283,-0.574078489176,-0.0120927283483,0.0,-0.00875104460842,0.00858305373037,-0.999924872381,0.0,0.658194209203,0.256307436782,0.303315094869,1.0,-0.01192,-0.0156662857143,0.597
0.46232927843,0.527574578958,-0.124055561504,-1.387668119,0.0777518504432,1.90578842647,0.155172464322,-0.0132493271195,-0.0753431008253,4.52910035328e-06,-0.103668048491,-0.00386025979978,0.0394129797126,-0.012202636103,0.574121462672,0.818755790403,0.00206123330536,0.0,0.818712340141,-0.574060657696,-0.0120504061438,0.0,-0.00868323403916,0.00860611963854,-0.999925265283,0.0,0.657984763931,0.256037230494,0.303345892241,1.0,-0.01228,-0.0161394285714,0.615
0.462180934812,0.526488473203,-0.124053398617,-1.38934530909,0.0776440347976,1.90642500221,0.15493539971,-0.00973311221268,-0.0686785004662,0.000600896491218,-0.105364346133,-0.00784232919953,0.0382676569582,-0.017452501896,0.574108896106,0.818764512509,0.00209651361483,0.0,0.818721570584,-0.574047990334,-0.0120267017765,0.0,-0.00864370360789,0.00862126338622,-0.999925477326,0.0,0.657790577668,0.255781826705,0.30336702956,1.0,-0.0126,-0.01656,0.631
0.462036244002,0.525296221064,-0.124056731711,-1.39117676797,0.0775338408421,1.90708542612,0.154704743007,-0.00998996983924,-0.0764474180942,0.000190347980858,-0.10704421272,-0.0105926606271,0.0367313328931,-0.0152461903588,0.574109717777,0.818763888835,0.00211499306792,0.0,0.818721149784,-0.574048695702,-0.0120216787606,0.0,-0.00862897357477,0.00863351837878,-0.999925498813,0.0,0.657567659315,0.255509991206,0.303391378555,1.0,-0.01294,-0.0170068571429,0.648
0.461871254182,0.52412283737,-0.12406167661,-1.39306042344,0.0774203671274,1.90775637196,0.154436456973,-0.00689240163613,-0.0685762424344,-0.0010009255246,-0.113725940295,-0.00982811969822,0.0413357740364,-0.0107324030302,0.574099209103,0.81877134485,0.00208083191598,0.0,0.818728100946,-0.574038274196,-0.0120458865029,0.0,-0.00866851642571,0.00861933542611,-0.999925279148,0.0,0.657339204346,0.255217651706,0.30337830376,1.0,-0.01328,-0.0174537142857,0.665
0.461726114206,0.522997886305,-0.124063440117,-1.39487236455,0.0773059937003,1.90845178408,0.154199926778,-0.00885039645554,-0.0725048533829,0.00171424836606,-0.112371498499,-0.00965602585041,0.043568275283,-0.0201847604248,0.57409218442,0.818776265665,0.00208266016261,0.0,0.81873309707,-0.57403129379,-0.0120389540001,0.0,-0.00866186445876,0.0086167781048,-0.999925358834,0.0,0.657124903773,0.254949611049,0.303367035384,1.0,-0.0136,-0.0178742857143,0.681
0.461559797081,0.521743686013,-0.124074177362,-1.39682543591,0.0771884050751,1.90921698624,0.153933998396,-0.00917249292035,-0.0754865045397,-0.00110240916484,-0.117887402203,-0.00169289301635,0.0451220509328,-0.0212867702649,0.574091313399,0.818776741493,0.00213503427793,0.0,0.818734335647,-0.574030281491,-0.0120029357182,0.0,-0.0086023158894,0.00863897332925,-0.999925681389,0.0,0.65690171832,0.254651604917,0.303385430243,1.0,-0.01394,-0.0183211428571,0.698
0.461382348402,0.520400700709,-0.124077620989,-1.39897697643,0.0770565258854,1.91000968546,0.153646620626,-0.0110169215969,-0.0751893207191,0.000245066490661,-0.121656252147,-0.00429001614615,0.0410049536993,-0.014022601328,0.574083008702,0.818782606305,0.00211887562414,0.0,0.818739970063,-0.574022025881,-0.0120134144406,0.0,-0.00862025947467,0.00863167145836,-0.999925589919,0.0,0.656640762997,0.254327786845,0.303373530165,1.0,-0.0143,-0.0187942857143,0.716
0.46122581546,0.519153223131,-0.124083998907,-1.40091129286,0.0769292282337,1.91070038814,0.153380690701,-0.0111538788339,-0.0776683514831,0.00106452982871,-0.125390825604,-0.00454698956413,0.0417551988211,-0.0159014110054,0.574066283062,0.818794339563,0.00211637726797,0.0,0.818751721243,-0.57400536342,-0.0120086897025,0.0,-0.00861800117434,0.00862673748433,-0.999925651964,0.0,0.6564025983,0.25403442564,0.303388761404,1.0,-0.01462,-0.0192148571429,0.732
0.461058045497,0.517792171285,-0.124088333393,-1.40303150592,0.0767948920059,1.91145731281,0.153091405296,-0.00831473983474,-0.0802740145048,-0.000101704487319,-0.126215754489,-0.00510748976872,0.0402493448631,-0.0151250551365,0.574045887135,0.818808651599,0.00211149990824,0.0,0.818765962184,-0.57398498308,-0.0120118802914,0.0,-0.00862362829699,0.0086243607777,-0.999925623952,0.0,0.656138750069,0.25371770726,0.303400538486,1.0,-0.01496,-0.0196617142857,0.749
0.460858164049,0.516374332528,-0.124096372272,-1.40529020765,0.0766414897557,1.91230229696,0.152776053834,-0.0129364435797,-0.0813993546256,-0.00154639759831,-0.123915492304,-0.0145723097476,0.0482734263156,-0.0174779952202,0.574035139407,0.818816208595,0.00210289535694,0.0,0.818773558427,-0.573974424232,-0.0119986353128,0.0,-0.00861783484345,0.00860959917035,-0.99992580111,0.0,0.655870381537,0.253365001658,0.303393583568,1.0,-0.01532,-0.0201348571429,0.767
0.460705582443,0.515220862343,-0.124094014781,-1.40711251747,0.0765353960838,1.91297432106,0.152530826982,-0.0110036835233,-0.0830958975388,0.00343057023545,-0.131457178192,-0.00378615779964,0.0449514165016,-0.0270033553912,0.574025168335,0.818823184819,0.00210832232744,0.0,0.81878051269,-0.573964338974,-0.0120065201807,0.0,-0.00862128124833,0.00861846393616,-0.999925695034,0.0,0.655646365228,0.253093645763,0.303393243331,1.0,-0.0156,-0.0205028571429,0.781
0.460505741098,0.513741048274,-0.124094615427,-1.40950951015,0.0763963834391,1.91381175127,0.15220249349,-0.00932141812712,-0.0784158481074,0.000655362261684,-0.137185411949,-0.0109728063341,0.0509776334087,-0.017551944218,0.574008794189,0.818834824891,0.00204466138979,0.0,0.818791129451,-0.573948045995,-0.012061249179,0.0,-0.00870280900614,0.00859757923642,-0.999925168573,0.0,0.655341123241,0.252731673774,0.303362250538,1.0,-0.01596,-0.020976,0.799
0.460305485807,0.512338570201,-0.124099582607,-1.41178426007,0.0762568755691,1.91461495344,0.151885120708,-0.0133596137246,-0.0830635177216,0.000331869098261,-0.133858814162,-0.0163084804586,0.0500665169451,-0.0176266067697,0.573997890991,0.818842616323,0.00198437208933,0.0,0.818798050147,-0.573937323885,-0.0121015795697,0.0,-0.00877055273031,0.00857124617125,-0.999924802745,0.0,0.655056256829,0.252378049705,0.303331943785,1.0,-0.0163,-0.0214228571429,0.816
0.460123132452,0.510984186472,-0.124102535225,-1.41395170066,0.0761319015191,1.91544068009,0.151574763096,-0.0064603935517,-0.0812605148751,7.81133373916e-05,-0.136097516924,-0.0111241421006,0.0442895577288,-0.0259941670626,0.57397507866,0.818858577612,0.00199645904445,0.0,0.818814104969,-0.573914398562,-0.0121025422217,0.0,-0.00876464266393,0.00858145166881,-0.999924767033,0.0,0.654793595539,0.25205328268,0.30332048291,1.0,-0.01662,-0.0218434285714,0.832
0.459912356415,0.509498055692,-0.124108525993,-1.4163133877,0.075983947439,1.9163246346,0.151250821708,-0.0159882608965,-0.0910869904139,-0.000547341594615,-0.137498796631,-0.00523453212472,0.0497224823166,-0.0193999603693,0.573969917246,0.818862189876,0.00199874678599,0.0,0.818817776115,-0.573909256195,-0.0120980193948,0.0,-0.0087596800245,0.00858067379375,-0.999924817195,0.0,0.654507892241,0.251687160397,0.303313459893,1.0,-0.01696,-0.0222902857143,0.849
0.45970569049,0.507999497801,-0.124114912027,-1.41868512311,0.0758278518398,1.9171695426,0.150918546876,-0.0132363865695,-0.0861233232606,-0.00290678850848,-0.140393851246,-0.00936325844618,0.0474733286739,-0.0138676889207,0.57395235768,0.818874572582,0.0019678396996,0.0,0.818829785469,-0.573891864094,-0.0121102294125,0.0,-0.00878760092913,0.00856218533101,-0.999924730693,0.0,0.654210816781,0.251318662225,0.303306445255,1.0,-0.0173,-0.0227371428571,0.866
0.459485238285,0.506446198881,-0.124119162055,-1.42111584289,0.0756682147554,1.91806171913,0.150589286261,-0.0147800859528,-0.0930536765273,0.00424208876763,-0.146295347966,-0.0114850458269,0.056820250646,-0.0159303709232,0.57394885181,0.818877016683,0.00197331097828,0.0,0.818832363694,-0.57388839571,-0.0121002618899,0.0,-0.00877633505757,0.00856090713495,-0.999924840582,0.0,0.653912690307,0.250938804719,0.303313120607,1.0,-0.01764,-0.023184,0.883
0.459267310524,0.504827309538,-0.124123309772,-1.42356840497,0.0755187820369,1.91902145757,0.150249341556,-0.0166813492084,-0.104302676667,-0.000428328807183,-0.141951357541,-0.00798147791559,0.0640583017155,-0.0241600450123,0.573938383493,0.818884093033,0.00207870914987,0.0,0.818840877183,-0.573877533431,-0.012039160256,0.0,-0.0086659191933,0.008612034008,-0.999925364572,0.0,0.65362234828,0.250565134779,0.303360471966,1.0,-0.01798,-0.0236308571429,0.9
0.459055567776,0.503253073323,-0.124128742575,-1.42590472261,0.0753712482368,1.9198951184,0.149919107151,-0.0105705909516,-0.104926292855,-0.000802534457458,-0.14307085212,-0.00234434605201,0.0623006646507,-0.0190146903832,0.573927909869,0.818891160869,0.00218353522676,0.0,0.818849388199,-0.573866697999,-0.0119766136862,0.0,-0.00855464963772,0.00866186611253,-0.999925892277,0.0,0.653323667833,0.250179580153,0.30342929979,1.0,-0.01832,-0.0240777142857,0.917
0.458824352961,0.501550357802,-0.124126670714,-1.42842359956,0.0752132333284,1.92081619782,0.149569308328,-0.0117938523246,-0.0980364206594,0.00119328464936,-0.149501597816,-0.00545851212731,0.0535409026116,-0.0270645932387,0.573912890736,0.818901474149,0.00226194283707,0.0,0.81886068397,-0.573851320406,-0.0119410727344,0.0,-0.00848070646124,0.00870551923836,-0.999926143049,0.0,0.653027648213,0.249813392131,0.303493337665,1.0,-0.01864,-0.0244982857143,0.933
0.458582891274,0.499833390531,-0.12413766101,-1.4310241328,0.0750395954588,1.92173084693,0.149205329101,-0.0137289916158,-0.103648381462,-0.00155315535624,-0.150086719639,-0.0102797633529,0.0581737376109,-0.0237307960341,0.573905671057,0.818906479712,0.00228147242448,0.0,0.818866008629,-0.573844089522,-0.0119234111759,0.0,-0.00845511199309,0.00871130122974,-0.999926309441,0.0,0.652700717011,0.249397609684,0.303533099289,1.0,-0.01898,-0.0249451428571,0.95
0.458325535985,0.498148501974,-0.124134513903,-1.43364833049,0.0748742110484,1.92272196189,0.148821290857,-0.0205680796998,-0.0971679828809,-0.000174373597309,-0.152441403295,-0.0150520066234,0.0607637467834,-0.017325788954,0.573886326808,0.818919906917,0.00232741469275,0.0,0.818880027833,-0.573824558121,-0.0119005636142,0.0,-0.00841024266277,0.00873561233546,-0.999926475745,0.0,0.652361475189,0.248959325942,0.303548282522,1.0,-0.01934,-0.0254182857143,0.968
0.458080938958,0.496571998482,-0.124133107941,-1.43616317647,0.0747285976627,1.92361175435,0.148449174416,-0.0170674517539,-0.099347346402,-0.000446464902016,-0.157217127362,-0.00926058090378,0.0567083125424,-0.021911007746,0.573871140489,0.818930659444,0.00228823913532,0.0,0.818890071192,-0.573809324539,-0.0119439221778,0.0,-0.0084683941556,0.00872825659648,-0.999926049184,0.0,0.65206094173,0.248583768779,0.303523858843,1.0,-0.01964,-0.0258125714286,0.983
0.457815606088,0.494891447927,-0.124138104723,-1.43890492281,0.074552675847,1.92454737251,0.148056206225,-0.0128739270585,-0.100030791845,-0.00182874428952,-0.157557255822,-0.0104805080581,0.0574864317972,-0.0245393770252,0.573860582494,0.818938358629,0.00217796406312,0.0,0.818896216269,-0.573799101864,-0.0120135166387,0.0,-0.00858878113481,0.00867777726066,-0.999925461732,0.0,0.651704133638,0.248140207248,0.303470982288,1.0,-0.01998,-0.0262594285714,1.0
0.457503535005,0.492739579935,-0.12419221033,-1.44223673374,0.0743617498139,1.92575767453,0.14758222784,-0.0198862816942,-0.143804345787,-0.0062276655142,-0.212294865597,-0.0103400623163,0.0798298339106,-0.03363458216,0.573882965766,0.818922612187,0.00220085311166,0.0,0.818880791284,-0.573821410213,-0.0119994061623,0.0,-0.00856385328365,0.00868865841704,-0.999925581047,0.0,0.65129334917,0.247589848743,0.303489826271,1.0,-0.0305588571429,-0.0401630693878,1.018
0.457196328232,0.490235378146,-0.124241812335,-1.44613544661,0.0741503663038,1.92726147482,0.147001166297,-0.0216735858423,-0.181014881606,0.00182697472362,-0.29112718755,-0.0135148928856,0.107169421731,-0.0423057126622,0.573829734122,0.818959681937,0.00228527902057,0.0,0.818918890747,-0.573767766138,-0.0119644398041,0.0,-0.00848733778546,0.00873717769004,-0.99992581066,0.0,0.650769726679,0.246949715309,0.303496697559,1.0,-0.0405154285714,-0.0532488489796,1.034
0.456612274956,0.486333271696,-0.124282302806,-1.45235015062,0.0738049136727,1.92959165021,0.146083392723,-0.0386513966432,-0.237297282625,-0.00756083765319,-0.371036700306,-0.0188588643945,0.143715710231,-0.05424395228,0.573805862711,0.818976309148,0.00232031753696,0.0,0.818935761673,-0.573743535611,-0.0119716539906,0.0,-0.00847339695135,0.00876976510074,-0.999925643618,0.0,0.65003173818,0.246012769597,0.303465277597,1.0,-0.0510942857143,-0.0671524897959,1.051
0.455909067496,0.481696318923,-0.124418609881,-1.45966011133,0.0733546654828,1.93218651935,0.144960526182,-0.0440046600618,-0.289257883405,-0.00750897137927,-0.459784174943,-0.0264924973706,0.155276147797,-0.0660143502304,0.57379828098,0.818981872029,0.0022300074606,0.0,0.818940370101,-0.573736553377,-0.011991014957,0.0,-0.00854115152623,0.0087068345382,-0.999925617115,0.0,0.649106500376,0.244774796364,0.303432892616,1.0,-0.0616731428571,-0.0810561306122,1.068
0.455087936948,0.476458908164,-0.124551069843,-1.46785916075,0.0728580472009,1.93506142602,0.143747011047,-0.053844126499,-0.345174552149,-0.00694121516522,-0.530483808171,-0.0316493785287,0.193452950554,-0.0798686013667,0.5738371155,0.818954896378,0.00214230584043,0.0,0.818912265497,-0.573775764115,-0.0120341528195,0.0,-0.00862639128948,0.00866017080572,-0.999925290617,0.0,0.648054223169,0.243377985428,0.303412063632,1.0,-0.0716297142857,-0.0941419102041,1.084
0.454053829513,0.470092686504,-0.12467754666,-1.4777392764,0.0722863041257,1.93861635976,0.142302985632,-0.0636234441961,-0.390151359496,-0.00936666722799,-0.60563575513,-0.0290191786737,0.222472489746,-0.0869787774115,0.573913911731,0.818900977767,0.00218115449785,0.0,0.818858617495,-0.573852148708,-0.0120425445668,0.0,-0.00861015709753,0.0086976084721,-0.999925105596,0.0,0.64679207704,0.241698144716,0.303423145343,1.0,-0.0822085714286,-0.10804555102,1.101
0.452863603542,0.462825672972,-0.124729234506,-1.4887714365,0.07159719521,1.94271654627,0.140501243765,-0.0740729917987,-0.439251012882,-0.00477287550063,-0.678809833578,-0.0415314859309,0.242918373599,-0.10143500752,0.573785783967,0.818989958893,0.00246338197686,0.0,0.81895129112,-0.57372290695,-0.0118977188989,0.0,-0.00833097404032,0.00884430209652,-0.999926183872,0.0,0.645384136675,0.239857551767,0.303541456709,1.0,-0.0927874285714,-0.121949191837,1.118
0.451546943613,0.455341076258,-0.124817327229,-1.50055241759,0.070843232747,1.94668789858,0.138746554566,-0.0822528073947,-0.479903951221,-0.00686193629715,-0.757431830151,-0.0580862823359,0.255277888048,-0.120202622458,0.573831775839,0.818958534237,0.00218154511548,0.0,0.818915671775,-0.57376950973,-0.0121003771117,0.0,-0.00865816972838,0.00873025045448,-0.999924406555,0.0,0.643786792039,0.237814342271,0.303431242791,1.0,-0.102744,-0.135034971429,1.134
0.449898439437,0.445808006258,-0.124972131685,-1.51476315621,0.0698587122029,1.95186419006,0.136513830026,-0.0900150672117,-0.539103433058,-0.00916283866428,-0.815438161088,-0.0460073493862,0.293269701496,-0.122625211354,0.573842389617,0.818950053766,0.00254326872334,0.0,0.818912911625,-0.57377972117,-0.011799222421,0.0,-0.00820385576682,0.00885378004769,-0.999927151011,0.0,0.641946569334,0.235307425302,0.303659066886,1.0,-0.113945142857,-0.149756473469,1.152
0.448156576457,0.436206129224,-0.125040338237,-1.52953328254,0.0688998108761,1.95691776116,0.134157883992,-0.106060430657,-0.581671360642,-0.00678257268572,-0.894093117236,-0.057272755674,0.311690773385,-0.146194928498,0.573781942431,0.818992687193,0.00245107437106,0.0,0.818953698809,-0.57371894416,-0.0119230541257,0.0,-0.00835882727104,0.00884871994345,-0.999925912337,0.0,0.639905138299,0.232730601992,0.303634020329,1.0,-0.124524,-0.163660114286,1.169
0.446331461335,0.426336909135,-0.125132105914,-1.54425403387,0.067886086094,1.96218596362,0.1317319067,-0.115364325794,-0.617059951199,-0.00199549593777,-0.94398394493,-0.0687167279378,0.327269542385,-0.154550776037,0.573714872553,0.819038649358,0.00277178105779,0.0,0.819004218839,-0.573651109085,-0.0117150104856,0.0,-0.00800516521168,0.00899134923909,-0.999927533859,0.0,0.637914900138,0.230108577742,0.303809834409,1.0,-0.134480571429,-0.176745893878,1.185
0.444149867555,0.415237735908,-0.125254452118,-1.56093552617,0.0666827288697,1.96799666458,0.128974262887,-0.128749886319,-0.673729673009,-0.0130649539253,-0.99483709193,-0.0755951532172,0.36330667845,-0.154710689906,0.573700210581,0.819048456708,0.00290531314723,0.0,0.819016299157,-0.573636610972,-0.0115796014152,0.0,-0.00781781119791,0.00902289231071,-0.999928732082,0.0,0.635610614084,0.227045028357,0.303910109066,1.0,-0.145059428571,-0.190649534694,1.202
0.441769451821,0.403510508908,-0.125363614997,-1.57876875319,0.0654647841453,1.97407404036,0.125986874432,-0.147044031661,-0.703087271014,-0.00540245649091,-1.08056720065,-0.0808417336753,0.354671128401,-0.179901222333,0.573673567928,0.819067242019,0.00287008947434,0.0,0.819034180365,-0.573609575194,-0.0116539066371,0.0,-0.00789917444745,0.00903641355996,-0.999927970542,0.0,0.633063793721,0.223765806109,0.303879408153,1.0,-0.155638285714,-0.20455317551,1.219
0.439259294632,0.391693552083,-0.125489837446,-1.59628969127,0.0642358649096,1.98010253751,0.122970220414,-0.157890408912,-0.737540000092,-0.0111678566327,-1.12884490734,-0.095255465349,0.380765243915,-0.190169881222,0.573700689082,0.819047322341,0.00312250123432,0.0,0.819017553781,-0.573635895871,-0.011526164531,0.0,-0.00764944267858,0.00917012840993,-0.999928694844,0.0,0.630568422675,0.220441097882,0.304017946986,1.0,-0.165594857143,-0.217638955102,1.235
0.436196713218,0.377847689231,-0.125645464769,-1.61703883345,0.0626402521648,1.98699329839,0.119280158075,-0.171731632209,-0.781417398926,-0.00637590362318,-1.17082996122,-0.0911631469122,0.393343372246,-0.198246389503,0.573636189704,0.819092857481,0.00302648069576,0.0,0.819062313827,-0.573572262004,-0.0115123077068,0.0,-0.00769389176844,0.00908292748354,-0.999929149719,0.0,0.627513824413,0.216425995897,0.30401728515,1.0,-0.176796,-0.232360457143,1.253
0.433177001714,0.364963876692,-0.125785257772,-1.63627421712,0.061224849321,1.9933052566,0.115863728057,-0.194946749079,-0.84351475175,-0.0122254799571,-1.20540804929,-0.0920475329712,0.403244982316,-0.219148349317,0.573714738202,0.819038068905,0.00296441480613,0.0,0.819006403029,-0.573650625512,-0.0115852728639,0.0,-0.00778839105703,0.0090746912115,-0.999928492915,0.0,0.624632083162,0.212620698581,0.303998771359,1.0,-0.186752571429,-0.245446236735,1.269
0.429655737999,0.350716537479,-0.1259942678,-1.65758003383,0.0595839242396,2.0002309172,0.111926572065,-0.217036067061,-0.826491169371,-0.00922368571798,-1.28464373516,-0.0909694029827,0.402211529871,-0.242085332141,0.573802928493,0.818976914782,0.00278553556441,0.0,0.818942997235,-0.573739482195,-0.0116670798257,0.0,-0.00795705050569,0.00897597223026,-0.999928056047,0.0,0.621397198317,0.208275406001,0.30390971186,1.0,-0.197331428571,-0.259349877551,1.286
0.425857260174,0.335677972619,-0.126165860637,-1.67940437275,0.0579162381669,2.00736994863,0.107744434685,-0.224850490873,-0.87627350937,-0.00814916944393,-1.31524825683,-0.111380108493,0.420480492336,-0.259560883138,0.573861213159,0.818935139399,0.00304834216923,0.0,0.818904611546,-0.57379687142,-0.0115383897847,0.0,-0.00770021189999,0.00911791136774,-0.999928782679,0.0,0.618046409874,0.203772540434,0.304055545079,1.0,-0.207910285714,-0.273253518367,1.303
0.421878144736,0.320147234846,-0.126280069378,-1.70199199536,0.0560697367765,2.01457902283,0.103319182737,-0.245467004713,-0.915860603923,-0.0071861539568,-1.33671809603,-0.116606197985,0.426708509085,-0.263943583714,0.573747739683,0.819014426649,0.00310597033192,0.0,0.818984823525,-0.573683446117,-0.011485181273,0.0,-0.00762483219339,0.00913351520789,-0.999929217912,0.0,0.614449179544,0.199128246088,0.304105859047,1.0,-0.218489142857,-0.287157159184,1.32
0.417844412315,0.305013381016,-0.126408140769,-1.72381929304,0.0542561087284,2.02148277442,0.0988750205439,-0.258136372154,-0.964289094114,-0.00759158700428,-1.38537516997,-0.117416125561,0.42942120116,-0.287520099075,0.573616610092,0.81910585358,0.00321436759995,0.0,0.819077874798,-0.573552279548,-0.0114001992308,0.0,-0.00749450635012,0.00917233761565,-0.999929847838,0.0,0.610914699696,0.194545502813,0.304169963221,1.0,-0.228445714286,-0.300242938775,1.336
0.413158290655,0.288381962892,-0.126568315585,-1.74766079314,0.0522789777764,2.02879445734,0.0939488555999,-0.280215583158,-1.01450868423,-0.0107850452137,-1.41899210507,-0.116177969418,0.44438750564,-0.299953911606,0.573613389393,0.81910794917,0.00325484519934,0.0,0.819080211907,-0.573548595735,-0.0114176045473,0.0,-0.00748558287239,0.00921544756463,-0.999929518304,0.0,0.60696477609,0.189392096574,0.304215432568,1.0,-0.239024571429,-0.314146579592,1.353
0.40811209821,0.271335232637,-0.12675144318,-1.77207006769,0.0502048697709,2.03612144226,0.0886741046198,-0.309810464349,-1.04565781924,-0.0189122509797,-1.44730074062,-0.134286600978,0.458028704878,-0.317854465282,0.573569766904,0.819138799948,0.00317739109154,0.0,0.819109652023,-0.573504712341,-0.0115095519462,0.0,-0.00760581824076,0.00920433995034,-0.999928713287,0.0,0.602828187726,0.18399291039,0.304184307569,1.0,-0.249603428571,-0.328050220408,1.37
0.4029380161,0.254803285652,-0.126960407514,-1.79548906341,0.0481584976939,2.04304462927,0.0835325246014,-0.331882816798,-1.05313958168,-0.0206563546963,-1.46400526355,-0.122558841178,0.439154698021,-0.3314170965,0.573690049992,0.819054662181,0.00315179329069,0.0,0.819024983444,-0.573624818678,-0.0115494931224,0.0,-0.00765186665502,0.00920740400558,-0.999928333756,0.0,0.59880232758,0.178637617656,0.304182253806,1.0,-0.25956,-0.341136,1.386
0.397081558732,0.23670061148,-0.127155493475,-1.82087164825,0.0458744882511,2.05033195187,0.0776999728039,-0.348748233763,-1.06186848042,-0.0091486680471,-1.48593296748,-0.126940451442,0.427945649805,-0.347951914964,0.573705379925,0.81904411136,0.00310283623859,0.0,0.819013435522,-0.573639869601,-0.011620642825,0.0,-0.00773805748235,0.00920826716222,-0.999927662525,0.0,0.594318426406,0.172752252894,0.304190332751,1.0,-0.270138857143,-0.355039640816,1.403
0.390540847223,0.217009181827,-0.127330264565,-1.84816979068,0.043356805181,2.05814694908,0.0711506494084,-0.376716190451,-1.09949779138,-0.00599462718213,-1.49252344347,-0.147883438679,0.427885662081,-0.374919497583,0.573577556519,0.819133202718,0.00321399492826,0.0,0.819103824115,-0.573511532368,-0.0115842333813,0.0,-0.00764591424191,0.00927723042888,-0.999927733884,0.0,0.589393112144,0.166376368003,0.304231550636,1.0,-0.28134,-0.369761142857,1.421
0.384258438451,0.199068048858,-0.127540654867,-1.87283333059,0.0409773423969,2.06487030486,0.0650449907679,-0.390462355454,-1.10321186638,-0.0127251935518,-1.51107136224,-0.136517354101,0.413033745836,-0.384317133996,0.573554100169,0.819149912587,0.00314034864304,0.0,0.819119458391,-0.573488171316,-0.0116351685474,0.0,-0.00773014332713,0.00924589731832,-0.999927376496,0.0,0.584824290404,0.160416611392,0.304238039351,1.0,-0.291296571429,-0.382846922449,1.437
0.377025076497,0.179466294779,-0.127873256062,-1.89938437469,0.0384173887061,2.07200815053,0.0581134873032,-0.439848374601,-1.1345794415,-0.0225826402817,-1.54898493602,-0.137911291734,0.422130826992,-0.40886528288,0.573642775729,0.819087418942,0.00324235820668,0.0,0.819058116594,-0.573576298081,-0.0116094281192,0.0,-0.00764954397374,0.00931552372971,-0.999927350108,0.0,0.579845490201,0.15375730338,0.304308072373,1.0,-0.301875428571,-0.396750563265,1.454
0.369374351604,0.159459948082,-0.128155387697,-1.92625676016,0.0356898626827,2.07897575561,0.0508503060969,-0.451363852072,-1.18346079276,-0.0154063109978,-1.56089629136,-0.152306984031,0.404177920187,-0.426310106886,0.57363335818,0.819093998458,0.00324637862316,0.0,0.81906474021,-0.573566859142,-0.0116084598336,0.0,-0.00764655181039,0.00931817346497,-0.999927348305,0.0,0.574655219513,0.146935838723,0.304342993239,1.0,-0.312454285714,-0.410654204082,1.471
0.361740248322,0.140277111,-0.128400374201,-1.95181485045,0.0329925424079,2.0854322626,0.0436959400312,-0.492950042193,-1.19707972317,-0.0128478545821,-1.60246322947,-0.156849035547,0.39981677246,-0.453378526341,0.573590264886,0.819124282752,0.003219368717,0.0,0.819094857265,-0.573524080489,-0.0115970169511,0.0,-0.00765316005604,0.00928908322825,-0.999927568414,0.0,0.56959967851,0.140342936627,0.304344666791,1.0,-0.322410857143,-0.423739983673,1.487
0.35306345658,0.11941486284,-0.128753157719,-1.97914064588,0.0301438085078,2.09209845579,0.0356069079248,-0.523001261684,-1.23352739132,-0.0216622509402,-1.55932795406,-0.159074490287,0.389298880445,-0.471444687728,0.573622386352,0.819101265153,0.00334995544269,0.0,0.819073156619,-0.573555323258,-0.011584566058,0.0,-0.00756769363909,0.00938920577732,-0.99992728377,0.0,0.564084628503,0.133072254856,0.304411727194,1.0,-0.332989714286,-0.43764362449,1.504
0.343168501818,0.096838886202,-0.12919947158,-2.00833657422,0.0268265408022,2.09897869447,0.026501866194,-0.55712294915,-1.27308739121,-0.0211426939306,-1.63770083675,-0.187840332859,0.389886157775,-0.520057372639,0.573651082169,0.819080893309,0.00341658353884,0.0,0.819054615088,-0.57358502689,-0.0114237179058,0.0,-0.00739739032886,0.00935177670504,-0.999928908917,0.0,0.558068569866,0.125023733304,0.304483485865,1.0,-0.344190857143,-0.452365126531,1.522
0.334478201614,0.0777219813025,-0.129513906308,-2.03281510974,0.0241866667548,2.10432622311,0.0184911262384,-0.592711037768,-1.27104927056,-0.0223770489169,-1.63664050849,-0.182995885108,0.369949049182,-0.54062057833,0.573632555447,0.819093785888,0.00343629920507,0.0,0.819066468735,-0.573564811491,-0.0115876535428,0.0,-0.00752057949857,0.00946179493765,-0.999926954992,0.0,0.552833970628,0.118225909703,0.304496172223,1.0,-0.34998,-0.459973714286,1.537
0.324051521959,0.0561830847136,-0.129951028239,-2.0601985656,0.0209092453636,2.11020773607,0.00915465460828,-0.626068488767,-1.27976304846,-0.032675291839,-1.55396345089,-0.18150451898,0.348346359428,-0.546871784907,0.573743935938,0.819016141505,0.0033470629627,0.0,0.818988113987,-0.573677012444,-0.0115715791123,0.0,-0.00755732249665,0.009380508732,-0.999927443834,0.0,0.54690102488,0.110294456448,0.304456875445,1.0,-0.34998,-0.459973714286,1.554
0.3125771634,0.0335001888677,-0.130307232989,-2.08852744094,0.0175874586747,2.11585177913,-0.000962857223875,-0.639974855449,-1.28196269261,-0.0187555616212,-1.5700963604,-0.190081454465,0.328785607059,-0.573542385329,0.573914195066,0.818896859795,0.00334314527813,0.0,0.818867820078,-0.573846071307,-0.0117015634263,0.0,-0.00766407031795,0.00945346944953,-0.999925944229,0.0,0.540560789531,0.101949328639,0.304449080981,1.0,-0.34998,-0.459973714286,1.572
0.302703598491,0.0148415636676,-0.130588357814,-2.11134921425,0.0147160565486,2.12019045559,-0.00967519137405,-0.659673192634,-1.25709399797,-0.01634403312,-1.50749888125,-0.185897437933,0.297732499041,-0.582015101465,0.573956585804,0.818866867957,0.00341131591282,0.0,0.818839096423,-0.573888712056,-0.0116201224366,0.0,-0.0075577630797,0.00946294683107,-0.999926663738,0.0,0.535348429487,0.0950081625891,0.304518500605,1.0,-0.34998,-0.459973714286,1.587
0.290459536874,-0.00735730025794,-0.130947384608,-2.13815143148,0.0113582345566,2.12496854637,-0.0204524238852,-0.685642017036,-1.2591818742,-0.0125538332878,-1.46098932533,-0.19025439345,0.280509591398,-0.594600571079,0.574049023763,0.818801551619,0.00353331074898,0.0,0.818775085242,-0.573980404142,-0.0116018252249,0.0,-0.00747168521719,0.00955318718236,-0.999926452563,0.0,0.529067631961,0.0866708464053,0.304588137425,1.0,-0.34998,-0.459973714286,1.605
0.278650585386,-0.0280634598455,-0.131165272579,-2.16280997125,0.0081457995771,2.12902020101,-0.0309142385416,-0.705312865594,-1.22273740918,-0.0125167486483,-1.41683779543,-0.184728609334,0.235464692714,-0.616529676985,0.573917338804,0.818893650162,0.00358117935312,0.0,0.818867659431,-0.573848403064,-0.0115979972387,0.0,-0.0074426155339,0.00958898828332,-0.999926326675,0.0,0.523105810839,0.0789330642908,0.304636222062,1.0,-0.34998,-0.459973714286,1.622
0.26631379701,-0.0485139160756,-0.131540137247,-2.18690427296,0.00498163880161,2.13266949408,-0.0416756033226,-0.730603418412,-1.20889004374,-0.0188744115298,-1.37608224929,-0.171632271906,0.196016133755,-0.643154444052,0.574057939888,0.818795010502,0.00359990701428,0.0,0.818768569988,-0.573988033073,-0.0116839030326,0.0,-0.00750056236894,0.0096549139099,-0.999925259308,0.0,0.517145959559,0.0710447964549,0.30464016612,1.0,-0.34998,-0.459973714286,1.639
0.253032042666,-0.069903865296,-0.131752698159,-2.21172788277,0.00158355886796,2.13615468522,-0.0534647321274,-0.743756718613,-1.16930316695,-0.00950178714903,-1.36039264843,-0.190615087561,0.168605416217,-0.666038264697,0.573825721657,0.818957687399,0.00361860686908,0.0,0.818931326089,-0.573755576831,-0.011694789694,0.0,-0.00750148647777,0.00967434791885,-0.999925064539,0.0,0.510826565718,0.0628934934109,0.304647703645,1.0,-0.34998,-0.459973714286,1.657
0.241429750651,-0.087572360804,-0.1321182726,-2.2319431345,-0.00124985346441,2.13878471762,-0.0635969772427,-0.773270042432,-1.15417793944,-0.0214887053981,-1.35897539985,-0.189550701421,0.170532524945,-0.686384098277,0.573921871762,0.818890065725,0.00367318268319,0.0,0.81886437926,-0.573851494168,-0.0116763830819,0.0,-0.00745395625005,0.00970935702677,-0.999925080655,0.0,0.505581402776,0.0559081838124,0.304654414612,1.0,-0.34998,-0.459973714286,1.672
0.228945574912,-0.106207506842,-0.132305054064,-2.25279827199,-0.00421678419043,2.14112644464,-0.0746051780839,-0.788671380902,-1.14037085252,-0.0131018877056,-1.29664992952,-0.187246170755,0.136542624714,-0.687246262292,0.573747558146,0.819011815742,0.00375926827216,0.0,0.818987237608,-0.573676922329,-0.0116378831001,0.0,-0.00737510031019,0.00975618758518,-0.999925209553,0.0,0.499644310786,0.0482306609081,0.304722129516,1.0,-0.34998,-0.459973714286,1.689
0.215090048919,-0.12571800885,-0.132726669755,-2.27456528838,-0.00741059749876,2.14331474465,-0.0866933322611,-0.830395509996,-1.13382999445,-0.0270375996806,-1.27384582961,-0.178314447067,0.108417427491,-0.707862950698,0.573871981684,0.818924774263,0.00372956262866,0.0,0.818899338503,-0.573800800639,-0.0117158647589,0.0,-0.00745452940343,0.00977773114748,-0.999924410126,0.0,0.49403872808,0.0408086268856,0.304696810671,1.0,-0.34998,-0.459973714286,1.705
0.200085887825,-0.146124145757,-0.133031670416,-2.29695691639,-0.0107616847102,2.14523523106,-0.0999699451439,-0.844862800813,-1.13603786533,-0.0145376867485,-1.22967246589,-0.190577808065,0.109323074761,-0.747077205279,0.573718139778,0.819032713824,0.00369549412191,0.0,0.819006428127,-0.573646561827,-0.0117830255868,0.0,-0.00753092091972,0.00978695739084,-0.99992374744,0.0,0.487720075172,0.0325981449214,0.304671517754,1.0,-0.34998,-0.459973714286,1.723
0.186241464949,-0.163993105468,-0.13346108109,-2.31634803478,-0.0137161654438,2.14649143904,-0.112077221143,-0.86611580405,-1.11577337616,-0.0185192073963,-1.19338640665,-0.171887557508,0.0610238603504,-0.76236187101,0.573844679159,0.818944669458,0.00355801461357,0.0,0.818915262035,-0.573771867926,-0.0120159928154,0.0,-0.00779909473023,0.00980921486931,-0.999921473629,0.0,0.482071800831,0.0251746968598,0.30459973165,1.0,-0.34998,-0.459973714286,1.739
0.171225853471,-0.182858497734,-0.133813462903,-2.33640065119,-0.0167687652225,2.14760945748,-0.125390405756,-0.89666808239,-1.10567910883,-0.0256224078262,-1.16676137644,-0.192166947259,0.0455035199053,-0.79019438683,0.573778744863,0.818990693347,0.00359764574799,0.0,0.818960830763,-0.573704568739,-0.0121232167755,0.0,-0.00786496733525,0.00990256571081,-0.999920037544,0.0,0.476086196514,0.0174064927849,0.304585961036,1.0,-0.34998,-0.459973714286,1.756
0.155671837654,-0.201472309784,-0.134252132464,-2.35572592862,-0.0198868006765,2.14846748931,-0.13910302614,-0.917660035985,-1.07345911223,-0.0159445116809,-1.1393116294,-0.1804265069,0.031231828564,-0.825948630557,0.573833830156,0.818951527368,0.00372533110872,0.0,0.818923789221,-0.573759744994,-0.0120137160515,0.0,-0.00770135435775,0.00994483043272,-0.999920891615,0.0,0.470170771088,0.00954391239477,0.304645910142,1.0,-0.34998,-0.459973714286,1.773
0.140646915442,-0.218768195946,-0.134719071947,-2.37334653876,-0.0227002282028,2.14892372041,-0.152396543866,-0.959017334052,-1.07711745736,-0.0358981761913,-1.08794985705,-0.186892317635,0.041838770957,-0.83035922037,0.573953586006,0.818866706846,0.00391719693346,0.0,0.81884129208,-0.573878548652,-0.0119623025723,0.0,-0.007547681339,0.0100735630039,-0.999920774779,0.0,0.464602612095,0.00214385696986,0.304723509464,1.0,-0.34998,-0.459973714286,1.789
0.124388737851,-0.236792030275,-0.135093574738,-2.39167473532,-0.0258154593451,2.14907794313,-0.166890829321,-0.963240688446,-1.05959123802,-0.0255597274148,-1.07540074981,-0.177845360289,0.00649740198579,-0.866236045868,0.573833565114,0.818951260255,0.003823581676,0.0,0.818924369796,-0.573758551258,-0.0120311393273,0.0,-0.00765925149567,0.0100352889974,-0.999920311245,0.0,0.458616582212,-0.00561389528909,0.304690818109,1.0,-0.34998,-0.459973714286,1.806
0.107542682815,-0.254520687284,-0.135544696776,-2.40919142565,-0.0287121255314,2.14910393552,-0.181933588516,-0.995056356799,-1.01638680101,-0.0193475201936,-1.01908541404,-0.178567491845,0.00433921051135,-0.894591434772,0.573891948007,0.818909094458,0.00408337205634,0.0,0.818885835371,-0.57381631937,-0.0118981996533,0.0,-0.00740058086389,0.0101722923624,-0.999920874805,0.0,0.452390723836,-0.0139000353101,0.30476158116,1.0,-0.34998,-0.459973714286,1.824
0.0914033038693,-0.27093763851,-0.135947003065,-2.42522032232,-0.0314882520579,2.14894097404,-0.196443778944,-1.02798572373,-1.02991155171,-0.0324156708881,-0.978093018857,-0.174175668329,-0.0107914896337,-0.923253228505,0.573819545383,0.818958815951,0.00428182375112,0.0,0.818939282232,-0.573744884437,-0.0116621825252,0.0,-0.00709430930642,0.0101987383015,-0.999922825278,0.0,0.447209294541,-0.0207538006159,0.30483486291,1.0,-0.34998,-0.459973714286,1.839
0.0727099018689,-0.289010937168,-0.136445506627,-2.44283508678,-0.0345267823776,2.14821971959,-0.213289075519,-1.04622771036,-1.01390712006,-0.0247985530309,-0.974999607061,-0.171775478347,-0.0562576361828,-0.947877226678,0.573805515963,0.818968827053,0.00424700690703,0.0,0.818947449364,-0.573728988241,-0.011868872474,0.0,-0.00728374582734,0.0102886980571,-0.999920541713,0.0,0.440852023248,-0.0290019894138,0.304766079604,1.0,-0.34998,-0.459973714286,1.857
0.0544683780609,-0.305736184601,-0.136952706441,-2.45863544423,-0.0374357757201,2.14745064181,-0.229739563509,-1.08154067005,-0.958429952333,-0.0221019587477,-0.936646123439,-0.169976774236,-0.0536259239988,-0.977783988786,0.573831713221,0.818949763586,0.00438138395632,0.0,0.818931128237,-0.573756170049,-0.0116795306303,0.0,-0.00705123852839,0.0102903348986,-0.999922191494,0.0,0.434958192919,-0.0368726105427,0.304825271937,1.0,-0.34998,-0.459973714286,1.874
0.0370068318846,-0.321148532039,-0.137458538269,-2.47307015,-0.0399983133138,2.14637058198,-0.245552377352,-1.11386630414,-0.94161497543,-0.0423863779011,-0.858689040658,-0.154542182977,-0.0613487094618,-0.997240986376,0.573913099053,0.818892214565,0.00447689197122,0.0,0.818873959342,-0.573835975558,-0.0117668503628,0.0,-0.00706691654029,0.0104193604168,-0.999920744669,0.0,0.429346490453,-0.0442083511015,0.304824308032,1.0,-0.34998,-0.459973714286,1.89
0.0180189316942,-0.337164006625,-0.137906498379,-2.48776597175,-0.0427468961161,2.1451345529,-0.262949836056,-1.11788179334,-0.945321653466,-0.0207355044466,-0.834278937755,-0.160088712762,-0.0914171485909,-1.03066296945,0.5737804692,0.818984460607,0.00460145083285,0.0,0.818968437276,-0.573703892424,-0.0116313999486,0.0,-0.00688619814002,0.0104425141685,-0.999921764026,0.0,0.423434665531,-0.0519728297183,0.304871493636,1.0,-0.34998,-0.459973714286,1.907
-0.00155986830979,-0.352782151487,-0.138426207026,-2.50184815821,-0.045491347496,2.14359615909,-0.280773463368,-1.15458573447,-0.923774123184,-0.0233511004796,-0.819350109095,-0.15146090937,-0.0961943517212,-1.06208746526,0.573835410207,0.818945631258,0.00466067995974,0.0,0.81893078101,-0.573759266802,-0.0115510421175,0.0,-0.00678569780777,0.010445372377,-0.999922421241,0.0,0.417492606505,-0.0598223541315,0.304920693307,1.0,-0.34998,-0.459973714286,1.924
-0.0203413003274,-0.36702648079,-0.138950859542,-2.51451009663,-0.0478848232666,2.1420550736,-0.298076101324,-1.18759530233,-0.89180894876,-0.0368827364401,-0.780984429335,-0.155016992262,-0.0964003010105,-1.09570502081,0.573857910207,0.818928833284,0.00483857519671,0.0,0.818916303069,-0.573781277888,-0.0114839285487,0.0,-0.00662836396492,0.010552734523,-0.999922349278,0.0,0.41192706618,-0.0671796805432,0.304967015075,1.0,-0.34998,-0.459973714286,1.94
-0.0419089459229,-0.382483664317,-0.13946057685,-2.52814663035,-0.05058771634,2.14003973856,-0.318013262332,-1.21650802381,-0.878063367252,-0.0383980600279,-0.732404130774,-0.144408713271,-0.107634915053,-1.11587632195,0.573790388352,0.818976150739,0.0048375259259,0.0,0.81896310219,-0.573712968842,-0.0115591321121,0.0,-0.00669143099306,0.0105944781194,-0.99992148781,0.0,0.405630579042,-0.0754090037864,0.304962672006,1.0,-0.34998,-0.459973714286,1.958
-0.0615181391986,-0.395795373329,-0.13989158048,-2.53971128732,-0.0529054506015,2.13829022021,-0.336226519485,-1.2377266638,-0.803975381284,-0.0177244944855,-0.721295169692,-0.136676742548,-0.117035967614,-1.1591841326,0.573711580103,0.819030814129,0.00492902265568,0.0,0.819019330062,-0.573634517668,-0.0114683924912,0.0,-0.00656563571395,0.0106167188154,-0.999922085819,0.0,0.399717372634,-0.0831760837969,0.304979216547,1.0,-0.34998,-0.459973714286,1.975
-0.0828086034794,-0.40933114557,-0.140439154874,-2.55140326863,-0.0553049483817,2.13610129579,-0.35608938464,-1.26255321242,-0.809884398119,-0.0331365239799,-0.656277810149,-0.136315952139,-0.124350219073,-1.18877665507,0.573687078353,0.819048241782,0.0048847380152,0.0,0.819034829074,-0.573607986536,-0.0116864642614,0.0,-0.00676998361145,0.0107053502149,-0.999919778182,0.0,0.394081701795,-0.0905184414887,0.304929485527,1.0,-0.34998,-0.459973714286,1.991
-0.104573556314,-0.42240512431,-0.140955764707,-2.56229966333,-0.057681011716,2.13409352886,-0.376473617612,-1.27713754219,-0.761550833978,-0.0176508242361,-0.630353126496,-0.13838411782,-0.118596538719,-1.21663067434,0.573629289126,0.819087957259,0.00501037245013,0.0,0.819077747914,-0.573552378879,-0.0114043174243,0.0,-0.00646755254562,0.0106459400471,-0.999922414353,0.0,0.388211234441,-0.0983525724007,0.305016505168,1.0,-0.34998,-0.459973714286,2.008
-0.126763068889,-0.434733191197,-0.14149795353,-2.57284120763,-0.0598396559628,2.13174008643,-0.39729251875,-1.31341827292,-0.703189832848,-0.0212821410154,-0.595446439116,-0.131003025,-0.135693280755,-1.22972360825,0.57368112928,0.819051993097,0.0049539290248,0.0,0.81903828381,-0.573599918198,-0.011839358023,0.0,-0.00685560849408,0.0108496826972,-0.999917639117,0.0,0.382183022664,-0.106131318211,0.304887794077,1.0,-0.34998,-0.459973714286,2.025
-0.148010993469,-0.445982808309,-0.142016716629,-2.5818958529,-0.0618058677644,2.12969272108,-0.417355602922,-1.35013980996,-0.673943982628,-0.0386666891909,-0.542588085533,-0.121436105051,-0.120941498767,-1.27016320539,0.573706359253,0.819033005775,0.00516678868842,0.0,0.819023118912,-0.573626163351,-0.0116147453246,0.0,-0.00654918069435,0.0108953824101,-0.999919196173,0.0,0.376648408859,-0.113490293424,0.304992701619,1.0,-0.34998,-0.459973714286,2.041
-0.168265561162,-0.455874447275,-0.142408100148,-2.59007152554,-0.0636849195805,2.12769807335,-0.436562373653,-1.36265517116,-0.644714126695,-0.022228039509,-0.538991582698,-0.126245290061,-0.130987408421,-1.27370873733,0.573600300783,0.819107777582,0.00508827543639,0.0,0.819096239314,-0.573519333515,-0.011733359597,0.0,-0.00669279062297,0.0108982556937,-0.999918213944,0.0,0.371377927238,-0.120346090938,0.304940116031,1.0,-0.34998,-0.459973714286,2.056
-0.195647135988,-0.468203267691,-0.14293156181,-2.60009044202,-0.0658644441904,2.12505242663,-0.462695174094,-1.38872538604,-0.582088341518,-0.0223380930848,-0.474205172366,-0.0967217977409,-0.126531111981,-1.31210805233,0.573514309349,0.819167502893,0.00516585689199,0.0,0.819155581397,-0.57343082304,-0.0119151816918,0.0,-0.00679839895393,0.0110653807474,-0.999915666004,0.0,0.364397292862,-0.129436185772,0.304895253043,1.0,-0.341022857143,-0.448201469388,2.076
-0.21622582871,-0.476642935995,-0.143190471851,-2.60661803283,-0.0673160160265,2.12325904347,-0.482119094717,-1.36366299993,-0.555593446495,-0.0217986103378,-0.416666571641,-0.0834574745384,-0.122689649239,-1.29713717497,0.573654807517,0.819068089585,0.00532666280699,0.0,0.819059465816,-0.573572747986,-0.0116893595025,0.0,-0.00651927824865,0.0110687239759,-0.999917487776,0.0,0.359371999213,-0.136161055664,0.304991622972,1.0,-0.331688571429,-0.435933551021,2.091
-0.240681390491,-0.485800522998,-0.143322248078,-2.61380093802,-0.0688246043147,2.12114550124,-0.505297169974,-1.34896665989,-0.485948666684,-0.00660145570002,-0.391250925716,-0.0707690415845,-0.112601688713,-1.26143763048,0.573737077784,0.819009766042,0.0054328265279,0.0,0.819002410433,-0.573654467044,-0.0116769450864,0.0,-0.0064470909834,0.01114920903,-0.999917061639,0.0,0.353438671935,-0.143956781754,0.30501568692,1.0,-0.320487428572,-0.42121204898,2.109
-0.262125679671,-0.492977372148,-0.143275694857,-2.61948717487,-0.069971899581,2.1193362706,-0.525670051793,-1.32598646271,-0.437982925315,0.0169347105856,-0.333398235603,-0.0748096875092,-0.112336077161,-1.27979324427,0.573759363986,0.818994041724,0.00544965696072,0.0,0.818985813268,-0.573674812719,-0.0118403470777,0.0,-0.00657096928375,0.0112569184772,-0.999915048466,0.0,0.348307717774,-0.150646140337,0.304981672885,1.0,-0.310530857143,-0.408126269388,2.125
-0.284489216016,-0.499767061944,-0.143189396189,-2.62471713787,-0.0709863438242,2.11773010837,-0.546926837717,-1.29349431431,-0.382011834887,0.0243465764575,-0.287578955729,-0.0586296896556,-0.105985711918,-1.22804642532,0.573862444328,0.818920894084,0.00558669156425,0.0,0.818914841858,-0.573778078558,-0.0117450096494,0.0,-0.00641283611883,0.0113152624388,-0.999915416607,0.0,0.343091685974,-0.157558743169,0.305013273439,1.0,-0.299952,-0.394222628572,2.142
-0.308827868909,-0.506260154358,-0.142994345259,-2.6297158915,-0.0718461655675,2.11607387121,-0.570119296202,-1.26783815424,-0.322217263319,0.00966281776098,-0.241772832953,-0.0478884067567,-0.0787589980288,-1.18923094181,0.573997950258,0.818824728583,0.00575880742162,0.0,0.818820593585,-0.573912385716,-0.0117539757141,0.0,-0.00631951673791,0.0114624087655,-0.999914334777,0.0,0.337493711144,-0.164965292886,0.30502452886,1.0,-0.288128571429,-0.378683265306,2.161
-0.330096965829,-0.511324456645,-0.142698509714,-2.63356206008,-0.0724942280059,2.11481729611,-0.590487393657,-1.24134494881,-0.285586131342,0.00742418945601,-0.221204823656,-0.0375820001831,-0.0742992154967,-1.20708060107,0.574018341286,0.818809541826,0.00588429970356,0.0,0.818807543574,-0.573933270664,-0.0116427794017,0.0,-0.00615614201785,0.0115014993455,-0.999914905094,0.0,0.332673720676,-0.171350141152,0.305055302045,1.0,-0.277549714286,-0.36477962449,2.178
-0.348279604088,-0.515084779671,-0.142329682505,-2.63658211807,-0.0730076252264,2.1136828115,-0.607989638825,-1.19380978208,-0.242903392196,0.0283630682041,-0.19764625657,-0.0324849828448,-0.0690758331987,-1.14841917407,0.573913933876,0.818883012419,0.00584426001836,0.0,0.818879045569,-0.57382635812,-0.011881344855,0.0,-0.00637596378128,0.0116048348604,-0.999912333604,0.0,0.328531085159,-0.176708742651,0.304985240563,1.0,-0.268215428572,-0.352511706123,2.193
-0.369578641943,-0.518920615104,-0.141910765895,-2.63969455719,-0.0735019101956,2.11259387665,-0.628419909291,-1.16458433429,-0.195403901986,0.0168134913513,-0.157637758741,-0.0175100024398,-0.0447599454487,-1.11852793647,0.573931527946,0.818870622525,0.00585249483911,0.0,0.818865492566,-0.57384161962,-0.0120767370383,0.0,-0.00653100580148,0.0117238519307,-0.999909944575,0.0,0.32372841917,-0.182956491031,0.304902050948,1.0,-0.257014285714,-0.337790204082,2.211
-0.389030162926,-0.521891732901,-0.141436707439,-2.64201798172,-0.0738379747731,2.11170608881,-0.64709128942,-1.12755742856,-0.156205047779,0.0423275725974,-0.125444620469,-0.0200092965345,-0.0529889851413,-1.08266390367,0.573951790654,0.818856314313,0.00586731760359,0.0,0.818850812603,-0.57386080278,-0.0121602891612,0.0,-0.00659063286346,0.011784104407,-0.999908845066,0.0,0.319415319174,-0.188623731936,0.304874542606,1.0,-0.246435428572,-0.323886563265,2.228
-0.406675704159,-0.524282600143,-0.140961239708,-2.64380382492,-0.0740193350735,2.11099249878,-0.66412847322,-1.1042219337,-0.135610073766,0.02423964507,-0.102208980083,-0.00704083820516,-0.049382877278,-1.05035640272,0.573928562951,0.818872059961,0.00594145981249,0.0,0.818867605316,-0.573837402576,-0.0121337244504,0.0,-0.00652666172786,0.0118293877582,-0.999908729971,0.0,0.315532412779,-0.193724728838,0.304891258615,1.0,-0.236478857143,-0.310800783674,2.244
-0.424794886966,-0.526277048107,-0.140457258121,-2.64528207836,-0.0741623248454,2.11039275154,-0.681655048703,-1.04715403048,-0.108052572773,0.0333967369037,-0.0801507031534,-0.0050993462256,-0.0373321601407,-1.01871184575,0.573907574021,0.818886368996,0.0059965036686,0.0,0.818882938674,-0.573816741088,-0.0120758973681,0.0,-0.00644801769943,0.0118411114867,-0.999909101442,0.0,0.311577663087,-0.198954577128,0.304911606761,1.0,-0.2259,-0.296897142857,2.261
-0.443281434222,-0.52791738794,-0.139949936864,-2.64652045597,-0.074233119209,2.10989330785,-0.699405303043,-1.00922584619,-0.0829084451801,0.029302441623,-0.0548732850878,-0.00234474732969,-0.0222339676777,-0.978523065423,0.574047755927,0.81878754805,0.00607222974532,0.0,0.818785301597,-0.573956937209,-0.0120337450676,0.0,-0.00636800483492,0.0118800255421,-0.999909152627,0.0,0.307541866323,-0.204266174104,0.304919168403,1.0,-0.214698857143,-0.282175640816,2.279
-0.456968357444,-0.528827866005,-0.139445795653,-2.64721817578,-0.0742407613494,2.10957196305,-0.712656331011,-0.972010764335,-0.0538164769105,0.0281649928888,-0.0439079136161,-0.000802226337692,-0.0203595674315,-0.930171082066,0.574003930339,0.818818311551,0.00606692056238,0.0,0.818816027047,-0.573913201248,-0.0120290558874,0.0,-0.00636784803037,0.0118726457341,-0.999909241279,0.0,0.304581251526,-0.20815796843,0.304920452862,1.0,-0.205986857143,-0.270725583674,2.293
-0.473936354305,-0.529646977376,-0.138808380619,-2.64783178082,-0.0742279941181,2.10925247437,-0.729016584042,-0.91247063113,-0.0386828766553,0.0445344952778,-0.0273920045994,0.00136800475358,-0.0197979247198,-0.88986382414,0.574020731244,0.818806741505,0.00603879702566,0.0,0.818804283115,-0.573930474715,-0.0120042928751,0.0,-0.00636346880602,0.0118355337144,-0.999909709127,0.0,0.30091974268,-0.212977801303,0.304930053617,1.0,-0.194785714286,-0.256004081633,2.311
-0.489162918333,-0.530058113125,-0.138227690847,-2.64815538742,-0.0742080430311,2.10905019944,-0.743702550154,-0.889946568901,-0.0136166961489,0.0283525705238,-0.0176105922754,0.00399663978379,-0.00831219656683,-0.855204807683,0.57404329809,0.81879134443,0.00598106222639,0.0,0.818788259006,-0.573953506584,-0.0119960866522,0.0,-0.00638956329884,0.0117837235466,-0.999910154634,0.0,0.29763789665,-0.217301243823,0.304930962171,1.0,-0.184206857143,-0.242100440816,2.328
-0.502626488325,-0.530216841211,-0.137547091875,-2.64829742239,-0.0740840159942,2.10891682917,-0.756881829854,-0.822724863612,-0.0111939393468,0.040215011266,-0.00657844217775,0.00818011044661,-0.00294370326795,-0.802261126467,0.57384077903,0.818933754909,0.00591711877712,0.0,0.818929873711,-0.573751358435,-0.0119994807881,0.0,-0.00643194875734,0.0117317226083,-0.999910494354,0.0,0.294763353396,-0.221064671166,0.304930844568,1.0,-0.174250285714,-0.229014661225,2.344
-0.516430399741,-0.530225517052,-0.136938952461,-2.64833617061,-0.0739390551924,2.10883372691,-0.770117845231,-0.806720850442,0.00353085212068,0.0348459514263,0.00218523680632,0.0170868439992,-0.00453379825086,-0.767319347289,0.573936712118,0.818866696413,0.00589329193989,0.0,0.818862501989,-0.573847363829,-0.0120063634606,0.0,-0.00644988531925,0.0117169141389,-0.999910552451,0.0,0.291784388324,-0.224931929082,0.304925288168,1.0,-0.163671428572,-0.215111020408,2.361
-0.529945117273,-0.530027849291,-0.13615485837,-2.64823329413,-0.0736197935273,2.10881611386,-0.783276627491,-0.740114420901,0.0144085602223,0.0381309473819,0.00982261689164,0.0169108717492,-0.00129299413841,-0.715791348463,0.573817511303,0.818950124918,0.00590792007101,0.0,0.818946071001,-0.57372803661,-0.0120091506685,0.0,-0.00644548015284,0.0117295547097,-0.999910432655,0.0,0.288910113825,-0.22865225961,0.304919066536,1.0,-0.152470285714,-0.200389518367,2.379
-0.540720869575,-0.529752789585,-0.135624488073,-2.64805893986,-0.0733505379013,2.108825442,-0.793565247384,-0.705087736849,0.0196611474658,0.0311007810916,0.0158554127405,0.018811602475,-0.00115281490515,-0.668365031141,0.573967352041,0.818844696249,0.00596566149304,0.0,0.818841274179,-0.573877389299,-0.0120190121474,0.0,-0.00641826967957,0.011783677307,-0.999909971329,0.0,0.286591697599,-0.23163573629,0.304912680707,1.0,-0.143136,-0.1881216,2.394
-0.551978061008,-0.529276070454,-0.13486652094,-2.64775004346,-0.072978105351,2.10889282552,-0.804499541896,-0.640842252291,0.0297712046502,0.0453230592903,0.0235130098714,0.0247475977639,0.00655000152575,-0.634233526402,0.573876287763,0.818908332877,0.0059912927971,0.0,0.818905042942,-0.573785866173,-0.0120439746332,0.0,-0.00642531576823,0.0118182788762,-0.999909517707,0.0,0.28408196614,-0.234876284046,0.304897653302,1.0,-0.131934857143,-0.173400097959,2.412
-0.562559084961,-0.528692571713,-0.134178338196,-2.64737868518,-0.0726240948604,2.10898671498,-0.814665199918,-0.615331506264,0.0383584133237,0.0410587731938,0.0242834321855,0.02596014273,0.0102502009992,-0.583267850507,0.573900945033,0.818890951484,0.00600514514851,0.0,0.818887729745,-0.573810253237,-0.01205928083,0.0,-0.00642954588336,0.0118386002719,-0.999909250124,0.0,0.281979964581,-0.237592591741,0.304886264863,1.0,-0.121978285714,-0.160314318367,2.428
-0.572351562354,-0.528027779272,-0.133488375614,-2.6468858245,-0.0722520286605,2.1091061999,-0.824013405792,-0.550716535754,0.0498384134591,0.0446109612095,0.033208143312,0.0240460898461,0.015999955852,-0.548317138576,0.573964386306,0.818846386998,0.00601869206707,0.0,0.818843504896,-0.573873925267,-0.012032426632,0.0,-0.00639886183084,0.0118347791309,-0.999909492189,0.0,0.279933396786,-0.240267841051,0.304895444959,1.0,-0.111399428572,-0.146410677551,2.445
-0.581132929852,-0.52726709026,-0.132720762153,-2.64638479839,-0.071829622067,2.10922743663,-0.832552701427,-0.509406666582,0.0395319252285,0.0411885672004,0.0308919833619,0.0250545190849,0.00857496704897,-0.490086808222,0.573829400899,0.818940952864,0.00602339499172,0.0,0.818937714177,-0.5737381769,-0.0120942782817,0.0,-0.00644877227775,0.0118730663801,-0.999908717649,0.0,0.27812696727,-0.242621933117,0.304875172229,1.0,-0.100820571429,-0.132507036735,2.462
-0.589347057331,-0.526565082631,-0.132015888671,-2.64588990213,-0.0714425512878,2.10934949158,-0.840278227094,-0.465553040981,0.0421501234086,0.0369643071891,0.0291503670642,0.0243296881521,0.00804227453003,-0.436639112413,0.573924599987,0.818874235716,0.00602382860385,0.0,0.818870906101,-0.573833176461,-0.0121108065385,0.0,-0.006460679134,0.0118836565824,-0.999908514981,0.0,0.276424111804,-0.244823164775,0.304871746596,1.0,-0.0902417142858,-0.118603395918,2.479
-0.596686178465,-0.525820800055,-0.131323200867,-2.64535588976,-0.0710130943783,2.10948275769,-0.847250271433,-0.41235247426,0.0434589961867,0.045468159689,0.0270880494134,0.0210637670867,0.00887866132663,-0.393106280828,0.5739487237,0.818857108968,0.00605347485355,0.0,0.818854056755,-0.573856964748,-0.0121228976581,0.0,-0.0064532164674,0.0119150634816,-0.999908189415,0.0,0.274931375981,-0.246780647609,0.30487104077,1.0,-0.079662857143,-0.104699755102,2.496
-0.603059565356,-0.525126600321,-0.130555232322,-2.64489940757,-0.0705672929433,2.10960503946,-0.853412976901,-0.367335088206,0.0345757959897,0.0458535672493,0.0254276778598,0.0281737925489,0.0064657924615,-0.345294448986,0.573786278353,0.818970877402,0.00606264315433,0.0,0.818967580522,-0.573693841614,-0.0121747710499,0.0,-0.006492806894,0.011951054861,-0.999907503595,0.0,0.273592033918,-0.248517404721,0.304854067889,1.0,-0.0684617142858,-0.0899782530614,2.514
-0.608864470591,-0.524555010324,-0.129849184279,-2.64445215521,-0.0701450923414,2.10973436491,-0.85874157093,-0.330933071421,0.0337538860819,0.038830944508,0.0269228152583,0.0294027765708,0.00207610884799,-0.296421109314,0.573889403388,0.818898564504,0.00606964847381,0.0,0.818895735078,-0.573797608126,-0.0121172142303,0.0,-0.00644014355528,0.0119245796791,-0.999908160258,0.0,0.272513622437,-0.249927520568,0.304876693428,1.0,-0.0585051428572,-0.0768924734695,2.53
-0.613490891907,-0.524012189882,-0.129160351424,-2.64405030946,-0.0696964621274,2.10986368764,-0.863018620672,-0.272284824004,0.0370900837552,0.0434389702449,0.0283648635656,0.031574644432,0.0188476290088,-0.265389398732,0.573901520388,0.818889824883,0.00610299108895,0.0,0.818887640124,-0.573809967856,-0.0120789297116,0.0,-0.00638947853304,0.0119300097864,-0.999908420522,0.0,0.271640997951,-0.251093653755,0.304888580319,1.0,-0.0485485714287,-0.0638066938777,2.546
-0.617901221772,-0.523492578256,-0.128445077821,-2.64366315424,-0.0692388094279,2.10997143388,-0.866965552773,-0.231698424684,0.0244762033393,0.0348814072406,0.0184681431547,0.0268730858657,0.00410625228537,-0.197653857297,0.573991082069,0.818826844791,0.00613048579153,0.0,0.818825150448,-0.573899639348,-0.0120550342367,0.0,-0.00635282437469,0.011939507969,-0.999908540704,0.0,0.270817918978,-0.252185151276,0.30490091636,1.0,-0.0373474285715,-0.0490851918369,2.564
-0.621052785566,-0.52313934917,-0.127720484042,-2.64341353508,-0.0688247455663,2.11002925386,-0.869805184379,-0.183775240031,0.0150455170069,0.0497905463765,0.014444291385,0.0279296244641,-9.37507080284e-05,-0.160464643302,0.573923858019,0.818874023403,0.00612257250474,0.0,0.818872190976,-0.573832397965,-0.0120607128029,0.0,-0.00636299646329,0.0119357649841,-0.999908520711,0.0,0.270270665377,-0.252897787508,0.304907548808,1.0,-0.027390857143,-0.035999412245,2.58
-0.623314925766,-0.522904565041,-0.12700064205,-2.64324084196,-0.0684567479677,2.11008428455,-0.871719202681,-0.138441640424,0.0143866781506,0.0429409235191,0.00884735240941,0.0175105662627,0.000327857577017,-0.107770278297,0.57387399896,0.818909348066,0.00607123288156,0.0,0.818907076909,-0.57378319902,-0.0120327391857,0.0,-0.00637027382471,0.0118772804016,-0.999909170786,0.0,0.2699063421,-0.253384495666,0.304923408101,1.0,-0.0198981818182,-0.0261518961039,2.596
-0.62544093712,-0.522681515478,-0.126396718523,-2.64305557419,-0.0681130763506,2.11014701467,-0.873602324669,-0.103448920664,0.0109981228537,0.0266935706377,0.0108588971751,0.0136293391344,0.00518511915326,-0.0984321186894,0.573793293139,0.818965960635,0.00606291768652,0.0,0.818963910187,-0.573703159019,-0.0119810702576,0.0,-0.00633389563046,0.0118401964946,-0.999909841692,0.0,0.269593379056,-0.253812308416,0.30494455412,1.0,-0.0195581818182,-0.025705038961,2.613
-0.627146053127,-0.522468384329,-0.126037256719,-2.64285806695,-0.0679153781726,2.11017384481,-0.875196690591,-0.0948201730042,0.0169091267223,0.0137594578837,0.00926780673957,0.00750193271416,0.00480567912548,-0.0855599252027,0.573724066068,0.819014579026,0.0060466732709,0.0,0.819012522364,-0.57363439651,-0.0119504917138,0.0,-0.00631916883104,0.0118088131813,-0.999910305996,0.0,0.269299551417,-0.254221227273,0.304967066869,1.0,-0.0192181818182,-0.0252581818182,2.63
-0.628655351749,-0.522244012787,-0.125873448107,-2.64268053533,-0.0677886898261,2.11024464949,-0.876655208856,-0.0971512559418,0.0117952767661,0.00495048645681,0.0105532803463,0.00959040462148,0.00176963269317,-0.0896763798851,0.573713032633,0.81902217301,0.00606491605885,0.0,0.819020575069,-0.573623706599,-0.0119116641804,0.0,-0.00627705830417,0.0118013952324,-0.999910658814,0.0,0.269009368458,-0.254628667153,0.304975380425,1.0,-0.0188981818182,-0.0248376103896,2.646
-0.63030519596,-0.521985205271,-0.125748337151,-2.64250965295,-0.0677279414295,2.11027030738,-0.878160526468,-0.0956651999472,0.0145620091541,0.00803871755483,0.00746125193515,0.00195801010841,0.000616253732083,-0.0845538255644,0.57377794162,0.818976791541,0.00605272909151,0.0,0.818974732328,-0.573688084115,-0.0119631456742,0.0,-0.0063252818861,0.0118214488873,-0.999910118038,0.0,0.268659126495,-0.255080484632,0.304963179804,1.0,-0.0185381818182,-0.0243644675325,2.664
-0.631772317501,-0.521765454106,-0.125686013067,-2.64235021813,-0.0676924343718,2.11029014436,-0.879621253168,-0.082302932814,0.0124839912072,0.002905952157,0.00858502300345,0.00824539156301,4.00229622315e-05,-0.0915058880511,0.573762688042,0.818987488428,0.00605132300525,0.0,0.818985213107,-0.573672470339,-0.0119943482248,0.0,-0.00635186600384,0.0118380814596,-0.999909752741,0.0,0.268336496864,-0.255496246679,0.304958098009,1.0,-0.0181981818182,-0.0239176103896,2.681
-0.632988439614,-0.521564776997,-0.125624691555,-2.64220606322,-0.0676607649332,2.1103440376,-0.880854430487,-0.0752621547567,0.00834762810524,0.00125042782691,0.00779448507881,0.00905935420019,0.00076145605547,-0.074838225492,0.573726464151,0.819012927169,0.00604287707769,0.0,0.819010579358,-0.573636358776,-0.0119893991525,0.0,-0.00635318120992,0.0118280435659,-0.999909863175,0.0,0.268079240764,-0.255846082969,0.304955946965,1.0,-0.0178981818182,-0.0235233246753,2.696
-0.634398509121,-0.521316914221,-0.125580754144,-2.6420426562,-0.0676307619155,2.1103917092,-0.882271280113,-0.0795198794928,0.0171518854916,0.00104126959494,0.00774508266502,0.00193499239043,-0.000141587911328,-0.0821157172378,0.573711381014,0.819023491521,0.00604305667904,0.0,0.819020964496,-0.573620940409,-0.0120176262718,0.0,-0.00637641713955,0.0118442671135,-0.999909523227,0.0,0.267770406119,-0.256254843912,0.304944243476,1.0,-0.0175381818182,-0.0230501818182,2.714
-0.635719571266,-0.521105712999,-0.125586757503,-2.64189419611,-0.0675957966566,2.1103995779,-0.883615582875,-0.0743525134273,0.0117809993497,-0.000448926737665,0.00826035215116,0.00199161929288,0.00032388389292,-0.0732379789529,0.573719455507,0.819017587885,0.00607651286537,0.0,0.819015168917,-0.573628262073,-0.0120630400785,0.0,-0.00639430558345,0.0118977860657,-0.99990877361,0.0,0.267464508114,-0.256641274131,0.304934626864,1.0,-0.0171981818182,-0.0226033246753,2.731
-0.636950974548,-0.520924760575,-0.125584554846,-2.64175020828,-0.067573528022,2.11043066271,-0.884787785165,-0.0768495431307,0.00895180810842,-0.000110831016535,0.00342437430324,0.00142054758551,0.000449439861892,-0.0711730322349,0.573783450869,0.818972650308,0.00609068613264,0.0,0.818970415934,-0.573692182988,-0.012061670875,0.0,-0.00638412245446,0.0119091081805,-0.999908703894,0.0,0.267185100187,-0.257005463791,0.304936253877,1.0,-0.0168781818182,-0.0221827532468,2.747
-0.638236164848,-0.520738266809,-0.125578567641,-2.64158560195,-0.06754466612,2.11047950256,-0.886113645545,-0.0806751681824,0.0142690943847,0.00346920886025,0.00855363033646,0.00457831363034,0.00109105404846,-0.0801836567193,0.573766755379,0.818984233182,0.00610599077281,0.0,0.81898240408,-0.573675810777,-0.0120263393502,0.0,-0.00634664529613,0.0119012418463,-0.999909036131,0.0,0.266900259149,-0.257389803435,0.304946811946,1.0,-0.0165381818182,-0.0217358961039,2.764
-0.639490960966,-0.520560081016,-0.125556845829,-2.64141952703,-0.0675144654085,2.11052504281,-0.887385125836,-0.0648402507246,0.0117800025567,0.00148483105919,0.00643924818333,0.00315257025316,0.000482267453618,-0.0719179252563,0.573759149383,0.818989503724,0.00611377053743,0.0,0.818988028174,-0.573668647749,-0.0119849571648,0.0,-0.0063083970999,0.0118838125057,-0.999909485467,0.0,0.266626216195,-0.257762186791,0.304961174872,1.0,-0.0161981818182,-0.021289038961,2.781
-0.640641964669,-0.520393366885,-0.125535855107,-2.64127035082,-0.067492979038,2.11053983743,-0.888509717593,-0.0654167734317,0.010351280137,0.00122654011818,0.0123530965466,0.000210654715982,0.000834825781572,-0.0698654928444,0.57378281329,0.818972894596,0.00611784209242,0.0,0.818971494875,-0.57369233273,-0.0119810203948,0.0,-0.00630249319418,0.0118850706965,-0.999909507743,0.0,0.266368962497,-0.2580993137,0.304969421153,1.0,-0.0158781818182,-0.0208684675325,2.797
-0.641877299753,-0.520184510401,-0.125469891718,-2.64111838583,-0.0674644401664,2.11056949914,-0.889835615174,-0.0690429947976,0.00737928891605,0.00166411364948,0.0133919106122,0.00461242874534,0.00314592071356,-0.0712172963444,0.573682124454,0.819043507778,0.00610731934578,0.0,0.819041848729,-0.573591478772,-0.0120005171342,0.0,-0.00632596110819,0.0118868611507,-0.999909338264,0.0,0.266101900123,-0.258450097156,0.304965762818,1.0,-0.0155181818182,-0.0203953246753,2.815
-0.643020731095,-0.519981422825,-0.125410806398,-2.6409658993,-0.0674387889274,2.11062199174,-0.890952599984,-0.069569262216,0.0115446771184,0.00973382491307,0.0103511806618,0.000507607990513,0.00898259088386,-0.0571194817059,0.573680880172,0.819044488375,0.00609267493637,0.0,0.819042705985,-0.573590422449,-0.0119924955165,0.0,-0.00632780919401,0.0118702548891,-0.999909523847,0.0,0.265860311718,-0.258781387704,0.304966233422,1.0,-0.0151781818182,-0.0199484675325,2.832
-0.644091783479,-0.519795582717,-0.125366099779,-2.64083071677,-0.0674165106887,2.11067195286,-0.892037714508,-0.0702980627866,0.00776939333055,0.000783329563926,0.011225190488,0.000384999177409,0.00358540181138,-0.073763763213,0.57365431685,0.819063157285,0.00608408076585,0.0,0.819061303819,-0.573563977003,-0.0119871503043,0.0,-0.00632874546261,0.0118599439841,-0.999909640272,0.0,0.265629650544,-0.259092250436,0.304964615803,1.0,-0.0148581818182,-0.0195278961039,2.848
-0.645222439892,-0.51959779452,-0.125336603039,-2.64069758564,-0.0673957854638,2.11068408133,-0.893206896468,-0.0630079041808,0.012654790895,-0.000340910151193,0.00920258764687,0.001445161677,-3.20893081831e-05,-0.0716581912236,0.57361781997,0.819088692259,0.00608750586441,0.0,0.819086585795,-0.573526916591,-0.0120327809729,0.0,-0.00636468890316,0.0118886408775,-0.999909071343,0.0,0.265372984114,-0.259416216851,0.30495406791,1.0,-0.0145181818182,-0.019081038961,2.865
-0.64639758513,-0.519419155339,-0.125319970022,-2.64056015684,-0.0673681326855,2.11071751925,-0.894335249192,-0.0665356916521,0.00987581353105,0.00101652066447,0.0080487362357,0.00731237401612,0.00506203324483,-0.0631976151338,0.573663368786,0.819056705039,0.00609919215664,0.0,0.819054739606,-0.573572385293,-0.012033256374,0.0,-0.00635771352858,0.0118988397222,-0.999908994405,0.0,0.26510700006,-0.259758239791,0.304954028018,1.0,-0.0141581818182,-0.0186078961039,2.883
-0.647419830783,-0.51927117127,-0.125313394585,-2.64043309295,-0.0673511817299,2.11074890549,-0.895350177491,-0.0658307214853,0.00548737230832,0.00130750898412,0.00449145450895,0.000187360058552,0.000362392018162,-0.0573483909134,0.573678521195,0.819046040966,0.00610606246363,0.0,0.819044263148,-0.57358768929,-0.0120168465231,0.0,-0.00634011037727,0.011895171193,-0.999909149824,0.0,0.264875181141,-0.260060364305,0.304960133887,1.0,-0.0138381818182,-0.0181873246753,2.899
-0.648476776073,-0.519100211134,-0.125287567365,-2.64028208483,-0.0673273112784,2.11079437629,-0.896402147659,-0.057469537386,0.0104994201754,0.00376982992814,0.0117648116646,0.000184293885544,0.00864926020134,-0.058441436258,0.573682259997,0.819043426584,0.00610547586305,0.0,0.819041842132,-0.573591807357,-0.011985252221,0.0,-0.00631451268641,0.01187659544,-0.999909532613,0.0,0.264646021603,-0.260374276245,0.304970315288,1.0,-0.0134981818182,-0.0177404675325,2.916
-0.649483285084,-0.518921378898,-0.125272257492,-2.64013613218,-0.0673094973423,2.11084498986,-0.897393208972,-0.0599947690428,0.0102649525418,0.00331857898694,0.00267179496592,-3.33842671366e-05,0.000253672007383,-0.0663256022052,0.573699248543,0.819031533097,0.00610466332663,0.0,0.819030086548,-0.573609075234,-0.0119621502824,0.0,-0.00629580921334,0.0118628079565,-0.99990981422,0.0,0.264426290461,-0.260676859394,0.304975478013,1.0,-0.0131581818182,-0.0172936103896,2.933
-0.650372056811,-0.51876276934,-0.125248383733,-2.64001821535,-0.0672935445155,2.11086738897,-0.898274353009,-0.0579256905032,0.0131080653987,-2.90484812033e-05,0.00482346434794,0.000118574830612,0.00124552886471,-0.0608849953703,0.573699297838,0.819031479931,0.00610716319209,0.0,0.819029944074,-0.573608884699,-0.0119810269258,0.0,-0.00630983663079,0.0118756849061,-0.999909572946,0.0,0.264214721785,-0.260951761507,0.304971221479,1.0,-0.0128381818182,-0.016873038961,2.949
-0.651412466972,-0.518575804302,-0.125238926399,-2.63989643225,-0.0672796497192,2.11088669441,-0.899367855118,-0.059668550734,0.0116802524392,0.00163352259865,0.00214886401953,5.41644163696e-05,0.00102622810519,-0.0555531349464,0.573663848698,0.819056283611,0.00611063622059,0.0,0.819054569,-0.573573007391,-0.0120152026496,0.0,-0.00633635322935,0.0118978609815,-0.999909141638,0.0,0.263986690599,-0.26123777637,0.304961487298,1.0,-0.0124981818182,-0.0164261818182,2.966
-0.652375907947,-0.51841332333,-0.125237669903,-2.63976741053,-0.0672675604131,2.11092459815,-0.900302322911,-0.0614890146728,0.0105867805731,6.83237519471e-05,0.0100903413986,0.000127653691585,0.000209631036251,-0.0543251584278,0.573698579477,0.819031927945,0.00611455747161,0.0,0.819030323818,-0.573607825985,-0.0120057293694,0.0,-0.00632583944566,0.0118959069039,-0.999909231458,0.0,0.263768150922,-0.261526237718,0.304963531422,1.0,-0.0121581818182,-0.0159793246753,2.983
-0.653263960347,-0.51826203163,-0.125236261716,-2.63966271489,-0.0672581159628,2.11096243252,-0.901155839001,-0.0521045193863,0.00728963050883,-0.00031199125545,0.00241885455463,0.00425686262342,0.00249100168886,-0.0513844031471,0.573735447831,0.81900607343,0.00611837299716,0.0,0.81900449239,-0.57364462047,-0.0120099022397,0.0,-0.0063265329251,0.0119017107555,-0.999909158005,0.0,0.263563507668,-0.261788806653,0.304958633341,1.0,-0.0118381818182,-0.0155587532468,2.999
-0.654165612764,-0.51809996384,-0.125225898258,-2.6395294877,-0.0672483892211,2.1109833145,-0.902066947371,-0.0548108492297,0.010663036117,0.000752236475303,0.00454556909469,-0.00031408465155,3.02879161071e-05,-0.0504907566083,0.573731433712,0.819008896986,0.00611682351068,0.0,0.819007275279,-0.573640575205,-0.0120133434344,0.0,-0.00633029887607,0.0119023848669,-0.999909126146,0.0,0.263360640813,-0.262057596449,0.304961486126,1.0,-0.0114981818182,-0.0151118961039,3.016
-0.655042435909,-0.517934452812,-0.125199555675,-2.63942176796,-0.0672360372568,2.11102153765,-0.902942229904,-0.0494745677679,0.0117079579191,0.00251816296524,0.00549604115112,-8.99935465378e-05,9.33013615292e-05,-0.0511758141251,0.57372502608,0.819013427842,0.00611116716995,0.0,0.81901164209,-0.573634023139,-0.0120284878231,0.0,-0.00634604181492,0.0119063907839,-0.999908978663,0.0,0.263164592852,-0.262311770078,0.304953331964,1.0,-0.0111581818182,-0.014665038961,3.033
-0.655891296974,-0.51778398941,-0.125171041345,-2.63930804811,-0.0672276021575,2.11105086482,-0.90373511597,-0.0483619319191,0.00759846970693,0.00310596561286,0.00541299569257,0.00255644799745,0.000806661088548,-0.0473298531007,0.573760194042,0.818988877303,0.00609963009429,0.0,0.818986932834,-0.573669216888,-0.0120324704132,0.0,-0.00635541177676,0.0118994990037,-0.999909001192,0.0,0.262976074143,-0.26255891711,0.304952730836,1.0,-0.0108181818182,-0.0142181818182,3.05
-0.656766972165,-0.517636813741,-0.125150154068,-2.63918762657,-0.0672152964727,2.11108348976,-0.904589218372,-0.0492911347748,0.00385358578683,-0.000530933297981,0.00167250765118,0.000832967439676,0.00282384246255,-0.0457241999301,0.573774538438,0.818978867407,0.00609431562051,0.0,0.818976925396,-0.573683714996,-0.0120223840988,0.0,-0.00634999114428,0.0118894706657,-0.999909154923,0.0,0.262781073588,-0.262816497916,0.304956482903,1.0,-0.0104581818182,-0.013745038961,3.068
-0.65755860706,-0.517485649135,-0.125154601083,-2.63906838826,-0.0672022494273,2.11110870418,-0.905433695387,-0.0478074102297,0.00865069571802,-0.000680673897929,0.00908899036775,9.88127977968e-05,0.00432905462527,-0.0461321557787,0.573746205616,0.818998649846,0.00610327726678,0.0,0.818996799598,-0.573655303455,-0.0120242241927,0.0,-0.00634676820168,0.0118976466212,-0.999909078136,0.0,0.262600902012,-0.263055874805,0.304956990506,1.0,-0.0101181818182,-0.0132981818182,3.085
-0.658293927351,-0.517337881759,-0.125146149784,-2.63896077978,-0.0671895083636,2.11114089828,-0.90614696611,-0.0434533761632,0.00654602054076,0.00174998305197,0.00870443817352,0.00232679934302,0.000706982832735,-0.038260318432,0.573769360496,0.818982416663,0.00610483859286,0.0,0.818980561465,-0.573678399442,-0.0120283356193,0.0,-0.00634890357717,0.0119014637146,-0.999909019154,0.0,0.2624366832,-0.263275624525,0.304954359787,1.0,-0.00979818181819,-0.0128776103896,3.101
-0.65906266211,-0.517195039442,-0.125122439331,-2.63885771667,-0.0671722820457,2.11117557645,-0.906872418105,-0.0455667767975,0.0113761763098,8.91948217032e-05,0.00803945479517,0.000193119437333,-0.000250238256501,-0.0447908229462,0.573800746499,0.818960440948,0.00610298124382,0.0,0.818958560484,-0.573709784712,-0.0120293822303,0.0,-0.00635037038447,0.0119007863648,-0.999909017901,0.0,0.262266716538,-0.263499537453,0.304952048066,1.0,-0.00945818181819,-0.0124307532468,3.118
-0.659796056418,-0.517048897344,-0.125096719652,-2.63877285248,-0.0671584676597,2.11120623109,-0.907604988059,-0.0412153731187,0.00600645449194,-5.23942387607e-05,0.00457251741369,0.00204409225449,0.000308551493209,-0.0425431896456,0.573793653511,0.818965426494,0.00610084411702,0.0,0.818963350343,-0.573702388182,-0.0120560146654,0.0,-0.00637351306231,0.0119142618261,-0.999908710181,0.0,0.262101178215,-0.263708648988,0.3049399475,1.0,-0.00911818181819,-0.0119838961039,3.135
-0.660402035767,-0.516923469056,-0.125060281506,-2.63870551724,-0.0671369445855,2.11122186549,-0.908212036447,-0.0397999978556,0.00475860739493,0.00666748923823,0.00625392421682,0.00266387299605,0.000854200883924,-0.0404739929515,0.573779788709,0.818975131589,0.00610203316023,0.0,0.818972822856,-0.573688058104,-0.0120943918425,0.0,-0.00640446590233,0.0119371467454,-0.999908239462,0.0,0.261966289313,-0.263874868682,0.304926492134,1.0,-0.00881818181819,-0.0115896103896,3.15
-0.661095972713,-0.516778694786,-0.125026561314,-2.6386246164,-0.0671136217836,2.11124705409,-0.908954313435,-0.035836721392,0.00856528139974,0.00181124876764,0.00413059906766,0.0034683989109,0.00295145316428,-0.036441451976,0.573730615823,0.819009554969,0.00610542694339,0.0,0.819007064493,-0.573638460006,-0.0121281661463,0.0,-0.00643090006336,0.0119589182765,-0.999907809649,0.0,0.261811781268,-0.264068995962,0.304912812096,1.0,-0.00845818181819,-0.0111164675325,3.168
-0.661726168883,-0.516647160068,-0.1250012949,-2.63855177309,-0.0670947644749,2.11127356052,-0.9095735844,-0.0344154290951,0.00445851893892,0.00107650024061,0.00112816010891,-7.7408658698e-05,0.00336057571879,-0.0386155777287,0.573733639248,0.819007416122,0.00610822677153,0.0,0.819004777918,-0.573641128022,-0.0121563518852,0.0,-0.00645233647904,0.0119774055198,-0.999907450273,0.0,0.261670372882,-0.264246959823,0.304900259288,1.0,-0.00811818181819,-0.0106696103896,3.185
-0.662265481792,-0.516550476759,-0.12498878249,-2.63848010144,-0.0670785670279,2.11128596083,-0.910111483174,-0.0310042483219,0.00944983800877,0.000206962873593,0.0055115587271,0.000196499869833,0.00489792219063,-0.037038044931,0.573736583555,0.819005308406,0.00611427795075,0.0,0.81900268506,-0.573643925609,-0.01216533508,0.0,-0.00645617990462,0.0119875386428,-0.999907304033,0.0,0.261548110539,-0.264402398323,0.304898518814,1.0,-0.00781818181819,-0.0102753246753,3.2
-0.662907089831,-0.51645742022,-0.124992295383,-2.63840100875,-0.0670591582507,2.11130096348,-0.910714467625,-0.0332167295162,0.00165540212115,-0.000110724862626,0.00723431512377,-0.00026803731847,0.000559987374629,-0.0376383969339,0.573783076817,0.818972618673,0.00613005077223,0.0,0.818970226363,-0.573690385086,-0.0121596583772,0.0,-0.00644180009981,0.0119975662556,-0.999907276509,0.0,0.261397603613,-0.26459002779,0.304901330815,1.0,-0.00745818181819,-0.00980218181819,3.218
-0.663489415789,-0.516387032545,-0.124991204328,-2.63832824669,-0.0670372794944,2.111319298,-0.911284817446,-0.0331508860382,0.0028416522767,-0.00101291152871,0.00763558636805,0.00361271930806,0.000283715528462,-0.0428540848128,0.573805125339,0.818957061363,0.00614464649788,0.0,0.818955009489,-0.573712643681,-0.0121343238269,0.0,-0.00641235225376,0.0119951571793,-0.999907494693,0.0,0.261263494303,-0.264760065832,0.304910021052,1.0,-0.00711818181819,-0.00935532467533,3.235
-0.664032069688,-0.516332006389,-0.124984812072,-2.63825956244,-0.0670156734985,2.11133799936,-0.911833841731,-0.0284601033047,0.00118422832128,-0.000837810480911,0.00169475019739,0.000177864129493,0.00265979206397,-0.0298309431746,0.573808003328,0.818954960289,0.00615591061327,0.0,0.818953278699,-0.573715890098,-0.0120975889996,0.0,-0.00637575953505,0.0119833272852,-0.999907870535,0.0,0.261140411618,-0.264917817808,0.30492268061,1.0,-0.00677818181819,-0.00890846753247,3.252
-0.664518511377,-0.516271741508,-0.124960712554,-2.63818525646,-0.0669933267047,2.11135131409,-0.912338240961,-0.0333140006941,0.00455990357713,0.00160775624182,0.00195691250708,0.0019165194807,0.000264427379092,-0.0327313341439,0.573789416835,0.818967962913,0.00615855106211,0.0,0.818966508385,-0.573697658626,-0.0120665459976,0.0,-0.00634909050987,0.0119675338633,-0.999908229381,0.0,0.261036447232,-0.265057542673,0.304935918166,1.0,-0.00645818181819,-0.0084878961039,3.268
-0.665011420933,-0.516187136569,-0.124904172524,-2.63809431384,-0.0669695349697,2.11137416501,-0.912810135603,-0.0288022016143,0.00256208499371,0.00377008049016,0.0048709338389,0.0019216568597,0.00179234889205,-0.0270845935039,0.573781191808,0.818973839194,0.00614341470375,0.0,0.818972403663,-0.573689908181,-0.0120348739657,0.0,-0.00633195382835,0.0119369012563,-0.999908704207,0.0,0.260942743555,-0.265197026969,0.304949309075,1.0,-0.00611818181819,-0.00804103896105,3.285
-0.665444366792,-0.516099884257,-0.124851481337,-2.63802538149,-0.0669423314913,2.11140305049,-0.913239458014,-0.0233526630156,0.00229283428433,0.00208198963504,0.00306001255029,0.00399301344208,0.00759163038935,-0.0281854499279,0.573761905654,0.818987410527,0.006135464081,0.0,0.818985963609,-0.573670833759,-0.0120213479803,0.0,-0.00632571764824,0.0119224800329,-0.999908915735,0.0,0.260860245055,-0.265316418863,0.304952147994,1.0,-0.00579818181819,-0.00762046753247,3.301
-0.665907883061,-0.515990109968,-0.124809687091,-2.63795741622,-0.0669173521114,2.11143068251,-0.913728127644,-0.0239975645566,0.0062012320385,0.00287002713615,0.00271287516309,0.000344963180795,0.00130518343724,-0.0211227895949,0.573725905081,0.819012646905,0.00613326583913,0.0,0.819011101749,-0.573634719057,-0.0120320906749,0.0,-0.00633630219837,0.011926564548,-0.999908800008,0.0,0.260766044371,-0.265445511764,0.304945868628,1.0,-0.00541818181819,-0.00712103896105,3.32
-0.666296380253,-0.515906397107,-0.124782129699,-2.63792729888,-0.0668928127809,2.11145433243,-0.914115744997,-0.0256761459819,0.00269197293035,0.00160786613584,0.00136417931053,0.000252628513724,0.00254219815009,-0.0226673104292,0.573719290276,0.819017217047,0.00614174617259,0.0,0.819015606008,-0.573627737404,-0.0120583123893,0.0,-0.00635301180982,0.0119485024351,-0.999908432073,0.0,0.260679905885,-0.265548166366,0.304931336182,1.0,-0.00509818181819,-0.00670046753247,3.336
-0.666649836361,-0.515832796449,-0.124762695105,-2.63790627991,-0.0668737549021,2.11145538685,-0.914493441104,-0.0160239702984,0.00412301942435,0.00572318092802,0.00186784873356,-8.03234075802e-05,0.000126150246428,-0.025634704814,0.573695084745,0.819034085428,0.00615333623275,0.0,0.819032305184,-0.573602884706,-0.0121062224948,0.0,-0.00638596040489,0.0119852922534,-0.999907781888,0.0,0.260595375288,-0.265638538575,0.304914279393,1.0,-0.00477818181819,-0.0062798961039,3.352
-0.667017331133,-0.515771324603,-0.124752967484,-2.63788993584,-0.0668532532198,2.11145836638,-0.914863266691,-0.0186447423067,0.00288495472704,0.000611189701566,0.000420039907307,0.000215224397044,6.35972610858e-05,-0.0206393878675,0.573696063129,0.819033269444,0.00617070470487,0.0,0.81903145398,-0.573603294452,-0.0121443355662,0.0,-0.0064072016747,0.0120213901992,-0.999907212667,0.0,0.260504566315,-0.265733759263,0.304899511639,1.0,-0.00443818181819,-0.00583303896105,3.369
-0.6673695049,-0.515730490879,-0.124730343996,-2.63786509021,-0.0668344397556,2.11146567413,-0.915208605216,-0.0108179303607,0.000141336894488,0.00329329303887,-0.000309396449816,-6.53123270094e-05,-1.74381967404e-05,-0.0170568199894,0.573694950412,0.819034002044,0.00617691408166,0.0,0.819032225694,-0.573602075445,-0.0121498650694,0.0,-0.00640818525239,0.0120296395345,-0.999907107153,0.0,0.260423560415,-0.265825538824,0.304896892721,1.0,-0.00409818181819,-0.00538618181819,3.386
-0.667680917709,-0.515686403984,-0.124709100992,-2.63782354507,-0.0668189908945,2.11147362343,-0.915510757826,-0.0152277566501,0.00718927217891,0.0050795903001,-0.000656309541759,0.000403559016893,0.000127971924612,-0.0199133736404,0.573696148256,0.8190331563,0.00617780368497,0.0,0.819031440165,-0.57360336032,-0.0121421559404,0.0,-0.00640134259671,0.0120259550806,-0.999907195302,0.0,0.260356541034,-0.26591170122,0.304900678003,1.0,-0.00377818181819,-0.00496561038962,3.402
-0.667996351628,-0.515648446209,-0.124685599142,-2.63776082278,-0.0667998220178,2.11147951058,-0.915799840359,-0.0156030793065,0.000912435540815,0.00172377169381,0.0031667277691,0.00256570849636,7.04836261687e-05,-0.0168240379387,0.573712268993,0.819021870308,0.00617699477395,0.0,0.819020356382,-0.573619881418,-0.012109268157,0.0,-0.0063746311757,0.0120065513347,-0.999907599132,0.0,0.260293855086,-0.266003366795,0.304916223622,1.0,-0.00341818181819,-0.00449246753247,3.42
-0.668282179929,-0.515607434369,-0.124660424957,-2.6377119598,-0.0667815972542,2.111486347,-0.916072249021,-0.0153041782639,-0.000414882480996,-0.00411719487817,-9.77251580014e-05,-8.5920775583e-05,-0.000182734540925,-0.0158079481009,0.573715584177,0.819019550419,0.00617668242089,0.0,0.81901814064,-0.573623401237,-0.012092384241,0.0,-0.00636093199359,0.011996635213,-0.999907805394,0.0,0.260236259778,-0.266083517081,0.304924465765,1.0,-0.00305818181819,-0.00401932467533,3.438
-0.668502921123,-0.515586873994,-0.124634804714,-2.63767983993,-0.066767946274,2.11149593513,-0.916274681623,-0.0141225105736,-0.00185185527259,0.00230243227238,0.00152184318632,-5.88162056942e-05,0.00439568829096,-0.0136048456945,0.573728361328,0.819010615439,0.0061746341517,0.0,0.819009352589,-0.573636512389,-0.0120656092566,0.0,-0.00633998852724,0.0119796959925,-0.999908141496,0.0,0.260188062544,-0.266149770608,0.304933964537,1.0,-0.00273818181819,-0.00359875324676,3.454
-0.668741084201,-0.515564605754,-0.124615597682,-2.6376547864,-0.0667537917917,2.11150380366,-0.916496724419,-0.0138481713538,7.5925052338e-05,0.000594088614835,0.00199719058679,-0.000441666217427,0.000349195671045,-0.015522796223,0.57372660965,0.819011847643,0.00617395351534,0.0,0.819010629839,-0.573634865949,-0.0120571837116,0.0,-0.00633350325143,0.0119742912322,-0.999908247334,0.0,0.260141312909,-0.266207149981,0.304937184529,1.0,-0.00239818181819,-0.0031518961039,3.471
-0.668929389132,-0.515547833077,-0.124601265617,-2.63763883503,-0.0667398861625,2.11151360561,-0.916674493153,-0.00949738101438,-0.0043068014793,-5.4582284715e-06,0.00144867943638,-0.000123586580082,0.00357512383901,-0.00887756907731,0.573731794547,0.819008186352,0.00617782448596,0.0,0.81900708432,-0.573640156597,-0.0120463053803,0.0,-0.00632229623997,0.011971260907,-0.999908354542,0.0,0.260100395241,-0.266256931725,0.304939419567,1.0,-0.00207818181819,-0.00273132467533,3.487
-0.669111871874,-0.515529485604,-0.124577025298,-2.63762767183,-0.0667255061969,2.11152398594,-0.916846266877,-0.00970126508888,-0.000153250007037,0.00128237414252,-0.00145300531033,-0.00012757568943,5.33245548754e-06,-0.00496837990952,0.57373006969,0.819009393687,0.00617795169875,0.0,0.819008323951,-0.573638489586,-0.0120414062682,0.0,-0.00631823561122,0.0119685411552,-0.999908412767,0.0,0.260062249835,-0.266301818193,0.30493918007,1.0,-0.00175818181819,-0.00231075324676,3.503
-0.669294129048,-0.515503786916,-0.124554152591,-2.63760078205,-0.0667172404677,2.11153425859,-0.916988004129,-0.0120905385435,-0.000699276895736,0.000669921509847,0.00198583565959,-0.000210268564184,0.00344780170214,-0.00645101391761,0.573751876583,0.818994169046,0.0061710685716,0.0,0.818993095934,-0.573660484886,-0.0120292890172,0.0,-0.00631194089826,0.0119561198946,-0.999908601123,0.0,0.260026655179,-0.266351502484,0.304943325302,1.0,-0.00141818181819,-0.0018638961039,3.52
-0.669455126018,-0.51547087263,-0.12452402041,-2.6375758925,-0.066707843922,2.1115441202,-0.917106045329,-0.00532439918735,0.00387192917111,0.00218934134928,0.00101471038478,-0.000172337505622,0.000180820621238,-0.00064787891565,0.573770944735,0.818980878027,0.00616208608997,0.0,0.818979714236,-0.573679637279,-0.0120269839185,0.0,-0.00631492811856,0.0119475874584,-0.999908684249,0.0,0.259997765883,-0.26639327218,0.304944033475,1.0,-0.00107818181819,-0.00141703896105,3.537
-0.669598959716,-0.515444838172,-0.124496784239,-2.63755907036,-0.0666988535214,2.1115492433,-0.917178094847,-0.0105990933714,9.90302398224e-05,0.00366331239257,0.000657279382422,-0.000312436965264,-8.69963835275e-06,-4.36046247405e-05,0.573815107314,0.818949988171,0.0061551924628,0.0,0.818948723504,-0.573723799023,-0.0120306943516,0.0,-0.00632127829765,0.0119444111477,-0.999908682072,0.0,0.259970358345,-0.266428576475,0.304943144116,1.0,-0.000738181818187,-0.000970181818189,3.554
-0.669687846609,-0.51542652715,-0.124497271064,-2.63755219457,-0.0666906056956,2.11154872238,-0.91723827926,-0.000971244117057,0.000249622162832,-0.00197339956003,0.000235218270063,0.000244692430629,0.00190267558183,-0.00602662792023,0.573842883772,0.818930465725,0.00616311224542,0.0,0.818929230893,-0.573751396994,-0.0120414341625,0.0,-0.00632512480431,0.0119572742902,-0.999908504008,0.0,0.259948383966,-0.266452368227,0.304939456221,1.0,-0.000398181818187,-0.000523324675332,3.571
