nelsonifechukwu/NELSON_IML_WORK/CNN-GradCAM/train2dof/data_sample_2022-02-21-14-36-42/robot_state.csv
position_joint1,position_joint2,position_joint3,position_joint4,position_joint5,position_joint6,position_joint7,velocity_joint1,velocity_joint2,velocity_joint3,velocity_joint4,velocity_joint5,velocity_joint6,velocity_joint7,ee_T_00,ee_T_10,ee_T_20,ee_T_30,ee_T_01,ee_T_11,ee_T_21,ee_T_31,ee_T_02,ee_T_12,ee_T_22,ee_T_32,ee_T_03,ee_T_13,ee_T_23,ee_T_33,v_x,v_y,time
0.465076560461,0.547872976323,-0.123988552752,-1.35585253608,0.0794653157381,1.89409604027,0.159173919839,-0.000362595716903,-0.000283013449171,0.000737515054474,-0.00251798072479,-9.44503464499e-05,-0.000297461153297,7.93417126123e-05,0.573807477865,0.818976432493,0.00182435418523,0.0,0.818931937135,-0.573749711174,-0.0119372597035,0.0,-0.00872977975421,0.00834387143542,-0.999927082719,0.0,0.661670454263,0.260882879101,0.303139603301,1.0,0.0,0.0,0.0
0.465081391219,0.547875760074,-0.123986426888,-1.35584497914,0.0794656724468,1.89409706131,0.159172792472,0.0017279814019,6.05028173487e-05,-0.00340062842983,0.000872811194317,5.8669563629e-05,-0.00014841827375,-0.0015061378529,0.573800807766,0.818981093889,0.00182968878475,0.0,0.818936662582,-0.573743014006,-0.0119349679474,0.0,-0.00872490992861,0.00834685417866,-0.999927100329,0.0,0.66167054918,0.26088829472,0.303141246672,1.0,-4e-05,-5.25714285714e-05,0.003
0.465073730199,0.547869755545,-0.123991714981,-1.35584518844,0.0794653156278,1.89409790107,0.159170991686,-0.00100840086882,-0.000508101929365,-0.00141386574876,0.000669458279686,-0.000261494381309,9.30733634195e-05,-0.00114176941868,0.573809214874,0.818975193931,0.00183399899453,0.0,0.818930850878,-0.573751432534,-0.01192904213,0.0,-0.00871749788027,0.00834707336292,-0.999927163146,0.0,0.661674062195,0.260880220165,0.303145648051,1.0,-0.00044,-0.000578285714286,0.023
0.465075462684,0.547865500686,-0.123992047425,-1.35585963604,0.0794649615902,1.8940955747,0.159177557519,0.000319833222574,-0.00378536131656,-0.00129464898199,-0.000456187926295,0.000255676739502,0.00675431257975,0.00148040357405,0.573814074907,0.818971811964,0.00182360854924,0.0,0.818927320797,-0.573756323872,-0.0119361204088,0.0,-0.00872920728592,0.00834267737615,-0.99992709768,0.0,0.661670040609,0.260879296769,0.303141594699,1.0,-0.00074,-0.000972571428571,0.038
0.465076907246,0.547811260985,-0.123987108195,-1.35590908314,0.0794631462432,1.89410298923,0.159172373762,0.000582686606413,-0.00352800191038,0.000431971508843,-0.00642076940479,0.000195897765323,-0.000224854588732,0.00277679406356,0.573807371341,0.818976479025,0.0018369268581,0.0,0.818932110312,-0.57374951571,-0.0119347736742,0.0,-0.00872053092366,0.00835274031405,-0.999927089377,0.0,0.661660212099,0.260878166822,0.303156961867,1.0,-0.00106,-0.00139314285714,0.054
0.465076929306,0.547688101083,-0.123983580888,-1.35606455552,0.0794600703856,1.89413451347,0.159171517107,0.000482059700449,-0.00655105940135,-0.00163992763277,-0.00760982063737,0.000319987811122,0.00263616437024,0.000751759192789,0.573817903373,0.818969090786,0.00184092551215,0.0,0.81892467104,-0.573759930668,-0.011944539417,0.0,-0.00872612729695,0.00836173087367,-0.999926965413,0.0,0.661633505899,0.260860034351,0.303173141566,1.0,-0.00142,-0.00186628571429,0.072
0.465059828224,0.54754966731,-0.123988520149,-1.35627576328,0.0794584739709,1.89418149504,0.159164380646,-0.00124819516293,-0.00440732740832,0.000672271584738,-0.0131385154984,6.68443496957e-05,0.00303052152391,-0.00250468371393,0.57383465398,0.818957387357,0.00182605746368,0.0,0.818912647064,-0.573776621426,-0.0119671251293,0.0,-0.00875298497009,0.00836269366674,-0.99992672262,0.0,0.661603750706,0.260830529108,0.303174609421,1.0,-0.00174,-0.00228685714286,0.088
0.465047532999,0.547384177608,-0.123991719495,-1.3564576721,0.0794524142739,1.89429871679,0.159159465656,-0.00181458371137,-0.0142580466976,9.03212035268e-05,-0.0134260397555,8.30178695544e-05,0.0138506594353,0.00110436254217,0.573851785903,0.818945184818,0.00191284597471,0.0,0.818901615673,-0.573793422613,-0.0119163298227,0.0,-0.00866140924921,0.00840480162785,-0.999927166997,0.0,0.661594086043,0.260808123621,0.30321552741,1.0,-0.00206,-0.00270742857143,0.104
0.465018177381,0.547181012467,-0.123986737454,-1.35671038731,0.0794506279504,1.89443696055,0.159143435734,-0.0016690915736,-0.0116677442687,0.000330018643631,-0.0151613902039,0.000446339667768,0.00912917776883,-0.00482580274074,0.573873135276,0.818930025899,0.00199604371824,0.0,0.81888745328,-0.573814340487,-0.0118822730493,0.0,-0.00858555696479,0.00845361520435,-0.999927409666,0.0,0.661575689535,0.260773372306,0.303250988931,1.0,-0.00242,-0.00318057142857,0.122
0.464988687735,0.54698055271,-0.123986738104,-1.35700801523,0.0794459607898,1.89456246191,0.159131377563,-0.00114306325003,-0.016664578826,-0.000189935504686,-0.0241923904788,0.000275248494974,0.0129940813001,0.000404989008135,0.573904682619,0.818907833242,0.00203047374857,0.0,0.818865604506,-0.573845640513,-0.0118764271852,0.0,-0.00856068556386,0.00847878553085,-0.999927409795,0.0,0.661542705067,0.260726703232,0.303264299435,1.0,-0.00276,-0.00362742857143,0.139
0.464956899631,0.546736393876,-0.12398924051,-1.35737087865,0.0794345495095,1.89468365475,0.159071628091,-0.00444620604694,-0.0169068223804,0.000698406688656,-0.0227435380714,6.09623306316e-05,0.0141403737231,-0.00803391370367,0.573898946367,0.818911842451,0.00203483519654,0.0,0.818869572684,-0.573839790318,-0.0118854903971,0.0,-0.00856566435256,0.00848749845445,-0.999927293239,0.0,0.661502559991,0.260672973396,0.303273001246,1.0,-0.00306,-0.00402171428571,0.154
0.464918186679,0.546444267953,-0.123989322358,-1.35782716275,0.0794204273491,1.894855463,0.158944389317,-0.00355372817879,-0.0172694488425,0.000384542999531,-0.027830539998,-0.00244219254677,0.0111665227546,-0.00284757828193,0.573848313267,0.818947288322,0.00204919768074,0.0,0.818905078444,-0.573788978834,-0.0118923155042,0.0,-0.00856353736402,0.00850264728273,-0.999927182757,0.0,0.661450720161,0.260606369998,0.303277601335,1.0,-0.00342,-0.00449485714286,0.172
0.464873117998,0.546140386099,-0.123989483556,-1.35832638628,0.0793971308853,1.8950291038,0.158932962825,-0.00609330274191,-0.0239103236067,-0.000370095629357,-0.0343416789118,-0.00297751953979,0.0123764810963,0.000747298784388,0.573897661356,0.818912746096,0.00203358598552,0.0,0.818870256612,-0.573838309073,-0.0119098605129,0.0,-0.00858635234881,0.00850044783318,-0.999927005806,0.0,0.661391843952,0.260529208596,0.303270214513,1.0,-0.00376,-0.00494171428571,0.189
0.464831271467,0.545834780238,-0.123992119664,-1.35885598241,0.0793241986457,1.89520250502,0.158862528764,0.000141673631354,-0.0231216929753,-0.000471466885772,-0.027404993136,-0.00815455777809,0.013952004386,-0.00446679617834,0.573886220536,0.818920926403,0.00196699760105,0.0,0.818877918287,-0.573827487336,-0.011904478996,0.0,-0.00862027564372,0.00844270990759,-0.999927203099,0.0,0.661328448689,0.260441104595,0.303249542497,1.0,-0.00408,-0.00536228571429,0.205
0.464765270842,0.545466368719,-0.123989140823,-1.35950492774,0.0792656422704,1.89542291625,0.158748556602,-0.0016955919386,-0.0219621576622,0.000930364499344,-0.0398421429926,-0.000423398310844,0.00798058700825,-0.00771640280437,0.573865475314,0.81893560964,0.00190536298525,0.0,0.81889192427,-0.573807123473,-0.0119225969654,0.0,-0.00867069529834,0.00840241490846,-0.999927106577,0.0,0.661252801685,0.260332458515,0.303220433547,1.0,-0.00442,-0.00580914285714,0.222
0.464707037662,0.545046441905,-0.1239921942,-1.3602055211,0.079249547099,1.89564971026,0.158699005572,-0.00376068435016,-0.0261236647717,-0.000590233558535,-0.0473848119362,-0.000315216750887,0.0109153658484,-0.00366312096192,0.573909366682,0.818904926063,0.00187291363347,0.0,0.818860544261,-0.573850882459,-0.0119716605311,0.0,-0.00872904670192,0.00840446500278,-0.999926581661,0.0,0.661164823103,0.260227317471,0.303204008092,1.0,-0.00476,-0.006256,0.239
0.464641263434,0.544646576691,-0.123995185505,-1.36087382608,0.0792315658742,1.8958906234,0.158592038422,-0.00510454285517,-0.0202700412471,-0.000705839725347,-0.0424030967339,-0.00275170587859,0.0106911825582,-0.00622564112835,0.573910228704,0.818904350255,0.00186049003699,0.0,0.818859596642,-0.573851595972,-0.0120022368181,0.0,-0.0087612074465,0.00841184855262,-0.999926238304,0.0,0.661088530392,0.26012145586,0.30318993457,1.0,-0.00508,-0.00667657142857,0.255
0.464575603598,0.544162005969,-0.123995556022,-1.36165888193,0.0791954116466,1.89617441725,0.158502367888,-0.00392738444617,-0.0316526802121,0.000118465550362,-0.0521407952935,-0.00577187699635,0.0154087681433,0.00117647668625,0.573924946384,0.818894055521,0.00185166189357,0.0,0.818849067535,-0.5738662357,-0.012020608165,0.0,-0.00878116739407,0.00841532053252,-0.999926034004,0.0,0.660996464212,0.260004416997,0.303183801299,1.0,-0.00542,-0.00712342857143,0.272
0.464494622925,0.543644098065,-0.123996427081,-1.36249604869,0.0791496799455,1.89646396585,0.158384565846,-0.0102302824798,-0.0352289161638,0.00108369299348,-0.043854492778,-9.8804934884e-06,0.0119327112283,-0.0101622985366,0.573932826197,0.818888579762,0.00183080579026,0.0,0.818843236595,-0.573874126078,-0.0120411046881,0.0,-0.00880984066063,0.00841009010333,-0.999925825795,0.0,0.660892936311,0.259863488292,0.303179193758,1.0,-0.00578,-0.00759657142857,0.29
0.464420782961,0.543096991731,-0.124002054031,-1.36335922546,0.0790912142406,1.8967710529,0.158290486442,-0.00291911561156,-0.0343498242966,-0.000335514039879,-0.0496018719804,-0.00523958089326,0.0190591177656,-0.0114780354419,0.573949468469,0.81887694817,0.00181612278947,0.0,0.818831482115,-0.573890896198,-0.012041181805,0.0,-0.00881815965048,0.00839829010523,-0.999925851643,0.0,0.660799530158,0.259734102135,0.303179867416,1.0,-0.0061,-0.00801714285714,0.306
0.464346060191,0.542501648974,-0.124004849978,-1.36428015567,0.0790405709327,1.89709413223,0.158167473705,-0.00176658372315,-0.0370922043062,-0.00542732888397,-0.0496714802154,-0.00201707288098,0.0220478389932,-0.00534329404932,0.573949439558,0.818876967362,0.00181660549202,0.0,0.818831441949,-0.573890802642,-0.0120483700028,0.0,-0.00882376939059,0.00840281068535,-0.999925764178,0.0,0.660690273694,0.259595339854,0.303190703788,1.0,-0.00644,-0.008464,0.323
0.464266408802,0.541903087985,-0.124010572058,-1.36522586001,0.078990561873,1.89746072268,0.158030098576,-0.00304539728036,-0.042032306061,-0.000996154618744,-0.0548248219936,-0.00104048100393,0.0194117029269,-0.0084809010853,0.573945492285,0.818879693917,0.00183457809433,0.0,0.818834378667,-0.573886753725,-0.0120416407817,0.0,-0.0088079846316,0.0084136230487,-0.999925812425,0.0,0.660585834636,0.259451786453,0.303195824112,1.0,-0.00678,-0.00891085714286,0.34
0.464178734379,0.541239301626,-0.124005915572,-1.36622873731,0.0789297249492,1.89783399568,0.15791214949,-0.00125695100328,-0.0441216275208,-0.0003256826088,-0.0625955303874,0.000110219933953,0.0271385631601,-0.0059535336184,0.573956805308,0.818871696677,0.00186465122487,0.0,0.818826748951,-0.573897910288,-0.0120287434984,0.0,-0.00878004719921,0.00843096781288,-0.999925912032,0.0,0.660471402721,0.259301735653,0.303219977005,1.0,-0.00712,-0.00935771428571,0.357
0.464088235741,0.540556122725,-0.124013798242,-1.36729646241,0.0788610941003,1.89821931301,0.157766426375,-0.00512660395756,-0.0380089451433,-0.000434120636473,-0.0644092938943,-0.0104939436801,0.0171559796667,-0.00375096604358,0.573957867806,0.818870959903,0.00186115890014,0.0,0.818826020016,-0.573899039099,-0.0120245069391,0.0,-0.0087785712499,0.00842568791962,-0.999925969495,0.0,0.660348754398,0.259134669226,0.303228324714,1.0,-0.00746,-0.00980457142857,0.374
0.463997498765,0.539802403288,-0.124009111981,-1.36843068245,0.0787938661737,1.89864871167,0.157628635519,-0.00789808944095,-0.0375432360221,0.000849747284098,-0.0699713289923,-0.000615935576358,0.0180452486772,-0.00456014045998,0.573960866728,0.818868758322,0.00190447091574,0.0,0.81882435288,-0.573901821108,-0.0120052388744,0.0,-0.00873790395538,0.00845012716593,-0.999926119464,0.0,0.660218298887,0.258970998889,0.30325817602,1.0,-0.0078,-0.0102514285714,0.391
0.463892649157,0.539104251023,-0.124017237594,-1.36952321827,0.0787431721814,1.89906306733,0.157497324775,-0.00282402474841,-0.0397758397041,-0.000950149771112,-0.0672856060753,-0.000224352121671,0.0269457105808,-0.00154492548656,0.573991821203,0.818847008288,0.00192694360824,0.0,0.818802800821,-0.573932583155,-0.0120045933477,0.0,-0.00872415759288,0.00846848826655,-0.999926084159,0.0,0.660098460155,0.258796454534,0.303267636758,1.0,-0.00812,-0.010672,0.407
0.463780378899,0.538271207227,-0.124022639144,-1.37080563599,0.0786641624661,1.89955587116,0.157346177677,-0.00141493003601,-0.0488256847803,0.000149330815503,-0.0773795381914,-0.00572890466603,0.0286838275662,-0.0111867704645,0.57401352671,0.818831712759,0.00196067217435,0.0,0.818788001803,-0.573954197471,-0.0119805763558,0.0,-0.00868490704429,0.00848255105322,-0.999926306643,0.0,0.659956510337,0.25859858407,0.303288557153,1.0,-0.00848,-0.0111451428571,0.425
0.463678355207,0.537515651829,-0.124023624537,-1.37199599962,0.0785900071037,1.90000317919,0.157197016094,-0.00589688271462,-0.0494442502337,-0.00022052633804,-0.0767572178425,-0.00060298566739,0.0271577656138,-0.0050747105467,0.574021428437,0.818826153776,0.00196888007355,0.0,0.818782571353,-0.573962084542,-0.0119738572543,0.0,-0.00867461198337,0.0084854987065,-0.999926370999,0.0,0.659820557032,0.25841765952,0.303294338888,1.0,-0.0088,-0.0115657142857,0.441
0.463561027504,0.536680581274,-0.124024402608,-1.37329425487,0.078514020711,1.90049167995,0.157031474995,-0.00652744594083,-0.055400285351,0.000991280251215,-0.0803538844123,-0.00610907885004,0.0318265409566,-0.00650757531332,0.574033642773,0.818817537818,0.00199088623817,0.0,0.818774221488,-0.573974184324,-0.0119648174984,0.0,-0.0086544517249,0.00849845772512,-0.999926435635,0.0,0.659673645718,0.258217508235,0.303308339707,1.0,-0.00914,-0.0120125714286,0.458
0.463447755657,0.53582093112,-0.124027598575,-1.37465853042,0.0784485832218,1.90098529027,0.15686674124,-0.00464135930011,-0.0515705154547,0.00152097590186,-0.0839678202242,-0.01101471188,0.0257007827489,-0.00685357720255,0.574051159328,0.818805260626,0.00198960965668,0.0,0.818761755844,-0.573991535427,-0.0119854631828,0.0,-0.0086719081645,0.0085094491644,-0.999926190918,0.0,0.659511686141,0.258013179624,0.303308659958,1.0,-0.00948,-0.0124594285714,0.475
0.463330242563,0.534916950631,-0.124031465429,-1.37608580797,0.0783591069741,1.9015069436,0.156690492029,-0.0057833233274,-0.0545925762609,0.00149954444853,-0.0866973904256,-0.00841310248185,0.0233907929659,-0.0128834997126,0.574060055336,0.818799035058,0.00198493250592,0.0,0.818755490841,-0.574000471244,-0.011985496652,0.0,-0.00867452791108,0.00850573302115,-0.999926199812,0.0,0.659344099558,0.257796809338,0.303312518544,1.0,-0.00982,-0.0129062857143,0.492
0.46321187111,0.534070860033,-0.12403458274,-1.37748392231,0.0782791336164,1.90201334035,0.156528250132,-0.0078484850143,-0.0545534422358,0.0012587825642,-0.0896636997488,-0.00288255480507,0.030330857197,-0.00832453665005,0.574081461188,0.818784119815,0.00194626857301,0.0,0.818740007164,-0.574021976308,-0.012013254601,0.0,-0.00871922903408,0.00849023816377,-0.999925942708,0.0,0.659177888686,0.257583523051,0.30328793148,1.0,-0.01014,-0.0133268571429,0.508
0.463087355316,0.533146697943,-0.124039689045,-1.37896504146,0.0782021902549,1.90257093936,0.156335511448,-0.00795193760824,-0.0548433833779,-0.000718294955794,-0.083655845483,-0.00129940784794,0.0313002010966,-0.021708378587,0.574089667319,0.818778354796,0.00195102444402,0.0,0.818734205578,-0.574030064971,-0.0120221473588,0.0,-0.00872369530539,0.00849932466428,-0.999925826559,0.0,0.65900615519,0.257360178289,0.303283237533,1.0,-0.01048,-0.0137737142857,0.525
0.462955137426,0.532204878578,-0.12403198278,-1.38051854784,0.0781141563597,1.90314989871,0.156135729118,-0.00716187724289,-0.0501421315254,0.000831149410564,-0.0907059282314,-0.00859770530638,0.0288199549216,-0.0158223182425,0.574090191665,0.818778045997,0.00192616948641,0.0,0.818733456695,-0.574030584037,-0.0120483351328,0.0,-0.0087594007479,0.00849401396349,-0.999925559542,0.0,0.658821546911,0.257130522353,0.303257784555,1.0,-0.01082,-0.0142205714286,0.542
0.462828444523,0.531258413809,-0.124040725207,-1.38203086943,0.078017522882,1.90369839576,0.155951746249,-0.0060557492487,-0.0600218443822,-0.000605189187128,-0.0943269852399,-0.00999564518196,0.0270514207241,-0.0098239393525,0.57410580233,0.818767148099,0.00190573511458,0.0,0.818722344688,-0.574046332526,-0.0120531043245,0.0,-0.00877487454378,0.00848018832007,-0.999925541219,0.0,0.658642988016,0.256896482725,0.303252865752,1.0,-0.01114,-0.0146411428571,0.558
0.462684577001,0.530213238948,-0.124040376768,-1.38368376958,0.0779184465302,1.90428149179,0.155728925915,-0.00980465664542,-0.0623799897615,0.000395927993872,-0.0957238442821,-0.00929561488735,0.0293931883818,-0.0168160046083,0.574103960947,0.818768485184,0.0018858940748,0.0,0.818723344625,-0.57404450278,-0.0120723110968,0.0,-0.00880201020891,0.00847495029204,-0.99992534713,0.0,0.658443149687,0.256643009803,0.303253081068,1.0,-0.01148,-0.015088,0.575
0.462549408923,0.529153679061,-0.12404133562,-1.38533440886,0.0778137749596,1.90489685583,0.155503044291,-0.00601373342932,-0.0663925156874,0.000474651428453,-0.0968276975077,-0.0125560090361,0.0304353069177,-0.0169940642,0.574091772556,0.818776991027,0.00190329952715,0.0,0.818732108909,-0.574032269801,-0.0120596007471,0.0,-0.00878173734064,0.00848177330538,-0.999925467528,0.0,0.658248568699,0.256396268665,0.303267080604,1.0,-0.01182,-0.0155348571429,0.592
0.462421338297,0.528124177225,-0.124046081644,-1.3869439129,0.0777123555948,1.90552190437,0.15527846179,-0.00902091715242,-0.0658949287052,-0.00116223589921,-0.102933213661,-0.00719118232952,0.042456762878,-0.0142251363856,0.574076149007,0.818787866836,0.00193679257808,0.0,0.818743500287,-0.574016578819,-0.0120330744019,0.0,-0.00874095256187,0.00849380088004,-0.999925722789,0.0,0.658063162487,0.256157678595,0.303280216545,1.0,-0.01214,-0.0159554285714,0.608
0.46226816488,0.526904988155,-0.124047718623,-1.38879847617,0.0776000849779,1.90623339401,0.155014104083,-0.00725208289264,-0.0734196763068,0.000702684668592,-0.102801145141,-0.00607110219345,0.0282575347092,-0.0200866381537,0.574056360712,0.818801586633,0.00200083867958,0.0,0.818758075896,-0.573996538995,-0.0119972195781,0.0,-0.00867503496984,0.00852544717839,-0.999926027523,0.0,0.657848411189,0.255881920105,0.303317336443,1.0,-0.0125,-0.0164285714286,0.626
0.462118529168,0.525734906327,-0.124047546413,-1.39064269027,0.077478014376,1.90689496218,0.154773590918,-0.00953869444734,-0.070747675533,0.000637145434645,-0.111148168161,-0.0107215606268,0.0360363782211,-0.0171295333102,0.574048167392,0.818807370221,0.00198466294767,0.0,0.818763681362,-0.57398844758,-0.0120017927168,0.0,-0.00868815000189,0.00851474099095,-0.99992600488,0.0,0.657623432157,0.255605225764,0.303320124244,1.0,-0.01284,-0.0168754285714,0.643
0.461968752023,0.524637323589,-0.124050393848,-1.39238932364,0.0773739057884,1.90752601651,0.154528845032,-0.0070726719092,-0.0637339465445,0.00037289746491,-0.109934171591,-0.00473556140132,0.0375762045325,-0.0163638768379,0.574038233822,0.818814370843,0.0019695463706,0.0,0.81877042862,-0.573978524722,-0.012016042471,0.0,-0.00870859860326,0.00851043797593,-0.99992586363,0.0,0.657412543319,0.255338164759,0.303315553826,1.0,-0.01316,-0.017296,0.659
0.461814089312,0.523431196624,-0.124061963282,-1.39429570384,0.0772534064148,1.90822664824,0.154274780853,-0.0072219497139,-0.0706107941856,-0.001126118059,-0.11407869538,-0.00697322747171,0.0503828069402,-0.0166155472727,0.574034797125,0.8188167938,0.00196386933136,0.0,0.818772839228,-0.573975173008,-0.0120118863562,0.0,-0.00870848969988,0.00850336733208,-0.999925924732,0.0,0.657184399504,0.255047385843,0.303317275608,1.0,-0.0135,-0.0177428571429,0.676
0.461641998296,0.522131758924,-0.124061922624,-1.39635867686,0.077121704676,1.90903474082,0.15399833269,-0.00841661614036,-0.0762500292376,-0.000490196492046,-0.113322925696,-0.00649015145553,0.0431993000572,-0.0239347620706,0.574024507009,0.818823931658,0.00199529424057,0.0,0.818780474441,-0.573964836336,-0.0119853337272,0.0,-0.00866881625411,0.00851374716506,-0.999926181142,0.0,0.65694504883,0.254740039828,0.303318654298,1.0,-0.01386,-0.018216,0.694
0.461482376335,0.520946520447,-0.124067387055,-1.39825264856,0.0770131912022,1.90975198672,0.153745279034,-0.00859674420665,-0.0769558740782,1.99951099256e-05,-0.116812251304,-0.00956128041544,0.0432413832792,-0.0162777758727,0.574023908213,0.818824332578,0.00200301733315,0.0,0.818780932356,-0.573964162045,-0.0119863422366,0.0,-0.00866521534901,0.00852064346419,-0.999926153612,0.0,0.656720512425,0.254453869309,0.303312212461,1.0,-0.01418,-0.0186365714286,0.71
0.461319904401,0.519712186856,-0.124072216712,-1.40018138543,0.0768875710697,1.91044935324,0.153480892906,-0.0148909950397,-0.0796019752143,-0.000999945565382,-0.120458548773,-0.0124638107645,0.0457942699325,-0.0188964196454,0.574012504287,0.818832333937,0.00200018075217,0.0,0.818788940003,-0.573952814058,-0.0119827319562,0.0,-0.00866400581228,0.00851612781813,-0.999926202562,0.0,0.656485968132,0.254158697382,0.303321572452,1.0,-0.0145,-0.0190571428571,0.726
0.461143561216,0.518289384452,-0.124077648215,-1.40240485228,0.0767412089739,1.91123520846,0.153182798688,-0.00833460268079,-0.073348792784,-0.00319789921053,-0.121465782041,-0.00238296923287,0.0392509959286,-0.0215368243086,0.57399487281,0.818844739321,0.00198135687701,0.0,0.818801135025,-0.573935298781,-0.0119883691991,0.0,-0.00867960950987,0.00850376343719,-0.999926172468,0.0,0.656208432157,0.253824289755,0.303330253467,1.0,-0.01486,-0.0195302857143,0.744
0.460978957489,0.517069171454,-0.124083666092,-1.404281026,0.076616738958,1.91191318841,0.152914169975,-0.0147500663228,-0.0828890952409,-0.000565414599537,-0.120513534881,-0.00507230277691,0.0441673005728,-0.0171331336758,0.573979473254,0.818855502957,0.00199410648902,0.0,0.818812133299,-0.573919914401,-0.0119736843557,0.0,-0.00866042663993,0.0085056113871,-0.999926323079,0.0,0.655981462505,0.253532055342,0.30335231438,1.0,-0.01516,-0.0199245714286,0.759
0.460786381082,0.515647998233,-0.12408123801,-1.40658255879,0.0764714846198,1.91279619177,0.152595643287,-0.0147473483183,-0.0791903469203,0.00105084137572,-0.128612176972,-0.0149166673381,0.0491635261956,-0.0125965860703,0.573957169838,0.818871143688,0.00199101188577,0.0,0.818827764182,-0.573897656728,-0.0119715959226,0.0,-0.00866072413494,0.00850164280804,-0.999926354252,0.0,0.655705453714,0.253189102529,0.303330100668,1.0,-0.01552,-0.0203977142857,0.777
0.460600104675,0.514246866966,-0.124087614032,-1.40882515232,0.0763477819928,1.9135884378,0.152292916705,-0.011376779004,-0.0839540020766,1.07441515851e-05,-0.138208242287,-0.00847043499876,0.0476450363631,-0.0169072788303,0.573950912583,0.818875615755,0.00195519002467,0.0,0.818831580493,-0.573891367786,-0.0120119802505,0.0,-0.00871441882613,0.00849542192798,-0.999925940613,0.0,0.655423106385,0.252849306618,0.303313855221,1.0,-0.01586,-0.0208445714286,0.794
0.460425773675,0.512993204375,-0.124090469984,-1.4108316896,0.0762152095012,1.91428776534,0.152016166615,-0.0112677578922,-0.0854349193133,0.000686490332639,-0.132794886793,-0.00815745552466,0.0396442534163,-0.0291486944209,0.573935194642,0.818886770782,0.00189628333146,0.0,0.818841925828,-0.573875866299,-0.0120473020776,0.0,-0.00877731404584,0.00846728997942,-0.999925629114,0.0,0.655153016881,0.252514871499,0.303294267411,1.0,-0.01618,-0.0212651428571,0.81
0.460220499726,0.511488206429,-0.124096155391,-1.4132566063,0.0760719937234,1.91520038495,0.151674270412,-0.0144854744283,-0.0822625918322,-0.000266179339544,-0.138938445057,-0.00981060458951,0.0520603758341,-0.0206247668169,0.57391885395,0.818898221347,0.00189711811213,0.0,0.818853380583,-0.57385951754,-0.0120474951076,0.0,-0.0087771620183,0.00846790919808,-0.999925625205,0.0,0.654875320104,0.252170836075,0.303277293678,1.0,-0.01652,-0.021712,0.827
0.460016734093,0.51001905738,-0.124099369228,-1.41558659642,0.0759342446355,1.91607389754,0.15133740333,-0.0133149647007,-0.0893560454273,-0.000557059958115,-0.138013840153,-0.0110533073206,0.052008468665,-0.024285627026,0.573896637971,0.818913764398,0.00190848278597,0.0,0.818869012799,-0.573837197734,-0.012048123301,0.0,-0.00877138446889,0.00847733808625,-0.999925596009,0.0,0.654592002664,0.251815361288,0.30327266302,1.0,-0.01686,-0.0221588571429,0.844
0.459822724093,0.508585842331,-0.124103243096,-1.41782475589,0.0757902929463,1.91686413672,0.151032833193,-0.00962110670387,-0.088546049353,0.000981355028963,-0.13647661099,-0.011309844146,0.051575614547,-0.0187992911383,0.57388598809,0.818921264722,0.00189255392835,0.0,0.818876289161,-0.573826603162,-0.0120581696066,0.0,-0.00878886292535,0.00846994518985,-0.999925505184,0.0,0.654310142374,0.251469826517,0.303278851842,1.0,-0.01718,-0.0225794285714,0.86
0.45959805398,0.506973512583,-0.124114191782,-1.42036674536,0.0756328627242,1.91779494593,0.150680545655,-0.0123952949368,-0.0884864309636,-0.0014529299282,-0.13861281098,-0.0102024565629,0.0531960866998,-0.0226087685418,0.573878431756,0.818926566577,0.00188971440403,0.0,0.818881557038,-0.573819063165,-0.0120592367981,0.0,-0.00879144450022,0.00846815121358,-0.999925497684,0.0,0.6539974559,0.251073795393,0.303277649634,1.0,-0.01754,-0.0230525714286,0.878
0.45937247385,0.505379707105,-0.124110707522,-1.42283249298,0.0754713989717,1.91873555594,0.150346313264,-0.0138860498481,-0.0922696606795,0.00145556473164,-0.146398970478,-0.0139061608447,0.056865174995,-0.0125934317176,0.573870685107,0.818931872984,0.00194192878466,0.0,0.818887621649,-0.57381116528,-0.012023169781,0.0,-0.00873202464768,0.00849012958457,-0.999925831972,0.0,0.65370061922,0.250694486526,0.303299529554,1.0,-0.01788,-0.0234994285714,0.895
0.459165694849,0.503802712926,-0.124119094497,-1.42517054935,0.0753244108994,1.91962488018,0.150013624805,-0.0149283124586,-0.10126820225,-0.000182458861031,-0.147404815902,-0.007131556402,0.0544098210203,-0.0159310687182,0.573854152195,0.818943200007,0.00204794339422,0.0,0.818900409164,-0.573794262174,-0.0119587402552,0.0,-0.00861859677851,0.00853979885155,-0.999926393104,0.0,0.653419935426,0.25033438794,0.303365686555,1.0,-0.0182,-0.02392,0.911
0.458932282931,0.502117285105,-0.12413019541,-1.4276733896,0.075167547619,1.92055806325,0.149679883487,-0.0126009483811,-0.10221456616,-0.00400593172536,-0.144645235499,-0.011110361673,0.0479023540793,-0.0212184048313,0.573865755841,0.818934824461,0.00214346890205,0.0,0.81889333946,-0.573805533499,-0.0119018996788,0.0,-0.00851710978806,0.00858553036039,-0.999926871081,0.0,0.653118038483,0.249938671834,0.303432413016,1.0,-0.01854,-0.0243668571429,0.928
0.458686960703,0.500404627786,-0.124131159034,-1.43026138099,0.0749957038242,1.92147281154,0.149301430278,-0.0153015396609,-0.104877969755,-0.00053723928827,-0.150830043297,-0.0185232050156,0.0548565991017,-0.0161122853705,0.573842615488,0.818950961641,0.00217301117149,0.0,0.818909875673,-0.57378229161,-0.0118846228529,0.0,-0.00848625137106,0.00859956893861,-0.999927012812,0.0,0.652793001023,0.249527919216,0.303475057041,1.0,-0.01888,-0.0248137142857,0.945
0.458440906281,0.498717305388,-0.124128930399,-1.43288448585,0.0748321517857,1.92243724366,0.148940305502,-0.0135721580024,-0.0988136190186,-0.000462723980098,-0.151530266586,-0.00873875083532,0.060992446356,-0.0284614921977,0.573836002896,0.818955531705,0.00219676379405,0.0,0.818914706582,-0.573775535763,-0.0118779124621,0.0,-0.00846719581285,0.00861510185526,-0.999927040646,0.0,0.65246659765,0.249118805539,0.303486970484,1.0,-0.01922,-0.0252605714286,0.962
0.45819421287,0.497144046532,-0.124129167594,-1.43538540423,0.0746756485714,1.9233484387,0.148559275632,-0.011452326609,-0.09617019661,-0.000174130315219,-0.155611890274,-0.0154659941175,0.0496900311756,-0.0250048052865,0.573810604476,0.818973368993,0.00218127768283,0.0,0.818932287717,-0.573750147073,-0.0118921725859,0.0,-0.00848802767685,0.00861033923872,-0.999926905051,0.0,0.652155247682,0.248718487332,0.303472426114,1.0,-0.01954,-0.0256811428571,0.978
0.457912938205,0.495377998379,-0.124131540743,-1.43826051911,0.0745021993047,1.92432560412,0.148153393958,-0.0140106021703,-0.0984575930521,-0.000208313799595,-0.161208013654,-0.0104281565465,0.0561995863687,-0.0208079991037,0.573808236882,0.818975310597,0.00207239478202,0.0,0.818932583404,-0.57374799743,-0.0119752321233,0.0,-0.0086185530254,0.00856880341959,-0.999926145349,0.0,0.651780277804,0.248254540686,0.303419389634,1.0,-0.0199,-0.0261542857143,0.996
0.457652870192,0.493860218876,-0.124136076744,-1.44071308901,0.0743505371462,1.92520991576,0.147808622316,-0.0166942115097,-0.102882486921,-0.00446362236682,-0.167260198785,-0.0188890591808,0.0658244515795,-0.0182445236178,0.573824490072,0.818964034651,0.00202766938983,0.0,0.81892065239,-0.573764365638,-0.012006861142,0.0,-0.00866994992657,0.00855049593527,-0.999925857745,0.0,0.651475479517,0.247847229794,0.303385902521,1.0,-0.0220428571429,-0.0289706122449,1.011
0.45738310734,0.491874428569,-0.124179105758,-1.4438556857,0.0741668927169,1.92638957201,0.14735999867,-0.0144665581019,-0.129303868512,-0.00054841387152,-0.195162092786,-0.0111089637006,0.0679323271544,-0.028760341685,0.573820413002,0.818966857267,0.00204137728588,0.0,0.818923755856,-0.573760331993,-0.0119879284063,0.0,-0.00864662121706,0.00855081501291,-0.999926057018,0.0,0.651061055416,0.247315697882,0.30337916105,1.0,-0.025756,-0.0338507428571,1.029
0.457009747787,0.489471759193,-0.124180332252,-1.44773740576,0.0739329974403,1.92775511502,0.146786460815,-0.0193958350375,-0.141688215989,0.00143214768211,-0.230845331751,-0.0109650552796,0.0764277292979,-0.0376563735939,0.573784368844,0.818992335716,0.00194910504049,0.0,0.818947721342,-0.573724384757,-0.0120709131803,0.0,-0.00876790509894,0.00852248051627,-0.999925242789,0.0,0.650581195046,0.246733256163,0.303317896446,1.0,-0.0292628571429,-0.038459755102,1.046
0.456559012657,0.486646499548,-0.124216045035,-1.452114033,0.0736623031696,1.92941829177,0.146160662864,-0.0267172041525,-0.163360927823,-0.0027270599216,-0.252862610599,-0.0100374665683,0.101616259353,-0.0345045886747,0.573810873781,0.818973558013,0.00203452901018,0.0,0.818930201833,-0.57375065942,-0.0120105054536,0.0,-0.0086691409315,0.00855806065101,-0.999925800044,0.0,0.650052260241,0.246006920774,0.303343177888,1.0,-0.032976,-0.0433398857143,1.064
0.456150768101,0.48405116978,-0.124250838908,-1.45608087235,0.0734119965598,1.93086470473,0.145549776327,-0.0288606056042,-0.179668127099,-0.000244435036683,-0.273964786289,-0.0161897087476,0.0906697372974,-0.0365715836859,0.573797542994,0.818982756419,0.00209075187628,0.0,0.818940220428,-0.573737180438,-0.0119712175738,0.0,-0.00860484434967,0.00858142125185,-0.999926155205,0.0,0.649559325928,0.245343367255,0.303383174604,1.0,-0.0360702857143,-0.0474066612245,1.079
0.455628559873,0.480818742377,-0.124308640149,-1.46111431263,0.0731069465568,1.93261543666,0.14479218317,-0.0281658684297,-0.19301287523,-0.00460094605667,-0.308101460489,-0.0175893336484,0.101732813821,-0.0507841470633,0.573809980484,0.818974157437,0.00204515220781,0.0,0.818930931491,-0.573749713011,-0.0120059638722,0.0,-0.00865933537321,0.00856414518413,-0.999925832914,0.0,0.648914664275,0.244486803496,0.303382827174,1.0,-0.0395771428571,-0.0520156734694,1.096
0.455087921416,0.47749864643,-0.124353959943,-1.46619989938,0.0727885593295,1.93446522432,0.144056515286,-0.0340888329724,-0.213900956401,-0.00790809502266,-0.325818022532,-0.0236528042893,0.122526850072,-0.047658676637,0.573843790889,0.818950305922,0.00210878849636,0.0,0.818907979422,-0.573783322007,-0.011965263333,0.0,-0.0085891337656,0.00859326124349,-0.999926188597,0.0,0.648277200099,0.243625574185,0.303423965359,1.0,-0.0428777142857,-0.0563535673469,1.112
0.454445930455,0.473737120731,-0.124385814404,-1.47200115061,0.0724437760188,1.93659200174,0.143221025482,-0.0393994603825,-0.226886078693,-0.000821865654015,-0.350258272092,-0.02795576747,0.12129535984,-0.052885597602,0.573895063466,0.818914170752,0.00218722933601,0.0,0.818872705005,-0.573834102804,-0.0119441349232,0.0,-0.00852627871965,0.0086459089332,-0.999926272697,0.0,0.647547846442,0.242642831957,0.30345086639,1.0,-0.0463845714286,-0.0609625795918,1.129
0.453722673705,0.469399520079,-0.124408275987,-1.47858342455,0.0720453861521,1.93895919557,0.142205904144,-0.0459667363618,-0.25249429226,-0.000911931637242,-0.371174264706,-0.0226371337578,0.139681656492,-0.0541366382215,0.573878570366,0.818925417556,0.00230083811344,0.0,0.818885183751,-0.573816899364,-0.0119150635559,0.0,-0.00843745105265,0.00872208980787,-0.999926364573,0.0,0.646701757369,0.241537009079,0.303520832609,1.0,-0.0500977142857,-0.0658427102041,1.147
0.453045246908,0.465291063501,-0.124421427572,-1.48480069238,0.0716420440021,1.94124096991,0.141215356871,-0.0462258118581,-0.255610398855,-7.47591668186e-05,-0.405091626612,-0.0204835517014,0.132991815792,-0.0598233075251,0.57381570638,0.818969057166,0.00244242022827,0.0,0.818930698662,-0.573753524009,-0.0118385546874,0.0,-0.00829422244695,0.00879349082638,-0.999926937527,0.0,0.645903245818,0.240500880639,0.303594351557,1.0,-0.0533982857143,-0.0701806040816,1.163
0.452249499264,0.460683591483,-0.124433889548,-1.49195719867,0.071162440627,1.94368908386,0.140142956556,-0.0482188926314,-0.274461983755,0.000760270195942,-0.427480273964,-0.02103219092,0.152237311261,-0.0664253951706,0.573800830078,0.81897975519,0.00234838074576,0.0,0.818939991627,-0.573738825415,-0.0119078640835,0.0,-0.0084051042255,0.00875609378575,-0.999926339809,0.0,0.644940619373,0.239285358602,0.303575138389,1.0,-0.0569051428571,-0.0747896163265,1.18
0.451407282149,0.45585099362,-0.124451653174,-1.49947304202,0.0706436344657,1.94632915231,0.138995952381,-0.0527624245794,-0.283575172286,0.000595150407529,-0.448313113543,-0.0316955746021,0.15727856744,-0.0695548270687,0.573768637282,0.819002471688,0.00229110061128,0.0,0.818962010317,-0.573706915232,-0.0119309669875,0.0,-0.00845723401617,0.00872210695991,-0.999926197298,0.0,0.643936904787,0.238005496345,0.303551457482,1.0,-0.060412,-0.0793986285714,1.197
0.450541547426,0.450983848295,-0.124487633282,-1.50676432516,0.0701498353955,1.94904725961,0.13781303042,-0.0554644360714,-0.313605047098,-0.00374353734775,-0.460022035217,-0.0261936352366,0.182315674553,-0.0783332078183,0.573733025629,0.819026746889,0.00251993728159,0.0,0.818989604235,-0.573670784053,-0.0117731295671,0.0,-0.00819705143262,0.0088186054701,-0.999927517646,0.0,0.643005016201,0.236736944144,0.303659452842,1.0,-0.0637125714286,-0.083736522449,1.213
0.449569887691,0.445597415803,-0.124542679239,-1.51496060342,0.0696033312112,1.95192235068,0.136602821593,-0.0612122917805,-0.316286061204,-0.00327746530255,-0.491962025574,-0.0348291943158,0.162351118669,-0.0796216124281,0.573797283068,0.818981604818,0.00256043269981,0.0,0.818945022273,-0.573734921038,-0.0117489479502,0.0,-0.00815331957099,0.00883853819635,-0.999927699198,0.0,0.64190996726,0.235294057179,0.303701119403,1.0,-0.0672194285714,-0.0883455346939,1.23
0.448475555305,0.439665560201,-0.124571896539,-1.52424138053,0.0689611040556,1.95500935952,0.135131190717,-0.0621387730559,-0.336039433948,-0.00299544252929,-0.520879510581,-0.0351926328223,0.177584033256,-0.079188380312,0.573743706861,0.819019847468,0.00232275524309,0.0,0.818979896308,-0.573681962916,-0.0119030151299,0.0,-0.00841644489148,0.00873173798458,-0.999926457399,0.0,0.640609770928,0.233669894078,0.303610757066,1.0,-0.0709325714286,-0.0932256653061,1.248
0.447500401173,0.434443446075,-0.124587921008,-1.53209947759,0.0684549220539,1.95782709905,0.133847372966,-0.0703820393458,-0.361714250734,-0.00145975191566,-0.515231128793,-0.0314576630002,0.198178898162,-0.0829762850973,0.573708243154,0.819044221654,0.00248225954889,0.0,0.819006147974,-0.573645673968,-0.0118455569588,0.0,-0.00827825690956,0.00882904948996,-0.999926756492,0.0,0.639550751337,0.232292391127,0.30368040745,1.0,-0.0740268571429,-0.0972924408163,1.263
0.446299656324,0.428379478276,-0.124611719807,-1.5413370877,0.067790915167,1.96113836477,0.132364227387,-0.0698183992721,-0.364047841516,-0.00426114174641,-0.558370972977,-0.0478260771124,0.181862407807,-0.0902338364503,0.573708547139,0.81904375408,0.00256490620517,0.0,0.819007072981,-0.573646010189,-0.0117650457749,0.0,-0.00816489624683,0.00885055404269,-0.999927498453,0.0,0.638306466359,0.230626664249,0.303703204865,1.0,-0.0775337142857,-0.101901453061,1.28
0.445025383542,0.42206029903,-0.124718869175,-1.55110654045,0.067074802501,1.96432905992,0.130739974456,-0.0741606522011,-0.378391585362,-0.00757760057995,-0.580455437384,-0.0501414099228,0.194386998127,-0.098582641085,0.573714480633,0.81904038061,0.00230142209931,0.0,0.819000444252,-0.573653127836,-0.0118788946895,0.0,-0.00840923834586,0.00870012712343,-0.99992679357,0.0,0.636927803661,0.228794649365,0.303629635315,1.0,-0.0810405714286,-0.106510465306,1.297
0.443767548028,0.415811063862,-0.124788922303,-1.56042730513,0.0664164995919,1.96765259828,0.12925863755,-0.0802289338256,-0.393465682636,-0.00282436653058,-0.588600349657,-0.0392664722564,0.21811855169,-0.0962084670796,0.573801752589,0.818978608984,0.00251667510432,0.0,0.818941853574,-0.573739976801,-0.0117229000836,0.0,-0.0081570443361,0.00878780038053,-0.999928116012,0.0,0.63558330363,0.226954354773,0.303739373969,1.0,-0.0845474285714,-0.111119477551,1.314
0.442254658774,0.408605286847,-0.12480887283,-1.57129552172,0.0656817289267,1.9714046089,0.127406174824,-0.0812560922951,-0.399877897065,-0.00275484602738,-0.618257806633,-0.0531565362472,0.199865213026,-0.0998724677877,0.573766649898,0.819003053806,0.00256441483473,0.0,0.818966514907,-0.573704268461,-0.0117476257804,0.0,-0.0081502825705,0.0088407359798,-0.999927704527,0.0,0.63413014136,0.225060437281,0.303750689229,1.0,-0.0880542857143,-0.115728489796,1.331
0.440731536872,0.401634845826,-0.124896111229,-1.58200398875,0.0649333985541,1.97495355597,0.125628590465,-0.0924821933488,-0.426347623744,-0.00376501645052,-0.625515441419,-0.0441332606238,0.217073042705,-0.115099713931,0.573843533751,0.818949718872,0.00238822781976,0.0,0.818910622861,-0.573781522806,-0.0118702465408,0.0,-0.00835097485442,0.00876757815592,-0.999926692709,0.0,0.632591288983,0.223013900489,0.303669251376,1.0,-0.0915611428571,-0.120337502041,1.348
0.439234381253,0.39472651584,-0.124951850031,-1.59211149892,0.0641727631918,1.97858691456,0.123899519213,-0.0932997710618,-0.430687850682,-0.0036624817081,-0.649932478184,-0.0583620297225,0.219390076181,-0.100101081123,0.573877999139,0.818924569103,0.00270908182836,0.0,0.818890332106,-0.573815559671,-0.0116221497422,0.0,-0.00796330398245,0.00888830808536,-0.999928789349,0.0,0.631195528311,0.221078789877,0.303824265486,1.0,-0.0948617142857,-0.124675395918,1.364
0.437566253322,0.387298977803,-0.124983349997,-1.60348257982,0.0633308417613,1.98222464909,0.121943223938,-0.0993851431332,-0.439579860843,-0.00314072905583,-0.672191261253,-0.0461328891669,0.209658044385,-0.125441995286,0.573863549015,0.818935563832,0.00243234546166,0.0,0.818897313907,-0.573801652911,-0.0118152145151,0.0,-0.00828037493728,0.00877233099364,-0.999927238153,0.0,0.629492151685,0.218907183348,0.303716176867,1.0,-0.0983685714286,-0.129284408163,1.381
0.43583923938,0.379514502985,-0.125040132842,-1.61491024552,0.0624793506073,1.9860767611,0.119891300447,-0.101536053955,-0.46710192064,-0.00645206523013,-0.671570197118,-0.0502040796229,0.237363551589,-0.118307555068,0.573837197337,0.818953586351,0.00257706369669,0.0,0.818917239861,-0.57377479141,-0.0117383944052,0.0,-0.00813470262936,0.0088464995587,-0.999927780422,0.0,0.627717177576,0.21656810018,0.303816167063,1.0,-0.102081714286,-0.134164538775,1.399
0.434093505507,0.372124888001,-0.125063756801,-1.62601642554,0.0616516613673,1.98977928563,0.117913798997,-0.115768944513,-0.473186273514,-0.00201135334087,-0.70737162566,-0.0566185174655,0.230192926374,-0.122679579728,0.573827212317,0.818960664413,0.00255097027065,0.0,0.81892393003,-0.573764849806,-0.0117575869868,0.0,-0.0081655013876,0.00883604408487,-0.999927621837,0.0,0.626168851258,0.21453412826,0.30379201525,1.0,-0.105176,-0.138231314286,1.414
0.432155377128,0.36402004317,-0.125171282459,-1.63800962264,0.0607169372203,1.99367995673,0.115821786708,-0.112724664921,-0.493374826748,-0.00392772235195,-0.710008815888,-0.0538250572644,0.241670637375,-0.129257210379,0.573942517981,0.818879976504,0.00251337140256,0.0,0.818843025274,-0.573880571807,-0.0117446227356,0.0,-0.0081752187704,0.00879896439584,-0.99992786941,0.0,0.624372470289,0.212111239131,0.303818752726,1.0,-0.108682857143,-0.142840326531,1.431
0.430037974333,0.35525470161,-0.12520411758,-1.65100839894,0.0597341262692,1.99794352963,0.113360159236,-0.118559571446,-0.49535472706,0.00065049226469,-0.727525624672,-0.0500857611446,0.234727934883,-0.141318125362,0.573855618184,0.818940849971,0.00252202869245,0.0,0.818903753051,-0.573793373253,-0.0117709366944,0.0,-0.00819273528614,0.00882028673277,-0.99992753819,0.0,0.622387171535,0.209541003805,0.303817633278,1.0,-0.112396,-0.147720457143,1.449
0.428005759757,0.347273083319,-0.12526522451,-1.662869705,0.0588476628969,2.00172046836,0.111147654324,-0.126030758281,-0.510221490741,-0.005568451357,-0.72059903653,-0.0532190775136,0.252606815164,-0.147780730718,0.573900725117,0.818909519078,0.0024298508562,0.0,0.818870733101,-0.573838300981,-0.0118774449554,0.0,-0.00833237167332,0.00880637757445,-0.999926506948,0.0,0.620551420435,0.207119304785,0.303779661988,1.0,-0.115696571429,-0.15205835102,1.465
0.425827000409,0.338543436553,-0.125298028018,-1.67551548094,0.0578341637495,2.00593681324,0.108773296979,-0.128645409296,-0.516831828276,0.00381602073095,-0.752912555475,-0.0555346644126,0.247440506941,-0.145204727604,0.573885403182,0.818919606572,0.00263986532407,0.0,0.818883913098,-0.573822586639,-0.0117270129982,0.0,-0.00808882225702,0.00889187602539,-0.999927750138,0.0,0.618608533174,0.204563391368,0.30387956647,1.0,-0.119203428571,-0.156667363265,1.482
0.42342249093,0.329120271588,-0.125298197989,-1.68934948437,0.0566918986628,2.01024172727,0.106086749498,-0.131433516433,-0.534582506323,0.000212728924252,-0.75281320739,-0.0666562276204,0.248134199035,-0.15179303348,0.573756331612,0.819010443672,0.00251236770365,0.0,0.818972920398,-0.573693812074,-0.0118115427892,0.0,-0.0082326055982,0.00883467867174,-0.999927083671,0.0,0.61638195562,0.201764273539,0.303857040605,1.0,-0.122916571429,-0.161547493878,1.5
0.421303239005,0.321127172121,-0.125305928006,-1.70097286988,0.0557610643696,2.01401601057,0.103802793832,-0.140427639945,-0.528038750104,7.48693109663e-05,-0.789886667976,-0.0546799678867,0.248974922451,-0.151348751336,0.573711313889,0.819041670445,0.00261099460897,0.0,0.819005374426,-0.573648374994,-0.0117679832432,0.0,-0.00814083257494,0.00889001490593,-0.999927344601,0.0,0.614537729121,0.199372227023,0.303882986679,1.0,-0.126010857143,-0.165614269388,1.515
0.418787066518,0.311869488758,-0.12534618833,-1.71442663684,0.0546932928814,2.01818004533,0.101093741858,-0.148504445423,-0.547185372312,-0.00418719158684,-0.782594810525,-0.0665780967308,0.249688679805,-0.170339216892,0.573669607946,0.819070993299,0.00257599632439,0.0,0.819033736859,-0.573606255152,-0.0118468914918,0.0,-0.00822599595269,0.00890620096515,-0.999926503587,0.0,0.612348164738,0.19654927018,0.30387900906,1.0,-0.129517714286,-0.170223281633,1.532
0.415993951581,0.30186162686,-0.125428626796,-1.72878294199,0.0534500688791,2.02272989577,0.0981333159655,-0.155240639688,-0.552264318012,-0.00389790728982,-0.821883922943,-0.0693129660694,0.250507107972,-0.163594271112,0.573633528381,0.819095953701,0.00267219915338,0.0,0.819060576821,-0.573570514556,-0.0117210592458,0.0,-0.00806813289446,0.00891245714388,-0.999927734058,0.0,0.610031804613,0.193456405276,0.303942158671,1.0,-0.133230857143,-0.175103412245,1.55
0.41335166934,0.292795557789,-0.125527812978,-1.74184102307,0.052429115799,2.02662929847,0.0955112839224,-0.164791008859,-0.574654014302,-0.010993871413,-0.815508190291,-0.0628992029956,0.257590579602,-0.170547473135,0.573784174467,0.818990646899,0.00260544139227,0.0,0.818953599405,-0.57372050647,-0.0118545087786,0.0,-0.00821409480489,0.00893583718204,-0.999926337017,0.0,0.607860577354,0.19058482379,0.303933249016,1.0,-0.136531428571,-0.179441306122,1.566
0.410477035137,0.283031717445,-0.125628729026,-1.75578510195,0.0512265610265,2.03097008237,0.0925373386531,-0.170844585886,-0.58262152018,-0.00637799197789,-0.823596733903,-0.0717601042334,0.242382989562,-0.172122342399,0.573786164663,0.818988994996,0.00268518486071,0.0,0.8189533372,-0.573722587613,-0.0117716121908,0.0,-0.00810042558941,0.00895360169812,-0.999927105404,0.0,0.605557337819,0.18750097726,0.30396683567,1.0,-0.140038285714,-0.184050318367,1.583
0.407267308914,0.272435768537,-0.125697580519,-1.77086439888,0.0499204662983,2.03549317483,0.0892905355192,-0.179291405694,-0.601733139683,-0.00609554926339,-0.831544078296,-0.0648928269374,0.263258044347,-0.184003876565,0.573792096707,0.818984856569,0.00267980758904,0.0,0.818949039837,-0.573728440123,-0.0117853317657,0.0,-0.00811468265064,0.0089571285287,-0.999926958219,0.0,0.603001966766,0.184139936295,0.303982211901,1.0,-0.143751428571,-0.18893044898,1.601
0.404470665738,0.263514134989,-0.125833717351,-1.78351906796,0.0488050569965,2.03931190285,0.086510083173,-0.185793236125,-0.600622131491,-0.00540423676553,-0.823551205263,-0.0740758590472,0.25170941879,-0.189425894661,0.573875319137,0.818926473564,0.00270108900217,0.0,0.818891203609,-0.573811873855,-0.0117421027287,0.0,-0.00806615713659,0.0089505733011,-0.999927409539,0.0,0.600862306603,0.181227733954,0.303993636138,1.0,-0.146845714286,-0.19299722449,1.616
0.400984451075,0.25257918871,-0.125982133428,-1.79886788228,0.0474174231682,2.04380849563,0.0831193104841,-0.190394394706,-0.622585439755,-0.002250860823,-0.840327207581,-0.0801796707879,0.256294204852,-0.194308207712,0.574004625524,0.818835823504,0.00270756807734,0.0,0.818800898908,-0.573941430784,-0.0117076418686,0.0,-0.00803280573092,0.00893737183424,-0.999927796102,0.0,0.598368629689,0.177849009305,0.304034748321,1.0,-0.150352571429,-0.197606236735,1.633
0.39778645672,0.242796124512,-0.125994097696,-1.812772136,0.0461731391048,2.04785420562,0.0799221150691,-0.198626320595,-0.620155917142,-0.00035542898006,-0.890480755004,-0.0708662182776,0.258583331648,-0.197908896991,0.573918157644,0.818896711619,0.00262124521891,0.0,0.818860286759,-0.573854868118,-0.0117969490608,0.0,-0.00815642550007,0.00891708856399,-0.999926976461,0.0,0.595753237356,0.17449905636,0.303968267012,1.0,-0.153859428571,-0.20221524898,1.65
0.394289753297,0.232101463172,-0.126011666659,-1.82740948853,0.0448998135747,2.05216272388,0.0765006783878,-0.208605135828,-0.636262803194,0.00121058034304,-0.869722186022,-0.0754624040909,0.253632307577,-0.194080936663,0.573899545058,0.818908720022,0.00292700429438,0.0,0.818875989182,-0.57383486074,-0.0116796336821,0.0,-0.00788508857964,0.00909996519601,-0.999927505378,0.0,0.593163438792,0.17112607642,0.304114972746,1.0,-0.157366285714,-0.206824261224,1.667
0.390671420058,0.221394601915,-0.126019897069,-1.8424532499,0.0434464424523,2.05631733193,0.072893931001,-0.215923959464,-0.640068890451,-0.00094027357383,-0.866924003329,-0.0827662369196,0.235835464849,-0.210928955709,0.573742029328,0.819019806692,0.00271789096762,0.0,0.81898420761,-0.57367793289,-0.0118001653235,0.0,-0.00810553110662,0.00899633378687,-0.999926680484,0.0,0.590402045561,0.167639451647,0.304035088142,1.0,-0.160873142857,-0.211433273469,1.684
0.386855459829,0.210390818081,-0.126120747151,-1.85741750935,0.0420874122007,2.06058811848,0.0692249593294,-0.225143319629,-0.638570260367,-0.00353594889999,-0.891634422574,-0.0788369890068,0.248094958221,-0.219123075518,0.573783358834,0.818990022467,0.002957553934,0.0,0.818957499664,-0.573718367618,-0.0116873993139,0.0,-0.00787521203373,0.00912832195774,-0.999927324746,0.0,0.587696835618,0.16404047979,0.304152213631,1.0,-0.16438,-0.216042285714,1.701
0.383137332994,0.200002476273,-0.126215615276,-1.87175746148,0.0406914881551,2.06441229302,0.0656080457656,-0.234108691068,-0.662964432009,-0.0053147932866,-0.874536548665,-0.077339749215,0.236260357308,-0.234019777149,0.573732437073,0.819026226222,0.00280683323936,0.0,0.818991549941,-0.573667757702,-0.0117852364983,0.0,-0.00804238288447,0.00906051960587,-0.999926610838,0.0,0.585015730286,0.16055607585,0.304114920516,1.0,-0.167680571429,-0.220380179592,1.717
0.378732025499,0.188092895141,-0.126348977619,-1.88797890824,0.0391660953902,2.06884790311,0.0614488012679,-0.255485777706,-0.657962573989,-0.00576893208925,-0.915659317337,-0.0792491743346,0.238254950748,-0.235264195911,0.573802311846,0.818976992578,0.00288781056599,0.0,0.818943116753,-0.573737046982,-0.0117779177017,0.0,-0.00798915352777,0.00912332464374,-0.999926466483,0.0,0.581993089719,0.156531686294,0.304141032951,1.0,-0.171393714286,-0.225260310204,1.735
0.374610595711,0.177336489623,-0.126512982846,-1.90244807802,0.0377936039954,2.07270924892,0.0576347252853,-0.264719365298,-0.675746050875,-0.00627573034469,-0.904574775455,-0.0866339887919,0.247286506878,-0.240587214118,0.573947215072,0.818875058458,0.00299663946342,0.0,0.818842381826,-0.573881299033,-0.0117539460259,0.0,-0.00790545009543,0.00920009711373,-0.99992642833,0.0,0.579272054527,0.152831829369,0.304202131268,1.0,-0.174694285714,-0.229598204082,1.751
0.370459166816,0.166549479543,-0.126560803884,-1.9171921098,0.0362563925585,2.07649631373,0.0537167487195,-0.265814455235,-0.698858039879,-0.00171635883398,-0.94468710512,-0.0987684579042,0.244928240296,-0.251230384139,0.573857803526,0.818938445872,0.00279107597166,0.0,0.818903046183,-0.57379258265,-0.0118583282868,0.0,-0.00810989838834,0.00909078986533,-0.99992579079,0.0,0.576398433864,0.149162757778,0.304113287582,1.0,-0.177994857143,-0.233936097959,1.767
0.365881705426,0.154808975979,-0.126597534642,-1.93267828403,0.0346753813029,2.0805874488,0.0493751589222,-0.272914347592,-0.693368719174,-0.00192069970243,-0.920875654392,-0.103087536174,0.240205990674,-0.250130141386,0.573736147822,0.819022830955,0.00303017470987,0.0,0.81899091633,-0.573670525757,-0.0116941757981,0.0,-0.00783962598597,0.00919123389635,-0.999927028079,0.0,0.573395526583,0.14524207024,0.304235397531,1.0,-0.181501714286,-0.238545110204,1.784
0.36080793685,0.142405989649,-0.126701286391,-1.94937823486,0.0329528834678,2.08465512046,0.0447085964962,-0.289067477831,-0.690838405057,-0.0115179594841,-0.908378854707,-0.0875640286437,0.231611980567,-0.273461016059,0.573748174838,0.819015187217,0.00281102830049,0.0,0.818979774804,-0.573682588498,-0.011881204347,0.0,-0.00811840511532,0.00911917020577,-0.999925463339,0.0,0.570052989631,0.140921571494,0.304143069999,1.0,-0.185214857143,-0.243425240816,1.802
0.356411796211,0.131814997244,-0.126824767196,-1.96321952492,0.0315416578927,2.08818397384,0.0406258276398,-0.300663311119,-0.695816115939,-0.0162230675219,-0.928152388388,-0.098430973267,0.230448568267,-0.270967872958,0.573756196655,0.819008773101,0.00303369151736,0.0,0.818976408122,-0.573689978838,-0.011755765416,0.0,-0.007887828453,0.00922964273534,-0.999926295212,0.0,0.567131874437,0.137011433035,0.304237806258,1.0,-0.188515428571,-0.247763134694,1.818
0.350872170362,0.118996659182,-0.127034041366,-1.97997524477,0.0296923280093,2.09221584146,0.0356708835193,-0.319330201417,-0.733664398837,-0.0102133467853,-0.928980568338,-0.103745937124,0.236803191182,-0.273866690802,0.573897859706,0.818909593618,0.00301181124784,0.0,0.818877430276,-0.573832266643,-0.0117060174543,0.0,-0.00785804681306,0.00918453944863,-0.999926944999,0.0,0.56392615312,0.132684931809,0.304263498357,1.0,-0.192022285714,-0.252372146939,1.835
0.34544659585,0.106760216883,-0.127158962824,-1.99595942022,0.0279701147815,2.09595071648,0.0307291202723,-0.316925539529,-0.730735346096,-0.00572258012032,-0.950101286677,-0.104765695803,0.219555649697,-0.284941642467,0.573903684601,0.818905657485,0.00297184133341,0.0,0.81887268751,-0.573837894741,-0.0117617647792,0.0,-0.00792657315649,0.00918385666142,-0.9999264104,0.0,0.560624960169,0.128334459238,0.304247591099,1.0,-0.195529142857,-0.256981159184,1.852
0.340281118337,0.0950768657141,-0.127231659944,-2.01090314414,0.0263183498255,2.09943205942,0.0259586542341,-0.328418245964,-0.745028043439,-0.00550869787635,-0.939390893278,-0.105103322833,0.217836829373,-0.300429678835,0.573785856965,0.818987697833,0.00311256271356,0.0,0.81895677775,-0.573719863114,-0.0116645508934,0.0,-0.00776753417758,0.00924218660166,-0.999927121044,0.0,0.557499861051,0.124281029469,0.304329673883,1.0,-0.198829714286,-0.261319053061,1.868
0.334529941103,0.0826530929241,-0.127346917556,-2.0270349485,0.0246214892842,2.10288565763,0.0207244237836,-0.344624569504,-0.740276325812,-0.00543605683822,-0.935112206318,-0.108226314544,0.198602793508,-0.319124588182,0.573773371112,0.818997053534,0.00294818697726,0.0,0.818962450005,-0.573706157513,-0.0119372197146,0.0,-0.00808531041858,0.00926389158594,-0.999924401176,0.0,0.554027094943,0.119835344628,0.304240753662,1.0,-0.202336571429,-0.265928065306,1.885
0.328532755026,0.0699919919661,-0.127500110475,-2.04299931656,0.0227950789796,2.10648905935,0.0153434623317,-0.363292476609,-0.735422389803,-0.0130645725614,-0.947254902416,-0.0992034512706,0.19464652606,-0.318787831229,0.573791932856,0.818983341232,0.0031387059572,0.0,0.8189517851,-0.573724688789,-0.0117771836796,0.0,-0.00784471517681,0.009328281432,-0.999925719046,0.0,0.55062631695,0.115290531686,0.304328337069,1.0,-0.205843428571,-0.270537077551,1.902
0.322581119978,0.0579259741933,-0.127725750748,-2.05814694001,0.0209803181018,2.10962329659,0.0100769488233,-0.377171373222,-0.763742779326,-0.0178163998842,-0.935254060308,-0.114701501845,0.20502272688,-0.339098563317,0.573897640094,0.818909361243,0.0031150704861,0.0,0.818877849876,-0.573830881481,-0.0117445026643,0.0,-0.00783031028977,0.00929118346907,-0.99992617735,0.0,0.547328353957,0.110822003398,0.304371615325,1.0,-0.209144,-0.274874971429,1.918
0.316200065411,0.0451445960915,-0.127800917583,-2.07431511883,0.0191738495188,2.11295438998,0.00439635401421,-0.369539330723,-0.756126956248,0.00144226788682,-0.966947319757,-0.106882146401,0.191404704299,-0.329977887833,0.573873712376,0.818926219171,0.00309139119493,0.0,0.818893333447,-0.573805782091,-0.0118903228002,0.0,-0.00796359227698,0.00935524344474,-0.999924527461,0.0,0.543508836869,0.105939416866,0.304311716827,1.0,-0.20998,-0.275973714286,1.936
0.309266916401,0.031570711631,-0.127877753121,-2.09104216954,0.0171490927369,2.1163130914,-0.00178024118185,-0.388513866001,-0.739645897002,-0.00854172788812,-0.925543320492,-0.11869694932,0.193995257909,-0.354952516773,0.57379224481,0.818982849185,0.00320927377858,0.0,0.818952020439,-0.5737245292,-0.0117685901263,0.0,-0.00779718450479,0.00938114760808,-0.999925596224,0.0,0.539963928778,0.101289957829,0.304386052988,1.0,-0.20998,-0.275973714286,1.953
0.302946770075,0.019691898112,-0.12799942164,-2.10577206158,0.0153817411389,2.11904381408,-0.00738816431606,-0.402343718452,-0.763331287432,-0.00738533864148,-0.897591662618,-0.10731089613,0.173848909215,-0.365512695307,0.573778807127,0.81899265194,0.00310861074312,0.0,0.818959881087,-0.5737106983,-0.0118951556278,0.0,-0.00795875504335,0.0093711961158,-0.999924416594,0.0,0.536574550567,0.0968706360824,0.304343292227,1.0,-0.20998,-0.275973714286,1.969
0.295982517412,0.00705964575284,-0.12820296497,-2.12107946502,0.0134685873462,2.12186324952,-0.0134216846836,-0.417699349947,-0.725547503318,-0.0136806797021,-0.898611819008,-0.10214423433,0.154762359797,-0.359745882375,0.573926729108,0.818888715182,0.00318255621439,0.0,0.818857218847,-0.573858704241,-0.0118232656577,0.0,-0.00785575248589,0.00939192814055,-0.99992503661,0.0,0.533047077332,0.0920779089279,0.30440604462,1.0,-0.20998,-0.275973714286,1.986
0.289418498908,-0.00475415267987,-0.128269714814,-2.13531147108,0.0117881448383,2.12439395918,-0.0192340160717,-0.415514072771,-0.736713080295,-0.000531173224143,-0.867080776592,-0.11100707677,0.16569300075,-0.373130655877,0.573891447653,0.818912932079,0.00331102486689,0.0,0.818882502684,-0.57382224463,-0.0118416750424,0.0,-0.00779751123482,0.00950735940829,-0.99992440161,0.0,0.529692728068,0.0877092462555,0.304449355065,1.0,-0.20998,-0.275973714286,2.002
0.282318759387,-0.0171674027662,-0.128320758553,-2.15029125383,0.00982106485923,2.1269732189,-0.0254414545417,-0.424551480014,-0.736798186041,-0.00581458737766,-0.899344723909,-0.116923403884,0.14554893188,-0.368938868956,0.573812251491,0.818968641813,0.00325740185739,0.0,0.818937859744,-0.573743667063,-0.0118208834313,0.0,-0.0078121695705,0.00945075939817,-0.999924823751,0.0,0.526109012608,0.0830541055223,0.304429718669,1.0,-0.20998,-0.275973714286,2.019
0.275053905653,-0.0296380258348,-0.128481064736,-2.16491280034,0.0079461648023,2.12932102055,-0.0318139443873,-0.435690677664,-0.748420923172,-0.013284394362,-0.872820848801,-0.112377929103,0.146923445169,-0.375292138334,0.573838213429,0.818949862529,0.00340211311119,0.0,0.818921139097,-0.573769347456,-0.011732466101,0.0,-0.00765642069055,0.00951878299691,-0.999925383212,0.0,0.522566286428,0.0783449371918,0.304535584085,1.0,-0.20998,-0.275973714286,2.036
0.266231024695,-0.0439913999654,-0.128666842905,-2.1821070513,0.00580962436105,2.13187805595,-0.0394563926187,-0.436531414878,-0.711034764411,-0.0039826872904,-0.853303105184,-0.0960922522502,0.12215271779,-0.390965062689,0.573975505563,0.818854281617,0.00324521078962,0.0,0.818821826237,-0.573905119923,-0.0120198629434,0.0,-0.00798022679233,0.00955654032802,-0.999922491255,0.0,0.518297668895,0.0727504303197,0.304418733707,1.0,-0.20998,-0.275973714286,2.056
0.26006934624,-0.0541210739377,-0.128708493677,-2.1936305914,0.00424137827543,2.13370993773,-0.0448372564788,-0.444848633342,-0.71856327074,-0.00104531059004,-0.838070716415,-0.10772769104,0.136088311565,-0.384140184981,0.573921578136,0.818890956918,0.00351706239068,0.0,0.818863373888,-0.573851875707,-0.0117280242545,0.0,-0.00758584620571,0.0096111448083,-0.999925037607,0.0,0.515235590669,0.0686761794457,0.304565347604,1.0,-0.20998,-0.275973714286,2.071
0.252413771883,-0.0661109237235,-0.128800290407,-2.20785118513,0.00235545214904,2.1355699331,-0.0515905746351,-0.450452264351,-0.701154552258,-0.00234712164047,-0.834018535452,-0.107116740128,0.105836893523,-0.394499314016,0.573821015657,0.81896246326,0.00326690399538,0.0,0.818930314652,-0.573750598379,-0.0120057279709,0.0,-0.00795800564634,0.00956468988476,-0.999922590431,0.0,0.511786593635,0.0642869025894,0.30443417168,1.0,-0.20998,-0.275973714286,2.087
0.243582314237,-0.0796273799951,-0.129017394683,-2.22315641046,0.000299110165908,2.13763759876,-0.0592775225558,-0.468788329819,-0.711227227168,-0.013848193298,-0.819536201556,-0.109312407641,0.106638200111,-0.409122856133,0.57392352908,0.818889704504,0.00349020460667,0.0,0.818860846158,-0.573852750814,-0.0118609406622,0.0,-0.0077100871226,0.0096654509104,-0.999923563886,0.0,0.507861833539,0.0589794850889,0.304544716608,1.0,-0.20998,-0.275973714286,2.106
0.236589215621,-0.0901046919403,-0.129066242799,-2.23529795336,-0.00128287431945,2.13901945621,-0.0653889139966,-0.46189187254,-0.695743222842,0.000417234229774,-0.823706386094,-0.10099088557,0.0874744484345,-0.411775616774,0.573886561905,0.818916235942,0.00334058025252,0.0,0.818883868962,-0.573814428025,-0.0121226335755,0.0,-0.00801070254134,0.00969275040112,-0.999920936492,0.0,0.504631951664,0.0548988869112,0.30444628632,1.0,-0.20998,-0.275973714286,2.121
0.228488441148,-0.102020701498,-0.129156833267,-2.24853733612,-0.00321799533403,2.14063845811,-0.0724925534627,-0.480065722031,-0.684626449697,-0.0135752804092,-0.779211308262,-0.114094312234,0.0828770381075,-0.429587056894,0.573793539553,0.818980753931,0.00349936560297,0.0,0.818951796353,-0.573722473764,-0.0118838230088,0.0,-0.00772510636921,0.00968485907782,-0.999923260174,0.0,0.501130719622,0.0502342555745,0.304554290389,1.0,-0.20998,-0.275973714286,2.138
0.220688978266,-0.113059067096,-0.129323443222,-2.26108791955,-0.0049704996005,2.14187420244,-0.0792446272618,-0.502669340677,-0.686535978678,-0.0175558731858,-0.758228554709,-0.112033289939,0.0721967243474,-0.423393176247,0.57389475552,0.818910528114,0.00333218127444,0.0,0.818878224942,-0.573822863266,-0.0121045946071,0.0,-0.0080006521998,0.00967560033518,-0.999921183055,0.0,0.497496115141,0.0454951665444,0.304467758151,1.0,-0.20998,-0.275973714286,2.155
0.212727742697,-0.124163784846,-0.129470682152,-2.27315155847,-0.00665015818924,2.14316168492,-0.0861682440184,-0.490507067395,-0.684671161344,-0.00364941640879,-0.761803501351,-0.105317951023,0.0750029815734,-0.440463851691,0.573950128882,0.818870596854,0.00359750833917,0.0,0.818842341193,-0.573877963401,-0.0119184853651,0.0,-0.00769531462413,0.00978659678458,-0.999922499325,0.0,0.494418579246,0.0413436128265,0.304587167552,1.0,-0.20998,-0.275973714286,2.17
0.203720995397,-0.136429371022,-0.129576563841,-2.28677924276,-0.00863178671329,2.14429117794,-0.0940849649484,-0.500190517931,-0.672659927998,-0.00838211132854,-0.766739723288,-0.106066840178,0.0528431862419,-0.438868175399,0.573863257319,0.818932159584,0.00343901136317,0.0,0.818901006714,-0.57379065597,-0.0120901292677,0.0,-0.00792787572103,0.00975447863428,-0.999920996346,0.0,0.490577363835,0.0364131052219,0.304518597706,1.0,-0.20998,-0.275973714286,2.188
0.194998933147,-0.148036670859,-0.129748655816,-2.29916940558,-0.010413455364,2.1454578946,-0.101720185576,-0.519555075688,-0.665846986224,-0.0156193065152,-0.737931562824,-0.100282190149,0.0615121974283,-0.445982289687,0.573915039076,0.818894534836,0.00374374667453,0.0,0.818868289132,-0.573842502787,-0.0118428860862,0.0,-0.00754989909013,0.00986263575155,-0.999922860745,0.0,0.487098203369,0.0317133245723,0.30464668326,1.0,-0.20998,-0.275973714286,2.205
0.186648159394,-0.158800360219,-0.129883252395,-2.31090099603,-0.0121951736978,2.14617537484,-0.109031575709,-0.518679185172,-0.662310760493,-0.00505662447441,-0.727646123122,-0.10803646767,0.043230052394,-0.453091043968,0.573890504055,0.818912531378,0.00356401585584,0.0,0.818883214899,-0.573817679621,-0.0120124024416,0.0,-0.00779216160607,0.00981250537523,-0.999921495396,0.0,0.483672899379,0.0272808573273,0.304586009695,1.0,-0.20998,-0.275973714286,2.221
0.177692143293,-0.170229422032,-0.129953413718,-2.32289692275,-0.0138805393939,2.14699814075,-0.116929341595,-0.530100351922,-0.658680217901,-0.00690489536837,-0.705228254102,-0.0983093189762,0.0430745306122,-0.47249913159,0.573852290055,0.818938121619,0.00382740900249,0.0,0.81891239483,-0.573778724775,-0.0118832441168,0.0,-0.00753570084466,0.00995373116207,-0.999922065187,0.0,0.480162568893,0.0226702205591,0.304695873411,1.0,-0.20998,-0.275973714286,2.238
0.169617090942,-0.180139424637,-0.130102025216,-2.33352860522,-0.0155201412226,2.14753504326,-0.124012925759,-0.54934871732,-0.658049220506,-0.014082842415,-0.711530713163,-0.109732415731,0.0273314795617,-0.47134612881,0.573853178378,0.81893806522,0.00370430830632,0.0,0.818910170012,-0.573779319064,-0.0120072214098,0.0,-0.00770786357268,0.00992406898349,-0.99992104773,0.0,0.476970205492,0.018517417961,0.304636768211,1.0,-0.20998,-0.275973714286,2.253
0.159698536355,-0.19205540148,-0.130286931879,-2.34588885528,-0.0173983201657,2.14815560393,-0.132725369155,-0.548043671542,-0.670124614413,-0.00827658610481,-0.671302975539,-0.102592360917,0.0404874779508,-0.485671251556,0.573903371358,0.818902146121,0.00386553022493,0.0,0.818876764801,-0.573829465558,-0.0118884578051,0.0,-0.00751747320226,0.0099884112073,-0.999921856566,0.0,0.47322840882,0.0135133863497,0.304713388055,1.0,-0.20998,-0.275973714286,2.271
0.149723679118,-0.203743261708,-0.130442599169,-2.35812756573,-0.0192598875113,2.14860043276,-0.141612872041,-0.561232407547,-0.646782784091,-0.011613011552,-0.687822844285,-0.112500684166,0.0164584458873,-0.501696599465,0.573825828047,0.818956578407,0.00384560165201,0.0,0.818930308041,-0.573751172003,-0.0119787352854,0.0,-0.00760379200459,0.0100231804168,-0.999920855969,0.0,0.469431542529,0.00858126651315,0.30467835824,1.0,-0.20998,-0.275973714286,2.289
0.140033397723,-0.214745764412,-0.130654283097,-2.36940242702,-0.0209636108142,2.14885802725,-0.150108722755,-0.574432691831,-0.647666252018,-0.019803701752,-0.648527353816,-0.0994401889655,0.0217858578451,-0.508220006219,0.573955889887,0.818865064403,0.00392296643629,0.0,0.818839215936,-0.573880152708,-0.012027288748,0.0,-0.00759756027425,0.0101156067339,-0.999919972587,0.0,0.465863237981,0.00385129857233,0.304701877351,1.0,-0.20998,-0.275973714286,2.306
0.131475696243,-0.22435602844,-0.130716473429,-2.37914692857,-0.0225269894532,2.14910476019,-0.157725736509,-0.563365955048,-0.629209459683,-0.00141243883964,-0.65431735782,-0.109245362235,0.0115964377324,-0.522530460371,0.573844009799,0.81894310958,0.00399782330476,0.0,0.818918887371,-0.573768893804,-0.0119104706379,0.0,-0.00746031483978,0.0101088398686,-0.999921074415,0.0,0.462748179875,-0.000215769469986,0.304740833677,1.0,-0.20998,-0.275973714286,2.321
0.120948618581,-0.235712783016,-0.13086188281,-2.39081939037,-0.0243856404265,2.14915310435,-0.16707024701,-0.595763530047,-0.622729663485,-0.00409143953701,-0.65019928603,-0.104654907124,0.000707949485432,-0.522487600173,0.573804610515,0.818971362996,0.00386295810345,0.0,0.818944329563,-0.573728590967,-0.0121010695486,0.0,-0.00769428805112,0.0101073917319,-0.999919316027,0.0,0.458911202086,-0.00516710824355,0.304655713014,1.0,-0.20998,-0.275973714286,2.339
0.110737448131,-0.246484896315,-0.131083921828,-2.40131192453,-0.0260632133615,2.14922902939,-0.176093126504,-0.595146790287,-0.62720156115,-0.0147838456851,-0.622281721997,-0.0892980806228,0.00469982441187,-0.537673373387,0.573926457873,0.818884539443,0.00415679153991,0.0,0.818862505479,-0.573850945226,-0.0118337097266,0.0,-0.00730520383287,0.0101957161411,-0.999921337591,0.0,0.455431286169,-0.00992193136808,0.304799738546,1.0,-0.20998,-0.275973714286,2.356
0.100590996209,-0.257018982875,-0.131208216273,-2.41193696825,-0.0277039332847,2.14916655886,-0.18526627376,-0.598292741615,-0.618637478572,-0.0127368262072,-0.625798976653,-0.102371534889,-0.0100601486442,-0.539689019031,0.573796364596,0.818975741563,0.00414892855756,0.0,0.818952637818,-0.573719555598,-0.0119664295707,0.0,-0.00742003694202,0.0102642673902,-0.999919790717,0.0,0.4518221561,-0.014520008351,0.304729479668,1.0,-0.20998,-0.275973714286,2.373
0.0900308912014,-0.267474017214,-0.131424585841,-2.42213152589,-0.0294424585936,2.14902715363,-0.194556423483,-0.626529251854,-0.614841156827,-0.0159223439402,-0.584939805175,-0.0998708161096,-0.00184200066292,-0.547174957462,0.573935775413,0.818877599115,0.00423677582334,0.0,0.818856405467,-0.573859710173,-0.0118307720474,0.0,-0.00725677897929,0.0102596118796,-0.999921036644,0.0,0.448291432446,-0.0192886885009,0.304774677071,1.0,-0.20998,-0.275973714286,2.39
0.0800818262409,-0.277200650034,-0.131541918768,-2.4315356602,-0.0309878540633,2.14880821682,-0.203504735209,-0.614965037154,-0.610919084038,-0.0081318782128,-0.595406463343,-0.0908068193925,-0.0191874489603,-0.567677585452,0.573847870633,0.818938642221,0.00434379419226,0.0,0.818919240176,-0.573772039395,-0.0117333618034,0.0,-0.00711669274999,0.0102905794512,-0.999921725266,0.0,0.44475906494,-0.0239239765692,0.304810593235,1.0,-0.20998,-0.275973714286,2.407
0.0700655519682,-0.28678071879,-0.131683370079,-2.44093006094,-0.0325402189463,2.14841672078,-0.212614095643,-0.640429402505,-0.59585612763,-0.012864795791,-0.585695491147,-0.099282710172,-0.0254035385909,-0.56774393228,0.573741965042,0.819013177675,0.00428009884284,0.0,0.818992093482,-0.573665139349,-0.0118745783251,0.0,-0.00727023260299,0.0103185096772,-0.999920332865,0.0,0.441359378166,-0.0282892918627,0.304748570805,1.0,-0.20998,-0.275973714286,2.423
0.0583147389883,-0.297507673676,-0.131908411096,-2.45099275594,-0.034225774466,2.14801159008,-0.223032081591,-0.651291273732,-0.592018064081,-0.0070348541768,-0.554152989484,-0.104769293337,-0.0257175080486,-0.578183048802,0.573933619564,0.818877646805,0.00451074252127,0.0,0.818860568913,-0.573857480039,-0.0116493855446,0.0,-0.00695103191401,0.0103798430426,-0.999921967962,0.0,0.437862663646,-0.0330745434933,0.304850167554,1.0,-0.20998,-0.275973714286,2.44
0.0473753833359,-0.307463570695,-0.132026688931,-2.46044781262,-0.0358378696638,2.14742375984,-0.233018469171,-0.655232229573,-0.586134385463,-0.00951269381315,-0.566409963072,-0.0989116849556,-0.042374258122,-0.603013492201,0.573770588536,0.818991933751,0.00450234190757,0.0,0.818974546894,-0.573694203095,-0.0116790315205,0.0,-0.00698219958558,0.0103885882253,-0.999921659993,0.0,0.434288179716,-0.0376657726431,0.304841065252,1.0,-0.20998,-0.275973714286,2.457
0.0366839164491,-0.316688651983,-0.132263439107,-2.46921751509,-0.0373487538395,2.1467446271,-0.242584818807,-0.677256571614,-0.575012373341,-0.024089472427,-0.541506059473,-0.0976188734206,-0.0387546725903,-0.592574277609,0.573899625136,0.818901838392,0.00444367500457,0.0,0.818882694951,-0.573821945,-0.011842898585,0.0,-0.00714843081849,0.0104356845409,-0.999919995012,0.0,0.430875569023,-0.042139470467,0.304786499503,1.0,-0.20998,-0.275973714286,2.473
0.0246259514327,-0.326990323501,-0.132381038645,-2.47853191295,-0.0389684128874,2.14612081489,-0.253588467443,-0.657300035313,-0.56159141753,-0.0102782417611,-0.514488336586,-0.0893769685938,-0.0375502725587,-0.610615301197,0.573799196243,0.818970784053,0.00469937877783,0.0,0.818956724906,-0.573723395964,-0.0114932395825,0.0,-0.0067166131965,0.0104436005593,-0.999922906186,0.0,0.427211102099,-0.0470608132277,0.30492404662,1.0,-0.20998,-0.275973714286,2.491
0.0137636035348,-0.335925822537,-0.132584293259,-2.4869221274,-0.0403596801247,2.14530935902,-0.263526260533,-0.692183077423,-0.556987942231,-0.020782498693,-0.520153784494,-0.0908466185243,-0.0539666720285,-0.623283351207,0.573807267358,0.818965287465,0.00467169721266,0.0,0.818949336121,-0.573729189188,-0.0117281388468,0.0,-0.00692478287167,0.0105557778652,-0.999920308293,0.0,0.423587949013,-0.051729754082,0.304849321548,1.0,-0.20998,-0.275973714286,2.508
0.00255151890641,-0.344761987418,-0.132768479057,-2.49503685302,-0.041863880776,2.14442905087,-0.273566372208,-0.689510760631,-0.546984202707,-0.00448977573208,-0.500392634307,-0.0959249650267,-0.0546745136045,-0.641803227811,0.573911942005,0.818892344162,0.00459982586312,0.0,0.818875265739,-0.573833788452,-0.0117825843135,0.0,-0.00700926753765,0.0105290521881,-0.999920001414,0.0,0.420403716342,-0.0559259003978,0.304827822813,1.0,-0.20998,-0.275973714286,2.523
-0.00994750911659,-0.35459983747,-0.132957175394,-2.50369439158,-0.043380487666,2.14351447663,-0.285145157575,-0.69695769743,-0.539384271637,-0.0103000497753,-0.482124974115,-0.0862230361267,-0.0506385734563,-0.655250020197,0.573799004867,0.81897008913,0.00484169645788,0.0,0.818957303655,-0.573721903206,-0.0115264683224,0.0,-0.00666217375031,0.0105792224121,-0.999921844693,0.0,0.416718621308,-0.0608361922406,0.304950287704,1.0,-0.20998,-0.275973714286,2.541
-0.0221852235069,-0.363605436939,-0.133193582868,-2.51190366887,-0.0449318338962,2.14246408858,-0.296238360179,-0.717385596154,-0.532500880905,-0.00753106199387,-0.48661764917,-0.0916572909859,-0.0693414247528,-0.661026392602,0.573900937653,0.818899291593,0.00473401419269,0.0,0.818884385512,-0.573823008738,-0.0116732476138,0.0,-0.00684285968034,0.0105761016769,-0.999920657525,0.0,0.413097253218,-0.0656020316291,0.304887111071,1.0,-0.20998,-0.275973714286,2.558
-0.0335551715521,-0.371973735537,-0.133310497678,-2.51944176284,-0.0462203610032,2.14143511556,-0.306854377497,-0.718456448835,-0.511622741898,-0.00981294790112,-0.46806370221,-0.0802544005178,-0.0719919073624,-0.665407367993,0.573728222646,0.819020284224,0.00473787612105,0.0,0.819004421956,-0.573648761611,-0.0118153298996,0.0,-0.00695925207021,0.0106593349423,-0.999918970412,0.0,0.409716451669,-0.0699027414352,0.304843806681,1.0,-0.20998,-0.275973714286,2.574
-0.0460914721553,-0.380710207075,-0.133568696973,-2.52700165123,-0.0476720793981,2.14037222451,-0.318233419199,-0.738093908862,-0.507749486888,-0.0131799478477,-0.432612139039,-0.0871592127873,-0.0495470616738,-0.67222401975,0.573911458462,0.818891251995,0.00484790200409,0.0,0.818877663099,-0.573832921241,-0.0116575417501,0.0,-0.00676450342765,0.0106604406984,-0.999920295072,0.0,0.406190909867,-0.0746768259033,0.304913085302,1.0,-0.20998,-0.275973714286,2.591
-0.0600735273353,-0.390214697383,-0.133710062457,-2.53533237846,-0.0492270596333,2.13912618077,-0.331270651772,-0.734173169327,-0.500050509187,-0.0140874244357,-0.449405912155,-0.0886601519133,-0.0729772595531,-0.694940680954,0.573746831141,0.819006528398,0.0048607714096,0.0,0.818993192236,-0.573668416968,-0.0116380988973,0.0,-0.00674333776541,0.0106584662648,-0.999920459083,0.0,0.402225418649,-0.0798512373214,0.304908191577,1.0,-0.20998,-0.275973714286,2.61
-0.0714394271306,-0.397592856115,-0.133938995544,-2.54179386146,-0.0504546836965,2.13797949167,-0.341711351728,-0.759198494283,-0.483213163609,-0.0127979099611,-0.422776675341,-0.0782594422808,-0.0710095170838,-0.698480897306,0.573851470475,0.818933443396,0.00482203505089,0.0,0.818918642816,-0.573771656045,-0.011793645273,0.0,-0.00689159618153,0.0107168614145,-0.999918824097,0.0,0.399017346123,-0.0840433105444,0.304869207609,1.0,-0.20998,-0.275973714286,2.625
-0.0834442374558,-0.405302752678,-0.134068964077,-2.54844935285,-0.0516860678191,2.13680122293,-0.352994491374,-0.754202032951,-0.47522500056,-0.0136533129006,-0.405305461176,-0.0729077641719,-0.0723703982758,-0.713985030217,0.573690809647,0.81904586986,0.00484405737782,0.0,0.819030933874,-0.573610292165,-0.0118452091866,0.0,-0.00692330178915,0.0107631277101,-0.999918108134,0.0,0.395449900542,-0.0886406779954,0.304860192372,1.0,-0.20998,-0.275973714286,2.642
-0.0974022756391,-0.413762055363,-0.1343190594,-2.55547299436,-0.0529867574318,2.13557517518,-0.365883019512,-0.783721018392,-0.471062697104,-0.0116147566887,-0.389420385821,-0.0755894106036,-0.0712635858066,-0.720716323081,0.573867956369,0.818920391239,0.00507034187694,0.0,0.818909446498,-0.573788349192,-0.0116187636844,0.0,-0.00660566658629,0.0108199953495,-0.999919643206,0.0,0.391948600251,-0.0934060467607,0.304953700844,1.0,-0.20998,-0.275973714286,2.659
-0.109768721336,-0.421102234135,-0.134438328446,-2.56166812678,-0.0542124505009,2.13432380003,-0.377535989743,-0.772966002694,-0.459788180296,-0.011698137369,-0.384897228576,-0.0683390779196,-0.0838406921262,-0.74046974263,0.573713316948,0.819028853736,0.00505109941689,0.0,0.819017620773,-0.573633732789,-0.01162860145,0.0,-0.00662680668949,0.0108086310357,-0.999919626234,0.0,0.388590851399,-0.0977631873797,0.304958937704,1.0,-0.20998,-0.275973714286,2.675
-0.124003556944,-0.42907871866,-0.1347015449,-2.56848991384,-0.0555532576476,2.13281967514,-0.390746393371,-0.807133197125,-0.444303113839,-0.0176950220269,-0.374018816878,-0.0654243279904,-0.0812852493831,-0.742854975825,0.573836248609,0.818943103287,0.00499001632031,0.0,0.81892954714,-0.573754383418,-0.011876499103,0.0,-0.00686326543359,0.0109018473916,-0.999917019213,0.0,0.38473781535,-0.102755033631,0.304889508821,1.0,-0.20998,-0.275973714286,2.693
-0.136627908942,-0.435929053079,-0.134817526953,-2.57424621726,-0.0566700789009,2.13163172419,-0.402712307592,-0.793128902342,-0.414496360198,-0.0147413112317,-0.3545918749,-0.0691848621281,-0.0738644649585,-0.755934151979,0.573694205576,0.819042492644,0.00501005322713,0.0,0.819029078137,-0.573612105372,-0.0118856483814,0.0,-0.00686115599586,0.0109223171704,-0.999916810303,0.0,0.381405716536,-0.107096405189,0.304871828666,1.0,-0.20998,-0.275973714286,2.709
-0.149619690515,-0.442644432811,-0.135053597154,-2.57958874057,-0.057807468237,2.13041254116,-0.414842724938,-0.817030148371,-0.417596887158,-0.0154750233633,-0.327232855113,-0.0660843390719,-0.0709396835067,-0.764675309084,0.573812738871,0.81895872959,0.00512706931364,0.0,0.818948053364,-0.573732195614,-0.0116704973602,0.0,-0.00661621834009,0.0108956932639,-0.999918751461,0.0,0.378100945788,-0.111597230235,0.304968818916,1.0,-0.20998,-0.275973714286,2.725
-0.163354567862,-0.449565463379,-0.135182566917,-2.58523721411,-0.0588913083011,2.12909565844,-0.427836204836,-0.809966890186,-0.398996172664,-0.0183090408002,-0.333344518986,-0.0526851986005,-0.0819310576943,-0.763275460443,0.573759678296,0.818995407405,0.0052058729058,0.0,0.818985786947,-0.573678949683,-0.0116400330528,0.0,-0.00654675995687,0.0109423282119,-0.999918699389,0.0,0.374558845873,-0.116223527393,0.304987195168,1.0,-0.20998,-0.275973714286,2.742
-0.177386511056,-0.456234524059,-0.135435959318,-2.59081980126,-0.0600292125692,2.12762483062,-0.441082780615,-0.831443146766,-0.398401862248,-0.0139505024162,-0.323159438212,-0.0672744594522,-0.078461320193,-0.779546578757,0.573810726072,0.818959965831,0.00515479500796,0.0,0.818947886451,-0.573727203829,-0.0119248381569,0.0,-0.00680865001091,0.0110643215404,-0.999915607976,0.0,0.370896381032,-0.120928333759,0.30490699125,1.0,-0.20998,-0.275973714286,2.759
-0.190552923608,-0.462253525825,-0.135553083557,-2.59566660168,-0.061036934814,2.12644357942,-0.453716105353,-0.824634076151,-0.372296461811,-0.008754751721,-0.299764134958,-0.0687713576494,-0.0652242024517,-0.787628362496,0.573645101174,0.819075716541,0.00519763154109,0.0,0.819064637449,-0.573562179807,-0.0118445125355,0.0,-0.00672051710633,0.01105195557,-0.999916340965,0.0,0.367585395943,-0.125285665384,0.304924865288,1.0,-0.20998,-0.275973714286,2.775
-0.205788139003,-0.468747617355,-0.135767559764,-2.60091920893,-0.0621790931812,2.12505645835,-0.468022602809,-0.843065674698,-0.361245822861,-0.0108581151,-0.289900301027,-0.0739882586692,-0.077386992977,-0.784944193268,0.573803834346,0.818964486075,0.00520356982364,0.0,0.818953172458,-0.573720351002,-0.011891470431,0.0,-0.00675342808891,0.0110850647663,-0.999915752725,0.0,0.363989993066,-0.13004121871,0.304904167768,1.0,-0.20998,-0.275973714286,2.792
-0.220893869287,-0.475026419903,-0.135924810367,-2.60575404236,-0.0631769996707,2.12370506557,-0.482527585493,-0.849030552699,-0.340915799227,-0.0102452521755,-0.258832667871,-0.0622767950294,-0.0719271843495,-0.806807666854,0.573709251677,0.819029893615,0.00533617897227,0.0,0.819021220054,-0.573626856638,-0.011713980762,0.0,-0.00653325063229,0.011091076487,-0.999917148897,0.0,0.360080454651,-0.135227117773,0.304992686511,1.0,-0.20998,-0.275973714286,2.811
-0.233771341987,-0.480004720542,-0.136113087329,-2.60970480818,-0.0640966187365,2.12257306273,-0.494792790603,-0.852227688543,-0.324736198815,-0.00224281198359,-0.265264159743,-0.0549936128828,-0.0796172263889,-0.823734232413,0.573737682826,0.819010045366,0.00532576718969,0.0,0.819001197311,-0.573655250635,-0.0117234433415,0.0,-0.00654658959309,0.0110882044048,-0.999917093507,0.0,0.356912551014,-0.13940201169,0.304990135706,1.0,-0.20998,-0.275973714286,2.826
-0.248334076034,-0.48539576771,-0.136262424228,-2.6140373661,-0.0649874247191,2.12128795575,-0.508789442398,-0.872006450532,-0.31356001289,-0.0177588675522,-0.250029673743,-0.0508134654975,-0.0746382301487,-0.83285911703,0.573690485534,0.819042910229,0.00535582976583,0.0,0.81903351339,-0.573606370858,-0.011856734671,0.0,-0.00663916422031,0.0111889153618,-0.999915361254,0.0,0.353324138991,-0.144032073606,0.30495053403,1.0,-0.20998,-0.275973714286,2.843
-0.263070402125,-0.490370144103,-0.13640339401,-2.61805306192,-0.0658262613118,2.1200695618,-0.522952770127,-0.861328696038,-0.283678996453,-0.00384106154863,-0.230124438278,-0.044368970448,-0.0673237857161,-0.835172005607,0.57368064095,0.819049668011,0.00537684220884,0.0,0.819039417618,-0.573594558285,-0.0120192343729,0.0,-0.00676035264883,0.011299265336,-0.99991330836,0.0,0.349756646914,-0.148689975413,0.304895022499,1.0,-0.206494857143,-0.271393240816,2.86
-0.276918925909,-0.494753483214,-0.136509744356,-2.62147962113,-0.0665194759206,2.11905360277,-0.536181896435,-0.867428058279,-0.273399400531,-0.00866154466124,-0.21202343702,-0.0435483008572,-0.066670259828,-0.824289090858,0.573776712062,0.818981712185,0.00547601150132,0.0,0.818972717484,-0.573690166153,-0.0120011739611,0.0,-0.00668733680284,0.0113709170819,-0.9999129871,0.0,0.346482922188,-0.153043557857,0.30489611577,1.0,-0.203194285714,-0.267055346939,2.876
-0.293164386861,-0.499690890374,-0.136512341676,-2.62527871356,-0.0673161085662,2.11778746865,-0.551758613551,-0.836731152683,-0.253037806598,0.00694093815124,-0.200285453329,-0.0372686684088,-0.0703287978122,-0.818187017059,0.57377142534,0.818985170763,0.00551257058191,0.0,0.818976504978,-0.573684487007,-0.0120141817535,0.0,-0.00667708902328,0.0114082796224,-0.999912630002,0.0,0.342640712706,-0.158063156331,0.304910317306,1.0,-0.199274857143,-0.261904097959,2.895
-0.306849704412,-0.503501892611,-0.136550287726,-2.62815520435,-0.0679166765155,2.11683802176,-0.564816866033,-0.857056767898,-0.231369050051,-0.00396128137299,-0.172648007237,-0.0386294396538,-0.061659169635,-0.809788778536,0.573892110612,0.818900030007,0.00559760068399,0.0,0.818892806832,-0.573805398531,-0.0119449753563,0.0,-0.00656993367799,0.0114391822938,-0.999912986754,0.0,0.339459515809,-0.16228959553,0.30494311781,1.0,-0.195974285714,-0.257566204082,2.911
-0.320250919676,-0.506982580423,-0.136479314477,-2.63077993394,-0.0684342306675,2.11601619801,-0.57776534976,-0.828929487554,-0.216707177568,0.00589972394313,-0.164502399725,-0.0271865577381,-0.0475130822008,-0.812324436956,0.57384140249,0.818935052569,0.00567198053624,0.0,0.818929490092,-0.573755642649,-0.0118194622438,0.0,-0.00642516480065,0.0114276689371,-0.999914059127,0.0,0.336386084939,-0.166373883576,0.304976944549,1.0,-0.192673714286,-0.253228310204,2.927
-0.334516901355,-0.510388693325,-0.136461217962,-2.63335898616,-0.068981007412,2.1151278728,-0.591417354231,-0.834628839746,-0.192014683246,0.00295697172161,-0.148858373117,-0.0343886873944,-0.0547465790074,-0.803193465424,0.573950139442,0.818858477938,0.0057251589322,0.0,0.818853764599,-0.573864449239,-0.0117835904035,0.0,-0.00636375024696,0.0114514817763,-0.999914179441,0.0,0.333106930902,-0.170713538183,0.304993168008,1.0,-0.189166857143,-0.248619297959,2.944
-0.348337172623,-0.513454745298,-0.136307602989,-2.63573475251,-0.069402538904,2.11425411901,-0.604891292293,-0.808060247821,-0.177784777776,0.00865229920184,-0.133492590644,-0.0255322948418,-0.0494764160791,-0.791172740056,0.57380839178,0.818957576688,0.00575882023941,0.0,0.818952716984,-0.573721555577,-0.0118646918037,0.0,-0.00641284340877,0.0115244830865,-0.999913027082,0.0,0.329931684326,-0.174829398221,0.304977365335,1.0,-0.18566,-0.244010285714,2.961
-0.361456310841,-0.516012233002,-0.136253115762,-2.63779120024,-0.0698386294129,2.11350234283,-0.617449658514,-0.809029107388,-0.155262885656,0.00663751129469,-0.123378394171,-0.0245466178882,-0.0414002833085,-0.784152814709,0.573925193633,0.81887575544,0.00575466486845,0.0,0.81886986419,-0.573836604604,-0.0120184707803,0.0,-0.00653952289681,0.0116102483423,-0.999911214445,0.0,0.326919068869,-0.178755704232,0.304924137677,1.0,-0.182359428571,-0.239672391837,2.977
-0.374915816878,-0.518432894395,-0.136082178828,-2.63971130448,-0.0701870967113,2.11284173862,-0.630593142508,-0.790790986663,-0.130648289513,0.0136634445424,-0.105745469961,-0.0216980755615,-0.0375730027914,-0.778623367226,0.573803843239,0.818960634967,0.00577708915821,0.0,0.818954609148,-0.573714429685,-0.0120767639841,0.0,-0.00657612149985,0.0116610918937,-0.999910382765,0.0,0.323874564178,-0.182734765369,0.304891387133,1.0,-0.178852571429,-0.235063379592,2.994
-0.389197781902,-0.520734196939,-0.135978396021,-2.64145079246,-0.0705681276317,2.11216835992,-0.644333074165,-0.778081724032,-0.122973791076,0.013355111179,-0.0891568630683,-0.0224096944647,-0.0351019791221,-0.757966387846,0.57391102304,0.818885340007,0.00580383111971,0.0,0.818879577656,-0.573821325523,-0.0120859659771,0.0,-0.00656678472324,0.0116891329265,-0.999910116715,0.0,0.320662272319,-0.186982749316,0.304892251586,1.0,-0.175139428571,-0.23018324898,3.012
-0.40070147183,-0.522442452976,-0.135820880337,-2.64272579005,-0.0707763653977,2.11167247599,-0.655678631035,-0.764763825104,-0.110232072344,0.0128633247387,-0.0786960522618,-0.0190159271705,-0.0425689742924,-0.746550813327,0.573764548004,0.818987587687,0.00585846139538,0.0,0.818982599943,-0.573674764527,-0.0120628535837,0.0,-0.00651860139895,0.0117194413149,-0.999910077222,0.0,0.317923882565,-0.190588057358,0.304905173568,1.0,-0.171838857143,-0.225845355102,3.028
-0.414606853287,-0.524289904172,-0.135724439092,-2.64404358702,-0.0710724914237,2.11111572571,-0.669034637944,-0.766959738188,-0.0979687704682,0.00707805712676,-0.0701205390475,-0.0196856660537,-0.033573382768,-0.738737413885,0.573944750277,0.818860874272,0.00591938489792,0.0,0.818857029632,-0.573855312091,-0.0119996961356,0.0,-0.00642933498527,0.0117345184626,-0.999910478357,0.0,0.314987907518,-0.194476820621,0.304935042587,1.0,-0.168332,-0.221236342857,3.045
-0.427266792905,-0.525734886999,-0.135544521339,-2.64511090701,-0.0712537975522,2.11067995226,-0.681482010227,-0.746840792758,-0.0848229459208,0.0102763607765,-0.0631817217391,-0.0118668322264,-0.0269816829646,-0.724598499884,0.573852305996,0.818925260219,0.00597461129428,0.0,0.818922262052,-0.573762896006,-0.0119672379532,0.0,-0.00637238586439,0.0117603957159,-0.999910538894,0.0,0.312179458751,-0.198178057019,0.304946461446,1.0,-0.164825142857,-0.216627330612,3.062
-0.439211689279,-0.526888087889,-0.13545790343,-2.64596833119,-0.0714491595579,2.11030622217,-0.692979867017,-0.733103167157,-0.0695721061323,0.00970170062028,-0.049508830414,-0.0121269124966,-0.0259336900687,-0.713272410818,0.574024131557,0.818804499619,0.00601952609462,0.0,0.81880206754,-0.573934469256,-0.0119643676456,0.0,-0.00634178664811,0.0117968632855,-0.999910303857,0.0,0.309516981619,-0.2016903633,0.304948845957,1.0,-0.161524571429,-0.212289436735,3.078
-0.451333032277,-0.527893862234,-0.135249985609,-2.64674055368,-0.0715605177882,2.10999201337,-0.70497337809,-0.715384731455,-0.0537599861562,0.00433808191108,-0.0436355425268,-0.00664752003837,-0.0159567578371,-0.693902933147,0.573889889185,0.818898245619,0.00606673832151,0.0,0.818896405703,-0.573800020277,-0.0119566030757,0.0,-0.00631026820258,0.0118300315848,-0.999910111394,0.0,0.306835781648,-0.205203734257,0.304943958148,1.0,-0.158017714286,-0.20768042449,3.095
-0.463547667915,-0.528671737013,-0.135114707807,-2.6473639588,-0.071691030712,2.10969089643,-0.716768675401,-0.711723633884,-0.0426492537121,0.00935383909521,-0.0349208528544,-0.00714482568017,-0.0146669997734,-0.689878785738,0.574046343475,0.818788304204,0.00610371545666,0.0,0.818786527197,-0.573955503005,-0.0120187500399,0.0,-0.00633767290853,0.011897188553,-0.999909141276,0.0,0.304118134408,-0.208761063076,0.30492241099,1.0,-0.154510857143,-0.203071412245,3.112
-0.47455815294,-0.529192174684,-0.13488217572,-2.64777917321,-0.0717622490019,2.10946327972,-0.727672311314,-0.681418695624,-0.0263737562639,0.00724973584003,-0.0242407815233,-0.00301407768053,-0.0205210634316,-0.681601597824,0.573915576453,0.818879943073,0.00610711369095,0.0,0.818877945443,-0.573824252554,-0.0120575515405,0.0,-0.00636939980079,0.0119212268754,-0.999908653376,0.0,0.301698483562,-0.211938757196,0.304910160733,1.0,-0.151210285714,-0.198733518367,3.128
-0.48619932601,-0.529604425353,-0.1347349832,-2.64811260266,-0.0718112397077,2.10925813825,-0.739024651576,-0.684730068734,-0.0204509604152,0.0015271189712,-0.0165847055064,-0.00102513518369,-0.0141490143012,-0.653158810248,0.57400829046,0.818814505576,0.00616723950498,0.0,0.818812937758,-0.573916020672,-0.0121045890602,0.0,-0.00637205823316,0.0119981809723,-0.999907716005,0.0,0.299119226557,-0.21531478409,0.304895277134,1.0,-0.147703428571,-0.194124506123,3.145
-0.498143640242,-0.52984285988,-0.134464285288,-2.64830002337,-0.0718418744996,2.10909748785,-0.750801059295,-0.651790197781,-0.0131565418767,0.0202578381943,-0.0053360656185,-0.00287417223393,-0.00946848991911,-0.644565995461,0.573931090018,0.818868603735,0.00616932969838,0.0,0.818866920236,-0.573838558575,-0.012125284992,0.0,-0.00638893893665,0.0120111692945,-0.999907452353,0.0,0.296501573268,-0.218752595496,0.304890259069,1.0,-0.143990285714,-0.18924437551,3.163
-0.508513089505,-0.529971233024,-0.13429306854,-2.6484166212,-0.0718629116928,2.10900618565,-0.761045706096,-0.652445063868,-0.00779034169693,0.00783643454222,-0.00464558139077,-0.00729097671262,-0.0106748840042,-0.633844779769,0.573897045662,0.818892219153,0.00620171682275,0.0,0.818890878745,-0.57380422735,-0.0121319530998,0.0,-0.00637631343061,0.0120412532122,-0.999907171115,0.0,0.294204173469,-0.221741140365,0.30488064935,1.0,-0.140689714286,-0.184906481633,3.179
-0.519490634791,-0.529975266458,-0.134106584071,-2.64841296408,-0.0718684713791,2.10891765862,-0.771665848715,-0.630875192238,0.00286508098795,0.0180929316959,0.0016126960173,0.000876920316309,-0.00224465076807,-0.608060479817,0.574056035453,0.818780552907,0.00623066954906,0.0,0.818779544187,-0.573962965481,-0.012137511181,0.0,-0.00636190703083,0.0120693886953,-0.999906923666,0.0,0.291772368515,-0.224903647378,0.304880965581,1.0,-0.137182857143,-0.180297469388,3.196
-0.529877089292,-0.529845541518,-0.133890624589,-2.64833459236,-0.0718666840314,2.1089157688,-0.782038944967,-0.614912879398,0.00670313730241,0.0124486567632,0.00226122475488,-0.000848405117556,-0.00235472609932,-0.591604634208,0.573920144786,0.818875772101,0.00623571775231,0.0,0.818874943034,-0.573827297704,-0.0121163931002,0.0,-0.00634371782419,0.0120603473006,-0.999907148323,0.0,0.289478271863,-0.227886448263,0.304874586476,1.0,-0.133676,-0.175688457143,3.213
-0.539680103066,-0.529685830227,-0.133740137269,-2.64820201363,-0.0718645947882,2.10891293494,-0.79157475139,-0.608209073095,0.0126065060155,0.0129255659126,0.00648945342989,0.000864445287509,-0.000188273866592,-0.592286143263,0.57404126545,0.818790686949,0.00625966672295,0.0,0.818790384787,-0.573948694904,-0.012080906385,0.0,-0.00629912736946,0.0120605259162,-0.99990742807,0.0,0.287288601887,-0.230705737758,0.30488014718,1.0,-0.130375428571,-0.171350563265,3.229
-0.54961301489,-0.529322967019,-0.133466182921,-2.64791322704,-0.0718475393454,2.10893346558,-0.801477870571,-0.571168762085,0.0290093795306,0.0215721062235,0.0190001903703,0.00200245741454,-0.00028774299626,-0.573550658293,0.573896183119,0.818892706027,0.00621722761674,0.0,0.818891986136,-0.573804089353,-0.012063539474,0.0,-0.00631139536716,0.0120146884504,-0.999907902534,0.0,0.285104551101,-0.233547164945,0.304887677666,1.0,-0.126868571429,-0.16674155102,3.246
-0.559923837449,-0.528845463361,-0.133237735882,-2.6475552657,-0.0718390346015,2.1089675584,-0.811666188261,-0.567253258547,0.0261872989792,0.0135798793007,0.0186705066276,-0.0013451406657,0.0058307053579,-0.566762115855,0.573859456504,0.818918697574,0.00618367574138,0.0,0.818917467469,-0.573767379201,-0.0120798568112,0.0,-0.00634455133505,0.0119962911079,-0.999907913594,0.0,0.28281018813,-0.236502727306,0.304884727709,1.0,-0.123155428571,-0.161861420408,3.264
-0.568987255399,-0.528324942446,-0.133078489866,-2.6471323163,-0.0718045301333,2.10906705247,-0.820459414026,-0.552834246019,0.04042659336,0.0145566164217,0.0328541293476,0.00383756319306,0.00915971777597,-0.542287099284,0.574006908629,0.818815358576,0.00618258095958,0.0,0.818814507493,-0.5739155501,-0.0120204231872,0.0,-0.00629434895556,0.0119624232513,-0.999908636627,0.0,0.280798048526,-0.239122108339,0.304899377888,1.0,-0.119854857143,-0.157523526531,3.28
-0.57803444359,-0.527570242191,-0.132789496086,-2.64660515543,-0.0717154979477,2.10919565585,-0.829621678319,-0.525573100851,0.0488161835845,0.0153132472692,0.0346468077014,0.00497155498585,0.00415455770698,-0.533185528231,0.573793449705,0.818965179717,0.00615291697073,0.0,0.818963753932,-0.573701907625,-0.0120514660715,0.0,-0.00633991293652,0.0119542984285,-0.999908445935,0.0,0.278702734555,-0.241865918922,0.304883475279,1.0,-0.116141714286,-0.152643395918,3.298
-0.58706030123,-0.526800118062,-0.132586210091,-2.6460293135,-0.0716550936286,2.10931102413,-0.838473481746,-0.524762073626,0.0476239485006,0.0125872373795,0.0324753717284,0.00934518425376,0.00532099750692,-0.520967290714,0.57383411676,0.818936872822,0.00612794226055,0.0,0.818934974792,-0.573742398274,-0.0120795027242,0.0,-0.00637661266673,0.0119502470966,-0.999908260995,0.0,0.2768148885,-0.244307491033,0.304876604188,1.0,-0.112841142857,-0.148305502041,3.314
-0.595317257375,-0.525954389003,-0.132398708655,-2.64538666636,-0.0715284678512,2.10945697738,-0.846579283949,-0.506394951857,0.0604813784003,0.014841577385,0.0382901755268,0.00407597297462,0.0119886986483,-0.504025229277,0.573915542936,0.818879619213,0.00615351241456,0.0,0.818878010566,-0.57382361324,-0.0120835259882,0.0,-0.00636404495967,0.0119741299212,-0.999908055345,0.0,0.274996106965,-0.246693167536,0.304876469204,1.0,-0.109540571429,-0.143967608163,3.33
-0.604498643896,-0.524866043152,-0.132057786553,-2.64462130081,-0.0713263958356,2.10963042725,-0.855870880365,-0.486418757617,0.0557238133778,0.0164789006787,0.0426010812914,0.0149029507038,0.0146393189247,-0.495174158547,0.573713725894,0.819020943219,0.00616459162684,0.0,0.819018896647,-0.573620697418,-0.0121691960019,0.0,-0.00643081285247,0.0120307834417,-0.999906948119,0.0,0.272992966914,-0.249305655207,0.304849248786,1.0,-0.105621142857,-0.138816359184,3.349
-0.612206173164,-0.523976839151,-0.131846915587,-2.64392507414,-0.0711838288682,2.10976788686,-0.863404632241,-0.474546440147,0.0596672553687,0.013253361506,0.0437181742809,0.00984328857619,0.0160837424295,-0.478554267637,0.573806434237,0.818955864663,0.00618180093317,0.0,0.818953995216,-0.573713218819,-0.0121755153304,0.0,-0.00642475247003,0.0120492315936,-0.99990676494,0.0,0.271286213138,-0.251518652032,0.304856868735,1.0,-0.102320571429,-0.134478465306,3.365
-0.619225496803,-0.52306957236,-0.13167168561,-2.64319477343,-0.0710318500983,2.10992678126,-0.870280000528,-0.462994066573,0.0691893806638,0.00920158112537,0.0488498248331,0.00795095732862,0.0103762251888,-0.457234176824,0.573905509592,0.818886212039,0.00621165777493,0.0,0.818884886862,-0.573812428537,-0.0121484906914,0.0,-0.00638402800355,0.0120589505875,-0.999906908616,0.0,0.269740589224,-0.253552603644,0.304874036814,1.0,-0.0992262857143,-0.130411689796,3.38
-0.62712586569,-0.521890530184,-0.131373373217,-2.64229461346,-0.0708141040187,2.1101555296,-0.878270728796,-0.422844403341,0.0635776789387,0.0177127326544,0.0485112944208,0.0138430424827,0.0149401220542,-0.434273305101,0.573763041535,0.818985935764,0.00622543902921,0.0,0.818984784641,-0.573669918153,-0.0121447286802,0.0,-0.00637513762557,0.0120669686354,-0.999906868607,0.0,0.268031287182,-0.25582751915,0.304877406228,1.0,-0.0955131428572,-0.125531559184,3.398
-0.634487762922,-0.520827057709,-0.131133425506,-2.64147592013,-0.0706453964757,2.11035372567,-0.885537117523,-0.436815609527,0.0618615361666,0.0144463893932,0.0513454122222,0.0163847140846,0.00925165673434,-0.417603279735,0.573788386653,0.818968142899,0.00623018137474,0.0,0.818967051686,-0.573695232611,-0.0121447615546,0.0,-0.00637207014545,0.0120710688161,-0.99990683867,0.0,0.266404058533,-0.257942388963,0.304881698709,1.0,-0.0920062857143,-0.120922546939,3.415
-0.640760770741,-0.51986151717,-0.130916002797,-2.6406978621,-0.0704661732991,2.11055098578,-0.891714052619,-0.413542528643,0.0642628630338,0.00930068999107,0.055928328637,0.00963707842751,0.0117012149182,-0.405921787525,0.573850769563,0.818924312416,0.00624593516132,0.0,0.81892377652,-0.573758196582,-0.0120883004188,0.0,-0.00631586821464,0.0120520573477,-0.999907424576,0.0,0.26494280299,-0.259875762074,0.304905245251,1.0,-0.0887057142858,-0.116584653061,3.431
-0.647977289074,-0.518618309419,-0.130700973072,-2.63975411589,-0.0702522267279,2.11080220745,-0.898806825854,-0.389895503517,0.0728305112841,0.0171495585974,0.0493905009712,0.0162628350088,0.0165308545083,-0.390468790691,0.573923791376,0.818872866677,0.00628146583293,0.0,0.818872726074,-0.573830914243,-0.0120949267553,0.0,-0.00629982935394,0.0120855199539,-0.999907121866,0.0,0.263444043953,-0.261848765718,0.304900741274,1.0,-0.0851988571429,-0.111975640816,3.448
-0.654360584795,-0.517467187507,-0.13039278052,-2.63890530519,-0.0700419254671,2.11102194257,-0.905333936677,-0.373949521855,0.0624470803183,0.0137911493849,0.0541351120685,0.00865469887014,0.0154238217701,-0.373142869733,0.57372357609,0.819013191364,0.0062767437097,0.0,0.819012720019,-0.57363024872,-0.0121346241097,0.0,-0.00633800918903,0.0121028858953,-0.999906670541,0.0,0.262055336108,-0.263668879196,0.30488885283,1.0,-0.0816920000001,-0.107366628572,3.465
-0.660299892488,-0.516413179412,-0.130150801043,-2.63811058683,-0.0698535378816,2.11123798216,-0.911160790453,-0.36393754731,0.0657707793525,0.0155378412533,0.0516388026351,0.0109584325606,0.00624914496058,-0.359825678627,0.573767523381,0.81898235384,0.00628332025031,0.0,0.818981933921,-0.573674090858,-0.0121398637249,0.0,-0.00633787816038,0.0121116184999,-0.999906565634,0.0,0.260744909648,-0.265369508939,0.304885822562,1.0,-0.0783914285715,-0.103028734694,3.481
-0.666640598773,-0.515195371475,-0.129889364755,-2.63716121997,-0.0696211545003,2.11149750015,-0.917431489484,-0.345282830544,0.0645161738508,0.0161374707895,0.0543035803475,0.00965522281889,0.00551991932624,-0.351277976833,0.573789591601,0.818966757804,0.00630087967463,0.0,0.818966763073,-0.573696450596,-0.0121066286306,0.0,-0.00630025539203,0.0121071016285,-0.999906858098,0.0,0.259362636079,-0.267203229837,0.304896430599,1.0,-0.0746782857143,-0.0981486040817,3.499
-0.672398134517,-0.51402796642,-0.129724052016,-2.63627798484,-0.0694146124124,2.111722921,-0.923111180211,-0.333324295972,0.0675344778844,0.00804665171288,0.0519453436767,0.00696670677896,0.0145795669162,-0.327964700467,0.573871728337,0.818908825382,0.00634996280087,0.0,0.818909314565,-0.573778045145,-0.0121258537833,0.0,-0.00628662047275,0.0121589624507,-0.999906314629,0.0,0.258081769899,-0.268881104152,0.304889882738,1.0,-0.0711714285715,-0.0935395918368,3.516
-0.677454976893,-0.512975867627,-0.129455195562,-2.63549955656,-0.0692085587864,2.11192953149,-0.928136648056,-0.305446431883,0.0646036487926,0.014463550997,0.0474403219843,0.0160210837196,0.00812576282149,-0.30400289256,0.573836196487,0.818933690526,0.00635429183276,0.0,0.818934019719,-0.573742082987,-0.0121589661458,0.0,-0.00631178390811,0.0121812351659,-0.999905885018,0.0,0.2569797584,-0.270322565453,0.304878863759,1.0,-0.0678708571429,-0.0892016979593,3.532
-0.682616855495,-0.511908670458,-0.129160840231,-2.63468036955,-0.0690060436129,2.11214302636,-0.933310225701,-0.306740424439,0.0652385750555,0.017430903592,0.05182614136,0.0146624272099,0.0120385311458,-0.300923446896,0.573747466686,0.818995980006,0.00633846245821,0.0,0.818996093745,-0.573653429024,-0.0121609498306,0.0,-0.00632381005338,0.0121687244371,-0.999905961364,0.0,0.255856621351,-0.271792977956,0.304881608281,1.0,-0.0643640000001,-0.0845926857144,3.549
-0.687860771627,-0.510750028263,-0.128932969507,-2.63380371457,-0.0687988275437,2.11239371129,-0.938377042646,-0.283676338099,0.0654999475513,0.00819989529944,0.0489560976017,0.0125215577929,0.00908905357904,-0.26503153582,0.573865564485,0.818913153418,0.0063488549194,0.0,0.81891341923,-0.573771484288,-0.0121590511293,0.0,-0.00631453656659,0.0121770576762,-0.999905918521,0.0,0.254704407176,-0.273312479406,0.304877773494,1.0,-0.0606508571429,-0.0797125551021,3.567
-0.69194091752,-0.509810711221,-0.128744672056,-2.63313564149,-0.0686189371076,2.11257869627,-0.942482469271,-0.268088992919,0.0642098897809,0.0121390246659,0.0402015387367,0.00919953989023,0.00766675339258,-0.268987706126,0.573823407178,0.818942476422,0.00637687915774,0.0,0.818942718865,-0.573728454415,-0.012216002387,0.0,-0.00634572839852,0.012232362378,-0.999905046013,0.0,0.253800778198,-0.274481444096,0.304853533421,1.0,-0.0575565714286,-0.0756457795919,3.582
