nelsonifechukwu/NELSON_IML_WORK/CNN-GradCAM/train2dof/data_sample_2022-02-22-11-40-31/robot_state.csv
position_joint1,position_joint2,position_joint3,position_joint4,position_joint5,position_joint6,position_joint7,velocity_joint1,velocity_joint2,velocity_joint3,velocity_joint4,velocity_joint5,velocity_joint6,velocity_joint7,ee_T_00,ee_T_10,ee_T_20,ee_T_30,ee_T_01,ee_T_11,ee_T_21,ee_T_31,ee_T_02,ee_T_12,ee_T_22,ee_T_32,ee_T_03,ee_T_13,ee_T_23,ee_T_33,v_x,v_y,time
0.465085196402,0.547812244249,-0.124006901912,-1.35584192681,0.0795746026158,1.89409646227,0.159162767401,0.000725088008775,0.00231248851904,-0.00879411396375,0.00172500970829,2.49519507146e-05,-5.79467479131e-05,0.00245565220704,0.573832376975,0.818958714208,0.00194279669543,0.0,0.818914862867,-0.573773236343,-0.0119777933305,0.0,-0.00869476087861,0.008464393673,-0.999926374876,0.0,0.66167041916,0.260897791507,0.303188521636,1.0,0.0,0.0,0.0
0.465080485136,0.547812166751,-0.124007318343,-1.35584795937,0.0795714426239,1.89409868293,0.15915913635,-9.87044970848e-05,-0.000960880596856,0.00051999250578,-0.000386069539664,-8.22451659218e-05,-0.000629296575494,-0.000949392274052,0.573833060042,0.818958247209,0.00193789396671,0.0,0.818914359334,-0.57377396678,-0.0119772294105,0.0,-0.00869710514217,0.00846006228205,-0.999926391145,0.0,0.661670982543,0.260893355834,0.303185906222,1.0,-0.00026,-0.000341714285714,0.014
0.46507689483,0.547814782827,-0.124014491046,-1.35585666827,0.0795753498837,1.89409708683,0.159160465627,-0.000197437519771,-0.000296897853492,-0.00125482896415,-0.00292750742927,-1.82757353197e-05,-0.000207974272052,-0.00260622538014,0.573843604089,0.818950883575,0.00192749553202,0.0,0.818906849273,-0.573784543186,-0.0119840358739,0.0,-0.00870853729072,0.00845556442633,-0.999926329691,0.0,0.661670960966,0.260886283073,0.303180014321,1.0,-0.0006,-0.000788571428571,0.031
0.465081121728,0.547777972387,-0.124010484075,-1.35587832932,0.079572690524,1.89409857811,0.159154203507,0.000561780372197,-0.00493054469734,0.000253420707626,9.68842802712e-05,0.000295919741771,-0.000488209539446,-0.00164294426509,0.573832638855,0.818958530544,0.00194286776479,0.0,0.818914680755,-0.573773498497,-0.0119776862224,0.0,-0.00869462967207,0.00846439319354,-0.999926376021,0.0,0.661665395922,0.260888985349,0.303195773446,1.0,-0.00094,-0.00123542857143,0.048
0.465077887472,0.547686924238,-0.124005599752,-1.35598666737,0.0795722342776,1.89411991714,0.1591509407,0.000125181375944,-0.00424610768749,0.000181664101496,-0.00816533081374,0.000132242478263,-0.000173599187166,-0.00164121896255,0.573834985943,0.818956864028,0.00195209398004,0.0,0.818913029471,-0.573775703781,-0.0119849411597,0.0,-0.00869525314105,0.00847613692883,-0.99992627112,0.0,0.661646970819,0.260879384008,0.303210399625,1.0,-0.00126,-0.001656,0.064
0.465074344951,0.547550219599,-0.124007730581,-1.35617127693,0.0795682087589,1.89415490918,0.159157540705,0.000746281028199,-0.00869998300904,0.00013669553128,-0.00916317398175,-0.000307780272147,0.000129810250678,0.00121600578597,0.573853794928,0.818943699055,0.00194595102189,0.0,0.818899686234,-0.57379444097,-0.011999595791,0.0,-0.00871058519126,0.00847971552433,-0.999926107335,0.0,0.66161687473,0.26085740939,0.303222475839,1.0,-0.0016,-0.00210285714286,0.081
0.465041863148,0.547371734631,-0.124010514642,-1.35639764161,0.0795660249298,1.89426190357,0.159145189652,-0.00330281549784,-0.00633019558918,0.000306046038816,-0.014548741138,0.000219106232484,0.00264387110549,-0.00997390196122,0.57388443861,0.818922091246,0.00200162220931,0.0,0.818878751198,-0.573824792752,-0.011976851077,0.0,-0.00865969420705,0.00851257824528,-0.999926270136,0.0,0.66160026717,0.26081670424,0.303250546864,1.0,-0.00196,-0.002576,0.099
0.465025429556,0.547185842083,-0.124011233714,-1.35659992022,0.079563426266,1.89436866992,0.159132468264,-0.00231650787527,-0.0175015511392,-0.00143832074142,-0.0123842874968,-0.000222948384625,0.00835175651219,-0.00173567899781,0.57389874717,0.818911859058,0.00208374478737,0.0,0.818869557886,-0.573838726236,-0.0119377695057,0.0,-0.00858041276391,0.0085575508955,-0.999926569724,0.0,0.661584691685,0.260790690866,0.30329523279,1.0,-0.00228,-0.00299657142857,0.115
0.465000651085,0.546979923242,-0.124008520117,-1.35687823528,0.0795618143315,1.89451110905,0.159113317554,0.00118955784695,-0.0056445989997,-0.000370189691662,-0.017429778779,0.000436002042542,0.0105882690909,-0.00667119870164,0.573916845354,0.818899000848,0.00215126241006,0.0,0.818857487987,-0.573856454595,-0.0119134708974,0.0,-0.00852157766173,0.00859908452677,-0.999926716544,0.0,0.661560638892,0.260754957334,0.303320892803,1.0,-0.00262,-0.00344342857143,0.132
0.464960078195,0.546716494021,-0.12401369892,-1.35725819688,0.0795539071118,1.89465438281,0.159080123765,2.18863870089e-05,-0.0154323055961,0.000367592201691,-0.0218197715554,6.52965703003e-05,0.00954421486851,-0.00149944019093,0.573945671793,0.818878718354,0.00218113703574,0.0,0.818837492455,-0.57388505321,-0.0119102289455,0.0,-0.0085014747501,0.00862198713435,-0.999926690445,0.0,0.661521212563,0.260691924329,0.303339213316,1.0,-0.00298,-0.00391657142857,0.15
0.464924395229,0.54645505316,-0.124012886531,-1.35764482652,0.0795447053431,1.89480274028,0.158957327118,-0.00505229408164,-0.0173630868765,-0.000230775522025,-0.023638334501,-8.55031826042e-06,0.00976633364849,-0.00303655857384,0.573892986943,0.818915565589,0.00220972291984,0.0,0.818874582291,-0.573832127913,-0.0119102625458,0.0,-0.00848565275892,0.00864486852115,-0.999926627281,0.0,0.661478613124,0.260634912155,0.303353177691,1.0,-0.0033,-0.00433714285714,0.166
0.464888834266,0.546157152401,-0.124010552094,-1.35812078741,0.0795297419409,1.89496715037,0.158931950946,-0.000483963119876,-0.020659496142,0.00149440313324,-0.0282490439643,2.47228159294e-05,0.0090505702039,-0.0021030644858,0.573922296715,0.818895034935,0.00220589965272,0.0,0.818853849258,-0.573861294084,-0.0119304488271,0.0,-0.00850406860943,0.00865362662255,-0.999926395073,0.0,0.661419580325,0.260568887882,0.303351757728,1.0,-0.00364,-0.004784,0.183
0.46484404728,0.545843011813,-0.124010953116,-1.35863748411,0.07951431696,1.89514181463,0.158890002805,-0.00358725108477,-0.0182743065849,0.000141689041179,-0.0378609770587,-0.000598554691719,0.0153383789488,0.000255247234392,0.57394963278,0.818875917355,0.0021904131555,0.0,0.818834362745,-0.573888520011,-0.0119582560885,0.0,-0.00853543929403,0.0086571889287,-0.999926096947,0.0,0.661356682526,0.260491175995,0.303343407886,1.0,-0.00396,-0.00520457142857,0.199
0.464781348059,0.54549358975,-0.124013723944,-1.35925642187,0.0794260822841,1.8953412343,0.158767923938,-0.0101356090833,-0.021888324956,-0.000747767639378,-0.0430199110466,-0.00233745275825,0.0135223343789,-0.00410131846245,0.573913989592,0.818901130039,0.00210206408862,0.0,0.818858836636,-0.573853660508,-0.0119552869221,0.0,-0.0085840860688,0.00858276541312,-0.999926322088,0.0,0.6612853946,0.260378457951,0.303313444344,1.0,-0.0043,-0.00565142857143,0.216
0.464725835891,0.54507798148,-0.124013332956,-1.35999224489,0.0793792437764,1.89557242499,0.158718233912,-0.00234147157101,-0.020774337078,0.000142357544371,-0.044839093166,-0.000357564712446,0.0105334129034,-0.00536854354652,0.573946952268,0.818878223711,0.002024256725,0.0,0.818834866514,-0.573886895556,-0.0120016411738,0.0,-0.00866635505248,0.00854600189614,-0.999925927327,0.0,0.661190331434,0.260268180947,0.303277406392,1.0,-0.00466,-0.00612457142857,0.234
0.464657013361,0.544695588222,-0.124011301734,-1.36063106707,0.0793657922661,1.89578900146,0.15862789486,-0.00446505496034,-0.0263015500132,0.000293230104351,-0.0454125628684,-0.00171259239785,0.00948658759519,-0.0116744387878,0.57395991155,0.818869188951,0.00200455000858,0.0,0.818825296682,-0.573899663744,-0.0120439349632,0.0,-0.00871216441538,0.00855427679803,-0.999925458492,0.0,0.661114919012,0.260165558476,0.303262728957,1.0,-0.00496,-0.00651885714286,0.249
0.464592658529,0.544235183189,-0.124009486659,-1.3613883714,0.0793383954812,1.89607181695,0.158532768131,-0.00202403223984,-0.0287448575583,0.000592288949629,-0.047883736226,-0.00141710527556,0.0238148190009,-0.00275447061623,0.573968469935,0.818863196548,0.00200193920409,0.0,0.818819086721,-0.573908052245,-0.0120663868285,0.0,-0.00873195917714,0.00856511652141,-0.999925193036,0.0,0.66102711242,0.260054969683,0.303252566579,1.0,-0.0053,-0.00696571428571,0.266
0.464517603158,0.543735291044,-0.124014787513,-1.3622152972,0.0793062056485,1.89636092324,0.1584196355,-0.00585522523392,-0.0293125777073,0.00068059196201,-0.052332049803,-0.000556482167844,0.0193734457175,-0.00117457815933,0.573978469966,0.818856245991,0.00197770535284,0.0,0.818811646108,-0.573917986664,-0.0120987471422,0.0,-0.00877226288494,0.00856395343128,-0.999924850229,0.0,0.660930150173,0.259925092672,0.303237933028,1.0,-0.00564,-0.00741257142857,0.283
0.464430732577,0.543199545616,-0.124022661623,-1.36307094264,0.0792534532468,1.89665020461,0.15832852662,-0.00809740345122,-0.033616931937,-0.00143750795997,-0.0521769859276,-0.00829824763196,0.0156407340918,-0.00802870341505,0.574013945382,0.818831446428,0.00194929449912,0.0,0.818786478196,-0.573953585245,-0.0121132988686,0.0,-0.00880011489657,0.00854942305593,-0.999924729839,0.0,0.660832240836,0.259779672196,0.303234996963,1.0,-0.00598,-0.00785942857143,0.3
0.464354415194,0.542634116885,-0.124020509302,-1.36397397461,0.0792006704898,1.89697917108,0.15820358435,-0.0062053422348,-0.0377283563858,-0.000653881734443,-0.0512288025183,-0.000223159526161,0.0221233174245,-0.0022749371994,0.574008788624,0.818835076315,0.00194300793116,0.0,0.818789979839,-0.573948412164,-0.0121217156715,0.0,-0.00881066929268,0.00854905134913,-0.999924640074,0.0,0.660726940687,0.259644497571,0.30323355442,1.0,-0.00632,-0.00830628571429,0.317
0.464274987997,0.54206926568,-0.124023704156,-1.36484220797,0.079157376938,1.89730356283,0.158089107665,-0.00441021921885,-0.0329084250122,0.0013576186573,-0.0581182464851,-0.00268996974686,0.0209402401721,-0.0013133243893,0.574019061742,0.81882782233,0.0019649521187,0.0,0.818782944121,-0.573958520439,-0.0121183387301,0.0,-0.00879520123675,0.00856519161503,-0.999924638124,0.0,0.660630106877,0.259509528679,0.303247986017,1.0,-0.00664,-0.00872685714286,0.333
0.46418364453,0.541424205722,-0.12402968256,-1.36581056007,0.0790965455903,1.89766600721,0.157957614683,-0.00155820238586,-0.0380180393387,-0.000467261759174,-0.0536487702235,-0.00532544670306,0.0269532531326,-0.00842510192778,0.574027907598,0.818821546599,0.0019957518468,0.0,0.818777126283,-0.573967284178,-0.012096324616,0.0,-0.00875940360848,0.0085778690214,-0.999924843682,0.0,0.660524446458,0.259353998658,0.303274762848,1.0,-0.00698,-0.00917371428571,0.35
0.464098222749,0.540729448612,-0.124037534023,-1.36686408012,0.0790282778728,1.89806031604,0.157811824945,-0.00712326451922,-0.0491364872812,-0.00414889714422,-0.0595655410375,-0.010390220882,0.0182684990808,-0.00598604342315,0.574024190464,0.81882408899,0.00202162131297,0.0,0.818780089608,-0.573963536608,-0.0120735416147,0.0,-0.00872593779639,0.00858593353701,-0.99992506707,0.0,0.660405919439,0.259192803244,0.30329885539,1.0,-0.00732,-0.00962057142857,0.367
0.464001563476,0.540002771421,-0.124033835787,-1.36797817693,0.0789678178766,1.89846439662,0.157681527846,-0.00419547983774,-0.0413349588659,-0.000181911997565,-0.0673358583727,-0.0012099710418,0.0223333186468,-0.0109986906349,0.574039551489,0.818813273056,0.00204061146387,0.0,0.81876942221,-0.573978715609,-0.0120753543407,0.0,-0.00871636068087,0.00860268688741,-0.999925006605,0.0,0.660275813096,0.259026045893,0.303317051535,1.0,-0.00766,-0.0100674285714,0.384
0.463908571245,0.539301246393,-0.124035425932,-1.36905249917,0.0789065350004,1.89888017699,0.157547140232,-0.00934250871677,-0.042548626603,1.9461363916e-06,-0.0697534196051,-0.00252500703582,0.0288542958472,-0.0096715394118,0.57404994775,0.818805890561,0.00207797298109,0.0,0.8187625239,-0.573988946382,-0.0120567735766,0.0,-0.00867959081271,0.00862272265843,-0.999925153878,0.0,0.660156674176,0.258863704009,0.303337477433,1.0,-0.00798,-0.010488,0.4
0.463812300893,0.538527774127,-0.124039164964,-1.37024133278,0.078833681276,1.89934089338,0.157404856789,-0.00316507632262,-0.0473934220038,-9.3048383233e-05,-0.0713919751322,-0.00701474608758,0.0279278049016,-0.00859434651705,0.574061233385,0.818797886074,0.00211399776292,0.0,0.81875504153,-0.574000129133,-0.012032482085,0.0,-0.00863890223213,0.00863839414841,-0.999925370973,0.0,0.660023665218,0.258686490117,0.30335806456,1.0,-0.00832,-0.0109348571429,0.417
0.463695293665,0.537750924057,-0.12404181697,-1.37145898782,0.0787663938795,1.89981708368,0.157256528091,-0.000869314683242,-0.0425015030407,-0.00573179989231,-0.0741990358105,-0.000577478598866,0.0264396112615,-0.0114672433904,0.574086836679,0.818779853698,0.00214523462165,0.0,0.818737401207,-0.574025582047,-0.0120185657374,0.0,-0.00860930569958,0.00865625086434,-0.999925471811,0.0,0.659891709245,0.258494800935,0.303368509664,1.0,-0.00866,-0.0113817142857,0.434
0.463598572434,0.536916028059,-0.124050302671,-1.37275888915,0.0786996435976,1.90028995952,0.157096364255,-0.00357911810337,-0.0512199814708,-0.000360152601171,-0.0786870157823,-0.00760831228331,0.0351643359085,-0.0105433149181,0.574094577797,0.818774397028,0.00215625055497,0.0,0.818731999829,-0.574033186969,-0.0120232947103,0.0,-0.0086067722058,0.00866806651659,-0.999925391264,0.0,0.659737340855,0.25830399107,0.303380556918,1.0,-0.009,-0.0118285714286,0.451
0.463483176492,0.536066267204,-0.124046107949,-1.37408045369,0.0786145964595,1.90078299096,0.15692522194,-0.00234440203292,-0.0508956403236,0.000525063788669,-0.0794415901021,-0.000397871937248,0.0289456371111,-0.00965405603016,0.574095928615,0.818773408344,0.00217196623306,0.0,0.818731235455,-0.57403449127,-0.0120130689039,0.0,-0.00858936321134,0.0086750775674,-0.999925480158,0.0,0.659585002747,0.258104271727,0.30339393043,1.0,-0.00934,-0.0122754285714,0.468
0.463366505696,0.535220745471,-0.124046531503,-1.37541459049,0.0785424769856,1.90126907916,0.15676404697,-0.00690737200243,-0.0541662161901,0.00244317459722,-0.0853591059086,-0.00183870936017,0.0274054117252,-0.00575670288281,0.574119530693,0.81875684956,0.00217547138321,0.0,0.818714612027,-0.574057964191,-0.0120243379615,0.0,-0.00859632789992,0.00868466468352,-0.999925337086,0.0,0.659417903723,0.257888755055,0.303401257848,1.0,-0.00968,-0.0127222857143,0.485
0.463238703209,0.53427617676,-0.124054561485,-1.37696668076,0.0784625211066,1.90182725389,0.156580239941,-0.00786606209125,-0.0560903742693,-0.00213154097592,-0.0855831124346,-0.00443813715369,0.0225813197957,-0.0120484889744,0.574137228411,0.818744542823,0.00213622366594,0.0,0.818701665209,-0.574075696604,-0.0120592228055,0.0,-0.0086472352596,0.00867274560811,-0.999925001591,0.0,0.659243225903,0.257665269059,0.30337404901,1.0,-0.01002,-0.0131691428571,0.502
0.463105149974,0.533348677317,-0.124053125863,-1.37844939216,0.0783740284414,1.90237845596,0.156391666295,-0.00841541408561,-0.0530838168522,-3.54710833054e-05,-0.0879680279907,-0.00136329386911,0.0316729576788,-0.00833826245946,0.574145564486,0.818738717349,0.00212847271123,0.0,0.81869570719,-0.574084033205,-0.0120668450159,0.0,-0.00865783770231,0.00867086395575,-0.999924926164,0.0,0.659061272433,0.257423302274,0.303367921783,1.0,-0.01038,-0.0136422857143,0.52
0.462957680167,0.53230970647,-0.124052558802,-1.38016782975,0.0782762268155,1.90302341198,0.15617757119,-0.00932325691759,-0.0524009295434,8.18654380942e-05,-0.0902224021937,-0.00666394002918,0.030204809513,-0.0103122831988,0.574161550005,0.818727570408,0.00210400844632,0.0,0.818684157596,-0.574100038413,-0.0120889576629,0.0,-0.00868981891221,0.0086636998552,-0.999924710842,0.0,0.658870449279,0.257178036182,0.303340720331,1.0,-0.01074,-0.0141154285714,0.538
0.462848496047,0.531508685359,-0.124047738992,-1.38146292887,0.0782046142606,1.90349393615,0.156006946647,-0.00713865839334,-0.0577238887664,0.00143686791359,-0.0920228823349,-0.00156549544606,0.0318575699749,-0.011724863081,0.574159263094,0.818729214931,0.00208809058537,0.0,0.818685472041,-0.574097699046,-0.0121110164904,0.0,-0.00871704285281,0.00866330852552,-0.999924477273,0.0,0.658714306837,0.256986021861,0.303329536823,1.0,-0.01102,-0.0144834285714,0.552
0.462720522642,0.530547022794,-0.124056234063,-1.38300336145,0.0781097274303,1.90403690162,0.155816163593,-0.0113424874051,-0.0622564290678,-0.00105128573463,-0.0912652431487,-0.00768648660619,0.0349253757276,-0.011028776636,0.574172053478,0.818720329906,0.00205458147492,0.0,0.818676139376,-0.574110624273,-0.0121291720302,0.0,-0.00875101115692,0.00864643491215,-0.99992432662,0.0,0.658528401579,0.25674806482,0.303321311198,1.0,-0.01134,-0.014904,0.568
0.462570783746,0.529513453838,-0.124058824456,-1.38464640445,0.0780006344297,1.90463953361,0.155586986248,-0.00653460326728,-0.0578463580072,0.000734723484014,-0.0917489939763,-0.0078523526539,0.0313899680237,-0.0153775549225,0.574168753207,0.818722675151,0.00204228650469,0.0,0.818678389667,-0.574107443198,-0.0121278546411,0.0,-0.00875702631198,0.00863557726686,-0.999924367788,0.0,0.658336913891,0.256489748394,0.303319648931,1.0,-0.01168,-0.0153508571429,0.585
0.462429421942,0.528353496837,-0.12406205594,-1.38643304086,0.0778943547662,1.90532639109,0.155344090731,-0.0102323181237,-0.0666028613908,0.00167457065274,-0.0974315108537,-0.000502570848699,0.036521196468,-0.0194846906528,0.57415635699,0.818731240898,0.00209279860292,0.0,0.818687634496,-0.574094847468,-0.0121000056285,0.0,-0.00870535533346,0.00866081023638,-0.999924600735,0.0,0.658129331084,0.256227365053,0.30334570895,1.0,-0.01204,-0.015824,0.603
0.462293649336,0.527294103194,-0.124060537665,-1.38807938181,0.077794819446,1.90596029305,0.15510775503,-0.0135658233147,-0.067111709223,0.000819637043002,-0.104612846097,-0.00718815564111,0.0403175451187,-0.0185092044252,0.574135406363,0.818745831072,0.00213217349281,0.0,0.81870274618,-0.574073737311,-0.012079090512,0.0,-0.00866584703868,0.00868081696614,-0.999924770426,0.0,0.657937979198,0.255984283043,0.303362727189,1.0,-0.01236,-0.0162445714286,0.619
0.462142237667,0.526129391579,-0.124065966334,-1.38988789317,0.0776832319708,1.90663757735,0.154878163415,-0.0096141077267,-0.0719761249661,-0.00168825212396,-0.109152964178,-0.00764675714479,0.0410512427276,-0.0139457396315,0.574142866897,0.818740532801,0.002157600959,0.0,0.818697815688,-0.574081124394,-0.012062176564,0.0,-0.00863732117742,0.00869200317374,-0.999924920063,0.0,0.657725771638,0.255710039442,0.303380377957,1.0,-0.0127,-0.0166914285714,0.636
0.46199791669,0.525020113133,-0.124073716074,-1.39162111329,0.0775677875365,1.90725560026,0.154645166267,-0.00842610736083,-0.0740357281265,-0.00152193396353,-0.104632319291,-0.00488193175773,0.0358582868375,-0.00935305882147,0.574137800159,0.818744117205,0.00214566375175,0.0,0.818701314395,-0.574076179535,-0.0120600497363,0.0,-0.00864248672028,0.00868095529451,-0.999924971405,0.0,0.65751631358,0.255442738737,0.303389496378,1.0,-0.01302,-0.017112,0.652
0.461838293177,0.523844234963,-0.124077620559,-1.39351605892,0.0774537207389,1.90793652744,0.154377288338,-0.0122477724344,-0.0685723866558,0.000418599216714,-0.104872197143,-0.0106501668767,0.0413350000087,-0.00789194100626,0.574122972749,0.818754601048,0.00211242189327,0.0,0.818711304651,-0.574061436424,-0.0120836148782,0.0,-0.00868102246899,0.00866711144838,-0.999924757683,0.0,0.657285544176,0.255153803567,0.303373565509,1.0,-0.01336,-0.0175588571429,0.669
0.461660314868,0.522475102458,-0.124081237846,-1.39568050229,0.0773231758748,1.90876472098,0.154091010303,-0.0092503812204,-0.0778583553028,-0.00116139732739,-0.115601630302,-0.0108791255497,0.0533009674055,-0.0186069539372,0.574117926755,0.818758073196,0.00213790930717,0.0,0.818715126601,-0.574056298983,-0.0120687187916,0.0,-0.0086542472604,0.00867937360515,-0.999924883418,0.0,0.65703067674,0.254830857218,0.303377605126,1.0,-0.01374,-0.0180582857143,0.688
0.461508955173,0.521305561736,-0.124084430915,-1.39755533427,0.0772063514516,1.90949485225,0.15382103869,-0.00867337985633,-0.0749873677082,0.000410467392045,-0.115579505013,-0.00198562090223,0.042818442676,-0.0195083644838,0.574092103517,0.818776137581,0.00215409127835,0.0,0.818733462906,-0.574030471192,-0.012053288405,0.0,-0.00863259709811,0.00868349149057,-0.999925034812,0.0,0.656810875585,0.254553006698,0.303370365487,1.0,-0.01406,-0.0184788571429,0.704
0.461338252613,0.520017356682,-0.124085117142,-1.39959787652,0.077078157283,1.9102355672,0.153562227093,-0.0115998122394,-0.0750339459746,0.002533497419,-0.123652921103,-0.00640601815221,0.0443017291623,-0.00987034340522,0.574094693947,0.818774359088,0.00213966878533,0.0,0.81873147726,-0.574033103574,-0.0120627959479,0.0,-0.00864863382062,0.00867716839572,-0.999924951125,0.0,0.65656104153,0.254244535757,0.30336713178,1.0,-0.0144,-0.0189257142857,0.721
0.461174047244,0.518725271968,-0.124090828212,-1.40155928238,0.0769533281753,1.91093598607,0.153293061957,-0.0115418272445,-0.0832477700961,0.000279933625075,-0.123592716503,-0.00525009474264,0.0462627708552,-0.0115378943802,0.574083158993,0.818782384082,0.00216355705048,0.0,0.818739831327,-0.574021486105,-0.0120486094478,0.0,-0.00862342696288,0.00868846138767,-0.999925070766,0.0,0.656321048938,0.253944958017,0.303401467963,1.0,-0.01472,-0.0193462857143,0.737
0.46101018281,0.517474391088,-0.124098939126,-1.40354908815,0.0768206968402,1.91164735618,0.153029027229,-0.0068750218246,-0.0827111781378,0.000633286345672,-0.126926817014,-0.0100319193175,0.0532414051487,-0.0160339990235,0.574076435807,0.818787181001,0.0021318962257,0.0,0.818744281009,-0.574014964365,-0.0120569441032,0.0,-0.00864849744808,0.00866725221144,-0.999925038306,0.0,0.656075632138,0.253639830517,0.303394081055,1.0,-0.01504,-0.0197668571429,0.753
0.460817788824,0.516117477807,-0.124107956728,-1.40570131479,0.0766899752457,1.91245045634,0.152728122006,-0.0145128977431,-0.0791568422931,-0.00160360105416,-0.126893635559,-0.00325051714193,0.0501110303464,-0.0158554248014,0.574072656619,0.818789821336,0.00213548583248,0.0,0.818746978567,-0.574011180797,-0.0120538918348,0.0,-0.00864397762089,0.00866839917486,-0.999925067446,0.0,0.655819450364,0.25330410686,0.303391399392,1.0,-0.01538,-0.0202137142857,0.77
0.460634528273,0.514736955232,-0.124106651984,-1.40790794228,0.0765542863172,1.91327779375,0.152419302073,-0.0119563144435,-0.0817000940962,-3.01517395612e-05,-0.131024485183,-0.00321153025962,0.0463621120602,-0.0202443917761,0.574048798015,0.818806550989,0.00213458579484,0.0,0.818763671803,-0.573987304328,-0.0120569941305,0.0,-0.00864728712015,0.00866919120026,-0.999925031965,0.0,0.655550612921,0.252975150525,0.303380742376,1.0,-0.01572,-0.0206605714286,0.787
0.460415431152,0.51317169781,-0.124112054152,-1.41045086499,0.0763933092506,1.91415600645,0.152071474814,-0.00757219068765,-0.0863161632547,-0.0012483036945,-0.134125390714,-0.0169694458991,0.0399309555521,-0.0200719524126,0.574037082607,0.818814989957,0.00204619539709,0.0,0.818770875299,-0.573975890457,-0.0121110625967,0.0,-0.00874242109206,0.00862773034711,-0.999924563326,0.0,0.655227842587,0.252580838584,0.303343667866,1.0,-0.0161,-0.02116,0.806
0.460228998282,0.511824188695,-0.124112810801,-1.41258103924,0.076273641271,1.9149233026,0.151777010428,-0.0106279197663,-0.0810876723247,-0.000810725167237,-0.136590765314,-0.00539961110272,0.0522733400114,-0.0142559768356,0.574028476508,0.81882104139,0.00203893013515,0.0,0.81877666622,-0.573967154023,-0.0121335838711,0.0,-0.00876512361003,0.00863461732599,-0.999924305131,0.0,0.654962946969,0.252255911334,0.303340223005,1.0,-0.01642,-0.0215805714286,0.822
0.460025630631,0.510352732516,-0.124118474048,-1.41490654084,0.0761243845218,1.91582701896,0.151431066151,-0.0103092401078,-0.080610031668,-0.000242882449741,-0.133429285791,-0.00924477954941,0.0540227861872,-0.0166995078978,0.573997217872,0.818842867336,0.00207349704723,0.0,0.818799058021,-0.573935861226,-0.0121027552162,0.0,-0.00872036836449,0.00864489169275,-0.99992460767,0.0,0.654688148407,0.251899974826,0.303342119078,1.0,-0.01676,-0.0220274285714,0.839
0.459848902207,0.509033576497,-0.124124540299,-1.41701180427,0.0759903743035,1.91658497728,0.151147926164,-0.0114548538691,-0.093586134446,-0.000712044557219,-0.145168399231,-0.011362059498,0.0470103288187,-0.0152175589711,0.573987717287,0.818849598593,0.00204503991425,0.0,0.81880541546,-0.573926483821,-0.0121173299193,0.0,-0.00874873661349,0.00862985444807,-0.999924489759,0.0,0.654424473921,0.251578097679,0.303329182917,1.0,-0.01706,-0.0224217142857,0.854
0.459640350263,0.507521615277,-0.124122736507,-1.41939233313,0.0758434499619,1.91743407239,0.150817216305,-0.0130412400676,-0.0941332006132,0.00176253387449,-0.139663761537,-0.0117191206507,0.052151832704,-0.0241772059113,0.573970098973,0.818861987942,0.00202906144755,0.0,0.818817500758,-0.573908844086,-0.0121361457509,0.0,-0.00877350104263,0.00862738190497,-0.999924294115,0.0,0.654124330098,0.251214045394,0.303327304962,1.0,-0.0174,-0.0228685714286,0.871
0.459423750451,0.505951877056,-0.12413445681,-1.42182966518,0.075687939972,1.91833745347,0.150483674881,-0.0141043195709,-0.0939847985474,-0.00078317963191,-0.145566860947,-0.0111739921162,0.0516302810085,-0.0199328491271,0.573966756074,0.818864270946,0.00205319027535,0.0,0.818820173522,-0.573905469156,-0.0121153954568,0.0,-0.00874269566367,0.00863519410065,-0.999924496497,0.0,0.653827499199,0.250833191502,0.303343347993,1.0,-0.01774,-0.0233154285714,0.888
0.459215692338,0.504412997066,-0.12414120954,-1.42415885527,0.0755400980217,1.91923996813,0.150164425358,-0.0134593252106,-0.0983121583426,-0.000123827022714,-0.144390343104,-0.00608554347246,0.0570095839641,-0.0203895402783,0.57396085326,0.818868177266,0.0021433822716,0.0,0.818825373436,-0.573899293826,-0.012056337103,0.0,-0.00864263161344,0.00867508834214,-0.99992502107,0.0,0.653550973976,0.250474451982,0.303388450078,1.0,-0.01806,-0.023736,0.904
0.458966865867,0.502643544908,-0.124144835374,-1.42678208993,0.0753754202211,1.92023166948,0.149797601625,-0.00686386905047,-0.0971353059047,0.000869113347208,-0.154484499842,-0.00981628272732,0.0537741561549,-0.0170335528095,0.573957067413,0.818870520141,0.00225896263678,0.0,0.818829288806,-0.573895091012,-0.0119902963962,0.0,-0.00852225675838,0.00873178824024,-0.999925560736,0.0,0.653237045633,0.250062499307,0.303461601087,1.0,-0.01842,-0.0242091428571,0.922
0.458749515677,0.501039482379,-0.124149636581,-1.42920854264,0.0752178605737,1.92106984765,0.149465702423,-0.01574135826,-0.0980350405678,4.6432312018e-05,-0.149571491168,-0.00427513228672,0.0470338035199,-0.0203173566732,0.573947751359,0.818877018465,0.00227029540872,0.0,0.818835909632,-0.573885703721,-0.0119874544337,0.0,-0.00851352477913,0.00873934018228,-0.999925569145,0.0,0.652926285873,0.249682575958,0.303499052104,1.0,-0.01874,-0.0246297142857,0.938
0.458482437499,0.499132197995,-0.12414538585,-1.43211762764,0.0750375715154,1.92213326784,0.149047232881,-0.0163805962447,-0.100909324306,0.000822770742199,-0.155017864862,-0.00758330623286,0.0516832356345,-0.0228342651086,0.573920203988,0.818896173588,0.00232448661338,0.0,0.81885570416,-0.573857869862,-0.0119677843498,0.0,-0.00846661088241,0.00877214124884,-0.999925680257,0.0,0.652562570211,0.249233865005,0.303536943481,1.0,-0.01912,-0.0251291428571,0.957
0.458246032475,0.497557065207,-0.124147528425,-1.43460421369,0.0748843792739,1.92305963151,0.148681649719,-0.0112222153283,-0.10271616734,0.00110206237747,-0.156518924909,-0.00989039188245,0.0526765468363,-0.0201486566823,0.573900991638,0.818909606056,0.00233576678529,0.0,0.818869253119,-0.57383858266,-0.0119655441905,0.0,-0.00845850883028,0.0087798943195,-0.99992568078,0.0,0.652255807315,0.248842336099,0.303532029407,1.0,-0.01944,-0.0255497142857,0.973
0.457978669611,0.495883961186,-0.124148108627,-1.43729814639,0.0747227538448,1.92399724839,0.148278440968,-0.0132499437081,-0.100588256364,0.000306888323507,-0.163425020356,-0.00826285618623,0.051668268938,-0.02381923922,0.57388264413,0.818922652552,0.00226865709684,0.0,0.818881224686,-0.573820306269,-0.0120225983707,0.0,-0.00854394113549,0.00875748985295,-0.999925150919,0.0,0.651910315952,0.24840787713,0.303497107317,1.0,-0.01978,-0.0259965714286,0.99
0.457742567318,0.494414795783,-0.124150581484,-1.4397134373,0.0745658540199,1.92483843194,0.147938817067,-0.0159389236181,-0.0955607619348,0.000139103219571,-0.16181535307,-0.00889149446799,0.0555243656508,-0.0191154593091,0.573878715327,0.818925660899,0.00217460730757,0.0,0.81888292917,-0.573816695992,-0.0120786843336,0.0,-0.00864388499193,0.00871261639488,-0.999924683948,0.0,0.651598938773,0.248017422911,0.303443909063,1.0,-0.0229422857143,-0.0301527183673,1.005
0.457425113582,0.492014704038,-0.124238453832,-1.44329199582,0.0743618512372,1.92617434143,0.147424653104,-0.0209098827474,-0.163252646803,-0.00295381127312,-0.240563873363,-0.0116395823484,0.0919101609784,-0.0331621396106,0.573905764754,0.818906362379,0.00229994311585,0.0,0.818865505837,-0.573843462949,-0.0119879223433,0.0,-0.00849734215662,0.00876345054678,-0.99992549578,0.0,0.651168946619,0.247424133103,0.303529527372,1.0,-0.035532,-0.0466992,1.022
0.456994158882,0.488702095745,-0.124269620678,-1.44856027113,0.0740923190315,1.92818626398,0.146620529252,-0.038527808045,-0.216668092999,-0.000184313234568,-0.348541170306,-0.0121907312212,0.129435069722,-0.0529408082052,0.573814535349,0.818970097305,0.00236762429295,0.0,0.818929741915,-0.573751573714,-0.0119981819375,0.0,-0.00846788709789,0.00882381903056,-0.999925214756,0.0,0.650502481695,0.246637261506,0.303501168464,1.0,-0.0481217142857,-0.0632456816326,1.039
0.456345878806,0.484244155481,-0.12436013771,-1.45556063218,0.0736735417163,1.93081859862,0.145564049107,-0.0425647676352,-0.280506502018,-0.00836863401866,-0.445541344007,-0.0285875784531,0.165027080299,-0.0650566101418,0.57377970407,0.818994319108,0.00242968466091,0.0,0.818954958957,-0.573716692363,-0.0119448317745,0.0,-0.00838896023237,0.00884367461065,-0.999925704623,0.0,0.649635572152,0.245502804034,0.303496291192,1.0,-0.0607114285714,-0.0797921632653,1.056
0.455554212897,0.479116123869,-0.124523312121,-1.46376392958,0.0731851499827,1.93364066105,0.144329657279,-0.0529225995449,-0.346783296692,-0.0113644876458,-0.542969802582,-0.0298932910961,0.185691315994,-0.086331551865,0.573804502725,0.818977600621,0.00219755217294,0.0,0.818935165948,-0.573742392822,-0.0120667954927,0.0,-0.00862177237361,0.00872380230085,-0.999924777328,0.0,0.64857400114,0.244102192068,0.30339744233,1.0,-0.0725605714286,-0.095365322449,1.072
0.454453031133,0.472163329515,-0.124673159027,-1.47462112696,0.072541687841,1.9374694473,0.142765065389,-0.0635906426711,-0.401090815843,-0.00436414907006,-0.63349778501,-0.0306162643205,0.225504239315,-0.0863399044621,0.573884124202,0.818921991379,0.00212859741392,0.0,0.81887844775,-0.573822090646,-0.0121261287372,0.0,-0.00870908495189,0.00870222286129,-0.999924208706,0.0,0.647172012624,0.242263609318,0.303377430931,1.0,-0.0858908571429,-0.112885126531,1.09
0.453301377339,0.464992940406,-0.124777057849,-1.48545659157,0.0718941525984,1.94154797765,0.141031492755,-0.0787863213593,-0.464970904338,-0.0036931867443,-0.703999829142,-0.0487880071676,0.256119279963,-0.113462243324,0.573824301479,0.818962923043,0.00247964017804,0.0,0.818924073635,-0.573760937819,-0.0119371166983,0.0,-0.00835349614065,0.0088806156662,-0.999925674122,0.0,0.645812742036,0.240443037106,0.303525937896,1.0,-0.09774,-0.128458285714,1.106
0.451827893964,0.456517381647,-0.124847786544,-1.49870313259,0.0710542545983,1.94613678739,0.139008529873,-0.0902742862913,-0.516311865712,-0.00617255275803,-0.787556456159,-0.0516974323756,0.271314620655,-0.126905611599,0.573814670888,0.818970126707,0.00232420676435,0.0,0.818928715752,-0.573751381643,-0.0120771470432,0.0,-0.00855747055977,0.00883357389019,-0.999924365975,0.0,0.644041018116,0.238175531423,0.303456181364,1.0,-0.110329714286,-0.145004767347,1.123
0.450055024605,0.446302124578,-0.125019879978,-1.51410046639,0.0699822234551,1.95163385851,0.13659486023,-0.102187361766,-0.583290314548,-0.00431433370744,-0.877163844072,-0.0590966430103,0.312781998742,-0.129366315976,0.573822786428,0.818963849823,0.00252375902324,0.0,0.81892597229,-0.573759675915,-0.0118673124106,0.0,-0.00827102794248,0.00887667699032,-0.999926394642,0.0,0.64202345512,0.235454989797,0.303617896686,1.0,-0.12366,-0.162524571429,1.141
0.448410032718,0.437111435651,-0.125117895273,-1.52827719666,0.0690689689208,1.9564588489,0.134349769708,-0.111520162278,-0.639461640851,-0.002327721238,-0.962406180728,-0.0639279217336,0.314676641671,-0.150724578173,0.573783735619,0.81899161195,0.00238981083985,0.0,0.818951374232,-0.573720508377,-0.0120071567562,0.0,-0.00846284011259,0.00884682045788,-0.999925054244,0.0,0.640061244265,0.23297812364,0.303576865559,1.0,-0.134768571429,-0.177124408163,1.156
0.44603217354,0.424340036323,-0.125270142871,-1.54737962955,0.0677592644266,1.96320391435,0.131180666347,-0.13466894263,-0.691600368186,-0.00712454240332,-1.03386910859,-0.0720327119707,0.357678329104,-0.179830940666,0.573712769862,0.819040360998,0.00270030617758,0.0,0.819004572922,-0.573648785639,-0.0118036930102,0.0,-0.00811882993719,0.00898366548261,-0.99992668649,0.0,0.63746534194,0.229545005614,0.303772350079,1.0,-0.148839428571,-0.195617534694,1.175
0.443901495148,0.413518197126,-0.125406979015,-1.56354148187,0.066576636137,1.96892787657,0.128490020239,-0.149466360038,-0.748105931445,-0.0130684670974,-1.09284340906,-0.0867715705492,0.398377716748,-0.190817649331,0.573703036556,0.81904630809,0.00295261790196,0.0,0.819014690716,-0.573639198206,-0.0115651880574,0.0,-0.00777883698161,0.00905339525055,-0.999928760327,0.0,0.635253940408,0.22656097202,0.303919260988,1.0,-0.159948,-0.210217371429,1.19
0.441254710432,0.400582277761,-0.125536868566,-1.5831079544,0.0652765595419,1.97553281848,0.125197408653,-0.167179116839,-0.780914924286,-0.00587387358314,-1.16277120045,-0.0791876183854,0.396875949145,-0.195272193942,0.573704983813,0.819044973455,0.0029444706004,0.0,0.819012401424,-0.573640187109,-0.0116777115802,0.0,-0.00787565593586,0.00911129469111,-0.999927476546,0.0,0.632444743884,0.222940015482,0.30391908106,1.0,-0.172537714286,-0.226763853061,1.207
0.438464075736,0.387599459476,-0.125684783596,-1.60251343393,0.0638533508437,1.98219789825,0.121857035112,-0.178560679836,-0.794139332431,-0.00389137906469,-1.24435776723,-0.0987269772547,0.406299432572,-0.216216252538,0.573723271714,0.819031627376,0.00308994376213,0.0,0.819001357121,-0.573658482303,-0.0115529051559,0.0,-0.00768977031367,0.00915901501788,-0.999928487381,0.0,0.629664028714,0.219239595749,0.303990134299,1.0,-0.184386857143,-0.242337012245,1.223
0.435249510461,0.373027740114,-0.125831171103,-1.62414153907,0.0622383994951,1.98939535517,0.117937491896,-0.193085800656,-0.882838569617,-0.00916081758379,-1.31126394531,-0.0936153284709,0.424170640622,-0.234824911528,0.573607862321,0.819112202803,0.00315696110657,0.0,0.819082894549,-0.573542991494,-0.0115063315682,0.0,-0.00761447028203,0.00918611195624,-0.999928815061,0.0,0.626459721238,0.215067076953,0.304066317038,1.0,-0.196976571429,-0.258883493878,1.24
0.430955131439,0.355027317284,-0.126060437508,-1.65086328918,0.0601627952611,1.99816033151,0.11311712168,-0.227366079801,-0.925545398954,-0.00646331238651,-1.36486414469,-0.113205574558,0.437788166597,-0.255426923486,0.573705230624,0.819044238181,0.00309695957611,0.0,0.819014575051,-0.573641037944,-0.0114818266116,0.0,-0.00762772768173,0.0091238146771,-0.999929284388,0.0,0.622437941705,0.209699584124,0.304074488761,1.0,-0.211788,-0.278349942857,1.26
0.427609627531,0.341754379524,-0.126257691938,-1.67036623099,0.0587119132347,2.00446896606,0.109447916328,-0.246792411194,-0.969073679338,-0.0162759860374,-1.40678696558,-0.104903303955,0.460932042824,-0.254374909599,0.573833714521,0.818954046823,0.00314391033943,0.0,0.818924643572,-0.573768943388,-0.0115054184692,0.0,-0.00761867758536,0.00917699935712,-0.999928866687,0.0,0.619451056222,0.205668361904,0.304109383457,1.0,-0.222156,-0.291976457143,1.274
0.423338902339,0.325119893031,-0.126415599485,-1.69475602783,0.0567713595155,2.01231684386,0.104695737049,-0.256353771238,-1.00122102132,-0.0129179838131,-1.44576738955,-0.132602982752,0.479104537192,-0.297436754,0.573775550021,0.818994738133,0.0031597484924,0.0,0.818965522459,-0.573710716809,-0.0114992757752,0.0,-0.00760521120362,0.00918590521483,-0.999928887425,0.0,0.615613028689,0.200643422521,0.304106382533,1.0,-0.234745714286,-0.308522938775,1.291
0.418746609854,0.307740264747,-0.126578899344,-1.71991138692,0.0547092319327,2.02025058767,0.0996618561686,-0.279484863559,-1.05527995861,-0.0199662342645,-1.4892118551,-0.131299678808,0.490623740191,-0.311457365707,0.573667360371,0.819070194665,0.0032438802263,0.0,0.819042263261,-0.573602527316,-0.0114305971277,0.0,-0.0075019079534,0.00921441289002,-0.999929405494,0.0,0.611310637576,0.195053355486,0.304172501965,1.0,-0.248076,-0.326042742857,1.309
0.413411982236,0.288581122949,-0.126773723614,-1.7473686699,0.0523851807098,2.02870237247,0.0939675703767,-0.313092493982,-1.11553649911,-0.0156468065946,-1.54523563046,-0.134949805049,0.497298241903,-0.320767518249,0.573611604833,0.819109128306,0.00327255684934,0.0,0.819081516421,-0.573546632033,-0.01142266352,0.0,-0.00747958800498,0.00923284094071,-0.999929402714,0.0,0.607011346343,0.189463602723,0.304222304464,1.0,-0.260665714286,-0.34258922449,1.326
0.408590959614,0.272253047248,-0.126919227299,-1.77074040686,0.0504483593872,2.03574238431,0.088919753326,-0.332233656499,-1.11762963505,-0.0113233559606,-1.54605793764,-0.131142992867,0.481631644187,-0.352176457896,0.573560995605,0.819144635515,0.00325535388013,0.0,0.819116020119,-0.573495121189,-0.011534229839,0.0,-0.00758141889525,0.00928227557695,-0.999928178145,0.0,0.603050316515,0.184323956331,0.304200082641,1.0,-0.271774285714,-0.357189061224,1.341
0.40263227104,0.253021439203,-0.12720466244,-1.797839865,0.0480137284988,2.04385563411,0.0829443637449,-0.35686958712,-1.14487933968,-0.0166329809402,-1.61583129423,-0.144034800695,0.49900434582,-0.357232833319,0.573665689091,0.819070944855,0.00334833615019,0.0,0.819044143373,-0.573600279477,-0.0114086585901,0.0,-0.00742403715507,0.00928736991617,-0.999929311718,0.0,0.598417991357,0.178116420226,0.304268002741,1.0,-0.284364,-0.373735542857,1.358
0.396239978815,0.233180718745,-0.127429868704,-1.82558242399,0.0455024020493,2.05189366618,0.076518338335,-0.384213556461,-1.18703558215,-0.0152846161492,-1.61858145474,-0.142172849827,0.502907821587,-0.389527689232,0.573630105623,0.819095688684,0.00339140142415,0.0,0.819069327532,-0.573564431456,-0.0114029192265,0.0,-0.00739503712455,0.00931903006438,-0.999929232048,0.0,0.593515699306,0.171694591547,0.304302451708,1.0,-0.296953714286,-0.39028202449,1.375
0.389432678802,0.212770186807,-0.127645073833,-1.85385912275,0.0428665262747,2.0598927007,0.0697127323524,-0.412928124586,-1.22826726722,-0.0169076525214,-1.71123173465,-0.173361412574,0.485566330913,-0.411450298215,0.573510296379,0.81917941817,0.00343040742607,0.0,0.819153407494,-0.573444332917,-0.0114034616668,0.0,-0.00737447537676,0.00935021263298,-0.999929092804,0.0,0.588377935688,0.165059530734,0.304322951843,1.0,-0.309543428571,-0.406828506122,1.392
0.382468687803,0.193053395393,-0.127902436776,-1.88092157251,0.0402572832703,2.06723792126,0.0629064061635,-0.449813257309,-1.26866073256,-0.0220827102858,-1.72163228786,-0.172119339376,0.48686980785,-0.44048793998,0.573460693971,0.819214443951,0.00335770646741,0.0,0.819187253286,-0.573394646489,-0.01147041122,0.0,-0.00747157948762,0.00932859992117,-0.999928573811,0.0,0.583337442809,0.158486285276,0.304317368451,1.0,-0.321392571429,-0.422401665306,1.408
0.374415476013,0.171529820654,-0.12834425961,-1.91002104972,0.0374702001502,2.07492087781,0.0552497453873,-0.482323911391,-1.291409812,-0.032663168107,-1.71202801992,-0.164504594088,0.451854435101,-0.45808229807,0.573657024394,0.81907674386,0.00341363931376,0.0,0.819049661037,-0.57359001071,-0.011528194625,0.0,-0.00748459080701,0.00940935110719,-0.999927719894,0.0,0.577828015414,0.151105314732,0.304363968445,1.0,-0.333982285714,-0.438948146939,1.425
0.365888765282,0.149515503213,-0.128665517115,-1.9394485959,0.0343879827763,2.08246310329,0.0471309024627,-0.508926249929,-1.31135663498,-0.0229979471127,-1.72061871061,-0.19176784733,0.4401293444,-0.489476475733,0.573572614391,0.819135908618,0.00340090195689,0.0,0.819109044553,-0.573506132657,-0.0114819787672,0.0,-0.00745500651338,0.00937163856553,-0.999928295063,0.0,0.57208299287,0.143580800187,0.304400036528,1.0,-0.346572,-0.455494628571,1.442
0.356720250282,0.126982588585,-0.129024393087,-1.96921192013,0.0312719324849,2.08978738317,0.0385151360061,-0.551921383416,-1.3172992366,-0.0233727058024,-1.77669733906,-0.186873342914,0.427101124336,-0.510373150442,0.573543937523,0.819155919718,0.00341728302787,0.0,0.819128915747,-0.573476967995,-0.0115210011581,0.0,-0.00747790716301,0.00940717682715,-0.999927790357,0.0,0.566113522408,0.135775800818,0.304422667874,1.0,-0.359161714286,-0.472041110204,1.459
0.346751659089,0.103931530441,-0.12952658041,-1.99919387983,0.02793939038,2.0968578113,0.029372459192,-0.598388888296,-1.35241682121,-0.0212973727872,-1.77114624075,-0.192750717907,0.389472030635,-0.553993178568,0.573681378187,0.81905968687,0.00341358581332,0.0,0.819033057687,-0.573614933393,-0.011467585011,0.0,-0.00743469593027,0.00937476009314,-0.999928417023,0.0,0.559975077371,0.127547231732,0.304470587476,1.0,-0.371751428571,-0.488587591837,1.476
0.336244735677,0.0804125395775,-0.129902580845,-2.02930569626,0.0246277733275,2.10361105441,0.0196121376304,-0.631703559304,-1.39251952851,-0.0227202328827,-1.73042131696,-0.182103996992,0.375000587164,-0.595468616264,0.573570386577,0.819136936092,0.00352682188834,0.0,0.819111062841,-0.573502719854,-0.011508429662,0.0,-0.00740448042635,0.00948993598621,-0.999927554768,0.0,0.553592787938,0.11925159119,0.304536247889,1.0,-0.37998,-0.499402285714,1.493
0.325020609778,0.057022971591,-0.130359122011,-2.05905867424,0.0210925771552,2.11001375637,0.00948561234154,-0.683516721988,-1.38709589825,-0.0349014053929,-1.71527645471,-0.216874901445,0.362009077417,-0.59764030654,0.573623902966,0.819099803415,0.00344628685168,0.0,0.819073150819,-0.573556804745,-0.0115113960226,0.0,-0.00745248442772,0.00942615442801,-0.999927801438,0.0,0.547150497011,0.110689089344,0.30449888516,1.0,-0.37998,-0.499402285714,1.51
0.31396479594,0.0351481599456,-0.130737244788,-2.0864141939,0.0178842790929,2.11542138381,-0.000214128815581,-0.700322648479,-1.36216675537,-0.0166989513908,-1.67041318719,-0.195675137788,0.338140339672,-0.603635463812,0.573858460342,0.81893572242,0.00339071357754,0.0,0.818907232955,-0.573790104262,-0.0116878982909,0.0,-0.00762622636176,0.00948406178896,-0.99992594388,0.0,0.541030778893,0.102611899959,0.304479517768,1.0,-0.37998,-0.499402285714,1.526
0.300363808468,0.0093636115464,-0.131211582278,-2.11791742144,0.0138596296707,2.12144738153,-0.0122581522727,-0.725949398736,-1.36206616321,-0.0296587659023,-1.66037850154,-0.230210069733,0.300291515811,-0.644075710815,0.573916721798,0.818894413008,0.00350480904301,0.0,0.818868382931,-0.573849237013,-0.0115052821483,0.0,-0.00741052195159,0.00947323351652,-0.99992766839,0.0,0.533833991146,0.093011746227,0.304577729985,1.0,-0.37998,-0.499402285714,1.545
0.289212819385,-0.0106886923252,-0.131568864905,-2.14196827672,0.0108499217878,2.12573307862,-0.0220484328855,-0.743815615257,-1.36715276014,-0.0183379556518,-1.58504194947,-0.205552940347,0.29826035806,-0.654824708909,0.574052759062,0.818798058955,0.00373033063976,0.0,0.818774807614,-0.573984424807,-0.0114210943846,0.0,-0.0072105570522,0.0096107965325,-0.999927817623,0.0,0.528187688671,0.0854617104305,0.304682777217,1.0,-0.37998,-0.499402285714,1.56
0.277065413835,-0.0317855284803,-0.131867410278,-2.16704572386,0.00752884497788,2.12981738264,-0.0327569701657,-0.774365520423,-1.328918128,-0.023817520397,-1.56548974212,-0.223162587961,0.278748186934,-0.665272393098,0.574003269269,0.818832606028,0.00376258885945,0.0,0.818809821174,-0.573934918825,-0.0113987983256,0.0,-0.00717436473564,0.00962397750717,-0.999927951178,0.0,0.522110316441,0.0775032832226,0.304724846047,1.0,-0.37998,-0.499402285714,1.576
0.261993598199,-0.0565798812247,-0.132335525452,-2.19605984974,0.00363850429653,2.13412505891,-0.0459403213378,-0.783452354204,-1.30867790316,-0.0151182862004,-1.50922867441,-0.217913671437,0.228068103622,-0.718115997629,0.5741213406,0.818749539036,0.00382432980961,0.0,0.8187271552,-0.57405226786,-0.0114274233377,0.0,-0.00716097026069,0.00969199687277,-0.999927390215,0.0,0.514885227338,0.0679380854332,0.304762562706,1.0,-0.37998,-0.499402285714,1.595
0.248987557631,-0.0771788565665,-0.132641853631,-2.21978003195,0.000397394073794,2.13730283302,-0.0573972085341,-0.832998665664,-1.31232625314,-0.0218113376239,-1.47175662864,-0.211019620511,0.186939054866,-0.721744341778,0.574062761673,0.818790324568,0.00388548006577,0.0,0.818768241803,-0.573992860196,-0.0114677617406,0.0,-0.00715959238585,0.00976471065799,-0.999926692644,0.0,0.508789235451,0.0600070800592,0.304787510488,1.0,-0.37998,-0.499402285714,1.611
0.233832612501,-0.0999642918988,-0.133031301304,-2.24570922758,-0.00330239551244,2.14042889574,-0.070772766387,-0.842797511446,-1.28110157281,-0.0221059044138,-1.43066679433,-0.223540927176,0.177457939576,-0.75192792907,0.574002694632,0.818832556942,0.00385968245959,0.0,0.81880968273,-0.573932255113,-0.0115419629983,0.0,-0.00723587812905,0.00978565163666,-0.999925938802,0.0,0.502326276684,0.0515424218685,0.304760609398,1.0,-0.37998,-0.499402285714,1.628
0.220839640119,-0.118610768717,-0.133332246234,-2.26664828363,-0.0063606647532,2.14254514252,-0.0821537938222,-0.882057749619,-1.25756412887,-0.0298582143891,-1.3643460982,-0.192919848638,0.146740829333,-0.765130715782,0.573941297116,0.818876151121,0.00373945062139,0.0,0.818851095525,-0.573870405098,-0.0116785448958,0.0,-0.00741746466118,0.00976504045118,-0.999924809775,0.0,0.496231651097,0.0436190128122,0.304713627159,1.0,-0.37998,-0.499402285714,1.644
0.204745410382,-0.140810510186,-0.133709185043,-2.29122534535,-0.00998643859488,2.14470629098,-0.0964017515126,-0.898765383353,-1.2283568063,-0.0214088141177,-1.32017356919,-0.195753001693,0.102317283082,-0.791415576674,0.573806988265,0.818970758383,0.00363098243482,0.0,0.818943040046,-0.573734854211,-0.0118895384944,0.0,-0.00765411054504,0.0097960566733,-0.999922722947,0.0,0.4893395581,0.0347039122499,0.304636455399,1.0,-0.37998,-0.499402285714,1.662
0.189865494996,-0.160334769525,-0.134170992606,-2.31248965095,-0.0133036815898,2.14631870522,-0.109514031351,-0.940792633478,-1.17904797662,-0.0335011392894,-1.30971112543,-0.215950257063,0.0910281855193,-0.823313869625,0.573801949483,0.818974724796,0.00353126253699,0.0,0.818945336401,-0.573729705797,-0.0119794647168,0.0,-0.00778503848932,0.00976593921914,-0.999922006762,0.0,0.483217521677,0.0266589794482,0.304571067357,1.0,-0.37998,-0.499402285714,1.678
0.174659324297,-0.179712839925,-0.13451854315,-2.33299419282,-0.016403027253,2.14747442925,-0.122946221222,-0.966598637724,-1.20606625509,-0.027176115059,-1.27779681239,-0.187944402472,0.0655431061629,-0.851110288107,0.573767280104,0.818998449286,0.00365995223372,0.0,0.818969868983,-0.573693462225,-0.0120379400015,0.0,-0.00775951291994,0.00990455738747,-0.999920841718,0.0,0.477123652024,0.0187583801694,0.304620076807,1.0,-0.37998,-0.499402285714,1.694
0.155843037253,-0.202263787391,-0.135111830027,-2.35654135735,-0.0202074491976,2.14848934119,-0.139551454493,-0.999575171171,-1.16979101838,-0.0206553533938,-1.23837552508,-0.190139931793,0.0315085349859,-0.885417997118,0.573853448153,0.818937798825,0.00372137070832,0.0,0.818909834217,-0.573779149244,-0.0120381982282,0.0,-0.0077234393399,0.00995582031299,-0.999920611912,0.0,0.469915380633,0.00919891662655,0.304636571679,1.0,-0.37998,-0.499402285714,1.713
0.140549740758,-0.21990103634,-0.135635654347,-2.37449273085,-0.0231394579636,2.14894146495,-0.153065669435,-1.04078722615,-1.17959458932,-0.0442364467896,-1.18617480894,-0.199906600126,0.0349033481081,-0.889858874429,0.573991806406,0.818840018806,0.0038957261292,0.0,0.818814346477,-0.573916870254,-0.0119682472609,0.0,-0.00756440250292,0.0100597459906,-0.999920787525,0.0,0.464233852876,0.00164881614225,0.304715209391,1.0,-0.37998,-0.499402285714,1.728
0.121806971734,-0.240576662611,-0.136125491019,-2.39539529628,-0.0266380517867,2.1490786971,-0.169798150099,-1.05271332058,-1.14279391733,-0.0254562577997,-1.13291179789,-0.187328625651,0.0108743020112,-0.941689281069,0.573918245658,0.818891499416,0.00391233771851,0.0,0.818865466117,-0.573842492289,-0.0120369990292,0.0,-0.00761207711252,0.0101121263051,-0.999919897384,0.0,0.457380378702,-0.00727567859812,0.304711328435,1.0,-0.37998,-0.499402285714,1.746
0.103427971715,-0.259765513239,-0.13668816106,-2.41441689297,-0.0298953941141,2.14902658617,-0.186231302773,-1.08346824266,-1.12046606413,-0.018436863616,-1.11820503432,-0.195214833528,-0.0109890649062,-0.981561368214,0.573958972461,0.818862181173,0.00407100451256,0.0,0.818838457454,-0.573882960618,-0.0119446644013,0.0,-0.00744489716004,0.0101894385398,-0.999920371254,0.0,0.450946883629,-0.0158013490023,0.304738100463,1.0,-0.37998,-0.499402285714,1.763
0.0868449842903,-0.276412239655,-0.137205017491,-2.4304859006,-0.0327506540536,2.14879170565,-0.201090020605,-1.12207991662,-1.10398002327,-0.0400349171542,-1.06424897237,-0.19177223798,-0.0275459395453,-0.9961387292,0.574008430726,0.818826157731,0.00433494778658,0.0,0.8188073061,-0.573933566123,-0.0116449154416,0.0,-0.00704732500887,0.0102339635933,-0.99992279762,0.0,0.445337763454,-0.0232994252027,0.304843727675,1.0,-0.37998,-0.499402285714,1.778
0.0676277289951,-0.294775765776,-0.13769111026,-2.44817181631,-0.0358645728367,2.14797195509,-0.218536950704,-1.14675477568,-1.07218758468,-0.0309694051421,-1.00689038971,-0.188997141252,-0.0388503542806,-1.03741425272,0.573867600155,0.818924720268,0.0043619865642,0.0,0.81890544907,-0.573791554496,-0.0117415660722,0.0,-0.00711272460182,0.0103103574164,-0.999921549762,0.0,0.438881367584,-0.0316994666156,0.304828077652,1.0,-0.37998,-0.499402285714,1.795
0.047708104625,-0.312776121627,-0.138287652705,-2.46521480163,-0.0389935498389,2.14694485246,-0.236474239164,-1.17108488356,-1.0504728234,-0.0305082899777,-0.993453813501,-0.179988219969,-0.0726976862559,-1.052564677,0.573962181571,0.818858160475,0.00441294133728,0.0,0.818839309137,-0.573885603439,-0.0117578432613,0.0,-0.00709561901448,0.0103622467101,-0.999921134907,0.0,0.432415015486,-0.0402172033001,0.304818484919,1.0,-0.37998,-0.499402285714,1.812
0.0273218847726,-0.330375581953,-0.138888366599,-2.48147485422,-0.0420162914486,2.1456752504,-0.255039131434,-1.1961814476,-1.01094197349,-0.0318924107907,-0.950098830649,-0.182731729347,-0.081620364269,-1.1130020755,0.573965957648,0.818854625216,0.00457483599462,0.0,0.818838114967,-0.573889218737,-0.0116641758006,0.0,-0.00692594859485,0.0104410909391,-0.999921504347,0.0,0.425984279077,-0.0486954233977,0.304867604412,1.0,-0.37998,-0.499402285714,1.829
0.00508774079515,-0.348357246644,-0.139545944718,-2.49802615685,-0.0452215652904,2.14397599551,-0.275352456416,-1.2460779042,-0.979370424071,-0.0361731994578,-0.901091278734,-0.179492444876,-0.102839936898,-1.13366123448,0.573966310019,0.818854693765,0.00451800443509,0.0,0.818836545701,-0.573888410709,-0.0118131443757,0.0,-0.00708055465793,0.0104800558057,-0.999920013889,0.0,0.419108025386,-0.0576999677116,0.304807624002,1.0,-0.37998,-0.499402285714,1.847
-0.0138436410719,-0.363077382035,-0.140052000113,-2.51104875946,-0.0477235215139,2.14245011491,-0.292767990976,-1.27526583315,-0.968423847857,-0.0397887600511,-0.882483262414,-0.173875893478,-0.110583236009,-1.15454372082,0.573942720247,0.818869955086,0.00474314598171,0.0,0.818855475264,-0.573865233035,-0.0116254826044,0.0,-0.00679796272588,0.0105565154129,-0.999921170736,0.0,0.413459149178,-0.0651556761383,0.304908865781,1.0,-0.37998,-0.499402285714,1.862
-0.0371003010726,-0.380053001618,-0.140632847922,-2.52604781433,-0.0507423989193,2.14031625425,-0.314283608597,-1.30943515243,-0.947121339991,-0.0261252642149,-0.782048031233,-0.157705535342,-0.132185410449,-1.2123528155,0.573820494224,0.818955560546,0.00475154290449,0.0,0.818940947945,-0.573742626173,-0.011656311269,0.0,-0.00681996953038,0.0105800670427,-0.99992077196,0.0,0.406615573179,-0.0740847557691,0.304916307562,1.0,-0.37998,-0.499402285714,1.88
-0.0596719134253,-0.395487233895,-0.141278154505,-2.53934965945,-0.0533781628928,2.13827989157,-0.335165239461,-1.33072883557,-0.898104878614,-0.0325719247882,-0.76102494628,-0.130569636999,-0.130403062307,-1.25104460457,0.57392235205,0.818882745203,0.00499302791194,0.0,0.818871608233,-0.573844289949,-0.0115224574078,0.0,-0.00657044749826,0.0107018506969,-0.999921146697,0.0,0.400211652139,-0.0825706951682,0.30498470472,1.0,-0.37998,-0.499402285714,1.897
-0.0840918538233,-0.41102474183,-0.141912801324,-2.55272724063,-0.0562264092995,2.13579218134,-0.357995791118,-1.36003220267,-0.862995321803,-0.0401010272446,-0.717465805609,-0.15305811122,-0.124565046762,-1.26378403127,0.573810713072,0.818961391292,0.00492463574605,0.0,0.818948436615,-0.573731378719,-0.0116837554005,0.0,-0.00674325635063,0.0107374934929,-0.999919614133,0.0,0.393358110005,-0.0915184275385,0.304945904004,1.0,-0.37998,-0.499402285714,1.915
-0.104922518858,-0.4235317548,-0.142420683566,-2.56314550153,-0.058485186862,2.13382850492,-0.377542335527,-1.39433694212,-0.812236794325,-0.0143581431518,-0.689916333152,-0.157982143497,-0.144904043753,-1.30774495897,0.573735556471,0.819013222257,0.00505963540661,0.0,0.819003180034,-0.573657716832,-0.0114613225332,0.0,-0.00648460065258,0.0107198321393,-0.999921514497,0.0,0.387719492822,-0.0989941752899,0.305021422245,1.0,-0.37998,-0.499402285714,1.93
-0.128989257019,-0.436886909048,-0.143055435103,-2.57451233133,-0.0608753373436,2.13126929359,-0.400160149724,-1.40765587194,-0.743649112674,-0.0234375525845,-0.643414577283,-0.148363013382,-0.151126321613,-1.33357388124,0.573769371318,0.818989843435,0.00500917043716,0.0,0.818976393462,-0.57368722284,-0.011890509007,0.0,-0.00686464119879,0.0109250125568,-0.999916756936,0.0,0.381176965323,-0.107427247293,0.304896305159,1.0,-0.37998,-0.499402285714,1.947
-0.152131741046,-0.44896614714,-0.143679531469,-2.58415833825,-0.0630900603138,2.12913454699,-0.422056416288,-1.45959938309,-0.726731540338,-0.0382774990063,-0.590897929146,-0.144128494756,-0.129568901858,-1.37927004878,0.573775011709,0.818984397182,0.00524785788342,0.0,0.818976134126,-0.57369552373,-0.0115015079781,0.0,-0.00640900639448,0.0108973580445,-0.999920082919,0.0,0.375195050225,-0.115452693469,0.305036883289,1.0,-0.37998,-0.499402285714,1.963
-0.177147108413,-0.460865528754,-0.144282070108,-2.59394715636,-0.0653050063024,2.12657782462,-0.445829486223,-1.4750448419,-0.671900319611,-0.0371469041328,-0.554272338944,-0.12188038643,-0.152714950825,-1.41402727597,0.573741455877,0.819008051272,0.00522500341669,0.0,0.818997662681,-0.573658975079,-0.0117879487264,0.0,-0.00665718298149,0.0110427130563,-0.999916866746,0.0,0.368691657256,-0.123892659774,0.304962394732,1.0,-0.374960571429,-0.492805322449,1.98
-0.196370073123,-0.469192796349,-0.144516756573,-2.60078098801,-0.0667914271254,2.12479298026,-0.464114874034,-1.48830533897,-0.620202177094,-0.0252020120096,-0.502311020092,-0.107909162613,-0.133452542033,-1.4107232423,0.573657875662,0.819066638448,0.00521827304179,0.0,0.81905510418,-0.573573689638,-0.0119459521983,0.0,-0.0067915975473,0.011127156963,-0.99991502668,0.0,0.363842842451,-0.130206446969,0.304896835711,1.0,-0.365333142857,-0.480152130612,1.993
-0.225863910781,-0.480898279234,-0.144815743941,-2.60989583096,-0.0687484978677,2.12224744007,-0.491924615293,-1.4694405168,-0.562937094138,-0.0193342830077,-0.43394923417,-0.0846044141845,-0.124397570508,-1.38405740745,0.573890319181,0.818902277844,0.00545048559343,0.0,0.818894670957,-0.573806790839,-0.0117486836427,0.0,-0.00649362317219,0.0112060451634,-0.999916125187,0.0,0.356669593324,-0.139767953163,0.304989270332,1.0,-0.350521714286,-0.460685681633,2.013
-0.250464457828,-0.489646326755,-0.144820172239,-2.61686408868,-0.0701625289733,2.12011677218,-0.515299075282,-1.44692161711,-0.489139140437,-0.00601113181609,-0.394809153784,-0.0622061677554,-0.124173067207,-1.35712562239,0.573885548083,0.818905347559,0.0054914790732,0.0,0.818897027874,-0.573799731077,-0.0119278353463,0.0,-0.00661688633008,0.0113423865929,-0.999913779824,0.0,0.350714026264,-0.147497237826,0.304946309634,1.0,-0.337932,-0.4441392,2.03
-0.276045720303,-0.497774236175,-0.144661082457,-2.62314478076,-0.07136703495,2.11819486491,-0.539611150945,-1.42127830454,-0.432520338593,0.0071662747299,-0.327195750002,-0.0504851057599,-0.102595112529,-1.34281780563,0.573923582116,0.818877716182,0.00563513371445,0.0,0.818871653014,-0.57383790197,-0.0118332182789,0.0,-0.00645642975758,0.0114060338838,-0.999914104764,0.0,0.344713964013,-0.155407924457,0.304982870658,1.0,-0.324601714286,-0.426619395918,2.048
-0.298123260419,-0.503970498917,-0.144402354268,-2.62793540586,-0.0722134064265,2.11661055418,-0.560699151826,-1.36562619161,-0.368427229323,0.0146631933725,-0.277051669663,-0.0465457688333,-0.0946780933501,-1.31603015673,0.573900987231,0.818892841383,0.00573742867818,0.0,0.818887798831,-0.573814383996,-0.0118563293522,0.0,-0.00641696767542,0.0115028909277,-0.99991324925,0.0,0.339607086633,-0.162116407961,0.304989731441,1.0,-0.312752571429,-0.411046236735,2.064
-0.31980410866,-0.509397484504,-0.144156320157,-2.63198483165,-0.0729274044981,2.11529816061,-0.581348360902,-1.34689223917,-0.326765571134,0.0152985537956,-0.240014040704,-0.0351000400454,-0.07757335079,-1.26137753222,0.574021064947,0.818807493797,0.00590355822684,0.0,0.818805690246,-0.573935824808,-0.0116472110081,0.0,-0.00614867847614,0.0115198333278,-0.999914739962,0.0,0.334698638449,-0.168679408359,0.305059817311,1.0,-0.300903428572,-0.395473077551,2.08
-0.344732003075,-0.514803809078,-0.143693518548,-2.63618263575,-0.0736619936426,2.11375758083,-0.605210087419,-1.29073361372,-0.265767793943,0.0304056053015,-0.205450362237,-0.0261564540024,-0.0702642528128,-1.26002839001,0.573997820601,0.818823758366,0.00590775606134,0.0,0.818821209544,-0.573911079229,-0.0117748392765,0.0,-0.00625111184683,0.0115963513122,-0.999913220353,0.0,0.329040277301,-0.176072576367,0.305032304687,1.0,-0.286832571429,-0.376979951021,2.099
-0.363775632686,-0.518328715203,-0.143247676247,-2.63903753526,-0.0740697256759,2.11272599822,-0.623463815191,-1.24984639062,-0.216718573222,0.046088730675,-0.177933152398,-0.0252491243563,-0.0676047092619,-1.21097381416,0.573982364858,0.818834536407,0.00591554901681,0.0,0.818830773333,-0.573893174736,-0.0119806316851,0.0,-0.0064153853022,0.0117207305436,-0.999910729669,0.0,0.324746335378,-0.181634095142,0.304957720283,1.0,-0.275724,-0.362380114286,2.114
-0.384647494028,-0.521607142064,-0.142748836594,-2.64162154175,-0.0743968531215,2.11179501386,-0.643455925993,-1.21994681812,-0.174940640884,0.0174861097072,-0.135430091117,-0.0218731531484,-0.0489761721238,-1.15619851696,0.574053618451,0.81878412422,0.00597896057819,0.0,0.818780638739,-0.573963147951,-0.012054763462,0.0,-0.00643866987335,0.0118157652362,-0.999909461512,0.0,0.320120343979,-0.187719352368,0.304922175314,1.0,-0.263134285714,-0.345833632653,2.131
-0.404605803204,-0.524269928923,-0.142053177504,-2.64364931953,-0.0746043553159,2.11098832464,-0.662736131633,-1.16344139012,-0.146102997133,0.041302684701,-0.111209731532,-0.0160382506057,-0.041675954129,-1.11490873811,0.573905094903,0.818888263134,0.00597506881373,0.0,0.818884721878,-0.573814662228,-0.0120537375702,0.0,-0.00644220616245,0.0118108213628,-0.999909497144,0.0,0.31576113284,-0.193455862006,0.304926742907,1.0,-0.250544571429,-0.329287151021,2.148
-0.423908264508,-0.526334792042,-0.141452585951,-2.6452373125,-0.0747220900939,2.11035093605,-0.681287096259,-1.11139312896,-0.108111088148,0.0344242581194,-0.0808726444712,-0.000150195428777,-0.0319127768418,-1.07424642557,0.573949797022,0.818856614507,0.00601849455363,0.0,0.81885355326,-0.573859013647,-0.0120597541585,0.0,-0.00642156574883,0.0118501872547,-0.999909164152,0.0,0.311557934525,-0.19900542034,0.304922427959,1.0,-0.237954857143,-0.312740669388,2.165
-0.443378018393,-0.52801540277,-0.140773379728,-2.64656384433,-0.0747718356992,2.10981922454,-0.700005258263,-1.0522428128,-0.091722566469,0.0437730754851,-0.0766981320729,-0.000250235910004,-0.0288919883025,-1.01678689536,0.573984710752,0.818831989121,0.00603923141561,0.0,0.818829056432,-0.573893569886,-0.0120786459352,0.0,-0.00642462929455,0.0118782849488,-0.999908811085,0.0,0.307322281348,-0.204551264998,0.304906512812,1.0,-0.224624571429,-0.295220865306,2.183
-0.460843458648,-0.529067871952,-0.140118400035,-2.64741160888,-0.0747572821609,2.10942960188,-0.716808464336,-1.02195996592,-0.0494756918384,0.0311586477312,-0.0418714989449,0.00365644786922,-0.0214256769573,-0.974202065463,0.574020330271,0.818807059366,0.00603381055724,0.0,0.818803798483,-0.573928730213,-0.0121201949903,0.0,-0.00646124838651,0.0118979744077,-0.999908341036,0.0,0.303547231247,-0.209510214735,0.304889664266,1.0,-0.212034857143,-0.278674383674,2.2
-0.477386900985,-0.529800780122,-0.139343119198,-2.64796917623,-0.0747027406105,2.10914011159,-0.732742095391,-0.951221061043,-0.0387665369281,0.0462452074168,-0.0241011996362,0.00762880621382,-0.0134384856317,-0.917798796617,0.573962699168,0.818847999262,0.00595994712534,0.0,0.818844040692,-0.573871915929,-0.012091651342,0.0,-0.00648110301487,0.0118206516123,-0.999909129621,0.0,0.300000988684,-0.21416042065,0.304899558788,1.0,-0.199445142857,-0.262127902041,2.217
-0.491334495135,-0.530131967862,-0.138725390137,-2.64822256926,-0.0746372757532,2.10897481075,-0.746099996576,-0.914368546779,-0.0181682034568,0.0411255192017,-0.013678267999,0.00840566309987,-0.00953800861325,-0.876187338892,0.57402280086,0.818806303157,0.00589990718181,0.0,0.818801816025,-0.573932720506,-0.0120650449198,0.0,-0.00649291005724,0.0117566919449,-0.999909807089,0.0,0.2970143784,-0.218094708067,0.30490744368,1.0,-0.188336571429,-0.247528065306,2.232
-0.505150163342,-0.530257813896,-0.137922095142,-2.6483216814,-0.0744586719602,2.1088536835,-0.759588445079,-0.841704406539,-0.010116201558,0.049635792091,-0.00397594655087,0.0109447497972,-0.00657704153615,-0.830175271169,0.573794559908,0.818966821834,0.00582191172952,0.0,0.818961554872,-0.573705274869,-0.0120406033839,0.0,-0.00652091876514,0.0116769794201,-0.999910558885,0.0,0.294090871671,-0.221928370491,0.304919223774,1.0,-0.176487428572,-0.231954906123,2.248
-0.520787012272,-0.53020702104,-0.137047069598,-2.648306943,-0.074169475737,2.10880828052,-0.774523764766,-0.792478035819,0.00745050724839,0.0560811058035,0.0064014413522,0.0141006410409,0.00143080607694,-0.772581543735,0.573876212977,0.818909752532,0.0058014039483,0.0,0.818904538615,-0.573787568157,-0.0119970899059,0.0,-0.0064958855285,0.011635864572,-0.999911201121,0.0,0.29076628949,-0.226255943849,0.30492664588,1.0,-0.162416571429,-0.213461779592,2.267
-0.533562524092,-0.529923702217,-0.136175848527,-2.64816054903,-0.0737552020166,2.10881682571,-0.786891859794,-0.740465308936,0.0182440196823,0.0527491682851,0.00592513571863,0.0246195274296,0.0018584233913,-0.713703442624,0.573780806174,0.818976361547,0.00583546004391,0.0,0.818971392517,-0.573691686417,-0.012018904952,0.0,-0.00649556919361,0.0116755166007,-0.999910740963,0.0,0.288082554575,-0.229731343885,0.304913543648,1.0,-0.149826857143,-0.196915297959,2.284
-0.544267890117,-0.529584592842,-0.135525186599,-2.64795040982,-0.073393541108,2.10882164799,-0.797045127411,-0.695369788848,0.0291351624803,0.0464035907807,0.0136246502029,0.0247517811014,-0.000282008147316,-0.67163234396,0.573940459493,0.81886399217,0.00590408215602,0.0,0.818859586994,-0.573850428446,-0.0120585845506,0.0,-0.00648640549358,0.0117557501683,-0.999909860378,0.0,0.285806625747,-0.23265483617,0.30490283312,1.0,-0.138718285714,-0.182315461225,2.299
-0.555240567849,-0.529055739468,-0.134623682043,-2.64765904041,-0.0729294776946,2.10890681855,-0.807694367259,-0.629821802823,0.0350393418385,0.0480988501345,0.0193994624285,0.025920624703,0.00701488260729,-0.599853689153,0.57378443323,0.818973184916,0.00592397442526,0.0,0.818968631433,-0.573693611928,-0.012114753968,0.0,-0.00652323794924,0.0118030337119,-0.999909063746,0.0,0.283524801972,-0.235588508762,0.304873016936,1.0,-0.126128571429,-0.165768979592,2.316
-0.564947023942,-0.528513543335,-0.133909269268,-2.6473126601,-0.0725180360887,2.10899660703,-0.816820429501,-0.589459921318,0.0379074041912,0.0428233871678,0.0179548768672,0.0378789980733,0.00224850841812,-0.554249692351,0.573951034098,0.818856082522,0.0059727276314,0.0,0.818851955216,-0.573859587017,-0.012140705424,0.0,-0.0065141088874,0.0118591784577,-0.999908458946,0.0,0.281487437507,-0.238205954143,0.304858665669,1.0,-0.114279428572,-0.150195820408,2.332
-0.574188338157,-0.527870868462,-0.133075029829,-2.6468523867,-0.0720404393153,2.10913152236,-0.82564367424,-0.513034840162,0.0409639788742,0.0554478788081,0.0280304741144,0.0269247390475,0.00572773884494,-0.496624007948,0.573934246919,0.818867642381,0.00600094799966,0.0,0.818864070438,-0.573843023206,-0.0121064348753,0.0,-0.00647009021101,0.0118624866781,-0.999908705504,0.0,0.279600504778,-0.240672842575,0.304866089102,1.0,-0.101689714286,-0.133649338776,2.349
-0.582456515574,-0.527211435254,-0.132233899311,-2.64638176901,-0.0715886071016,2.10923950623,-0.833443521094,-0.478358357915,0.0376247394426,0.0518806709641,0.0200177023964,0.0256010468428,0.00193670198323,-0.441591278444,0.573943026757,0.818861554029,0.00599201731349,0.0,0.818857833419,-0.573851780763,-0.0121131855953,0.0,-0.00648061694702,0.0118591170441,-0.999908677304,0.0,0.277925465164,-0.242854322892,0.304869658334,1.0,-0.0891000000001,-0.117102857143,2.366
-0.589885821653,-0.526588839633,-0.1313920308,-2.64591808418,-0.0710963516598,2.10936325347,-0.840293218978,-0.417722951564,0.0365866723349,0.0500038962612,0.025687530431,0.0299952995192,0.0100058775098,-0.3791068751,0.574058689211,0.81878036032,0.00600747845482,0.0,0.818777055585,-0.573967745929,-0.0120791879701,0.0,-0.00644222704391,0.0118531765439,-0.999908995817,0.0,0.276444367454,-0.24478874424,0.304884658673,1.0,-0.0765102857144,-0.10055637551,2.383
-0.595927721577,-0.525963544981,-0.13059458789,-2.6454832176,-0.070629787037,2.10948607087,-0.845945098263,-0.357311580503,0.0384270504364,0.0498247481048,0.0262305431948,0.0319104844306,0.0130024948807,-0.329364219485,0.574021003718,0.818806744174,0.00601247768017,0.0,0.818803474301,-0.57392999116,-0.0120823268053,0.0,-0.00644247344926,0.0118587752919,-0.999908927845,0.0,0.275212166825,-0.246421166964,0.304886536201,1.0,-0.0639205714287,-0.0840098938777,2.4
-0.601260675146,-0.525384836362,-0.129649427038,-2.64512737741,-0.0701064538379,2.10958261803,-0.850963997647,-0.297255805688,0.0332059765992,0.0536629144835,0.0166267029012,0.0354108711355,0.00257906275301,-0.278777833529,0.573870082481,0.818912653431,0.00599511346386,0.0,0.818908703382,-0.573778345171,-0.0121529025203,0.0,-0.00651242475177,0.0118838665663,-0.999908176804,0.0,0.274283042771,-0.247625501464,0.304865858331,1.0,-0.0520714285715,-0.068436734694,2.416
-0.60607540945,-0.52493580976,-0.128710530536,-2.64480128136,-0.0695680645311,2.10966190775,-0.855254990094,-0.251273287403,0.0243374096076,0.0556069604042,0.0143036262034,0.0297975152558,0.00656531983584,-0.214008042605,0.573882526481,0.818903959153,0.0059915260923,0.0,0.818900049882,-0.573790962128,-0.0121403041578,0.0,-0.0065039848409,0.0118737980456,-0.999908351351,0.0,0.273408628812,-0.248759625061,0.304879709512,1.0,-0.0387411428573,-0.0509169306124,2.434
-0.609433478537,-0.524548069101,-0.127870560043,-2.64455341354,-0.0690666959563,2.10978913514,-0.858152648723,-0.189361654196,0.0263896563604,0.0487452644025,0.0146056547207,0.0277006359559,0.00962172989436,-0.169114847383,0.573892943869,0.818896633953,0.00599489605636,0.0,0.818892980088,-0.573801749358,-0.0121072910635,0.0,-0.00647486271502,0.011857695505,-0.99990873144,0.0,0.272860246615,-0.249507483178,0.304881894306,1.0,-0.0268920000001,-0.0353437714287,2.45
-0.612167183457,-0.524248588525,-0.127023795778,-2.64437956784,-0.0685551419549,2.10982036489,-0.860441450446,-0.139387334737,0.0128698847345,0.0387729667924,0.0101707999982,0.0198702332381,-0.000686296787238,-0.110807745812,0.57388610311,0.818901303971,0.00601181450567,0.0,0.818897518323,-0.573794191197,-0.0121584347039,0.0,-0.00650713907398,0.0119008458196,-0.999908009274,0.0,0.272437122542,-0.250051601403,0.304874582446,1.0,-0.0198066666667,-0.0260316190476,2.468
-0.614209332294,-0.524091151459,-0.12647810551,-2.64423336269,-0.0682256068846,2.10982972089,-0.86219431321,-0.111352678833,0.0128318885214,0.0269955937151,0.0149227217801,0.0142148041032,0.00133835335543,-0.103502794519,0.573885117202,0.81890191107,0.00602322185231,0.0,0.818898438461,-0.573793456351,-0.0121311102459,0.0,-0.00647822880476,0.0118944996006,-0.999908272508,0.0,0.27210084708,-0.250485804746,0.3048974286,1.0,-0.0194666666667,-0.0255847619048,2.485
-0.615934039206,-0.523918716626,-0.126083634493,-2.64402673106,-0.0680306019482,2.10991532947,-0.86382131399,-0.0926298145365,0.011235271104,0.0151587917376,0.0102618201071,0.010844394151,0.00957103605872,-0.0896937124706,0.573779711653,0.818976072538,0.00598180623516,0.0,0.818972993429,-0.573689965145,-0.0119919484299,0.0,-0.00638953963505,0.0117799012704,-0.999910199823,0.0,0.271826773456,-0.250906241664,0.304944976528,1.0,-0.0191266666667,-0.0251379047619,2.502
-0.617304449937,-0.523745238285,-0.125899853566,-2.64385665011,-0.06789358707,2.11000168381,-0.86508749231,-0.0918026112574,0.0147360119054,0.00841601058513,0.00714456725492,0.0121499800277,0.00157600245739,-0.0829386535995,0.573802221515,0.818960197255,0.00599606520306,0.0,0.818957904876,-0.573713527011,-0.0118947831754,0.0,-0.00630145158229,0.0117360039611,-0.999911275023,0.0,0.271583406072,-0.251274325798,0.304970493483,1.0,-0.0188266666667,-0.0247436190476,2.517
-0.618833850434,-0.523561982953,-0.125765294736,-2.64370175345,-0.0678141709142,2.10999084272,-0.866596507551,-0.0907800097727,0.00911632352978,0.00397234711857,0.0111606393113,0.000776470740086,-4.14159843653e-05,-0.0844350065314,0.573765713759,0.81898575778,0.00599843063339,0.0,0.81898332072,-0.573676690904,-0.011921476329,0.0,-0.00632248121615,0.0117529752954,-0.999910942936,0.0,0.2712646252,-0.251685224695,0.304975992992,1.0,-0.0184866666667,-0.0242967619048,2.534
-0.620325628939,-0.523402115988,-0.125682426952,-2.64355052664,-0.0677897311379,2.10999232581,-0.868052971539,-0.0827092840895,0.0112333736725,0.0058692579958,0.0110418503426,0.00118028690862,-0.000295678067838,-0.0832090392414,0.573754281689,0.818993911316,0.00597865979711,0.0,0.818991250393,-0.573665401768,-0.0119199620494,0.0,-0.00633274799205,0.0117358252773,-0.999911079401,0.0,0.270940760897,-0.252103922202,0.304988178565,1.0,-0.0181466666667,-0.0238499047619,2.551
-0.621721609167,-0.523188528528,-0.125591869928,-2.64337007464,-0.0677492616814,2.11002889329,-0.86941819663,-0.0807284757832,0.0121023456585,0.000487555260457,0.00816875291834,0.00521787733952,0.00270857396561,-0.0845644770943,0.573742098815,0.819002569318,0.00596174466172,0.0,0.818999785697,-0.573653468567,-0.0119078096446,0.0,-0.00633267311355,0.0117149048463,-0.999911325196,0.0,0.270654828738,-0.252504087831,0.304997108908,1.0,-0.0178066666667,-0.0234030476191,2.568
-0.623122320883,-0.522963462382,-0.125585421281,-2.6432220937,-0.0677120955782,2.11010959147,-0.870855795432,-0.0740658478754,0.0143677143357,-0.000196582934877,0.00192365322354,0.00431323678823,0.00260888788043,-0.0774674053927,0.573731135645,0.819010078383,0.00598518177884,0.0,0.819007651179,-0.573642510997,-0.0118946958304,0.0,-0.0063086425209,0.0117264927888,-0.999911341268,0.0,0.270348321348,-0.252921987028,0.304988816135,1.0,-0.0174466666667,-0.0229299047619,2.586
-0.624387840445,-0.522773015889,-0.125582130318,-2.64310927679,-0.0676932350948,2.11010470664,-0.872040989256,-0.078460552852,0.014362745088,-0.000277969885487,0.00601002228378,0.000568371733363,-0.000421481219483,-0.0811258603062,0.573808835851,0.818955513141,0.00600285732337,0.0,0.818952826405,-0.573719215943,-0.0119698071444,0.0,-0.00635890738381,0.0117846649657,-0.999910338965,0.0,0.270051821909,-0.253285713493,0.304969843243,1.0,-0.0171266666667,-0.0225093333333,2.602
-0.625635027902,-0.522600421137,-0.125580327359,-2.642981509,-0.0676654589808,2.11011145935,-0.873328988447,-0.0792315941434,0.00684276503776,-0.000955857774813,0.00989174904108,0.00498605002749,0.000132508166558,-0.0747660569289,0.573792783987,0.818966581413,0.00602714471149,0.0,0.818963991414,-0.573702660558,-0.0119993723368,0.0,-0.00636941861628,0.0118213953475,-0.999909838495,0.0,0.269765751943,-0.253649188326,0.304965175371,1.0,-0.0168066666667,-0.0220887619048,2.618
-0.626961672178,-0.522396668548,-0.125577175521,-2.64284083365,-0.0676338370739,2.11014888421,-0.87464861237,-0.0720786702879,0.0167773981769,-0.000656532321946,0.00500213127993,0.000212522836628,0.000839850576378,-0.079698972892,0.573817325329,0.818949213197,0.00605064104343,0.0,0.818946796472,-0.573726852313,-0.0120162550351,0.0,-0.00636940999717,0.011850516583,-0.999909493841,0.0,0.2694669117,-0.254039978649,0.304957574869,1.0,-0.0164466666667,-0.0216156190476,2.636
-0.628178533208,-0.522219552854,-0.125536872094,-2.64271055842,-0.0676077880617,2.11017446524,-0.875911336378,-0.0697259151319,0.0127620784656,0.00913395214717,0.0105671655013,0.000505224111515,0.000916344395564,-0.078608899619,0.5737722218,0.818980810009,0.00605121714491,0.0,0.818978339807,-0.57368164236,-0.0120249344245,0.0,-0.00637684111928,0.0118556173703,-0.999909386012,0.0,0.269183428956,-0.254412053219,0.304957069368,1.0,-0.0160866666667,-0.0211424761905,2.654
-0.629323144152,-0.52205055913,-0.125467064985,-2.64258492206,-0.0675827447578,2.11021045793,-0.877078717866,-0.07284295472,0.0120655486598,0.00276817380024,0.00886479608673,0.00084922948601,0.00293842904702,-0.0702228004585,0.573718529739,0.819018532067,0.00603652769602,0.0,0.819015849149,-0.573627983558,-0.0120300549924,0.0,-0.0063902398025,0.011846105394,-0.999909413208,0.0,0.268956192977,-0.254713068321,0.304954654479,1.0,-0.0157866666667,-0.0207481904762,2.669
-0.63049827059,-0.521873537199,-0.125399788541,-2.64246496147,-0.0675555821448,2.11025865809,-0.878218136383,-0.0688750109543,0.0166715931674,0.000844873019468,0.00979599407076,-0.000103757443366,0.00034882166095,-0.0665622385982,0.573718138141,0.819018903153,0.00602338343511,0.0,0.819016052097,-0.573627652979,-0.0120320009576,0.0,-0.00639938013206,0.0118364527972,-0.999909469062,0.0,0.268705228396,-0.255045157325,0.304949865768,1.0,-0.0154466666667,-0.0203013333333,2.686
-0.631652293859,-0.521712372124,-0.125380904997,-2.64234335632,-0.0675291032034,2.11027626856,-0.879443014829,-0.0608649974565,0.0111746001572,0.000821583158991,0.00699529662819,0.00339127562696,0.00184200019471,-0.0678934826535,0.573664461155,0.81905639952,0.00603716104037,0.0,0.819053616095,-0.573573722089,-0.0120460031644,0.0,-0.00640372234315,0.0118553507477,-0.999909217379,0.0,0.268444701167,-0.255378598644,0.304947881462,1.0,-0.0151066666667,-0.0198544761905,2.703
-0.632716571978,-0.521548946617,-0.125370521457,-2.64221124265,-0.0675065137038,2.11030253586,-0.88054029977,-0.0691482974659,0.0088001107645,0.000475045072001,0.00457309890859,0.00040631969805,-0.000473738057521,-0.0636997458144,0.573646637853,0.819068800855,0.00604824323511,0.0,0.819066158308,-0.573555849079,-0.0120442186913,0.0,-0.00639616162248,0.0118632653135,-0.999909171901,0.0,0.268208353101,-0.25569379626,0.304950368701,1.0,-0.0147866666667,-0.0194339047619,2.719
-0.633982118216,-0.521337127927,-0.125370859585,-2.64206920565,-0.0674771375626,2.11034878964,-0.881746462676,-0.0660937241063,0.0125030218412,-0.00014563544165,0.00342336065959,0.000461287046427,0.00012688876626,-0.0623664078116,0.573715658478,0.819020298808,0.00606961775188,0.0,0.81901781832,-0.573624548053,-0.0120597697375,0.0,-0.00639563761002,0.011890232749,-0.999908854939,0.0,0.267922843678,-0.256068839191,0.304941026806,1.0,-0.0144066666667,-0.0189344761905,2.738
-0.63507496603,-0.521180395224,-0.125351014777,-2.64196062473,-0.0674521088909,2.11037111354,-0.88287508396,-0.0613518149328,0.00943143402414,0.000301689768842,0.0102562113366,0.00230254169529,0.00365474464943,-0.0680306101008,0.573688776332,0.819039038488,0.00608179622982,0.0,0.819036582023,-0.57359736878,-0.0120781926624,0.0,-0.00640413228941,0.0119105664808,-0.999908558567,0.0,0.267674644631,-0.256382482726,0.304935151196,1.0,-0.0140666666667,-0.0184876190476,2.755
-0.636055401026,-0.521019058658,-0.125317404307,-2.64186033375,-0.067433641485,2.11039246893,-0.883842485087,-0.0677276214383,0.00872077239141,0.00279143844274,0.00830078094769,0.000421644039066,0.00275450822877,-0.0563318426631,0.573688952685,0.819038921016,0.00608098091014,0.0,0.819036237497,-0.573597146695,-0.0121120548079,0.0,-0.00643233484436,0.011929325439,-0.999908153914,0.0,0.26745511851,-0.256661149076,0.304924047937,1.0,-0.0137466666667,-0.0180670476191,2.771
-0.63695454281,-0.520877680713,-0.125273750284,-2.64174477071,-0.0674137080109,2.11042273361,-0.884734344391,-0.0579972863257,0.0119544857578,0.00220353910207,0.00667494183978,0.0001502202645,0.0045561174727,-0.064405109536,0.573678528197,0.819046288377,0.00607212339609,0.0,0.819043559656,-0.573586893368,-0.0121024809442,0.0,-0.00642972549475,0.0119164964461,-0.999908323669,0.0,0.267263908354,-0.256920974506,0.304928213373,1.0,-0.0134466666667,-0.0176727619048,2.786
-0.637946455139,-0.520718013536,-0.125226510198,-2.64160972114,-0.0673884046415,2.11045880711,-0.885796918452,-0.0573090834743,0.011930326863,0.00467050557445,0.00273358775781,0.000465201265071,0.0003786031728,-0.0648262644423,0.573604994366,0.819097838232,0.00606537241676,0.0,0.819095134931,-0.573513614512,-0.0120847342691,0.0,-0.00642012966474,0.0119002100864,-0.999908579289,0.0,0.26705488448,-0.257209536971,0.304935085833,1.0,-0.0131066666667,-0.0172259047619,2.803
-0.639060102097,-0.520536907691,-0.125175790672,-2.64145983028,-0.067364137499,2.11048801497,-0.886918754786,-0.0572919492657,0.00591851657211,0.00205412580603,0.00343413288279,0.00278042323036,0.00391282305588,-0.0556073951699,0.573580511123,0.819115052471,0.00605598691116,0.0,0.819112262778,-0.573489243458,-0.0120803769262,0.0,-0.00642229887683,0.0118898308301,-0.999908688831,0.0,0.266816733129,-0.257532214237,0.304940305151,1.0,-0.0127266666667,-0.0167264761905,2.822
-0.639908975019,-0.520389608028,-0.125166397464,-2.64133739525,-0.0673517460805,2.11051662337,-0.887747034903,-0.0559844565566,0.0179894018531,-0.00105436583861,0.0133206069826,0.00231186871974,0.00415044867459,-0.0544181996639,0.573602387337,0.819099730373,0.00605638884386,0.0,0.819097000486,-0.57351121442,-0.0120721841792,0.0,-0.00641503939477,0.0118856324366,-0.999908785346,0.0,0.266630809075,-0.257787900206,0.304944435998,1.0,-0.0124266666667,-0.0163321904762,2.837
-0.640975176984,-0.520228068582,-0.125163993636,-2.64122803102,-0.0673402888619,2.1105439494,-0.888804896626,-0.0606815450798,0.00795654191916,0.000726047333532,0.00654344742722,-7.14447312444e-05,0.00329455475177,-0.0612056530997,0.573619510533,0.819087673895,0.00606518842798,0.0,0.819084982251,-0.573528154478,-0.0120828296619,0.0,-0.00641846409145,0.0118990806865,-0.999908603422,0.0,0.266398708928,-0.258083391225,0.304939667466,1.0,-0.0120666666667,-0.0158590476191,2.855
-0.641796861535,-0.520097998392,-0.125163585022,-2.64112995904,-0.0673330944969,2.1105634585,-0.889646329055,-0.0540402528591,0.0126971740949,0.00060255654546,0.00745887643417,-0.000238171729564,0.000262210570814,-0.057683211982,0.57360457582,0.819098109427,0.00606833034503,0.0,0.81909528819,-0.573512893341,-0.0121085481499,0.0,-0.006437947154,0.0119162888436,-0.999908273241,0.0,0.266181498056,-0.258356460309,0.304932205605,1.0,-0.0117266666667,-0.0154121904762,2.872
-0.642746413156,-0.51994381538,-0.125161486825,-2.64102222396,-0.0673230915208,2.11060121633,-0.890562146976,-0.0529958207254,0.00708324531495,-0.00144050196486,0.00477154106932,0.000499330333055,0.00464493864299,-0.0408590337536,0.573646151789,0.819068955104,0.00607340295089,0.0,0.819066236901,-0.573554506787,-0.0121026531573,0.0,-0.00642960363134,0.011917389157,-0.999908313813,0.0,0.265978265291,-0.258624001186,0.304931006442,1.0,-0.0113866666667,-0.0149653333333,2.889
-0.643530684864,-0.5198148886,-0.125132058123,-2.64093405303,-0.067318199657,2.11065624163,-0.891296770157,-0.0548792580154,0.00975151039611,0.00649539988449,0.00647736170099,-0.000124032923867,0.0083832069505,-0.047846233064,0.573672715785,0.819050465491,0.00605780850318,0.0,0.819047676398,-0.573581378075,-0.0120852560456,0.0,-0.00642391212056,0.0118948446478,-0.999908618837,0.0,0.265808400198,-0.25885354095,0.304929025417,1.0,-0.0110866666667,-0.0145710476191,2.904
-0.64449824752,-0.519666524782,-0.125111673213,-2.64081684971,-0.0673069825855,2.11067026371,-0.892269291846,-0.0508720675688,0.0090042864233,0.00186552960816,0.00772558210118,-0.000141086326249,-5.24061824862e-05,-0.0441385001786,0.573665127935,0.819055794704,0.00605582804318,0.0,0.819052904086,-0.573573660288,-0.0120972490321,0.0,-0.0064349823563,0.0119000425718,-0.999908485807,0.0,0.265589202749,-0.259134361864,0.304929369389,1.0,-0.0107066666667,-0.0140716190476,2.923
-0.645344450739,-0.519522996854,-0.125102419398,-2.64071793056,-0.0673036863983,2.11068792868,-0.893084480945,-0.0503332325472,0.00831860207284,-0.000590070586622,0.00547633285823,-0.00010493497209,0.0011597921187,-0.0417618041782,0.5736906421,0.819037946149,0.00605283701578,0.0,0.81903487399,-0.573598918803,-0.0121203315933,0.0,-0.00645523501014,0.011911034741,-0.999908224385,0.0,0.265394543735,-0.259381958568,0.304923221604,1.0,-0.0103666666667,-0.0136247619048,2.94
-0.646062828928,-0.51943092175,-0.125094380996,-2.6406474115,-0.0672948096395,2.11070505498,-0.893766227045,-0.0417761279119,9.07235565474e-06,0.00020800894726,0.00856764544942,0.00119219045593,0.00212217462231,-0.0483528294557,0.573722432679,0.819015654959,0.00605591235355,0.0,0.819012619445,-0.573630682857,-0.012120881826,0.0,-0.00645345907778,0.011914119831,-0.999908199094,0.0,0.265227594398,-0.259588743167,0.304923031041,1.0,-0.0100666666667,-0.0132304761905,2.955
-0.646906607154,-0.519326316221,-0.125097912824,-2.64056698948,-0.0672844120866,2.11072995294,-0.894555758276,-0.0465070588218,0.0104681100515,-0.00101362109929,0.0068210506394,-8.35204411895e-05,0.000667543280688,-0.047929683588,0.573778015878,0.818976645015,0.00606550213279,0.0,0.818973765014,-0.573686268706,-0.012115453741,0.0,-0.00644270241326,0.0119192976108,-0.999908206752,0.0,0.265028762742,-0.259834444884,0.304923115729,1.0,-0.00970666666667,-0.0127573333333,2.973
-0.647625432363,-0.519233849146,-0.125079359236,-2.64049352712,-0.067270078455,2.11075241291,-0.895267432492,-0.0424230389627,0.00842498367104,0.00116782837608,0.00385800823726,0.00224332594209,2.31200159228e-05,-0.0379043826827,0.573780662731,0.818974776911,0.00606735196096,0.0,0.818971969185,-0.573688996055,-0.0121076999079,0.0,-0.00643525167434,0.0119163846878,-0.999908289451,0.0,0.264865636099,-0.260039752979,0.304924819524,1.0,-0.00938666666667,-0.0123367619048,2.989
-0.648308588847,-0.519150119277,-0.125075169793,-2.64040615157,-0.0672583420592,2.11077666029,-0.895944748131,-0.0385016478563,0.00716902901976,0.00119286278308,0.00132743790363,0.00285531626638,0.00343898866916,-0.0465874767219,0.57379191505,0.81896686508,0.00607116345232,0.0,0.818964308301,-0.573700602766,-0.0120758857593,0.0,-0.00640684352282,0.0119013409307,-0.999908651048,0.0,0.264711958232,-0.260242885797,0.30493587029,1.0,-0.00906666666667,-0.0119161904762,3.005
-0.649033660484,-0.519013103464,-0.12506925906,-2.64029870032,-0.0672457574161,2.11080434794,-0.896668136423,-0.0419387756859,0.00973622732905,0.00375154501805,0.00530210140371,-7.56423335606e-06,0.000180815111724,-0.0396196353023,0.573800086676,0.818961118242,0.00607406286626,0.0,0.818958610563,-0.573708781212,-0.012073750339,0.0,-0.00640331215864,0.0119025542375,-0.999908659226,0.0,0.264551629937,-0.260461280254,0.304936756274,1.0,-0.00870666666667,-0.0114430476191,3.023
-0.649617743091,-0.518913362711,-0.125048222218,-2.64021600889,-0.0672342549878,2.11082852335,-0.89722737489,-0.0369242119698,0.0062283966563,0.00266627102568,0.00568879432332,-0.000507897569194,0.000622746990263,-0.0391952376008,0.573814709594,0.818950908993,0.00606915273976,0.0,0.818948408907,-0.5737235552,-0.0120636917312,0.0,-0.00639767859731,0.0118928757217,-0.99990881045,0.0,0.264425663607,-0.260632895174,0.304940169143,1.0,-0.00840666666667,-0.0110487619048,3.038
-0.65027675894,-0.518792221532,-0.125011319799,-2.64013059345,-0.0672173486766,2.11085228936,-0.897868374328,-0.0364309530968,0.00575008259289,0.00725251437775,0.00357694438696,-0.000491934409969,-0.000788524392151,-0.0349657326328,0.573815018718,0.818950742307,0.00606241454415,0.0,0.818948108588,-0.573723808049,-0.0120720511591,0.0,-0.00640838708095,0.0118921561471,-0.999908750435,0.0,0.26428407183,-0.260820519562,0.304937278674,1.0,-0.00806666666667,-0.0106019047619,3.055
-0.65082736119,-0.518678789736,-0.124975291912,-2.64006592243,-0.0672061939323,2.11088190672,-0.898431202414,-0.0363345110269,0.00793726421079,0.00148342246903,0.00897076765573,6.70193489756e-05,-0.000238501759755,-0.0423181977984,0.573787723089,0.818969940851,0.0060524140971,0.0,0.818967080359,-0.573696382516,-0.0120883777971,0.0,-0.00642789373332,0.0118931196536,-0.999908613768,0.0,0.264166276626,-0.260975830982,0.304928272646,1.0,-0.00776666666667,-0.0102076190476,3.07
-0.651490246178,-0.51855064065,-0.124950487631,-2.63998351193,-0.0671881186514,2.11089799371,-0.899122451836,-0.0326783449996,0.00706894562778,0.00160062709913,0.00384797442224,1.21148197277e-06,0.00111545613198,-0.0389071906581,0.573759022566,0.818990029877,0.0060549060732,0.0,0.818987032776,-0.573667364605,-0.0121137043422,0.0,-0.00644762520795,0.0119094660158,-0.999908292169,0.0,0.26401884082,-0.261164889551,0.304920486976,1.0,-0.00738666666667,-0.0097081904762,3.089
-0.652059287941,-0.518455825174,-0.124947601571,-2.63992903401,-0.0671741729589,2.11091788312,-0.899666221344,-0.0296832414141,0.0041576573126,-0.00220779237015,0.00595467281276,0.00234528541473,-9.67161763167e-05,-0.0261944685998,0.573786582811,0.818970643934,0.00606536583344,0.0,0.81896766715,-0.573694658768,-0.0121303571654,0.0,-0.00645486271285,0.0119278043404,-0.999908026886,0.0,0.263885579077,-0.261328225853,0.304912089019,1.0,-0.00704666666667,-0.00926133333334,3.106
-0.65258953756,-0.518386181222,-0.124927104373,-2.63988974147,-0.067163028114,2.11093349134,-0.900167676305,-0.0290124500265,0.00516041292794,0.00234424045223,0.000339826597988,-0.000378135424324,0.000822429196947,-0.0309070381441,0.573802516595,0.818959475798,0.00606595835778,0.0,0.818956432811,-0.573710450013,-0.0121419769472,0.0,-0.00646380782495,0.0119350823343,-0.999907882256,0.0,0.263762367251,-0.261473629026,0.304906109669,1.0,-0.00672666666667,-0.00884076190477,3.122
-0.653101941858,-0.518334365449,-0.12492522744,-2.63983733844,-0.0671484681651,2.11094468382,-0.90067973884,-0.0347573601108,0.00434032665704,0.00163646233552,0.00397302449791,-0.000213085411371,0.00212657352178,-0.0358639660842,0.573810339412,0.818953915833,0.00607659666859,0.0,0.818951100859,-0.573718389345,-0.0121264599558,0.0,-0.00644488069652,0.0119349534192,-0.999908005968,0.0,0.26364268018,-0.261621037943,0.30491183878,1.0,-0.00638666666667,-0.00839390476191,3.139
-0.653593340389,-0.51828677237,-0.124918815692,-2.63977550342,-0.0671334781929,2.11095133163,-0.901168011812,-0.028025945387,0.00575687511798,0.00106815813606,0.00695293583137,3.28647660143e-05,0.000312661608774,-0.0294962876278,0.573817825419,0.818948615793,0.00608398094931,0.0,0.818946046327,-0.573726118207,-0.0121021235323,0.0,-0.00642060215814,0.0119270959862,-0.999908255916,0.0,0.263530977189,-0.261763684998,0.304923127202,1.0,-0.00604666666667,-0.00794704761905,3.156
-0.654026837691,-0.518251541819,-0.124908882352,-2.63970495091,-0.0671164682284,2.11096416557,-0.901598566047,-0.022828988868,0.00138239704746,0.00228993946707,0.00392511764938,0.00144121255069,0.000500548392243,-0.02785685557,0.57382386176,0.818944355984,0.00608805206562,0.0,0.818942163348,-0.573732738576,-0.0120509202182,0.0,-0.0063762410753,0.0119010972395,-0.999908849563,0.0,0.263438560175,-0.261893388273,0.304943542172,1.0,-0.00572666666667,-0.00752647619048,3.172
-0.654511525094,-0.518168653251,-0.124884025198,-2.63960760312,-0.0671000396156,2.11098645237,-0.902074214255,-0.0274775190799,0.00659337444986,-0.00116590969504,0.00224631940021,0.00201831955515,-1.92663304891e-05,-0.0272119712881,0.573825510888,0.818943247941,0.00608166153524,0.0,0.818941229661,-0.573734895744,-0.012011605535,0.0,-0.00634768401552,0.0118733176569,-0.99990936151,0.0,0.263342441198,-0.262040768499,0.304959730659,1.0,-0.00536666666667,-0.00705333333334,3.19
-0.654943027977,-0.518102856625,-0.124864635058,-2.63953153347,-0.0670753649446,2.11100278426,-0.902499876929,-0.0224079555442,0.00236664767219,0.00443018211877,0.00547942545243,0.00246401463114,-0.000304113973273,-0.0175629711726,0.573830875131,0.818939445953,0.00608748797374,0.0,0.818937688023,-0.573740580212,-0.0119815130167,0.0,-0.00631961642169,0.0118608637852,-0.999909687101,0.0,0.263254309898,-0.262168443004,0.304971915556,1.0,-0.00500666666667,-0.0065801904762,3.208
-0.655287258753,-0.518031573763,-0.12484010566,-2.63948477472,-0.0670548647239,2.11103126717,-0.90283067885,-0.0197538723132,0.00715702955691,0.000994692215571,0.00101523763514,0.000369061864017,0.00159883112695,-0.0197583342508,0.573835690311,0.81893605806,0.00608935433717,0.0,0.818934364945,-0.573745462734,-0.0119748404949,0.0,-0.00631301079388,0.0118586007036,-0.99990975567,0.0,0.263184857759,-0.262266492077,0.304969915338,1.0,-0.00470666666667,-0.00618590476191,3.223
-0.655651095189,-0.51796963305,-0.124786598816,-2.63945897213,-0.06702824724,2.11104170659,-0.90318282919,-0.0213164077689,0.000845052452966,0.00164927356018,-0.000106965371417,0.00050815024707,5.87681070467e-05,-0.0181083429352,0.573820124611,0.818946980827,0.00608720672674,0.0,0.818945118279,-0.573729643761,-0.0119973338031,0.0,-0.00633289127698,0.0118696283378,-0.99990949911,0.0,0.26310971794,-0.262354970958,0.304960980981,1.0,-0.00436666666667,-0.00573904761905,3.24
-0.656014784318,-0.517901736835,-0.124731123241,-2.63944515857,-0.0670016409792,2.11105088512,-0.903543193922,-0.01581032532,0.00414994044264,0.0013464182018,0.000678365178964,0.000701909633894,-1.90238487957e-05,-0.0184882784357,0.573795784761,0.818964040446,0.00608643969886,0.0,0.818961902417,-0.573704815524,-0.0120388510999,0.0,-0.00636768897221,0.0118926332192,-0.999909004766,0.0,0.263031950731,-0.262439591108,0.304944342013,1.0,-0.00398666666667,-0.00523961904763,3.259
-0.656293672053,-0.517854956055,-0.124692698575,-2.63943185748,-0.066982954742,2.11105660388,-0.903821766945,-0.0179093378362,0.00755367393064,0.00137751463464,0.00453142078574,0.00218659295759,-1.5438110656e-05,-0.0181913980724,0.573777578201,0.818976799654,0.00608599077428,0.0,0.818974493113,-0.573686311241,-0.0120641131763,0.0,-0.00638890220841,0.0119066180902,-0.99990870302,0.0,0.262971767495,-0.262506134828,0.304934549052,1.0,-0.00366666666667,-0.00481904761905,3.275
-0.656528159222,-0.517800662571,-0.124669208398,-2.63942371169,-0.0669653221348,2.11106460984,-0.904064005206,-0.0176380967885,0.00338897360749,-0.000960601486267,0.00210092207638,-0.000427034672917,8.26467996056e-05,-0.0132020138861,0.573762712808,0.818987166,0.00609247233548,0.0,0.818984707329,-0.573670980385,-0.0120996829342,0.0,-0.00641453395777,0.0119322183092,-0.99990823375,0.0,0.262918866417,-0.262563209083,0.304919487937,1.0,-0.00336666666667,-0.00442476190477,3.29
-0.656774964925,-0.517770404808,-0.124649258018,-2.6393992539,-0.066943775363,2.11106855572,-0.904328951737,-0.0149478487516,0.00468623681953,0.000542484299483,0.00314551508818,0.00331904033153,-0.000357707777645,-0.0165000122959,0.573744158501,0.819000099483,0.00610119112195,0.0,0.818997749861,-0.573652383371,-0.012098581613,0.0,-0.00640890010731,0.0119385821817,-0.999908193913,0.0,0.262865910455,-0.262627932328,0.304920267571,1.0,-0.00302666666667,-0.00397790476191,3.307
-0.657043038867,-0.517723538006,-0.12463120357,-2.63937019154,-0.0669182218273,2.11107105251,-0.904598307474,-0.0141385003663,0.00172425309751,0.000998858791722,0.000569624768975,0.00511926142772,-5.50136389501e-06,-0.0198544836744,0.57374275992,0.819000979872,0.00611451625455,0.0,0.818998712906,-0.573650756983,-0.0121104984247,0.0,-0.00641103663089,0.011956321929,-0.999907968253,0.0,0.262807749532,-0.262698941543,0.304916851901,1.0,-0.00264666666667,-0.00347847619048,3.326
-0.657246325058,-0.517699709996,-0.124617355113,-2.63934105739,-0.0668983267658,2.11107393692,-0.904803062848,-0.0144942132192,-0.000313424284964,0.000213113896413,0.000854648410294,0.000310743346692,-0.000105703827803,-0.00738397482081,0.573741669607,0.819001678482,0.00612324268803,0.0,0.818999584252,-0.573649738704,-0.0120998008876,0.0,-0.00639728383576,0.0119573233945,-0.99990804436,0.0,0.262765748118,-0.262754866884,0.304921889853,1.0,-0.00230666666667,-0.00303161904763,3.343
-0.65741471294,-0.517680102839,-0.124592486113,-2.63931423293,-0.0668828728379,2.11108153099,-0.904980155737,-0.00825406105032,-0.000931730777725,0.00121294181017,0.00118564856706,0.00185700885749,-0.000200661536361,-0.0123800259161,0.573724804344,0.819013502057,0.006122028218,0.0,0.819011496573,-0.573633077893,-0.0120833492679,0.0,-0.00638475123712,0.0119467586996,-0.999908250745,0.0,0.262735236882,-0.262799811446,0.304928091891,1.0,-0.00200666666667,-0.00263733333334,3.358
-0.657611739247,-0.517664449347,-0.124558897772,-2.63930278525,-0.0668593689623,2.11108275688,-0.905155511599,-0.0131995096761,0.000661089515202,0.00203679424491,-3.26463332796e-05,3.27180593408e-06,0.000581374843768,-0.00723602606504,0.57372934099,0.819010292695,0.00612622617682,0.0,0.819008334708,-0.573637581789,-0.0120838462071,0.0,-0.00638268373581,0.0119505175046,-0.999908219028,0.0,0.262695415386,-0.262844768614,0.304928431643,1.0,-0.00164666666667,-0.0021641904762,3.376
-0.657787216143,-0.517665946438,-0.124526612459,-2.63929574516,-0.0668370890113,2.11108141812,-0.90530957502,-0.00780884345929,-0.00176910893432,0.00213705145349,-0.000746556042875,0.000678358727779,-0.000117053331697,-0.0152702513564,0.573733785787,0.819007151068,0.00612996310775,0.0,0.819005298956,-0.573642116512,-0.0120743259649,0.0,-0.00637267699206,0.0119481510532,-0.999908311134,0.0,0.262659827419,-0.262883259357,0.304932839764,1.0,-0.00128666666667,-0.00169104761905,3.394
-0.657937808311,-0.517648646367,-0.12449536148,-2.63928930398,-0.0668225858776,2.1110862538,-0.905414756775,-0.00551785739394,0.00195579575213,0.00454657036064,0.000911577526132,-0.000208406348526,0.000349502136435,-0.0215748494077,0.573755358464,0.818992058555,0.00612727990518,0.0,0.818990146417,-0.573663649308,-0.0120790908814,0.0,-0.0063778045482,0.0119488550377,-0.999908270029,0.0,0.262630263735,-0.262916613546,0.304930545044,1.0,-0.000946666666672,-0.0012441904762,3.411
-0.658041326264,-0.517647455559,-0.124478172515,-2.63928527732,-0.0668086770655,2.11108991692,-0.905484657082,-0.00573881101913,0.00105823322779,-0.000211388714234,-0.000610085014477,0.000223230880969,-0.000153067135721,-0.0040781354771,0.573776812405,0.818977005119,0.00613037792638,0.0,0.818975182315,-0.573685177028,-0.0120712597491,0.0,-0.00636929984015,0.0119470663385,-0.999908345612,0.0,0.26260954968,-0.26294020379,0.304932660215,1.0,-0.000646666666672,-0.000849904761912,3.426
-0.658096786299,-0.517642188753,-0.124476378928,-2.63928036099,-0.0667975351469,2.11108995737,-0.905502432652,-0.00371007858316,7.42867561004e-05,-5.44934388598e-05,0.000215591428309,0.000298589234268,-0.000257458939704,0.000924366611671,0.573811406871,0.818952705454,0.00613860539039,0.0,0.818950989964,-0.573719728644,-0.012070455744,0.0,-0.00636341588428,0.0119536122976,-0.999908304842,0.0,0.262597376753,-0.262954442015,0.304933005067,1.0,-0.000306666666672,-0.000403047619055,3.443
-0.658098410532,-0.5176347,-0.124461531716,-2.63927703244,-0.06678516375,2.11109143353,-0.905537891315,0.00045118008151,4.53225704637e-05,0.00264393679572,0.000167313769969,-0.000490750532771,-7.00579392766e-05,-0.00292932822308,0.573778625671,0.81897564908,0.0061418106049,0.0,0.818973957881,-0.573686907651,-0.0120720836583,0.0,-0.00636338873149,0.0119569167178,-0.999908265506,0.0,0.262602157153,-0.262951338838,0.304932239201,1.0,-6.66666667206e-06,-8.76190476899e-06,3.458
-0.658096403708,-0.517631748631,-0.124435372912,-2.63927952877,-0.066770326977,2.11109660419,-0.905547877108,-5.15846482403e-05,-0.000659962078119,0.00423759619293,-0.000176856129734,-0.000197672304566,0.000214817784201,0.000939256176163,0.573756462199,0.818991179225,0.00614144421604,0.0,0.818989485326,-0.573664754377,-0.012071429587,0.0,-0.00636338677958,0.0119560691625,-0.999908275653,0.0,0.262609957253,-0.262943673694,0.304931081519,1.0,0.0,0.0,3.476
-0.65809643249,-0.517624355666,-0.124407226937,-2.6392717334,-0.0667681194765,2.11109699826,-0.905557109284,-0.000428785872582,0.00231457109141,0.00331790252821,0.00127392605845,-0.000200440726996,9.19682307396e-06,-0.000493948849634,0.573730280391,0.81900961682,0.00612860671607,0.0,0.819007768571,-0.57363865813,-0.0120711150787,0.0,-0.00637087626152,0.0119451707313,-0.999908358217,0.0,0.262618015572,-0.262939286862,0.304932593405,1.0,0.0,0.0,3.492
-0.658090839553,-0.517623299867,-0.124389825322,-2.63927642938,-0.0667632028333,2.1111013334,-0.905554825475,0.000825829818438,0.00315085084946,0.000245029694056,-0.000842160173942,-0.000246237791421,-0.000519317217227,0.000560020931591,0.57371710173,0.819018880097,0.00612438808028,0.0,0.819016971631,-0.573625490727,-0.0120724260068,0.0,-0.0063745624403,0.0119423649656,-0.999908368238,0.0,0.262623345751,-0.26293292622,0.304930851909,1.0,0.0,0.0,3.509
-0.658093345872,-0.517617576547,-0.124380552772,-2.63927392367,-0.0667572007185,2.11110218652,-0.905560407594,-9.86579940084e-05,0.000691411342696,-2.25717533087e-05,1.52352386169e-05,0.000117194036866,0.000236173643783,9.01692155612e-05,0.573710703551,0.819023359422,0.0061247248233,0.0,0.81902144162,-0.573619066733,-0.012074408819,0.0,-0.00637608669626,0.0119437284866,-0.999908342234,0.0,0.262625846519,-0.262931635707,0.304930174741,1.0,0.0,0.0,3.526
-0.658104053281,-0.517619707479,-0.124382684933,-2.63927153991,-0.0667540068825,2.11110248468,-0.9055685137,-0.00147474816718,-0.000560674088438,0.000489769482094,0.000114752308211,0.000152403445558,-0.000343639668143,-0.00166076335046,0.57371580935,0.819019757845,0.0061280716307,0.0,0.819017913683,-0.573624213211,-0.0120692164407,0.0,-0.00636983909813,0.0119435306704,-0.999908384416,0.0,0.26262348792,-0.262935283824,0.304932020592,1.0,0.0,0.0,3.543
-0.658101556693,-0.517619705743,-0.124383158948,-2.63926839526,-0.0667574108919,2.11110254135,-0.905568677844,-0.000123996409355,-0.00054182448837,0.000991536679825,-0.000801763892149,0.000180385102049,-0.00011429859807,-0.00119128279522,0.573712658287,0.819021988559,0.00612493915283,0.0,0.819020124652,-0.573621115883,-0.0120663883806,0.0,-0.00636936560466,0.0119393180511,-0.999908437741,0.0,0.262624458495,-0.262935893505,0.304933440199,1.0,0.0,0.0,3.56
-0.65810728093,-0.517616895192,-0.124386183132,-2.639270714,-0.0667542640023,2.11110670252,-0.905567554953,-0.00093755446041,0.00123060200224,0.000468116169164,-0.00105585560465,0.000113018779559,0.000340639621807,-0.000511971782198,0.573721659935,0.819015652056,0.00612907095021,0.0,0.819013834766,-0.573630084202,-0.0120669739972,0.0,-0.00636734368253,0.0119431081964,-0.999908405356,0.0,0.262622635169,-0.262937679183,0.304931636875,1.0,0.0,0.0,3.577
