nelsonifechukwu/NELSON_IML_WORK/CNN-GradCAM/train2dof/data_sample_2022-02-21-08-14-47/robot_state.csv
position_joint1,position_joint2,position_joint3,position_joint4,position_joint5,position_joint6,position_joint7,velocity_joint1,velocity_joint2,velocity_joint3,velocity_joint4,velocity_joint5,velocity_joint6,velocity_joint7,ee_T_00,ee_T_10,ee_T_20,ee_T_30,ee_T_01,ee_T_11,ee_T_21,ee_T_31,ee_T_02,ee_T_12,ee_T_22,ee_T_32,ee_T_03,ee_T_13,ee_T_23,ee_T_33,v_x,v_y,time
0.465100348477,0.547571541562,-0.123997058781,-1.35574301398,0.0794397839906,1.89410088558,0.159155734334,0.000821647354587,0.004493070232,-0.00118633252873,-0.000792259402495,0.000430077822498,0.000548327511522,-0.000302427691119,0.573765796737,0.819004797379,0.00216777902294,0.0,0.818965164168,-0.573707047087,-0.0117060199487,0.0,-0.00834377703778,0.00849201286346,-0.99992913104,0.0,0.66170173182,0.260906930207,0.303405928553,1.0,0.0,0.0,0.0
0.465097763317,0.547553055368,-0.12399174905,-1.35574257492,0.0794378971264,1.89410395714,0.159161266325,0.000196138529717,-0.00191183325525,0.0013137420996,0.000518916002132,-0.000358890785614,0.000139175831432,0.00101568377395,0.573768195341,0.819003065614,0.00218710552343,0.0,0.818963678711,-0.573709368019,-0.0116961916974,0.0,-0.00832461420318,0.008502226482,-0.999929203966,0.0,0.661702495166,0.260908493403,0.303419321538,1.0,-0.00032,-0.000420571428571,0.017
0.465091754319,0.547550671017,-0.123997038798,-1.35574903778,0.0794388732983,1.89410449473,0.159160550227,-0.00102400849798,-0.000486556186364,-0.000727702269957,-0.00158944599445,-3.03379143888e-05,0.0089297513394,-0.000821992558772,0.573776837953,0.818997020263,0.0021835590089,0.0,0.818957599475,-0.573718035294,-0.0116967149872,0.0,-0.00832698785721,0.00849971002982,-0.999929205595,0.0,0.661703911588,0.26090091419,0.303418157852,1.0,-0.00064,-0.000841142857143,0.033
0.46509590765,0.547496233187,-0.123996675825,-1.35579943025,0.0794394144947,1.89410616205,0.159162734778,-0.000134299993214,-0.00574978682673,-5.07217138777e-05,-0.00874583414979,0.000409587256683,-8.14803878973e-05,-0.000166158807525,0.573773246756,0.818999506216,0.00219477248609,0.0,0.818960188513,-0.57371435909,-0.0116957559396,0.0,-0.00831980603117,0.00850830695894,-0.999929192263,0.0,0.661691308142,0.260899561087,0.303435932088,1.0,-0.00104,-0.00136685714286,0.053
0.465098517698,0.547345093701,-0.12399020059,-1.35595844106,0.0794412289851,1.89413882902,0.159154904511,-0.00319011707388,-0.00645672329409,0.000335139175113,-0.00683981556085,0.000598273298274,0.00491367008784,-0.000428923468021,0.573773818427,0.818999029651,0.00222297535393,0.0,0.818959900081,-0.573714642695,-0.0117020390619,0.0,-0.00830876509522,0.00853501563518,-0.999929056449,0.0,0.661664715449,0.260889903779,0.303466872295,1.0,-0.00138,-0.00181371428571,0.07
0.465087143258,0.547231163865,-0.123989507911,-1.35610872426,0.0794359462807,1.89416474623,0.159155775586,0.000433162464147,-0.0082988358703,0.000782707492195,-0.0176784698053,9.60060856291e-05,0.00905106138194,3.46990570406e-05,0.573790145459,0.81898760514,0.0022177698052,0.0,0.818948334657,-0.573730911974,-0.0117137829086,0.0,-0.00832120012743,0.00853765646395,-0.9999289305,0.0,0.661641540734,0.260867335642,0.303478258675,1.0,-0.00164,-0.00215542857143,0.083
0.465062665537,0.547046194541,-0.123994234117,-1.35634127053,0.0794284260428,1.89428811787,0.159146433653,-0.000522681803765,-0.00803819112366,0.000279635255624,-0.0146938406261,-5.92200411321e-05,0.0114919677092,-0.000260140975982,0.573816943359,0.818968647114,0.00228417581639,0.0,0.818930250427,-0.573757471874,-0.0116771274289,0.0,-0.00825279720284,0.00857127926551,-0.999929209749,0.0,0.661622896788,0.260827692549,0.303510180631,1.0,-0.00204,-0.00268114285714,0.103
0.465044931526,0.546859598864,-0.123989934077,-1.3565329411,0.0794249160711,1.89440479107,0.159135573522,-0.00488682946481,-0.0148536794174,-0.000311495844197,-0.0152783022159,-9.17185994912e-06,6.98980239525e-05,-0.00339687559417,0.573829647265,0.818959461136,0.00238408008837,0.0,0.818922333485,-0.573769784397,-0.0116272582063,0.0,-0.00815449699616,0.00862460795479,-0.999929557677,0.0,0.661613681431,0.260808222775,0.303560370255,1.0,-0.00232,-0.00304914285714,0.117
0.465021954905,0.54664907636,-0.123992439299,-1.35680366115,0.0794124372464,1.8945332558,0.159114243203,-7.96454248246e-05,-0.015454678311,0.000787324403449,-0.0202922627184,0.000126376813086,0.00193431191543,-0.00150945005311,0.573844698616,0.818948740134,0.00244331840971,0.0,0.818912396126,-0.573784641765,-0.0115939315065,0.0,-0.0080930528384,0.00865414648368,-0.999929801658,0.0,0.661590034862,0.260768909049,0.303591832969,1.0,-0.00266,-0.003496,0.134
0.464988822367,0.54641457381,-0.123992447527,-1.357148521,0.0794015778308,1.89465659868,0.159084323394,-0.000686239460865,-0.0120454175181,0.00147592472621,-0.0214084459012,-0.00397414943127,0.0120776699801,-0.00685563992872,0.573863695902,0.818935378033,0.00246008781436,0.0,0.818899160652,-0.573803481116,-0.0115964064851,0.0,-0.00808525624323,0.00866948744555,-0.999929731841,0.0,0.661550960116,0.260715743319,0.303604447989,1.0,-0.00298,-0.00391657142857,0.15
0.464949516104,0.546117703515,-0.123995997666,-1.35759551533,0.0793757663446,1.89481426957,0.158946489266,-0.00349008412275,-0.0158332988586,-0.000284253757587,-0.0244144197331,-0.000102963440298,0.00450292446886,-0.011947826883,0.573803576633,0.818977480316,0.0024676060239,0.0,0.818941348118,-0.573743329928,-0.0115933863348,0.0,-0.00807910537955,0.00867331813631,-0.999929748337,0.0,0.661500178075,0.260645047081,0.303615668482,1.0,-0.00334,-0.00438971428571,0.168
0.464905718117,0.545836549224,-0.123990890044,-1.35805696585,0.0793345957752,1.89497211966,0.158919868293,-0.000555974934087,-0.0177999661413,0.000977997319511,-0.0263807497683,-0.00592540346108,0.00622933186268,-0.00140315640746,0.573828896191,0.818959817017,0.00244190685502,0.0,0.818923424196,-0.573768813583,-0.0115983086766,0.0,-0.00809761465657,0.00865534603108,-0.999929754344,0.0,0.661445709113,0.26057199407,0.303608560093,1.0,-0.00366,-0.00481028571429,0.184
0.464855088086,0.54551812289,-0.123993505041,-1.3586042304,0.0792836376479,1.89515695643,0.158860674259,-0.00297444822251,-0.0153997415627,-0.000270348946537,-0.0365539867126,-0.00247993176417,0.00816669543121,-0.00154687999654,0.573840718925,0.818951676402,0.00239330790587,0.0,0.818914794059,-0.573780955043,-0.0116070066017,0.0,-0.00813249959436,0.00862065423806,-0.999929770919,0.0,0.661381961636,0.260480502955,0.303589555418,1.0,-0.004,-0.00525714285714,0.201
0.464799422303,0.545171670692,-0.124000523622,-1.35919333937,0.0792617381736,1.89535012164,0.158774918983,-0.0030119958554,-0.019422909918,0.000199043869922,-0.0384666502906,-0.00353132650779,0.00990424162364,-0.00288302919099,0.573847973565,0.818946698465,0.0023569492052,0.0,0.818909222848,-0.573788209615,-0.0116413977692,0.0,-0.00818145212227,0.00861068574361,-0.999929457478,0.0,0.661311639283,0.260383806607,0.303571372934,1.0,-0.00432,-0.00567771428571,0.217
0.464727229955,0.544740428274,-0.123998124456,-1.35992086737,0.0792373331254,1.89559373133,0.158706017705,-0.00537536107216,-0.023814855432,-0.000114328299067,-0.0381701925819,-0.000928619759661,0.0127855077246,-0.0049339811052,0.573883013594,0.818922241613,0.00232288609842,0.0,0.818884105158,-0.573823139505,-0.0116864788837,0.0,-0.00823755028866,0.00860901197433,-0.999929011319,0.0,0.661224016103,0.260269340541,0.303551359438,1.0,-0.00468,-0.00615085714286,0.235
0.464661933266,0.544323190616,-0.123999548412,-1.36065806899,0.0791970635845,1.89583479329,0.158580609848,-0.00247986113216,-0.0294628851634,0.000704387117601,-0.0429850978201,-0.00892574354768,0.0170240333889,-0.00950914184319,0.573865094719,0.818934981485,0.00225744636952,0.0,0.818895911843,-0.573805379258,-0.011731121153,0.0,-0.00831185064293,0.008580859763,-0.999928638446,0.0,0.66113316586,0.260153150125,0.303516667355,1.0,-0.00502,-0.00659771428571,0.252
0.464589927704,0.543885518935,-0.124006665149,-1.36138198334,0.0791655922494,1.89609155733,0.158517679774,-0.00610695262463,-0.0185229008436,-0.000108016315282,-0.0449045430891,-2.77150274841e-05,0.0145445543521,-0.00536897446049,0.573909462172,0.818903947207,0.00223637650417,0.0,0.818864512191,-0.573849726497,-0.0117536791731,0.0,-0.00834195083218,0.0085770021818,-0.999928420883,0.0,0.661051507161,0.260033572085,0.30350428947,1.0,-0.00534,-0.00701828571429,0.268
0.464522854988,0.543370417646,-0.124013434665,-1.36220970499,0.0791155393696,1.89638265357,0.158417619832,-0.00255267361883,-0.0305545151682,-0.00144876931986,-0.0540591661261,-0.0051926663558,0.0164286714626,-0.00410047535342,0.573919889267,0.818896694672,0.00221609092408,0.0,0.818857002475,-0.57386023624,-0.0117637434788,0.0,-0.0083617251797,0.00856627285335,-0.999928347694,0.0,0.660954420126,0.259905479035,0.303500174118,1.0,-0.00568,-0.00746514285714,0.285
0.464437488544,0.542852093132,-0.124011538552,-1.36307320407,0.0790685360173,1.89668524651,0.158292958498,-0.00370626351342,-0.0298420893518,-0.000700280625692,-0.0523769840797,7.333870436e-05,0.0142277471502,-0.00890196802157,0.573921864427,0.818895400275,0.00218262274418,0.0,0.818855184946,-0.573862250084,-0.011791985295,0.0,-0.00840403952292,0.00855509484874,-0.99992808865,0.0,0.6608539434,0.259767390246,0.303481972382,1.0,-0.00602,-0.007912,0.302
0.464375770859,0.542305130044,-0.124020262404,-1.36392472483,0.0790106981759,1.89699355786,0.158184871817,-0.00759950495608,-0.0336822352594,-0.00143216892551,-0.0508940052232,0.000140718523558,0.0158424795005,-0.0100132261535,0.573921875611,0.818895399239,0.00218006933542,0.0,0.818855234022,-0.573862355953,-0.0117834220334,0.0,-0.00839849206244,0.00854808943754,-0.999928195171,0.0,0.660754890713,0.259639219581,0.303490488809,1.0,-0.00634,-0.00833257142857,0.318
0.464293809397,0.54170363968,-0.124016287096,-1.36486043826,0.0789534041609,1.89734030117,0.158048597427,-0.00667686021109,-0.0339194000345,0.0009344746171,-0.0513042006785,0.000133474440779,0.0207669846174,-0.00431003892378,0.573911297012,0.818902783719,0.00219109116974,0.0,0.81886273997,-0.573851713861,-0.0117800886325,0.0,-0.0083895474754,0.00855509357682,-0.999928210357,0.0,0.660647710327,0.259498457228,0.303500342342,1.0,-0.00668,-0.00877942857143,0.335
0.464209703982,0.541077628753,-0.124026552399,-1.36582382181,0.0788974004247,1.89769736204,0.157922014213,-0.00976913349211,-0.0336528489345,-0.00593065858978,-0.0574060601867,-0.00378066431269,0.0180066718936,-0.012466249163,0.573922200355,0.818895101137,0.00220639417549,0.0,0.818855279964,-0.57386258116,-0.0117692532043,0.0,-0.00837177791908,0.00856151805156,-0.999928304301,0.0,0.660540440454,0.259345978323,0.30351564537,1.0,-0.00702,-0.00922628571429,0.352
0.464125731619,0.540381479382,-0.124019643054,-1.36688845095,0.0788376491684,1.89808977452,0.157794529195,-0.00880476910802,-0.0420883139292,0.00152425798079,-0.060448326919,-0.000999040608521,0.0300241433758,-0.0106000364394,0.573924727753,0.818893263447,0.00223088683735,0.0,0.81885367578,-0.573864927564,-0.0117664555186,0.0,-0.00835540431294,0.00857999485863,-0.999928282882,0.0,0.660414761074,0.259194248179,0.303534742084,1.0,-0.00736,-0.00967314285714,0.369
0.464034424835,0.539711531443,-0.124026908375,-1.3679337325,0.0787692368394,1.89847977047,0.157665107617,-0.00811272145691,-0.0413527208445,-0.000370467605263,-0.0681941695682,-0.00719586389946,0.0219464732844,-0.00416235867209,0.573938208162,0.818883795874,0.00223807212051,0.0,0.818844378449,-0.573878457934,-0.011753565569,0.0,-0.00834058359304,0.00857861830164,-0.999928418425,0.0,0.66029781419,0.259029852764,0.303544667302,1.0,-0.00768,-0.0100937142857,0.385
0.463935124774,0.538969058609,-0.124032800033,-1.36908036177,0.0787044880632,1.89891691831,0.157515232147,-0.00291467273679,-0.0424491471406,0.00011970459441,-0.0636280821521,-0.00400873822517,0.0270891323954,-0.00850249125544,0.573947081491,0.818877498563,0.00226647202938,0.0,0.818838445246,-0.573887217704,-0.0117392011893,0.0,-0.00831242841809,0.00859372015012,-0.999928523199,0.0,0.660170098907,0.258853697525,0.303561546965,1.0,-0.00802,-0.0105405714286,0.402
0.463832897208,0.538204401023,-0.124036002716,-1.37027329164,0.078647583292,1.89937584266,0.157367082954,-0.00943292434483,-0.0445419548593,0.00096913061222,-0.0691839603268,-0.00437756227327,0.0313602653581,-0.00903444803922,0.573972315434,0.818859702534,0.00230555464982,0.0,0.818821030936,-0.57391217115,-0.0117339679419,0.0,-0.00828544714417,0.00862297540307,-0.999928495274,0.0,0.660029691046,0.258662409072,0.303576391668,1.0,-0.00838,-0.0110137142857,0.42
0.463715716134,0.537405349183,-0.124041404695,-1.37150345997,0.07856099961,1.89984681696,0.157229854143,-0.00551479630132,-0.0485101984649,-0.000244193837146,-0.0683707656341,-0.00689741963166,0.0354553641831,-0.00655014993761,0.573994592867,0.81884403565,0.00232369123949,0.0,0.818805764844,-0.573934550752,-0.0117046064907,0.0,-0.00825075937962,0.0086211986047,-0.999928797417,0.0,0.659902485986,0.258476663042,0.303593454513,1.0,-0.0087,-0.0114342857143,0.436
0.463603907116,0.536573455785,-0.124044273282,-1.37280700739,0.0784938263286,1.90033109958,0.157049842421,-0.00863894408272,-0.0467041161754,-0.00289320126283,-0.0781428967972,-0.00637096447566,0.0211154096062,-0.00902265013865,0.573994571304,0.818844005347,0.0023396414308,0.0,0.818805841755,-0.573934365814,-0.0117082939567,0.0,-0.008244624433,0.0086363755185,-0.999928717052,0.0,0.659752087939,0.258279396369,0.303602381145,1.0,-0.00904,-0.0118811428571,0.453
0.463487455094,0.535723687027,-0.124054288397,-1.37415178079,0.078406320746,1.90082144395,0.15689101083,-0.00783364220186,-0.052001836044,1.03174370431e-05,-0.086641862762,-0.00403900843307,0.03281321328,-0.0138906675813,0.574017347146,0.818828069401,0.00232912825764,0.0,0.818789847637,-0.573957259627,-0.0117045474046,0.0,-0.00824735066952,0.0086258458962,-0.999928785459,0.0,0.659597459647,0.258067407172,0.30360487102,1.0,-0.00938,-0.012328,0.47
0.46338555038,0.53488133345,-0.124056377419,-1.37547842881,0.0783328036416,1.90130513154,0.156740008631,-0.00948982425805,-0.0515843671468,0.000675650468728,-0.082368612974,-0.00222427061389,0.0354433999299,-0.00799923869593,0.574031690683,0.818818008179,0.00233119581975,0.0,0.818779741022,-0.573971518195,-0.011712339376,0.0,-0.00825239327925,0.00863215607919,-0.999928689401,0.0,0.659438862823,0.257873490036,0.303609781892,1.0,-0.0097,-0.0127485714286,0.486
0.463246989515,0.533942363799,-0.124056117603,-1.37702813256,0.0782565131668,1.90186852658,0.15655406051,-0.00631686231867,-0.0503152257334,0.00201034417597,-0.0789391768865,-0.00674930654252,0.0324045568319,-0.00179875451354,0.574057229537,0.818800195164,0.00229880745281,0.0,0.818761318654,-0.573996978131,-0.0117524071147,0.0,-0.0083035245765,0.008628895023,-0.999928294254,0.0,0.659255592171,0.257636528774,0.303583377098,1.0,-0.01006,-0.0132217142857,0.504
0.463131051786,0.533065072595,-0.12406123252,-1.37842282863,0.0781622737756,1.90239538412,0.156359051494,-0.00740893186608,-0.0529279159809,0.000355101144452,-0.0882494306023,-0.00298750265514,0.0327071580528,-0.00802896843979,0.574047154627,0.818807258113,0.0022989620537,0.0,0.818768489379,-0.573987013823,-0.0117394916448,0.0,-0.00829296626651,0.008621505454,-0.999928445617,0.0,0.659095477334,0.257423600753,0.303584017436,1.0,-0.01038,-0.0136422857143,0.52
0.462993907879,0.532116008652,-0.124064813733,-1.37995627271,0.0780891081815,1.90297511639,0.156173489776,-0.00749788479512,-0.0615085424676,-0.000225753967407,-0.0946517674114,-0.00372463425673,0.0356323775765,-0.0181888828305,0.574074314423,0.818788205326,0.00230287659528,0.0,0.818749329163,-0.574013990958,-0.01175674616,0.0,-0.00830456159224,0.0086348909076,-0.999928233883,0.0,0.658919066707,0.257189055472,0.30357363295,1.0,-0.01072,-0.0140891428571,0.537
0.462868592063,0.531188697194,-0.124054918042,-1.38144415187,0.0779882547222,1.9035130786,0.155995767107,-0.0117066004262,-0.0600710794555,0.00722834827013,-0.102897800876,-0.00350307330506,0.0340047211083,-0.0167724168342,0.574081746122,0.818783060503,0.00227936488746,0.0,0.818743922642,-0.574021556149,-0.0117638903114,0.0,-0.00832382979234,0.0086198167984,-0.999928203731,0.0,0.658729556135,0.256950976239,0.303565511805,1.0,-0.01106,-0.014536,0.554
0.46273147792,0.530156092035,-0.124059580869,-1.38308443832,0.0778891430056,1.90408826638,0.155771842232,-0.0045893254093,-0.0598212274725,-0.00118880846152,-0.0914004979793,-0.00796463882791,0.0272719983503,-0.00807428148008,0.574072951393,0.818789305091,0.00225105520284,0.0,0.81874971793,-0.574012786546,-0.0117884338666,0.0,-0.00836027006517,0.00861063761592,-0.999927978809,0.0,0.658540145052,0.256716848291,0.303562086541,1.0,-0.01138,-0.0149565714286,0.57
0.462596897777,0.529124989332,-0.124065168701,-1.38472500511,0.0777874062849,1.90468319443,0.15554954454,-0.00658919691806,-0.0561203076951,0.000794386276766,-0.095125245039,-0.00351905474139,0.029556810812,-0.0129290855876,0.574066712016,0.818793721902,0.0022356275171,0.0,0.818753940263,-0.574006613579,-0.0117957522671,0.0,-0.00837518416937,0.00860214317625,-0.999927927114,0.0,0.658343991918,0.256467705241,0.303559202312,1.0,-0.01172,-0.0154034285714,0.587
0.462453751075,0.528034814101,-0.124067650491,-1.38642395514,0.0776787691807,1.90534677872,0.155322412393,-0.011476119805,-0.0607896070867,-2.40745538488e-05,-0.0999940404137,-0.00580819012301,0.0427157506692,-0.0111710706768,0.574062702544,0.818796419883,0.00227667193417,0.0,0.818757258577,-0.574002537105,-0.0117637504493,0.0,-0.00832546157686,0.00861733795694,-0.999928211511,0.0,0.658150836944,0.256212123496,0.303575718187,1.0,-0.01206,-0.0158502857143,0.604
0.462309766462,0.526880673152,-0.124071236836,-1.38817741036,0.0775699497584,1.906018748,0.155074964051,-0.00806460229915,-0.0708027436714,-0.0016312852121,-0.109098437128,-0.00363522714567,0.0358200031647,-0.0123495031057,0.574046080696,0.818807906623,0.00233584895416,0.0,0.818769562818,-0.573985745765,-0.0117266176762,0.0,-0.00826126232221,0.00864430737358,-0.999928511192,0.0,0.657948233226,0.255950289459,0.303611783129,1.0,-0.0124,-0.0162971428571,0.621
0.462163796212,0.525721824716,-0.124074798497,-1.38999414272,0.0774558572423,1.9066906661,0.15483420275,-0.00756725943852,-0.0724862098451,0.000617965019318,-0.106683116391,-0.00862559319918,0.0429229147502,-0.0120269089974,0.574038217319,0.818813395515,0.0023442021649,0.0,0.818775184226,-0.573977877541,-0.011719244493,0.0,-0.00825051304101,0.0086468352549,-0.999928578087,0.0,0.657731144322,0.25567890623,0.303620750358,1.0,-0.01274,-0.016744,0.638
0.462004074796,0.52456855453,-0.124083745197,-1.39182734162,0.0773285341061,1.90735574675,0.154578759697,-0.0100886380363,-0.0606918579005,-0.000528086149543,-0.109930404937,-0.00608836251708,0.0317876093526,-0.0136131942369,0.574030365948,0.818818968046,0.00232022374978,0.0,0.818780579929,-0.57397025675,-0.0117155110467,0.0,-0.00826130229966,0.00862497929838,-0.999928677765,0.0,0.657513561411,0.255390773892,0.303617222757,1.0,-0.01308,-0.0171908571429,0.655
0.461852731465,0.523371745571,-0.124089343184,-1.39372649409,0.0772085612376,1.90803349825,0.154321142186,-0.0100667251521,-0.0724302780586,-0.00298259704735,-0.110457382621,-0.0102731224821,0.0408418521025,-0.00748578534184,0.574016751846,0.818828581585,0.00229553489819,0.0,0.818789874949,-0.573956738455,-0.0117281696868,0.0,-0.00828598235686,0.00861189240654,-0.999928586353,0.0,0.657280240093,0.255104926747,0.303613615904,1.0,-0.01342,-0.0176377142857,0.672
0.461699743624,0.522228849638,-0.124085117126,-1.3955615571,0.077103650814,1.90874298096,0.154070628441,-0.0129326591645,-0.0717717109704,0.00178427583353,-0.116695683334,-0.00423248493411,0.0439425801201,-0.00809337837871,0.574004176183,0.818837350019,0.00231232346841,0.0,0.818798793792,-0.573944031267,-0.0117273679003,0.0,-0.00827582193631,0.00862505187615,-0.999928557074,0.0,0.657063687394,0.254835190127,0.30360479013,1.0,-0.01374,-0.0180582857143,0.688
0.461531801298,0.520981523331,-0.124098613724,-1.39755334908,0.07698310227,1.90951797651,0.15380525738,-0.0156490598133,-0.0778701485537,-0.00178283029683,-0.115017602811,-0.00656332901446,0.0460949587714,-0.0150822683457,0.574008157816,0.818834501741,0.00233247102082,0.0,0.818796284257,-0.573948018166,-0.0117074434524,0.0,-0.00824790030381,0.00863015281102,-0.999928743763,0.0,0.656834098648,0.254530027604,0.30360066013,1.0,-0.01408,-0.0185051428571,0.705
0.461365796953,0.519693080591,-0.12409774685,-1.39960390835,0.0768543695687,1.91025873442,0.153524803647,-0.0111268327206,-0.0806316435025,0.000467460754847,-0.122998122485,-0.00515164442122,0.0458471704067,-0.0215797165198,0.57398823146,0.818848527917,0.00231200691518,0.0,0.818810015305,-0.573928139437,-0.0117216253244,0.0,-0.00827146906591,0.00862133539482,-0.999928625141,0.0,0.656580857366,0.254224527574,0.303593621286,1.0,-0.01442,-0.018952,0.722
0.4611954199,0.518352680567,-0.124111274458,-1.40167894354,0.0767118340443,1.91099911662,0.153241968486,-0.0155310451218,-0.0761801227725,-0.00293522762888,-0.11623304441,-0.0057868933864,0.0452143775564,-0.0131937459134,0.573977192857,0.818856282912,0.00230584381772,0.0,0.818817825162,-0.573917265641,-0.0117084712016,0.0,-0.00826435074226,0.00860862719571,-0.999928793487,0.0,0.65632751792,0.253903363342,0.303611389626,1.0,-0.01476,-0.0193988571429,0.739
0.461019013428,0.516991805785,-0.124106381261,-1.40381308391,0.0765656038609,1.91176931382,0.152960162508,-0.0143780014406,-0.0808087322569,0.000353984121818,-0.125559487342,-0.0074075841233,0.0472783858827,-0.014309437912,0.573960730582,0.818867850678,0.00229559929836,0.0,0.818829316721,-0.573900902506,-0.0117068818163,0.0,-0.00826910184778,0.00859916000554,-0.999928835669,0.0,0.65606346987,0.253583714394,0.303616994461,1.0,-0.0151,-0.0198457142857,0.756
0.460844036677,0.515740622367,-0.124112689237,-1.40583907898,0.0764410939332,1.91253639554,0.152672349525,-0.0127140334207,-0.079465831299,0.00139086734941,-0.130068367845,-0.00761615135276,0.0480546998106,-0.0178743111853,0.573946423239,0.81887790933,0.00228468031566,0.0,0.818839256063,-0.573886660816,-0.0117098321472,0.0,-0.00827793468578,0.00859176762577,-0.99992882613,0.0,0.655821793532,0.253273158598,0.303596913628,1.0,-0.01542,-0.0202662857143,0.772
0.460660779,0.5143470799,-0.1241167142,-1.40806047701,0.0763130275825,1.91335279684,0.152367400014,-0.00907955845081,-0.087912938532,-0.00116553982301,-0.132686611798,-0.00971534778114,0.0479999593567,-0.0194336163476,0.573932153077,0.818887931956,0.00227716091418,0.0,0.818849086252,-0.57387232217,-0.0117251307877,0.0,-0.00829492818391,0.00859424615777,-0.999928664005,0.0,0.655548338521,0.252940019393,0.303587445092,1.0,-0.01576,-0.0207131428571,0.789
0.460461220907,0.512942615454,-0.124119173907,-1.41033890329,0.0761745441773,1.91414044668,0.15206071204,-0.0129753308309,-0.0889733794266,-0.000422933050381,-0.13545611496,-0.0118036829456,0.0498512104263,-0.0175792825819,0.573928167537,0.818890925439,0.00220400591888,0.0,0.818851014297,-0.57386849654,-0.0117776044273,0.0,-0.00837992516546,0.00856441630071,-0.999928211237,0.0,0.655259315932,0.252586989454,0.303555514007,1.0,-0.0161,-0.02116,0.806
0.460268131746,0.5115348721,-0.124124840708,-1.41262044684,0.0760455475797,1.91496934251,0.151725901673,-0.0120352990319,-0.0870229921168,-0.000466389880731,-0.134175363828,-0.0141034007523,0.0477474043592,-0.0259402018659,0.573900865547,0.818910152228,0.00216933262243,0.0,0.818869654724,-0.573841194386,-0.0118118202882,0.0,-0.00842812939483,0.00855537926016,-0.99992788346,0.0,0.654975564361,0.252240336731,0.30352765728,1.0,-0.01644,-0.0216068571429,0.823
0.460066855242,0.510069641101,-0.124125470014,-1.41493164838,0.0759014146234,1.91585432908,0.151398076142,-0.00921899339506,-0.0845430048677,-0.00074810607691,-0.135991899072,-0.00726458717119,0.0548482531457,-0.0200177995257,0.573879563596,0.818925001825,0.00219881202441,0.0,0.818884913109,-0.573819806248,-0.0117930462576,0.0,-0.00839606018839,0.00856852720405,-0.999928040668,0.0,0.654698305822,0.251889900107,0.303530108577,1.0,-0.01678,-0.0220537142857,0.84
0.459856475894,0.508549638605,-0.12412556198,-1.41731158798,0.0757461352569,1.91670682905,0.151080546867,-0.0117401240063,-0.0902696675793,0.000234705100974,-0.139935807705,-0.0110632430072,0.0450867762922,-0.018325558402,0.573873430737,0.818929329072,0.00218778004006,0.0,0.818889100265,-0.573813720345,-0.0117984199336,0.0,-0.00840685577425,0.00856251380806,-0.999928001475,0.0,0.654401388326,0.251522547778,0.303534798377,1.0,-0.01712,-0.0225005714286,0.857
0.459656025647,0.507116425201,-0.124132216934,-1.41956954445,0.0756045004647,1.91752237072,0.150756134714,-0.0155759175751,-0.0927593835834,-0.000179989558365,-0.143745672508,-0.0143396831187,0.0486614787738,-0.0230087789659,0.573855323901,0.818942046315,0.00217690334259,0.0,0.818901664318,-0.573795646114,-0.0118054046487,0.0,-0.00841900667253,0.00855742883577,-0.999927942773,0.0,0.654121283867,0.25117094569,0.30353336923,1.0,-0.01744,-0.0229211428571,0.873
0.459388271029,0.505270910044,-0.124132940123,-1.42243668501,0.0754171597665,1.91860249982,0.1503664008,-0.0160763458873,-0.094632642152,0.0010388755666,-0.14709086305,-0.0121700320238,0.0508587314411,-0.0159393810357,0.573853402066,0.818943280176,0.00221893976137,0.0,0.818903526353,-0.573793645253,-0.0117734487176,0.0,-0.00836873430157,0.00857349626236,-0.999928227148,0.0,0.653775895384,0.250722569891,0.303552363567,1.0,-0.01784,-0.0234468571429,0.893
0.459198169369,0.503802777296,-0.124143362853,-1.42462470267,0.0752817916512,1.91945730076,0.150065499815,-0.0177397651003,-0.096001666402,-0.000701780386675,-0.148770360549,-0.010488074633,0.0539755349885,-0.0240908447242,0.573846328294,0.818947928383,0.00233002171128,0.0,0.818909706325,-0.573786246143,-0.0117039960783,0.0,-0.00824818773415,0.0086245386203,-0.999928789831,0.0,0.653517288634,0.250388024848,0.303610948811,1.0,-0.01814,-0.0238411428571,0.908
0.458941646105,0.50202855167,-0.124149480692,-1.42725826641,0.0751079760607,1.92043624328,0.149696520053,-0.0145095906978,-0.100727401213,-0.000297570484066,-0.151397445091,-0.0149925893823,0.0520786614096,-0.0174704320511,0.573846410764,0.81894759367,0.00242540239303,0.0,0.818910710774,-0.573786089751,-0.0116412150679,0.0,-0.00814203967161,0.00866662434064,-0.999929295907,0.0,0.653201170731,0.249966158082,0.303681210843,1.0,-0.0185,-0.0243142857143,0.926
0.458750647939,0.500621831519,-0.124145066758,-1.42939043555,0.0749702895036,1.92118097201,0.149400729659,-0.0131114157904,-0.103934817154,0.00111418201023,-0.153872975459,-0.0183748752596,0.0468300282219,-0.0203424933122,0.57382873083,0.818959932819,0.00244192810171,0.0,0.818923206394,-0.573768291546,-0.0116394392982,0.0,-0.00813129006325,0.00867896336785,-0.999929276357,0.0,0.652927542903,0.249638008984,0.303712430661,1.0,-0.01878,-0.0246822857143,0.94
0.458510353849,0.498921658764,-0.124145149067,-1.43198529211,0.0748083619374,1.92212983473,0.149038907408,-0.0101816285389,-0.104155558984,0.000564569898704,-0.15518097408,-0.0151924811799,0.0541414892125,-0.020085418883,0.573817501237,0.818967662857,0.00248784437237,0.0,0.818931493884,-0.57375686065,-0.011619814266,0.0,-0.00808899009349,0.00870519449732,-0.999929391421,0.0,0.652604558743,0.249233995209,0.303745473547,1.0,-0.01912,-0.0251291428571,0.957
0.458233143838,0.497154559652,-0.12414586039,-1.43479493084,0.0746416535778,1.92316486746,0.148618598051,-0.0190943956746,-0.0987773796909,0.000580029963845,-0.15603904916,-0.0117859455752,0.0515524506681,-0.0203751097392,0.573798491134,0.818980993724,0.00248402749183,0.0,0.818944660065,-0.573737742436,-0.0116358736501,0.0,-0.0081045350769,0.00871109550891,-0.999929214158,0.0,0.652257027043,0.248786118574,0.303729904874,1.0,-0.01948,-0.0256022857143,0.975
0.457984794397,0.495578029802,-0.124148047261,-1.43733722224,0.0744811288757,1.92404181746,0.148239310391,-0.0149258322911,-0.100607786759,-0.000669871890807,-0.157508533531,-0.0143782493331,0.05735310283,-0.0150784517548,0.573777591071,0.818995865326,0.00240737702044,0.0,0.81895843168,-0.573717006959,-0.0116888839534,0.0,-0.00819215221364,0.00867852847478,-0.999928783357,0.0,0.651929086092,0.248375950741,0.303694479957,1.0,-0.0198,-0.0260228571429,0.991
0.457710364888,0.493914392172,-0.124156130976,-1.44008676044,0.0743037622933,1.92501249007,0.147862371965,-0.0145723965532,-0.097345747002,-0.00163761217979,-0.161868199098,-0.0100548949871,0.0621709541547,-0.0197502194837,0.573789737565,0.818987657373,0.00230239811688,0.0,0.818948828365,-0.57372950666,-0.0117480469691,0.0,-0.00830071154458,0.00862662111671,-0.99992833723,0.0,0.651579419155,0.247925674431,0.303628898128,1.0,-0.020464,-0.0268955428571,1.008
0.457443890577,0.492225784979,-0.124155424237,-1.44278137773,0.0741288113693,1.926014865,0.147478472512,-0.0185076438422,-0.111242990558,-0.000290789687773,-0.171435869886,-0.0106359958388,0.0594324246772,-0.0196199248079,0.573780873517,0.81899389329,0.0022932161149,0.0,0.818954963446,-0.573720697476,-0.0117505759593,0.0,-0.00830814436192,0.00862046242842,-0.999928328614,0.0,0.651244716045,0.247495152712,0.303608564998,1.0,-0.0215702857143,-0.0283495183673,1.024
0.45714881845,0.49036635064,-0.124153335093,-1.44580545444,0.0739370831356,1.92706613777,0.147041204822,-0.0169673774935,-0.112895065833,0.000103298396513,-0.176363658785,-0.00584427715392,0.0666156681716,-0.0310702860069,0.573761724711,0.81900757605,0.00219557077213,0.0,0.818967235115,-0.573701780328,-0.011818712223,0.0,-0.00842017410346,0.00857939041355,-0.999927744754,0.0,0.650850354336,0.247010946872,0.303553846127,1.0,-0.0227457142857,-0.0298943673469,1.041
0.456823445813,0.488383547,-0.124170907888,-1.44896652419,0.073733305817,1.92820613299,0.146588932662,-0.0199895228059,-0.115736590496,-0.000279513513256,-0.186345388975,-0.00942921390266,0.0666200848395,-0.0342790623518,0.57377227507,0.819000293712,0.002154567727,0.0,0.818959453971,-0.573712525666,-0.0118362808892,0.0,-0.00845797787459,0.00855599815288,-0.999927626134,0.0,0.650454452398,0.24648508198,0.303527091099,1.0,-0.0239211428571,-0.0314392163265,1.058
0.456496418738,0.486374056994,-0.124175599426,-1.45203383245,0.0735457302536,1.92941275066,0.146153520794,-0.0175334384386,-0.125151540503,0.000452400612303,-0.194708302678,-0.0132987418537,0.0703904134936,-0.0253413862838,0.573793643585,0.818984982029,0.00228050286936,0.0,0.818945849792,-0.573733475497,-0.0117618495117,0.0,-0.00832453754697,0.0086166487441,-0.999928225144,0.0,0.650068663219,0.245950653784,0.303567350609,1.0,-0.0250965714286,-0.0329840653061,1.075
0.456110120603,0.484026025158,-0.124213611414,-1.4556166279,0.0733207021449,1.93069457846,0.145591125581,-0.0246001645255,-0.135879345195,-0.00183607377171,-0.207989723577,-0.00784041899654,0.0690388651471,-0.0361465945071,0.573786871707,0.818989636835,0.00231246962135,0.0,0.818950957609,-0.573726623025,-0.0117404413757,0.0,-0.00828873401571,0.00863047650371,-0.999928403319,0.0,0.649646289548,0.245368261001,0.303604624152,1.0,-0.026272,-0.0345289142857,1.092
0.455752301558,0.481850038452,-0.124243003328,-1.45899852001,0.073109731171,1.93185019207,0.145088745691,-0.0211364218235,-0.138057470821,-0.000668094843681,-0.20728128419,-0.013698282812,0.0724698648273,-0.0367165516979,0.573797761787,0.818982133058,0.00226742158928,0.0,0.818942793846,-0.573737604724,-0.0117731998033,0.0,-0.00834129585211,0.0086124900845,-0.999928121316,0.0,0.649209746804,0.244791502694,0.303605395119,1.0,-0.0273782857143,-0.0359828897959,1.108
0.455344732784,0.479428443001,-0.124256575677,-1.46271993805,0.0728795162179,1.93323147768,0.144543077671,-0.02427682442,-0.149558326017,-0.00239549862214,-0.222356262751,-0.0136108823206,0.0760783410278,-0.0335357774151,0.573813614974,0.818970835957,0.00233495668352,0.0,0.818932355217,-0.573753181118,-0.011740171975,0.0,-0.00827532895742,0.00864900861777,-0.999928354224,0.0,0.64874881642,0.244167023076,0.303632665051,1.0,-0.0285537142857,-0.0375277387755,1.125
0.45492068988,0.476939310669,-0.124268594768,-1.46652466453,0.0726407870818,1.93462316396,0.144001220463,-0.0202963978076,-0.155291317543,0.00669103070796,-0.223830001483,-0.0172411963157,0.0780231130843,-0.0278806295956,0.573845421255,0.818948368416,0.00239776454483,0.0,0.818910675717,-0.573784721745,-0.0117109004769,0.0,-0.00821498033989,0.00868396879436,-0.999928548839,0.0,0.648272800621,0.243523543297,0.30366647147,1.0,-0.0297291428571,-0.0390725877551,1.142
0.454507983751,0.474481384815,-0.124276135047,-1.47029076097,0.0724011438457,1.93599539251,0.143462073325,-0.0259876915703,-0.159627788095,0.000515957573636,-0.234897449924,-0.0162158588473,0.0853918522404,-0.0329923153156,0.57386363256,0.818935453257,0.00244980097781,0.0,0.818898405219,-0.573802708498,-0.0116876238793,0.0,-0.00816586434092,0.0087134081693,-0.999928695047,0.0,0.647795340257,0.242893129855,0.303693818848,1.0,-0.0308354285714,-0.0405265632653,1.158
0.454056110555,0.471819278701,-0.124280034501,-1.47442070202,0.0721397720969,1.93742276994,0.142849625662,-0.0270643470061,-0.160250371603,-0.000765084029301,-0.241885126732,-0.0130188962927,0.0913855217637,-0.0464254253783,0.573861253021,0.818937215285,0.00241797514887,0.0,0.818899560614,-0.573800239668,-0.0117278081807,0.0,-0.00821706205686,0.00871038118656,-0.999928302005,0.0,0.647251230806,0.242200032775,0.303692428,1.0,-0.0320108571429,-0.0420714122449,1.175
0.453599186015,0.469059956806,-0.124274851341,-1.47860071794,0.071875823307,1.93901023397,0.142186688061,-0.0240405095469,-0.162279938427,0.000554265463108,-0.247272277729,-0.0158092305099,0.10057854082,-0.0403977442092,0.573816238277,0.818968325629,0.00255992320649,0.0,0.818932495289,-0.573754699622,-0.011655887916,0.0,-0.00807719055086,0.00878491119375,-0.999928789629,0.0,0.646725645932,0.241514821584,0.303746099281,1.0,-0.0331862857143,-0.0436162612245,1.192
0.453111769545,0.466204336816,-0.124279929444,-1.48297588657,0.0715760530881,1.9405974874,0.141495243844,-0.0273975086109,-0.16470502286,-0.000561735031249,-0.267226051765,-0.0173048469341,0.0919379087639,-0.0356402011083,0.573777414487,0.818995383071,0.00260538538102,0.0,0.818960241048,-0.573715829964,-0.0116196787115,0.0,-0.008021866827,0.00880098569414,-0.999929093638,0.0,0.646162173733,0.240777108723,0.303771842057,1.0,-0.0343617142857,-0.0451611102041,1.209
0.452595142012,0.463287628719,-0.124286444331,-1.48756889313,0.0712581525367,1.94215317171,0.140811301581,-0.0342653863832,-0.171145078078,-0.000783698603591,-0.274864617219,-0.0195329684756,0.100380706167,-0.047395499135,0.573772827564,0.818998950797,0.0024915545242,0.0,0.81896227908,-0.573711587069,-0.0116853416012,0.0,-0.00814100555032,0.008745389039,-0.999928618552,0.0,0.645544258946,0.239990690199,0.303731626304,1.0,-0.0355371428571,-0.0467059591837,1.226
0.452067307782,0.460288539619,-0.124284369898,-1.49225797114,0.0709479616746,1.94380311172,0.140123279419,-0.0258482403452,-0.175363802123,-0.001445602796,-0.27785932568,-0.0194687517675,0.099773813197,-0.0412558996749,0.573773462178,0.818998621154,0.0024534769062,0.0,0.81896133515,-0.573712231281,-0.0117198168898,0.0,-0.00819108186639,0.0087339907922,-0.999928309222,0.0,0.644919936342,0.239199846449,0.303708293799,1.0,-0.0367125714286,-0.0482508081633,1.243
0.45149173118,0.457246048462,-0.124293217104,-1.49702920685,0.070630972066,1.94550474752,0.139380044097,-0.0366220065805,-0.173534619536,-0.000254491306651,-0.292035944979,-0.0163461012415,0.101688547764,-0.0445389884285,0.573776360103,0.818996682606,0.00242267810954,0.0,0.818958954234,-0.57371519712,-0.0117409869653,0.0,-0.00822606050312,0.0087209426012,-0.999928135962,0.0,0.644296657294,0.23836569067,0.303678443171,1.0,-0.037888,-0.0497956571429,1.26
0.450930171788,0.454285598627,-0.124320385844,-1.50173655607,0.0703057714008,1.9470993409,0.138657808939,-0.0290624296374,-0.188476374687,-0.000234776253878,-0.294517180843,-0.0220132637367,0.104134912294,-0.0452980478378,0.573790690868,0.818987056752,0.00227834295858,0.0,0.818947443565,-0.573730063155,-0.0118171998273,0.0,-0.00837114102647,0.00864660886852,-0.999927577454,0.0,0.643662849526,0.237528743764,0.303611862379,1.0,-0.0389942857143,-0.0512496326531,1.276
0.450332114946,0.450930245216,-0.124376856676,-1.50672304687,0.0699723026149,1.94897654744,0.137852995707,-0.0340096973107,-0.197207328686,-0.000596613258076,-0.292930786226,-0.0138782872949,0.111873250302,-0.048290050171,0.573798669172,0.818980916907,0.00246817748851,0.0,0.818944117671,-0.573737698023,-0.0116761680708,0.0,-0.00814662920985,0.00872123704646,-0.999928783693,0.0,0.643036931839,0.23664108984,0.303705850935,1.0,-0.0401697142857,-0.0527944816327,1.293
0.449741395963,0.447710718052,-0.124393210502,-1.51155621074,0.0696342772964,1.95063435148,0.137142599439,-0.0328947652211,-0.203728397643,0.000220936901799,-0.313428886365,-0.0231321631834,0.10340993374,-0.0467088535171,0.573836927216,0.818954032283,0.0024941675583,0.0,0.818917614847,-0.5737759063,-0.011657458774,0.0,-0.00811598587578,0.00873216619114,-0.999928937498,0.0,0.642387580572,0.235784007046,0.303756928861,1.0,-0.041276,-0.0542484571429,1.309
0.449063091112,0.444076106333,-0.124395212333,-1.51715765466,0.0692569149796,1.95256228558,0.136299325694,-0.0379065203953,-0.192895687637,-0.000203427976084,-0.314442325212,-0.0197442106189,0.109105241586,-0.0416752714942,0.57384969027,0.818945200099,0.00245746069239,0.0,0.818908141595,-0.573788622915,-0.0116969544461,0.0,-0.00816925899638,0.00872489623591,-0.999928567145,0.0,0.641622628416,0.234807187598,0.303747379917,1.0,-0.0425205714286,-0.0558841795918,1.327
0.448442202155,0.440791235,-0.124397619459,-1.52222700696,0.0688989547605,1.95437615982,0.135455819168,-0.0431107068172,-0.200976583274,-0.000159847462115,-0.315293584282,-0.0240898796441,0.105722727812,-0.0486266503851,0.573794895516,0.818983563056,0.00246743287464,0.0,0.818946714506,-0.573733885073,-0.0116813877711,0.0,-0.00815137166806,0.00872358467759,-0.999928724565,0.0,0.640941858153,0.233921042967,0.303738984263,1.0,-0.0436268571429,-0.057338155102,1.343
0.447749222804,0.437241738958,-0.124406096598,-1.52775175755,0.0685348048184,1.95632200788,0.134575793648,-0.0403959674621,-0.211082659366,-0.0028203330458,-0.328657914968,-0.0203538778963,0.109883732209,-0.0531838356339,0.573790700291,0.818986583583,0.00244030178226,0.0,0.818949214385,-0.573729609055,-0.0117160937191,0.0,-0.00819540796746,0.00872123675805,-0.999928385094,0.0,0.640191447011,0.232944092807,0.303703778569,1.0,-0.0448022857143,-0.0588830040816,1.36
0.446923701451,0.433052806404,-0.124427599236,-1.5339956688,0.0680955664788,1.95855585478,0.133583169478,-0.0464912346284,-0.221653029085,-0.00559171941862,-0.331469092557,-0.0208706834842,0.125340099232,-0.0451882400012,0.573819425361,0.818966046784,0.00257452820108,0.0,0.818930604636,-0.573758051807,-0.0116236689038,0.0,-0.00804238872717,0.00877841595901,-0.999929127187,0.0,0.639362161175,0.23180737995,0.303783747862,1.0,-0.046116,-0.0606096,1.379
0.446295778373,0.429974541794,-0.124437330414,-1.53878212792,0.0677404521497,1.96015115963,0.132818720633,-0.0488228812088,-0.226547600649,-0.000637446790458,-0.350423492498,-0.0281705613391,0.114256109896,-0.0559640322318,0.573821215575,0.818965144089,0.00246012697008,0.0,0.818928254686,-0.573760285859,-0.0116788247847,0.0,-0.00815318424307,0.00871639273795,-0.999928772505,0.0,0.638692869663,0.230932293721,0.303741957515,1.0,-0.047084,-0.0618818285714,1.393
0.445539755928,0.426139095513,-0.124478382776,-1.54470075906,0.0673140457863,1.96210565916,0.131845970689,-0.047698892114,-0.230297415665,-0.00160184815612,-0.346661335972,-0.0245335091098,0.126780915137,-0.058399263725,0.5738063452,0.818975906392,0.00234304480797,0.0,0.818937542515,-0.573745894401,-0.0117344372748,0.0,-0.00826606821163,0.00865226850568,-0.99992840262,0.0,0.637811687287,0.229785709096,0.303714858618,1.0,-0.0483285714286,-0.0635175510204,1.411
0.444746617266,0.422201003156,-0.124494364371,-1.55062608945,0.0668982690968,1.96418326928,0.130862678961,-0.0466366202751,-0.232612724453,-0.00153263809563,-0.35843875114,-0.0205545888589,0.118686178709,-0.0563887211023,0.573797627763,0.818981858541,0.00239680101644,0.0,0.818944197069,-0.573736983958,-0.0117056493872,0.0,-0.00821173920563,0.0086796872446,-0.999928612636,0.0,0.637044205269,0.228767324195,0.303742539728,1.0,-0.0494348571429,-0.0649715265306,1.427
0.443815580566,0.417711563155,-0.124512471416,-1.55736242038,0.0664360712375,1.96657651632,0.12980710549,-0.0510149468011,-0.239120660502,-0.00252080487474,-0.352419583995,-0.0253429914709,0.133167280818,-0.0539467196011,0.57386205077,0.818936372943,0.00251210234375,0.0,0.818900205614,-0.573800982023,-0.0116461657187,0.0,-0.00809617779712,0.00874062195285,-0.999929024198,0.0,0.636124613532,0.227524953483,0.303790505359,1.0,-0.0507485714286,-0.066698122449,1.446
0.443033403505,0.413857028052,-0.124509484956,-1.56312833763,0.0660338318297,1.96865122488,0.128826822131,-0.0448002065296,-0.239473021816,0.00140927168036,-0.362443195743,-0.0330805982769,0.124501994358,-0.0602894030108,0.573823617034,0.818962890968,0.00264322768392,0.0,0.81892843616,-0.573762114232,-0.0115758206128,0.0,-0.00796373693666,0.00880726313487,-0.99992950302,0.0,0.635329569746,0.226484196826,0.303837360677,1.0,-0.0518548571429,-0.0681520979592,1.462
0.442169003008,0.409704787748,-0.124536651624,-1.5694864136,0.0655681975183,1.97066941864,0.127763540195,-0.0477065815383,-0.238952678453,-0.000458656838908,-0.375797521259,-0.028302727024,0.114042365789,-0.0575662024663,0.57380844551,0.818974058561,0.00247106605166,0.0,0.818937206582,-0.573747366149,-0.0116858210386,0.0,-0.00815277361104,0.00872923879919,-0.999928663792,0.0,0.634396920796,0.225297728943,0.303796424282,1.0,-0.0530302857143,-0.0696969469388,1.479
0.441286812901,0.40548912601,-0.124555455982,-1.57591061555,0.065134137171,1.97287709167,0.126719179135,-0.0487940762321,-0.241503148838,-0.00265753939483,-0.378247178811,-0.0284268513152,0.126446891298,-0.060279198538,0.57382799544,0.818960362089,0.00247060244898,0.0,0.818923267719,-0.573766662358,-0.0117151891085,0.0,-0.0081768836234,0.00874590569886,-0.999928321285,0.0,0.633480036365,0.224116577108,0.303778812535,1.0,-0.0542057142857,-0.0712417959184,1.496
0.440457507471,0.401724611313,-0.124558376278,-1.58162047105,0.0647427953584,1.97484515776,0.125738208663,-0.0562817600405,-0.260541876759,-4.70380555945e-05,-0.382557295221,-0.0299668768915,0.128439833067,-0.0702536908639,0.573824350222,0.818962854529,0.0024909629097,0.0,0.818925812305,-0.573762715945,-0.0117305854099,0.0,-0.00817784951713,0.00877137825101,-0.999928090265,0.0,0.632667942335,0.223047671741,0.303771413445,1.0,-0.0552428571429,-0.0726048979592,1.511
0.439493616442,0.397295972881,-0.124584552239,-1.58805880903,0.0642621495614,1.9771495412,0.124626066805,-0.0535814659462,-0.264627249852,0.000283062868838,-0.377005842359,-0.0252994268723,0.13109465898,-0.0739808305006,0.573840277922,0.818950982015,0.00271503071827,0.0,0.81891721603,-0.573778263463,-0.0115691213654,0.0,-0.00791687011674,0.00886238384522,-0.999929388167,0.0,0.631780159219,0.221814100882,0.303889310177,1.0,-0.0564182857143,-0.0741497469388,1.528
0.438499855942,0.392835260624,-0.124591833271,-1.59484676886,0.063757613368,1.97932905954,0.123506958425,-0.0578493385103,-0.26439823023,-0.00233565823419,-0.403108047904,-0.0196452575988,0.124709154732,-0.0669735631853,0.573863106449,0.818935427393,0.00257831707134,0.0,0.818899681765,-0.573801329413,-0.011665867747,0.0,-0.0080743060815,0.00880616367984,-0.999928625984,0.0,0.630770613376,0.22052454944,0.30384750064,1.0,-0.0575937142857,-0.0756945959184,1.545
0.437450774374,0.388086675789,-0.124604701893,-1.60204991391,0.0632159638744,1.98172506529,0.122254100144,-0.0619206639342,-0.25733930815,-0.00164543670508,-0.402431650243,-0.0283136334619,0.138879295864,-0.0727643350037,0.573813866255,0.818970143291,0.00250961990811,0.0,0.818933479461,-0.573752311807,-0.0117041794071,0.0,-0.00814563009073,0.00877140107706,-0.99992835305,0.0,0.62964630018,0.219094225931,0.303814778585,1.0,-0.0589074285714,-0.0774211918367,1.564
0.436483697047,0.383780600268,-0.124595222138,-1.60847777303,0.0627440956529,1.98389519658,0.121066758013,-0.0622865335559,-0.277254642183,0.000353220199196,-0.389573465275,-0.0223952366992,0.12595333906,-0.0675345854103,0.573748858898,0.819015580354,0.00254419949923,0.0,0.818979223821,-0.573687035097,-0.0117031454243,0.0,-0.00812564061797,0.00879848226186,-0.999928277765,0.0,0.628760883045,0.217948737245,0.303829206028,1.0,-0.0599445714286,-0.0787842938775,1.579
0.435422408061,0.379131619077,-0.124606250376,-1.61533412368,0.0622421338176,1.98630133514,0.119882589926,-0.0655039178755,-0.266044285705,-0.00254996936885,-0.417690886739,-0.0251037323264,0.145587402317,-0.0714439538899,0.573769898321,0.819000347864,0.0026983107372,0.0,0.818966087462,-0.573707638897,-0.0116120437532,0.0,-0.00796237969168,0.0088726369765,-0.999928935886,0.0,0.627773589486,0.216630689219,0.303884528055,1.0,-0.06112,-0.0803291428571,1.596
0.434302186852,0.374427642087,-0.124626127554,-1.62251605402,0.0616634806686,1.98855035281,0.118603466262,-0.0666396434153,-0.279502471191,-0.000858152087024,-0.415638229579,-0.0402184970846,0.127729130785,-0.07898569901,0.57375036703,0.81901474172,0.00247307090594,0.0,0.818977557797,-0.573688904622,-0.0117280620429,0.0,-0.00818683998793,0.00875453802449,-0.999928164277,0.0,0.626676843061,0.215216338702,0.30380394964,1.0,-0.0622954285714,-0.0818739918367,1.613
0.433228882587,0.369903987869,-0.124670477082,-1.62926439064,0.0611556028152,1.99071847018,0.117446156231,-0.0688573810862,-0.28070792087,-0.000387358928441,-0.429555159557,-0.0356777337434,0.138972641789,-0.0652692928689,0.573813389251,0.818970776001,0.00241024351796,0.0,0.818932695043,-0.573752065706,-0.0117709383241,0.0,-0.00825733127545,0.00872831728142,-0.999927813873,0.0,0.625659490645,0.213871943273,0.303796901058,1.0,-0.0634017142857,-0.0833279673469,1.629
0.432137182952,0.36529524688,-0.124694343177,-1.6359351652,0.0606335971456,1.99304894637,0.116261585854,-0.0727703920219,-0.28903038946,-0.00078404837949,-0.407211082691,-0.0339199122247,0.149241502116,-0.0744060747557,0.573842901534,0.818949493393,0.00260739950353,0.0,0.818914357345,-0.573781279739,-0.0116217578574,0.0,-0.00802171012853,0.00880446965193,-0.999929064224,0.0,0.624690378194,0.212548211688,0.303890585556,1.0,-0.064508,-0.0847819428571,1.645
0.430931924282,0.360377321625,-0.124709158847,-1.64312287424,0.0600940870842,1.99550073304,0.114871778713,-0.0742763678988,-0.290813318901,-0.00128884781288,-0.433885348638,-0.0257367133895,0.138988989532,-0.0824172290815,0.573800621845,0.818978655245,0.00274873143068,0.0,0.81894539381,-0.573738577242,-0.0115426965289,0.0,-0.00787632046445,0.00887443825045,-0.999929601483,0.0,0.623626515462,0.211112675403,0.303948702254,1.0,-0.0656834285714,-0.0863267918367,1.662
0.429683522231,0.355417821972,-0.124738969558,-1.6506150413,0.0595354967897,1.99777916967,0.113522055017,-0.0800627279825,-0.293832982637,-0.000625825215201,-0.445691062275,-0.033463457707,0.142148798293,-0.0906109358317,0.573837625961,0.818953418802,0.00253451475212,0.0,0.818916869786,-0.573775753692,-0.0117171564612,0.0,-0.00814171898371,0.00879947155104,-0.999928138274,0.0,0.622447860626,0.209598447095,0.303870081109,1.0,-0.0668588571429,-0.0878716408163,1.679
0.428415339473,0.35042793982,-0.124767398453,-1.65813990847,0.0589697468435,2.00017775673,0.112139928168,-0.0814110160466,-0.28994181511,0.00120635038495,-0.436511296957,-0.0251184584138,0.142942979764,-0.0855322496046,0.573858125156,0.818939423042,0.00241256733915,0.0,0.818900969907,-0.573796362085,-0.0118187666246,0.0,-0.00829469125668,0.00875811761178,-0.99992724409,0.0,0.621278934329,0.208079271096,0.303800134438,1.0,-0.0680342857143,-0.0894164897959,1.696
0.427108569701,0.345218893152,-0.124780647913,-1.66552753838,0.0584076863669,2.0027539648,0.110712312686,-0.0729112413965,-0.303448667197,-0.00129612497001,-0.436833351748,-0.0292871572845,0.14545777703,-0.0824647823788,0.573853540594,0.818941625816,0.00273392686401,0.0,0.818907590151,-0.573790884427,-0.0116243986127,0.0,-0.0079511546701,0.00890970730048,-0.999928695585,0.0,0.620184259759,0.206577633647,0.303945858226,1.0,-0.0692097142857,-0.0909613387755,1.713
0.425779458061,0.340029404857,-0.124782446863,-1.673130103,0.0577861547439,2.00514018495,0.109321314371,-0.0782502773697,-0.306739065523,-0.000263881201327,-0.451318525827,-0.0413379940779,0.13780008198,-0.0848023703963,0.573870351979,0.818929956019,0.0027005843511,0.0,0.818895446888,-0.573807762109,-0.0116467209984,0.0,-0.0079883862533,0.00889537537136,-0.999928526437,0.0,0.619057027079,0.205122338392,0.303955088483,1.0,-0.070316,-0.0924153142857,1.729
0.42452464358,0.335111723663,-0.124780724866,-1.68045942156,0.0571834025466,2.00738584817,0.107911403082,-0.0824885356868,-0.312088603464,4.92713103696e-05,-0.456735843518,-0.0482230655686,0.145299335334,-0.0893846954961,0.573798650591,0.818980746482,0.00252831439732,0.0,0.818943831219,-0.573736497445,-0.0117549865343,0.0,-0.00817667882639,0.00881571261995,-0.999927709954,0.0,0.617799502216,0.203553942441,0.303895658077,1.0,-0.0714914285714,-0.0939601632653,1.746
0.423155138196,0.329791191275,-0.124772929621,-1.6881560246,0.0565605606495,2.00989927397,0.106408839783,-0.0815848957151,-0.315764843751,0.000537387593633,-0.448844338802,-0.0383718183695,0.147788331558,-0.089257496512,0.573742881728,0.8190195153,0.00262414265529,0.0,0.818983909395,-0.573680459881,-0.0116975639845,0.0,-0.00807526929347,0.00886069527616,-0.99992813647,0.0,0.616588315394,0.201992926709,0.303941868483,1.0,-0.0726668571429,-0.0955050122449,1.763
0.421718365586,0.324450141737,-0.12477821933,-1.695876782,0.0559547603919,2.01248427336,0.104845146681,-0.0896981109989,-0.314056304351,-0.000304291164595,-0.459450725514,-0.039533776413,0.148608434842,-0.0888961577377,0.573704492827,0.819045881262,0.00278319953371,0.0,0.819012395698,-0.573641589012,-0.0116090460655,0.0,-0.00791193469156,0.00893980892206,-0.999928738014,0.0,0.615389649683,0.200391380135,0.303989187479,1.0,-0.0738422857143,-0.0970498612245,1.78
0.420315191501,0.319354206227,-0.124811437479,-1.70339856373,0.055332921857,2.01474390083,0.103462001009,-0.0854594758875,-0.322379269525,0.000261170290533,-0.471502744214,-0.0409933415348,0.141612135698,-0.0950435096614,0.573789148663,0.818987109355,0.00262192470489,0.0,0.818951362486,-0.573726605807,-0.0117130087064,0.0,-0.00808869091304,0.00886819684359,-0.999927961487,0.0,0.614163090439,0.198796169031,0.303937265163,1.0,-0.0749485714286,-0.0985038367347,1.796
0.418718474336,0.31353854201,-0.124859351014,-1.71187804104,0.0546366430954,2.0173373166,0.101707067625,-0.0908088754,-0.324570906419,-0.00248094858407,-0.472797023362,-0.0433323091125,0.145101512661,-0.0938331677166,0.573740730949,0.81902128162,0.00254181124604,0.0,0.818984377859,-0.573678358675,-0.0117676043431,0.0,-0.00817989377527,0.00883342769014,-0.99992752732,0.0,0.612783435476,0.196992200443,0.303920303595,1.0,-0.0761931428571,-0.100139559184,1.814
0.417245734749,0.308280500364,-0.124869751634,-1.71928597892,0.053996708667,2.01982821534,0.100197971128,-0.0951051462424,-0.323674146219,0.0007661381159,-0.473026974609,-0.0375407887509,0.147318025608,-0.0848499181281,0.573741966068,0.819019621039,0.00278632851699,0.0,0.818986476161,-0.573679386534,-0.0115697982893,0.0,-0.00787758424402,0.00892021593288,-0.9999291842,0.0,0.611627934193,0.195402209551,0.304030293549,1.0,-0.0772994285714,-0.101593534694,1.83
0.415627471448,0.302710463085,-0.124895585657,-1.72743060399,0.0533278450443,2.02228739501,0.0984942871772,-0.0996184341607,-0.326654460436,-0.00469577554221,-0.486453421411,-0.0417291485187,0.135815127096,-0.0968895150834,0.573723164471,0.819033155408,0.00267727358604,0.0,0.818998319177,-0.573660646657,-0.0116602986097,0.0,-0.00801447897018,0.00888263700224,-0.999928430882,0.0,0.610284079395,0.19363845737,0.303984628536,1.0,-0.0784748571429,-0.103138383673,1.847
0.413991019587,0.297101308027,-0.124961822151,-1.73568222113,0.0526575891321,2.02471520988,0.0969197204417,-0.1016178596,-0.326422769883,-0.00230832175607,-0.489208069584,-0.0370360680004,0.14142552686,-0.0949403447395,0.573853644224,0.818942341428,0.00248663008727,0.0,0.818904625419,-0.573791361118,-0.0118082714994,0.0,-0.0082436453633,0.00881270218392,-0.999927186645,0.0,0.608902317128,0.191832873826,0.303903793119,1.0,-0.0796502857143,-0.104683232653,1.864
0.412207494575,0.290963489102,-0.124999380837,-1.74422283761,0.0519607494612,2.02753228586,0.0950628067664,-0.102687095085,-0.346090070521,-0.00130246020826,-0.474141050805,-0.0426930124568,0.1645420998,-0.104097510709,0.573845848412,0.818946739788,0.0028154132317,0.0,0.818913600177,-0.573782737292,-0.0116031345664,0.0,-0.00788706556427,0.00896416337301,-0.999928716445,0.0,0.607540530621,0.189954497167,0.304047455374,1.0,-0.0808948571429,-0.106318955102,1.882
0.410594177209,0.285539825077,-0.125013962199,-1.75203111075,0.0512963287691,2.02984924156,0.0934224987099,-0.101967256644,-0.335090676671,-0.00124407975151,-0.497416677471,-0.0522471079002,0.136951087295,-0.10205916422,0.573839472122,0.818951449243,0.00274425181176,0.0,0.818917175165,-0.573776365075,-0.0116657620266,0.0,-0.0079792595143,0.00894176182151,-0.999928185578,0.0,0.606219688661,0.188244822635,0.304028544129,1.0,-0.0820011428571,-0.107772930612,1.898
0.408853026282,0.279732059563,-0.125024934543,-1.76047479123,0.0505301899635,2.03228779575,0.0916172838929,-0.103783065943,-0.338316798036,0.000122366315192,-0.501308843665,-0.038862884118,0.144362375903,-0.117608934272,0.57377639691,0.818996292644,0.00254281078052,0.0,0.818959324155,-0.573713932478,-0.0117769249468,0.0,-0.00818656951453,0.00883995035734,-0.999927415044,0.0,0.604763360939,0.186396269728,0.303957338405,1.0,-0.0831765714286,-0.109317779592,1.915
0.407059946437,0.273791138924,-0.125031018521,-1.76875505722,0.049839048639,2.0349186819,0.089857214279,-0.109487084816,-0.344052580052,-0.00065920303129,-0.480773774452,-0.0398211075113,0.16055318311,-0.108392266854,0.573806364713,0.818974543667,0.00277480487151,0.0,0.818940673832,-0.573743165588,-0.0116490164912,0.0,-0.00794837566504,0.00895685282369,-0.999928296485,0.0,0.60338994266,0.184565724699,0.304053675872,1.0,-0.084352,-0.110862628571,1.932
0.405206088504,0.267872662715,-0.125074042966,-1.77714288447,0.0491004594817,2.03746403704,0.087976712753,-0.118895410591,-0.353550772719,-0.0032890676032,-0.502419687949,-0.0396082455358,0.144693475775,-0.104922256699,0.573795715405,0.818981890031,0.00280850225494,0.0,0.818948590311,-0.573732553801,-0.0116150780497,0.0,-0.0079013615286,0.00896487358317,-0.999928597215,0.0,0.601973047377,0.182660950982,0.304069508586,1.0,-0.0855274285714,-0.112407477551,1.949
0.40354115056,0.26254802581,-0.125139321001,-1.78475232515,0.0484217928734,2.03957900561,0.0863594524814,-0.111354451359,-0.357653419353,-0.00381054652877,-0.513651705497,-0.0526442890316,0.142689638311,-0.10407527024,0.573856030539,0.818940174864,0.00264444872796,0.0,0.818904548869,-0.573793210076,-0.0117234300887,0.0,-0.00808357679623,0.00889328337084,-0.999927780041,0.0,0.600636815207,0.180921843846,0.304031501383,1.0,-0.0865645714286,-0.113770579592,1.964
0.401498507622,0.256131131644,-0.125155204403,-1.79374351209,0.0476193304643,2.04226162154,0.0843515947246,-0.112968869985,-0.371874309792,-0.000287301782701,-0.490933846504,-0.0484514191806,0.15800928777,-0.11087214044,0.573855273064,0.818940495194,0.00270883918387,0.0,0.818905769393,-0.573792295916,-0.0116828465738,0.0,-0.00801339938657,0.00892271893676,-0.999928082672,0.0,0.59908683195,0.178876727537,0.304069531989,1.0,-0.0878091428571,-0.115406302041,1.982
0.399538954492,0.250044468313,-0.125133605126,-1.80225338914,0.0468524223099,2.04485145859,0.0824063714938,-0.116153414393,-0.361970587984,0.00041228232545,-0.507000549959,-0.0469584455889,0.150701118051,-0.116892467985,0.573801121683,0.818978054215,0.00282247613859,0.0,0.818944926812,-0.573737902438,-0.0116091798727,0.0,-0.0078884538809,0.00897298570529,-0.999928626364,0.0,0.597614509639,0.176956646535,0.304107241975,1.0,-0.0889845714286,-0.11695115102,1.999
0.397540403248,0.243931390844,-0.125160002871,-1.81101457643,0.0460967925713,2.04729694422,0.0804178383998,-0.117738169979,-0.359117160543,-0.000809370486549,-0.521579278849,-0.0492114197229,0.146788240684,-0.114114372198,0.573785228936,0.818989746721,0.00265569619211,0.0,0.818953815375,-0.57372188027,-0.0117728196734,0.0,-0.008118343893,0.00893013449327,-0.999927169943,0.0,0.59603864507,0.174962466083,0.304022605299,1.0,-0.09016,-0.118496,2.016
0.395611387426,0.238038258038,-0.125146032994,-1.81917103112,0.0453919034006,2.04962774202,0.0785022796362,-0.117636952861,-0.379561855299,0.00221336821516,-0.507005593823,-0.0418715568567,0.152320871937,-0.122604907117,0.573736406155,0.81902374114,0.00271930204317,0.0,0.818988225262,-0.5736723773,-0.0117914081844,0.0,-0.0080976106809,0.00899240964126,-0.999926779954,0.0,0.594579901114,0.173100391061,0.304063125663,1.0,-0.0912662857143,-0.11994997551,2.032
0.393648154946,0.23210890083,-0.125152030854,-1.82727711044,0.0446384806987,2.05209119269,0.0766356372006,-0.12018765527,-0.362426162756,-0.00149194668638,-0.514129443958,-0.0510921818096,0.148003075947,-0.120468620038,0.573746433314,0.819016012743,0.00292370179153,0.0,0.818983572994,-0.573682165715,-0.0116373024386,0.0,-0.00785401268073,0.00907149916158,-0.999928008603,0.0,0.593162509873,0.171219336758,0.304151532202,1.0,-0.0923725714286,-0.12140395102,2.048
0.391482977193,0.225807969371,-0.125176408107,-1.83615967083,0.0437838380163,2.0545089074,0.0744830068837,-0.133826224075,-0.375774286358,-0.00126028626324,-0.530934009432,-0.0491542448441,0.144739232352,-0.128709036315,0.573675979659,0.819065957342,0.00275223293343,0.0,0.819031178882,-0.573612184961,-0.0117361060321,0.0,-0.00803408525722,0.00898705973812,-0.999927340476,0.0,0.591537949812,0.169127731441,0.304092962045,1.0,-0.093548,-0.1229488,2.065
0.389264177302,0.219452253106,-0.125222880999,-1.8449639992,0.0429883233246,2.05698544991,0.0723844871986,-0.127729259316,-0.37568575498,-0.000428319366764,-0.503438312392,-0.0466278807248,0.155156954476,-0.129255142804,0.573725349567,0.819031334672,0.00276459590378,0.0,0.818996511717,-0.573661274747,-0.0117559581609,0.0,-0.0080427113397,0.00900905905919,-0.999927073165,0.0,0.589945593707,0.167020794013,0.304098746653,1.0,-0.0947234285714,-0.12449364898,2.082
0.386838703599,0.212630221504,-0.125290168595,-1.85422183253,0.0421409471123,2.05969801955,0.0701180491367,-0.137759819898,-0.37477769836,-0.00121838329272,-0.523563920669,-0.0531460757847,0.143960854234,-0.126925685914,0.573807304909,0.818973197215,0.00297085478891,0.0,0.818941306552,-0.573742799854,-0.0116225186496,0.0,-0.0078141751607,0.00910221705088,-0.999928041567,0.0,0.588298935275,0.164756295505,0.30418676644,1.0,-0.095968,-0.126129371429,2.1
0.384627085189,0.206546280643,-0.125348122716,-1.8627077339,0.0413082812124,2.06191240655,0.0680237325207,-0.140351092249,-0.376043495634,-0.00473315040604,-0.525939064183,-0.0629472421591,0.137358131959,-0.125154993485,0.573826403052,0.818960475912,0.00278297612416,0.0,0.818925984194,-0.573762353379,-0.0117363178884,0.0,-0.00801496786593,0.0090138340847,-0.999927252897,0.0,0.586713301408,0.162676267994,0.304129848772,1.0,-0.0970742857143,-0.127583346939,2.116
0.382270931112,0.200023010358,-0.125389150311,-1.87165936951,0.0404549333969,2.0643575623,0.0657429798283,-0.143654770254,-0.389782459645,-0.000939693628049,-0.51142083616,-0.0488339394874,0.14755967528,-0.135728335688,0.57379388169,0.818983287455,0.00277544693545,0.0,0.818948612748,-0.573729767315,-0.0117503479015,0.0,-0.00803113665294,0.00901539972556,-0.999927109049,0.0,0.585049577985,0.160500766571,0.304131457146,1.0,-0.0982497142857,-0.129128195918,2.133
0.3799576123,0.193808220146,-0.125422429007,-1.87999888636,0.0396650550982,2.0667757423,0.0636441530915,-0.145242155756,-0.387793603461,-0.00410309454738,-0.529891821884,-0.0481844943767,0.15066721319,-0.129428726058,0.573873666016,0.818926613746,0.00299393610157,0.0,0.818895097547,-0.573809164096,-0.0116021253892,0.0,-0.00778349114174,0.00911004922328,-0.999928209557,0.0,0.583535274882,0.158426693266,0.30421700285,1.0,-0.099356,-0.130582171429,2.149
0.377431983839,0.187233186361,-0.12552191132,-1.88909858486,0.0388180248502,2.06910278801,0.0612549320614,-0.149417446491,-0.390036210233,-0.00631008103658,-0.54205443119,-0.0521080554854,0.136445043854,-0.137148048572,0.573928952041,0.818888447154,0.0028312592232,0.0,0.818854199793,-0.573864285262,-0.0117613130451,0.0,-0.00800659897731,0.00906872117719,-0.999926823657,0.0,0.581806585871,0.156122268319,0.304148246866,1.0,-0.100531428571,-0.132127020408,2.166
0.374893141059,0.180544307547,-0.125582714076,-1.89806821993,0.0379476302613,2.07152956379,0.0588796714693,-0.14904710552,-0.391967490673,-0.00147062729509,-0.512264071639,-0.0482680976011,0.147337409737,-0.144562085729,0.573956213525,0.818868991179,0.00293038262463,0.0,0.818836123452,-0.57389130163,-0.0117014419541,0.0,-0.00790037897637,0.00911579397265,-0.999927240509,0.0,0.580121572744,0.153859219573,0.30420350511,1.0,-0.101706857143,-0.133671869388,2.183
0.372330273245,0.173826386935,-0.125547736596,-1.90710100929,0.0370027019266,2.07396957965,0.0565273707437,-0.151056361033,-0.390629736357,0.00313753931018,-0.534014760722,-0.0470323970125,0.133805327931,-0.144490257864,0.573908885905,0.818901969645,0.00298357039081,0.0,0.818870181421,-0.573844252629,-0.0116252571903,0.0,-0.00780799161769,0.00911517072492,-0.999927971871,0.0,0.578395093305,0.151634196968,0.304233975019,1.0,-0.102882285714,-0.135216718367,2.2
0.369735826824,0.167094809443,-0.125555147591,-1.91634069505,0.0360925787657,2.07622672315,0.0540281318362,-0.154313951789,-0.392109794415,0.000544459527778,-0.548539433819,-0.0655018295184,0.136724021068,-0.148244048627,0.573810390062,0.818971722831,0.00277495261585,0.0,0.818936507381,-0.573745676288,-0.0118170521221,0.0,-0.00808587014805,0.00905343159757,-0.999926324326,0.0,0.576559683308,0.149356749449,0.304148834736,1.0,-0.104057714286,-0.136761567347,2.217
0.367224259828,0.16066140067,-0.125561661014,-1.92485019799,0.0352666025929,2.07849670074,0.0516289751223,-0.153907192789,-0.406215317816,-0.000932626055637,-0.519589356395,-0.0508555985364,0.14599521654,-0.148866266027,0.573743428775,0.819018005996,0.00295477454005,0.0,0.818985135951,-0.573678092127,-0.0117277707693,0.0,-0.00791031830757,0.00914882398464,-0.999926860267,0.0,0.57481932422,0.147079612787,0.30422376929,1.0,-0.105233142857,-0.138306416327,2.234
0.364456742312,0.153767282888,-0.125561451425,-1.93396326666,0.0342963713305,2.08088177751,0.0491142687673,-0.166407210778,-0.398045970495,-0.000767032060249,-0.54367813691,-0.0629915999049,0.12680821156,-0.151648240843,0.573720855174,0.819033592376,0.00301691880582,0.0,0.819001941259,-0.573655790293,-0.0116448004616,0.0,-0.00780696012093,0.00915190344024,-0.999927644401,0.0,0.573145381797,0.14487688937,0.304268076342,1.0,-0.106339428571,-0.139760391837,2.25
0.361447901613,0.146472824238,-0.125597157303,-1.94386294133,0.0332957355298,2.0831642204,0.0464040363475,-0.167546436517,-0.401768920326,-0.000425987083765,-0.551262336652,-0.0543328443087,0.134422433258,-0.145961806271,0.573762225277,0.819005543924,0.00275222971517,0.0,0.818969569937,-0.573697085622,-0.0118846273261,0.0,-0.00815478650591,0.00907311729305,-0.999925586231,0.0,0.571135906162,0.142323156918,0.304171668141,1.0,-0.107584,-0.141396114286,2.268
0.358731539777,0.13987900789,-0.125639052183,-1.95240435931,0.0324623574056,2.0854378148,0.0439295330777,-0.174355526511,-0.41511763181,0.000504388042079,-0.527453307216,-0.0552985030936,0.149448554529,-0.154978554345,0.573799819535,0.818978272151,0.00301724167129,0.0,0.818945902915,-0.573733897882,-0.011737521902,0.0,-0.00788183333141,0.00920612290035,-0.999926559305,0.0,0.569473958062,0.140078999846,0.304277646846,1.0,-0.108690285714,-0.142850089796,2.284
0.355774999997,0.132910209531,-0.125682000588,-1.96162274876,0.0314751799193,2.08775574568,0.0411527050141,-0.179854488683,-0.404613701557,-0.00353676611221,-0.55285712515,-0.0606164457115,0.135656945036,-0.161194586665,0.5737280689,0.819028478275,0.0030334190539,0.0,0.818996553339,-0.573662375403,-0.011699212221,0.0,-0.0078419805848,0.00919670325024,-0.999926959327,0.0,0.567636514562,0.137638710506,0.304280246156,1.0,-0.109865714286,-0.144394938775,2.301
0.352915897875,0.126286606828,-0.125780312058,-1.97046187739,0.0305022169294,2.08977714544,0.0386011195666,-0.173865847779,-0.400818540678,-0.010158348784,-0.568038622721,-0.0548177169257,0.131680339625,-0.154313793249,0.573796903955,0.818980967602,0.00283454040902,0.0,0.818946329167,-0.573731751947,-0.0118124363484,0.0,-0.00804804966543,0.00909945106036,-0.999926211721,0.0,0.565826252538,0.135253996747,0.304218724112,1.0,-0.110972,-0.145848914286,2.317
0.349809979582,0.119104292353,-0.125870946271,-1.97959495856,0.0295283901851,2.09214627556,0.0358475896048,-0.187978348427,-0.42693810793,-0.00310361101886,-0.530542263304,-0.0548044508539,0.141720591351,-0.168448512991,0.573893310404,0.818912316213,0.00313584581808,0.0,0.818882352558,-0.573828008546,-0.0115696230934,0.0,-0.007675218456,0.00920779537658,-0.999928151182,0.0,0.564022722053,0.13274539668,0.304360772286,1.0,-0.112147428571,-0.147393763265,2.334
0.346622152708,0.112022804201,-0.125889872009,-1.98891369477,0.0285314439647,2.09432359119,0.0329477514924,-0.189485997974,-0.423416033789,0.000705581223118,-0.547840236861,-0.0610364799437,0.118673492055,-0.16831478831,0.573863009949,0.818933794168,0.00307139743134,0.0,0.818902742218,-0.573797619326,-0.0116334751692,0.0,-0.00776483492268,0.00919137381814,-0.999927610373,0.0,0.56210008548,0.130219662888,0.304327186246,1.0,-0.113322857143,-0.148938612245,2.351
0.343438914999,0.104848664485,-0.1258987207,-1.99834314507,0.0274894792634,2.09640073283,0.0300943304427,-0.191089672338,-0.427228085716,0.000504573194804,-0.547425340295,-0.0608273436342,0.114279031307,-0.183100948772,0.573832364209,0.818955877831,0.00290428191831,0.0,0.818922278144,-0.573767107882,-0.0117624475802,0.0,-0.00796669753038,0.00912823001547,-0.99992660088,0.0,0.560103684427,0.127700728504,0.304272112169,1.0,-0.114498285714,-0.150483461224,2.368
0.340222176885,0.0975753149636,-0.125883485815,-2.00750255891,0.0265546205862,2.09866430436,0.0270961709881,-0.193236705063,-0.416196445223,-0.00498340595356,-0.54603988973,-0.0577502207347,0.122694889506,-0.180097998155,0.573724267295,0.819030425424,0.00322090789768,0.0,0.819001043406,-0.573658088583,-0.0115946196391,0.0,-0.0076487936505,0.00929022045143,-0.999927591258,0.0,0.558215878224,0.125237540218,0.304398551697,1.0,-0.115673714286,-0.152028310204,2.385
0.337087975677,0.0907592787414,-0.125899371982,-2.01641901975,0.0256406521135,2.10058283372,0.0243069708441,-0.199102272271,-0.433574707565,-0.00301727804785,-0.555162742845,-0.0565439560668,0.116487409372,-0.17069586627,0.573742233784,0.819018293778,0.0031033095652,0.0,0.818986402609,-0.573675268162,-0.0117773487124,0.0,-0.00786572354024,0.00929890972814,-0.999925827585,0.0,0.556298910618,0.122822092889,0.304332488702,1.0,-0.11678,-0.153482285714,2.401
0.333632965499,0.0834927099112,-0.125985128711,-2.02586656238,0.0245657200793,2.10257193684,0.0211622068108,-0.210942095475,-0.434321236064,-0.00720575438196,-0.554936047177,-0.0595230181634,0.125128800132,-0.184585269248,0.573718850625,0.819035338624,0.00292257141825,0.0,0.819000744666,-0.573652133273,-0.0119061802922,0.0,-0.00807519855123,0.00922456584194,-0.999924846453,0.0,0.554268461631,0.120152151527,0.304269133342,1.0,-0.117955428571,-0.155027134694,2.418
0.330156735141,0.0760609230317,-0.126052009141,-2.03503372963,0.0235157768308,2.10480067823,0.0180755057723,-0.204203929652,-0.431658841059,-0.00284464831353,-0.541651111539,-0.0690096425785,0.123828259743,-0.179349171056,0.573744651122,0.819015949038,0.00327069270077,0.0,0.818986989529,-0.573678039339,-0.0116002182976,0.0,-0.00762458601911,0.00933439768486,-0.999927364716,0.0,0.552363980694,0.117534813719,0.304432027349,1.0,-0.119130857143,-0.156571983673,2.435
0.326538293099,0.0686858463092,-0.126124839382,-2.04458501945,0.0224674699134,2.10673476878,0.014868331288,-0.208800323473,-0.441224339288,-0.00678914297625,-0.56016685062,-0.0685858224486,0.11599912959,-0.185358130908,0.573787966572,0.818986321429,0.00308571401989,0.0,0.818954108867,-0.573720947176,-0.0117978490444,0.0,-0.00789209016659,0.00929670097876,-0.999925640367,0.0,0.550267588283,0.114814964216,0.304345051101,1.0,-0.120306285714,-0.158116832653,2.452
0.322840213484,0.0612588410623,-0.126262985832,-2.05401490186,0.0213509974188,2.10865163225,0.0116270880112,-0.21714416166,-0.44543633454,-0.00819317589632,-0.538772890177,-0.0701009655632,0.119208471088,-0.189920294151,0.573882832526,0.818920242412,0.00297959747379,0.0,0.81888662843,-0.573816155783,-0.0118514151672,0.0,-0.00799577655692,0.0092414541616,-0.999925328753,0.0,0.548206573268,0.112035272486,0.304325021127,1.0,-0.121481714286,-0.159661681633,2.469
0.319094784894,0.0537593964516,-0.126288303494,-2.0632430269,0.0203009071045,2.11080915955,0.00831004261003,-0.221796241882,-0.432369834756,-0.000667520039017,-0.553803951051,-0.0592876824265,0.117654116436,-0.19603489898,0.573881002427,0.818920311468,0.00329627351162,0.0,0.818891584723,-0.573814169591,-0.0116025060557,0.0,-0.00761022594557,0.00935792861464,-0.999927254171,0.0,0.546234780171,0.109344563824,0.304441339897,1.0,-0.122657142857,-0.161206530612,2.486
0.315332242129,0.0462548080458,-0.12628077797,-2.07281492442,0.0192336573266,2.11260744796,0.00496289390067,-0.219914983461,-0.435780296446,0.00141986841737,-0.56939792644,-0.0644821270459,0.11169643364,-0.195623325911,0.573826658399,0.818959133248,0.00310661887112,0.0,0.818926841268,-0.5737591453,-0.0118329513044,0.0,-0.00790840481701,0.00933433620003,-0.99992516085,0.0,0.544052600885,0.106643930517,0.304354909569,1.0,-0.123832571429,-0.162751379592,2.503
0.31167531339,0.0390928156286,-0.126297146443,-2.08163272469,0.0182081303808,2.1143795012,0.00171325511954,-0.232443552698,-0.45456021511,-0.00255155442316,-0.534101363478,-0.0569849159498,0.111754891559,-0.212585794697,0.573789628373,0.818984752703,0.00319125555452,0.0,0.818953593139,-0.573721859552,-0.0117892772933,0.0,-0.00782449592334,0.0093782358,-0.999925410197,0.0,0.542078405733,0.104059724946,0.304406619059,1.0,-0.124938857143,-0.164205355102,2.519
0.307706683115,0.0314902318171,-0.126369266558,-2.09095712859,0.0170647268304,2.11634328746,-0.00176682626875,-0.234832468291,-0.444126248264,-0.00465066010069,-0.548739090168,-0.059828585793,0.106925362508,-0.201548076727,0.573809389837,0.818970341619,0.00333325438149,0.0,0.81894178053,-0.573742061973,-0.0116255462901,0.0,-0.00760869586577,0.00940076989533,-0.999926863962,0.0,0.540007810261,0.101258913547,0.304468093711,1.0,-0.126114285714,-0.165750204082,2.536
0.303662464879,0.0238443245442,-0.12645712428,-2.10053607206,0.0159379658908,2.11797730899,-0.00537334711998,-0.243842674462,-0.445030411894,-0.0065075418498,-0.566984346114,-0.0646289630418,0.093259852635,-0.217314236709,0.573798308534,0.818978984082,0.00310992860792,0.0,0.818946507687,-0.573730519029,-0.0118598475383,0.0,-0.00792885758903,0.00935220568852,-0.999924831908,0.0,0.537771788453,0.0984064589543,0.304390629042,1.0,-0.127289714286,-0.167295053061,2.553
0.299502574315,0.0160928685667,-0.126548141781,-2.10984850832,0.0148085928415,2.11982556743,-0.00899279561225,-0.243968309226,-0.460436241814,-0.00674876822039,-0.541764106476,-0.0644109632384,0.115671870186,-0.21316755609,0.573863273616,0.818932673547,0.00331153937393,0.0,0.818903416203,-0.573795498499,-0.01169049761,0.0,-0.00767373182008,0.00942075951368,-0.99992617884,0.0,0.535663085329,0.0955380807627,0.304492635761,1.0,-0.128465142857,-0.168839902041,2.57
0.295500587283,0.00886450546849,-0.126636518098,-2.11873507803,0.0137390846148,2.12142163542,-0.0125245878996,-0.249006490568,-0.458347447982,-0.00704460957949,-0.567693670918,-0.0695082676546,0.0923912813952,-0.224698693501,0.573884268498,0.81891816249,0.0032613519422,0.0,0.818887911478,-0.573816241786,-0.0117582311476,0.0,-0.00775776169185,0.00941872690118,-0.999925549587,0.0,0.533594277522,0.0927987493042,0.30446758827,1.0,-0.129571428571,-0.170293877551,2.586
0.291213387619,0.00116095461971,-0.126643606848,-2.12826023135,0.0126195137904,2.1230540679,-0.0162928056399,-0.247456009553,-0.457117956654,-0.000444467422218,-0.552115475792,-0.0678328068493,0.102451283586,-0.236554748164,0.573830398954,0.818956356559,0.00314740970497,0.0,0.818923736344,-0.573761721688,-0.0119225701511,0.0,-0.00795835462361,0.00941920305064,-0.999923968712,0.0,0.531202434608,0.0897675424812,0.304398281756,1.0,-0.12998,-0.170830857143,2.604
0.286908621708,-0.00665445533304,-0.126640834996,-2.13744269883,0.0114802077222,2.12480455069,-0.0201569688782,-0.25444282981,-0.454404831343,-0.000479031113113,-0.539095649535,-0.0712009709666,0.104536278847,-0.215359331982,0.57372491924,0.81902918233,0.00341503088906,0.0,0.81900083364,-0.573656284006,-0.0116982571271,0.0,-0.00762230679292,0.00950867784204,-0.999925739985,0.0,0.529187826536,0.0871135796932,0.304525343688,1.0,-0.12998,-0.170830857143,2.62
0.282742008419,-0.0138789214965,-0.1266619762,-2.14620693563,0.0103791081956,2.12628481331,-0.02377133707,-0.263850723608,-0.458396624052,-0.00327780568289,-0.552643005042,-0.0702737586242,0.0954697138787,-0.233955178704,0.573718816646,0.819033701672,0.00335586837235,0.0,0.819004392575,-0.573650141473,-0.0117501928645,0.0,-0.00769885781744,0.00948996039457,-0.999925331332,0.0,0.527085975476,0.0843899565967,0.304493481946,1.0,-0.12998,-0.170830857143,2.636
0.27821667094,-0.0215064110299,-0.126723956334,-2.1555009462,0.00921290813634,2.12764306483,-0.0277282667992,-0.262756892677,-0.449528434189,-0.00845173266725,-0.542852235464,-0.0675062564695,0.0925654012012,-0.231191988714,0.573721702935,0.819032585583,0.0031270171655,0.0,0.81899928118,-0.573652623286,-0.0119829931435,0.0,-0.00802079468246,0.00943610971769,-0.999923310402,0.0,0.524803197005,0.0814430525396,0.304406033951,1.0,-0.12998,-0.170830857143,2.653
0.273646890751,-0.0292554313417,-0.126832876743,-2.16434250872,0.0080752299,2.1292882128,-0.031649048929,-0.276432316222,-0.443620349726,-0.00254611739572,-0.526638564554,-0.0695406816738,0.0994982332076,-0.239363362331,0.57383379782,0.818952450417,0.00352183707249,0.0,0.8189257017,-0.573765073643,-0.0116224895549,0.0,-0.00749770354769,0.00955368415529,-0.999926253061,0.0,0.522723804877,0.0785101695437,0.304595142581,1.0,-0.12998,-0.170830857143,2.67
0.269015679907,-0.0368179521692,-0.126927945238,-2.17344309768,0.00692853893163,2.13059476427,-0.0356286668154,-0.267950552051,-0.446858725805,-0.00283671903834,-0.531803227118,-0.0698571947669,0.0688205319486,-0.239101674816,0.573923369212,0.818890363797,0.00335935314742,0.0,0.818860640854,-0.573854088031,-0.011810309549,0.0,-0.00774371923697,0.00952923818634,-0.999924611374,0.0,0.520461982511,0.0755530171118,0.304520906443,1.0,-0.12998,-0.170830857143,2.687
0.264361047518,-0.0443544180912,-0.126920281854,-2.18246806777,0.0058405333928,2.13191103595,-0.0397371016848,-0.274446250751,-0.43518932657,0.00111802517988,-0.519622037781,-0.0527743000629,0.0835643886164,-0.23624522014,0.57386019655,0.818934981331,0.00327384624543,0.0,0.818903063841,-0.573789916715,-0.0119854249004,0.0,-0.00793693656319,0.00955910505241,-0.999922811295,0.0,0.51819917654,0.072674790264,0.304451006121,1.0,-0.12998,-0.170830857143,2.704
0.259706242366,-0.051993414763,-0.126917533377,-2.19107091249,0.00467344623609,2.13337153865,-0.0437772879634,-0.277032377303,-0.451568014278,0.00111684281979,-0.515164283624,-0.061386028294,0.0808530110614,-0.243525826312,0.573815243957,0.818965095055,0.00360357942668,0.0,0.818939042341,-0.573745798232,-0.0116340380939,0.0,-0.00746047619606,0.00962708564296,-0.999925827508,0.0,0.516096386616,0.0698327859087,0.304620768012,1.0,-0.12998,-0.170830857143,2.721
0.254939370677,-0.0594689747385,-0.126954520287,-2.19991965685,0.00351587988608,2.13448604346,-0.0479251526003,-0.281804293678,-0.43862744934,-0.00113173986965,-0.516369157704,-0.0687753328073,0.0626267063919,-0.244396079296,0.573801014631,0.818975862569,0.00341746092532,0.0,0.818946526993,-0.573731093533,-0.0118306864495,0.0,-0.00772849184336,0.00958736223084,-0.999924173575,0.0,0.513821776513,0.0669185029381,0.304546339051,1.0,-0.12998,-0.170830857143,2.738
0.250415146138,-0.0664907809839,-0.127015560309,-2.20818649584,0.00244992536567,2.13557263341,-0.0518806137699,-0.28368553499,-0.435020496044,-0.00709964821898,-0.504548431891,-0.0738881256435,0.0707188652231,-0.252263857317,0.57380123706,0.818976117303,0.0033176100625,0.0,0.818944749871,-0.573730777665,-0.0119682212457,0.0,-0.00789842443479,0.00958450403038,-0.999922873113,0.0,0.511694601258,0.0641739968779,0.304484286208,1.0,-0.12998,-0.170830857143,2.754
0.245522112969,-0.0739823042886,-0.12714140991,-2.2165475448,0.00129386100153,2.13684232702,-0.0561198388267,-0.290122150847,-0.439601929728,-0.00701533701005,-0.499564909764,-0.0706940570959,0.0781901383791,-0.257454357637,0.573876007453,0.81892259757,0.00358526977946,0.0,0.818895987916,-0.573806200485,-0.0116855535164,0.0,-0.00751245844791,0.00964220747722,-0.999925292611,0.0,0.509595725517,0.0612253219498,0.304618645005,1.0,-0.12998,-0.170830857143,2.771
0.240601138477,-0.0813986183139,-0.12716485181,-2.225121524,0.000202916930025,2.13783880977,-0.060412548144,-0.291117140593,-0.439785714681,0.00159089686514,-0.496002963249,-0.0650898663385,0.0577616717938,-0.249464968738,0.573865654001,0.818930180354,0.00350966736304,0.0,0.818901623558,-0.573794876585,-0.0118455662499,0.0,-0.00768701055274,0.00967202214112,-0.999923678016,0.0,0.507337560294,0.0583343042041,0.304577415391,1.0,-0.12998,-0.170830857143,2.788
0.235712088461,-0.0887440089876,-0.127146735974,-2.23366669604,-0.000916678173378,2.13881657395,-0.0647136046083,-0.290813396198,-0.434980890489,0.00209591541712,-0.497457756761,-0.0706275524562,0.0503448518297,-0.245952280379,0.573768448677,0.818998874647,0.00337009357049,0.0,0.81896754192,-0.573697006608,-0.0120273351787,0.0,-0.00791711381197,0.00966108870058,-0.999921988294,0.0,0.505059937359,0.0555038240325,0.304494835439,1.0,-0.12998,-0.170830857143,2.805
0.231007196585,-0.095735001142,-0.127164192652,-2.24133718997,-0.00197983131297,2.13983925316,-0.0688687779289,-0.295378101077,-0.430598422641,0.000330808969996,-0.47564506681,-0.0695960719614,0.0639414884326,-0.251155882782,0.573694225723,0.819049826761,0.0036143541585,0.0,0.81902285348,-0.57362339744,-0.0117690394099,0.0,-0.00756629725258,0.00971225559919,-0.999924208746,0.0,0.502935257708,0.0526341066784,0.304622928619,1.0,-0.12998,-0.170830857143,2.822
0.225891203031,-0.103042486267,-0.127215453883,-2.24958903515,-0.00313049784284,2.140708177,-0.0732560212318,-0.303880965387,-0.42135525899,-0.00805805511703,-0.484056526233,-0.0718398433799,0.0445062174618,-0.251704841728,0.573741972744,0.819016662683,0.00354990983931,0.0,0.818988507472,-0.573670919085,-0.011842640202,0.0,-0.00766298715168,0.00970214190927,-0.999923570614,0.0,0.500839015802,0.0498837852587,0.304606551167,1.0,-0.12998,-0.170830857143,2.838
0.220686702029,-0.110337486414,-0.12737037665,-2.2579070414,-0.00425505738599,2.14150152537,-0.0777323979844,-0.307237532313,-0.42133028988,-0.00909077487128,-0.484376445325,-0.0616167902545,0.0369544718228,-0.265354315892,0.573877775558,0.818922074197,0.00341789617114,0.0,0.818891127377,-0.573805845262,-0.0120382867395,0.0,-0.00789736199366,0.00970757696535,-0.999921694246,0.0,0.498567469251,0.0468917712908,0.304534759684,1.0,-0.12998,-0.170830857143,2.855
0.215456111641,-0.117664723067,-0.127446796298,-2.2658614659,-0.0054002308013,2.14243948339,-0.0822168462642,-0.308910187336,-0.436908815677,-0.000863965921547,-0.454076990496,-0.062892974945,0.0607341650361,-0.272694840939,0.573951711203,0.818869377873,0.00362244250315,0.0,0.818842205671,-0.573880428092,-0.0118086140247,0.0,-0.007591009716,0.00974397063727,-0.999923712894,0.0,0.496432151372,0.0439635871933,0.304639825105,1.0,-0.12998,-0.170830857143,2.872
0.210269156111,-0.124842743307,-0.127435804306,-2.27382724978,-0.00646814171804,2.14322248333,-0.0868344457913,-0.298566868544,-0.42491233401,0.0020948603924,-0.477172527939,-0.0630704013581,0.0325730111127,-0.276287098587,0.573837433166,0.818949326353,0.00365350039142,0.0,0.818922208672,-0.573765610942,-0.0118400483184,0.0,-0.0076002930394,0.00978638396376,-0.99992322817,0.0,0.494230275298,0.0411327854773,0.304636622473,1.0,-0.12998,-0.170830857143,2.889
0.205259532258,-0.131644062376,-0.127456828554,-2.28138288477,-0.00753730435471,2.14382187619,-0.0911851226166,-0.31335526281,-0.424458671716,-0.00222867249575,-0.467936606207,-0.062725390143,0.044203982517,-0.274196117222,0.573820018446,0.818961968746,0.00355346026536,0.0,0.818932972898,-0.573747820559,-0.0119570567234,0.0,-0.00775373391532,0.00977143241914,-0.999922196333,0.0,0.492099548981,0.0384036329003,0.304602297716,1.0,-0.12998,-0.170830857143,2.905
0.199914343443,-0.138833436946,-0.127483290825,-2.28924395363,-0.00867596519671,2.14453671685,-0.0958979323177,-0.317541251441,-0.431367556183,-0.00219697262281,-0.45765960735,-0.0665942788139,0.0419249033076,-0.275040383005,0.573743988461,0.819015131785,0.00357722148633,0.0,0.81898666979,-0.573671999261,-0.0119171670799,0.0,-0.00770833677395,0.00976728773433,-0.999922587821,0.0,0.489892057689,0.0355222237356,0.304613946888,1.0,-0.12998,-0.170830857143,2.922
0.194459578618,-0.146027817067,-0.127604143931,-2.29684381743,-0.00973821066015,2.14529423198,-0.100617849305,-0.325425800706,-0.408526213752,-0.0145364550126,-0.451877813345,-0.0640945354709,0.0401721255883,-0.27325379646,0.573859461655,0.818932967118,0.00385493672921,0.0,0.818908968669,-0.573787626858,-0.0116879082789,0.0,-0.00735984010839,0.00986424893134,-0.999924261805,0.0,0.48777270719,0.0325846298792,0.304732780156,1.0,-0.12998,-0.170830857143,2.939
0.188934243423,-0.153080375196,-0.127691985598,-2.30464557289,-0.0108810558132,2.14575536812,-0.105449732144,-0.318227881808,-0.415332854676,-0.0017126899176,-0.456436862648,-0.0743642840261,0.0302701862441,-0.282370842817,0.573868511579,0.818927503778,0.00366358788343,0.0,0.818900055148,-0.573796054703,-0.0118968141082,0.0,-0.00764062311263,0.00982750853457,-0.999922517475,0.0,0.48549816792,0.0296383603856,0.304649763989,1.0,-0.12998,-0.170830857143,2.956
0.183496310587,-0.160178082655,-0.127669831203,-2.31232117025,-0.0120110715948,2.14623704253,-0.110259615126,-0.320854114535,-0.420914613834,0.00547578740203,-0.449720437593,-0.0690933988959,0.027793307864,-0.282720540289,0.573735917279,0.819020709075,0.0035947506796,0.0,0.818992119728,-0.573663415052,-0.0119557916903,0.0,-0.00773001286335,0.00980372834337,-0.999922063869,0.0,0.483248959472,0.0268194212681,0.304632539827,1.0,-0.12998,-0.170830857143,2.973
0.178228786727,-0.166842063957,-0.127704491209,-2.31922212578,-0.0129476227031,2.14679348608,-0.114877217943,-0.336182879603,-0.429474860039,-0.00407474750205,-0.428079238406,-0.0612742728647,0.0363967072206,-0.294219874574,0.573760811212,0.819002004581,0.00387232636188,0.0,0.818977636901,-0.573688137602,-0.0117600140781,0.0,-0.00741011007268,0.00991897488146,-0.999923349165,0.0,0.481255095839,0.0241141967498,0.304748654602,1.0,-0.12998,-0.170830857143,2.989
0.17221807977,-0.174193887794,-0.127742071966,-2.32716803601,-0.0140545446619,2.14722416063,-0.120128100583,-0.331067851985,-0.4039830857,-0.00639105600536,-0.447100264956,-0.061886340921,0.0163673142229,-0.289657098455,0.573778194608,0.818990099429,0.00381409638711,0.0,0.818964039444,-0.573704476401,-0.0119089359942,0.0,-0.00756528215838,0.00995688727938,-0.999921810394,0.0,0.47888486457,0.0210491109895,0.304693853314,1.0,-0.12998,-0.170830857143,3.007
0.16641117677,-0.181143725452,-0.127908873789,-2.33461469188,-0.0152202241172,2.14755757702,-0.125185508601,-0.349103933894,-0.4118714045,-0.0115589493152,-0.432526441101,-0.0637452739582,0.0181108314814,-0.302953689037,0.573866668453,0.818928653991,0.00369505239875,0.0,0.818900635424,-0.573792837943,-0.0120114665257,0.0,-0.00771648807846,0.0099190520081,-0.999921030991,0.0,0.476637585578,0.0180454830289,0.304647515695,1.0,-0.12998,-0.170830857143,3.024
0.160972400694,-0.187699873972,-0.127950986801,-2.34145915845,-0.0161962413415,2.14791282104,-0.129949093488,-0.340170351208,-0.410395433111,-0.00107492239737,-0.415227602429,-0.0576395712007,0.0224249391155,-0.297938751619,0.573884616334,0.818915667159,0.00378472164324,0.0,0.818888765203,-0.573810385521,-0.0119824285682,0.0,-0.00764103301346,0.00997598952337,-0.999921044007,0.0,0.474568850216,0.0153281624019,0.304676109108,1.0,-0.12998,-0.170830857143,3.04
0.155213457759,-0.194629674306,-0.127944654456,-2.34851758757,-0.017281573208,2.14832815346,-0.135095823589,-0.343727442898,-0.409273134347,0.000851971968866,-0.417593867343,-0.0614177714899,0.0221279476739,-0.306727992715,0.573753074454,0.819006967653,0.0039677942168,0.0,0.818983674875,-0.573679866066,-0.0117430174926,0.0,-0.00734151083968,0.00998734336589,-0.999923174644,0.0,0.472435052269,0.012495488256,0.304774966873,1.0,-0.12998,-0.170830857143,3.057
0.149275707766,-0.201429334655,-0.127995463045,-2.35578611045,-0.0183939178919,2.14849102571,-0.140299935557,-0.344377480859,-0.40292731683,-0.00822811621527,-0.431120292717,-0.0586898781449,0.0141036381084,-0.300323663511,0.57374524642,0.819013371402,0.0037731388767,0.0,0.818986513891,-0.573671333678,-0.0119598445648,0.0,-0.00763087792499,0.00995224543362,-0.999921358164,0.0,0.470154515603,0.00957522626857,0.304680235776,1.0,-0.12998,-0.170830857143,3.074
0.14367682408,-0.207854599831,-0.128091595269,-2.36247684421,-0.0193503258782,2.14866884729,-0.145242345476,-0.345441841297,-0.391900816792,-0.0104971059115,-0.406680694437,-0.0545367903077,0.0103547487615,-0.317025235524,0.573787285648,0.81898388289,0.00378117666035,0.0,0.818956356467,-0.573712329539,-0.0120580279859,0.0,-0.00770617127738,0.0100155546397,-0.999920148607,0.0,0.468050142441,0.00683872249494,0.304658987252,1.0,-0.12998,-0.170830857143,3.09
0.137221560464,-0.215085125867,-0.128232687477,-2.36970337132,-0.0204221157053,2.14892384994,-0.150857373717,-0.354456366239,-0.403702581538,-0.00963091171525,-0.392238977635,-0.0632895373314,0.0184603362391,-0.320399133713,0.573946154276,0.818871465114,0.00401030123039,0.0,0.818847565032,-0.573871195729,-0.0118854051073,0.0,-0.00743136580818,0.0101056025151,-0.999921322705,0.0,0.46578196996,0.00370250651473,0.304760344144,1.0,-0.12998,-0.170830857143,3.108
0.13193691501,-0.221035343346,-0.128212509932,-2.37572467298,-0.0213494631286,2.14907786488,-0.155567404506,-0.351545196613,-0.387114867572,0.000478749120302,-0.414223539571,-0.0612743211994,0.00613249660198,-0.316128544445,0.573831937409,0.818951323271,0.00404779249507,0.0,0.818928208868,-0.573757274676,-0.0118290057925,0.0,-0.00736507135676,0.0101029072817,-0.99992184044,0.0,0.463723613815,0.00105070738896,0.304780208937,1.0,-0.12998,-0.170830857143,3.124
0.125458831677,-0.228092117333,-0.128248870585,-2.38311739464,-0.0225129828051,2.14909351621,-0.161335929456,-0.37295398667,-0.394770948067,-0.00300035364895,-0.399991844934,-0.0595626387399,-0.00363574222107,-0.324643321213,0.573758570136,0.819003592716,0.00386848997677,0.0,0.818977197059,-0.57368328154,-0.0120245615489,0.0,-0.00762901796717,0.0100675941512,-0.999920217634,0.0,0.461440650446,-0.00183633215117,0.304691121382,1.0,-0.12998,-0.170830857143,3.141
0.11960422634,-0.234379596708,-0.128293548507,-2.38947112973,-0.0234770964304,2.14912106871,-0.166522805084,-0.366344284121,-0.387219712301,-0.00616390706252,-0.394062221213,-0.0500071141794,-0.000835375267835,-0.330466896622,0.573752587649,0.819007716025,0.00388280286775,0.0,0.818981216739,-0.573676863351,-0.0120569476292,0.0,-0.00764740620609,0.0100978419331,-0.999919772165,0.0,0.459351917607,-0.00456369672361,0.30469205403,1.0,-0.12998,-0.170830857143,3.157
0.112884100005,-0.241451066108,-0.128469231358,-2.39634494717,-0.0246028475402,2.14920823252,-0.172413902181,-0.374276236824,-0.392822546552,-0.00469162008407,-0.372682680358,-0.0604900515927,0.00390259592841,-0.321922994273,0.573891686197,0.818909293675,0.004080214122,0.0,0.818886566777,-0.573816857861,-0.0118216448513,0.0,-0.00733970050033,0.0101257711839,-0.999921795719,0.0,0.457089672033,-0.00772647247369,0.304803924223,1.0,-0.12998,-0.170830857143,3.175
0.106947806506,-0.247666896892,-0.128497903292,-2.40252208258,-0.0255513017001,2.14923009176,-0.177719823771,-0.374396144538,-0.382028697822,0.00202542801631,-0.390978193922,-0.0648132216462,-0.00283106471663,-0.330229741967,0.573844579233,0.81894194427,0.0041518309543,0.0,0.818920324423,-0.57376976466,-0.011768870369,0.0,-0.00725596621217,0.0101537167075,-0.999922123463,0.0,0.45502485137,-0.0104295287942,0.30482507337,1.0,-0.12998,-0.170830857143,3.191
0.100596541914,-0.254164834712,-0.12851735522,-2.40917320161,-0.0265322058922,2.14917461387,-0.183407018459,-0.37469531255,-0.382593697099,-0.00280394753207,-0.390228777123,-0.0620810310791,0.000567913194831,-0.338297031503,0.57378707047,0.818982593754,0.00408115071907,0.0,0.81895898828,-0.573711030267,-0.0119405261932,0.0,-0.00743782512994,0.0101938108706,-0.999920379319,0.0,0.452762438702,-0.0132826674155,0.304739877516,1.0,-0.12998,-0.170830857143,3.208
0.0941338061296,-0.260649029509,-0.128598077851,-2.41558626535,-0.0275527682712,2.1491198437,-0.189135571998,-0.376137067087,-0.375342942511,-0.00859206521646,-0.373617121612,-0.0565122487639,-0.00629187615628,-0.341980680061,0.573818472536,0.818960399662,0.00411961937697,0.0,0.818937382004,-0.573742410868,-0.0119145805284,0.0,-0.0073941116377,0.010210713295,-0.999920531066,0.0,0.450563544025,-0.0161930604154,0.304741633976,1.0,-0.12998,-0.170830857143,3.225
0.087544325049,-0.267150024701,-0.128755073857,-2.421758346,-0.0285538820335,2.14903642654,-0.194967240044,-0.384536176234,-0.386436654975,-0.00980977675705,-0.363920155737,-0.056380813108,-0.00303551094769,-0.345483993276,0.573939349435,0.818874692206,0.00431376115851,0.0,0.818855097869,-0.573863885457,-0.0117182149887,0.0,-0.00712037504203,0.0102580875028,-0.999922032911,0.0,0.448422153013,-0.0191666706983,0.304842588786,1.0,-0.12998,-0.170830857143,3.242
0.0813964990881,-0.273167040361,-0.128789787691,-2.42758865249,-0.0295016118151,2.14892362482,-0.200471443404,-0.378942911561,-0.371433758778,-0.00120671779763,-0.370181586615,-0.0562110677442,-0.0150237885125,-0.342170437365,0.573900291482,0.81890175388,0.00437262294169,0.0,0.818883355577,-0.573825276848,-0.0116339378651,0.0,-0.00701806567171,0.0102575859694,-0.999922761359,0.0,0.446375171296,-0.0218660817023,0.304869356047,1.0,-0.12998,-0.170830857143,3.258
0.0748206692236,-0.279477937706,-0.128802712174,-2.43393143604,-0.0305226871786,2.1486772386,-0.206455926384,-0.389615648501,-0.368059701367,-0.00508137173949,-0.362378210837,-0.0534940938315,-0.0195567186022,-0.354733923206,0.573750109628,0.819007782703,0.00422024577203,0.0,0.818986434619,-0.573674214751,-0.0118263325315,0.0,-0.00726495207763,0.0102418808124,-0.999921159066,0.0,0.44410106125,-0.024711068811,0.304771383777,1.0,-0.12998,-0.170830857143,3.275
0.0680661190366,-0.285808906996,-0.128850561489,-2.44001989346,-0.0315194013884,2.14846319003,-0.212437776051,-0.397019220196,-0.368135696333,-0.00503961723555,-0.357490977753,-0.0603797204021,-0.0167814901479,-0.350982671154,0.573789306128,0.818980124285,0.00425853269824,0.0,0.818959519418,-0.573713625171,-0.0117783169147,0.0,-0.00720316790177,0.0102460354498,-0.999921563489,0.0,0.441900872381,-0.027625118981,0.304786621499,1.0,-0.12998,-0.170830857143,3.292
0.0612222486573,-0.292115982722,-0.12900927662,-2.44597850593,-0.0324100529387,2.14822591474,-0.218580571263,-0.408489054386,-0.370179045122,-0.0157665850051,-0.341345882436,-0.0529453033379,-0.0174081437508,-0.359777876424,0.573904253776,0.818898628951,0.00443733048166,0.0,0.818880265374,-0.57382785655,-0.0117238615877,0.0,-0.00705452616257,0.010362215903,-0.999921425984,0.0,0.439717060829,-0.0305850607662,0.30483353039,1.0,-0.12998,-0.170830857143,3.309
0.0544049844169,-0.29835164533,-0.129056687446,-2.45177908753,-0.0333505412262,2.14798985549,-0.224691157982,-0.395756049341,-0.365430229346,-0.00237813866491,-0.345427011828,-0.0501800792829,-0.0134823275374,-0.357075879993,0.573914546358,0.818890557697,0.0045929177868,0.0,0.818875051855,-0.573838928138,-0.0115447348941,0.0,-0.00681841065162,0.0103869170607,-0.999922807636,0.0,0.437572288503,-0.0334698316354,0.304909887832,1.0,-0.12998,-0.170830857143,3.326
0.0479617764314,-0.304152071884,-0.129069537333,-2.45738321489,-0.0343110829572,2.14759864113,-0.23054174065,-0.413594025877,-0.359096511637,-0.00182178949232,-0.354029134108,-0.0564648116391,-0.0233817760561,-0.368564601895,0.573798568874,0.818972494776,0.00447236627319,0.0,0.818954960246,-0.573722630627,-0.0116560325571,0.0,-0.00698020670974,0.0103510806339,-0.999922062885,0.0,0.435448243983,-0.036158040508,0.304861190064,1.0,-0.12998,-0.170830857143,3.342
0.0409815877612,-0.310265892685,-0.129118188468,-2.46324111425,-0.0352837317631,2.14719477583,-0.236792086278,-0.408572449868,-0.360193240238,-0.00280828118344,-0.336452494456,-0.0503746899343,-0.0179580228033,-0.36697102214,0.573805774288,0.818967769158,0.00441286484472,0.0,0.818948971509,-0.573729301212,-0.0117481018034,0.0,-0.00708966336003,0.0103552391481,-0.999921249747,0.0,0.433203116701,-0.0390552857657,0.304820560791,1.0,-0.12998,-0.170830857143,3.359
0.0338904937739,-0.316341127495,-0.129281988042,-2.4688908847,-0.0361732710376,2.14683108505,-0.243163814193,-0.416347172399,-0.363611085763,-0.00967705581924,-0.334085770276,-0.0489354257468,-0.0238136382534,-0.374816620743,0.573934175525,0.818877070264,0.00454454202214,0.0,0.818859896956,-0.573857131901,-0.011713591447,0.0,-0.0069842080634,0.0104443747481,-0.999921064822,0.0,0.431011617992,-0.0420156198809,0.304846995206,1.0,-0.12998,-0.170830857143,3.376
0.0268825598467,-0.322349102446,-0.129290804033,-2.4743443516,-0.0371209865637,2.14646442335,-0.249586262526,-0.412757294694,-0.356635924299,0.00170522930233,-0.315791519839,-0.0584811434874,-0.0244703860532,-0.387605595175,0.573808573114,0.818964490928,0.00465090536772,0.0,0.818949822233,-0.573732936847,-0.0115088115322,0.0,-0.00675706047636,0.0104129133285,-0.999922953717,0.0,0.428877043778,-0.0448651158563,0.304923973582,1.0,-0.12998,-0.170830857143,3.393
0.0197351880824,-0.328316449678,-0.129316989101,-2.4798522092,-0.038064442128,2.14602289202,-0.256068714415,-0.429593281167,-0.350765010593,-4.62629762262e-05,-0.329147884512,-0.0573580080383,-0.0327657233936,-0.37598185376,0.573758769678,0.818999254643,0.00467354389597,0.0,0.818985203368,-0.573683579698,-0.0114513733055,0.0,-0.00669765976042,0.0103980893524,-0.99992350762,0.0,0.426681370176,-0.0477471055357,0.304940822539,1.0,-0.12998,-0.170830857143,3.41
0.0129218328486,-0.333830053788,-0.129403313524,-2.48511677321,-0.0389251776234,2.14547777157,-0.262249658865,-0.428279588676,-0.34472001735,-0.00998437133274,-0.32398514033,-0.0605632509907,-0.0277889411322,-0.392800127908,0.57377209888,0.818990518902,0.00456677098945,0.0,0.818973758673,-0.573695197751,-0.0116854432521,0.0,-0.00695046646475,0.0104450480028,-0.999921292897,0.0,0.424532914573,-0.0504821251916,0.304854027079,1.0,-0.12998,-0.170830857143,3.426
0.00556338252048,-0.339685830535,-0.129560791551,-2.49044581059,-0.039778062933,2.14499786907,-0.268813190807,-0.42707489021,-0.343481367462,-0.000891772803887,-0.307177450749,-0.0466911107318,-0.0223086583506,-0.390295123935,0.573970650875,0.818850672813,0.00469195785661,0.0,0.818835442845,-0.573893183448,-0.0116566905097,0.0,-0.0068525381683,0.0105327424162,-0.999921048912,0.0,0.422336365696,-0.0534429742698,0.30487713516,1.0,-0.12998,-0.170830857143,3.443
-0.00170965237741,-0.34547337605,-0.129570922675,-2.49571007506,-0.0406533635232,2.14443353242,-0.27558196148,-0.430889359651,-0.33392774565,-0.00227168490182,-0.309663082451,-0.050182331763,-0.0353197018173,-0.398929920613,0.573806306891,0.81896572795,0.0047122729887,0.0,0.818950674443,-0.573728669298,-0.0116599209207,0.0,-0.00684564131333,0.0105498584219,-0.999920915714,0.0,0.420135697317,-0.0562847803369,0.304885341224,1.0,-0.12998,-0.170830857143,3.46
-0.00870747410681,-0.350866157636,-0.129625945295,-2.50048889405,-0.0415403856328,2.1439174525,-0.281912784352,-0.436726148331,-0.338055731627,-0.00209943389392,-0.299191549296,-0.0578678906063,-0.0279165219019,-0.404990933508,0.573819149527,0.818956486018,0.004754423866,0.0,0.81894281868,-0.573742688217,-0.0115210395188,0.0,-0.00670754325081,0.0105047966303,-0.999922326039,0.0,0.418098522172,-0.0590331461329,0.304940430021,1.0,-0.12998,-0.170830857143,3.476
-0.0162097229196,-0.356556963947,-0.12976695651,-2.50559125347,-0.042417944641,2.14333824522,-0.28874674104,-0.443948613748,-0.325098133732,-0.00705845279131,-0.305580037914,-0.0461071271048,-0.035190028826,-0.404704738904,0.573888908605,0.818907212812,0.00482123282616,0.0,0.818894424889,-0.573812267515,-0.0114956268209,0.0,-0.00664749716417,0.0105454964459,-0.999922298624,0.0,0.415891440564,-0.0619724335596,0.3049571693,1.0,-0.12998,-0.170830857143,3.493
-0.0237210806921,-0.362155250331,-0.129835976955,-2.5107485201,-0.0432877112383,2.14263657974,-0.295674587795,-0.436587359401,-0.324818019799,0.00112661307687,-0.30220143652,-0.0470624815816,-0.03595970774,-0.411187501055,0.573832880722,0.818946949669,0.0047397817735,0.0,0.818931971513,-0.57375471787,-0.0116917345612,0.0,-0.00685557019197,0.0105908644631,-0.999920414207,0.0,0.413621775934,-0.0648488139885,0.30489121208,1.0,-0.12998,-0.170830857143,3.51
-0.031291186773,-0.367708757564,-0.12985742148,-2.51567748578,-0.0441771656703,2.14203976366,-0.302612100728,-0.455260797201,-0.322631440477,-0.00550603682051,-0.280295394496,-0.0468643701978,-0.0333664175821,-0.403227739955,0.573777250141,0.818985827645,0.00475691478773,0.0,0.818971572563,-0.57369982011,-0.0116114874363,0.0,-0.0067807330403,0.0105583885972,-0.999921267945,0.0,0.411431924784,-0.0677222538974,0.30490998173,1.0,-0.12998,-0.170830857143,3.527
-0.0389841976528,-0.373120401821,-0.12990108901,-2.52050580485,-0.0450102249086,2.1413554667,-0.309633946903,-0.453867177936,-0.318669614916,-0.00558739730889,-0.280109936202,-0.0490041216021,-0.049267736205,-0.407953890204,0.57379684213,0.81897215064,0.00474840387884,0.0,0.818957459062,-0.573718928452,-0.0116626877101,0.0,-0.00682729869762,0.0105809578702,-0.999920712518,0.0,0.409226823831,-0.070621827725,0.304898194546,1.0,-0.12998,-0.170830857143,3.544
-0.0463072509588,-0.378202651856,-0.130056923841,-2.52492386551,-0.0457402066746,2.1407054871,-0.316327958849,-0.454939463026,-0.316632707806,-0.00645278971847,-0.26732301345,-0.0462797245902,-0.0442320489231,-0.418890237207,0.573924220435,0.818882175693,0.00487015726493,0.0,0.818868921023,-0.573845683782,-0.0116433796394,0.0,-0.00673996709092,0.0106706434505,-0.999920351934,0.0,0.407037211946,-0.0735669256829,0.304932367605,1.0,-0.12998,-0.170830857143,3.561
-0.0540003842823,-0.383577010041,-0.13007581113,-2.52956064729,-0.0465742082994,2.14006525215,-0.323515830519,-0.456042962567,-0.311430871283,-0.00139092957463,-0.268010592319,-0.0512962591949,-0.041440530838,-0.416747895737,0.573793594471,0.81897336247,0.00492842877478,0.0,0.818961560706,-0.573716019599,-0.0115168503895,0.0,-0.00660460230805,0.0106446936465,-0.999921531784,0.0,0.404996535557,-0.0762495276601,0.304974397032,1.0,-0.12998,-0.170830857143,3.577
-0.0623722372294,-0.389151118714,-0.13011230376,-2.53455681084,-0.0475137106328,2.13927087927,-0.331187067222,-0.460590301345,-0.307852858607,-0.00237679370905,-0.27191144286,-0.0589197149757,-0.0384860977453,-0.430946663596,0.573770386932,0.818990324405,0.00481025079231,0.0,0.818976479308,-0.573692354963,-0.0116342210476,0.0,-0.00676884068611,0.0106150581434,-0.999920748528,0.0,0.402605040887,-0.0793254768059,0.304916154409,1.0,-0.12998,-0.170830857143,3.595
