nelsonifechukwu/NELSON_IML_WORK/CNN-GradCAM/train2dof/data_sample_2022-02-21-16-26-01/robot_state.csv
position_joint1,position_joint2,position_joint3,position_joint4,position_joint5,position_joint6,position_joint7,velocity_joint1,velocity_joint2,velocity_joint3,velocity_joint4,velocity_joint5,velocity_joint6,velocity_joint7,ee_T_00,ee_T_10,ee_T_20,ee_T_30,ee_T_01,ee_T_11,ee_T_21,ee_T_31,ee_T_02,ee_T_12,ee_T_22,ee_T_32,ee_T_03,ee_T_13,ee_T_23,ee_T_33,v_x,v_y,time
0.465077991995,0.547810642372,-0.123890150563,-1.35584864587,0.0795396335727,1.89409638828,0.159176080458,0.000284203055641,-5.84346275114e-05,0.000570100362458,0.000818658698049,0.000279537857208,-0.000399292407386,-0.000206819908766,0.573758703408,0.819010318853,0.00194801850526,0.0,0.818966247608,-0.573699269317,-0.0120075211612,0.0,-0.00871687476863,0.00848494453959,-0.999926008168,0.0,0.661645929687,0.260954139582,0.303182523453,1.0,0.0,0.0,0.0
0.465075848053,0.547805869169,-0.123890505092,-1.35585897335,0.0795429301633,1.89409684166,0.15917178114,9.1401420252e-05,-0.00116954682663,-0.000592689703578,-0.00222068263534,-0.000292356082223,0.000335425923621,-0.00154878012245,0.573758617781,0.819010383953,0.0019458673777,0.0,0.818966245128,-0.573699154457,-0.0120131768215,0.0,-0.0087227420316,0.00848642681811,-0.999925944424,0.0,0.661644233758,0.26095191671,0.303181046905,1.0,-0.0001,-0.000131428571429,0.006
0.465077606322,0.547805134816,-0.123890151579,-1.35585956401,0.0795383492489,1.89409709912,0.159178306103,0.000873694284556,0.000599627277095,-3.34486682354e-05,-0.00201489405266,-0.000186904293708,-9.93311848471e-05,0.000564649487731,0.573761093126,0.819008654949,0.00194371699438,0.0,0.818964528706,-0.573701678237,-0.0120096632246,0.0,-0.00872107232998,0.00848267608989,-0.999925990813,0.0,0.661643886352,0.260952499265,0.303181288134,1.0,-0.00046,-0.000604571428571,0.024
0.465072350064,0.547797862777,-0.123895866835,-1.35586428872,0.0795389463587,1.89409638849,0.159171042933,0.000471632890087,0.000254564456194,-0.00209560862422,0.000580504961062,-1.96082538253e-05,0.00173814009568,-0.00649353505654,0.573763841296,0.819006727468,0.0019446555163,0.0,0.818962631586,-0.573704439672,-0.0120071173474,0.0,-0.0087184202383,0.00848201327634,-0.999926019563,0.0,0.661645505382,0.260945297748,0.303184319472,1.0,-0.00078,-0.00102514285714,0.04
0.46507444945,0.547724806358,-0.12389045827,-1.35593940075,0.0795396189441,1.89410684393,0.159172077575,0.000484670001263,-0.00800555145283,0.000555370690222,-0.00929532450693,-0.000994685382128,-0.000281003961174,-0.000421129223372,0.573763410728,0.819006999031,0.00195728105585,0.0,0.818962970654,-0.573703860474,-0.0120116641212,0.0,-0.00871490507639,0.00849495763683,-0.99992594032,0.0,0.661630477026,0.260942682122,0.303201054496,1.0,-0.00112,-0.001472,0.057
0.465071264001,0.547594829057,-0.123890484794,-1.35610201838,0.0795379440785,1.89413946468,0.159169996046,0.00121010712355,-0.00797077758492,0.00107827219396,-0.0137827222767,-0.000120272343621,0.000468622975333,-0.000282098752836,0.573770981765,0.819001686193,0.00196096856469,0.0,0.818957547289,-0.573711260102,-0.0120279953296,0.0,-0.00872608671439,0.00850742848933,-0.999925736778,0.0,0.661599193006,0.260926444626,0.303219331893,1.0,-0.00148,-0.00194514285714,0.075
0.465050994718,0.547433469986,-0.123893347883,-1.35632421931,0.0795340055128,1.89419734281,0.159165138067,-0.00180099286286,-0.00997847832788,-0.000510424295032,-0.0132290145341,0.000256513557927,0.00572986587412,-0.00122707657977,0.573798578495,0.818982338784,0.00196646345819,0.0,0.81893821651,-0.573738776039,-0.0120316794263,0.0,-0.00872566461451,0.00851433655638,-0.999925681663,0.0,0.661575092951,0.260888877427,0.303232220873,1.0,-0.00182,-0.002392,0.092
0.465035703166,0.547262023403,-0.123890192284,-1.3565204915,0.079531245565,1.89432879066,0.159154014395,0.000526698316271,-0.00946073079571,8.65594210108e-05,-0.0168294026338,-0.000444155050158,0.00473756434641,-0.00165437452062,0.573810377886,0.818973837627,0.00206165346418,0.0,0.818930949483,-0.573750162342,-0.0119832421283,0.0,-0.00863125396165,0.00856462541844,-0.999926071591,0.0,0.661564263022,0.260868042705,0.303271551648,1.0,-0.00214,-0.00281257142857,0.108
0.465013333779,0.547056545754,-0.123884899334,-1.35676146047,0.0795249757228,1.89445542635,0.159136440783,0.000727374908958,-0.0137052984604,0.0015060100147,-0.0124562900743,-0.00297449653827,0.00505124221509,-0.00203168174071,0.573822600334,0.818965060445,0.00214476509218,0.0,0.818923216032,-0.573761999015,-0.0119449416656,0.0,-0.0085520698203,0.00861084119969,-0.999926355046,0.0,0.661544661818,0.260838004031,0.303313211693,1.0,-0.00248,-0.00325942857143,0.125
0.464981746667,0.546847961833,-0.123885798048,-1.35707506361,0.0795208441431,1.89457869553,0.159113318608,-0.00457111730066,-0.0117287143769,0.00115280565966,-0.0228047457279,-0.00101342657963,0.0098591638864,-0.00259708802624,0.573846654716,0.818948145131,0.00216780054419,0.0,0.818906484384,-0.573785838449,-0.0119468962653,0.0,-0.00854019970903,0.00863107855358,-0.999926282019,0.0,0.66151149347,0.26078980693,0.303322407558,1.0,-0.0028,-0.00368,0.141
0.464957877871,0.546598095728,-0.123895557674,-1.35743938162,0.0795141200876,1.89470931828,0.15901529236,0.000371092627566,-0.0126705579289,-0.00415964186153,-0.0218161383796,-0.00012230147357,0.0165224710088,-0.0120397261203,0.573811291755,0.818972867775,0.00218865348593,0.0,0.818931380798,-0.573750295502,-0.0119473368297,0.0,-0.00852896833044,0.00864804030216,-0.999926231328,0.0,0.661469393951,0.260736187541,0.303337616468,1.0,-0.00312,-0.00410057142857,0.157
0.464905750028,0.546296935612,-0.123896510581,-1.35790699519,0.079499064475,1.89487415234,0.158952404832,-0.00534593682122,-0.0157274339416,-0.00158373558036,-0.0266084055701,0.000249846366567,0.00358352967053,-0.000694603247913,0.573825252374,0.818963070517,0.00219448604243,0.0,0.81892153266,-0.573764101791,-0.0119593371123,0.0,-0.00853530246086,0.0086598482389,-0.999926075088,0.0,0.661417547167,0.260658356905,0.303342633545,1.0,-0.00348,-0.00457371428571,0.175
0.464863232488,0.545970357633,-0.123888035563,-1.35845790649,0.0794763352591,1.89507069316,0.15891005807,-0.00171086996214,-0.022315060967,0.000547167714477,-0.0319621989458,-0.0035366894142,0.0107124632107,-0.00272563192445,0.573852872707,0.81894373766,0.00218676352774,0.0,0.818901977487,-0.573791627062,-0.0119777661763,0.0,-0.00855453469996,0.00866438732234,-0.999925871417,0.0,0.661354902064,0.260586523521,0.303335871244,1.0,-0.00382,-0.00502057142857,0.192
0.464804646602,0.54567186486,-0.123891517864,-1.35897375316,0.0794439586233,1.89523919148,0.158846970886,-0.00330248733778,-0.0162132729038,-0.00334337201816,-0.0351990926124,-0.00333809844692,0.0166879790422,-0.00129425916061,0.573863120581,0.818936695252,0.00213422316559,0.0,0.818894204568,-0.573802046434,-0.0120100014346,0.0,-0.00861097505283,0.00863996622914,-0.999925598278,0.0,0.661290160265,0.260491810534,0.303308911094,1.0,-0.00414,-0.00544114285714,0.208
0.464743264845,0.545284188283,-0.123893652314,-1.35964066524,0.0793732715562,1.89544254667,0.158743783248,-0.00603585490689,-0.0213605537303,0.000815562976644,-0.0389613618455,-0.00333956700099,0.00776463705708,-0.000528248946986,0.573848603299,0.818947075953,0.00205284695187,0.0,0.81890373282,-0.573788083072,-0.0120274269423,0.0,-0.008672093973,0.00858317143658,-0.999925559206,0.0,0.661208132671,0.26037826095,0.30328353652,1.0,-0.00448,-0.005888,0.225
0.464679205551,0.544866714757,-0.123896851189,-1.36034251644,0.0793488425202,1.89568391535,0.158680984425,-0.00599222324897,-0.0232172037772,-0.000354368732259,-0.0402569752398,-0.000659673654544,0.0162368041411,-0.00431746250123,0.573884478985,0.818922006677,0.00202451485943,0.0,0.818878111249,-0.573823895432,-0.0120632851902,0.0,-0.00871734254791,0.00858092824995,-0.999925185006,0.0,0.661124714888,0.260268649652,0.303266013914,1.0,-0.00482,-0.00633485714286,0.242
0.46461449803,0.544448536924,-0.12389445997,-1.36102214855,0.0793259218078,1.89593587511,0.158572903288,-0.00431938185281,-0.0301499790975,0.000872906577758,-0.0408976509072,-0.00494617058145,0.0161123472828,-0.00852212583636,0.573879132027,0.818925748958,0.00202643024604,0.0,0.818881691541,-0.573818356816,-0.0120836890606,0.0,-0.00873300937764,0.00859414908145,-0.999924934757,0.0,0.661047260118,0.260165466437,0.303260263812,1.0,-0.00514,-0.00675542857143,0.258
0.464544734401,0.543934738215,-0.123902226486,-1.36187179777,0.0792864335723,1.89623830497,0.158489554921,-0.00618612902497,-0.0290794555292,-0.00172879926376,-0.0476202294927,-0.00737984916236,0.0209064390009,0.00089755190268,0.573910257469,0.818903997589,0.0020015006918,0.0,0.818859517897,-0.573849492115,-0.0121077351535,0.0,-0.00876668134926,0.00858786663391,-0.999924694087,0.0,0.660947746642,0.260034876577,0.303245904506,1.0,-0.0055,-0.00722857142857,0.276
0.46446062274,0.543405531563,-0.123898673602,-1.36271797187,0.0792381367255,1.89652152677,0.158359879197,-0.00579764044013,-0.0354637978424,0.000523583536882,-0.0513387763357,-0.0060003540164,0.0148777608047,-0.00810214287435,0.573904520475,0.818908080301,0.00197592955206,0.0,0.818863166711,-0.573843770958,-0.0121320912303,0.0,-0.00880136212763,0.0085808431379,-0.999924449724,0.0,0.660847107921,0.259899256301,0.303241981626,1.0,-0.00584,-0.00767542857143,0.293
0.464388197121,0.542886145479,-0.123900835915,-1.36354201579,0.0791945202073,1.89682573844,0.158271581363,-0.00526937648604,-0.0390510367617,-0.000165581245693,-0.0562008981753,-0.00111390269317,0.0204394608918,-0.0009195989065,0.573927268234,0.818892133758,0.00197761179774,0.0,0.818847189539,-0.573866457072,-0.0121374022704,0.0,-0.00880450768174,0.00858551328885,-0.999924381944,0.0,0.660753388026,0.259772737754,0.303243601896,1.0,-0.00616,-0.008096,0.309
0.464314853729,0.542262875232,-0.123903710207,-1.36451755878,0.0791327204082,1.89718391245,0.158125299736,-0.00744844988309,-0.0337414573167,0.000901745341862,-0.0610103629972,-0.00323571931849,0.0232660246594,-0.010379087071,0.573907273263,0.818906140709,0.00198022862161,0.0,0.818861257515,-0.57384647922,-0.012132853339,0.0,-0.00879949029853,0.00858483056053,-0.999924431972,0.0,0.660639534472,0.259629309328,0.303251198807,1.0,-0.00652,-0.00856914285714,0.327
0.46422732008,0.541638279379,-0.123901525216,-1.36546602949,0.0790769295699,1.89753432275,0.158004150727,-0.00335304797423,-0.0390099123553,0.000580340835846,-0.0567978186705,-0.00667914140907,0.0220975140938,-0.00592412971798,0.57391595045,0.818900001005,0.00200426419561,0.0,0.818855403429,-0.573855021383,-0.012123927131,0.0,-0.00877829587631,0.00859948329574,-0.999924492354,0.0,0.660532441587,0.259483126146,0.30327169743,1.0,-0.00686,-0.009016,0.344
0.464151674575,0.541026042106,-0.123904065972,-1.36642945903,0.0790240016651,1.89789386517,0.157879863438,-0.0028977249611,-0.0357082026803,6.67219164225e-05,-0.0595931677509,-0.00175238550091,0.0215497054739,-0.00552591195681,0.573917234204,0.818899079919,0.00201298111804,0.0,0.818854556508,-0.573856227662,-0.0121240323755,0.0,-0.00877336612094,0.00860669559458,-0.999924473567,0.0,0.660421066945,0.259341204562,0.303277212,1.0,-0.00718,-0.00943657142857,0.36
0.464061818002,0.54032151078,-0.123906433939,-1.3675002921,0.0789642338966,1.89828548316,0.157755710143,-0.00391606525374,-0.0387557315516,2.12196472777e-05,-0.0584908887681,-0.00185390987886,0.018406713879,-0.013486654444,0.573934102055,0.818887199155,0.00203677677328,0.0,0.81884294392,-0.573872946936,-0.0121169661251,0.0,-0.00875374590002,0.00862230636787,-0.999924511034,0.0,0.660297572836,0.25917954309,0.303299516092,1.0,-0.00752,-0.00988342857143,0.377
0.463963444904,0.539536144027,-0.123907223286,-1.36871134149,0.0788853204226,1.89875137744,0.157602259905,-0.0083137091019,-0.039312948261,-0.000500619156627,-0.0705108301936,-0.00146412395088,0.0195628759667,-0.00878094957544,0.573935561778,0.818886101253,0.00206664043765,0.0,0.818842312449,-0.5738743518,-0.0120930802995,0.0,-0.00871703126693,0.00863306768362,-0.999924738922,0.0,0.66016131075,0.258999543775,0.303318456882,1.0,-0.00788,-0.0103565714286,0.395
0.463875871054,0.538865079416,-0.123909366834,-1.36973997121,0.0788289963374,1.89914805526,0.1574759382,-0.00384123768216,-0.0440373534334,-0.000237270939311,-0.0681500707436,-0.0011699756313,0.0353638735267,-0.00807294748972,0.573947204757,0.81887785136,0.00210180994372,0.0,0.818834499453,-0.573885819331,-0.0120779045218,0.0,-0.00868429678175,0.0086532806353,-0.999924849038,0.0,0.660046453172,0.258845006214,0.303337410579,1.0,-0.00818,-0.0107508571429,0.41
0.463756141751,0.538040303461,-0.123909695655,-1.37102235364,0.0787606813557,1.89964022713,0.157312598765,-0.00632904020826,-0.0455685583456,8.22520107362e-05,-0.0682271193602,-0.00144406043189,0.0236963481177,-0.00477796191127,0.573964335792,0.818865758071,0.00213504062664,0.0,0.818822776592,-0.57390274248,-0.0120685379931,0.0,-0.0086573735229,0.00867529731362,-0.999924891729,0.0,0.659904303432,0.258646744194,0.303352266898,1.0,-0.00854,-0.011224,0.428
0.463647603142,0.537234761343,-0.123916519956,-1.37228317033,0.0786851319026,1.90011287847,0.157154782435,-0.00496037809574,-0.0460106655283,-0.00188043408365,-0.0761327701226,-0.0014182810303,0.0304198848637,-0.0155506974798,0.573978069152,0.818856098811,0.00214766721366,0.0,0.818813308892,-0.573916447117,-0.0120591795489,0.0,-0.0086423175748,0.00868041021544,-0.999924977599,0.0,0.659761453445,0.25845192976,0.303362160177,1.0,-0.00888,-0.0116708571429,0.445
0.463558542754,0.536530336408,-0.123915754421,-1.37337433194,0.0786237011728,1.90052238824,0.157026742937,-0.00606369051022,-0.0458811799662,0.000830213092237,-0.0793155709137,-0.00115481195682,0.0356408263871,-0.00678569115723,0.573989232833,0.818848217052,0.00216908370144,0.0,0.81880566363,-0.573927475213,-0.0120534353731,0.0,-0.00862520339419,0.00869476754364,-0.999925000629,0.0,0.659634879818,0.258291193094,0.303375567782,1.0,-0.00916,-0.0120388571429,0.459
0.463432512798,0.535620326896,-0.123921450006,-1.37481069035,0.0785405363552,1.90104894303,0.156846972834,-0.00775324109015,-0.0498705147411,-0.00321600003192,-0.0770781656245,-0.00401789456538,0.0336782709251,-0.00506049078693,0.574005852856,0.818836566253,0.00216922937485,0.0,0.818793987266,-0.573944064805,-0.0120566908512,0.0,-0.00862760912032,0.00869693052668,-0.999924961065,0.0,0.659468923115,0.258068485159,0.303379998756,1.0,-0.00952,-0.012512,0.477
0.463313065056,0.534732394078,-0.123920003806,-1.37625557542,0.0784613714704,1.90157054826,0.156675104085,-0.00438582301853,-0.0487006467993,0.000417968177465,-0.0795136643411,-0.0110070212617,0.0308704100978,-0.0100569391108,0.574019930796,0.818826766946,0.00214282111554,0.0,0.818783718655,-0.573958128257,-0.0120845345245,0.0,-0.00866541757425,0.00869143804999,-0.999924681885,0.0,0.659295494218,0.257853291184,0.303363969099,1.0,-0.00986,-0.0129588571429,0.494
0.46321803252,0.534024652111,-0.123925303424,-1.37739530272,0.0783999657545,1.90197954842,0.156533018308,-0.00750100795437,-0.0581715895797,-0.000632159522643,-0.0871261093897,-0.00327159733094,0.0344996229607,-0.0130887873374,0.574031049554,0.818819017215,0.00212558152386,0.0,0.818775665063,-0.573969240922,-0.012102383113,0.0,-0.00868981033852,0.00868768537114,-0.99992450281,0.0,0.659159767356,0.25767938395,0.303356375242,1.0,-0.01012,-0.0133005714286,0.507
0.463055281476,0.532892477635,-0.123925702942,-1.37924479853,0.0782974582775,1.90269119559,0.156303338279,-0.00540847024147,-0.0528861888786,-0.00174560130679,-0.0962104196665,-0.000499459396819,0.0413070462551,-0.00862572186961,0.574050439785,0.818805431508,0.00212245536797,0.0,0.818761965863,-0.573988569567,-0.0121124796824,0.0,-0.00869966652787,0.00869112734922,-0.999924387195,0.0,0.658948660718,0.257398898343,0.303336212556,1.0,-0.01054,-0.0138525714286,0.528
0.462933156764,0.531979257321,-0.123923209972,-1.38071086782,0.0782097761883,1.90322212927,0.156111773906,-0.00658578478151,-0.0576400593477,9.3635323681e-05,-0.0954964794963,-0.00126016350459,0.0324710904397,-0.0175139161749,0.57404823264,0.818807025791,0.00210428607342,0.0,0.818763259185,-0.573986378275,-0.0121288855466,0.0,-0.00872355311389,0.00868564466123,-0.999924226728,0.0,0.658772624736,0.257179691918,0.303328144896,1.0,-0.01086,-0.0142731428571,0.544
0.462797927231,0.530965685649,-0.123920467546,-1.38232855933,0.078116409325,1.90379713569,0.155915899319,-0.00804680724423,-0.0580717223241,0.00595000894869,-0.0983657259882,-0.00994383318139,0.0345120896528,-0.0137537239904,0.574059536308,0.818799156916,0.00208238061899,0.0,0.81875498805,-0.573997661262,-0.0121532427708,0.0,-0.0087559519086,0.00868181158026,-0.999923976837,0.0,0.658575877591,0.256937417311,0.303322251359,1.0,-0.0112,-0.01472,0.561
0.462683652613,0.530110710377,-0.123925718586,-1.38368758082,0.0780274973739,1.90428501501,0.15573144441,-0.00518611663623,-0.0596797228853,-0.0010942767695,-0.0949388914616,-0.0022171369067,0.041261688119,-0.0105708739343,0.574055643403,0.818801933793,0.00206358773594,0.0,0.818757561067,-0.573993893134,-0.0121578675105,0.0,-0.00877056753066,0.00866903742373,-0.999923959577,0.0,0.658413765272,0.256727758243,0.303320212696,1.0,-0.01148,-0.015088,0.575
0.462517699566,0.528868409882,-0.123925695653,-1.38563304112,0.0779126460306,1.90500985759,0.155465635191,-0.00131048486894,-0.0649506887881,0.0061367946947,-0.099659040087,-0.00849446096362,0.0350224903974,-0.0112632465154,0.574048558571,0.818806851816,0.00208296013256,0.0,0.818762688374,-0.573986680254,-0.0121531032645,0.0,-0.00875562142503,0.00868208860616,-0.999923977326,0.0,0.658185111779,0.256434511836,0.303332021422,1.0,-0.01188,-0.0156137142857,0.595
0.462383607021,0.527842206914,-0.123928885655,-1.38724444819,0.0778072463486,1.90563257658,0.155242654917,-0.00829122279959,-0.0635409709221,-0.00166758817316,-0.0955988058725,-0.0142248898561,0.0344113458705,-0.0148307186643,0.574037045389,0.818814858686,0.00210822596866,0.0,0.818771132077,-0.573975163848,-0.0121281269946,0.0,-0.00872078914763,0.00868831602612,-0.99992422763,0.0,0.658000044561,0.256191812506,0.303341607717,1.0,-0.0122,-0.0160342857143,0.611
0.462247765498,0.526660838904,-0.123929579622,-1.38903104674,0.077696456556,1.90631631753,0.155000480421,-0.00411751309464,-0.0740802286011,-0.000289367188502,-0.106428581284,-0.00805499840775,0.0444809322616,-0.0218875314061,0.574017206205,0.818828596987,0.0021731632281,0.0,0.818785769073,-0.57395509729,-0.012089564067,0.0,-0.00865214925188,0.00871914078552,-0.999924555603,0.0,0.657789885624,0.255933952969,0.303381943179,1.0,-0.01254,-0.0164811428571,0.628
0.462087791994,0.525495044839,-0.123934478794,-1.39086133289,0.0775859852249,1.90698523262,0.154758202401,-0.00768289438182,-0.0683607625351,-0.00107642925977,-0.108837593819,-0.00418500059482,0.0454972218562,-0.0128691860375,0.574022105095,0.818825155834,0.00217576101585,0.0,0.818782343575,-0.573959966019,-0.0120904159218,0.0,-0.00865130354694,0.00872180862437,-0.999924539653,0.0,0.657572643535,0.255651473577,0.303389099106,1.0,-0.01288,-0.016928,0.645
0.461944985109,0.524374819993,-0.123940594232,-1.39262300382,0.0774693924687,1.90760524462,0.154504580848,-0.0115236897242,-0.0728229077794,-0.0019145732123,-0.112437732328,-0.00637172771786,0.0465173448859,-0.0112149222774,0.574002118708,0.818839231338,0.00215124185126,0.0,0.818796103503,-0.573940092123,-0.0121020016444,0.0,-0.0086750768,0.00870817068927,-0.999924452549,0.0,0.657342734053,0.25536815114,0.303388516777,1.0,-0.01322,-0.0173748571429,0.662
0.46177353581,0.523119482823,-0.123935968556,-1.39464513637,0.0773459476317,1.90836408573,0.154243456041,-0.0116614788892,-0.0713539053767,-0.000206601828767,-0.118349779783,-0.00609062370846,0.0411954508947,-0.017332148292,0.573997335823,0.818842604443,0.00214348296498,0.0,0.818799372046,-0.573935340068,-0.0121062240013,0.0,-0.00868303854218,0.00870419041199,-0.999924418099,0.0,0.65711442621,0.255080878444,0.303378045115,1.0,-0.01356,-0.0178217142857,0.679
0.461602752278,0.521870825561,-0.123936106284,-1.39660416417,0.0772289891588,1.90913760391,0.153973855303,-0.0105916536014,-0.0718528822768,-0.000418416177262,-0.115264391538,-0.00878937529699,0.0525354416317,-0.0166532992733,0.573990133395,0.818847514938,0.00219566527706,0.0,0.818804995973,-0.573927947261,-0.0120762917943,0.0,-0.00862865398839,0.00872966210929,-0.999924666827,0.0,0.656890146267,0.2547860031,0.303390141925,1.0,-0.0139,-0.0182685714286,0.696
0.461443052484,0.520693117778,-0.123938807802,-1.39849228922,0.0771115906786,1.90983727785,0.153719535595,-0.0115719181946,-0.0750880537021,0.0010601732069,-0.112417260283,-0.0120151525099,0.0384519847109,-0.0141158925985,0.573983697037,0.818852060216,0.00218309802302,0.0,0.818809379868,-0.573921567982,-0.0120822243742,0.0,-0.00864079364242,0.00872270889232,-0.999924622677,0.0,0.656663091945,0.2544994047,0.303379496538,1.0,-0.01422,-0.0186891428571,0.712
0.461275010252,0.519370706129,-0.1239448667,-1.40055247465,0.0769807411102,1.91057094017,0.15344089848,-0.00923948394003,-0.0770008695582,-0.000221256996474,-0.125498370044,-0.00926373356193,0.0428075727011,-0.0124618989236,0.573971523178,0.818860612351,0.00217601039765,0.0,0.81881784447,-0.573909431005,-0.0120850933464,0.0,-0.00864734053685,0.00871842343578,-0.999924603455,0.0,0.656408955433,0.254187061428,0.303391238567,1.0,-0.01456,-0.019136,0.729
0.461099893928,0.518023446712,-0.12395087381,-1.40265362375,0.0768480561196,1.91132414091,0.153165922189,-0.00957658729936,-0.0819924882826,-0.00107805452217,-0.124085241083,-0.00637349689205,0.0385915763083,-0.014182230588,0.573969508778,0.818862035179,0.00217192026066,0.0,0.818819218375,-0.573907438869,-0.0120866095892,0.0,-0.00865095109005,0.00871592322747,-0.999924594021,0.0,0.656150826526,0.253866646213,0.303402218691,1.0,-0.0149,-0.0195828571429,0.746
0.460928439684,0.516741775137,-0.123948768953,-1.4046704892,0.0767164851755,1.91205287685,0.152877626083,-0.0119565513638,-0.0822034004174,0.000517935516028,-0.126288333852,-0.00539376747545,0.0498389035703,-0.0221246647143,0.573943378185,0.818880375681,0.0021623747117,0.0,0.81883744019,-0.573881358506,-0.0120904840103,0.0,-0.0086598802809,0.00871005430596,-0.999924567869,0.0,0.65590246868,0.253561081649,0.303404527373,1.0,-0.01522,-0.0200034285714,0.762
0.460743421049,0.515379112821,-0.123954461752,-1.40683601803,0.0765865145183,1.9128901805,0.152580522059,-0.0152675666445,-0.075968242026,-8.08232561274e-05,-0.128698091688,-0.00434445586135,0.0548972279528,-0.0190032653257,0.573935154735,0.81888606915,0.00218879228501,0.0,0.818843506123,-0.573873051079,-0.0120739648407,0.0,-0.00863127887956,0.00872211915578,-0.999924709997,0.0,0.655647059336,0.253233098104,0.303402197554,1.0,-0.01556,-0.0204502857143,0.779
0.460549468306,0.513898340642,-0.123957401823,-1.40922635783,0.0764413183149,1.9137260206,0.152268143682,-0.010846020692,-0.0850837184365,-5.1740196588e-05,-0.136094818852,-0.00579064366281,0.0392694725935,-0.0182897199492,0.573926587326,0.818892239451,0.00212589489904,0.0,0.818848733207,-0.573864632675,-0.0121195045781,0.0,-0.00870475994322,0.00869665968522,-0.999924294767,0.0,0.655342627721,0.252873335472,0.303375019308,1.0,-0.01592,-0.0209234285714,0.797
0.460375926231,0.512577875203,-0.123955880306,-1.41137097158,0.0763081953398,1.91447059885,0.151952027508,-0.0105033692535,-0.0830007182768,0.00066439919032,-0.132951147881,-0.00842593728016,0.0429924638515,-0.0218290501266,0.573885013015,0.818921549027,0.00205797879057,0.0,0.818877033654,-0.573823241083,-0.012167113378,0.0,-0.00878316437816,0.00866792247102,-0.999923858673,0.0,0.65506646153,0.25255244086,0.303343966283,1.0,-0.01624,-0.021344,0.813
0.460174236102,0.511134593614,-0.123963656072,-1.41367275401,0.0761700449313,1.91534348351,0.151634136808,-0.0102693829572,-0.0851153719252,-0.00136127370821,-0.134718717688,-0.0122734482777,0.0566522424362,-0.0228390974483,0.573878685422,0.818925959009,0.00206760265851,0.0,0.818881572796,-0.573816874978,-0.0121618513474,0.0,-0.00877339939689,0.00867271595711,-0.999923902835,0.0,0.654790388809,0.252198508528,0.303335112611,1.0,-0.01658,-0.0217908571429,0.83
0.459970203901,0.509650464525,-0.123963349253,-1.41602087039,0.0760171369617,1.91622940603,0.151298146868,-0.0182936865353,-0.0933379318216,9.98587894568e-05,-0.144075302372,-0.0169228054792,0.0550675866539,-0.0178837913123,0.573851537693,0.818944952194,0.00207963088714,0.0,0.818900788807,-0.573789742589,-0.0121480982906,0.0,-0.00875552147339,0.00867438326679,-0.999924045075,0.0,0.654505563192,0.251841407866,0.303333155909,1.0,-0.01692,-0.0222377142857,0.847
0.459778123833,0.50825863191,-0.123959142117,-1.41825078218,0.0758840399548,1.91701594235,0.150995588615,-0.0169972826201,-0.0839820578865,0.00121447637012,-0.137598510461,-0.00366545258992,0.0462749298719,-0.0187740011695,0.573837792948,0.818954685505,0.00203896446556,0.0,0.818909827121,-0.573776018796,-0.0121869684877,0.0,-0.00881083566744,0.00866323793185,-0.999923655827,0.0,0.654220798607,0.251503801469,0.303313705784,1.0,-0.01724,-0.0226582857143,0.863
0.459567913032,0.506716997899,-0.123967267189,-1.42066325558,0.075730675771,1.91789580389,0.150653929258,-0.0122738158337,-0.0871547257637,-0.000388425747629,-0.141702728324,-0.00909015776455,0.0515688026399,-0.0213447583911,0.5738193013,0.818967635023,0.00204184757378,0.0,0.818922841173,-0.57375754304,-0.0121823195891,0.0,-0.00880556955028,0.00866273251563,-0.999923706595,0.0,0.653922467572,0.251130560062,0.303320073619,1.0,-0.01758,-0.0231051428571,0.88
0.459345699644,0.505116899365,-0.123973950374,-1.42312524815,0.0755756673834,1.91884631376,0.150333163826,-0.0128196798538,-0.0974381521817,-0.0005676496496,-0.144746618933,-0.00695485497896,0.0502845417791,-0.0254009402018,0.573828739908,0.818960844785,0.002111602498,0.0,0.818917066663,-0.573766775181,-0.0121355893024,0.0,-0.00872717313648,0.00869314461106,-0.999924129965,0.0,0.653629694038,0.250749742682,0.303349226964,1.0,-0.01792,-0.023552,0.897
0.459154630206,0.503733904189,-0.123974599748,-1.42517774568,0.0754402963979,1.91962134766,0.150035516201,-0.0149352028102,-0.0999398598507,-0.00297945959343,-0.144435287936,-0.0113448782275,0.0562609921098,-0.0258982716809,0.573810777096,0.818973206193,0.00219693594581,0.0,0.818930644915,-0.57374854907,-0.0120809006561,0.0,-0.00863361135652,0.00873145727205,-0.999924608362,0.0,0.65338330503,0.250429927566,0.303405570802,1.0,-0.0182,-0.02392,0.911
0.458881893357,0.501767605034,-0.123979926915,-1.42812176436,0.0752470905054,1.92070697853,0.149630051309,-0.0177155577424,-0.0974898837403,3.07650831911e-05,-0.151623030133,-0.0151550459616,0.0544082209497,-0.0226545897111,0.573804225352,0.818977562852,0.00228241416154,0.0,0.818936225999,-0.573741749761,-0.0120253577571,0.0,-0.00853914629867,0.0087695215725,-0.99992508643,0.0,0.653023534372,0.2499678106,0.303471369987,1.0,-0.0186,-0.0244457142857,0.931
0.458644818026,0.500049484177,-0.123978603201,-1.43072730928,0.0750798665137,1.92162421267,0.149264870851,-0.013241563612,-0.0925795111497,0.00654665652102,-0.154128281373,-0.0127711483181,0.0519473140669,-0.0232658276412,0.573785660072,0.818990500461,0.00230723915394,0.0,0.818949440555,-0.573723035894,-0.0120182694176,0.0,-0.00851929625593,0.00878559201492,-0.999925114678,0.0,0.652691911542,0.249562716273,0.303509504132,1.0,-0.01894,-0.0248925714286,0.948
0.458408076969,0.498467294041,-0.123979191331,-1.43319002474,0.0749322239148,1.92254951256,0.148917043878,-0.0151915682375,-0.0951325000575,0.000734020350197,-0.151758528546,-0.00463859091751,0.0593348290001,-0.0162421357181,0.573780626787,0.818993915323,0.00234646289443,0.0,0.818953319574,-0.573717792975,-0.0120042194549,0.0,-0.00848533854776,0.00880960175171,-0.999925192175,0.0,0.652390975582,0.24917556283,0.303521040067,1.0,-0.01926,-0.0253131428571,0.964
0.458150137104,0.496785421516,-0.123982109656,-1.43586071949,0.0747776243961,1.92350420168,0.148518796243,-0.0179398633628,-0.0943646387787,0.00117332813322,-0.154153549196,-0.00571734403122,0.0511006086161,-0.0219522098529,0.573761388126,0.819007460593,0.00232290556753,0.0,0.818966371754,-0.57369846143,-0.0120376156441,0.0,-0.00852641382997,0.00880927021198,-0.999924845689,0.0,0.652053285183,0.248750927161,0.303505167571,1.0,-0.0196,-0.02576,0.981
0.457878917326,0.495104994225,-0.123978645559,-1.43857036436,0.0745964287116,1.92444117486,0.148127898231,-0.0146185932875,-0.096550869568,0.00118654639991,-0.158080287844,-0.0127240632574,0.061796577209,-0.0276893572215,0.573748109562,0.819016997197,0.0022387445844,0.0,0.818974741098,-0.573685467504,-0.0120873784825,0.0,-0.00861559907221,0.00876875464601,-0.999924437342,0.0,0.651704573391,0.248311521164,0.303467378216,1.0,-0.01994,-0.0262068571429,0.998
0.457613081419,0.493407863485,-0.124013238369,-1.44126296118,0.0744390640911,1.92541416246,0.147741914407,-0.0179812141486,-0.116681344004,-0.00288353586178,-0.180204358898,-0.0105967669875,0.0708312012906,-0.021554494754,0.57376756489,0.819003427757,0.00221668751755,0.0,0.818960867956,-0.573704998458,-0.0121003471535,0.0,-0.00863866740805,0.00875833567906,-0.999924329628,0.0,0.651372316174,0.247861840485,0.303452982268,1.0,-0.0242588571429,-0.0318830693878,1.014
0.457314159465,0.491150204873,-0.124055760314,-1.44478475129,0.0742308809917,1.92673545567,0.147229739434,-0.0178699026789,-0.14107054519,0.000965030910942,-0.229780555618,-0.0177734287306,0.0751531021014,-0.0366232308812,0.573743957563,0.81901984809,0.00225975571126,0.0,0.818977926658,-0.573681288612,-0.0120698651081,0.0,-0.00858924488853,0.00877587118428,-0.999924601636,0.0,0.65093400513,0.247310547534,0.303463561377,1.0,-0.0298542857143,-0.0392370612245,1.031
0.456897597891,0.488487129345,-0.124078795847,-1.4491049,0.0739919539606,1.92828166219,0.146607707099,-0.0251006131535,-0.16435650825,-0.00636802682077,-0.269505258787,-0.0177834751164,0.099330869211,-0.0391974550774,0.573743282192,0.819020549631,0.00217539031865,0.0,0.818977167936,-0.573680612315,-0.0121532035069,0.0,-0.00870591178173,0.00875458242435,-0.999923779289,0.0,0.650380553438,0.246615489041,0.30339391922,1.0,-0.0354497142857,-0.0465910530612,1.048
0.456429918832,0.485452471594,-0.12412945669,-1.45378803291,0.0737072430745,1.93007270003,0.14591569962,-0.0336786819332,-0.193249934969,-0.00351011100677,-0.298378452203,-0.0177806915603,0.125020844964,-0.0476560759917,0.573751399505,0.819014561345,0.0022862135401,0.0,0.818972832602,-0.573688461708,-0.0120745709689,0.0,-0.00857784026654,0.00880031820406,-0.999924484677,0.0,0.649814922106,0.245842282735,0.303429573196,1.0,-0.040716,-0.0535124571429,1.064
0.455816920758,0.48157171368,-0.124203711343,-1.45984890581,0.0733353729058,1.93217924035,0.144982126386,-0.0352055867723,-0.229557443783,-0.00509061606626,-0.356206522576,-0.0211874927898,0.120765992513,-0.0515777930869,0.573738853493,0.81902354221,0.0022163481272,0.0,0.818980837164,-0.573676149517,-0.0121165479482,0.0,-0.00865243854653,0.00876704976563,-0.999924134195,0.0,0.649037517192,0.244817153614,0.303422198,1.0,-0.0466405714286,-0.0612990367347,1.082
0.455142135355,0.477373917851,-0.124284524125,-1.46634989796,0.0729448959622,1.93450038445,0.144026175669,-0.0397304139266,-0.257492117533,-0.00509603409543,-0.396769468681,-0.0204222541925,0.138422556958,-0.0559374865932,0.573777669281,0.818996322605,0.0022263638035,0.0,0.81895371836,-0.573714886778,-0.012115394148,0.0,-0.00864533164609,0.0087750004779,-0.999924125925,0.0,0.648213741997,0.243712381534,0.303440082597,1.0,-0.052236,-0.0686530285714,1.099
0.454524561556,0.47360835632,-0.12432792437,-1.47217091514,0.0725884316244,1.93662092426,0.143184786085,-0.0470539178231,-0.270735578488,-0.000439902569761,-0.436887115085,-0.0270731429779,0.154847884846,-0.0516002106514,0.573810058077,0.818973487897,0.00227821718825,0.0,0.818931528809,-0.573747017368,-0.0120937208447,0.0,-0.00859748195335,0.00880537207592,-0.999924271496,0.0,0.64747556528,0.242734107595,0.303460077778,1.0,-0.056844,-0.0747092571429,1.113
0.453529373015,0.46765581506,-0.124382633672,-1.48122552283,0.0720405963598,1.93994798193,0.141772834102,-0.0535573871197,-0.314431299091,-0.00066981917041,-0.470318964345,-0.0246319908663,0.183991949028,-0.0727255335026,0.573792155651,0.818985463474,0.00247378929925,0.0,0.818945958763,-0.573728205027,-0.0120087585924,0.0,-0.00841587805901,0.00891660290112,-0.999924830769,0.0,0.646328808552,0.241203344675,0.303552059213,1.0,-0.0634268571429,-0.0833610122449,1.133
0.452655910646,0.46246859093,-0.124409773122,-1.48919086055,0.0715193597229,1.94276918717,0.140527234183,-0.0592240512503,-0.334020092681,0.000778810025187,-0.511496841311,-0.0302677481193,0.176215413602,-0.0760732275539,0.573739242464,0.819022446631,0.00250209376386,0.0,0.818983245402,-0.573675114843,-0.0120022190654,0.0,-0.00839485952364,0.00893548898132,-0.999924838861,0.0,0.645282339735,0.239858577321,0.303582455252,1.0,-0.0686931428571,-0.0902824163265,1.149
0.45167974791,0.456913509303,-0.124464243537,-1.49782174823,0.0709447278095,1.94570014502,0.139246067454,-0.060918080898,-0.35515534363,-0.00179062630811,-0.551502110841,-0.0353086042836,0.183354220282,-0.0903160443951,0.573771724292,0.81900010084,0.00236434541029,0.0,0.818958945968,-0.573707994662,-0.0120883655223,0.0,-0.00854409321802,0.0088724349766,-0.999924136307,0.0,0.644121782644,0.238359092644,0.303553184263,1.0,-0.0739594285714,-0.0972038204082,1.165
0.450572794578,0.450520947061,-0.124542069172,-1.50742496972,0.0702804232519,1.94923269335,0.13768486061,-0.0684526876587,-0.393828847719,-0.0016926639553,-0.569412776928,-0.0478923516062,0.221143688722,-0.0924005692236,0.57371369319,0.819040044465,0.00259821297274,0.0,0.819002589292,-0.573649721235,-0.0118955016832,0.0,-0.00825258696791,0.00895272772299,-0.99992586899,0.0,0.642884914872,0.236685990828,0.303680406307,1.0,-0.0795548571429,-0.104557812245,1.182
0.449287159731,0.443381104966,-0.124575507229,-1.51827501511,0.0695754561607,1.95310132896,0.136054640441,-0.072565863461,-0.406107965935,0.000322543380655,-0.61644222024,-0.0363226419607,0.211035275005,-0.093075332228,0.573751169449,0.819013365466,0.00272940384492,0.0,0.818977465186,-0.573686528791,-0.0118501097938,0.0,-0.00813973280101,0.00903450853698,-0.999926058469,0.0,0.641434875383,0.234807035835,0.303743996353,1.0,-0.0854794285714,-0.112344391837,1.2
0.448141372022,0.437144433692,-0.12460497377,-1.52801577074,0.068889970295,1.95636266575,0.1344811075,-0.0714885951574,-0.425297199226,-0.00132040753921,-0.650323218714,-0.0473921620576,0.221123856973,-0.113371184748,0.573662524503,0.819076185933,0.00250130337081,0.0,0.819037103722,-0.573598547776,-0.0119864764128,0.0,-0.00838325480557,0.00892502442161,-0.999925029679,0.0,0.64006855977,0.233105552421,0.303654759382,1.0,-0.0904165714286,-0.118833208163,1.215
0.446637701714,0.429148111009,-0.124633356119,-1.54003877818,0.0680857556621,1.96071095591,0.132527698282,-0.0861600181172,-0.440677869326,-0.00166318390327,-0.690857039254,-0.0480992137234,0.242499458373,-0.111860042731,0.573615709987,0.819108127537,0.00276397554557,0.0,0.819072520895,-0.573550784713,-0.0118511506426,0.0,-0.00812224984741,0.00906207708089,-0.999925951167,0.0,0.638448602984,0.230988277449,0.30376139664,1.0,-0.0963411428571,-0.126619787755,1.233
0.445075639376,0.421268947963,-0.124701269443,-1.55214447317,0.0671923040629,1.96477368938,0.130511106396,-0.0896319812563,-0.466816113813,-0.00843576463103,-0.733332187325,-0.0498323838457,0.235330430652,-0.120238077664,0.573557064074,0.819149805586,0.00257626874235,0.0,0.819111939302,-0.573493061671,-0.0119199836183,0.0,-0.00828693956409,0.00894721555528,-0.999925634218,0.0,0.636746777391,0.228773355962,0.303710741188,1.0,-0.101936571429,-0.133973779592,1.25
0.443505146302,0.413411638172,-0.124818219412,-1.56388762188,0.0663544729326,1.96893855693,0.128618616967,-0.0967055522432,-0.494495953237,-0.00751011983663,-0.740318068495,-0.0431369158455,0.261519550602,-0.128577651405,0.573635096881,0.819094544594,0.00276578087713,0.0,0.819059743876,-0.573571037226,-0.0117536427476,0.0,-0.00804112766389,0.00900781520144,-0.999927097108,0.0,0.635143322759,0.226586320513,0.30381183217,1.0,-0.107202857143,-0.140895183673,1.266
0.441570058091,0.404306649873,-0.124877588382,-1.57784825771,0.0654212706457,1.97358065273,0.126296674722,-0.11428259604,-0.514858714021,-0.00894499091097,-0.786859712393,-0.0546715097377,0.251454964704,-0.123355341863,0.573670064573,0.819070609618,0.00259622309404,0.0,0.819032753409,-0.573605699506,-0.0119414085697,0.0,-0.00829180807594,0.00897699320937,-0.999925326968,0.0,0.633131290673,0.22398571881,0.30372562891,1.0,-0.113127428571,-0.148681763265,1.284
0.439607505831,0.395196987325,-0.125006548223,-1.59129036272,0.0644627294545,1.97827427515,0.12398271432,-0.119056852472,-0.544933348258,-0.00600451600906,-0.809836707834,-0.0662540490675,0.280145254962,-0.124414131948,0.573742116372,0.819019244733,0.00286488389621,0.0,0.818985350931,-0.573677260133,-0.0117534278928,0.0,-0.0079829185875,0.00908990954587,-0.9999268206,0.0,0.631254603705,0.221394047418,0.303872948619,1.0,-0.118722857143,-0.156035755102,1.301
0.43778984409,0.38701372471,-0.125059864029,-1.60377501217,0.0634990981635,1.98243794817,0.121832155654,-0.125125390119,-0.556880793881,-0.00133415277491,-0.85876963647,-0.0649916649603,0.269000646676,-0.143694455747,0.573716067682,0.819038071577,0.00269404741276,0.0,0.819002160893,-0.573652060472,-0.0118118952787,0.0,-0.00812910259185,0.00898327771972,-0.999926606513,0.0,0.629423337969,0.219011340971,0.303788375654,1.0,-0.12366,-0.162524571429,1.316
0.435470640493,0.376703371543,-0.125132096877,-1.61901313329,0.0623700082952,1.98753089133,0.119085945197,-0.130958707106,-0.575243835259,-0.00466804025983,-0.838916847781,-0.060464825035,0.285552017546,-0.160112899813,0.573670664953,0.819069503594,0.00280416764225,0.0,0.819035042021,-0.57360628423,-0.0117548940763,0.0,-0.0080197414791,0.00904032351813,-0.999926975482,0.0,0.627181412549,0.216058753372,0.303876659041,1.0,-0.129584571429,-0.17031115102,1.334
0.433092600678,0.366737377848,-0.12521939399,-1.63397549077,0.061233743606,1.99244142552,0.116454261186,-0.144752023719,-0.59544481482,-0.00680446606074,-0.882921888258,-0.0669129670982,0.284503870974,-0.154056444792,0.573746663894,0.81901665153,0.0026901835448,0.0,0.818980666845,-0.573682640719,-0.0118170204593,0.0,-0.00813518155514,0.00898335733664,-0.999926556359,0.0,0.624942153203,0.213088279435,0.303826256749,1.0,-0.13518,-0.177665142857,1.351
0.430748533448,0.35695986469,-0.125335547924,-1.64836668958,0.0600832154806,1.9971829573,0.113786521668,-0.151492128541,-0.607660238424,-0.00645275940837,-0.903223389772,-0.0737342993623,0.287178335112,-0.183240843325,0.573742033874,0.819019766352,0.00272906431231,0.0,0.818984869943,-0.573678517323,-0.0117255476827,0.0,-0.00803800451154,0.00896267451588,-0.999927527848,0.0,0.622778934231,0.21018453621,0.303882021911,1.0,-0.140446285714,-0.184586546939,1.367
0.428227893778,0.346956116179,-0.125428488203,-1.66322316101,0.0590074379488,2.00194307977,0.1109755179,-0.154811324892,-0.648481599965,-0.0100534898257,-0.909973903299,-0.0679162437901,0.309559457217,-0.186606169125,0.573772799426,0.818998442535,0.00265944829386,0.0,0.818961860791,-0.573708670323,-0.0118566043476,0.0,-0.00818494953561,0.00898115670673,-0.999926169987,0.0,0.620486186763,0.207162006256,0.303843418072,1.0,-0.145712571429,-0.19150795102,1.383
0.425271552097,0.335346186757,-0.125516041265,-1.68023168358,0.057660629087,2.007494444,0.107770294321,-0.168863833959,-0.652583415812,-0.00103843662837,-0.966043396059,-0.0789485299407,0.31386588573,-0.182465180388,0.57380031615,0.818978902036,0.00273899750915,0.0,0.818943522432,-0.573736073904,-0.0117970958116,0.0,-0.00809026666041,0.00901243509175,-0.99992665911,0.0,0.617851047422,0.203678608965,0.303877740581,1.0,-0.151637142857,-0.199294530612,1.401
0.422554179327,0.324670971604,-0.125527995876,-1.69570705012,0.0563629281723,2.01242421986,0.104733448649,-0.169360761145,-0.675180266024,-0.0004556888269,-0.982606968904,-0.0850832858515,0.307685684147,-0.195947885432,0.573649150693,0.819084619246,0.00279021949866,0.0,0.819050165268,-0.573585035012,-0.0117380273638,0.0,-0.00801416382262,0.00901901281349,-0.999927212644,0.0,0.615380224656,0.200534247261,0.303938617216,1.0,-0.156903428571,-0.206215934694,1.417
0.419270551324,0.312455193184,-0.125577120101,-1.71352543523,0.0549578359471,2.01796978829,0.101214106802,-0.184508466022,-0.686396327695,-0.000307569233956,-0.98745496705,-0.0675420001891,0.307361535806,-0.207527959741,0.573616494925,0.819107679499,0.00273368550672,0.0,0.819071778463,-0.573551793328,-0.011853649098,0.0,-0.00814166153367,0.00903870732052,-0.999926004821,0.0,0.612485424147,0.196825182225,0.303913261731,1.0,-0.162828,-0.214002514286,1.435
0.415987872545,0.300555070985,-0.125666961812,-1.73064830079,0.0534731902576,2.02333543784,0.0976562630992,-0.202144106142,-0.690982322389,-0.00727361094473,-1.03044700728,-0.0825234965194,0.299612422935,-0.214751351778,0.573504630431,0.819185877161,0.00277208139122,0.0,0.819151043378,-0.573440436415,-0.011763541945,0.0,-0.0080470587948,0.00901737275204,-0.99992696325,0.0,0.609697403185,0.193166738771,0.303958610548,1.0,-0.168423428571,-0.221356506122,1.452
0.412694722468,0.289016552078,-0.125767823102,-1.74703296459,0.0521777796656,2.02837745096,0.0943030540594,-0.203375692824,-0.721195421996,-0.00487279545038,-1.02481165381,-0.0804161912255,0.325563394058,-0.215067513496,0.573596904404,0.819120679277,0.00294124810413,0.0,0.819087493428,-0.573531472629,-0.0117505282724,0.0,-0.00793835518172,0.00914938233325,-0.999926632969,0.0,0.606989347976,0.189603390435,0.304055245391,1.0,-0.173689714286,-0.228277910204,1.468
0.409030594971,0.276692150139,-0.125895613623,-1.76485258087,0.0506274033474,2.03362749919,0.0904845733217,-0.220040577364,-0.733144276007,-0.002981592147,-1.04919248672,-0.0957223755455,0.29594350081,-0.223141421765,0.573560003092,0.819147412508,0.00268073421429,0.0,0.819110559029,-0.573495218592,-0.0119110553778,0.0,-0.00821968019311,0.00902769647135,-0.999925465999,0.0,0.603956428088,0.185659693928,0.303958775195,1.0,-0.179285142857,-0.235631902041,1.485
0.405094900893,0.263916130756,-0.126054616823,-1.78280316428,0.0490323443059,2.03910713498,0.0865491865097,-0.244807871942,-0.743294940759,-0.0125708213097,-1.0654579236,-0.0869807359658,0.317463725268,-0.228319255761,0.573634436045,0.819094687187,0.002859039319,0.0,0.81906080419,-0.573569713335,-0.0117443555272,0.0,-0.00798003449453,0.00907886859973,-0.999926943929,0.0,0.600939122438,0.18156314283,0.30406305779,1.0,-0.184880571429,-0.242985893878,1.502
0.401175045801,0.251683781215,-0.126232630075,-1.79998300886,0.0475270847379,2.04415409272,0.0827485890251,-0.24814009805,-0.785607780468,-0.00713130861,-1.07790129226,-0.0919416552675,0.315537890003,-0.236134055114,0.573804180555,0.818975641779,0.00289956044168,0.0,0.818942258088,-0.573739262388,-0.011729604135,0.0,-0.00794282132912,0.00910524376864,-0.999927000398,0.0,0.597982788813,0.177559854059,0.304107774397,1.0,-0.190146857143,-0.249907297959,1.518
0.396872512235,0.238554213646,-0.126339317473,-1.81857612798,0.0458572921698,2.04946566924,0.078437368266,-0.255060058141,-0.789103402089,-0.00591268456318,-1.07492599805,-0.0891080912447,0.308961207879,-0.254274624145,0.573761842254,0.819005866039,0.00273617754142,0.0,0.818969848867,-0.573696947241,-0.0118720795975,0.0,-0.00815372311425,0.00905276746264,-0.999925779346,0.0,0.594680661196,0.173263826985,0.304028464047,1.0,-0.195742285714,-0.257261289796,1.535
0.392148190247,0.224303173676,-0.126428972908,-1.83841626383,0.0440342019375,2.05521506926,0.0737593864575,-0.266278547401,-0.767415393085,-0.00432357116864,-1.11713055305,-0.111898002769,0.305270327981,-0.264592849294,0.573693060464,0.819053768917,0.00281831498216,0.0,0.819018807521,-0.573627855124,-0.0118331590457,0.0,-0.00807548501441,0.0090970293498,-0.999926012562,0.0,0.591125348158,0.168659982603,0.304045792884,1.0,-0.201666857143,-0.265047869388,1.553
0.387960146187,0.212084002878,-0.126544722142,-1.85508408567,0.042459957387,2.05992527397,0.0696972037802,-0.28055471439,-0.803367071088,-0.00589241945419,-1.11204545927,-0.103893625903,0.311934938328,-0.267586302956,0.573693472781,0.819052891612,0.00298444845649,0.0,0.819020355754,-0.573627980742,-0.011719363109,0.0,-0.00788696694909,0.00916782266633,-0.999926870716,0.0,0.588105158963,0.164667148934,0.304156924796,1.0,-0.206604,-0.271536685714,1.568
0.38326733232,0.199022282966,-0.126689269867,-1.87311888709,0.0407251429913,2.06478864521,0.0651731619328,-0.297161851145,-0.820734205109,-0.0109746288752,-1.10757913826,-0.110729259388,0.320054138145,-0.284175353116,0.573694455598,0.81905270184,0.00284431454646,0.0,0.819018063545,-0.573629137951,-0.0118224609025,0.0,-0.00805179186517,0.00911220070133,-0.99992606549,0.0,0.584752507857,0.160264103059,0.304113990464,1.0,-0.211870285714,-0.278458089796,1.584
0.377340545889,0.183183399616,-0.12691542356,-1.8947676496,0.0386770388662,2.07061342907,0.0595778033517,-0.320007156402,-0.824578125768,-0.0113616300448,-1.14433992661,-0.110057462923,0.287654936657,-0.308063868647,0.573817538179,0.81896652547,0.00283018369711,0.0,0.818931148237,-0.573751629848,-0.0118991005797,0.0,-0.00812129890918,0.00914581427126,-0.999925196495,0.0,0.580695180305,0.15484262516,0.304094326505,1.0,-0.218124,-0.286677257143,1.603
0.372099313336,0.169565186235,-0.127057338806,-1.91307756845,0.0368348322914,2.07548795207,0.0547175225053,-0.330615345382,-0.842143959919,-0.0101590640576,-1.15407021212,-0.118720018148,0.290488578161,-0.31119289501,0.573886259023,0.818918058803,0.00291917303453,0.0,0.818884101919,-0.573820311126,-0.011824764934,0.0,-0.00800858695676,0.00917671118065,-0.999925822502,0.0,0.577213901276,0.150191781095,0.304148611852,1.0,-0.223390285714,-0.293598661224,1.619
0.366426897297,0.154824679551,-0.127176439518,-1.93266451853,0.0348516804476,2.08056798013,0.0492714696372,-0.341915960844,-0.881173916005,-3.84082183817e-05,-1.15768887137,-0.120132072413,0.310952496005,-0.325042524462,0.573744011601,0.819017186376,0.00306667146325,0.0,0.818985194546,-0.573677615955,-0.0117469556964,0.0,-0.00786182919361,0.00925148213001,-0.999926298144,0.0,0.573394766232,0.145248642639,0.304237322277,1.0,-0.228985714286,-0.300952653061,1.636
0.360416312421,0.139957107724,-0.127324591561,-1.95251103429,0.0327919519025,2.0854736,0.0437014507862,-0.360809211448,-0.895657150762,-0.00782904101469,-1.15505765211,-0.119298005766,0.29509915433,-0.332411578742,0.573745808318,0.81901615315,0.00300586393397,0.0,0.818983001144,-0.573679194517,-0.0118225427527,0.0,-0.00795860511314,0.00924506380984,-0.999925591932,0.0,0.56921306378,0.139815089527,0.304221142141,1.0,-0.234910285714,-0.308739232653,1.654
0.354454550961,0.125756424721,-0.12750071815,-1.9712968167,0.0308025232056,2.09006597426,0.0381427077804,-0.383200804567,-0.862568790424,-0.0103760855732,-1.18907222535,-0.131045717803,0.280767480242,-0.350281650102,0.573695858668,0.819051457409,0.00291869225733,0.0,0.819016999479,-0.573629371967,-0.0118846574126,0.0,-0.00806005354903,0.00920881461249,-0.999925113831,0.0,0.565647623972,0.135143134635,0.304181019822,1.0,-0.239847428571,-0.31522804898,1.669
0.347316847806,0.109394462115,-0.127748592908,-1.99242573709,0.0284757923116,2.09516259932,0.0317261239016,-0.396694499412,-0.890240066837,-0.00847971217031,-1.18922741322,-0.13522077542,0.278722407619,-0.362910249611,0.573831184999,0.818955982908,0.00310098098196,0.0,0.818924638028,-0.573764897963,-0.0117058103958,0.0,-0.00780745973948,0.00925680700117,-0.99992667486,0.0,0.561359010106,0.129341469207,0.30430355925,1.0,-0.245772,-0.323014628571,1.687
0.340855041106,0.0946812119552,-0.127847540392,-2.01130704994,0.0264075459049,2.09955804648,0.0257407030676,-0.3967428364,-0.904654407959,-0.00649132293733,-1.1897911297,-0.127150091109,0.271470307883,-0.381220631099,0.573663115046,0.819073164117,0.00324486658263,0.0,0.819043634099,-0.57359630985,-0.0116424082406,0.0,-0.00767488842323,0.00933668725612,-0.999926958512,0.0,0.557155285486,0.123928620508,0.304377333345,1.0,-0.251367428571,-0.330368620408,1.704
0.334056576778,0.0798814521075,-0.128029613672,-2.03032703842,0.0243713159422,2.10370812255,0.0194902301331,-0.434860330649,-0.942498713546,-0.0125161593713,-1.16431650912,-0.129593472493,0.267523560221,-0.385840787427,0.57363675366,0.819091724118,0.00322012934049,0.0,0.819060812104,-0.573568751809,-0.0117906711064,0.0,-0.00781082594116,0.00940122505235,-0.999925301193,0.0,0.553334961362,0.118977031718,0.304363693446,1.0,-0.256304571429,-0.336857436735,1.719
0.325547200299,0.0620955608046,-0.128259777386,-2.0530311974,0.0217401293239,2.10857239313,0.011828467009,-0.458110566605,-0.940225214455,-0.0197215160311,-1.19241142878,-0.134282850112,0.237668461684,-0.409671459509,0.573620705875,0.819103363387,0.00311653331731,0.0,0.819070891518,-0.57355282083,-0.0118652133288,0.0,-0.00793149237537,0.00935897395692,-0.999924747686,0.0,0.548404927389,0.11253339623,0.304312835293,1.0,-0.25998,-0.341688,1.738
0.317568525395,0.0461483720734,-0.128482296248,-2.07301445678,0.0193861434566,2.11274996461,0.00477079164854,-0.469513813193,-0.911528128648,-0.0122240228909,-1.18216839225,-0.137453123726,0.231450301624,-0.41769690082,0.573706023604,0.819043356219,0.00318214005108,0.0,0.819011871835,-0.573638051352,-0.0118189143059,0.0,-0.00785495785419,0.00938697353774,-0.999925089377,0.0,0.544011753592,0.106674460523,0.304341672475,1.0,-0.25998,-0.341688,1.755
0.310435882141,0.0321038090704,-0.128617606978,-2.09033127109,0.0173757457922,2.1161598412,-0.00154522851351,-0.473320722976,-0.934079117265,-0.0154064401807,-1.15392227094,-0.143654351621,0.221667567665,-0.418561727206,0.573726471714,0.819028558946,0.00330184594721,0.0,0.818998198101,-0.573657553075,-0.0118199073362,0.0,-0.00778686272699,0.00948578224387,-0.999924689516,0.0,0.540107721566,0.101586364117,0.30440892539,1.0,-0.25998,-0.341688,1.77
0.302084114927,0.0163786075004,-0.128799583843,-2.10961843469,0.0149867784683,2.11982235315,-0.00891789475107,-0.496955022231,-0.932771571571,-0.0119254035796,-1.10998912622,-0.136786041152,0.223090808668,-0.428760927567,0.573730725531,0.8190254654,0.00332994131777,0.0,0.818995657852,-0.573661938573,-0.0117830197265,0.0,-0.00774048165188,0.00948767060383,-0.999925031715,0.0,0.535697156994,0.0957488338199,0.304445826633,1.0,-0.25998,-0.341688,1.787
0.293444302606,0.000763773963727,-0.129031272151,-2.12860258874,0.012645018626,2.12318003372,-0.0164437330711,-0.50824314253,-0.92164629092,-0.00564711140688,-1.11540913551,-0.131871777266,0.186909265662,-0.446870000264,0.573842022371,0.818947626365,0.00329629094497,0.0,0.818916794212,-0.573772621859,-0.0118747405451,0.0,-0.00783361990669,0.00951379631306,-0.999924058156,0.0,0.530996046962,0.0895046784986,0.304450825309,1.0,-0.25998,-0.341688,1.805
0.284780856274,-0.0147066561469,-0.129133467336,-2.14707559245,0.0103226081027,2.12650272418,-0.0241339202232,-0.514705292574,-0.884082911208,-0.00841634750239,-1.09339825239,-0.147232009543,0.178640357437,-0.453942352018,0.573751431121,0.819010074964,0.00354108683473,0.0,0.818982972332,-0.573681887924,-0.0116931346922,0.0,-0.00754548301407,0.00960922759252,-0.99992536143,0.0,0.526894655439,0.0841230555848,0.304552412697,1.0,-0.25998,-0.341688,1.821
0.276371643127,-0.0291870776504,-0.129294262247,-2.16418265954,0.00807315506563,2.12925325134,-0.0315143181356,-0.53489684931,-0.898401702915,-0.0155780937475,-1.05863788511,-0.136869604048,0.180188134868,-0.462605370414,0.573739354873,0.819018252624,0.00360575093803,0.0,0.818992274204,-0.573669972584,-0.0116260161263,0.0,-0.00745355187492,0.00962357043652,-0.999925912984,0.0,0.522490744018,0.0783088740287,0.304627778602,1.0,-0.25998,-0.341688,1.838
0.266589754783,-0.0452099762438,-0.129526064133,-2.1832657579,0.00562641163366,2.13211153648,-0.0400049634391,-0.54478250278,-0.908369691733,-0.00627218374247,-1.05038063476,-0.121945640874,0.14728002591,-0.484752544976,0.573850448481,0.818941002198,0.00347053300105,0.0,0.818912104202,-0.573780020391,-0.011840637374,0.0,-0.00770560929847,0.00963700209211,-0.99992387299,0.0,0.518019556581,0.0724320648557,0.304541654475,1.0,-0.25998,-0.341688,1.855
0.257829398669,-0.0594081721967,-0.129646258563,-2.19964757743,0.00341696483998,2.13460868172,-0.0476968673792,-0.552977682749,-0.879000284637,-0.00794832397302,-1.02274737029,-0.135705341774,0.147054302141,-0.484926740017,0.573779639273,0.818989717129,0.00367636971543,0.0,0.818964285991,-0.573709550877,-0.0116445869339,0.0,-0.00742777154843,0.00969242899877,-0.999925439735,0.0,0.513926885981,0.0670283213923,0.304638749248,1.0,-0.25998,-0.341688,1.871
0.247680947117,-0.0752460721004,-0.129856607931,-2.21787651541,0.00093137692898,2.13702173645,-0.0565801858271,-0.575540798957,-0.878212690117,-0.0124303322029,-0.996288302753,-0.139592187214,0.129066464639,-0.496745468871,0.573762370713,0.81900183415,0.0036721267316,0.0,0.818976227812,-0.573692141546,-0.0116624143661,0.0,-0.00744501184736,0.00969902574995,-0.999925247555,0.0,0.509503543779,0.0612097059399,0.304652842057,1.0,-0.25998,-0.341688,1.888
0.238422424662,-0.0891201062522,-0.130018527218,-2.23395411146,-0.00122517984908,2.13893947075,-0.0646798034214,-0.57352195914,-0.867386067665,-0.00057411037372,-1.00364872346,-0.138047792287,0.11805806086,-0.506468223435,0.573779491426,0.818990513487,0.0035186558764,0.0,0.818961449915,-0.573707910666,-0.0119215642124,0.0,-0.00774511640219,0.00972217975119,-0.999922743212,0.0,0.505006829496,0.0553909691408,0.304547677247,1.0,-0.25998,-0.341688,1.905
0.228469267303,-0.103837113341,-0.130187197602,-2.25042243744,-0.00358975968818,2.14086313419,-0.0734487671975,-0.596663974689,-0.853215243562,-0.0148450087428,-0.967240231615,-0.140889296839,0.109147307985,-0.520841238706,0.573680504866,0.81905942847,0.00361633420007,0.0,0.819032241145,-0.573609364279,-0.0117996643185,0.0,-0.00759040929024,0.00973131904615,-0.999923840658,0.0,0.50062464663,0.049628109574,0.304618285085,1.0,-0.25998,-0.341688,1.922
0.218142156697,-0.11838649774,-0.130448737475,-2.2666869877,-0.00592248048219,2.14251110883,-0.0823477019005,-0.617391110234,-0.880633058252,-0.0212910319283,-0.936529745848,-0.142549077882,0.0937634661047,-0.5333672543,0.573843016915,0.818945748848,0.00357760858547,0.0,0.818917646247,-0.573771461467,-0.0118720500611,0.0,-0.00766998289193,0.00974264740216,-0.999923123137,0.0,0.496194369242,0.0437453388298,0.304605277177,1.0,-0.25998,-0.341688,1.939
0.207716788278,-0.132852025765,-0.130582113341,-2.28266286967,-0.00814617282453,2.14395420517,-0.0915523883465,-0.611511979161,-0.84016199371,-0.0118117463278,-0.937931501764,-0.133650319321,0.0773513333957,-0.548813198379,0.573754081506,0.819007952764,0.00360196694625,0.0,0.81897919183,-0.573681213329,-0.0119873151521,0.0,-0.00775147491366,0.0098278961909,-0.999921660478,0.0,0.491739020617,0.0380052011953,0.304598167079,1.0,-0.25998,-0.341688,1.956
0.197615370445,-0.146354431352,-0.130783960077,-2.29726772151,-0.0103199045726,2.14528080143,-0.100404113748,-0.63546789329,-0.842307529913,-0.0135963756435,-0.900891656935,-0.131396023065,0.0842478827327,-0.555445731241,0.573758869584,0.819003890787,0.00375943491258,0.0,0.81897790231,-0.573686372136,-0.0118274618899,0.0,-0.00753014570835,0.00986519521818,-0.999922984449,0.0,0.487632101729,0.0325225984053,0.304668022758,1.0,-0.25998,-0.341688,1.972
0.187923626082,-0.158851371656,-0.131020749908,-2.31085822848,-0.0124184420238,2.14619880047,-0.108843790272,-0.641967289668,-0.81300091182,-0.00789850812102,-0.906922217587,-0.14531290753,0.053426932242,-0.554257316637,0.573819567433,0.818961991381,0.00362044284177,0.0,0.818933807562,-0.573747049871,-0.0119368545878,0.0,-0.00769876002937,0.00981469274082,-0.999922197424,0.0,0.483691130517,0.0273319338911,0.304620215986,1.0,-0.25998,-0.341688,1.987
0.175605488665,-0.174520368035,-0.131199968775,-2.32749658335,-0.0147972411733,2.1472468398,-0.119811271758,-0.655339322638,-0.79746283711,-0.0147423609157,-0.864651251568,-0.131942874422,0.0570253175824,-0.581301852495,0.573711718745,0.81903676254,0.00379371636219,0.0,0.819010110851,-0.573637655268,-0.0119593345958,0.0,-0.00761906282129,0.00996849438874,-0.999921286403,0.0,0.478785111387,0.0209617270702,0.304664097215,1.0,-0.25998,-0.341688,2.006
0.164774484445,-0.18756860939,-0.131475765508,-2.34131103249,-0.0169797791793,2.14787467951,-0.129226898113,-0.685578303838,-0.787436584891,-0.0212900775589,-0.830749380619,-0.13899624205,0.0367525954278,-0.60601324523,0.573847266851,0.818942203825,0.00370513466697,0.0,0.818913996421,-0.573772989901,-0.0120486276327,0.0,-0.00774137251611,0.00994845021222,-0.999920546589,0.0,0.474605858172,0.0154063984208,0.30463631545,1.0,-0.25998,-0.341688,2.022
0.152549293774,-0.202171843403,-0.131635292815,-2.35643671306,-0.0192973903473,2.14854983469,-0.140149752805,-0.688408422293,-0.787036034559,-0.0175683921837,-0.865860456586,-0.120505895636,0.0306253967671,-0.596925658923,0.57368556219,0.81905476158,0.00386266343217,0.0,0.81902889365,-0.573611103753,-0.0119465442162,0.0,-0.00756935302345,0.010017385758,-0.999921175332,0.0,0.469960655832,0.00934816212335,0.304691461334,1.0,-0.25998,-0.341688,2.04
0.14058492258,-0.215823888619,-0.131945337066,-2.37044905414,-0.0214541549598,2.14887593303,-0.150661494014,-0.711152315293,-0.830664692657,-0.0248740969531,-0.806450216363,-0.129754087025,0.0280466110102,-0.617255710948,0.573838610851,0.818947174387,0.00393969042306,0.0,0.818921569581,-0.573762864145,-0.0120160519106,0.0,-0.00758020964102,0.0101217668766,-0.999920041932,0.0,0.465529024461,0.00347879211855,0.304710591366,1.0,-0.25998,-0.341688,2.057
0.129238203423,-0.228459546548,-0.132089689777,-2.38337836405,-0.0235933680994,2.14910660157,-0.160723486344,-0.704560003133,-0.775553678504,-0.00956135286294,-0.832932665191,-0.128022130768,0.011638814788,-0.640202195083,0.573733440145,0.819021132101,0.00388223301445,0.0,0.818994967969,-0.573658173757,-0.0120120366715,0.0,-0.00761118371124,0.0100714303323,-0.999920314912,0.0,0.461359947487,-0.00192790395608,0.304688468035,1.0,-0.25998,-0.341688,2.073
0.116867785304,-0.241803791452,-0.132367115482,-2.39670477166,-0.0257771567792,2.14920313448,-0.171749757899,-0.742372930905,-0.780163057626,-0.0251694179494,-0.746016136312,-0.123225550997,0.0147119679234,-0.648298638062,0.573732156487,0.819021455985,0.00400176833591,0.0,0.818997249584,-0.57365699564,-0.0119123225847,0.0,-0.00746094903302,0.0101121144754,-0.999921036573,0.0,0.456969772839,-0.0077520264166,0.304743212681,1.0,-0.25998,-0.341688,2.09
0.104216802979,-0.254940169508,-0.132585872924,-2.40977582328,-0.0278687941276,2.14917144294,-0.182985700055,-0.73722006137,-0.77461205094,-0.00512961134995,-0.772621643778,-0.120730878743,-0.00639828781322,-0.669941515556,0.573770179054,0.818994287686,0.00410916856752,0.0,0.818971313702,-0.573694409599,-0.0118936381989,0.0,-0.00738355686577,0.0101897022823,-0.999920823393,0.0,0.45256131511,-0.0135523008974,0.304752666691,1.0,-0.25998,-0.341688,2.107
0.0921623597091,-0.267154989484,-0.132846337421,-2.42173698748,-0.0298680753759,2.14901148006,-0.193795691911,-0.770871019283,-0.755418120013,-0.0189337835974,-0.737876922967,-0.120647706344,-0.000263403648595,-0.67621289395,0.573754548341,0.819004670041,0.00422085427243,0.0,0.818983501257,-0.573678892523,-0.0118025354214,0.0,-0.00724505611374,0.0102287653258,-0.999921437675,0.0,0.448431277712,-0.0190038257643,0.304786600467,1.0,-0.25998,-0.341688,2.123
0.0790400618064,-0.279922009748,-0.133110468167,-2.43413525916,-0.0320005624277,2.14868487517,-0.205562754974,-0.770917680388,-0.735510558804,-0.00732686527415,-0.739447324833,-0.119587541513,-0.0242621842582,-0.698734501879,0.573741623072,0.81901341914,0.00427973413442,0.0,0.818993395477,-0.573666316942,-0.0117269720152,0.0,-0.00714954577887,0.0102335229753,-0.999922076465,0.0,0.444036511558,-0.0248240623265,0.304803906273,1.0,-0.25998,-0.341688,2.14
0.0641103503542,-0.293986810839,-0.133406563996,-2.44760606626,-0.0342179727092,2.14807061307,-0.219040558324,-0.805006994886,-0.72819670409,-0.0253373652502,-0.68270217666,-0.12166564441,-0.0331382253403,-0.722990118696,0.57374113405,0.819013095745,0.00440533748161,0.0,0.818994171297,-0.57366465337,-0.0117541378709,0.0,-0.00709974313814,0.0103519774195,-0.999921212002,0.0,0.43910950713,-0.0312928109225,0.304825276512,1.0,-0.25998,-0.341688,2.159
0.0520841591379,-0.304918424207,-0.133608703396,-2.4579151753,-0.0360427636028,2.14756448537,-0.229878355728,-0.799631351106,-0.711571447454,-0.0077613745009,-0.691816251742,-0.110147037086,-0.0397156079378,-0.728427544325,0.57371219651,0.819032864597,0.00449768673728,0.0,0.819015928366,-0.573636596352,-0.0116065201532,0.0,-0.00692621708883,0.0103426783782,-0.999922525259,0.0,0.435253516531,-0.0364071446889,0.304868593499,1.0,-0.25998,-0.341688,2.174
0.0407288355255,-0.314968140797,-0.133815695775,-2.46748247612,-0.0377140710126,2.14683688184,-0.240155738444,-0.823507558967,-0.714170724556,-0.0150862237736,-0.673396733986,-0.124814680841,-0.0542164648304,-0.746959970492,0.57369397582,0.81904603958,0.00442199702221,0.0,0.819027177416,-0.573617223309,-0.0117690559556,0.0,-0.00710300177148,0.0103737719697,-0.999920962987,0.0,0.431819602447,-0.0408080779763,0.30481345054,1.0,-0.25998,-0.341688,2.187
0.0241397495628,-0.32908672481,-0.134122530141,-2.48041416293,-0.0399882650098,2.14590478019,-0.255221984861,-0.826581724171,-0.705067784395,-0.00579250553901,-0.64096699083,-0.111216427159,-0.057443100462,-0.764452540003,0.573682718602,0.819052625319,0.00465641883024,0.0,0.819037901841,-0.573606892326,-0.0115236854266,0.0,-0.00676768116627,0.0104249234047,-0.999922756749,0.0,0.426453625104,-0.0479778733376,0.304913185115,1.0,-0.25998,-0.341688,2.208
0.0106066290809,-0.340094992307,-0.134423181823,-2.49065558584,-0.0418077108891,2.14489667715,-0.26754508549,-0.863534319649,-0.674132755281,-0.0301345749607,-0.634700155362,-0.119260003175,-0.0632353523859,-0.770248371145,0.573711513565,0.819032680251,0.00461679383926,0.0,0.819016372446,-0.573634167644,-0.0116948825723,0.0,-0.00693027375653,0.0104909205068,-0.999920952822,0.0,0.422253080616,-0.0534489809095,0.304851469243,1.0,-0.25998,-0.341688,2.224
-0.00399787045201,-0.351670919312,-0.134658054502,-2.50106107473,-0.0437173074973,2.14371276289,-0.280889424179,-0.854197811725,-0.685576448484,-0.0156239642498,-0.596267386029,-0.111192511905,-0.0655051741521,-0.795580943352,0.573669166062,0.81906202053,0.00467347151081,0.0,0.819046645626,-0.573591950749,-0.0116453091901,0.0,-0.00685769686623,0.0105085482981,-0.999921268104,0.0,0.417848794766,-0.0592276985073,0.304900278327,1.0,-0.25998,-0.341688,2.241
-0.0188986291017,-0.362932377868,-0.134998129021,-2.51117146016,-0.0456047147656,2.14255407983,-0.294559436519,-0.891498586675,-0.654166127641,-0.0252827988604,-0.603143386104,-0.103904727687,-0.082797425262,-0.812136760943,0.573692612082,0.819045171725,0.00474767495518,0.0,0.819030914862,-0.57361540755,-0.0115961900174,0.0,-0.0067745943718,0.0105413440568,-0.999921489386,0.0,0.413444743727,-0.0650643575906,0.304909603799,1.0,-0.25998,-0.341688,2.258
-0.0330354241051,-0.373272066332,-0.135189942688,-2.52048731213,-0.0473199523726,2.14126237128,-0.307673216432,-0.885012846995,-0.649275180866,-0.0142490043626,-0.57405350173,-0.117151693906,-0.0766470749069,-0.817611880675,0.573529808249,0.819159576924,0.00467904739188,0.0,0.819143446255,-0.573451333476,-0.0117613559667,0.0,-0.00695135524661,0.0105785029071,-0.999919883759,0.0,0.409252113823,-0.0704439850339,0.304850567164,1.0,-0.25998,-0.341688,2.274
-0.0484904164828,-0.384091007255,-0.135519273383,-2.52976596594,-0.0491498772824,2.13995810334,-0.321801499463,-0.912159654755,-0.626483301781,-0.0147546194456,-0.544212839282,-0.109249874192,-0.0669359652118,-0.838181535582,0.573658290662,0.819068616446,0.00484912460219,0.0,0.819056214711,-0.573581648553,-0.0114785228895,0.0,-0.00662045644288,0.0105566587098,-0.999922360243,0.0,0.404907043754,-0.0763159902073,0.304965967221,1.0,-0.25998,-0.341688,2.291
-0.0649745957974,-0.395173279841,-0.135789442891,-2.53945145014,-0.051007876015,2.13836879419,-0.337153760016,-0.929082318151,-0.617570607413,-0.0165414936854,-0.526667920653,-0.108754132644,-0.0907173270787,-0.861215911195,0.573542089783,0.819150093272,0.00483144302138,0.0,0.81913691739,-0.57346465263,-0.0115650185629,0.0,-0.00670295329318,0.0105908421646,-0.999921449155,0.0,0.40021315824,-0.0824138362869,0.304943558581,1.0,-0.25998,-0.341688,2.309
-0.0789890189899,-0.404120991169,-0.13605702882,-2.54727187122,-0.0525189496266,2.1369313987,-0.350127771023,-0.930142117991,-0.596262766747,-0.00921502023826,-0.508998786918,-0.0968071281749,-0.0981072838435,-0.868204998655,0.573575886768,0.819126798693,0.00476829969159,0.0,0.819111504233,-0.573496614473,-0.0117781035409,0.0,-0.00691328962045,0.010661610585,-0.999919264984,0.0,0.396264059561,-0.0875286175645,0.30488260761,1.0,-0.25998,-0.341688,2.324
-0.0960695987518,-0.414635883057,-0.136426341969,-2.55600576942,-0.0541925665696,2.13540822651,-0.366060217499,-0.962720904444,-0.572168214503,-0.0254847064755,-0.482327508627,-0.0987276713872,-0.0864924609404,-0.88331101549,0.573650359569,0.819072972966,0.00504745723149,0.0,0.819062535925,-0.573572177963,-0.011500687504,0.0,-0.00652494689304,0.0107317632616,-0.999921124052,0.0,0.391675632646,-0.0937125509792,0.304998450847,1.0,-0.25998,-0.341688,2.342
-0.112387829846,-0.424171135362,-0.136646272877,-2.56412340574,-0.0558299203558,2.13373023984,-0.381392313316,-0.967736188659,-0.55143629817,-0.0121171148143,-0.474454644788,-0.0974476690696,-0.100335189689,-0.899125861217,0.573516767453,0.81916692978,0.0049805125474,0.0,0.819154901576,-0.573437630689,-0.0116309000243,0.0,-0.00667176380085,0.0107505344312,-0.999919953585,0.0,0.387235432979,-0.0994660353807,0.304961008548,1.0,-0.25998,-0.341688,2.359
-0.128029123688,-0.432856704477,-0.136982819332,-2.57148691731,-0.0573892135597,2.13213832033,-0.395956373893,-0.980432603368,-0.530478010997,-0.0179822421819,-0.447709648671,-0.0992765812584,-0.0933188495486,-0.905448374492,0.573607680898,0.819103677558,0.00491332127261,0.0,0.819089909853,-0.573527362272,-0.0117826654167,0.0,-0.00683343194949,0.0107832868744,-0.999918509146,0.0,0.383024504146,-0.104952928772,0.304907401556,1.0,-0.25998,-0.341688,2.375
-0.144789908349,-0.441742076287,-0.137258974618,-2.57874956523,-0.0588247757609,2.13053822069,-0.411827248631,-1.00414036901,-0.511920532918,-0.0216285178492,-0.39934046397,-0.0861214720091,-0.0958027914361,-0.936164686406,0.573579943497,0.819122078883,0.00508086663148,0.0,0.819110889825,-0.573499730193,-0.0116686134102,0.0,-0.00664427115474,0.0108548847983,-0.999919009289,0.0,0.378409626238,-0.111085700431,0.304964311231,1.0,-0.25998,-0.341688,2.393
-0.161877417507,-0.450309594741,-0.13752319835,-2.5856835208,-0.0602448672059,2.12893446643,-0.427901150325,-0.997752612817,-0.490548406038,-0.0147382826432,-0.411303753484,-0.078033502452,-0.104853701604,-0.944803376358,0.57360425966,0.819104426573,0.00518059542002,0.0,0.819094920091,-0.573524374983,-0.0115779999706,0.0,-0.00651251866262,0.0108847990592,-0.999919550889,0.0,0.374287207279,-0.116543679238,0.305003209785,1.0,-0.25998,-0.341688,2.409
-0.179159713739,-0.458475643629,-0.137854558469,-2.59246053296,-0.0617523912004,2.12712712086,-0.444316273932,-1.01960895526,-0.473728654704,-0.012543694786,-0.387266329436,-0.0838257568622,-0.0999136786098,-0.972802649557,0.573550879603,0.819142505133,0.00506869726821,0.0,0.819129935692,-0.573468730027,-0.0118537351198,0.0,-0.00680328988036,0.0109508527097,-0.999916893583,0.0,0.369790585042,-0.122349645138,0.304925951874,1.0,-0.25998,-0.341688,2.426
-0.196609151253,-0.466228862419,-0.138124554753,-2.59879419351,-0.0630440891647,2.12555231151,-0.460956021658,-1.04586605725,-0.445581055812,-0.0242761285393,-0.363482492588,-0.0729598544596,-0.0947953690867,-0.985633894967,0.573517078535,0.819165656352,0.00515121194778,0.0,0.81915357338,-0.573433692156,-0.011915150871,0.0,-0.00680673494824,0.0110533890041,-0.999915741926,0.0,0.365382068417,-0.12811940077,0.304892507575,1.0,-0.25998,-0.341688,2.443
-0.214362080548,-0.473709945617,-0.138379293123,-2.6045663594,-0.0644072167608,2.12396026605,-0.477755674168,-1.04577466623,-0.434439753443,-0.0107660554495,-0.326171774481,-0.0684845021877,-0.0922112308357,-0.990874154877,0.573580052823,0.819121255507,0.00519987321151,0.0,0.81911118973,-0.573498762692,-0.0116950823186,0.0,-0.00659769668525,0.0109675514262,-0.999918088252,0.0,0.36126903132,-0.133624295006,0.304981049356,1.0,-0.25998,-0.341688,2.459
-0.231166978529,-0.480251035868,-0.138615244605,-2.6097032626,-0.0654942780839,2.12251113893,-0.493794846868,-1.05599896758,-0.401449283433,-0.00639122499709,-0.314935247335,-0.0699047945317,-0.0919784752178,-1.00257968939,0.573629408137,0.819085855614,0.00533011763832,0.0,0.819077593162,-0.573547880493,-0.01163924668,0.0,-0.0064765893458,0.0110426067151,-0.999918053956,0.0,0.356910005132,-0.139407253478,0.305015650456,1.0,-0.254494285714,-0.334478204082,2.476
-0.249925153011,-0.487044125611,-0.138760139163,-2.6151987828,-0.0665658336282,2.12083520646,-0.511737378999,-1.05191188914,-0.3659777232,-0.0175701943415,-0.29641007468,-0.054445473522,-0.0900673025451,-1.00415982944,0.573637141095,0.81908009795,0.00538241573056,0.0,0.819070679732,-0.573552320831,-0.0119039394228,0.0,-0.00666331112388,0.0112373370429,-0.999914657629,0.0,0.352305741445,-0.145341971928,0.304943099131,1.0,-0.248569714286,-0.32669162449,2.494
-0.267566352438,-0.492880213826,-0.138799846807,-2.61983439479,-0.0675426460512,2.11942789413,-0.528542353583,-1.02403430736,-0.33324192421,0.00309839887127,-0.258173908265,-0.0513234952127,-0.0770979865769,-0.976602486394,0.573670879218,0.81905638874,0.00539456233369,0.0,0.819046579863,-0.573585083383,-0.0119832815676,0.0,-0.00672087223766,0.0112930749288,-0.999913644439,0.0,0.348087131127,-0.150871155127,0.304913274106,1.0,-0.242974285714,-0.319337632653,2.511
-0.282040706435,-0.497334767533,-0.138828852349,-2.62325506075,-0.0682451552003,2.11839820242,-0.542280531291,-1.02090697205,-0.312468901917,0.00109100065977,-0.234334768008,-0.0595479470635,-0.0814795185559,-0.982067346539,0.573799069454,0.818965984946,0.00548546218216,0.0,0.818957832845,-0.573713712981,-0.0118907720664,0.0,-0.00659117988187,0.011315494026,-0.999914254295,0.0,0.344701685089,-0.155386888918,0.304940820498,1.0,-0.238366285714,-0.313281404082,2.525
-0.302200739637,-0.503101829277,-0.138777080411,-2.62766428197,-0.0690510073881,2.11693995512,-0.561627870228,-1.01878664775,-0.280148366162,-0.00557265607513,-0.208343815747,-0.0309407731644,-0.0672605416606,-0.967950080734,0.573829900475,0.818943351463,0.0056373146163,0.0,0.818937060393,-0.573743778272,-0.011870758658,0.0,-0.00648722959182,0.0114286221561,-0.999913647496,0.0,0.340004909607,-0.161573002362,0.3049679914,1.0,-0.231783428571,-0.30462964898,2.545
-0.318137566153,-0.50721846144,-0.138719125082,-2.63078554031,-0.0697059028085,2.11592516798,-0.576950163954,-0.978560035533,-0.255293585648,0.00226372363386,-0.185857876739,-0.036691988301,-0.0585500171455,-0.958152328447,0.573831250915,0.818941997823,0.00569618962678,0.0,0.818936979405,-0.573745815435,-0.0117775181913,0.0,-0.00637706209289,0.0114233482583,-0.999914416435,0.0,0.336341455352,-0.166443219194,0.304995818148,1.0,-0.226517142857,-0.297708244898,2.561
-0.332933911943,-0.510763039376,-0.138667055534,-2.63346904626,-0.0702473141047,2.11498561758,-0.591076932599,-0.979738021403,-0.228482364041,0.00406456984336,-0.177134091155,-0.0395968004469,-0.0675123487888,-0.94104179877,0.573955204155,0.818854679646,0.00576056829392,0.0,0.818850546638,-0.573869603798,-0.0117561477041,0.0,-0.00632088321421,0.0114647673843,-0.9999142991,0.0,0.332939428956,-0.170925942419,0.305011960055,1.0,-0.22158,-0.291219428572,2.576
-0.351151382188,-0.514646226811,-0.138481250555,-2.63653948967,-0.0707571098129,2.11385535514,-0.608735373318,-0.95585242874,-0.19900627353,0.008791814672,-0.151743453262,-0.0200650408509,-0.046551413929,-0.924344265555,0.573884974689,0.818903422309,0.00582817801861,0.0,0.818898858433,-0.573796764005,-0.0119448807355,0.0,-0.0064376379707,0.0116278997778,-0.999911670481,0.0,0.328758645702,-0.176345776147,0.30496073959,1.0,-0.215326285714,-0.283000261225,2.595
-0.3673020199,-0.517627684594,-0.138340157559,-2.63893250334,-0.0712107454004,2.11300934697,-0.624220480359,-0.93229967908,-0.166952200458,0.0139388836162,-0.135677733293,-0.021579753578,-0.0472555834291,-0.896068947421,0.573997097816,0.818824643678,0.00585504108549,0.0,0.818819503903,-0.573907088286,-0.0120839126117,0.0,-0.00653448166637,0.0117305784563,-0.999909842975,0.0,0.325089076742,-0.181150084172,0.304903953538,1.0,-0.209730857143,-0.275646269388,2.612
-0.382120792928,-0.520101054013,-0.138207593665,-2.64087803493,-0.0715216354471,2.1123180483,-0.638532029875,-0.924731987342,-0.139694254207,0.00323221368696,-0.116131379024,-0.0194670763834,-0.0458856359024,-0.885407043331,0.574072281867,0.818771236954,0.00595177536227,0.0,0.818766822555,-0.573980875839,-0.0121487183037,0.0,-0.00653094161853,0.011847586743,-0.999908486558,0.0,0.321749049116,-0.185534999579,0.304874228113,1.0,-0.204464571429,-0.268724865306,2.628
-0.397464832362,-0.522392650661,-0.137954156175,-2.64261888484,-0.0718125557587,2.11163032364,-0.653458625993,-0.893936907934,-0.131377256001,0.0115675615863,-0.100128801978,-0.0133246256908,-0.037851469133,-0.873271440058,0.574008227448,0.818815814655,0.00599694876651,0.0,0.818811793612,-0.573916279916,-0.0121695189314,0.0,-0.00652297361833,0.0118960054014,-0.9999079637,0.0,0.318325352261,-0.190032871327,0.304872439645,1.0,-0.198869142857,-0.261370873469,2.645
-0.412631256326,-0.524416120374,-0.137801426905,-2.64406584176,-0.0720636244371,2.11103322069,-0.668079866753,-0.888149562085,-0.121791756549,0.00736849877817,-0.0849606612707,-0.0184992103249,-0.0290125098463,-0.854718154412,0.574153259573,0.818713307522,0.0061074960731,0.0,0.818711288957,-0.574061835288,-0.012065715995,0.0,-0.00637240453371,0.0119280758024,-0.999908552553,0.0,0.314760574025,-0.194755557563,0.304916729731,1.0,-0.192944571429,-0.253584293878,2.663
-0.426394363372,-0.525953671019,-0.13752757113,-2.64518336237,-0.0722300093135,2.11057827506,-0.681534253639,-0.85670097793,-0.0880208919843,0.0101661586205,-0.0642014236393,-0.0125817569082,-0.0279310595334,-0.841751040619,0.574075977468,0.818767167889,0.00615173006845,0.0,0.818765972492,-0.573984844847,-0.0120177816746,0.0,-0.00630888670278,0.0119361768222,-0.999908858662,0.0,0.31192649731,-0.198508236146,0.304932845325,1.0,-0.188007428571,-0.247095477551,2.678
-0.440875425857,-0.527328323288,-0.13732249027,-2.64620652459,-0.0724174982171,2.11014645484,-0.695457725784,-0.835531810952,-0.0749048031579,0.0178425317419,-0.0585338334771,-0.0125416118285,-0.02309650712,-0.80487132781,0.574247460722,0.818646542594,0.00619992379937,0.0,0.818646096793,-0.574156319056,-0.0119931811444,0.0,-0.00625857134835,0.0119628275584,-0.999908856367,0.0,0.308717416861,-0.202731569244,0.304938895684,1.0,-0.182412,-0.239741485714,2.695
-0.454707252685,-0.528379141188,-0.136964571432,-2.6469956197,-0.0724913524822,2.10980446772,-0.709054450556,-0.809319309253,-0.0598796365831,0.0136595971154,-0.0465624207604,-0.00235361618596,-0.0231417108953,-0.795390867922,0.574109423179,0.818743127108,0.00622968155933,0.0,0.818743202585,-0.574018442109,-0.0119642484548,0.0,-0.00621981384055,0.0119695276606,-0.999909018023,0.0,0.305691370045,-0.206709297192,0.304944249127,1.0,-0.176816571429,-0.232387493878,2.712
-0.467629593937,-0.529116577747,-0.136734221545,-2.64756853186,-0.0725558935914,2.10950814172,-0.721497601705,-0.795500395188,-0.0394438835011,0.0184160508619,-0.0282385995048,-0.00165562549499,-0.0211344429406,-0.767422493629,0.574278212627,0.818624356465,0.00628047808456,0.0,0.818624821599,-0.574186454721,-0.0120026488288,0.0,-0.00621961497486,0.0120344466681,-0.999908240032,0.0,0.302842258069,-0.210445427954,0.304933730968,1.0,-0.171550285714,-0.225466089796,2.728
-0.480714557742,-0.529627424206,-0.136355673421,-2.64800097391,-0.0725822242643,2.10928170148,-0.734400812179,-0.766948233579,-0.0202194711075,0.022134499734,-0.018506674112,-0.00303697266051,-0.00977865221976,-0.745685986694,0.574123843397,0.818732688476,0.00627249268295,0.0,0.818732772928,-0.574031619709,-0.0120454559417,0.0,-0.00626151994632,0.0120513108133,-0.999907775385,0.0,0.299986009944,-0.214186187657,0.304914055053,1.0,-0.165954857143,-0.218112097959,2.745
-0.494315246176,-0.529939784515,-0.136056953827,-2.64824636493,-0.0725886433568,2.10907949435,-0.747624095735,-0.736569967504,-0.0116258289088,0.0275837128224,-0.00889337705191,-0.000958126180556,-0.00819460221165,-0.724925926604,0.574205190822,0.818675390058,0.00630487488005,0.0,0.818675656989,-0.574112344626,-0.0120802029251,0.0,-0.00627017906207,0.012098395742,-0.999907152527,0.0,0.297006594971,-0.218100489989,0.304906924662,1.0,-0.160030285714,-0.210325518367,2.763
-0.505130984798,-0.530069790076,-0.135710137056,-2.6483816628,-0.0725893185406,2.1089927107,-0.758321435075,-0.722093792628,-0.00841631896187,0.0204286755587,-0.0113481953967,-0.000116876408938,-0.00935110286379,-0.703348769235,0.57404974691,0.818784647997,0.00627177630359,0.0,0.818784461639,-0.573957040144,-0.0120858739338,0.0,-0.00629611909077,0.0120733583067,-0.999907292154,0.0,0.294646890451,-0.221177411906,0.304894384082,1.0,-0.155093142857,-0.203836702041,2.778
-0.517296049726,-0.530083015015,-0.135442811985,-2.64841892275,-0.0725907860882,2.1089061135,-0.770049325515,-0.702338650703,0.00477814169552,0.0152597852268,-0.000336326574823,0.00389638765084,-0.00439819529933,-0.689547287172,0.574216656089,0.818667554607,0.00627804150877,0.0,0.818667315238,-0.574123626719,-0.0121092983218,0.0,-0.00630923915784,0.0120932210089,-0.999906969426,0.0,0.291959972393,-0.224662855929,0.304881751585,1.0,-0.149497714286,-0.196482710204,2.795
-0.528728833281,-0.529956122485,-0.135036475934,-2.64834479158,-0.0725615221763,2.10888963016,-0.781381601721,-0.666044074572,0.016935509938,0.0213626229854,0.00856224049524,-0.00212596134199,-0.00154684681171,-0.652043910757,0.574029648194,0.818799172101,0.00621495465388,0.0,0.818798185541,-0.573937085203,-0.0121037384554,0.0,-0.006343660203,0.0120369300694,-0.99990743086,0.0,0.289319145774,-0.228085791229,0.304873480722,1.0,-0.143573142857,-0.188696130612,2.813
-0.539328833133,-0.529740121446,-0.13476150829,-2.64818470178,-0.0725277250018,2.10888328496,-0.791653815012,-0.654828703932,0.0150026574113,0.0105934041177,0.0109532247772,0.00196198143108,-0.000180447861315,-0.641224858966,0.574139129419,0.818722430068,0.00621204273807,0.0,0.818721626469,-0.574046975417,-0.0120712579557,0.0,-0.0063171269268,0.0120167466275,-0.999907841607,0.0,0.286978584758,-0.231107878245,0.304880823041,1.0,-0.138306857143,-0.181774726531,2.829
-0.550626086462,-0.529302880349,-0.134302979517,-2.64785437478,-0.0724586564732,2.1089121943,-0.802804797756,-0.609347238819,0.0324618835279,0.027239050063,0.0207162194817,0.00983414172933,-0.000149168749818,-0.608040639539,0.573972534504,0.818839849405,0.00613005412097,0.0,0.818838048219,-0.573880907485,-0.0120706965274,0.0,-0.00636616887333,0.011947999867,-0.999908354397,0.0,0.284666919104,-0.234109367887,0.304883490703,1.0,-0.132711428571,-0.174420734694,2.846
-0.560912541715,-0.528764840829,-0.133925482425,-2.64749971067,-0.0723628742906,2.10896997386,-0.812906734746,-0.602726776311,0.0331989402158,0.0169460453317,0.0204126830426,0.00542895245061,0.00472626168891,-0.582274509102,0.573918823244,0.818877786664,0.00609111949204,0.0,0.818875179027,-0.573826819621,-0.0121230836836,0.0,-0.00643220004806,0.0119457624792,-0.999907958545,0.0,0.282410666447,-0.237011053051,0.304862867239,1.0,-0.127116,-0.167066742857,2.863
-0.570333610064,-0.528173324593,-0.133619338469,-2.64705317813,-0.0722314876373,2.10907705571,-0.822020875789,-0.57278007127,0.0368114096671,0.0257003105257,0.0320872029002,0.00573942109903,0.00899330159272,-0.563060849657,0.574035563328,0.818795907549,0.00609759930651,0.0,0.818793559586,-0.573943832528,-0.0120967262269,0.0,-0.00640519373392,0.0119368559166,-0.999908238272,0.0,0.280350680055,-0.239688625737,0.30486676822,1.0,-0.121849714286,-0.160145338776,2.879
-0.579626882172,-0.527391868262,-0.133198893294,-2.64652094992,-0.0720231395897,2.10920263694,-0.831329543901,-0.541003838042,0.0483831622166,0.0184458088099,0.0341626941355,0.0119851729578,0.00612998347766,-0.549580531893,0.573845529887,0.818929078515,0.00610074519438,0.0,0.818926393804,-0.57375312307,-0.0121516335995,0.0,-0.006451128702,0.0119694523325,-0.999907553301,0.0,0.278345270364,-0.242298604784,0.304844579533,1.0,-0.116254285714,-0.152791346939,2.896
-0.589297947645,-0.526543886657,-0.132841370929,-2.64589017581,-0.0718036859599,2.1093360226,-0.840659559608,-0.528851601993,0.0491594766091,0.021243816164,0.0348396027359,0.0178904053415,0.00685641017135,-0.512872587917,0.574001549171,0.818819464313,0.00613622947836,0.0,0.818817114333,-0.573908711562,-0.0121684415519,0.0,-0.0064422452725,0.0120093852341,-0.999907131759,0.0,0.276234789259,-0.245033389854,0.304841698527,1.0,-0.110329714286,-0.145004767347,2.914
-0.597423035602,-0.525690978644,-0.132492965116,-2.64524027243,-0.0715974979004,2.10948458493,-0.84863571261,-0.488202299992,0.0532164612203,0.0279037964857,0.0389851748753,0.0188237267715,0.00246043184817,-0.48584405199,0.574001767501,0.8188192317,0.00614683693879,0.0,0.818817027958,-0.573908896639,-0.012165524487,0.0,-0.00643376487823,0.0120163986646,-0.999907102101,0.0,0.274484265578,-0.247335886584,0.304846510965,1.0,-0.105063428571,-0.138083363265,2.93
-0.604016595428,-0.524890538892,-0.132110605436,-2.64467064354,-0.0713684315669,2.10961896339,-0.855262404593,-0.469387223921,0.0520406600576,0.0323669689746,0.0434436730697,0.0167577049981,0.00749038367487,-0.470201598442,0.573834152613,0.818936650979,0.00615417573911,0.0,0.818934220419,-0.573740682764,-0.0122114073669,0.0,-0.00646959262206,0.01204741966,-0.999906497654,0.0,0.273085495406,-0.24917693666,0.304833469876,1.0,-0.100455428571,-0.132027134694,2.944
-0.613247208861,-0.523810524089,-0.13167156828,-2.64385455509,-0.0710973291335,2.1098173522,-0.864218034739,-0.449819211935,0.0562097977593,0.0201313280742,0.0385430262513,0.0145114696703,0.0132360744574,-0.434678008165,0.573909945803,0.818883450205,0.00616571083177,0.0,0.818881162243,-0.573816391654,-0.0122121944789,0.0,-0.00646250243118,0.0120579164757,-0.999906416977,0.0,0.271089365029,-0.251774401964,0.304836601761,1.0,-0.0938725714286,-0.123375379592,2.964
-0.62021981256,-0.52290749312,-0.131348466691,-2.64314266103,-0.0708566423988,2.10998379195,-0.87099121338,-0.418310833593,0.0605257315826,0.0197822801195,0.0420457421352,0.0153548452492,0.0180005493519,-0.423403271479,0.57398658316,0.818829492235,0.00619773346528,0.0,0.818827762596,-0.573893128182,-0.0121868588257,0.0,-0.00642224642629,0.0120702020721,-0.999906528118,0.0,0.269589732991,-0.253748957032,0.304851291748,1.0,-0.0886062857144,-0.11645397551,2.98
-0.626991206708,-0.521930434382,-0.130907836898,-2.64239265899,-0.0705560770859,2.11017445897,-0.877710236813,-0.390333543446,0.0557287435317,0.0241783823334,0.042999030809,0.0150785311924,0.00813548779624,-0.385744165869,0.573887066933,0.818899106665,0.00621565856031,0.0,0.818897686742,-0.573793694297,-0.012170535481,0.0,-0.00640005816617,0.0120747338029,-0.999906615669,0.0,0.268168803379,-0.25564030078,0.304860857376,1.0,-0.0830108571429,-0.109099983674,2.997
-0.632382119877,-0.52118702332,-0.130589515894,-2.64181703038,-0.0703573617882,2.11031414511,-0.882986148996,-0.384302106034,0.0524712705637,0.0233645905308,0.0375465588937,0.0166926266072,0.00679968363572,-0.372833073175,0.573872127607,0.818909583814,0.00621462748903,0.0,0.818908217362,-0.573778889208,-0.0121599644927,0.0,-0.0063922124743,0.0120677065544,-0.999906750691,0.0,0.267011578715,-0.257145179338,0.304869268092,1.0,-0.0784028571429,-0.103043755102,3.011
-0.639625163208,-0.520121245119,-0.130131350869,-2.64096017736,-0.0700431413928,2.11055186591,-0.889954437238,-0.349118463598,0.0548158201046,0.0287477545763,0.0462196519564,0.0176459898497,0.0134548398586,-0.337403036007,0.573953074152,0.818852794854,0.0062222127859,0.0,0.818852049277,-0.573860773691,-0.0120781089229,0.0,-0.00631963107713,0.012027571005,-0.999907695639,0.0,0.265480213625,-0.259174585599,0.30489860504,1.0,-0.0718200000001,-0.0943920000001,3.031
-0.644950067311,-0.519230108986,-0.129838622256,-2.64030300505,-0.0697738574602,2.11072715143,-0.895134030793,-0.321844264273,0.0547827844929,0.0161648399632,0.0389096487558,0.0152042835598,0.0139356975998,-0.322278941368,0.574015335263,0.81880869267,0.00628224421299,0.0,0.818808578995,-0.573922466907,-0.0120937936474,0.0,-0.00629710350815,0.0120862111691,-0.999907130681,0.0,0.26434249123,-0.260671806237,0.304891683228,1.0,-0.0665537142858,-0.0874705959185,3.047
-0.650429925986,-0.518323057602,-0.129418546869,-2.63962886894,-0.0694801970262,2.11092464888,-0.90052724324,-0.282569681042,0.0464828051601,0.0203519379465,0.0345277719992,0.0166197817841,0.0122207566338,-0.300978693438,0.57395029328,0.8188541599,0.00629861558951,0.0,0.818854291761,-0.573857427629,-0.0120850535956,0.0,-0.00628151000805,0.012094101312,-0.999907133361,0.0,0.263193027521,-0.262181964349,0.304891361692,1.0,-0.0606291428572,-0.0796840163266,3.065
-0.654900652004,-0.517557348623,-0.128982332065,-2.6390879168,-0.0692294829069,2.11107495671,-0.904867210893,-0.275392399272,0.0442317437222,0.0215747895325,0.0367662237312,0.0217648430751,0.00493508870791,-0.254692885744,0.573884296597,0.818900567057,0.00627871759579,0.0,0.818900201028,-0.573791077282,-0.0121246562359,0.0,-0.00632633753531,0.0121000258798,-0.999906779068,0.0,0.262266312953,-0.263384599732,0.304878664491,1.0,-0.0553628571429,-0.072762612245,3.081
-0.65931465112,-0.516782209787,-0.128582062103,-2.63850739162,-0.0689737392291,2.11125219724,-0.909102505402,-0.251469640427,0.0399768597034,0.0249884018865,0.0359511534456,0.00766524121403,0.013795833219,-0.244606335772,0.573886889296,0.818898806749,0.00627132357857,0.0,0.818898459133,-0.573793922414,-0.0121076476395,0.0,-0.00631661246401,0.0120842301146,-0.999907031573,0.0,0.261354736508,-0.26459037026,0.304881668424,1.0,-0.0497674285715,-0.0654086204083,3.098
-0.663269262995,-0.516006583204,-0.128206209223,-2.63797056208,-0.0687211766465,2.11141653008,-0.912889306656,-0.218590349045,0.0419596614793,0.018878223598,0.0248192577939,0.0134072327378,0.0124049942296,-0.215394218373,0.573894261693,0.818893596267,0.00627704471167,0.0,0.818893052189,-0.573800749342,-0.0121497338534,0.0,-0.00634768850239,0.0121131240574,-0.999906485166,0.0,0.260542286686,-0.265665687924,0.304862729009,1.0,-0.0441720000001,-0.0580546285715,3.115
-0.666845166483,-0.515364332609,-0.127842024216,-2.63752154279,-0.068482465922,2.11154143758,-0.916282307995,-0.202773916167,0.037370199077,0.0210002111235,0.025636224365,0.0104359080006,0.00450207281336,-0.189867857639,0.573911414176,0.818881513164,0.00628513943841,0.0,0.818880826237,-0.573817387047,-0.012187930349,0.0,-0.00637407127736,0.0121418062862,-0.999905969457,0.0,0.259799794327,-0.266617758992,0.304849265883,1.0,-0.0385765714286,-0.0507006367348,3.132
-0.669874114136,-0.514861827756,-0.127508442522,-2.63714648483,-0.0682471975551,2.11163970279,-0.919025570906,-0.175980402147,0.0291520142022,0.0193437016235,0.0194365336759,0.00581067852859,0.00331094206165,-0.170163612431,0.574028721263,0.81879912629,0.00630593796433,0.0,0.818798695902,-0.573934543135,-0.0121894497657,0.0,-0.00636163767476,0.0121606221732,-0.999905819982,0.0,0.259175460568,-0.267412177629,0.304850644849,1.0,-0.0333102857144,-0.0437792326532,3.148
-0.672595219307,-0.514343956554,-0.127115073794,-2.63675928545,-0.0680095476408,2.11176661206,-0.921631165439,-0.148451163874,0.0267725294997,0.0191217250954,0.0184013781106,0.0176966533717,0.00949207568004,-0.139334705683,0.573965694385,0.818843408043,0.00629298610542,0.0,0.818842947084,-0.573871854761,-0.0121683698891,0.0,-0.00635274417205,0.0121374278446,-0.99990615834,0.0,0.258651805031,-0.26811953345,0.304855629925,1.0,-0.0277148571429,-0.0364252408164,3.165
-0.674904382502,-0.513937239855,-0.126717773668,-2.63642706729,-0.0677626659468,2.11184691755,-0.923748935023,-0.129020871023,0.0201389266672,0.0235051637538,0.0188425693317,0.00965008876311,0.000613858194934,-0.110809347148,0.573962744641,0.81884550574,0.00628906944481,0.0,0.81884518423,-0.573869288006,-0.0121388405021,0.0,-0.00633085307407,0.0121172497341,-0.999906541912,0.0,0.258221752965,-0.268698523584,0.304872725011,1.0,-0.0221194285715,-0.0290712489797,3.182
-0.676835921219,-0.513618366915,-0.126341137518,-2.63616966681,-0.0675512322994,2.11190537829,-0.925484798674,-0.107100878932,0.0198577895492,0.0174002417534,0.0149271342824,0.0197962449628,0.00429961455698,-0.103910965078,0.573958862902,0.818848362843,0.00627130500966,0.0,0.818847927678,-0.573865713492,-0.0121227520302,0.0,-0.00632793056145,0.0120934389177,-0.999906848676,0.0,0.257866113601,-0.269166058071,0.30488584932,1.0,-0.01977,-0.0259834285714,3.199
-0.678511166633,-0.513307902378,-0.126094793703,-2.63592909802,-0.0673715892753,2.11200522228,-0.927047000283,-0.0960105111412,0.0189724373849,0.00721359476577,0.0160226010473,0.00567650480613,0.00521633685366,-0.0901311460489,0.573965482866,0.81884361605,0.00628520752441,0.0,0.818843653958,-0.573872829161,-0.0120744865139,0.0,-0.00628032729084,0.0120771733005,-0.999907345395,0.0,0.25754919147,-0.26959978148,0.304894800578,1.0,-0.01943,-0.0255365714286,3.216
-0.679990412785,-0.513019921752,-0.125933883809,-2.63569439231,-0.0672680948183,2.11206012155,-0.9285017466,-0.087273238299,0.0168715116567,0.00888856430109,0.0124997795975,0.00903618866195,0.00222010169196,-0.0968071789287,0.573927458803,0.81887029665,0.00628141687863,0.0,0.818870369944,-0.573834993232,-0.0120608735956,0.0,-0.00627191508084,0.012065965004,-0.99990753351,0.0,0.257250378676,-0.270000767802,0.304903460183,1.0,-0.01911,-0.025116,3.232
-0.681502544911,-0.512698954539,-0.125802449752,-2.63545508889,-0.0672120347838,2.11212485521,-0.929964918279,-0.0899944843135,0.0209922628853,0.0038335380454,0.0123773930262,0.00624758246455,0.00499920163854,-0.0779121402055,0.573910498835,0.818882405758,0.00625234103648,0.0,0.818882065523,-0.573818098897,-0.0120705859111,0.0,-0.0062968052156,0.0120475978774,-0.999907598546,0.0,0.25693280954,-0.270422880748,0.304902087938,1.0,-0.01877,-0.0246691428571,3.249
-0.683020569927,-0.512386046449,-0.125713604938,-2.63521238981,-0.0671573359333,2.112182429,-0.931471939664,-0.0824848484524,0.0128632796782,0.0021575391939,0.0136096530639,0.00230011772579,0.000777034045685,-0.0814954818027,0.573892276559,0.81889524444,0.00624343176474,0.0,0.818894770096,-0.573799885485,-0.0120745114956,0.0,-0.00630540100959,0.012042414364,-0.999907606819,0.0,0.25660300288,-0.270855339686,0.304903587088,1.0,-0.01841,-0.024196,3.267
-0.684219605238,-0.512105225323,-0.12568406522,-2.63500379614,-0.0671287026627,2.11223565172,-0.932736366457,-0.0752446859724,0.0213565818942,0.000144867323829,0.0139202954886,0.00250138006077,0.00542624448407,-0.0832224946106,0.573840830773,0.818931297745,0.00624318936097,0.0,0.818930736807,-0.573748292641,-0.012086848496,0.0,-0.00631640089826,0.0120488988244,-0.999907459277,0.0,0.256335589276,-0.271211723521,0.304899655362,1.0,-0.01811,-0.0238017142857,3.282
-0.685570414269,-0.511818197629,-0.125662771659,-2.63476556452,-0.0670652503193,2.11230223975,-0.934061147741,-0.0774712199967,0.0163935413862,-0.000164916613623,0.0165577439196,0.00269371378511,0.00272506430905,-0.0814792965263,0.573884674139,0.818900365406,0.00627050457373,0.0,0.818900298158,-0.573792269197,-0.0120615250733,0.0,-0.00627934113826,0.0120570745874,-0.999907594144,0.0,0.256018433949,-0.27163928389,0.304906649317,1.0,-0.01775,-0.0233285714286,3.3
-0.686983546917,-0.511509048484,-0.125653795441,-2.63453699675,-0.0670373027053,2.11235071731,-0.935498476023,-0.0838457250612,0.0114299793652,0.000424436605997,0.0137902093655,0.00308726598547,0.00243142847235,-0.0824040452762,0.573884050821,0.81890072458,0.00628063667616,0.0,0.818900650621,-0.573791334682,-0.0120820345107,0.0,-0.00629033302255,0.0120771368899,-0.999907282939,0.0,0.255707922994,-0.272033890869,0.304901538487,1.0,-0.01741,-0.0228817142857,3.317
-0.688134260268,-0.511257517509,-0.125657661759,-2.63435201308,-0.0670004806421,2.11237667251,-0.936618445983,-0.0816818850475,0.0158528907809,0.00220127934961,0.0126574953219,0.00177262818432,0.00058000848741,-0.0726225546404,0.573939707623,0.818861521805,0.00630610988917,0.0,0.818861575363,-0.573846471879,-0.0121117301601,0.0,-0.00629921215875,0.0121154672054,-0.999906763344,0.0,0.25541984571,-0.272395201588,0.304894563495,1.0,-0.01709,-0.0224611428571,3.333
-0.689481636017,-0.51099115732,-0.125637194085,-2.6341341927,-0.0669671755032,2.11246041222,-0.937988968292,-0.0762798122438,0.0155114263299,0.00166718354352,0.0128300232791,0.00221594471075,0.00517758586473,-0.0794947560882,0.573929295757,0.818868787579,0.00631023789355,0.0,0.81886914574,-0.573836527076,-0.0120710086417,0.0,-0.00626364780803,0.012095397476,-0.999907229735,0.0,0.255131926253,-0.272775403752,0.304902457316,1.0,-0.01675,-0.0220142857143,3.35
-0.690718047058,-0.510733743329,-0.125607105588,-2.63391401591,-0.0669531735464,2.11252246047,-0.939271013177,-0.0712347929912,0.0192039734937,0.00283258234726,0.00867623444396,0.00173603621737,0.000669751047229,-0.0797607154833,0.573887749916,0.818898041884,0.006292407772,0.0,0.818898363162,-0.573795446465,-0.0120417327609,0.0,-0.0062505167937,0.0120636776072,-0.999907695101,0.0,0.254854878696,-0.273146017743,0.30491309333,1.0,-0.01641,-0.0215674285714,3.367
-0.691873899365,-0.510486726941,-0.125570158368,-2.63373026514,-0.0669047460696,2.11253790328,-0.940410351256,-0.0705529453609,0.0179925053973,-0.000426837142791,0.0122683702273,0.00639387304801,0.000727455452149,-0.0740535296506,0.573905244753,0.818885633229,0.00631162712749,0.0,0.818885945219,-0.573812351043,-0.012080621427,0.0,-0.00627107846379,0.0121018677414,-0.999907104871,0.0,0.254589294839,-0.273474687299,0.304907228303,1.0,-0.01609,-0.0211468571429,3.383
-0.693051153158,-0.510220142657,-0.125545595842,-2.63353336716,-0.0668747105546,2.11260716444,-0.941652398529,-0.0638316431153,0.0221187644184,0.00191928943065,0.0123426411979,0.00122367001601,0.0153289186814,-0.07714694532,0.573857753503,0.818918900338,0.00631350258239,0.0,0.818919269961,-0.573764925858,-0.012074189134,0.0,-0.00626543597608,0.0120993489275,-0.999907170725,0.0,0.254323500774,-0.273824023545,0.304904349561,1.0,-0.01575,-0.0207,3.4
-0.694212318495,-0.509963087858,-0.125520000607,-2.63332893741,-0.0668470950035,2.11268782331,-0.942790794441,-0.0662569016157,0.017448599253,-0.000415811878008,0.00809657715177,0.00248578045555,0.00156316313699,-0.0627323546527,0.573887930514,0.81889775916,0.00631269793175,0.0,0.818898256247,-0.57379536649,-0.0120528093146,0.0,-0.0062479420083,0.0120866518285,-0.99990743375,0.0,0.254049602034,-0.27419069747,0.304905815463,1.0,-0.01539,-0.0202268571429,3.418
-0.695285860282,-0.509699822084,-0.125505754857,-2.63314070406,-0.0668085278952,2.1127031013,-0.943836438921,-0.0676203953278,0.0124798256727,0.000419513937025,0.0131767406474,0.00210043130953,0.00247359806413,-0.0713852516776,0.573919515134,0.818875496709,0.00632913414893,0.0,0.818875948347,-0.573826368634,-0.0120924266066,0.0,-0.00627048850494,0.0121230887503,-0.999906851508,0.0,0.253815415461,-0.274486559634,0.304898929542,1.0,-0.01509,-0.0198325714286,3.433
-0.696491598881,-0.509420227661,-0.125484231344,-2.6329336774,-0.0667765988444,2.11276306836,-0.945095371654,-0.0662551120966,0.0123908136321,0.00497845782824,0.00964304458769,0.00502856357804,0.00153411336039,-0.0602095678265,0.573885010082,0.81889963405,0.00633493943069,0.0,0.818900118788,-0.573791762615,-0.012097747917,0.0,-0.00627202603603,0.0121306323899,-0.999906750376,0.0,0.253540449959,-0.274843953937,0.304894898069,1.0,-0.01473,-0.0193594285714,3.451
-0.697604679493,-0.509161707215,-0.125461375742,-2.63272504175,-0.0667541273997,2.11282315455,-0.946193918369,-0.0621084331843,0.0140137519079,0.000856986525918,0.0136134850285,-0.000667149121474,-0.000432979135116,-0.0657184992165,0.573900934256,0.818888527058,0.00632809721731,0.0,0.81888902482,-0.573807911836,-0.0120827250927,0.0,-0.00626341329395,0.012116529859,-0.999906975352,0.0,0.253290738734,-0.275179076824,0.304899425245,1.0,-0.01439,-0.0189125714286,3.468
-0.698634013662,-0.508917020388,-0.125430647453,-2.63254658907,-0.0667235251435,2.11285272603,-0.947207591199,-0.0645438939959,0.0163387432011,0.00146267397576,0.0067165424912,0.00273768602503,-0.000335991177596,-0.0610704400556,0.573914225162,0.818879175749,0.00633281793745,0.0,0.818879539907,-0.573820801319,-0.0121133808869,0.0,-0.00628561371029,0.0121380903406,-0.999906574547,0.0,0.253055384766,-0.275477996372,0.304892947551,1.0,-0.01407,-0.018492,3.484
-0.699688825073,-0.508679848037,-0.125403533079,-2.63235007723,-0.0666823976016,2.11291341099,-0.948287968075,-0.0605778489558,0.00957783382119,0.00389773259355,0.00719406009221,0.00682023445492,0.00558246167682,-0.0588174060576,0.573901582335,0.818887982713,0.00633975253262,0.0,0.818888600223,-0.573808445071,-0.0120861777174,0.0,-0.00625954266242,0.0121280610964,-0.999906859792,0.0,0.252821602538,-0.275792494684,0.304900012551,1.0,-0.01373,-0.0180451428572,3.501
-0.700753692885,-0.508407398768,-0.125353927928,-2.63215366533,-0.066655035045,2.1129819038,-0.949384646308,-0.0612886609649,0.0168905868309,0.000536918462802,0.0141504631341,0.00771784180893,0.00361077162766,-0.0670168120904,0.573862042797,0.818915795938,0.00632628655527,0.0,0.818916226408,-0.573768952559,-0.0120892558292,0.0,-0.00627037647344,0.0121184970777,-0.999906907871,0.0,0.252588994933,-0.276106434719,0.304895108714,1.0,-0.01337,-0.017572,3.519
-0.701609893424,-0.508189086826,-0.125323791009,-2.63197725334,-0.0666231005304,2.11300138803,-0.950215001631,-0.0605503354239,0.0185440492419,0.00690609265962,0.0126954779686,0.00126226276264,0.000836944171341,-0.0567222311194,0.573884429355,0.818900079066,0.00633001980704,0.0,0.818900448708,-0.573791105806,-0.0121065644984,0.0,-0.00628207850955,0.0121316584909,-0.999906674821,0.0,0.252399032907,-0.276359508095,0.304896563509,1.0,-0.01307,-0.0171777142857,3.534
-0.702560095113,-0.507932075691,-0.125304597217,-2.63178334405,-0.0665918458371,2.11304737576,-0.951220966882,-0.0572442534826,0.0137948051708,-0.000384967968276,0.0113556731497,0.000822821974523,0.00197327714743,-0.0625206698024,0.57384844994,0.818925243489,0.00633632216157,0.0,0.818925615815,-0.573754952144,-0.0121176546565,0.0,-0.00628807813653,0.0121429076583,-0.999906500562,0.0,0.252187165396,-0.276646462882,0.304893583643,1.0,-0.01273,-0.0167308571429,3.551
-0.703584237941,-0.507693759794,-0.125287025827,-2.63158678965,-0.0665685124828,2.11312105328,-0.952231887319,-0.0559501072162,0.00950871198925,0.0031022522888,0.0110035541155,0.000387631900843,0.00313934087777,-0.0533787442822,0.573866726031,0.818912485332,0.00633000976018,0.0,0.818913011703,-0.573773709644,-0.0120812369606,0.0,-0.0062616031584,0.0121169805472,-0.999906981228,0.0,0.251958519608,-0.276958164864,0.304901044233,1.0,-0.01237,-0.0162577142857,3.569
-0.704523804783,-0.507468694742,-0.125285235293,-2.63140430084,-0.0665385259492,2.11315359924,-0.953139853168,-0.0565648992516,0.0177163366346,-0.00145078056309,0.0101038044672,0.00389683419684,-0.000291416985572,-0.0536912966824,0.573913495454,0.818879600102,0.00634406596646,0.0,0.818880278918,-0.573820345993,-0.0120849586684,0.0,-0.00625589243909,0.0121309849389,-0.999906847168,0.0,0.251740963834,-0.277241398119,0.304903150048,1.0,-0.01203,-0.0158108571429,3.586
