nelsonifechukwu/NELSON_IML_WORK/CNN-GradCAM/train2dof/data_sample_2022-02-22-08-44-16/robot_state.csv
position_joint1,position_joint2,position_joint3,position_joint4,position_joint5,position_joint6,position_joint7,velocity_joint1,velocity_joint2,velocity_joint3,velocity_joint4,velocity_joint5,velocity_joint6,velocity_joint7,ee_T_00,ee_T_10,ee_T_20,ee_T_30,ee_T_01,ee_T_11,ee_T_21,ee_T_31,ee_T_02,ee_T_12,ee_T_22,ee_T_32,ee_T_03,ee_T_13,ee_T_23,ee_T_33,v_x,v_y,time
0.465066952931,0.547770623282,-0.1240002351,-1.35585045586,0.0795053115803,1.89411135376,0.159151907583,-0.000788920418473,0.000930083744745,-0.000276371579571,-0.000547500589471,-0.000231958280235,0.000115001326377,-0.00138175389391,0.573815902676,0.81897024488,0.0019480091538,0.0,0.8189270767,-0.573757341984,-0.0119038846345,0.0,-0.00863140894129,0.00842607797673,-0.999927247348,0.0,0.661679660394,0.260878903533,0.30321489082,1.0,0.0,0.0,0.0
0.465067032387,0.547767918586,-0.124000945388,-1.35584521528,0.0795025896126,1.89411453283,0.159154247318,-0.000124246715081,2.52779674812e-07,4.10346405522e-05,0.000467501721568,-0.000233163720261,2.93527720516e-05,-0.000967977020718,0.57381726018,0.818969275706,0.00195557414549,0.0,0.818926244831,-0.573758705926,-0.0118953688983,0.0,-0.0086200799231,0.0084274012351,-0.999927333925,0.0,0.661681864267,0.260878979728,0.303219595679,1.0,-0.0001,-0.000131428571429,0.006
0.46506697941,0.547764819254,-0.12400307629,-1.35584787988,0.0795037911521,1.89411489878,0.159160413138,-0.000332656357463,-0.000481475633257,-0.00188314704155,-0.000726436034671,0.000309576219576,-0.000145914545374,0.000403563387715,0.573824302683,0.818964339141,0.00195646788429,0.0,0.818921318231,-0.573765742242,-0.0118951451507,0.0,-0.00861931138799,0.00842807889693,-0.999927334839,0.0,0.661681844281,0.260877655656,0.303220627623,1.0,-0.00028,-0.000368,0.015
0.465066929014,0.547755834869,-0.124003427014,-1.35584897495,0.0795028248867,1.89411408534,0.159152580129,-0.0016573108308,-7.81821904547e-05,-0.00013692648818,-0.00149631176244,-6.21738170076e-06,-0.000328803394398,-0.00133739179652,0.573817956692,0.818968771629,0.00196228824328,0.0,0.81892583456,-0.573759380903,-0.0118910562097,0.0,-0.00861268823079,0.0084304324264,-0.999927372068,0.0,0.661681817767,0.260877197064,0.303226410177,1.0,-0.00066,-0.000867428571429,0.034
0.465065211037,0.547718689678,-0.124005937048,-1.35587938047,0.0795021157169,1.894119205,0.159159514543,-0.000250766853382,-0.00685593002285,-0.00132006191518,-0.00375229920437,0.00129018092557,0.00267153851552,0.000770785575115,0.573828238417,0.818961541804,0.00197300320271,0.0,0.818918740306,-0.573769613433,-0.0118858898485,0.0,-0.0086022030102,0.00843635095708,-0.999927412408,0.0,0.661677917027,0.260871721703,0.3032387789,1.0,-0.001,-0.00131428571429,0.051
0.465065419405,0.547604818493,-0.124000937464,-1.35602311687,0.0795036719223,1.89414935283,0.159155363235,-0.000109092042035,-0.0069966079689,-0.000628404807639,-0.00935408719,0.000225910389975,0.000835735849016,-0.00411307600885,0.573829442798,0.818960677501,0.00198146073,0.0,0.818917837176,-0.573770636719,-0.0118987098149,0.0,-0.00860783719428,0.00845064625971,-0.999927243212,0.0,0.661652697218,0.260861486465,0.303253488245,1.0,-0.00136,-0.00178742857143,0.069
0.46505878781,0.547463079729,-0.124004010833,-1.35621312565,0.0794957989793,1.89419787948,0.1591549172,0.00075856240863,-0.0143679477901,0.000253136037826,-0.018157487595,-0.000199625986347,0.00395621811228,0.00106476656439,0.573845028332,0.818949750663,0.00198399801735,0.0,0.818906898677,-0.573786165986,-0.0119026855694,0.0,-0.00860947652268,0.00845516938938,-0.999927190862,0.0,0.661625433149,0.260836646158,0.303267757295,1.0,-0.00168,-0.002208,0.085
0.4650393296,0.547299826378,-0.124000304876,-1.35642279899,0.0794936531188,1.89430646199,0.159145667771,-0.00106333988257,-0.0110980361565,0.00190326566417,-0.0123940239698,1.18490773391e-05,0.0120655243418,-0.00224672205816,0.573862139697,0.818937615556,0.00204287817582,0.0,0.818895459825,-0.573802964696,-0.0118798352428,0.0,-0.00855679913804,0.0084904548024,-0.999927344043,0.0,0.661607674407,0.260810209861,0.303292904559,1.0,-0.00202,-0.00265485714286,0.102
0.465022243417,0.547097440922,-0.123998151469,-1.35664691578,0.0794929313985,1.89443363931,0.159130017478,-0.00204815551969,-0.0139785816124,0.000401012772358,-0.0129427056385,0.000372545068028,0.00769112987476,-0.000640518768744,0.573874367363,0.818928799356,0.00213985316998,0.0,0.818887843366,-0.573814739519,-0.0118360296585,0.0,-0.00846514924836,0.00854485829483,-0.999927660706,0.0,0.661590999698,0.260784744244,0.303340558244,1.0,-0.00236,-0.00310171428571,0.119
0.464996507099,0.546903763044,-0.123996216821,-1.35691895435,0.079488095672,1.89455914423,0.159107822468,2.34514983955e-05,-0.0138893718498,0.00153699375871,-0.0184110561098,-0.0030130812473,0.0104941270319,-0.00341705291939,0.573889999214,0.81891772275,0.00218610806535,0.0,0.818877290063,-0.573830107873,-0.0118210836506,0.0,-0.00842620250713,0.00857432101754,-0.999927737454,0.0,0.661565288671,0.260746834782,0.30335908127,1.0,-0.00268,-0.00352228571429,0.135
0.464962154354,0.546649884548,-0.123998510227,-1.35729195899,0.079480124864,1.89469202533,0.159076524723,-0.00122577821021,-0.0135900926053,0.000788378694024,-0.0197324959794,-0.0001075462591,0.00843338772375,-0.000824435915627,0.573912807515,0.818901686332,0.00220553716671,0.0,0.818861382214,-0.573852710764,-0.0118258179149,0.0,-0.00841869083681,0.00859318301894,-0.999927638807,0.0,0.661522847508,0.260689570145,0.303372946287,1.0,-0.00302,-0.00396914285714,0.152
0.464920879145,0.546370962707,-0.124001317603,-1.35771085546,0.079471090079,1.89484937942,0.15894634317,-0.00525930076908,-0.0201671751921,2.74944899616e-05,-0.0305681985117,-0.000214296395148,0.0175468849591,-0.00244976147927,0.573863008902,0.818936519637,0.00222951133345,0.0,0.818896391906,-0.57380268608,-0.0118289336741,0.0,-0.00840800806255,0.00861409210499,-0.999927548784,0.0,0.661477373217,0.260623800587,0.303384828746,1.0,-0.00336,-0.004416,0.169
0.46487698783,0.546079022413,-0.123995384856,-1.35819992294,0.0794553482602,1.8950172648,0.158927078223,-0.00332433757536,-0.0133163911308,0.00149014809563,-0.0280985838883,-0.0015630183154,0.0132685509585,-0.0012725649796,0.573902162066,0.818909127167,0.00221285310677,0.0,0.818868610816,-0.573841724047,-0.0118583668825,0.0,-0.00844125995194,0.0086177442602,-0.99992723716,0.0,0.661417247605,0.26055282496,0.303373125676,1.0,-0.0037,-0.00486285714286,0.186
0.464823133993,0.545741018701,-0.123998839777,-1.35876422954,0.0794177408681,1.89520459216,0.158844741877,-0.004010242881,-0.0163005927964,0.000190903095878,-0.0364130671391,-0.00580521205469,0.0166307590505,-0.00752757682672,0.573902719129,0.818908833085,0.00217691808263,0.0,0.818867860386,-0.573842435396,-0.011875751241,0.0,-0.008476112808,0.00859829972537,-0.99992710972,0.0,0.661350865446,0.260459278202,0.303360163279,1.0,-0.00404,-0.00530971428571,0.203
0.46475778326,0.545385071686,-0.123998869931,-1.35940016828,0.0793136456226,1.89540915162,0.158751872757,-0.00252000342443,-0.0233179344128,9.08420317429e-05,-0.045476542927,-0.00222559402216,0.0138251769289,-0.00852507677479,0.573887956747,0.8189194405,0.00207604736651,0.0,0.818877691866,-0.573828619806,-0.0118654016326,0.0,-0.00852567681697,0.00850960381082,-0.999927447107,0.0,0.661277800682,0.260342246223,0.30332704592,1.0,-0.00438,-0.00575657142857,0.22
0.46469594281,0.545002847228,-0.124002028183,-1.36005109827,0.0793016428568,1.89562094237,0.158702496839,-0.00586457619373,-0.0219034737556,0.0014550139259,-0.038533090711,-0.00155691534749,0.017301341782,-0.00245941503291,0.57393338946,0.818887687146,0.00204137315153,0.0,0.818845211753,-0.573873914238,-0.011916234593,0.0,-0.00858673230567,0.00851085740048,-0.999926913997,0.0,0.661198000281,0.260239702381,0.303306268565,1.0,-0.0047,-0.00617714285714,0.236
0.464620460562,0.544569903186,-0.124004531375,-1.36077757671,0.0792798045605,1.8958652436,0.158586915078,-0.00849930697531,-0.0270319264284,0.000159220662039,-0.0410141775443,-2.78680237986e-05,0.019097064731,-0.00260319926243,0.573936923701,0.81888528521,0.00201101453884,0.0,0.818842181856,-0.573877344325,-0.0119591715893,0.0,-0.00863928028777,0.00851067754164,-0.999926462898,0.0,0.661112519937,0.26012083661,0.303288181449,1.0,-0.00504,-0.006624,0.253
0.464552698827,0.544108811955,-0.124003081346,-1.36155560633,0.0792450740317,1.8961477382,0.158503906332,-0.00230434709461,-0.0283755378257,0.000760433762486,-0.0478302459011,0.000522946176747,0.0159931147701,-0.00400432047944,0.573957591309,0.818870857033,0.00198740597608,0.0,0.818827309746,-0.573897974878,-0.0119874161711,0.0,-0.00867574452366,0.00850777460137,-0.999926171889,0.0,0.661021249866,0.260004127299,0.303268599138,1.0,-0.00538,-0.00707085714286,0.27
0.464482648824,0.543622534963,-0.124007730582,-1.3623404794,0.0792025592255,1.89641262892,0.158397185528,-0.00405459830089,-0.0281218499272,-0.000191854099669,-0.0508638789277,-0.00527326867516,0.0108659944132,-0.0129663116766,0.573963074858,0.8188670782,0.00196057172814,0.0,0.818823114596,-0.573903506952,-0.0120091053988,0.0,-0.00870884973161,0.00849830812856,-0.999925964607,0.0,0.660927879673,0.259879443832,0.303262187109,1.0,-0.0057,-0.00749142857143,0.286
0.464399624295,0.543084023397,-0.124009210437,-1.36319921145,0.0791555922076,1.89671549077,0.158282755577,-0.00640684719952,-0.0343498787206,0.00158802617425,-0.048860435104,-0.00887426555735,0.0182857130878,-0.000814832003741,0.573973598171,0.818859731845,0.00194809305913,0.0,0.818815538049,-0.573914016735,-0.012023433204,0.0,-0.00872763541081,0.00849642566741,-0.999925816814,0.0,0.660829230064,0.259741805689,0.303260703838,1.0,-0.00604,-0.00793828571429,0.303
0.464329290172,0.542501478091,-0.1240223622,-1.36410268947,0.0791062913034,1.89704060324,0.158177107356,-0.00442772537429,-0.0349734916232,-0.000425669223543,-0.0497368613085,-0.00461652135657,0.0221637579815,-0.00335462297025,0.57398735514,0.818850101334,0.00194282907837,0.0,0.818805803835,-0.573927760564,-0.0120303017998,0.0,-0.00873613850345,0.00849620441508,-0.99992574444,0.0,0.660715771824,0.259598845685,0.303263898995,1.0,-0.0064,-0.00841142857143,0.321
0.46425012583,0.541906889743,-0.124020154012,-1.3650368451,0.0790501342929,1.89738937419,0.158037481914,-0.00537659040574,-0.0375506107844,-0.000590024115494,-0.0484860471048,-0.00321690016342,0.0223716308098,-0.00415216812967,0.573976821063,0.818857445704,0.00195943855112,0.0,0.818813378938,-0.573917170068,-0.0120199531676,0.0,-0.00871824057323,0.00850375273289,-0.999925836485,0.0,0.660618236369,0.259462677067,0.303277296071,1.0,-0.00672,-0.008832,0.337
0.464171316307,0.5412513821,-0.124020517043,-1.36603336097,0.0789864537656,1.89775834692,0.157904856423,-0.00659112449615,-0.0395160963074,-0.000329395981225,-0.059804514142,-0.00253452123237,0.0317795622661,-0.0123024643217,0.573971283716,0.818861274333,0.00198135503178,0.0,0.818817520169,-0.573911565867,-0.0120054208254,0.0,-0.00869381901012,0.00851329892379,-0.999925967886,0.0,0.660503232789,0.259315462874,0.303298409786,1.0,-0.00706,-0.00927885714286,0.354
0.464081801092,0.540550232941,-0.124023322592,-1.36710549234,0.0789301116113,1.8981384379,0.157767843537,-0.00238262459793,-0.0472654615095,-0.00133570930524,-0.0674038977019,-0.00368914219973,0.0198429083247,-0.0127420251908,0.573978607323,0.81885611083,0.00199373844884,0.0,0.818812423535,-0.57391874305,-0.0120099267747,0.0,-0.00869032538129,0.0085261030093,-0.99992588916,0.0,0.660376930222,0.259153333704,0.303316758296,1.0,-0.0074,-0.00972571428571,0.371
0.463985314286,0.539860388857,-0.124026488671,-1.36814136548,0.0788642655086,1.89853142994,0.157637973659,-0.00817606625644,-0.0441833001532,-0.000543378061241,-0.0641421669571,-0.00495826988174,0.0218240126934,-0.0110886563776,0.573993268835,0.818845741964,0.0020310346961,0.0,0.818802595883,-0.573933298852,-0.0119843375113,0.0,-0.00864781179534,0.00854211000651,-0.999926121125,0.0,0.66026350862,0.258989897575,0.303345375749,1.0,-0.00772,-0.0101462857143,0.387
0.463879084823,0.539100209255,-0.124026640624,-1.36931036356,0.0788090229377,1.89897243232,0.157502860122,-0.00877870379247,-0.0505191467312,0.000318186673531,-0.0695481256229,-0.00661902955075,0.0296372649251,-0.0167602707998,0.574019653002,0.818827158549,0.00206622612331,0.0,0.818784336946,-0.57395939894,-0.0119818546413,0.0,-0.00862530415014,0.00856977862469,-0.999926078779,0.0,0.660131765582,0.25881187639,0.303364312032,1.0,-0.00806,-0.0105931428571,0.404
0.463767993994,0.538328237042,-0.124029135681,-1.37049861194,0.0787344862772,1.89943414342,0.157360942272,-0.00316524025102,-0.0487764480446,0.000274219132834,-0.0702007257351,-0.00376129195592,0.0281393320745,-0.00670160089543,0.574041971716,0.818811422095,0.00210158413278,0.0,0.818769122315,-0.573981628454,-0.0119566484453,0.0,-0.00858413490534,0.00858449552269,-0.999926306817,0.0,0.660002634046,0.258625457051,0.303384125849,1.0,-0.0084,-0.01104,0.421
0.463673859632,0.537584590821,-0.124039269604,-1.37167158443,0.0786666581562,1.89988998777,0.15720096043,-0.00220960649548,-0.0545204069064,0.000305231683832,-0.0757403727706,-0.000611626301111,0.0307710429691,-0.0143459719827,0.574041878832,0.818811434785,0.00212191270968,0.0,0.81876944012,-0.573981492093,-0.0119414221163,0.0,-0.00855999915976,0.00859239909917,-0.999926445841,0.0,0.659871864987,0.258447932385,0.303390834267,1.0,-0.00872,-0.0114605714286,0.437
0.463563303215,0.536757780759,-0.12404779063,-1.37297281979,0.0785888896783,1.90036291826,0.15704876909,-0.00405341263778,-0.050545912686,-0.00169932330141,-0.0728512179645,-0.0120490422899,0.0260804243065,-0.0103364349568,0.574064564725,0.818795538624,0.00211857471151,0.0,0.818753509413,-0.574004197834,-0.0119423027141,0.0,-0.00856239825805,0.00859040868135,-0.999926442402,0.0,0.659721122376,0.258245943439,0.303396495093,1.0,-0.00906,-0.0119074285714,0.454
0.46344841798,0.535852993716,-0.124063370956,-1.37439653624,0.0785055396144,1.90089151645,0.156869822759,-0.00640556997491,-0.0508757626228,-0.000590484085842,-0.0810639145176,-0.00760177670456,0.0238367803364,-0.00881559378144,0.574079048957,0.818785370151,0.00212369401552,0.0,0.818743446763,-0.57401869852,-0.0119352014491,0.0,-0.00855349294277,0.00859067505228,-0.99992651633,0.0,0.659557847364,0.258026370916,0.303403797489,1.0,-0.00942,-0.0123805714286,0.472
0.463334776578,0.535004449931,-0.124055542638,-1.37572219196,0.0784341537756,1.90137612264,0.156720649243,-0.00405210957719,-0.058354604844,0.000728871337326,-0.0836646269904,-0.00452186960192,0.0271856814233,-0.00264528339349,0.574098059826,0.818772007719,0.0021363475462,0.0,0.818730110346,-0.574037515541,-0.0119450435678,0.0,-0.00855408835922,0.00860688410822,-0.999926371849,0.0,0.659400416174,0.257831079339,0.303413338763,1.0,-0.00974,-0.0128011428571,0.488
0.463213135,0.534113662723,-0.124069508883,-1.37720524289,0.0783530170247,1.90190295181,0.15653693744,-0.00276705710636,-0.0500113277345,-0.000236078778529,-0.0839811277733,-0.00374979602354,0.0346174537285,-0.0103244419802,0.574116567252,0.818759173928,0.00208067721184,0.0,0.818716484181,-0.574056184326,-0.0119817640206,0.0,-0.00861591947383,0.00858257920197,-0.999926049899,0.0,0.659223169327,0.257601031546,0.303381993848,1.0,-0.01008,-0.013248,0.505
0.463073523932,0.533185268373,-0.124062051405,-1.37869071819,0.078263522495,1.90245792767,0.156348160594,-0.0118751098768,-0.0552400141548,0.000879651432652,-0.0913109485398,-0.000497998492089,0.0306705376566,-0.0101234365443,0.574128389738,0.818750886787,0.00207951550568,0.0,0.818708128511,-0.57406795702,-0.0119886585094,0.0,-0.00862210757032,0.00858571075454,-0.999925969676,0.0,0.6590517856,0.257372369799,0.303377551863,1.0,-0.01042,-0.0136948571429,0.522
0.462939727325,0.532243630024,-0.124062139245,-1.38024281974,0.0781815889673,1.90304087023,0.156148842274,-0.0100395677551,-0.058488865589,-0.00177205717814,-0.0923389535482,-0.0102663043981,0.0378675491358,-0.0124210737291,0.574137756574,0.818744366893,0.00206035400271,0.0,0.818701234872,-0.574077280217,-0.0120129621451,0.0,-0.00865290925915,0.00858407477212,-0.999925717652,0.0,0.658870214816,0.257138556069,0.303353250976,1.0,-0.01076,-0.0141417142857,0.539
0.462822501148,0.531308244895,-0.124062876204,-1.38174197286,0.0780843993004,1.90358644283,0.155958353824,-0.00990837182149,-0.053212083041,-0.000593793023588,-0.0981766710029,-0.00522827253764,0.0323209030774,-0.015459582637,0.574133856003,0.818747152249,0.00204033707298,0.0,0.818703783953,-0.574073489575,-0.0120203830921,0.0,-0.00867051793653,0.00857190561322,-0.999925669514,0.0,0.658689690249,0.256916530047,0.3033462787,1.0,-0.01108,-0.0145622857143,0.555
0.462667361596,0.530212975263,-0.124062645146,-1.38347938928,0.0779847388805,1.90420367995,0.155733023084,-0.0117683642999,-0.0591216640382,0.000493379591275,-0.0986425085575,-0.00659800911651,0.0401042652578,-0.0184107412829,0.574143821086,0.818740208879,0.00202236845516,0.0,0.818696491056,-0.574083416507,-0.0120429782402,0.0,-0.00869922981489,0.00857027250627,-0.999925434135,0.0,0.658481266762,0.256648401299,0.303344535545,1.0,-0.01144,-0.0150354285714,0.573
0.462538721853,0.529229355709,-0.124070546229,-1.3850305267,0.0778763182174,1.90477453415,0.155519805201,-0.00776812997171,-0.0649375821935,-0.00161783243861,-0.104119476955,-0.00726700174958,0.0337935957541,-0.00636961672227,0.574135139378,0.818746315322,0.00201488956691,0.0,0.81870264277,-0.574074908581,-0.0120303349814,0.0,-0.00869326226645,0.00855679820953,-0.99992560143,0.0,0.658299237913,0.256409114015,0.30334876605,1.0,-0.01176,-0.015456,0.589
0.462400149463,0.528135496624,-0.124063736058,-1.38673609868,0.0777777261689,1.90543435348,0.155280250783,-0.0129626717443,-0.0653072759012,0.000676192243879,-0.102337883748,-0.0102684349516,0.0363866951466,-0.0203125593574,0.574113743406,0.818761209666,0.00205865972011,0.0,0.818718049378,-0.574053271124,-0.0120143428908,0.0,-0.00865526421283,0.00858322649569,-0.999925704552,0.0,0.658099946818,0.25616257926,0.303364149402,1.0,-0.0121,-0.0159028571429,0.606
0.462250792344,0.526988428031,-0.124071233937,-1.38849892204,0.0776602442369,1.9061092442,0.155042899014,-0.0113039688711,-0.0693260482351,-0.000297977125415,-0.1039552363,-0.0134574237983,0.0367313630896,-0.0125976239972,0.57411074104,0.818763208694,0.00210047914479,0.0,0.818720739275,-0.57405023853,-0.0119758768392,0.0,-0.00859979236638,0.00859535085216,-0.999926079025,0.0,0.657898197121,0.255892544278,0.303391187416,1.0,-0.01244,-0.0163497142857,0.623
0.462113373505,0.52589192038,-0.124074481283,-1.39020832597,0.0775549474079,1.90673278858,0.154809252184,-0.00658733150119,-0.0712993235362,-0.000530503716626,-0.106288534368,-0.00825238880314,0.0419164822381,-0.0212672712611,0.574098022924,0.818772107088,0.00210799211015,0.0,0.818729728096,-0.574037483265,-0.0119727624032,0.0,-0.00859306285798,0.00859958060037,-0.999926100512,0.0,0.65769216409,0.25563704095,0.303403220812,1.0,-0.01276,-0.0167702857143,0.639
0.461945188872,0.524659105114,-0.124077679062,-1.3921634891,0.0774374556083,1.90743052194,0.154543743965,-0.0127864317861,-0.0637834592156,0.00123711730881,-0.108526735496,-0.00210552102633,0.0465681311142,-0.0210345948671,0.574094025806,0.818774963183,0.00208712689858,0.0,0.818732246873,-0.574033508465,-0.0119910796213,0.0,-0.00862008096254,0.00859297071006,-0.999925924786,0.0,0.657454766916,0.255337057824,0.303400312598,1.0,-0.01312,-0.0172434285714,0.657
0.461786050462,0.523452309184,-0.124084429907,-1.39407343323,0.0773133070811,1.90813069335,0.154294966359,-0.0149558963216,-0.0743040241596,0.00130206612624,-0.113239769134,-0.00639202379067,0.0463186809768,-0.0119310897029,0.574095819779,0.818773727639,0.00207835056123,0.0,0.818730949685,-0.574035391567,-0.011989501937,0.0,-0.00862380845027,0.00858489815791,-0.999925961985,0.0,0.657212898229,0.255026256827,0.30340040654,1.0,-0.01348,-0.0177165714286,0.675
0.461653142526,0.522376798425,-0.124087702078,-1.39578354665,0.0772174327371,1.90879719629,0.15405408338,-0.0052984756934,-0.0690575595081,-0.000224893518143,-0.113340466455,-0.00855267684632,0.0380949106303,-0.0188226036376,0.574074389276,0.818788681922,0.00210637968208,0.0,0.818746245412,-0.574013822777,-0.0119776368839,0.0,-0.00859822800574,0.0086008106275,-0.999926045531,0.0,0.657024537555,0.254796690848,0.303400444415,1.0,-0.01376,-0.0180845714286,0.689
0.46149264988,0.521120653717,-0.124093353709,-1.3977742775,0.077088638497,1.90956493521,0.153779050592,-0.0121553760613,-0.0764144144133,0.00159562285485,-0.122103802182,-0.00219915498269,0.0435796344246,-0.0127519814307,0.57406172613,0.818797512019,0.00212504239053,0.0,0.818755368503,-0.574001133658,-0.0119621071826,0.0,-0.00857493195237,0.00860704347517,-0.999926191949,0.0,0.656775047824,0.254481160628,0.303398376392,1.0,-0.01412,-0.0185577142857,0.707
0.461307744387,0.519751891495,-0.124099877395,-1.39995080419,0.0769544700777,1.91035700289,0.153491486721,-0.010280470896,-0.076483824169,0.000592826948088,-0.123259256389,-0.00836825583061,0.038750180461,-0.0185768555734,0.574056729668,0.81880105325,0.00211026551064,0.0,0.818758765347,-0.573996247287,-0.0119640782712,0.0,-0.00858508069515,0.00859602352999,-0.999926199661,0.0,0.656526730702,0.254165912461,0.303396307438,1.0,-0.01446,-0.0190045714286,0.724
0.461153451385,0.518477717661,-0.124106341732,-1.40189086331,0.0768297249208,1.91104685825,0.153232292098,-0.00581663263183,-0.0768568327181,0.000489139972848,-0.126071596158,-0.00717783461334,0.0485372363617,-0.0184313467595,0.574044549378,0.818809548919,0.00212716468321,0.0,0.81876750581,-0.573984023352,-0.0119523750211,0.0,-0.00856592517694,0.00860301468978,-0.999926303816,0.0,0.656286725364,0.253874015475,0.30342726408,1.0,-0.01478,-0.0194251428571,0.74
0.460956501208,0.517036606801,-0.124106796594,-1.40415975979,0.0766772723196,1.91185417809,0.152918423182,-0.0167511563788,-0.0828098298824,0.00105798345205,-0.121800527532,-0.00710101463354,0.0503771397614,-0.0127462345766,0.574027890019,0.818821291699,0.00210253226084,0.0,0.818778969974,-0.573967510297,-0.0119600314371,0.0,-0.00858650849988,0.00858706613689,-0.999926264365,0.0,0.656006950322,0.253524357057,0.303428465623,1.0,-0.01514,-0.0198982857143,0.758
0.460770551612,0.515687749188,-0.124113018074,-1.40632813429,0.0765408911974,1.91268870479,0.15262295166,-0.0036200883528,-0.0787424926426,0.000260467460582,-0.127893705349,-0.0122134802402,0.0514937325288,-0.0145351017082,0.574020627936,0.818826367014,0.00210862222482,0.0,0.818784196506,-0.573960295868,-0.0119484400641,0.0,-0.00857359740143,0.00858532291658,-0.99992639012,0.0,0.655750805982,0.253193694491,0.303414965935,1.0,-0.01548,-0.0203451428571,0.775
0.460590786101,0.514373052154,-0.124118486185,-1.40841044141,0.0764183584772,1.91343759226,0.152342199653,-0.0118607797701,-0.0793984181289,-0.00106977058865,-0.13238634571,-0.00554779409858,0.0440498637012,-0.0216372165881,0.574018363099,0.818827992371,0.00209395233368,0.0,0.81878554609,-0.573958007428,-0.0119658733139,0.0,-0.00859631681923,0.00858329417274,-0.999926212477,0.0,0.655493799429,0.252873821236,0.303410612644,1.0,-0.0158,-0.0207657142857,0.791
0.460401697376,0.513052568388,-0.124116389845,-1.41055877267,0.0762813186456,1.91418463219,0.15204747664,-0.0132711199879,-0.0844129648847,0.00133659896367,-0.133862860984,-0.00507101081682,0.0474105520922,-0.0187171702292,0.574005914569,0.818836897965,0.00202273851529,0.0,0.818793445888,-0.57394578288,-0.0120115855136,0.0,-0.00867475419675,0.00855109080219,-0.999925810991,0.0,0.655221516615,0.252542138139,0.303378123386,1.0,-0.01612,-0.0211862857143,0.807
0.460197490935,0.511544382024,-0.124127975583,-1.41298822191,0.0761415611925,1.9150732895,0.151696022364,-0.00992295547731,-0.0848286591941,-0.000327055233033,-0.135517135441,-0.0100551172873,0.0578294145784,-0.0262368200196,0.573983178646,0.818852900781,0.001996100217,0.0,0.818809008109,-0.573923072014,-0.0120358859331,0.0,-0.00871017983912,0.00854298538339,-0.999925572314,0.0,0.654921717727,0.252170836408,0.303355616469,1.0,-0.01648,-0.0216594285714,0.825
0.460020331241,0.510243716263,-0.124133391389,-1.41503576787,0.0760159411071,1.91585582623,0.151408589402,-0.0109216417069,-0.0919556470835,-0.0037212920649,-0.13608402922,-0.012796769412,0.0531881291106,-0.0127155659093,0.573969894634,0.818862145428,0.00202329927661,0.0,0.818818636198,-0.573909701539,-0.0120184189829,0.0,-0.0086804043937,0.00855509054357,-0.999925727744,0.0,0.654676467315,0.25185856658,0.303359661043,1.0,-0.01678,-0.0220537142857,0.84
0.459814376789,0.508731146586,-0.124140047064,-1.41740628339,0.0758617306164,1.9167052275,0.151080864629,-0.0174318644941,-0.0900225965029,-0.000718615314437,-0.145411775925,-0.00830153031185,0.0446413784559,-0.0177620887896,0.573962671397,0.818867291325,0.00198945765983,0.0,0.818823324147,-0.573902607795,-0.0120377531575,0.0,-0.00871573518752,0.00853839968479,-0.999925563075,0.0,0.654360187435,0.251465947595,0.303352515658,1.0,-0.01714,-0.0225268571429,0.858
0.459587750627,0.507118875351,-0.124139060287,-1.41994616046,0.0757019998827,1.91762404398,0.150725558146,-0.0182152574509,-0.0965891848665,-0.0011106074535,-0.142911182067,-0.00329475719201,0.0547511272956,-0.0167306054397,0.573938682018,0.818884077579,0.00200091807033,0.0,0.818840255512,-0.573878567911,-0.0120321297886,0.0,-0.00870480310093,0.00854430148096,-0.99992560789,0.0,0.654064756572,0.251099998532,0.303362034172,1.0,-0.01748,-0.0229737142857,0.875
0.459388625817,0.505643791149,-0.124141619455,-1.42225170288,0.0755523309651,1.91850236954,0.150418756114,-0.0147002307444,-0.0928975419051,0.0003072147097,-0.143838417045,-0.00816350196483,0.0585088681723,-0.0240402940099,0.573931135582,0.818889283217,0.00203478358842,0.0,0.818845986944,-0.573870960927,-0.0120048644672,0.0,-0.00866311843736,0.00855630460722,-0.999925867267,0.0,0.653785035761,0.250749561286,0.303372060428,1.0,-0.0178,-0.0233942857143,0.891
0.459173453401,0.503991526198,-0.124152668231,-1.42472982647,0.0754028283167,1.91944715694,0.150064345701,-0.0109729844233,-0.0952308846714,-0.00141300564238,-0.14396210356,-0.012559475107,0.0578704921887,-0.0177144963488,0.573912397427,0.818902160506,0.00213506440803,0.0,0.818860210436,-0.573851845542,-0.0119483067413,0.0,-0.00855944834988,0.00860576634525,-0.999926335602,0.0,0.653486815395,0.250370107152,0.303429146932,1.0,-0.01814,-0.0238411428571,0.908
0.458935514202,0.502313861264,-0.124161427181,-1.42720948548,0.0752403798827,1.92037575163,0.149714705418,-0.0110089840416,-0.0976459368584,-0.00299375866403,-0.145880228304,-0.00281382784116,0.0514503944462,-0.0260572137286,0.57391034943,0.8189033245,0.00223670325546,0.0,0.818862820375,-0.573849510929,-0.0118813768179,0.0,-0.00844633052463,0.00865056480756,-0.999926910944,0.0,0.653190453581,0.249974227119,0.303501058229,1.0,-0.01848,-0.024288,0.925
0.458715729679,0.500700878619,-0.124152250309,-1.42963303479,0.0750944095288,1.9212277183,0.149376450756,-0.0184032884858,-0.102150015426,0.00120184694277,-0.149225983074,-0.00943218319165,0.0547985157528,-0.0288552989567,0.573890891344,0.818916844157,0.00227905456223,0.0,0.818876724623,-0.57382971613,-0.0118791269829,0.0,-0.00842039006628,0.00868375469695,-0.999926842042,0.0,0.652880040755,0.249604131265,0.303546750089,1.0,-0.0188,-0.0247085714286,0.941
0.458472955158,0.499000258449,-0.124152276604,-1.43225490405,0.0749213671801,1.92218436797,0.149011722907,-0.0162741863807,-0.0994524142032,-0.000744043301885,-0.154242759478,-0.0133911951723,0.058019667609,-0.0227174223874,0.573880443279,0.818924104787,0.00230093936536,0.0,0.818884355086,-0.573819271167,-0.0118576529627,0.0,-0.00839035602808,0.00868924568168,-0.999927046807,0.0,0.652535449806,0.249165763379,0.303568449366,1.0,-0.01916,-0.0251817142857,0.959
0.458198426812,0.497227613266,-0.124155152439,-1.43505816485,0.0747474109918,1.92322162115,0.148594478593,-0.0165299600669,-0.102425002785,-0.00014208573598,-0.156715269876,-0.0148111818234,0.0518399029941,-0.0297028888144,0.573858091425,0.818939750727,0.00230705123345,0.0,0.818900000468,-0.573796815218,-0.0118638518647,0.0,-0.0083921628136,0.00869757909954,-0.999926959193,0.0,0.652207876355,0.248746536387,0.303559593857,1.0,-0.0195,-0.0256285714286,0.976
0.457944299899,0.495647967556,-0.124154730537,-1.43760063049,0.0745880695391,1.92409745918,0.148224369799,-0.0195927935544,-0.10619539072,0.000567245678305,-0.159961608422,-0.00736772628664,0.0521901888504,-0.0187337591554,0.573847923896,0.818947079789,0.00223330401987,0.0,0.818906230185,-0.57378679863,-0.0119181702826,0.0,-0.00847907363385,0.00866825073976,-0.999926480667,0.0,0.651880418191,0.248334266841,0.303526124907,1.0,-0.01982,-0.0260491428571,0.992
0.45766551489,0.493944332738,-0.124164963514,-1.44037556916,0.0744210480402,1.92507546221,0.14783027727,-0.0190266043441,-0.108262790063,0.00118687306601,-0.172141661957,-0.0190461846722,0.0574825042376,-0.032822070841,0.573855397248,0.818942055424,0.00215402164686,0.0,0.818900034278,-0.573794454134,-0.0119751895689,0.0,-0.00857118570646,0.00863612183973,-0.999925973348,0.0,0.651527983856,0.247879540359,0.303477025519,1.0,-0.0243731428571,-0.0320332734694,1.009
0.457357414224,0.491540207446,-0.124248631653,-1.44403075081,0.0742172394658,1.92645469397,0.147300326167,-0.0183064798417,-0.155348521553,-0.00923787122549,-0.242117323708,-0.00938739646007,0.0956544225927,-0.0405783510401,0.573862754602,0.818936624311,0.00225635644439,0.0,0.818896107311,-0.573801568209,-0.0119026322081,0.0,-0.0084529633204,0.0086783659004,-0.999926613995,0.0,0.651084403842,0.247288763312,0.303532452125,1.0,-0.0337085714286,-0.0443026938775,1.026
0.456986938098,0.488877977961,-0.124254163396,-1.44831806832,0.0739810121873,1.92804546252,0.146663305462,-0.0260014791789,-0.187205155731,-0.00046489703357,-0.30522839907,-0.0174278362029,0.106325827204,-0.0483030107412,0.573799237514,0.818981175706,0.00223959136163,0.0,0.818940102455,-0.573737780606,-0.0119505061359,0.0,-0.00850246508697,0.00869144982518,-0.999926080662,0.0,0.650532937478,0.246641071263,0.30348133368,1.0,-0.0419457142857,-0.0551286530612,1.041
0.456368709317,0.484770631684,-0.124341506439,-1.45475931785,0.073600534746,1.93046680431,0.145695031195,-0.0346882795761,-0.247706364398,-0.0121971863529,-0.383798775668,-0.0234375505667,0.137818378226,-0.0639105421597,0.573792436117,0.818985766339,0.00230253978884,0.0,0.818945657219,-0.573730875276,-0.011901267927,0.0,-0.00842609309362,0.00871468026198,-0.999926524952,0.0,0.649741775195,0.245581530777,0.303481029679,1.0,-0.0518302857143,-0.0681198040816,1.059
0.455594221449,0.479802722937,-0.124474354479,-1.4626332527,0.0731249528346,1.9332019799,0.144496608261,-0.0479820534403,-0.298171068825,-0.00916965054322,-0.464994224199,-0.0322129409314,0.158216884555,-0.0651992825264,0.57379809262,0.818982237628,0.00214248865876,0.0,0.818940030554,-0.573737168775,-0.0119847579685,0.0,-0.00858624383306,0.00863156717492,-0.999925883486,0.0,0.648729197489,0.244242864825,0.303420015324,1.0,-0.0617148571429,-0.081110955102,1.077
0.454769889253,0.47458121055,-0.124592161855,-1.4707116687,0.0726359219615,1.93610320196,0.143340598622,-0.0505672639259,-0.340791103218,-0.00552973318161,-0.522135643885,-0.0302452615368,0.194065920562,-0.07044327657,0.573870896445,0.818931158626,0.00216761296867,0.0,0.818889358534,-0.573809939565,-0.011963220165,0.0,-0.00855342056395,0.00864054543121,-0.999926087254,0.0,0.647704445572,0.242870018721,0.303444945278,1.0,-0.0705011428571,-0.092658644898,1.093
0.453748052542,0.468333711695,-0.124671458129,-1.48026529385,0.0720748601867,1.93961602936,0.141871706508,-0.0610249546796,-0.393026994904,-0.00693809720668,-0.587657368319,-0.0372054359952,0.221081292093,-0.0970972742403,0.573868279406,0.818932484211,0.0023518282763,0.0,0.818892876661,-0.573806368368,-0.0118934887394,0.0,-0.00839063178267,0.00875135983237,-0.999926502799,0.0,0.646493143725,0.241262261431,0.303521274747,1.0,-0.0798365714286,-0.104928065306,1.11
0.452560209578,0.461342195808,-0.124706525155,-1.49101272382,0.0713929684542,1.94347923917,0.140152818913,-0.0753244101938,-0.424491298426,0.000276794201462,-0.669222329274,-0.0469448146462,0.22148022328,-0.100676917643,0.57377926014,0.818994592798,0.00244223295015,0.0,0.818955946773,-0.573716781089,-0.0118726258064,0.0,-0.00832262654725,0.0088125173173,-0.999926534014,0.0,0.645092236052,0.239449408653,0.303561627602,1.0,-0.089172,-0.117197485714,1.127
0.451466727343,0.455091166324,-0.124800642895,-1.50084608379,0.0707488879183,1.94676898361,0.138699472119,-0.0807265854301,-0.456795128103,-0.00898553895599,-0.731744809066,-0.0520933488038,0.240627777577,-0.110128212847,0.57383624634,0.81895545457,0.00216164724431,0.0,0.818912940445,-0.573774677071,-0.0120400508314,0.0,-0.00862013281642,0.00867938558096,-0.999925177989,0.0,0.643660964474,0.237599509502,0.303465270834,1.0,-0.0974091428571,-0.128023444898,1.142
0.449741940133,0.445084480818,-0.124948294938,-1.51573049206,0.0697359103892,1.95223745175,0.136356892945,-0.0902545967328,-0.514333285974,-0.00415330584219,-0.763371728991,-0.0536681756577,0.27930885033,-0.115522431867,0.573832087302,0.818957011437,0.00262600513288,0.0,0.818921396725,-0.573769611288,-0.0117015404479,0.0,-0.00807649214756,0.00886538185714,-0.999928085054,0.0,0.641831854676,0.235122531927,0.303725246788,1.0,-0.107842857143,-0.141736326531,1.161
0.448080311502,0.436019568343,-0.124986428016,-1.52966453677,0.0688261564491,1.95699182608,0.134113514914,-0.10092721238,-0.55040208477,-0.00130981897612,-0.830900509084,-0.0544494855901,0.280264838912,-0.136907998872,0.57375104987,0.819014067824,0.00253700238762,0.0,0.818976618978,-0.57368817385,-0.0118289328755,0.0,-0.00823277267193,0.00886477896836,-0.999926815896,0.0,0.639900916752,0.232694157526,0.303703152278,1.0,-0.117178285714,-0.154005746939,1.178
0.446479551244,0.427364316467,-0.125062494903,-1.54260900783,0.0679324583967,1.96163544165,0.131996743293,-0.108574524675,-0.583958433145,-0.00683156732879,-0.904570938214,-0.0632716959064,0.307339779224,-0.141773117195,0.57369847816,0.819050014039,0.00280669934061,0.0,0.819016415016,-0.573635022396,-0.0116498890958,0.0,-0.0079319735034,0.00898242941655,-0.999928197301,0.0,0.638152278222,0.230393727684,0.303843844739,1.0,-0.125415428571,-0.164831706122,1.193
0.444323528491,0.416419828784,-0.125168540726,-1.55914095724,0.0667490235978,1.9673443474,0.129257370984,-0.121813709292,-0.626036269248,-0.00921626566533,-0.918770939808,-0.0781749086469,0.332293934078,-0.151634620339,0.573666788999,0.819072028904,0.00285894538995,0.0,0.81903941885,-0.573603516702,-0.0115837342165,0.0,-0.00784816265872,0.00898696561024,-0.999928817863,0.0,0.635857165586,0.227367122828,0.303904308139,1.0,-0.1353,-0.177822857143,1.211
0.442112818463,0.405439672845,-0.12527629476,-1.57579016576,0.0656070334734,1.9730760947,0.126497318886,-0.131857181021,-0.65325722041,-0.00711182873258,-1.00600168047,-0.0719941270436,0.343326528378,-0.161477237934,0.573661683824,0.819075481634,0.00289392438093,0.0,0.819043100123,-0.573598038622,-0.011594702688,0.0,-0.00783713822898,0.00902185916269,-0.999928590111,0.0,0.633497870874,0.224311233477,0.303906166049,1.0,-0.144635428571,-0.190092277551,1.228
0.439784366121,0.394464706423,-0.125369826686,-1.59213209135,0.0644962428414,1.97865686359,0.123713900742,-0.145513402372,-0.705111246861,-0.00522978523892,-1.03931164493,-0.0702002316247,0.3617860478,-0.175793335624,0.573698479091,0.819049038298,0.00307812494173,0.0,0.819018634337,-0.573633753529,-0.0115559647894,0.0,-0.00769933371923,0.00915085729256,-0.999928488479,0.0,0.631161697684,0.221232253363,0.304006378531,1.0,-0.153421714286,-0.201639967347,1.244
0.437122864065,0.382420694778,-0.125509597267,-1.61036006132,0.0630861621172,1.98469168967,0.120479730231,-0.162102865206,-0.727299528966,-0.0062911791763,-1.07140581146,-0.0785625949657,0.353637992349,-0.193804585027,0.573631299764,0.819096853141,0.00286775296185,0.0,0.819064165264,-0.573567782954,-0.0116033805006,0.0,-0.00785959306701,0.00900510930038,-0.99992856485,0.0,0.628484111004,0.217712533716,0.303936202605,1.0,-0.162757142857,-0.213909387755,1.261
0.434739379478,0.371928552277,-0.125627075839,-1.62594342026,0.0619350716713,1.98990883269,0.117693284615,-0.180556378579,-0.741818301655,-0.0104948382922,-1.12785004721,-0.0810576690207,0.376803817904,-0.195065309866,0.573640337074,0.819090268757,0.002939763701,0.0,0.819058561894,-0.573576638006,-0.0115611168509,0.0,-0.00778356838623,0.00903993564335,-0.999928845282,0.0,0.62618386342,0.214665318256,0.303981456282,1.0,-0.170445142857,-0.224013616327,1.275
0.431206032623,0.357161496463,-0.125832141502,-1.64780139953,0.0602270950385,1.99711880475,0.113780286718,-0.193869834334,-0.777461086254,-0.014250406263,-1.18051623009,-0.08609481291,0.377767213444,-0.217143128299,0.573770791457,0.818998858307,0.00294887505002,0.0,0.818967873475,-0.573707750117,-0.0114798332759,0.0,-0.0077103263239,0.00900200026979,-0.999929754962,0.0,0.622913829445,0.21025298572,0.304022468091,1.0,-0.180878857143,-0.237726497959,1.294
0.427731688571,0.343361794323,-0.126029418876,-1.66807878521,0.058738789877,2.00368626042,0.109924532314,-0.208697032911,-0.833338085739,-0.0126184926985,-1.19996341129,-0.0918578706786,0.403127790631,-0.23176434879,0.573871394016,0.818928129694,0.00301470176365,0.0,0.818897497739,-0.573807548534,-0.0115122692381,0.0,-0.0076980106977,0.00907546845754,-0.999929185744,0.0,0.619816363871,0.20606950988,0.304065953051,1.0,-0.190214285714,-0.249995918367,1.311
0.424096767374,0.329145296923,-0.126149007648,-1.68894690076,0.0571158134135,2.01036719352,0.105904183716,-0.215498702789,-0.844435988572,-0.00957570966176,-1.21641730944,-0.0942438614622,0.392613567421,-0.246638130886,0.573849744816,0.818943324405,0.0030081037691,0.0,0.818912243171,-0.573785494855,-0.0115624729302,0.0,-0.00774315278972,0.00909867032325,-0.999928626345,0.0,0.616532003842,0.201789254733,0.304060308057,1.0,-0.199549714286,-0.262265338775,1.328
0.42069099464,0.316115150367,-0.126236492737,-1.70792408954,0.0554896885486,2.01642928386,0.102197715534,-0.236817549456,-0.857480601953,-0.00623455021601,-1.28371350118,-0.108560405186,0.401070959625,-0.254960873892,0.573769197287,0.818999763463,0.00300709041435,0.0,0.818969314815,-0.573705720909,-0.0114784183729,0.0,-0.00767578474101,0.00904885189064,-0.999929597826,0.0,0.613496661274,0.197854378888,0.304073266899,1.0,-0.207786857143,-0.273091297959,1.343
0.416046894592,0.299067427882,-0.126354745642,-1.73254101964,0.0534280321937,2.02409507972,0.0971145378545,-0.254825264864,-0.89771600038,-0.00936423823826,-1.31273704713,-0.120549228025,0.398639167368,-0.272916163132,0.573597642492,0.819119882038,0.0030183239787,0.0,0.819089580807,-0.573534155976,-0.0114707210955,0.0,-0.00766493138871,0.00905203058013,-0.99992965231,0.0,0.609465285503,0.192649487463,0.304099391785,1.0,-0.218220571429,-0.286804179592,1.362
0.411528869659,0.283289581772,-0.126520999073,-1.75509416623,0.051600053972,2.03097152041,0.0924225207992,-0.273135835311,-0.921557272746,-0.00978748522166,-1.34878284888,-0.11967351659,0.400383798793,-0.280925894264,0.573648481777,0.819084009019,0.0030906998057,0.0,0.819053981512,-0.573583977424,-0.011521419742,0.0,-0.00766438234744,0.00914087091454,-0.99992884833,0.0,0.605703976707,0.187735426199,0.304145041072,1.0,-0.227556,-0.2990736,1.379
0.406948526887,0.267992674184,-0.126693491388,-1.77681468321,0.0497475521962,2.03748809999,0.0876781304703,-0.286296705887,-0.970702912224,-0.0109024352662,-1.3642861085,-0.109454875506,0.409695997748,-0.295391865539,0.573634549858,0.819093629229,0.00312676620353,0.0,0.819063819837,-0.573569636829,-0.0115359283469,0.0,-0.00765573465703,0.00917860485147,-0.999928568919,0.0,0.602018554201,0.182884636329,0.304180567127,1.0,-0.236342285714,-0.310621289796,1.395
0.401976272204,0.252290986217,-0.126913869645,-1.79890846873,0.0477341779151,2.04402758961,0.0828068235803,-0.314714101866,-1.00846106917,-0.0212815181821,-1.3933386096,-0.130354221882,0.422723983658,-0.310916270974,0.573784135298,0.81898876095,0.00314998714962,0.0,0.818959799671,-0.573719790519,-0.0114540556271,0.0,-0.00757367867508,0.00915204445391,-0.999929437247,0.0,0.598230293912,0.177764106882,0.30423284116,1.0,-0.245128571429,-0.322168979592,1.411
0.396108203399,0.234211173781,-0.127090434203,-1.82419726944,0.0454673257217,2.05131082894,0.0769447088695,-0.332319173376,-1.03929359652,-0.0117454116296,-1.4061838085,-0.139187626826,0.43327072023,-0.333029716598,0.573765530146,0.819001737573,0.00316499117306,0.0,0.818972576491,-0.573700666149,-0.0114983266821,0.0,-0.00760153834067,0.00918956140766,-0.999928881759,0.0,0.593753522479,0.171904483981,0.304257421585,1.0,-0.255013142857,-0.335160130612,1.429
0.390656037019,0.217849686401,-0.127211640795,-1.8470326845,0.043381664293,2.05776384574,0.0714625348988,-0.352022122566,-1.0440080283,-0.0107570469742,-1.42069013301,-0.142783072317,0.413974050016,-0.358585739019,0.573624720466,0.819100557597,0.0031150468238,0.0,0.81907014198,-0.57355930259,-0.011600682306,0.0,-0.00771560981096,0.00920605723437,-0.999927856335,0.0,0.589599530556,0.166597801848,0.304212821661,1.0,-0.263799428571,-0.346707820408,1.445
0.384020674906,0.198872539144,-0.127415912278,-1.87308704103,0.0408841614108,2.06489681503,0.064998741491,-0.371595260103,-1.05713294393,-0.00901310227064,-1.4396205558,-0.130650062515,0.38511119063,-0.36507428937,0.57357980284,0.819132104034,0.00309076301073,0.0,0.819101207261,-0.573514272256,-0.0116335155052,0.0,-0.00775693867937,0.00920457445983,-0.999927550231,0.0,0.584778081492,0.160316343698,0.304238654738,1.0,-0.273684,-0.359698971429,1.463
0.377628034524,0.181579495068,-0.127674773891,-1.89657574043,0.038625640254,2.07120442766,0.0588874948424,-0.40683609056,-1.07631212943,-0.0161642652556,-1.43958419063,-0.126509843875,0.388527136558,-0.382751962004,0.573673603545,0.819066116792,0.00316856737841,0.0,0.819035872914,-0.573607379586,-0.0116430178671,0.0,-0.00771903641658,0.00927464093022,-0.999927196106,0.0,0.580103640209,0.154071551475,0.304285969116,1.0,-0.283019428571,-0.371968391837,1.48
0.370852688751,0.163968594756,-0.1279391569,-1.92041091867,0.0362206517913,2.07741324047,0.0525381731692,-0.432599015087,-1.09156259644,-0.0110542045274,-1.49706336913,-0.15680691394,0.376453045341,-0.40270106643,0.573731756557,0.819025814201,0.00305517461153,0.0,0.818994044423,-0.573665839,-0.0117050102289,0.0,-0.00783420705888,0.00921788336346,-0.999926825236,0.0,0.57578997781,0.148379352558,0.304246844682,1.0,-0.291256571429,-0.38279435102,1.495
0.362885061157,0.14375712642,-0.128176160105,-1.94733149804,0.0333872396872,2.08425037576,0.0450233238641,-0.457613933066,-1.11582020256,-0.012785690224,-1.50187506939,-0.170330553971,0.362273822501,-0.426237849685,0.573642047158,0.819088633863,0.00305916829443,0.0,0.819057197007,-0.573576459138,-0.0116662099551,0.0,-0.00780114325247,0.00919803946041,-0.999927266472,0.0,0.570487443885,0.141469624788,0.304278730454,1.0,-0.301141142857,-0.395785502041,1.513
0.354807514406,0.124243139754,-0.128464860364,-1.97296957769,0.0307124470506,2.0905521398,0.0374600140659,-0.487111892059,-1.13765285,-0.02026354413,-1.5127598469,-0.168972738622,0.372160928706,-0.454000801686,0.573619225757,0.819104222518,0.00316281462133,0.0,0.819073844563,-0.573552956618,-0.0116528969689,0.0,-0.00773104428104,0.00927508304274,-0.999927099237,0.0,0.565335675222,0.134685268093,0.304334818029,1.0,-0.310476571429,-0.408054922449,1.53
0.346647956443,0.105478412181,-0.128856592137,-1.99732405929,0.0280102918553,2.09632666664,0.0300448686378,-0.521392651997,-1.16223102526,-0.018750758918,-1.53191822697,-0.180467056052,0.34359491986,-0.48435723193,0.573776064009,0.818994163856,0.00321478475744,0.0,0.818964968516,-0.573710220968,-0.0115632868163,0.0,-0.00762605636918,0.00926771172627,-0.999927973798,0.0,0.560356878153,0.1279832134,0.304397082035,1.0,-0.319262857143,-0.419602612245,1.546
0.337611140864,0.0853244029393,-0.129146675103,-2.02335528652,0.0251972659132,2.10223362319,0.0217150437912,-0.545379201491,-1.18867391308,-0.0194951732955,-1.55736866106,-0.16116180736,0.333823536043,-0.498006447732,0.573732227136,0.819024783437,0.00323767861511,0.0,0.818994932146,-0.573665159111,-0.0116761827412,0.0,-0.00770588798534,0.00935082473863,-0.999926587989,0.0,0.55485928622,0.120844974142,0.304379508919,1.0,-0.328598285714,-0.431872032653,1.563
0.328047421933,0.0649488073016,-0.129481113136,-2.04929270404,0.0221880437798,2.10789216989,0.0129846222924,-0.571058389584,-1.18686504436,-0.0233154772499,-1.54621454318,-0.190482622242,0.318997650051,-0.518291336541,0.573690608129,0.819054153447,0.00318225805514,0.0,0.819023535349,-0.573623673465,-0.011707975314,0.0,-0.00776419673877,0.0093232792226,-0.999926394148,0.0,0.548929061194,0.113051039203,0.304355131887,1.0,-0.32998,-0.433688,1.581
0.318514871222,0.0458786347337,-0.129854640699,-2.07329261014,0.0193653736676,2.11275342884,0.00460658743701,-0.602414928902,-1.18197342475,-0.0233621088147,-1.49565829362,-0.174988411781,0.291964786576,-0.517718648303,0.573911729741,0.818899342161,0.00315289954567,0.0,0.818867866804,-0.573844296404,-0.0117850371865,0.0,-0.00784163675377,0.00934555913295,-0.99992558186,0.0,0.543973217862,0.106423042732,0.304367404668,1.0,-0.32998,-0.433688,1.596
0.307568287336,0.0245695300087,-0.13010075965,-2.09960896021,0.0161769303163,2.117895794,-0.00510203380737,-0.61881762491,-1.17282633622,-0.0158269186577,-1.43635380505,-0.201396923325,0.282573794298,-0.542234861019,0.573904261991,0.818904309198,0.00322138885672,0.0,0.81887351219,-0.573836337749,-0.0117802976936,0.0,-0.00779853670691,0.00939885401816,-0.999925419403,0.0,0.538016831856,0.0986254623548,0.304419864065,1.0,-0.32998,-0.433688,1.614
0.29684829949,0.00468349655998,-0.130415370009,-2.1237412832,0.0131894402528,2.12233400938,-0.0145402598099,-0.636606012687,-1.16188832445,-0.0270867444504,-1.41771192259,-0.170490916911,0.243864884784,-0.560090820278,0.573997757747,0.81883825825,0.00335079518132,0.0,0.818809015924,-0.57392922448,-0.0117382976126,0.0,-0.0076887959253,0.00948160036459,-0.99992548806,0.0,0.532436573037,0.0912054617701,0.304507232957,1.0,-0.32998,-0.433688,1.631
0.286563297147,-0.0138724857924,-0.130579281159,-2.14593144504,0.0104305825086,2.12628490334,-0.0236896810309,-0.64323969438,-1.15448540758,-0.0117748508557,-1.38515464699,-0.161955210699,0.232646445088,-0.572270830355,0.573886014345,0.818915491879,0.00360646659501,0.0,0.81888951179,-0.57381659497,-0.0116288313737,0.0,-0.00745372329026,0.00962710670948,-0.999925877666,0.0,0.527186507765,0.0843622867425,0.304612049949,1.0,-0.32998,-0.433688,1.647
0.275242918486,-0.0333668987524,-0.130854213103,-2.16899679473,0.00731761598706,2.13002275966,-0.0335988587908,-0.67286077798,-1.14557020922,-0.0125409167813,-1.34830437187,-0.181499430309,0.219096528373,-0.58482815021,0.573880030532,0.818919492934,0.00364986995561,0.0,0.818894747563,-0.573811353497,-0.0115182426204,0.0,-0.00733831787226,0.00959913357569,-0.999927000198,0.0,0.521592902228,0.0769764039704,0.3046836125,1.0,-0.32998,-0.433688,1.664
0.263519303701,-0.0526914116742,-0.131164834918,-2.19154452344,0.00438574463137,2.13341921806,-0.043856420943,-0.694187840938,-1.16139377558,-0.0113547139553,-1.30818916135,-0.179565863784,0.21246075552,-0.603156154531,0.573971380834,0.818854712373,0.00381587587422,0.0,0.818831684159,-0.573901631475,-0.0115037953745,0.0,-0.00723013886543,0.00972759667094,-0.99992654678,0.0,0.515994946119,0.069566386849,0.304754968358,1.0,-0.32998,-0.433688,1.681
0.252305343395,-0.0704578333535,-0.131361666173,-2.21227621083,0.00157135289602,2.13622922884,-0.0537559541736,-0.70887735465,-1.12185844221,-0.0145842222902,-1.27448034656,-0.176595071482,0.158185162378,-0.616913804532,0.573853748225,0.818937681294,0.00370090614014,0.0,0.818912392676,-0.573783341981,-0.0116583226902,0.0,-0.00742406439449,0.00972107723694,-0.999925189164,0.0,0.510688505391,0.0627040442885,0.304689559199,1.0,-0.32998,-0.433688,1.697
0.239165138895,-0.0903378522561,-0.131724454649,-2.235076342,-0.00159691541217,2.13910302588,-0.0652357078765,-0.731929635321,-1.1070613371,-0.00922306277957,-1.26218860524,-0.170447036561,0.133541154555,-0.644268564105,0.573931795046,0.818883097494,0.00367616312285,0.0,0.818856932842,-0.573860734044,-0.0117442905336,0.0,-0.0075077398891,0.00975086114116,-0.999924274407,0.0,0.504740043002,0.0548394667019,0.304655299111,1.0,-0.32998,-0.433688,1.715
0.226589743149,-0.108936637387,-0.131919774712,-2.25597812821,-0.00459624162249,2.14145033288,-0.0763484597352,-0.75301231095,-1.08159309094,-0.0133678667352,-1.23497426445,-0.177634517861,0.129992002193,-0.656584116273,0.573748070883,0.81901172892,0.00369945266452,0.0,0.81898583605,-0.573676919775,-0.0117362246344,0.0,-0.00748995922432,0.00976362355682,-0.999924283216,0.0,0.499129936711,0.0475924757919,0.304676039348,1.0,-0.32998,-0.433688,1.732
0.214987507121,-0.125140529149,-0.132272053007,-2.27404818985,-0.00723727721837,2.14323576516,-0.0864270177313,-0.768530333664,-1.06967785813,-0.0148824827697,-1.20628512159,-0.168113828451,0.100392786942,-0.676784135076,0.57387671704,0.818921905397,0.00362951802365,0.0,0.818894463485,-0.573804956423,-0.0118522807707,0.0,-0.00762360369865,0.00977412837507,-0.999923170589,0.0,0.493830622745,0.0405786695097,0.304634446242,1.0,-0.32998,-0.433688,1.748
0.200865141146,-0.144468428781,-0.132537811128,-2.29521082167,-0.0103578858387,2.14505045545,-0.0989402251077,-0.794808314624,-1.08375741448,-0.0149331993759,-1.16125823495,-0.161726916036,0.113163873995,-0.699169169901,0.573730723156,0.819023997174,0.00367372576422,0.0,0.818996795364,-0.573658398772,-0.0118759253399,0.0,-0.00761935089868,0.0098225419757,-0.999922728595,0.0,0.488205703155,0.0332820387922,0.30464855404,1.0,-0.32998,-0.433688,1.765
0.186989235288,-0.16242179982,-0.132967962497,-2.31472230167,-0.0133515035283,2.14637875567,-0.111056717915,-0.822730149688,-1.05040685,-0.0179393021305,-1.13109088047,-0.17284600652,0.0667206073586,-0.71277269079,0.573861816123,0.818932756536,0.00353598214568,0.0,0.818902778933,-0.573788730773,-0.0120614259079,0.0,-0.0078487411717,0.0098174063974,-0.999921004777,0.0,0.482544977985,0.0258207494283,0.304578909761,1.0,-0.32998,-0.433688,1.782
0.173710988621,-0.179177147448,-0.133225354628,-2.33243875487,-0.0160354988585,2.14742613551,-0.122806523064,-0.851222915916,-1.03913526876,-0.0109321580725,-1.10019354407,-0.168220347383,0.0466401241013,-0.742935581389,0.57379261511,0.818980678516,0.00366469152561,0.0,0.818952119344,-0.573718723681,-0.0120415621942,0.0,-0.00775945402495,0.00991075716583,-0.999920780745,0.0,0.477287773549,0.0189529576513,0.304628818937,1.0,-0.32998,-0.433688,1.798
0.15909064577,-0.196868468413,-0.133676776013,-2.35076221325,-0.0189544579802,2.14831744537,-0.135646089461,-0.854129684765,-1.03427161483,-0.0115845035405,-1.07226473389,-0.163422574733,0.0489078630286,-0.764487698079,0.573929804386,0.818883550453,0.00388037845272,0.0,0.818858516015,-0.57385604756,-0.0118623071078,0.0,-0.00748721367116,0.00998580479701,-0.999922109634,0.0,0.471724185903,0.0115009066806,0.304735969024,1.0,-0.32998,-0.433688,1.815
0.144219031504,-0.214136760073,-0.133996358301,-2.3686256826,-0.021700981988,2.14877883544,-0.14891288353,-0.901079152846,-1.01849203626,-0.0288890404074,-1.02554987487,-0.155714593448,0.0200169433049,-0.787733849144,0.573865192158,0.818928616963,0.00392535980368,0.0,0.818902779146,-0.573789432767,-0.0120279696257,0.0,-0.00759786483772,0.0101171159387,-0.999919955004,0.0,0.466100717457,0.00419640174446,0.304719656291,1.0,-0.32998,-0.433688,1.832
0.129800426221,-0.230162863414,-0.134339835976,-2.38493338046,-0.0244850233842,2.14905187272,-0.161649175251,-0.901946434118,-0.989846301914,-0.0161294144004,-1.01842750407,-0.171477454112,0.00547397209061,-0.80597768407,0.573856592898,0.818934900487,0.00387123413048,0.0,0.818908710743,-0.573781503864,-0.0120023411919,0.0,-0.00760804002671,0.0100580036217,-0.999920473983,0.0,0.460499654055,-0.00317554004375,0.304712103318,1.0,-0.32998,-0.433688,1.849
0.113203468135,-0.24810992492,-0.134786167768,-2.40273601813,-0.0274057469718,2.14916002649,-0.176484602436,-0.940205324326,-1.01002524216,-0.0362224428042,-0.991165041463,-0.161965654454,0.00365509764912,-0.834603444257,0.573879767301,0.818917211492,0.0041665699753,0.0,0.818895494903,-0.573804494969,-0.0118032572617,0.0,-0.00727523401365,0.0101858320215,-0.999921656829,0.0,0.454942864151,-0.0105452598925,0.304826602474,1.0,-0.32998,-0.433688,1.866
0.0971544773053,-0.264591189866,-0.135109634463,-2.41917289849,-0.0301875448586,2.14899537275,-0.190891131427,-0.954773491862,-0.971537658804,-0.0206935502071,-0.938604322945,-0.174947454231,-0.0111042936894,-0.849113141411,0.573762512646,0.818999482589,0.0041440925008,0.0,0.818977064453,-0.573686763883,-0.0118664125044,0.0,-0.00734131602835,0.0102026157977,-0.999921002735,0.0,0.449312755099,-0.0178463744488,0.304765523713,1.0,-0.32998,-0.433688,1.883
0.0815663297307,-0.279852277225,-0.135552960318,-2.43400625578,-0.0328058845405,2.1486408259,-0.204841811807,-0.976778310365,-0.945865519331,-0.0300722493886,-0.917277582982,-0.164689952893,-0.0360297303729,-0.885077354591,0.573825000059,0.818955252041,0.00423218179563,0.0,0.818934440173,-0.573749592405,-0.0117700813778,0.0,-0.00721109621702,0.0102200431443,-0.999921772345,0.0,0.444070562029,-0.0248330694756,0.304785872609,1.0,-0.32998,-0.433688,1.899
0.0647204567273,-0.29587987284,-0.135944896113,-2.4492726233,-0.0354303390476,2.14796293912,-0.220124973395,-1.00209077599,-0.935304393037,-0.0374835755974,-0.861503891229,-0.164584852452,-0.0289077138876,-0.909877623612,0.573740104954,0.819013821178,0.00440449641446,0.0,0.818995275792,-0.573664196662,-0.0116993418349,0.0,-0.00705535660166,0.0103198420569,-0.999921858349,0.0,0.438486476903,-0.0321534812722,0.304842551471,1.0,-0.32998,-0.433688,1.916
0.0463762593706,-0.31246814434,-0.13642107063,-2.46492604748,-0.0382258949916,2.14700393653,-0.236639748584,-1.0232631178,-0.915472317621,-0.025089372334,-0.840748014663,-0.152042404262,-0.051711618796,-0.923637303175,0.573819338459,0.818957831567,0.00449264134819,0.0,0.818940288938,-0.573742931247,-0.0116875531596,0.0,-0.00699412663439,0.0103859489877,-0.999921604055,0.0,0.432544944276,-0.0399580465256,0.304857194474,1.0,-0.32998,-0.433688,1.934
0.0306740094288,-0.326040500501,-0.136857847153,-2.47739949581,-0.0404944331561,2.14609161637,-0.250850306305,-1.04974540262,-0.917981992555,-0.0295355279413,-0.83836702072,-0.156655583979,-0.0543935121935,-0.94544963584,0.573912898529,0.818891105342,0.00469993564975,0.0,0.818876959687,-0.573836932658,-0.0115085409135,0.0,-0.00672737465538,0.0104537703565,-0.999922727572,0.0,0.427642803555,-0.046505680804,0.304942561236,1.0,-0.32998,-0.433688,1.949
0.0126575169068,-0.340949962511,-0.137269132829,-2.491143606,-0.0430420698664,2.1448425695,-0.267392416386,-1.0882146493,-0.873297126127,-0.0338969608137,-0.783311101455,-0.147372889076,-0.0724885376994,-0.977176512149,0.573778795003,0.818984873166,0.00473485289116,0.0,0.818971035397,-0.573702526291,-0.0115152685641,0.0,-0.00671456297531,0.0104851261667,-0.999922485382,0.0,0.422046630998,-0.053815955201,0.304929431701,1.0,-0.32998,-0.433688,1.966
-0.00805435741501,-0.357188662276,-0.137756084443,-2.50570010948,-0.0458176178049,2.14319630264,-0.286353800283,-1.09419775039,-0.840539924265,-0.0154932885678,-0.745629813508,-0.13183388287,-0.0761306535223,-1.0089367425,0.573768143703,0.818991672787,0.00484810058847,0.0,0.818979741619,-0.57369225987,-0.0114070453317,0.0,-0.00656108367628,0.0105156978522,-0.999923183189,0.0,0.415834456022,-0.0620412798895,0.304995620026,1.0,-0.32998,-0.433688,1.985
-0.0248201421866,-0.369643473966,-0.138209583024,-2.51693924765,-0.0480029064535,2.14178048695,-0.30178940822,-1.11765126207,-0.807767570693,-0.0240844594707,-0.746772687003,-0.150304173273,-0.0931931075378,-1.03154799078,0.573764858764,0.81899413044,0.00482162355218,0.0,0.818981224773,-0.573688042255,-0.0115121911412,0.0,-0.00666243746959,0.0105543130896,-0.999922106167,0.0,0.410845932672,-0.068570872469,0.304940843114,1.0,-0.32998,-0.433688,2.0
-0.0441474025808,-0.38335756912,-0.138698390474,-2.52895275796,-0.0503679000522,2.14001287941,-0.319573597042,-1.15730583191,-0.797977957074,-0.0391568520809,-0.693597533964,-0.147093932539,-0.0863247535471,-1.05202822761,0.573830289689,0.818947849679,0.00489541041576,0.0,0.818935823322,-0.573753129947,-0.0114982631993,0.0,-0.00660784809523,0.010607282885,-0.999921907897,0.0,0.405261147847,-0.0759426795818,0.304969445242,1.0,-0.32998,-0.433688,2.017
-0.0638567544257,-0.396640393228,-0.139072720326,-2.54053243603,-0.0526709720719,2.13817582219,-0.337899207261,-1.1719329442,-0.757861431434,-0.0208098211424,-0.677605509214,-0.133678109652,-0.109342335413,-1.09335082641,0.573706861722,0.819034250067,0.0049072326106,0.0,0.819022233044,-0.573629457785,-0.0115140714921,0.0,-0.00661561309913,0.0106250389971,-0.999921668037,0.0,0.39965501458,-0.0832546489722,0.304957115413,1.0,-0.32998,-0.433688,2.034
-0.0827717382465,-0.408642313391,-0.139557646313,-2.55091297049,-0.0547250455265,2.13622650846,-0.355528567404,-1.19791304623,-0.731687418865,-0.0279004742797,-0.625442302999,-0.135026898843,-0.111945098743,-1.10698900251,0.573735030082,0.819014487703,0.00491234055469,0.0,0.819000957282,-0.573655087937,-0.011748146892,0.0,-0.00680404435429,0.0107637422627,-0.999918920129,0.0,0.394343166893,-0.0901718349031,0.304907220827,1.0,-0.32998,-0.433688,2.05
-0.104494657679,-0.421754929274,-0.140030802308,-2.56183459156,-0.0570530734156,2.13422811556,-0.375872988033,-1.20914495368,-0.709616820971,-0.0118257535705,-0.598278154871,-0.130706312508,-0.109212495659,-1.15303598473,0.573666691641,0.819061426468,0.00506492597063,0.0,0.81905150711,-0.57358893883,-0.0114501028078,0.0,-0.00647327665689,0.0107171841854,-0.999921616254,0.0,0.388482422365,-0.0979774950427,0.305003290893,1.0,-0.32998,-0.433688,2.068
-0.125442039515,-0.433490907241,-0.140518586794,-2.57183566722,-0.0591182068146,2.13199818616,-0.395493129627,-1.23514311762,-0.673781786177,-0.0304919350722,-0.576503950117,-0.124051149265,-0.127088090364,-1.15893130746,0.573714340306,0.819028460923,0.00499828245724,0.0,0.819015439779,-0.573633148744,-0.0118096133178,0.0,-0.00680535993975,0.010869224285,-0.999917770139,0.0,0.382787700578,-0.105327496778,0.304901705463,1.0,-0.32998,-0.433688,2.085
-0.145392967079,-0.444186004492,-0.140908208067,-2.58044345818,-0.0609051357982,2.13005681897,-0.414383236757,-1.26123730077,-0.651987900947,-0.0343988422314,-0.518388099911,-0.115952718751,-0.114932270725,-1.20111046324,0.573648443622,0.819073249065,0.00521753745398,0.0,0.819064049378,-0.573568149831,-0.0115934213271,0.0,-0.00650337318011,0.0109242557812,-0.999919180121,0.0,0.37758439476,-0.112210793282,0.305010195259,1.0,-0.32998,-0.433688,2.101
-0.168358141379,-0.455466860241,-0.141348833817,-2.58970710703,-0.0630105223942,2.12781380488,-0.436082584755,-1.28604541819,-0.627350817851,-0.0200721199688,-0.514315552125,-0.105264320899,-0.134230955486,-1.22903630808,0.57360508822,0.81910389505,0.00517288924725,0.0,0.819093849261,-0.573524495263,-0.0116475893198,0.0,-0.00657393365381,0.0109184084779,-0.999918782578,0.0,0.371632565931,-0.120005276029,0.304984756171,1.0,-0.32998,-0.433688,2.119
-0.188984739677,-0.464949659762,-0.141819854687,-2.59742152139,-0.0647939977301,2.1257730799,-0.45581374665,-1.28834126291,-0.576801667863,-0.0354523985016,-0.475273484103,-0.101006588654,-0.120031818587,-1.24392797878,0.573492936268,0.819182528664,0.00515593674042,0.0,0.819171402182,-0.573410998331,-0.0117808208989,0.0,-0.00669430070606,0.0109800248977,-0.999917309277,0.0,0.366327299939,-0.126907318717,0.304949906027,1.0,-0.327252,-0.430102628572,2.135
-0.209859112602,-0.473712304285,-0.14208533923,-2.60432698602,-0.0662799903902,2.12394917399,-0.475570096471,-1.30393233617,-0.537366157687,-0.00799561359727,-0.422127657877,-0.0967710218498,-0.109891660933,-1.20803314344,0.573577919807,0.819122089148,0.00530281811101,0.0,0.819113527172,-0.573496581192,-0.0116382071783,0.0,-0.00649208951333,0.011019240865,-0.999918211208,0.0,0.361186646752,-0.133751195703,0.305003917833,1.0,-0.318465714286,-0.418554938776,2.151
-0.231962638335,-0.482195961134,-0.142342419514,-2.61094779078,-0.0676738747716,2.12201401496,-0.496449251971,-1.28372053132,-0.487206130653,-0.00390303418242,-0.376522206194,-0.0816956229659,-0.109372326401,-1.20060805314,0.573793268015,0.818970198713,0.00546315849852,0.0,0.818963692728,-0.573711342574,-0.0115979435932,0.0,-0.00636421670319,0.0111291646854,-0.999917815842,0.0,0.355817637801,-0.140890976229,0.305048656701,1.0,-0.309130285714,-0.406285518367,2.168
-0.253742284083,-0.489788579305,-0.142418719463,-2.61707243089,-0.0688808631728,2.12012868896,-0.517139183587,-1.28992745147,-0.418948914618,-0.013444223853,-0.343705870686,-0.0702165195603,-0.109554881527,-1.19895439054,0.573872811042,0.818914169974,0.00550689244647,0.0,0.818906386575,-0.57378751672,-0.0118727664939,0.0,-0.00656311693725,0.011323305286,-0.999914350459,0.0,0.350534208628,-0.147742260849,0.304970458565,1.0,-0.299794857143,-0.394016097959,2.185
-0.273899357915,-0.496236893893,-0.142323989033,-2.62209151175,-0.069890803297,2.11864228266,-0.536355928035,-1.25111273016,-0.392286009328,0.00921944685917,-0.296352468669,-0.0654688377357,-0.0841433822736,-1.19198008301,0.573850692815,0.818929182132,0.00557888071184,0.0,0.818922773225,-0.573765907295,-0.0117865186467,0.0,-0.0064514767331,0.0113325925428,-0.999914971782,0.0,0.345794044792,-0.153997273741,0.304987135765,1.0,-0.291008571429,-0.382468408163,2.201
-0.294891080624,-0.502253469375,-0.142181213262,-2.62676299418,-0.070806301572,2.11710413818,-0.556378013549,-1.22152660991,-0.330493019975,0.00450247423139,-0.262234317869,-0.0454851887419,-0.0789156335387,-1.17399091123,0.573877015032,0.81891038621,0.00563008662434,0.0,0.818904300806,-0.573791438785,-0.0118269945243,0.0,-0.00645487742531,0.0113979619111,-0.999914206831,0.0,0.340907970031,-0.160432650195,0.304985091862,1.0,-0.281673142857,-0.370198987755,2.218
-0.316719330069,-0.507863091923,-0.141951640509,-2.63101373718,-0.071577651459,2.11572870726,-0.57724073147,-1.2009197085,-0.294161762671,0.00913547116352,-0.224752649412,-0.0324592481016,-0.0676212975695,-1.14763637552,0.573922678351,0.818877507286,0.00575623459657,0.0,0.818873714108,-0.573837819417,-0.0116937697445,0.0,-0.00627274067991,0.0114251688251,-0.999915055513,0.0,0.335933034097,-0.167054925973,0.305028631819,1.0,-0.271788571429,-0.357207836735,2.236
-0.335663087492,-0.512260275031,-0.14172580755,-2.63436395793,-0.0721448708929,2.11454165201,-0.595357867647,-1.17197551344,-0.261055129489,0.0251060925399,-0.204787079397,-0.0420343310195,-0.0847630269047,-1.13878890228,0.573997421773,0.81882440949,0.00585603307634,0.0,0.818821712742,-0.573911836293,-0.0117027264845,0.0,-0.00622175119481,0.0115126035165,-0.99991437122,0.0,0.33161231746,-0.172727203249,0.305039815262,1.0,-0.263002285714,-0.345660146939,2.252
-0.356354729962,-0.516434111265,-0.141371841322,-2.63771418234,-0.0726421105573,2.11330629275,-0.615286560703,-1.1573602256,-0.221069737588,0.0110238150251,-0.177129586804,-0.0260769583502,-0.0721789972985,-1.08742486078,0.573959799866,0.818850403204,0.00590865564075,0.0,0.818846700746,-0.573870916829,-0.0119581937266,0.0,-0.00640128936952,0.0117020309557,-0.999911039026,0.0,0.326894525869,-0.17881889714,0.304962194689,1.0,-0.253117714286,-0.332668995918,2.27
-0.375301410351,-0.519723885665,-0.14094295097,-2.64034506052,-0.0730724425012,2.11239227517,-0.633550316586,-1.10063259329,-0.180625513875,0.0270284366964,-0.146943199048,-0.0252257561481,-0.056798562415,-1.07037861447,0.573874799772,0.818910091477,0.00589263650831,0.0,0.818905573145,-0.573784895039,-0.0120541858852,0.0,-0.00649031360414,0.011743332484,-0.999909980934,0.0,0.322648673501,-0.184360005659,0.30491082485,1.0,-0.243782285714,-0.32039957551,2.287
-0.391667157926,-0.522180183729,-0.140624332449,-2.64221539763,-0.0733731569428,2.11165945988,-0.64924463435,-1.06713083634,-0.154937939799,0.02680040176,-0.117461934253,-0.021965150045,-0.0422717003928,-1.0449613676,0.573958760407,0.818850996028,0.00592744103323,0.0,0.81884675825,-0.573868378918,-0.0120754744365,0.0,-0.00648656817951,0.011784717106,-0.999909518345,0.0,0.31901740552,-0.189155255783,0.304908752667,1.0,-0.235545142857,-0.309573616327,2.302
-0.409596836881,-0.524538628123,-0.140245481613,-2.64395909277,-0.073562579919,2.11095672064,-0.666532998939,-1.0533325345,-0.125629427976,0.0135379878298,-0.0945152991209,-0.00711226357678,-0.0381587714051,-1.01094600146,0.574030412639,0.818799942852,0.00604035195181,0.0,0.818797311527,-0.573939788657,-0.0120344727138,0.0,-0.00638715022014,0.0118542055068,-0.999909336952,0.0,0.315067480178,-0.194373293291,0.304930882902,1.0,-0.226209714286,-0.297304195918,2.319
-0.427872646449,-0.526536099284,-0.139734139039,-2.64544155821,-0.0737165744767,2.11035578127,-0.684262932841,-1.00077709519,-0.103327953372,0.0256928976733,-0.07132571268,-0.0075746000693,-0.035741746619,-0.962586522169,0.573961449405,0.818847976871,0.00608212724034,0.0,0.8188462125,-0.573871268284,-0.011974749028,0.0,-0.00631526253023,0.0118535993816,-0.999909800752,0.0,0.311069873625,-0.199641118652,0.304950321445,1.0,-0.216325142857,-0.284313044898,2.337
-0.443636710143,-0.527905367973,-0.139322394113,-2.64648319861,-0.0738240215721,2.1099157122,-0.699441520734,-0.961568675834,-0.0821667527526,0.0365381559813,-0.0637657739543,-0.00366807040502,-0.0320294027321,-0.945020751257,0.574042150218,0.818791197924,0.00610989990001,0.0,0.818789836336,-0.573951915164,-0.0119645264593,0.0,-0.00628978130089,0.0118710949895,-0.999909753805,0.0,0.307617923674,-0.204178880638,0.304950617173,1.0,-0.207538857143,-0.272765355102,2.353
-0.459634582204,-0.528956466695,-0.138813463991,-2.64729478577,-0.0738375162253,2.10956046829,-0.714923472252,-0.939632499448,-0.0536455856364,0.0201094650097,-0.0416202674253,-0.000628501473986,-0.0132406262517,-0.903055356336,0.574051433985,0.818784480512,0.00613779387251,0.0,0.818783521445,-0.573961156518,-0.0119533559808,0.0,-0.00626448770836,0.0118875944956,-0.99990971657,0.0,0.304143920206,-0.208748445018,0.304948666658,1.0,-0.198203428572,-0.260495934694,2.37
-0.475010800783,-0.529676821931,-0.138260671172,-2.64783722143,-0.0738388847164,2.10926516882,-0.729798503612,-0.884299491896,-0.0334462577647,0.0305330272328,-0.0262654493068,0.00407606174392,-0.0107561377978,-0.86561227718,0.574039058303,0.818793366139,0.00610982902696,0.0,0.818792126815,-0.57394905687,-0.0119448768938,0.0,-0.00627377614198,0.0118597341238,-0.999909989169,0.0,0.300817363116,-0.213121587639,0.304954319172,1.0,-0.188868,-0.248226514286,2.387
-0.488887353868,-0.5300604836,-0.137800431925,-2.64814636651,-0.0738355274969,2.10907807668,-0.743195401446,-0.854716268162,-0.0184107325091,0.0210771444955,-0.0172456070076,-0.00168399587039,-0.0118960235015,-0.818274423708,0.574090551174,0.818757490183,0.00607932756543,0.0,0.818755874616,-0.57400070268,-0.0119481382109,0.0,-0.00629321052333,0.0118370263083,-0.999910136117,0.0,0.297809569707,-0.217077505237,0.304949847168,1.0,-0.180081714286,-0.23667882449,2.403
-0.502824352796,-0.530217334921,-0.137173786852,-2.64829396043,-0.0737770165958,2.10893598504,-0.756883789415,-0.81733775684,-0.00519573772324,0.0386141193921,-0.0100355433521,-0.00152510178775,-0.00365952578107,-0.785174967157,0.573868738433,0.818913620822,0.0059916259484,0.0,0.818910842711,-0.573779253417,-0.0119644030073,0.0,-0.00636006437521,0.011772830978,-0.999910471008,0.0,0.294815438288,-0.221000978951,0.304944249491,1.0,-0.170746285714,-0.224409404082,2.42
-0.517088472189,-0.530223036069,-0.136609885065,-2.64831783144,-0.0737032325141,2.10886733591,-0.770576579855,-0.771456537684,0.00537244933291,0.0350463637824,0.00332246995253,0.00606464507711,-0.00299244755067,-0.749424852986,0.573969190449,0.81884363791,0.00593396753732,0.0,0.818840334436,-0.573880331923,-0.0119422876012,0.0,-0.00637360167595,0.0117137026344,-0.999911079233,0.0,0.291726369549,-0.225026863757,0.304944351533,1.0,-0.160861714286,-0.211418253061,2.438
-0.528130817571,-0.53003564238,-0.136014105481,-2.64822582625,-0.0735155188382,2.10886561147,-0.781395276863,-0.728113411306,0.0134328724634,0.0359925823168,0.00732569630553,0.0112119068343,-0.000896555382046,-0.711355611069,0.573817856072,0.818949912453,0.00590388410246,0.0,0.818946189217,-0.573729096391,-0.0119503147658,0.0,-0.00639960235213,0.0116924925023,-0.999911161408,0.0,0.289369912817,-0.228090517694,0.304933264603,1.0,-0.152624571429,-0.200592293878,2.453
-0.540912470924,-0.529728982325,-0.135431827444,-2.64804152791,-0.0732732199066,2.10886258259,-0.793655010381,-0.699237518313,0.0167724520438,0.0308188447429,0.0105257414718,0.00751388660365,0.000332790619132,-0.653970715324,0.573948785116,0.818857949507,0.00593274760501,0.0,0.818854384842,-0.573859485548,-0.0119805748006,0.0,-0.00640594876104,0.0117345186682,-0.999910628452,0.0,0.286600698313,-0.231645113734,0.304920110708,1.0,-0.14274,-0.187601142857,2.471
-0.552045379675,-0.529256107161,-0.134727203202,-2.64774822371,-0.0729479943134,2.10890972934,-0.804558697318,-0.6334248982,0.02996306906,0.0464707698925,0.0217213026873,0.0188846295652,0.00802307991957,-0.635250509587,0.57379527585,0.818965477919,0.00593921627963,0.0,0.81896170311,-0.573705442684,-0.0120225111901,0.0,-0.00643878488426,0.0117626772722,-0.999910086694,0.0,0.284237465665,-0.234689808674,0.304903217491,1.0,-0.133404571429,-0.175331722449,2.488
-0.562015122752,-0.528698084035,-0.134153917136,-2.64740445903,-0.0726604478977,2.10897847788,-0.8141903055,-0.618218429357,0.0376717112684,0.0333110720533,0.0194050919129,0.018711421107,0.00626834823592,-0.605674093406,0.573810361255,0.818954769249,0.00595836735428,0.0,0.818950781309,-0.573719600278,-0.0120906968829,0.0,-0.00648342656506,0.0118176042718,-0.999909150578,0.0,0.282103405543,-0.237430354772,0.304876455081,1.0,-0.124618285714,-0.163784032653,2.504
-0.571972384002,-0.528049038743,-0.133571188267,-2.64691904872,-0.0723231646622,2.10910982575,-0.823706219596,-0.55670676142,0.0482118225316,0.0387024802028,0.0265337794032,0.0198613310386,0.0136890076443,-0.554167814826,0.573931839334,0.818869341744,0.00599932096305,0.0,0.818866138448,-0.573841339421,-0.0120462183329,0.0,-0.00642174413816,0.0118265767334,-0.999909442542,0.0,0.279995069095,-0.240181185342,0.304886267408,1.0,-0.115282857143,-0.151514612245,2.521
-0.580981683654,-0.527285353558,-0.132896505287,-2.64640627326,-0.071949011621,2.10921812286,-0.83256538695,-0.519988182264,0.0452655971495,0.0418307520263,0.0310600848176,0.0193403108039,0.00392721313746,-0.501971216696,0.573767272818,0.818984557895,0.00601310846179,0.0,0.818981064548,-0.573675884695,-0.0121137167425,0.0,-0.00647149623062,0.0118753048247,-0.999908544254,0.0,0.278111931025,-0.242626683609,0.304866772798,1.0,-0.105947428572,-0.139245191837,2.538
-0.589064301097,-0.526611896535,-0.132345480529,-2.64592326608,-0.0716276064885,2.10933256995,-0.840206713718,-0.494590481673,0.0493968214873,0.0353213727655,0.0304892449302,0.0224497058271,0.00637245483435,-0.45936867994,0.573903762336,0.818888749152,0.0060361403924,0.0,0.818885463734,-0.573812075487,-0.01212626121,0.0,-0.00646657312919,0.0119024437148,-0.999908253424,0.0,0.276400896751,-0.244829958935,0.304863859222,1.0,-0.0971611428572,-0.127697502041,2.554
-0.597310139641,-0.525778884822,-0.131711737009,-2.64530319032,-0.0712261035365,2.10948522111,-0.848095670732,-0.430710114571,0.043041654972,0.0392903064765,0.0324848055235,0.0265491348711,0.0124471335536,-0.419577355954,0.573938562634,0.818864051013,0.00607776126644,0.0,0.818861218042,-0.573846518868,-0.0121336420651,0.0,-0.00644822529806,0.011941037982,-0.999907911761,0.0,0.274606779724,-0.247183033081,0.304864644132,1.0,-0.0867274285715,-0.113984620408,2.573
-0.60458290051,-0.524963277207,-0.130988237859,-2.64473936499,-0.0707967306999,2.10962731922,-0.855197658885,-0.401159570324,0.0394946421457,0.0325392158514,0.0369086910387,0.020138537041,0.00780743232971,-0.376950408978,0.57379715661,0.81896309691,0.00608406655958,0.0,0.81896013601,-0.573704725945,-0.0121626459403,0.0,-0.00647042502345,0.0119617299349,-0.999907521032,0.0,0.273212789262,-0.249004432437,0.304858006069,1.0,-0.0773920000001,-0.1017152,2.59
-0.610240772224,-0.524349034211,-0.130411158336,-2.64427605118,-0.0704717676332,2.10976069559,-0.860429608942,-0.363567175466,0.0446917590903,0.0434808637806,0.0254807387338,0.0268055918361,0.00518711242927,-0.343047605062,0.573901981119,0.818889730977,0.00607218822765,0.0,0.818886836269,-0.573809989916,-0.0121322610848,0.0,-0.00645082594858,0.0119353934723,-0.999907962378,0.0,0.272065451027,-0.25050651124,0.304869383368,1.0,-0.069154857143,-0.0908892408165,2.605
-0.615883590922,-0.523632295421,-0.129761539961,-2.64373524888,-0.0700578206824,2.10991001479,-0.865781996635,-0.320339152064,0.0437863137511,0.0357576741848,0.0289126241941,0.0228064412543,0.00792151438185,-0.296047761629,0.573886430308,0.818900485088,0.00609159516913,0.0,0.818897990678,-0.573794630354,-0.0121057813042,0.0,-0.00641822915487,0.0119359684672,-0.999908165279,0.0,0.270955258588,-0.251993624572,0.304881397085,1.0,-0.0598194285715,-0.0786198204083,2.622
-0.621094055843,-0.522964759576,-0.12911214607,-2.64325430184,-0.0696288124783,2.11004237987,-0.870686609465,-0.280211434551,0.0325510323576,0.040479786879,0.0212928884747,0.0167324310591,0.00770380377845,-0.257289191892,0.57388663225,0.818900077178,0.00612730141809,0.0,0.818897994299,-0.573794575015,-0.0121081591559,0.0,-0.00639968336783,0.0119665759162,-0.999907918317,0.0,0.269932261092,-0.253341073717,0.304882569487,1.0,-0.049934857143,-0.0656286693879,2.64
-0.624759994548,-0.522509694107,-0.128480425088,-2.64292616508,-0.0692777311564,2.11014938591,-0.874092313522,-0.231574287834,0.0279648102057,0.041064517988,0.0233288928654,0.0263490767324,0.00896862278024,-0.215526523241,0.573820144811,0.818946821132,0.00610675594856,0.0,0.818944605004,-0.573728442992,-0.012089439123,0.0,-0.00639711132114,0.0119384883993,-0.999908270524,0.0,0.269250141403,-0.254242267179,0.304889428699,1.0,-0.0416977142858,-0.0548027102042,2.655
-0.628510895869,-0.522073068108,-0.127715936299,-2.64260804941,-0.0688688768684,2.110240301,-0.877524464508,-0.195691320782,0.0211616828844,0.0396569934469,0.0214286047923,0.0217522673329,0.00302843041431,-0.17055130248,0.573731429516,0.819009232308,0.00607215621598,0.0,0.819006685023,-0.573640119274,-0.0120751955579,0.0,-0.00640658757454,0.0119012848791,-0.999908653355,0.0,0.268572242927,-0.255124622761,0.304900230663,1.0,-0.0318131428572,-0.0418115591838,2.673
-0.631231705963,-0.521733139769,-0.127099264203,-2.64235407151,-0.0685142660026,2.11031133946,-0.879888381356,-0.162884712963,0.0220132318712,0.040591871168,0.0154489621584,0.0269357805317,0.00134916662231,-0.138362398912,0.573751805347,0.818995040368,0.00606107376482,0.0,0.818992478763,-0.573660779983,-0.0120572028433,0.0,-0.00639791220557,0.0118820444916,-0.999908937723,0.0,0.268102840862,-0.255749978069,0.304911945046,1.0,-0.023026857143,-0.0302638693879,2.689
-0.633368145519,-0.521439801682,-0.126625087572,-2.64216737686,-0.0681928912266,2.11039350265,-0.881676769974,-0.12335508427,0.0181211783276,0.0201058875847,0.0054997204287,0.0121887646853,0.00106111440457,-0.0974244184346,0.573853844271,0.818923274574,0.00609775998604,0.0,0.818921178839,-0.573762617983,-0.0120543749388,0.0,-0.00637306416564,0.0119112635237,-0.999908748764,0.0,0.267712922389,-0.25626506418,0.304907216612,1.0,-0.0197509677419,-0.0259584147465,2.706
-0.63533680198,-0.521186964436,-0.126249650209,-2.64199774049,-0.0679323378121,2.11039189513,-0.883472501659,-0.105625112657,0.00524521473543,0.019164333258,0.0114963630853,0.0111265297357,0.00079977047747,-0.0957255284707,0.573844102172,0.818929845154,0.00613204864437,0.0,0.818927790323,-0.573751969788,-0.0121119074815,0.0,-0.00640065076217,0.0119722822243,-0.999907843818,0.0,0.267367539146,-0.256693795344,0.30490078226,1.0,-0.0194109677419,-0.0255115576037,2.723
-0.636960551471,-0.520941029211,-0.125986906461,-2.64179564137,-0.0677744509189,2.11042287324,-0.884942546973,-0.0886398733191,0.0135234883701,0.015016664689,0.00969025481171,0.0116593141176,0.00599421856875,-0.0930555795768,0.573861785039,0.818917477372,0.00612893360091,0.0,0.818915409361,-0.57376971392,-0.0121084516173,0.0,-0.00639934938177,0.0119678862468,-0.999907904772,0.0,0.267067098325,-0.257104994053,0.304911225922,1.0,-0.0190709677419,-0.0250647004608,2.74
-0.638354665717,-0.520670162417,-0.125824857192,-2.64160788735,-0.067671420714,2.11052885555,-0.886400054935,-0.0865211112585,0.0146426584368,0.0110609581978,0.011111840991,0.00413693451767,0.00102698466509,-0.092781753425,0.573748999552,0.818996534598,0.00612443723371,0.0,0.818994627858,-0.57365738361,-0.0120728070378,0.0,-0.00637438121381,0.0119428720901,-0.999908363337,0.0,0.266806775817,-0.257488692484,0.304909920493,1.0,-0.0187509677419,-0.0246441290323,2.756
-0.639834238846,-0.520435622875,-0.125681334202,-2.64144378389,-0.0676442656802,2.11054696997,-0.887842064546,-0.0868449489887,0.0122146620215,0.0087408863385,0.00556419403847,0.0004898277028,-6.40826836284e-05,-0.082414455649,0.573698416672,0.819032330028,0.00607585206243,0.0,0.819029548656,-0.573606573732,-0.0121179165109,0.0,-0.00643994069975,0.0119285615498,-0.99990811407,0.0,0.26649448548,-0.257889150985,0.304903212671,1.0,-0.0184109677419,-0.0241972718894,2.773
-0.641243725526,-0.520246584434,-0.125627624682,-2.64127815733,-0.0676176194487,2.11055095693,-0.889247616752,-0.0800277920264,0.0116252330808,0.00161823297348,0.00462594019084,0.000462205649637,0.00403505560244,-0.087689370533,0.573683570061,0.819042764598,0.00607108737028,0.0,0.819039852158,-0.573591623603,-0.0121291719098,0.0,-0.00645210985468,0.011930998854,-0.999908006541,0.0,0.266179414316,-0.258289552526,0.304910575119,1.0,-0.0180709677419,-0.0237504147465,2.79
-0.642514601808,-0.520036826103,-0.125588954281,-2.6410981757,-0.0675834715083,2.11059707221,-0.890561824824,-0.0770106942472,0.015983575203,0.00407307624925,0.0111188522949,0.000107863447531,0.00505263444077,-0.074267339682,0.573644600715,0.819070042057,0.00607331675368,0.0,0.819067309094,-0.573552931143,-0.012104761535,0.0,-0.00643140273819,0.0119185157766,-0.999908288815,0.0,0.265906587847,-0.258664428331,0.304920068404,1.0,-0.0177509677419,-0.023329843318,2.806
-0.643945449297,-0.519825490256,-0.125580025206,-2.6409122431,-0.0675452592915,2.11068472865,-0.891941765376,-0.0857348596359,0.0149415446745,-0.000179261516175,0.0096036013164,0.000491359742196,0.00317176500759,-0.0765279551286,0.573705886041,0.819026998144,0.00608929673435,0.0,0.819024918068,-0.573614962294,-0.0120335164293,0.0,-0.00636298562873,0.0118912139069,-0.999909051587,0.0,0.265593674185,-0.259094906265,0.30493451323,1.0,-0.0173909677419,-0.0228567004608,2.824
-0.645307866073,-0.519633102948,-0.125589947882,-2.64075156691,-0.067523940299,2.11069788042,-0.893288602578,-0.0818586497834,0.00965203107738,-0.000580903390704,0.00728983728158,-0.000622164991453,0.000982823399295,-0.0717085184737,0.573743177488,0.819000715643,0.00611072533724,0.0,0.818998829925,-0.573651995957,-0.0120437127617,0.0,-0.00635850200523,0.0119149043287,-0.999908798095,0.0,0.265275006493,-0.259496178607,0.304937626097,1.0,-0.0170509677419,-0.022409843318,2.841
-0.646556272194,-0.519450125586,-0.12558466183,-2.64058535995,-0.0674958484867,2.11072895709,-0.894484441187,-0.0764641843667,0.0105534256551,-0.00148709811203,0.00959369229884,0.00278409569359,0.00592372576165,-0.0740708432071,0.573803060457,0.81895865175,0.00612547426253,0.0,0.818957087642,-0.573712046635,-0.0120217738812,0.0,-0.00633119924883,0.0119148606056,-0.999908971863,0.0,0.264993605528,-0.25986691889,0.304948598878,1.0,-0.0167309677419,-0.0219892718894,2.857
-0.64782549487,-0.519249955403,-0.125560920967,-2.64041215601,-0.0674661805768,2.11078336586,-0.895752780667,-0.0734494913258,0.0128297342516,0.00282322404154,0.0128118970791,0.00641007109056,-0.000734023506747,-0.0725873194326,0.573808588399,0.818954742637,0.00613027675287,0.0,0.818953458187,-0.573717962523,-0.0119866468806,0.0,-0.00629959270948,0.0118986813591,-0.999909364149,0.0,0.264715356942,-0.260243443595,0.304958841277,1.0,-0.0163909677419,-0.0215424147465,2.874
-0.649041059392,-0.519049168112,-0.125518811949,-2.64024920026,-0.0674409545338,2.11081839991,-0.896979420707,-0.0687913564627,0.0170570522535,0.00373781196162,0.0125862398504,0.000985043154774,0.000771771991717,-0.0667060204881,0.573788934774,0.81896854986,0.00612532224378,0.0,0.818967230273,-0.573698389191,-0.011982523927,0.0,-0.00629934402151,0.0118921067924,-0.99990944393,0.0,0.264448738305,-0.260596570579,0.304962966437,1.0,-0.0160509677419,-0.0210955576037,2.891
-0.650153609563,-0.518852895185,-0.125455355166,-2.6400939558,-0.0674178245292,2.11086012482,-0.898114286258,-0.0709570085347,0.014704579152,0.00410557742318,0.0127368322115,0.00146192334987,0.00606904281116,-0.0696953840177,0.573743644482,0.819000415273,0.00610713515428,0.0,0.818998915342,-0.573653290487,-0.0119760545669,0.0,-0.00630513688037,0.0118731508559,-0.999909632686,0.0,0.264212399779,-0.260916800417,0.304966312613,1.0,-0.0157309677419,-0.0206749861751,2.907
-0.651317304354,-0.518642641355,-0.125388198541,-2.63994220438,-0.0673910097538,2.11089274799,-0.899365070548,-0.0663524486505,0.0145895353725,0.00452445529079,0.0120226467336,-0.000238190182657,0.00437773485966,-0.0749213672133,0.573644146077,0.819070208709,0.006093749089,0.0,0.819068418409,-0.573553650489,-0.011995118893,0.0,-0.00632987436968,0.0118723557426,-0.999909485833,0.0,0.263960912324,-0.261246725485,0.30496222279,1.0,-0.0153909677419,-0.0202281290323,2.924
-0.652472974521,-0.518432075995,-0.125365195791,-2.63978928836,-0.0673671273387,2.1109305709,-0.900524761116,-0.0722611137648,0.0112390239508,0.00288371326215,0.0039722462817,-1.88892945309e-05,-0.000275701606482,-0.0694072750106,0.573642802766,0.819071118116,0.00609796723488,0.0,0.819069295189,-0.573552125598,-0.0120081556539,0.0,-0.00633815343763,0.0118832785804,-0.999909303638,0.0,0.263702281246,-0.261585242998,0.304957930274,1.0,-0.0150509677419,-0.0197812718894,2.941
-0.65354300741,-0.518248581045,-0.125366646303,-2.63963984421,-0.0673448439104,2.11096584785,-0.901590023275,-0.0685146646232,0.010058650658,5.63690838774e-05,0.0110298355256,0.000440886052763,-0.000198824068074,-0.0659217790553,0.573665035763,0.819055445681,0.00611150918403,0.0,0.819053835787,-0.573574365934,-0.0120003219476,0.0,-0.00632364578574,0.0118900490792,-0.999909315007,0.0,0.263459561263,-0.261905645808,0.30496122321,1.0,-0.0147309677419,-0.0193607004608,2.957
-0.654740984455,-0.518039996035,-0.125371200981,-2.63947291243,-0.0673221810758,2.11100282612,-0.902784117056,-0.0663252070696,0.00877416650497,-0.0010340262672,0.00979374752935,0.00138078264286,0.00106811099367,-0.0594484086604,0.573689834988,0.81903796244,0.00612668055194,0.0,0.819036552308,-0.573599100386,-0.0119977048176,0.0,-0.00631243878881,0.0119011657477,-0.999909253568,0.0,0.263185963896,-0.262264461199,0.304963278416,1.0,-0.0143709677419,-0.0188875576037,2.975
-0.655854057057,-0.517854714084,-0.125368800383,-2.63932537976,-0.067303263378,2.11103118524,-0.903821932453,-0.0620420875726,0.0101121515605,-0.000443420806171,0.0130828957707,0.00297976833865,0.000302311623619,-0.056274508292,0.573765548002,0.818984852428,0.00613631162725,0.0,0.818983544808,-0.573674713712,-0.0120009617395,0.0,-0.00630848052103,0.011911505971,-0.999909155423,0.0,0.262930110854,-0.262593716485,0.304964521125,1.0,-0.0140309677419,-0.0184407004608,2.992
-0.656861164832,-0.51768178576,-0.125360165976,-2.63917584324,-0.067280488448,2.1110745918,-0.904806059834,-0.0630268944253,0.0100334313052,0.000901033225401,0.0107536926288,0.000507222580805,0.00333457367838,-0.0590152422666,0.573795683808,0.818963690202,0.00614282303448,0.0,0.818962626626,-0.573705117075,-0.0119750462308,0.0,-0.00628308001215,0.0119022014821,-0.999909426151,0.0,0.262706528736,-0.262896006396,0.304972650878,1.0,-0.0137109677419,-0.0180201290323,3.008
-0.657872534903,-0.517491394123,-0.125357671301,-2.63901638765,-0.0672613226717,2.11111879052,-0.905884929115,-0.0594659727591,0.0146825098193,0.000284155060825,0.00841306134329,-1.15806764222e-05,0.00187599679269,-0.0571916178161,0.573755077366,0.818992088264,0.0061495901113,0.0,0.818991222471,-0.573664699141,-0.0119556419853,0.0,-0.00626389403442,0.0118962996558,-0.999909616758,0.0,0.262481802222,-0.263203304011,0.304978760745,1.0,-0.0133709677419,-0.0175732718894,3.025
-0.658923853327,-0.517287355143,-0.1253222568,-2.63885692399,-0.0672435914158,2.11116540802,-0.906958642972,-0.0575143883639,0.0110698174084,0.000231885071744,0.00881117763073,0.00160872310634,0.00454910434295,-0.0561783158534,0.573727487145,0.819011494611,0.00613914411828,0.0,0.819010546847,-0.573637260331,-0.0119484147082,0.0,-0.00626436778411,0.0118833865194,-0.99990976734,0.0,0.262253408694,-0.263514005469,0.304980815011,1.0,-0.0130109677419,-0.0171001290323,3.043
-0.659806694466,-0.517108599019,-0.125288235794,-2.6387308548,-0.0672282458446,2.11118571752,-0.907829266667,-0.0615897787295,0.0111787093079,-0.00194045017604,0.0135436720287,6.55938934216e-05,-0.000244155817861,-0.0577394962745,0.573726562814,0.819012194406,0.00613216413039,0.0,0.819010987556,-0.573636046528,-0.0119764471943,0.0,-0.00629134703732,0.0118937446752,-0.999909474798,0.0,0.262057427919,-0.263768963086,0.304974727795,1.0,-0.0127309677419,-0.0167321290323,3.058
-0.660820666969,-0.516906331428,-0.125251346161,-2.63859320436,-0.0672095327251,2.11122566033,-0.90886120129,-0.056629092363,0.00148719532897,-0.000726157663342,0.0105191818493,0.00121669519187,0.00160840610638,-0.0646407977763,0.573700948078,0.819030186804,0.00612553498074,0.0,0.819028776146,-0.573610243079,-0.011995823435,0.0,-0.0063113934134,0.0118992337933,-0.999909283159,0.0,0.2618327056,-0.264062538912,0.304966966699,1.0,-0.0123509677419,-0.0162327004608,3.076
-0.661744781402,-0.516723749941,-0.12523142184,-2.63845366096,-0.0671923024768,2.11127216093,-0.909786260114,-0.0580746756977,0.0107506160858,0.000803990529627,0.00973589805097,1.90221809301e-05,0.00427562057031,-0.0554939122486,0.573700667277,0.819030404816,0.00612268350199,0.0,0.819029012242,-0.573610078388,-0.0119875760404,0.0,-0.00630627770898,0.0118921647553,-0.999909399535,0.0,0.261629418781,-0.26433800293,0.304967472256,1.0,-0.0120109677419,-0.015785843318,3.093
-0.662587413942,-0.516563944421,-0.125219678146,-2.63833377723,-0.0671784018604,2.11130556806,-0.910594503875,-0.0527134556406,0.0113685668249,0.00036575719771,0.00569708220348,-0.000193018913865,0.00143422111237,-0.0417106032316,0.573732702921,0.819007959875,0.006123247627,0.0,0.819006563464,-0.573642083847,-0.0119898100291,0.0,-0.00630731875796,0.0118941551111,-0.999909369295,0.0,0.261439297977,-0.264587544218,0.304966125626,1.0,-0.0116909677419,-0.0153652718894,3.109
-0.663473367296,-0.516396693232,-0.125199107675,-2.63819800542,-0.0671599346801,2.11133746189,-0.911487129,-0.0494996856322,0.00805422795259,0.0019742471627,0.00693435683293,3.62513524445e-05,0.000144338548635,-0.0592452653722,0.573727555352,0.819011572411,0.00612236783968,0.0,0.81901019801,-0.573637004155,-0.011984570104,0.0,-0.0063036062236,0.0118903887312,-0.999909437501,0.0,0.261243038669,-0.264849686222,0.304969324027,1.0,-0.0113509677419,-0.0149184147465,3.126
-0.664341848732,-0.516234395556,-0.125185187068,-2.63807265849,-0.0671425532818,2.11137051235,-0.912381025874,-0.0513282791209,0.00797143265394,0.000829186932957,0.00546616631667,0.000671134121086,0.00343538846827,-0.0516403031106,0.573710807266,0.819023283708,0.00612513444197,0.0,0.819021947437,-0.573620252023,-0.0119834463525,0.0,-0.00630134173984,0.0118918811753,-0.999909434026,0.0,0.261047513818,-0.265106212587,0.304969546736,1.0,-0.0110109677419,-0.0144715576037,3.143
-0.665145096673,-0.516075632781,-0.125172419504,-2.6379574177,-0.0671284344327,2.11138432335,-0.913140165733,-0.0522624641948,0.0122977967085,0.00157554163987,0.00505271175635,0.000173499456231,-0.000551821176942,-0.0418897699535,0.573749955609,0.818995838164,0.00612800210553,0.0,0.818994379263,-0.573659078413,-0.0120089712565,0.0,-0.00632003511958,0.0119091752944,-0.999909110219,0.0,0.260863292052,-0.26534084342,0.304964803977,1.0,-0.0106909677419,-0.0140509861751,3.159
-0.665977224124,-0.515918221672,-0.125165568177,-2.63784933082,-0.0671124887706,2.11142038185,-0.913947637998,-0.050942269001,0.00537367772145,0.0010029351923,0.00976421587643,0.00223065669315,0.000438072970772,-0.0376196488143,0.573777797953,0.818976286097,0.00613419012335,0.0,0.818974850225,-0.573686780207,-0.0120174795705,0.0,-0.00632304874416,0.0119193398867,-0.999908970052,0.0,0.260671929666,-0.265585311066,0.304959062525,1.0,-0.0103509677419,-0.0136041290323,3.176
-0.666783342005,-0.515764186874,-0.125169595252,-2.63773677191,-0.0670981162832,2.11144673589,-0.914738836228,-0.0499050872154,0.00608803729306,0.000375688079041,0.00894192363874,-3.17935509811e-05,0.000942772434127,-0.0451216588599,0.573804920433,0.818957205571,0.00614456120333,0.0,0.81895583111,-0.573713713892,-0.0120278045871,0.0,-0.00632515998455,0.011933967447,-0.999908782226,0.0,0.260484261248,-0.265825208579,0.304955506038,1.0,-0.0100109677419,-0.0131572718894,3.193
-0.667498606043,-0.515608647084,-0.125161374782,-2.63762439461,-0.067075996045,2.11147942516,-0.91546509773,-0.0429981945661,0.0104543118671,-0.000419671417127,0.00825806843658,0.0034313855361,0.00170752648825,-0.0434932559643,0.573805414931,0.818956788456,0.00615396935964,0.0,0.818955490838,-0.57371408178,-0.0120334240761,0.0,-0.0063243572185,0.0119449008689,-0.999908656753,0.0,0.260324897446,-0.266038747339,0.304952138317,1.0,-0.00969096774194,-0.0127367004608,3.209
-0.668270937245,-0.515442806738,-0.125139803386,-2.63751174948,-0.0670565695064,2.11152610804,-0.916223046165,-0.0480652710406,0.00488297365378,0.000188551120179,0.00608601477866,0.000350658863765,0.00238577676058,-0.0352096013202,0.573816105341,0.818949300506,0.0061536455438,0.0,0.818947986093,-0.573724747558,-0.0120356559629,0.0,-0.00632621509504,0.0119459988526,-0.999908631883,0.0,0.260154912884,-0.266266326595,0.304946588897,1.0,-0.00933096774194,-0.0122635576037,3.227
-0.668976657332,-0.51530115838,-0.125091591386,-2.63741156271,-0.0670380511277,2.11154377668,-0.916897380704,-0.0387523033456,0.00794884299541,0.00488356703988,0.00152658659905,7.63872832102e-05,-0.000214746304283,-0.0427940469059,0.573820728745,0.818946141476,0.00614292483046,0.0,0.818944569658,-0.573729194152,-0.0120561398,0.0,-0.00634907609695,0.011949007913,-0.999908451031,0.0,0.260001567855,-0.266463845514,0.304942455774,1.0,-0.00899096774194,-0.0118167004608,3.244
-0.669624111396,-0.515170448665,-0.125048916559,-2.63731763767,-0.0670154178492,2.11156831768,-0.917546530031,-0.0459040301474,0.00612916416079,0.00249415383565,0.0043758494915,-0.00027394466414,0.000899576199982,-0.0430765952591,0.573803601204,0.818958181854,0.00613763155648,0.0,0.818956490996,-0.573711998973,-0.0120646173112,0.0,-0.00635930662509,0.0119494041259,-0.999908381283,0.0,0.259862654548,-0.266646460072,0.304939969313,1.0,-0.00867096774194,-0.0113961290323,3.26
-0.670279128476,-0.515041561163,-0.125013800981,-2.63722219731,-0.0669901674139,2.11159507444,-0.918238246305,-0.0364018675317,0.0108051814614,-0.000680360498255,0.00281821602488,-3.70412346314e-05,0.00159612639761,-0.0457815595162,0.573764351464,0.818985676971,0.00613814365871,0.0,0.818983973767,-0.573672719612,-0.012066830015,0.0,-0.00636139785929,0.0119507882727,-0.999908351439,0.0,0.259720873263,-0.266833079896,0.304938851162,1.0,-0.00833096774194,-0.0109492718894,3.277
-0.670910393435,-0.514915182842,-0.124990996502,-2.63713222531,-0.0669656114647,2.11162122875,-0.91887448476,-0.0333273827703,0.0116466089274,0.000620905821816,0.00421308016263,-0.00023748102771,0.00579283204037,-0.0346449496069,0.573759272825,0.81898918869,0.00614431090906,0.0,0.818987522099,-0.573667533062,-0.0120725745953,0.0,-0.00636263889219,0.011959095837,-0.999908244217,0.0,0.259581219212,-0.267014705311,0.304935829061,1.0,-0.00799096774194,-0.0105024147466,3.294
-0.671489265756,-0.514820856212,-0.124981313622,-2.63705433715,-0.0669456634125,2.1116366968,-0.919443873885,-0.0331317844503,0.000253089208993,-0.000123414866877,0.00641753230369,0.00178137728824,-0.000556708826526,-0.0282726960791,0.573772654022,0.8189797387,0.00615434787632,0.0,0.81897820788,-0.573680877119,-0.0120703416143,0.0,-0.00635485588421,0.0119661391227,-0.999908209448,0.0,0.259440319254,-0.267190470758,0.304937836447,1.0,-0.00765096774194,-0.0100555576037,3.311
-0.672122472606,-0.514697044287,-0.124959344176,-2.63697781397,-0.0669192947781,2.11166158351,-0.920041633861,-0.0357137740493,0.00305194086779,-0.000148401497497,0.00676297981559,0.000106933033233,0.000347678904161,-0.027825651801,0.573801452338,0.818959491556,0.00616371520892,0.0,0.818957970178,-0.573709416255,-0.0120870047309,0.0,-0.0063627082962,0.0119835952866,-0.999907950457,0.0,0.259304824543,-0.267360141698,0.304929610583,1.0,-0.00731096774194,-0.00960870046084,3.328
-0.672715223684,-0.514601373126,-0.124943081422,-2.63690456089,-0.0668953402192,2.11167473364,-0.920630702919,-0.03256703724,0.00883498755564,0.00346820240701,0.00191443096967,0.000184703566324,0.00209834020432,-0.0345938873291,0.573806946755,0.818955558749,0.00617475113279,0.0,0.81895414122,-0.57371478563,-0.012091576824,0.0,-0.00636004048209,0.0119952997367,-0.999907827087,0.0,0.259168503142,-0.267527326498,0.30492906124,1.0,-0.00695096774194,-0.00913555760369,3.346
-0.673214857204,-0.514502680128,-0.124922740955,-2.63683515096,-0.0668730472791,2.11169297566,-0.921135507658,-0.0317016748088,0.00805104967816,0.00451662150543,0.00204970358646,0.000294933398985,0.00261533500367,-0.029827409322,0.573801414271,0.818959383999,0.00618152425343,0.0,0.81895800166,-0.573709124293,-0.0120987239635,0.0,-0.00636208914806,0.0120049048026,-0.999907698781,0.0,0.25905762616,-0.267669284132,0.304926176208,1.0,-0.00663096774194,-0.00871498617512,3.362
-0.673694328109,-0.514420742297,-0.124892723855,-2.63676180454,-0.0668539897763,2.11171395026,-0.921630118458,-0.0273667676657,0.00763596195768,0.00269869437506,0.00544659492764,0.00108048224382,0.000296881078175,-0.0343401070945,0.573779550468,0.818974724309,0.00617861717739,0.0,0.81897340271,-0.573687464154,-0.0120832954063,0.0,-0.00635144058852,0.0119935018523,-0.999907903317,0.0,0.258955621298,-0.267805937661,0.304931724791,1.0,-0.00631096774194,-0.00829441474655,3.378
-0.674115635271,-0.514355222363,-0.12486569959,-2.63669712092,-0.0668363725355,2.11172754406,-0.922056114102,-0.0249118147315,0.00757058444628,0.00101163846081,0.00831156573041,0.000342123204584,0.000481735236599,-0.0298457688031,0.573767286772,0.818983331588,0.00617657768065,0.0,0.818982082421,-0.573675399049,-0.0120678126077,0.0,-0.00634010877545,0.0119828532554,-0.999908102902,0.0,0.258865604667,-0.267925235239,0.304938701789,1.0,-0.00601096774194,-0.00790012903226,3.393
-0.674572747214,-0.514261513709,-0.124844051846,-2.63662296215,-0.0668107261317,2.11175510065,-0.922489947583,-0.0274996078779,0.00562521532106,0.00330335685999,0.00267209972502,0.000930876221528,0.000121580689908,-0.0263223425318,0.573785736182,0.818970362814,0.00618228821095,0.0,0.818969257792,-0.573693951595,-0.0120561849932,0.0,-0.00632703865952,0.0119810016409,-0.999908207878,0.0,0.258769129888,-0.268058130419,0.304940634714,1.0,-0.00567096774194,-0.00745327188941,3.41
-0.675034785209,-0.514168492355,-0.124815291561,-2.63655733222,-0.0667858075517,2.11178104601,-0.92295613057,-0.0220934954576,0.00823110587374,0.000681597861229,0.00183601803633,0.00246535712979,0.00261142674916,-0.0282440094668,0.573775963195,0.818977182456,0.00618591773159,0.0,0.818976133925,-0.573684182366,-0.0120539564323,0.0,-0.00632327386297,0.0119826201534,-0.999908212298,0.0,0.258670659401,-0.268188355958,0.304938973985,1.0,-0.00529096774194,-0.00695384331798,3.429
-0.67540770207,-0.514107440514,-0.12479995655,-2.63651582814,-0.066770444978,2.11179537223,-0.923325708458,-0.0202375520803,0.00187624353309,-0.00118625266292,-0.00137288323991,0.000297377666802,0.00283905946879,-0.026737010733,0.573776535595,0.818976745968,0.00619061103913,0.0,0.8189757388,-0.573684696741,-0.0120563213298,0.0,-0.00632250972235,0.0119878253368,-0.999908154739,0.0,0.25858564826,-0.268291878754,0.304936855067,1.0,-0.00497096774194,-0.00653327188941,3.445
-0.67579869683,-0.514048938532,-0.124781063427,-2.63646949186,-0.0667529489407,2.11180921779,-0.92369987844,-0.0207300558566,0.00507750786079,0.00123172130744,0.00292462444167,0.00328352918082,0.000102181155353,-0.0209184385221,0.573786741644,0.818969566208,0.00619448462527,0.0,0.818968635797,-0.573694933642,-0.0120517050863,0.0,-0.00631635685,0.0119884280301,-0.9999081864,0.0,0.258497802873,-0.268400318196,0.30493791587,1.0,-0.00463096774194,-0.00608641474655,3.462
-0.676169356528,-0.513975573925,-0.124752269173,-2.63641681227,-0.0667388191491,2.11181887142,-0.924050005854,-0.0205252973869,0.00183789483248,0.000798945889604,0.00617062686273,-7.27519041599e-05,-0.000400684606997,-0.0229071925333,0.573791868534,0.818966001864,0.00619082353446,0.0,0.818964971352,-0.573699975972,-0.0120606868958,0.0,-0.00632573900393,0.0119906225449,-0.999908100776,0.0,0.258417736726,-0.268502484519,0.304936236192,1.0,-0.00429096774194,-0.00563955760369,3.479
-0.676493975397,-0.513916379955,-0.124738133784,-2.63637138242,-0.0667223481024,2.11182443695,-0.924355633608,-0.0201879434893,0.00511190468949,-9.69116324755e-05,0.00312301530649,0.000415787260504,0.00189231030966,-0.0176741752266,0.573806761698,0.818955522678,0.00619669312937,0.0,0.8189545291,-0.573714765348,-0.0120662416888,0.0,-0.00632670273296,0.0119987319858,-0.999907997399,0.0,0.258344971246,-0.26859339635,0.304935808442,1.0,-0.00397096774194,-0.00521898617512,3.495
-0.676822908225,-0.513850187773,-0.124719611547,-2.63632780367,-0.0667067074271,2.1118364013,-0.924698003089,-0.0161364107285,0.00455655638543,0.00094744645543,0.000714398254727,0.000209899711581,-0.000350716898284,-0.0136642809963,0.573791565752,0.818966144193,0.00620005150375,0.0,0.818965138403,-0.573699451801,-0.0120742695687,0.0,-0.00633157374621,0.0120059712312,-0.999907879671,0.0,0.258272349506,-0.26868486102,0.304932600252,1.0,-0.00361096774194,-0.00474584331798,3.513
-0.67708797553,-0.513805442687,-0.124697727109,-2.6362882445,-0.066696207229,2.11184984754,-0.92495979147,-0.0178495141955,0.00484873865359,0.0020736902123,0.00174399832158,0.000694896298476,0.00067558629912,-0.011681755417,0.573785182218,0.818970650773,0.00619554203348,0.0,0.818969651433,-0.573693213038,-0.0120645864362,0.0,-0.00632632359063,0.0119966727994,-0.999908024506,0.0,0.258216946622,-0.26875913869,0.304935694812,1.0,-0.00329096774194,-0.00432527188941,3.529
-0.677340092996,-0.513759297282,-0.12466827947,-2.63626750778,-0.0666840397961,2.111860955,-0.925190049944,-0.0119949608726,0.000844130816859,-0.000121035928722,0.00450760444201,-0.00023041750207,0.00044756035181,-0.0108435089901,0.573788495443,0.818968355999,0.00619203290036,0.0,0.818967233992,-0.573696395132,-0.0120773656555,0.0,-0.0063387553829,0.0120011565851,-0.999907891968,0.0,0.25816227217,-0.268822969477,0.30492970077,1.0,-0.00297096774194,-0.00390470046084,3.545
-0.677595194808,-0.513736580176,-0.1246401068,-2.6362446974,-0.0666693035192,2.11187037731,-0.92543114293,-0.015229621241,-0.000842148877106,0.00395124352705,0.000125435218382,7.34882862826e-05,-3.71943164301e-05,-0.0132991799123,0.573787366434,0.818969164106,0.00618977106191,0.0,0.818968086871,-0.573695416875,-0.0120659953868,0.0,-0.00633075675296,0.0119927715791,-0.999908043246,0.0,0.258107443855,-0.268888292264,0.304933136183,1.0,-0.00261096774194,-0.00343155760369,3.563
