nelsonifechukwu/NELSON_IML_WORK/CNN-GradCAM/train2dof/data_sample_2022-02-22-08-43-27/robot_state.csv
position_joint1,position_joint2,position_joint3,position_joint4,position_joint5,position_joint6,position_joint7,velocity_joint1,velocity_joint2,velocity_joint3,velocity_joint4,velocity_joint5,velocity_joint6,velocity_joint7,ee_T_00,ee_T_10,ee_T_20,ee_T_30,ee_T_01,ee_T_11,ee_T_21,ee_T_31,ee_T_02,ee_T_12,ee_T_22,ee_T_32,ee_T_03,ee_T_13,ee_T_23,ee_T_33,v_x,v_y,time
0.465066952914,0.547761227948,-0.124009140851,-1.35583916491,0.0795015009774,1.89411478157,0.159152811295,-0.003658228866,-0.000323907591214,-0.00037935665861,0.000146598424132,8.35921931784e-05,-0.000311058567522,0.00771697175115,0.573821246646,0.818966462293,0.0019640362374,0.0,0.818923600605,-0.573762714784,-0.0118840396397,0.0,-0.00860590482831,0.00842787233115,-0.999927452053,0.0,0.661685443998,0.260874833484,0.303227506001,1.0,0.0,0.0,0.0
0.465071901397,0.547761485371,-0.124006714209,-1.3558412873,0.0795015009774,1.89411489926,0.159154903427,0.00101472467582,-0.000587753268046,0.000331956205282,-0.000339331224826,0.000227190483362,-0.000148366169016,0.000789543218039,0.573817328961,0.81896921039,0.00196273261764,0.0,0.818926317065,-0.573758788579,-0.0118864060087,0.0,-0.00860863119717,0.00842812140827,-0.999927426486,0.0,0.661683125495,0.260879264389,0.303226243358,1.0,-0.00026,-0.000341714285714,0.014
0.465060901307,0.547759130873,-0.124009850268,-1.35584545224,0.0795001785429,1.89411561139,0.159149291242,-0.00276698989967,0.00176885453517,-0.00104582407116,-0.000840144780758,-0.000303229200805,0.000112852841885,-0.00129104965313,0.57382381063,0.818964674231,0.00196051461381,0.0,0.818921776895,-0.573765302919,-0.0118847547503,0.0,-0.00860848478117,0.00842542558596,-0.999927450465,0.0,0.661686038906,0.260869541174,0.303226092259,1.0,-0.0006,-0.000788571428571,0.031
0.465063423403,0.547726582109,-0.124007318342,-1.35587211136,0.0795007362415,1.89411803555,0.159152563693,8.76812870097e-05,-0.00330244019912,0.000150601515213,-0.00156448852112,3.09724904365e-06,6.77475332307e-05,0.000983503684769,0.573824218748,0.818964365336,0.00197007353407,0.0,0.818921550669,-0.573765630778,-0.0118845146714,0.0,-0.00860279916178,0.00843312038367,-0.999927434531,0.0,0.661680002254,0.260870195248,0.30323658925,1.0,-0.00094,-0.00123542857143,0.048
0.465065448567,0.547638666387,-0.124004534287,-1.35596751792,0.0794967093847,1.89414349466,0.159152445051,0.000664760571331,-0.00462118671907,-0.00133667841044,-0.00527679957853,-6.85635312309e-05,-0.000297526807752,0.000236074229087,0.573824681307,0.818963997914,0.00198800006489,0.0,0.81892137468,-0.573765978602,-0.011879848136,0.0,-0.00858868648022,0.00844512841152,-0.999927454504,0.0,0.661664592561,0.260864056256,0.303255570912,1.0,-0.00126,-0.001656,0.064
0.46506196652,0.547504188982,-0.124010060772,-1.3561521002,0.0794960568005,1.89417851817,0.159148057363,0.000459190283431,-0.00916998382411,-0.00478164275923,-0.00811811053594,0.000740063408755,0.00170063399874,1.94126324251e-05,0.573837710488,0.818954885306,0.00198109979513,0.0,0.818912061174,-0.573778925393,-0.0118965431793,0.0,-0.00860618453908,0.0084491942905,-0.999927269707,0.0,0.661635023961,0.26084067906,0.303266201827,1.0,-0.0016,-0.00210285714286,0.081
0.465039956848,0.54733974073,-0.124009905842,-1.35637597891,0.0794911434086,1.89429483755,0.159136865465,0.000765656759376,-0.0152167620474,-0.000595567900332,-0.0099017598698,0.000403104378338,0.00817358747817,-0.00226677388389,0.573857897018,0.818940612581,0.00203322339345,0.0,0.818898434453,-0.57379886417,-0.0118728441653,0.0,-0.00855665774226,0.00847849207538,-0.999927446758,0.0,0.661617219849,0.260808904569,0.303286220304,1.0,-0.00196,-0.002576,0.099
0.465023592196,0.547165409951,-0.124008054943,-1.35658304111,0.0794907639986,1.89439929146,0.159126016313,0.000466546935555,-0.00452326810141,-0.00112819161213,-0.0107989411545,-8.87217273619e-05,0.00306941613361,-0.00105926642491,0.573872733498,0.818930044406,0.00210119430078,0.0,0.818888672303,-0.573813346904,-0.0118461888648,0.0,-0.00849567020686,0.008519013014,-0.999927622383,0.0,0.661599043827,0.260783903715,0.303320158445,1.0,-0.00228,-0.00299657142857,0.115
0.464998137627,0.546953277175,-0.124009532138,-1.35686541539,0.0794848720361,1.89453592175,0.159111637414,-0.00118656567081,-0.0167168266349,-0.000714766373197,-0.0244550054558,-0.000853933287628,0.0104766896336,-0.000937090505666,0.573896484292,0.818913223953,0.00216883690034,0.0,0.818872662794,-0.573836757551,-0.0118188287691,0.0,-0.00843419922055,0.00855895031308,-0.99992780172,0.0,0.661572574667,0.260743598554,0.303351011983,1.0,-0.00264,-0.00346971428571,0.133
0.464962328932,0.546698587856,-0.124009462362,-1.35724767368,0.0794782834183,1.89466692002,0.159088231446,-0.00382151428465,-0.0120463894778,-0.000147321210984,-0.0225736822829,5.66210522681e-05,0.0100025815273,-4.16213150855e-05,0.573926919604,0.818891877797,0.00217493295276,0.0,0.818851257638,-0.573867024761,-0.0118322718732,0.0,-0.00844139155311,0.00857197096874,-0.999927629492,0.0,0.661529285479,0.260685955398,0.303357711142,1.0,-0.00298,-0.00391657142857,0.15
0.464930363791,0.546466665659,-0.124005353065,-1.35757753442,0.0794695696799,1.89479323703,0.158986273441,-0.00380765178609,-0.0134869542356,2.58827992728e-05,-0.0233933060617,-0.000110464013875,0.00782851504859,-0.0106759702274,0.573882871664,0.818922660927,0.00220724562405,0.0,0.818882341243,-0.573822733367,-0.0118291492296,0.0,-0.00842075277199,0.00859618609677,-0.999927595632,0.0,0.661492786214,0.26063824689,0.303375768456,1.0,-0.00326,-0.00428457142857,0.164
0.464884918628,0.546165233532,-0.124005599668,-1.35807817582,0.0794574861926,1.89496974804,0.158909190271,-8.10269246286e-05,-0.019229826046,0.000322085149393,-0.0335970968268,0.000330487525446,0.00376880671335,-0.000984037075961,0.573881919637,0.818923354076,0.00219758126041,0.0,0.81888272972,-0.573821637065,-0.0118554082245,0.0,-0.00844781363729,0.00860333141205,-0.999927305924,0.0,0.661433604361,0.260562595259,0.303366244238,1.0,-0.00362,-0.00475771428571,0.182
0.464827824642,0.545833302492,-0.124003430538,-1.35862037188,0.079430581702,1.89515424015,0.158872417118,-0.00312236866969,-0.0239478330681,0.0012422110128,-0.030077917754,-0.00118820901064,0.0110592726112,-0.00538858446066,0.573920140593,0.818896618177,0.00217895888763,0.0,0.818855664237,-0.573859838618,-0.011875759751,0.0,-0.00847476566827,0.00860015611287,-0.999927105174,0.0,0.661370541126,0.260474248836,0.30335910054,1.0,-0.00396,-0.00520457142857,0.199
0.464771688158,0.545530937957,-0.124007731881,-1.35915250253,0.0793228072952,1.89533483141,0.15878196615,-0.00559962962051,-0.018429019098,-0.000107352636706,-0.0339156152218,-0.00485231885964,0.00833175699936,-0.000847513344316,0.573896110509,0.818913681061,0.00209385167508,0.0,0.818872287469,-0.573836824543,-0.0118415587906,0.0,-0.00849584887383,0.00851058549823,-0.999927692629,0.0,0.661313939497,0.26037023508,0.303335518511,1.0,-0.00426,-0.00559885714286,0.214
0.464703856089,0.545107151255,-0.12401370948,-1.35988945358,0.0792986190189,1.89556744849,0.158721461587,-0.00225285719527,-0.0211316755108,-0.00102587440419,-0.0439191299312,-0.000461035820787,0.0071156211151,-0.00160691131248,0.573940829702,0.818882489488,0.00203453018236,0.0,0.818840110293,-0.573881565256,-0.0118983081541,0.0,-0.00857590194899,0.00849504332884,-0.999927141418,0.0,0.661222528631,0.260251867024,0.303305109964,1.0,-0.00462,-0.006072,0.232
0.464643922646,0.544675406336,-0.124010953188,-1.36060415582,0.0792820335809,1.89580377192,0.158604618003,0.00050081230993,-0.0232316849969,-0.000101870789811,-0.0431176453071,-0.00289738322437,0.0208415894334,-0.0107147174914,0.573927628625,0.818891800953,0.00201055551966,0.0,0.818848804337,-0.573868163376,-0.0119462797805,0.0,-0.00862908289731,0.00850280471399,-0.999926617928,0.0,0.661132608437,0.260148017927,0.303290931304,1.0,-0.00496,-0.00651885714286,0.249
0.464575303984,0.54423283054,-0.124013329961,-1.36131635824,0.0792522464267,1.89606214522,0.158527995567,-0.00286755521243,-0.0278125365939,-8.72628505615e-05,-0.0470683619304,-0.00344420322041,0.0125928103178,-0.00430505776681,0.573954521539,0.818872960864,0.00200700566627,0.0,0.818829796952,-0.57389494858,-0.0119623792839,0.0,-0.00864402495378,0.00850942155326,-0.999926432583,0.0,0.661052038648,0.260035261131,0.303287624952,1.0,-0.00528,-0.00693942857143,0.265
0.464498698345,0.543697430826,-0.124017173233,-1.36218336397,0.0792112937626,1.89636089984,0.158424083133,-0.00945083294981,-0.026748440831,-0.00173428713868,-0.0517225569415,-0.00462478457295,0.0148726575821,-0.00624274163647,0.573972146154,0.818860662798,0.00198425343489,0.0,0.81881707774,-0.573912544527,-0.0119888005394,0.0,-0.0086785363068,0.00850614194408,-0.999926161552,0.0,0.660949274105,0.259900155193,0.303279807476,1.0,-0.00564,-0.00741257142857,0.283
0.464425847634,0.543154232524,-0.124020074296,-1.3630381812,0.0791546378183,1.8966621325,0.158305255436,-0.00272079735267,-0.0337693951718,-0.000324897550861,-0.0556616500884,-0.00120820502986,0.0231796750146,-0.00560994310541,0.573968926509,0.818862948794,0.00197215516572,0.0,0.818819236744,-0.573909406707,-0.011991552537,0.0,-0.00868776693643,0.00849778073301,-0.999926152487,0.0,0.660849574305,0.259767263661,0.303283396871,1.0,-0.00598,-0.00785942857143,0.3
0.464354149618,0.542616689341,-0.124023372548,-1.36388461426,0.0791097996963,1.89696431855,0.158187975201,-0.0041912961798,-0.0356160179163,-0.000611043598718,-0.0574710619859,-5.86448221252e-05,0.0124368607614,-0.0151687221318,0.573968975009,0.818862921982,0.00196917031754,0.0,0.81881910576,-0.573909404096,-0.0120006180633,0.0,-0.00869690325174,0.00850054038951,-0.999926049609,0.0,0.660750851924,0.259637808053,0.303287029336,1.0,-0.0063,-0.00828,0.316
0.464276604234,0.542026230619,-0.124015842059,-1.36480560471,0.0790558122449,1.89730537958,0.158066820375,-0.00184011935366,-0.0330733709759,0.00141849804606,-0.0497977200511,-0.0070641112588,0.021539822428,-0.00686179940128,0.573964767982,0.818865843412,0.00198053265349,0.0,0.818822113787,-0.573905088978,-0.0120017382098,0.0,-0.00869134304818,0.00851044267314,-0.999926013724,0.0,0.660643506271,0.259503775791,0.303295532656,1.0,-0.00664,-0.00872685714286,0.333
0.464188422667,0.541386217385,-0.124026899096,-1.36577944358,0.0789916592598,1.89765979254,0.157938775518,-0.00761639287545,-0.0340291236733,0.000740032508603,-0.0575506502799,-0.0045372087261,0.0220986215123,-0.00859783916958,0.573976741221,0.818857421286,0.00199274787386,0.0,0.81881394097,-0.573917097181,-0.0119850964791,0.0,-0.0086705800571,0.00851102022378,-0.999926189064,0.0,0.660535370409,0.259345593081,0.303315588632,1.0,-0.00698,-0.00917371428571,0.35
0.464110482414,0.540745356164,-0.124027618665,-1.36677057273,0.0789421611289,1.89802439526,0.157823065857,-0.00821307517835,-0.0373762965073,-0.000510088081008,-0.0588064469876,-0.00257128008266,0.0191431766816,-0.00765102312063,0.573988041829,0.81884945732,0.00201022017679,0.0,0.818806103053,-0.57392822254,-0.0119878220558,0.0,-0.00866266627505,0.00852701122825,-0.999926121417,0.0,0.660419286466,0.259201193199,0.303328497506,1.0,-0.0073,-0.00959428571429,0.366
0.464003038138,0.539970379156,-0.124030104676,-1.36794795243,0.0788682983944,1.89846107436,0.157672948214,-0.00786688612066,-0.0470423897958,-0.000141070990792,-0.0716181711247,-0.00363669668891,0.0218197197645,-0.00346070015969,0.574000281638,0.818840810407,0.00203734923622,0.0,0.818797841117,-0.573940377665,-0.0119701782929,0.0,-0.00863251970679,0.00853922727421,-0.999926277883,0.0,0.660287301687,0.259016899817,0.303353715839,1.0,-0.00766,-0.0100674285714,0.384
0.463911768613,0.539276296846,-0.124035283972,-1.36903247317,0.0788074620898,1.89887171789,0.157537828846,-0.000255538666064,-0.0456007056139,-0.000657411096887,-0.0667256858577,-0.00265705570155,0.0234649569041,-0.0089756650112,0.574011805382,0.818832688159,0.00205499048502,0.0,0.81878993541,-0.57395181302,-0.0119626461603,0.0,-0.00861610608509,0.00854947024993,-0.999926331924,0.0,0.660164930161,0.258852032103,0.303363700099,1.0,-0.00798,-0.010488,0.4
0.463803165888,0.538566803212,-0.124031740161,-1.37014719517,0.0787438851136,1.89930306104,0.157403109431,-0.00550612889715,-0.0480540150831,0.000883959940763,-0.0725934668466,-0.000210143863446,0.0317416291368,-0.0120605088871,0.574032648927,0.818818016277,0.00207872249342,0.0,0.818775537666,-0.573972520381,-0.0119545668342,0.0,-0.00859565060483,0.00856448368669,-0.999926379495,0.0,0.660042537586,0.25867837069,0.303371596597,1.0,-0.0083,-0.0109085714286,0.416
0.463686237069,0.537731758645,-0.124042522453,-1.37145477267,0.0786774495105,1.89980559669,0.157236285908,-0.00941041061327,-0.0481249721818,0.000293389996177,-0.0748408377242,-0.00236079609329,0.030129588997,-0.0137901494969,0.574053876393,0.818803061498,0.00210722112559,0.0,0.81876090837,-0.573993581619,-0.0119452955531,0.0,-0.00857147819572,0.00858271874375,-0.999926430644,0.0,0.659898338313,0.258474036919,0.30338290136,1.0,-0.00866,-0.0113817142857,0.434
0.463577426572,0.536903882675,-0.124051355714,-1.3727574834,0.0785904809968,1.90027919626,0.157076265488,-0.011386988201,-0.0483518768853,0.00126445371771,-0.0818309862955,-0.000361181222474,0.0254650861874,-0.00653896812638,0.574066562996,0.818794187815,0.00209908356469,0.0,0.818752020642,-0.574006392182,-0.0119388998549,0.0,-0.00857077944032,0.00857251716327,-0.999926524145,0.0,0.659747593581,0.258271416625,0.303388691091,1.0,-0.009,-0.0118285714286,0.451
0.463470438363,0.536160037388,-0.124051419312,-1.37391469808,0.0785329616226,1.90071500129,0.156937232117,-0.0085032815172,-0.0472184978797,0.00133695435687,-0.076233731521,-0.00817710197948,0.0288173113404,-0.00838785313221,0.574088681328,0.818778615003,0.00212426108597,0.0,0.818736664669,-0.574028292877,-0.0119390035433,0.0,-0.0085561795539,0.008593422687,-0.999926469736,0.0,0.65961646744,0.258093459708,0.303400747944,1.0,-0.0093,-0.0122228571429,0.466
0.463348275478,0.535206491817,-0.124061663246,-1.37540736857,0.0784453032982,1.90125136959,0.156749358385,-0.00786383529782,-0.0572021537857,-0.00329257393482,-0.0834198048414,-0.00223231443799,0.0341241159117,-0.0133583050155,0.574100465292,0.818770361229,0.00212090191117,0.0,0.818728354963,-0.574040076937,-0.0119422674237,0.0,-0.00856065673532,0.00859266925288,-0.99992643789,0.0,0.659440660273,0.257864490673,0.303410005509,1.0,-0.00966,-0.012696,0.484
0.463227724103,0.534310240616,-0.1240613224,-1.37686784921,0.0783600355675,1.90178382438,0.156578456241,-0.00448874041253,-0.0592865996552,0.000732785658131,-0.0886623569129,-0.00842740405878,0.0375501562044,-0.00970325481495,0.574116224673,0.81875937975,0.00209416778235,0.0,0.818716962337,-0.574055881857,-0.0119635692239,0.0,-0.00859328063156,0.00858317513453,-0.999926239596,0.0,0.659266691912,0.257645935204,0.303393301357,1.0,-0.01,-0.0131428571429,0.501
0.463101519754,0.533438883345,-0.124066284388,-1.37826566718,0.0782807225877,1.90229367466,0.156399721973,-0.00673924082951,-0.0551896157158,-0.000295501309781,-0.0901742964273,-0.00894578137407,0.0332286212328,-0.0108172720747,0.574131937674,0.818748395365,0.00208089671067,0.0,0.818705751545,-0.574071594805,-0.0119767828029,0.0,-0.00861155380727,0.00858006081587,-0.999926109119,0.0,0.659104114857,0.257427135087,0.303386901618,1.0,-0.01032,-0.0135634285714,0.517
0.462976482018,0.532501580145,-0.124063869461,-1.37978061657,0.0782071375323,1.90286900111,0.156212540073,-0.00694167591738,-0.0573184880091,9.12619463512e-05,-0.0889318442658,-0.00326985737948,0.0275642942938,-0.0181508479878,0.574142589109,0.818740909682,0.00208736313053,0.0,0.818698172854,-0.574082041141,-0.0119941112894,0.0,-0.00862191789997,0.0085954159792,-0.999925887932,0.0,0.658926401646,0.257205724138,0.303376540189,1.0,-0.01066,-0.0140102857143,0.534
0.462834846405,0.531465058005,-0.12406206018,-1.38144542859,0.0780947668864,1.90347760014,0.155988189005,-0.00773416132661,-0.0596744525733,-0.000114964791424,-0.0906070423914,-0.00616755532397,0.0321328653933,-0.0156812619782,0.574134153966,0.818746884707,0.002063718156,0.0,0.818703897469,-0.574073764018,-0.0119995264986,0.0,-0.0086400148361,0.00857907726571,-0.999925872041,0.0,0.658729115179,0.2569525794,0.303367421242,1.0,-0.01102,-0.0144834285714,0.552
0.462708058286,0.530514688686,-0.124062060216,-1.38298430346,0.0780011664089,1.90401404315,0.15580012196,-0.00953420832095,-0.0554480820227,0.000270948943496,-0.0969089695154,-0.00507358580704,0.0264639344677,-0.0115816895163,0.574142405402,0.81874120991,0.00201901349193,0.0,0.81869756895,-0.574082134197,-0.0120308225595,0.0,-0.00869121797703,0.00856053165755,-0.999925587245,0.0,0.658539651593,0.256720153571,0.303351134753,1.0,-0.01134,-0.014904,0.568
0.462570046239,0.529471510758,-0.124067960629,-1.38462189614,0.0779028604855,1.90462281351,0.155573042348,-0.00708736720995,-0.0620610758427,-0.000326753598926,-0.097108397249,-0.00990653480322,0.0375255937283,-0.0105952614535,0.574136194685,0.818745538627,0.00202973689429,0.0,0.818702039331,-0.574075880253,-0.0120250325405,0.0,-0.00868038587446,0.00856592107897,-0.999925635184,0.0,0.658348069498,0.256470563959,0.303359476126,1.0,-0.01168,-0.0153508571429,0.585
0.462438357707,0.528372356322,-0.124068750982,-1.3863201858,0.0777976262579,1.90527121688,0.155341771878,-0.0074926659075,-0.0591154743887,0.000542809111319,-0.0988016870585,-0.000781207634694,0.0363039475883,-0.0146266584139,0.574119072502,0.818757446025,0.00206931632824,0.0,0.818714495851,-0.574058625183,-0.0120006682479,0.0,-0.00863789390504,0.00858415706997,-0.999925846769,0.0,0.658148797145,0.256223229725,0.303381347784,1.0,-0.01202,-0.0157977142857,0.602
0.462301064037,0.527329286728,-0.124068439715,-1.38795257474,0.0776865635652,1.90590419225,0.155110177799,-0.00809803533464,-0.066479918945,-0.000134693841631,-0.105747122244,-0.00949752342299,0.0438185420667,-0.0104843903971,0.574100195019,0.818770608902,0.00209832773055,0.0,0.818728163278,-0.574039754589,-0.0119708691892,0.0,-0.00859703783922,0.00859060374057,-0.999926143506,0.0,0.657961420845,0.255977974755,0.30339346232,1.0,-0.01234,-0.0162182857143,0.618
0.462144603825,0.526081374927,-0.124076209619,-1.38987748449,0.0775702698612,1.90662156666,0.154857127459,-0.0122356038856,-0.071175323229,-0.000195361244931,-0.107628148565,-0.011206255276,0.0407051714744,-0.012203766384,0.574099181695,0.818771235568,0.00213079437465,0.0,0.818729230683,-0.574038624745,-0.0119520302425,0.0,-0.00856298516078,0.00860636012004,-0.999926300209,0.0,0.657734202365,0.255688289212,0.303417800025,1.0,-0.0127,-0.0166914285714,0.636
0.461991981527,0.524976498543,-0.124071720584,-1.3916109169,0.0774688461084,1.90723858101,0.154620747945,-0.00951273470672,-0.0678752480727,0.000475991861979,-0.10985808659,-0.00501226654526,0.0414675207907,-0.0200364529049,0.574093297929,0.818775376875,0.00212471130455,0.0,0.818733175122,-0.574032648737,-0.0119688362022,0.0,-0.00858029991163,0.00861096606808,-0.999926112129,0.0,0.657522938054,0.255424761986,0.303423253735,1.0,-0.01302,-0.017112,0.652
0.46184433569,0.523861688636,-0.124088675944,-1.39339690637,0.0773554448196,1.90787790368,0.154380042034,-0.00558370221949,-0.0645157255334,-0.000947798115024,-0.1136742788,-0.00863636562018,0.0474151416031,-0.0126873568531,0.574094375739,0.81877470903,0.00209057394701,0.0,0.818732125659,-0.574033931708,-0.0119790886118,0.0,-0.00860828014631,0.00858891281318,-0.999926061311,0.0,0.657307760769,0.255145534228,0.303413031959,1.0,-0.01334,-0.0175325714286,0.668
0.46168550925,0.522636867843,-0.124087190926,-1.3953135689,0.0772399612727,1.90861918629,0.154117752959,-0.00840331534633,-0.0739350756692,-0.000271684140461,-0.111727694276,-0.00756267160864,0.0390259632533,-0.0141371407449,0.574080435915,0.818784376859,0.00213171562002,0.0,0.818742332008,-0.574019825293,-0.011957460055,0.0,-0.00856709939535,0.00861003546857,-0.999926233328,0.0,0.657083287365,0.254862201983,0.303425886546,1.0,-0.01368,-0.0179794285714,0.685
0.461520022675,0.52140917419,-0.124089724023,-1.39730529182,0.0771145176966,1.9093890754,0.153850100487,-0.00872467132683,-0.0739643112526,-0.00129093477562,-0.118705891208,-0.00568371577634,0.0408298812815,-0.0127875062649,0.57407151622,0.818790633876,0.00213050308666,0.0,0.818748633805,-0.574010972597,-0.0119509364686,0.0,-0.00856254755322,0.00860520438715,-0.999926313904,0.0,0.656849406145,0.254563657799,0.303407338483,1.0,-0.01402,-0.0184262857143,0.702
0.461355783622,0.520185542154,-0.124087623158,-1.39920965931,0.0769967112108,1.91008594055,0.153597120593,-0.0105910286097,-0.0771777688165,0.000506615525778,-0.118339577939,-0.005386494679,0.0500148696121,-0.0218670473261,0.574067053794,0.818793728209,0.0021436641291,0.0,0.818751867797,-0.574006424611,-0.0119478192264,0.0,-0.0085524871279,0.00861414424116,-0.999926323027,0.0,0.656618993488,0.254275308202,0.303420645589,1.0,-0.01434,-0.0188468571429,0.718
0.461177604354,0.518785203735,-0.124098318959,-1.40141306184,0.0768469799416,1.91087150018,0.153294809243,-0.0161555028359,-0.0806067453715,-0.00015471458434,-0.125098687169,-0.00692586352376,0.035983070761,-0.0153819774065,0.574049471607,0.818806121201,0.00211823793076,0.0,0.818764039201,-0.57398905944,-0.0119479979719,0.0,-0.00856741342718,0.00859324441329,-0.999926375078,0.0,0.656347758075,0.253938125111,0.303423398082,1.0,-0.0147,-0.01932,0.736
0.460990135017,0.51735761586,-0.124105796692,-1.40365358658,0.0766950811951,1.91167663816,0.152995251547,-0.00994944615022,-0.0751921369708,0.00216017032,-0.123186055428,-0.0121821710487,0.0424988523266,-0.0206313792354,0.574040516459,0.818812442044,0.00210169431774,0.0,0.818770246184,-0.573980275432,-0.0119446339116,0.0,-0.00857424885994,0.00857767374025,-0.99992645018,0.0,0.656073258244,0.253593707352,0.303428746893,1.0,-0.01506,-0.0197931428571,0.754
0.460827060453,0.51615693374,-0.124100408678,-1.40554541651,0.07658151564,1.91238525246,0.152730073494,-0.0131552103442,-0.0807937312904,0.00100118003257,-0.123169463235,-0.00602431411662,0.0492235863275,-0.018102695297,0.574022534564,0.818825006543,0.00211786990197,0.0,0.818782958812,-0.57396216647,-0.0119433965494,0.0,-0.00856413944667,0.00859001992779,-0.99992643083,0.0,0.655844191155,0.253310843111,0.303431746587,1.0,-0.01536,-0.0201874285714,0.769
0.460644562823,0.514787711016,-0.124111715872,-1.40774098916,0.0764483730701,1.91320748278,0.152428614756,-0.0134594254611,-0.0794288265869,0.000608691611707,-0.128714447433,-0.0108709617816,0.0426522666326,-0.0170836174336,0.574013130548,0.818831618461,0.00211032411082,0.0,0.818789490218,-0.573952812527,-0.0119451497379,0.0,-0.00857000483309,0.00858474928186,-0.999926425842,0.0,0.655579238956,0.252976262737,0.303418407811,1.0,-0.0157,-0.0206342857143,0.786
0.460460910773,0.513391960971,-0.124107863462,-1.41000200645,0.0763131471846,1.91398939169,0.152114154681,-0.00970603185188,-0.0725919422573,0.00646787085205,-0.130439354526,-0.00606362800171,0.0512518377694,-0.0127340385125,0.573985354868,0.818851260762,0.00204255894123,0.0,0.818808073434,-0.573925147993,-0.0120004283749,0.0,-0.00865445658693,0.00856069871084,-0.999925904664,0.0,0.655287472621,0.252639415435,0.303388119598,1.0,-0.01604,-0.0210811428571,0.803
0.460276950042,0.512038003361,-0.124120028761,-1.41216524767,0.0761793702803,1.91476374567,0.151812313771,-0.00950144596175,-0.081009797905,-0.000680714354394,-0.138808838282,-0.00963281397198,0.0456098892824,-0.0143758664875,0.573974602912,0.818858880109,0.00200912389859,0.0,0.818815245973,-0.573914528681,-0.0120188864801,0.0,-0.0086888738157,0.00854380136874,-0.999925750709,0.0,0.655019152972,0.252303831342,0.303374487805,1.0,-0.01636,-0.0215017142857,0.819
0.460064964342,0.510495821396,-0.124113913041,-1.41462676697,0.0760279499427,1.91569933014,0.15146061469,-0.0115065459458,-0.0875668269513,0.000464826188926,-0.140010215014,-0.0166026347463,0.0552820054235,-0.0212308140269,0.573943751772,0.818880473452,0.00202160891537,0.0,0.818836966517,-0.573883593142,-0.0120162676656,0.0,-0.00867988588158,0.00855219451431,-0.999925757019,0.0,0.654719895506,0.251935742763,0.303363642073,1.0,-0.01672,-0.0219748571429,0.837
0.459857920592,0.509004411845,-0.124121683343,-1.41699490609,0.0758795393589,1.91656405557,0.151138621996,-0.0142320340331,-0.0900442912871,-0.000505611678816,-0.142776538399,-0.0110591883402,0.0507769655023,-0.0145530649219,0.573938307358,0.818884325093,0.00200707868851,0.0,0.81884063282,-0.573878215483,-0.0120232581998,0.0,-0.00869400632679,0.00854425054682,-0.999925702258,0.0,0.654428143976,0.251569005164,0.303355456906,1.0,-0.01706,-0.0224217142857,0.854
0.459659218174,0.507583537779,-0.124122362324,-1.41923709049,0.0757403911106,1.91736171592,0.150825544868,-0.0188041962714,-0.0883871219771,-0.000137203846015,-0.148723227295,-0.00672977713231,0.0531821440468,-0.0228554611059,0.573923690935,0.818894619287,0.00198655177433,0.0,0.818850585679,-0.573863616805,-0.0120421983679,0.0,-0.00872144957657,0.00853815640411,-0.999925515327,0.0,0.654146114548,0.251222939265,0.303351336504,1.0,-0.01738,-0.0228422857143,0.87
0.45941413698,0.505826404151,-0.124130886036,-1.42195958057,0.0755704437519,1.91838680336,0.150452079185,-0.015090817724,-0.102166067364,-0.000266219162672,-0.145908638333,-0.0062839212469,0.0510375386433,-0.0200921400456,0.573919607684,0.818897367474,0.00203282105634,0.0,0.818853986832,-0.573859384763,-0.0120125629794,0.0,-0.00867066969701,0.0085589938461,-0.999925778801,0.0,0.653817411013,0.2507998673,0.303373104692,1.0,-0.01776,-0.0233417142857,0.889
0.459195732333,0.504195906854,-0.124134694137,-1.42443483881,0.0754164710909,1.91933858663,0.150101619407,-0.00926930102414,-0.0913391385047,-0.00353263120611,-0.140204658984,-0.0113741286397,0.0518014432716,-0.0231567819647,0.573900280912,0.818910688239,0.00212112186416,0.0,0.818868514375,-0.573839745753,-0.0119603202834,0.0,-0.0085774152254,0.0086011166783,-0.999926221648,0.0,0.65352024466,0.250422335234,0.303416824867,1.0,-0.0181,-0.0237885714286,0.906
0.458986031351,0.502714570214,-0.124140876964,-1.42661132075,0.0752724253829,1.92016466073,0.149804161326,-0.0137666292999,-0.0996565399855,9.95986730536e-05,-0.14464530059,-0.00556432568236,0.0566868021937,-0.0204478009001,0.573905529967,0.818906730386,0.00222632047311,0.0,0.818866060442,-0.573844702058,-0.0118903270702,0.0,-0.00845966953056,0.00864714921823,-0.999926827724,0.0,0.653262680147,0.25007578265,0.303487080436,1.0,-0.0184,-0.0241828571429,0.921
0.458749486349,0.501003648273,-0.124147132839,-1.42917739415,0.0751070531311,1.9210706025,0.149448375755,-0.0113071197948,-0.0984686201739,-0.000304338770598,-0.147452307018,-0.0143405947772,0.0547643666988,-0.0170719305602,0.573898479573,0.81891155909,0.00226725270954,0.0,0.818871421308,-0.573837489483,-0.0118692008786,0.0,-0.0084189532847,0.00866847168162,-0.999926986747,0.0,0.652940238052,0.249670629615,0.303538563927,1.0,-0.01874,-0.0246297142857,0.938
0.458522308048,0.499396039034,-0.124141952899,-1.43162801755,0.0749475919018,1.92195748366,0.149089255821,-0.0132300633525,-0.0949069874264,0.00142823903254,-0.150664158804,-0.012134155325,0.0531262004865,-0.0259013232965,0.573868247098,0.818932646406,0.00230272097962,0.0,0.81889295494,-0.573807105865,-0.01185244743,0.0,-0.00838519992038,0.00868759248095,-0.999927104423,0.0,0.65263276261,0.24929035925,0.303570312008,1.0,-0.01906,-0.0250502857143,0.954
0.458266949581,0.497719530691,-0.124149719745,-1.43426772082,0.0747859144611,1.92293788544,0.148709900493,-0.0159748352762,-0.0997426764768,-0.000739149184876,-0.155405710098,-0.00773986803051,0.0559808584274,-0.0236042756943,0.573862786852,0.818936437322,0.00231525256607,0.0,0.818896889993,-0.573801577819,-0.0118481962218,0.0,-0.00837458526381,0.00869535944153,-0.999927125868,0.0,0.65230907941,0.248868642781,0.303568132957,1.0,-0.0194,-0.0254971428571,0.971
0.45800995494,0.496062415406,-0.124150438804,-1.43694240461,0.0746207806657,1.92388315578,0.148318223952,-0.0149971108967,-0.0968460387672,-0.00127203860478,-0.157766791976,-0.00569959444477,0.0560172468083,-0.0203755646487,0.573843575075,0.818950070699,0.0022538742154,0.0,0.818909597719,-0.573782479371,-0.0118947060478,0.0,-0.00844809947535,0.00867158682487,-0.999926713913,0.0,0.651967149075,0.248442873323,0.303531959546,1.0,-0.01974,-0.025944,0.988
0.457744637058,0.494376401631,-0.124147288762,-1.43969500366,0.0744545702237,1.92483082471,0.147933620411,-0.0131633489075,-0.0981560180473,0.00104878657974,-0.160505246814,-0.00786208955781,0.057803125234,-0.0267424206206,0.573837212659,0.818954791352,0.00215638351907,0.0,0.818912820161,-0.57377628139,-0.0119715826468,0.0,-0.00856706819446,0.00863579599195,-0.999926011448,0.0,0.65160753478,0.248005264758,0.303478339963,1.0,-0.0221765714286,-0.0291463510204,1.005
0.457442153885,0.492160540269,-0.12421905732,-1.44306451694,0.0742597698891,1.92607391271,0.14744559228,-0.0149402642886,-0.145560475126,-0.00409332760797,-0.222935294057,-0.0153645707172,0.0842878397558,-0.0348023731133,0.573853622808,0.818943109224,0.00222493753842,0.0,0.818902183636,-0.573792564222,-0.0119186317022,0.0,-0.00848419203548,0.00866172295489,-0.999926493819,0.0,0.651197157616,0.247448775577,0.30352680798,1.0,-0.031512,-0.0414157714286,1.022
0.45708085631,0.489464833652,-0.124243322489,-1.44738367989,0.0740322015632,1.92770639715,0.146804374465,-0.0227112224635,-0.181269835996,0.00136183113099,-0.296009957961,-0.0053920588267,0.107770357687,-0.0407303102132,0.573797248685,0.818982552894,0.00224551954499,0.0,0.818941599632,-0.573735811682,-0.0119424321724,0.0,-0.00849247211591,0.00869165143252,-0.99992616383,0.0,0.650649353062,0.246796799006,0.303488374431,1.0,-0.0402982857143,-0.0529634612245,1.038
0.45651909114,0.48574376301,-0.124297407633,-1.45321603208,0.0736874077707,1.92989887842,0.145938234212,-0.0342591524904,-0.238466426738,-0.00675876760682,-0.369299580472,-0.0280195769543,0.138864207894,-0.0554720141766,0.573783680021,0.818991881302,0.00230950307251,0.0,0.818951787098,-0.573722014227,-0.0119066242786,0.0,-0.00842657810102,0.00872336631559,-0.999926445126,0.0,0.649929226685,0.245850662214,0.303489384749,1.0,-0.0496337142857,-0.0652328816326,1.055
0.455838097373,0.48125740065,-0.124431453841,-1.46027225986,0.073266279311,1.93238956239,0.144853623714,-0.0401951700926,-0.282906605501,-0.0139375881805,-0.441995745794,-0.0239589256143,0.157548674591,-0.0634291075333,0.573782756844,0.818992756254,0.00222711770333,0.0,0.818951678162,-0.573721513742,-0.011938191136,0.0,-0.00849971036887,0.00867399700368,-0.999926255631,0.0,0.64903298294,0.244654247674,0.30346361342,1.0,-0.0589691428571,-0.0775023020408,1.072
0.45504718933,0.476282231959,-0.124553269593,-1.46807299587,0.0727910789401,1.93513845189,0.143712132466,-0.0530091308863,-0.323481694987,-0.00721415765623,-0.507976861264,-0.0280118449942,0.17746023805,-0.0633317495121,0.573834258917,0.818956885387,0.00214710775811,0.0,0.818914806773,-0.573773379983,-0.0119747472534,0.0,-0.00857501353394,0.00862998470466,-0.999925993515,0.0,0.648035309904,0.24332196206,0.303439094922,1.0,-0.0677554285714,-0.0890499918367,1.088
0.454006904277,0.469895122108,-0.124651454908,-1.47794101093,0.0722120819252,1.93871281101,0.142257004802,-0.0601011786128,-0.376425208632,-0.00290015155984,-0.562986737968,-0.0310955777835,0.205009128988,-0.0859019123685,0.573883425838,0.818922205623,0.00223194697768,0.0,0.818880988953,-0.57382194465,-0.0119602955815,0.0,-0.00851397540279,0.0086916816925,-0.999925980707,0.0,0.646775805676,0.241656687782,0.303470811018,1.0,-0.07764,-0.102041142857,1.106
0.452930630296,0.463473479739,-0.12470009633,-1.48768838552,0.0715994459443,1.94233970951,0.140653817332,-0.0681769358349,-0.401617854748,0.00644733342129,-0.646842915156,-0.0413378555365,0.226795147839,-0.1057465276,0.573782311624,0.818992333346,0.00248267791961,0.0,0.818954438149,-0.573719916022,-0.0118251044678,0.0,-0.00826046717218,0.00881840565911,-0.999926997537,0.0,0.645540181149,0.240012423318,0.303576766871,1.0,-0.0864262857143,-0.113588832653,1.122
0.451620998735,0.456005015507,-0.124784081095,-1.49938591984,0.0708410292275,1.94628908611,0.138915079804,-0.079598152795,-0.452426376949,-0.00520636594071,-0.710186636172,-0.0503115159042,0.232781650857,-0.105911465617,0.573827853871,0.818961138563,0.002234848062,0.0,0.818919619838,-0.573766021016,-0.011998177936,0.0,-0.00854392608006,0.00871521741563,-0.999925520383,0.0,0.643958880484,0.237983350506,0.303494108291,1.0,-0.0957617142857,-0.125858253061,1.139
0.450193035037,0.447637585825,-0.124916479762,-1.51183374557,0.0699790470869,1.95084081133,0.136935323008,-0.0896113730418,-0.506284646439,-0.00222965849205,-0.744095512692,-0.0535304211903,0.266767761064,-0.113718868345,0.573803710091,0.818977036959,0.00258110842707,0.0,0.818940906466,-0.573741471698,-0.011715898237,0.0,-0.00811431890171,0.00883657128179,-0.999928033829,0.0,0.642350850359,0.235800370429,0.303709171806,1.0,-0.105097142857,-0.138127673469,1.156
0.448685656998,0.439299237827,-0.124963369732,-1.52464715458,0.0691547438885,1.95528137657,0.134942326647,-0.0991031825297,-0.531986289327,0.000126537183843,-0.836889166681,-0.0602670153449,0.275171647863,-0.127354660814,0.57378682019,0.818988941267,0.00255850750342,0.0,0.818951978825,-0.57372408225,-0.0117932491796,0.0,-0.00819082098904,0.0088622763555,-0.999927182603,0.0,0.64059637929,0.233577842038,0.30370266866,1.0,-0.113883428571,-0.149675363265,1.172
0.446914188271,0.429658501642,-0.125041792445,-1.53905144963,0.068177144132,1.96039085648,0.13256245527,-0.102501364918,-0.575244653352,-0.00186988195604,-0.879922512432,-0.0623987199476,0.30669935516,-0.136580647819,0.573706477514,0.819044326329,0.00283126622979,0.0,0.819011109556,-0.57364300953,-0.011629571894,0.0,-0.00790115091824,0.00899097232671,-0.99992836455,0.0,0.638526926235,0.230870665211,0.303863476928,1.0,-0.123768,-0.162666514286,1.19
0.44493734283,0.419551352848,-0.12510915698,-1.55450494272,0.0670785518319,1.96566862554,0.130001487,-0.124198239214,-0.600061291618,-0.00391155908645,-0.918104440238,-0.0591690931553,0.300042077018,-0.150521368586,0.573627319013,0.819100094539,0.00273512513962,0.0,0.8190655583,-0.573564110087,-0.0116863051922,0.0,-0.00800363816592,0.00894400291585,-0.9999279707,0.0,0.636480755076,0.228232328614,0.303840995898,1.0,-0.132554285714,-0.174214204082,1.206
0.442925668989,0.409347797306,-0.125228970271,-1.56976328525,0.0659869947464,1.97106329644,0.127481296088,-0.133734185325,-0.643399314201,-0.00114588164055,-0.973660914218,-0.0693116844185,0.334240711035,-0.164709933224,0.573631733469,0.819096215564,0.00296157177915,0.0,0.819065068622,-0.573568288928,-0.0115142607684,0.0,-0.00773277264238,0.00903083922838,-0.999929321587,0.0,0.634229394164,0.225249016718,0.303948617518,1.0,-0.141889714286,-0.18648362449,1.223
0.440381280736,0.397245508389,-0.125329772535,-1.58796112283,0.0647805354047,1.97721680432,0.124403122096,-0.149026193285,-0.693026730284,-0.0107080128865,-1.01997160414,-0.0696492172654,0.35504424961,-0.183293665886,0.573659408196,0.819076547295,0.00303973037193,0.0,0.819045677248,-0.573594847601,-0.0115704921374,0.0,-0.00773369396852,0.00912737542345,-0.999928437937,0.0,0.631755963135,0.222027523645,0.303995404168,1.0,-0.151225142857,-0.198753044898,1.24
0.437773739757,0.385319777951,-0.125472956748,-1.60606779821,0.0633881238168,1.98328156942,0.121275159869,-0.157940037071,-0.705750714085,-0.00965891194787,-1.0847004906,-0.0886820051135,0.350841066339,-0.197275968572,0.573644863286,0.819087401915,0.00285407620822,0.0,0.819054656588,-0.573581527332,-0.0115951682162,0.0,-0.00786056215848,0.00898932616712,-0.999928699247,0.0,0.629116007082,0.218552501877,0.303915033419,1.0,-0.160560571429,-0.211022465306,1.257
0.435106503409,0.373437338018,-0.125599037449,-1.62366905993,0.0620863977238,1.98918418856,0.118090948014,-0.179703250107,-0.752633997749,-0.00847134934765,-1.11003779418,-0.0861280033054,0.366718359019,-0.202174467055,0.573603293126,0.819116101486,0.00297006787811,0.0,0.819084953,-0.573539695014,-0.0115241014275,0.0,-0.00773627415672,0.00904317454664,-0.999929183021,0.0,0.626524784857,0.215127693108,0.303994311366,1.0,-0.169346857143,-0.222570155102,1.273
0.431974318388,0.360323609002,-0.125778468761,-1.64306894911,0.0605936686096,1.99560603836,0.114656114663,-0.184552353414,-0.779958709101,-0.0104246514269,-1.16364896032,-0.0896335111977,0.389199842535,-0.212530572788,0.573758552152,0.81900719711,0.00301360492576,0.0,0.818977034215,-0.573695294959,-0.011448706135,0.0,-0.0076478289998,0.00903704027146,-0.999929918852,0.0,0.623637682345,0.21121609088,0.304045222333,1.0,-0.178682285714,-0.23483957551,1.29
0.428562485805,0.346722488949,-0.125965113957,-1.66326997088,0.0590916781702,2.0020531194,0.110821016481,-0.207682612148,-0.820234734434,-0.00769709718442,-1.19013030455,-0.0807054849063,0.396872870344,-0.23970351997,0.573816429672,0.81896717641,0.00286633971706,0.0,0.818934516746,-0.57375294705,-0.0115999971589,0.0,-0.00785559730424,0.00900378683572,-0.999928608158,0.0,0.62053542081,0.207068217962,0.303995774388,1.0,-0.188017714286,-0.247108995918,1.307
0.425178753687,0.333415545968,-0.126096380136,-1.6828083715,0.057576163432,2.0084231666,0.107129595946,-0.214321487158,-0.81162849855,-0.0105358629088,-1.23642376964,-0.0931684164886,0.388598129882,-0.239436050304,0.573865305401,0.818932659665,0.00294229388615,0.0,0.81890091855,-0.573801491195,-0.0115707044595,0.0,-0.00778748509103,0.00904964724812,-0.99992872694,0.0,0.617503295799,0.203060891574,0.304011691687,1.0,-0.196804,-0.258656685714,1.323
0.421157041439,0.317846456122,-0.126205180693,-1.70532495425,0.0557011020683,2.01562671622,0.102700904228,-0.230353284398,-0.871827475953,-0.00519977634469,-1.26671353705,-0.103934498581,0.396357199989,-0.246077361973,0.573759712629,0.819006171673,0.00307080223282,0.0,0.818976581442,-0.573696083713,-0.0114415681809,0.0,-0.00760915423873,0.00907980080072,-0.999929826532,0.0,0.613920247888,0.198403374217,0.3041102638,1.0,-0.206688571429,-0.271647836735,1.341
0.417079368247,0.302672169114,-0.126310011417,-1.72721338486,0.0538913174447,2.0224928748,0.0981878370232,-0.24611533415,-0.913560673705,-0.00361965557121,-1.30701006378,-0.108463800413,0.399532661444,-0.271709890706,0.573586099394,0.819127491863,0.00314413061603,0.0,0.819098814068,-0.573522231931,-0.0114074175177,0.0,-0.00754104567998,0.00911866533954,-0.999929988835,0.0,0.610351655983,0.193806282931,0.304158729593,1.0,-0.216024,-0.283917257143,1.358
0.412877318184,0.287905180556,-0.126459913207,-1.74837658231,0.0521539071605,2.02895313792,0.0938312179142,-0.266171460907,-0.938947790119,-0.0113115127368,-1.33202851521,-0.111122649714,0.406238761311,-0.281996014921,0.573638987764,0.819090357768,0.00316929488905,0.0,0.819061584737,-0.573574529612,-0.0114510388089,0.0,-0.00756175423681,0.00916478645605,-0.99992941079,0.0,0.606839774468,0.189206664054,0.304193767686,1.0,-0.224810285714,-0.295464946939,1.374
0.408132150536,0.271871727013,-0.126631301775,-1.77133393151,0.0501974327581,2.0358419756,0.0888741654353,-0.28684918511,-0.97215866962,-0.011986228125,-1.35535677665,-0.12049604158,0.424932943641,-0.305519002879,0.573596935868,0.819120104197,0.00309143402109,0.0,0.819089983168,-0.573532313109,-0.0115339583285,0.0,-0.00767480760672,0.00914818192679,-0.999928701506,0.0,0.602948459852,0.184129154064,0.304164986263,1.0,-0.234145714286,-0.307734367347,1.391
0.402952001631,0.255346414047,-0.12684674235,-1.79470072893,0.0481309833067,2.04274470282,0.0837362828342,-0.312652385652,-0.982507413843,-0.0103742323731,-1.36953689032,-0.122536845343,0.415161057951,-0.313489055201,0.5737218794,0.819032671505,0.00307164545361,0.0,0.819002324246,-0.573657338423,-0.0115411374596,0.0,-0.00769064475899,0.00913726376015,-0.999928679654,0.0,0.598939822941,0.178766381996,0.304183967745,1.0,-0.243481142857,-0.320003787755,1.408
0.397774747704,0.239422086465,-0.127012704811,-1.81718974195,0.0461225503584,2.04920212725,0.0786063513287,-0.327744771964,-1.00100019457,-0.00571818242523,-1.40417004966,-0.11749915493,0.392592643299,-0.325168481773,0.573761138469,0.819005657052,0.00293880932691,0.0,0.818973069103,-0.573696420208,-0.011673749429,0.0,-0.00787503404964,0.00910492475457,-0.999927539467,0.0,0.594969909233,0.17355865484,0.304127507221,1.0,-0.252267428571,-0.331551477551,1.424
0.392074611847,0.222011082791,-0.127160133775,-1.84137610357,0.0439054874151,2.0561747589,0.0728668147168,-0.346804055592,-1.01139024418,-0.00877098348544,-1.42176581714,-0.135153977181,0.395541381651,-0.341846664945,0.573623694176,0.819101554718,0.00304096022912,0.0,0.819070044638,-0.573558361399,-0.0116539669999,0.0,-0.00780176453032,0.00917592769795,-0.99992746478,0.0,0.590364120219,0.167627217831,0.304164493284,1.0,-0.262152,-0.344542628571,1.442
0.385528506735,0.20311603645,-0.127369160366,-1.86735203173,0.0414036435293,2.06337147899,0.0664677223425,-0.377186307175,-1.03213574528,-0.0104630222023,-1.45463374968,-0.140342177938,0.385222396512,-0.36254926717,0.573581273145,0.819131209961,0.00305464675353,0.0,0.819100156796,-0.573516230046,-0.0116109392714,0.0,-0.00775914263153,0.00916205536245,-0.999927923626,0.0,0.585851623658,0.161717268397,0.304205406952,1.0,-0.271487428571,-0.35681204898,1.459
0.379294072831,0.185836777832,-0.127600822791,-1.89077824215,0.0391425774121,2.06968845641,0.0604398378222,-0.406363191067,-1.08472567004,-0.0193122938685,-1.49750044977,-0.150547533708,0.393563316979,-0.384864273154,0.573574234493,0.81913580213,0.00314358007619,0.0,0.819105768498,-0.573508746049,-0.0115846932936,0.0,-0.00768671435892,0.00921978367123,-0.99992795241,0.0,0.581463371741,0.155940562823,0.304284409831,1.0,-0.280273714286,-0.368359738775,1.475
0.372164741719,0.167236351943,-0.127904263232,-1.91588541974,0.0366883330103,2.0762819953,0.0537632894259,-0.423824672812,-1.09468015207,-0.0202935855714,-1.50835421612,-0.158987957102,0.379277669292,-0.396322749412,0.573731454603,0.819025576612,0.00317328791126,0.0,0.81899553027,-0.573665371426,-0.0116236795149,0.0,-0.00769983367443,0.0092679576084,-0.999927406127,0.0,0.576678637201,0.149534882561,0.304308407351,1.0,-0.289609142857,-0.380629159184,1.492
0.364719208962,0.148199081397,-0.128106329303,-1.94124695826,0.0340530232405,2.08278202782,0.0467159759432,-0.449473728669,-1.11497137271,-0.0135857785619,-1.52539275494,-0.151725292494,0.374426408547,-0.416037937726,0.573633489758,0.819093955795,0.00323386919151,0.0,0.819064886904,-0.573567458709,-0.0115684161166,0.0,-0.00762092431165,0.00928495837576,-0.999927852928,0.0,0.571710549147,0.143057520633,0.304362224618,1.0,-0.298944571429,-0.392898579592,1.509
0.35726377982,0.129934581037,-0.128356402766,-1.96531561677,0.031573610818,2.08871935703,0.039736453319,-0.477344296766,-1.14225926941,-0.0117359712576,-1.49047148273,-0.147803456145,0.353274993173,-0.453822901696,0.573618491307,0.819104139937,0.00331379990007,0.0,0.819075667052,-0.5735516714,-0.0115878720836,0.0,-0.00759118467916,0.0093614508026,-0.999927365939,0.0,0.566891053854,0.136748419667,0.3044115313,1.0,-0.307730857143,-0.404446269388,1.525
0.348757538454,0.110154557693,-0.12876107734,-1.99116591807,0.0287306446152,2.09493451856,0.0319454761856,-0.50962882614,-1.16611688309,-0.0193088589688,-1.5391187774,-0.162096700264,0.349878648003,-0.470536692754,0.573743262282,0.819016696859,0.00332658286732,0.0,0.818988859608,-0.573676967177,-0.0115209404967,0.0,-0.00752760358964,0.00933467601549,-0.999928096919,0.0,0.561637552516,0.129699632879,0.304436402431,1.0,-0.317066285714,-0.416715689796,1.542
0.339284399777,0.0888884597289,-0.129068094451,-2.0186358126,0.0256695061272,2.10121868139,0.0232472828005,-0.525432105291,-1.17703246266,-0.0145086178554,-1.52959034891,-0.162004079817,0.334534974826,-0.4792086909,0.573691379718,0.81905302097,0.00333115264629,0.0,0.819025303421,-0.573625152806,-0.0115101400986,0.0,-0.00751672679411,0.00933174612583,-0.999928206089,0.0,0.556206810342,0.122581313537,0.304451054609,1.0,-0.326401714286,-0.428985110204,1.559
0.330928578649,0.0708549730191,-0.12936794604,-2.04162087823,0.0230708421708,2.10628674037,0.0155561294097,-0.555277040694,-1.18707723175,-0.010590995346,-1.52337483901,-0.17756462344,0.329879832567,-0.5189296776,0.573633236049,0.819093541302,0.00338053223342,0.0,0.819066027242,-0.573566323513,-0.0115439356936,0.0,-0.00751674844391,0.00939104510178,-0.999927650765,0.0,0.550949048097,0.115700202171,0.304470131663,1.0,-0.32998,-0.433688,1.575
0.320321653911,0.0494224379932,-0.129791346439,-2.06876379121,0.0198700172458,2.1118806912,0.00619139246484,-0.596160803284,-1.17509865041,-0.0157268730754,-1.48602628741,-0.174041913072,0.293130407484,-0.51765777025,0.57386234854,0.818933661613,0.00322640776869,0.0,0.818903691833,-0.573795333823,-0.0116792673951,0.0,-0.00771339599691,0.00934458896201,-0.999926588395,0.0,0.544994543591,0.107747647619,0.30441334868,1.0,-0.32998,-0.433688,1.593
0.310056414791,0.0292567568302,-0.130031073563,-2.09377833828,0.0169230363581,2.11680120193,-0.00289488843477,-0.610128316287,-1.18511075387,-0.0128010127384,-1.45583850198,-0.175426369893,0.264300707235,-0.543763630525,0.573911323603,0.818899102361,0.0032862888185,0.0,0.818869137321,-0.573843161857,-0.0117519544544,0.0,-0.00773799956781,0.00943580189408,-0.999925541731,0.0,0.539352130293,0.100387137211,0.304442570884,1.0,-0.32998,-0.433688,1.61
0.300690376673,0.0116284622203,-0.130264684354,-2.11525166922,0.0141868857251,2.12089345895,-0.0111612793507,-0.635011144512,-1.17909538929,-0.0172381793703,-1.43143672323,-0.1849523543,0.266331299409,-0.558322908306,0.573904827,0.818903257113,0.00338407103382,0.0,0.818875266351,-0.573837214213,-0.0116145014133,0.0,-0.00756939287661,0.00943693218365,-0.999926821624,0.0,0.534098908159,0.093413387086,0.304525703782,1.0,-0.32998,-0.433688,1.626
0.289140276339,-0.00928940979506,-0.130556016893,-2.14040717361,0.0110593247486,2.12535209569,-0.0213996993463,-0.63757338966,-1.1773053149,-0.0129982020681,-1.38396155595,-0.177806634864,0.26270744777,-0.582550901377,0.573904286151,0.818902846619,0.00357001941913,0.0,0.818877014483,-0.573835777155,-0.01156213261,0.0,-0.00741980129366,0.00955914834874,-0.999926781935,0.0,0.528517678579,0.0860464138696,0.304619570324,1.0,-0.32998,-0.433688,1.643
0.277950108208,-0.0288062219676,-0.130776549663,-2.16358654815,0.00803211175705,2.12914148689,-0.0312713759878,-0.669458857789,-1.18145065145,-0.0216505775152,-1.33535253951,-0.178921355218,0.241696728419,-0.5885139761,0.573828910825,0.81895538211,0.00363457220956,0.0,0.818930404047,-0.573760241168,-0.0115293487535,0.0,-0.00735679082743,0.0095925200116,-0.999926927925,0.0,0.522911804156,0.0787258955779,0.30468332849,1.0,-0.32998,-0.433688,1.66
0.266988766911,-0.0468748344398,-0.13110124765,-2.18501953259,0.00526257896642,2.13236643149,-0.0408052771026,-0.691711930292,-1.13352577432,-0.00852816118588,-1.30845679519,-0.162481645427,0.187068314854,-0.592097381958,0.573989801566,0.818842937945,0.00356336611351,0.0,0.818815873056,-0.573919831001,-0.0117192370364,0.0,-0.00755127339313,0.00964464896567,-0.999924976694,0.0,0.517603959009,0.0717196082914,0.304623984627,1.0,-0.32998,-0.433688,1.676
0.255151086187,-0.0659938970394,-0.13130024885,-2.20719388853,0.00223177628629,2.13559380411,-0.0512587378387,-0.707240236357,-1.10779737192,-0.0203598595265,-1.29348507204,-0.178062135815,0.162216725194,-0.610253230984,0.573833669191,0.818951997973,0.00364582216191,0.0,0.818926090078,-0.573763565315,-0.011669490446,0.0,-0.00746505631944,0.0096821918206,-0.999925261255,0.0,0.511660782029,0.0640018755052,0.304658757777,1.0,-0.32998,-0.433688,1.694
0.242082385425,-0.0859540640175,-0.131679943538,-2.23000095903,-0.000942839632734,2.1385674564,-0.0626719091406,-0.733906094652,-1.09714189065,-0.0169436358336,-1.26723051648,-0.177869585591,0.167660007809,-0.63781675611,0.573939697701,0.818877223901,0.00374999721909,0.0,0.818852907142,-0.573869568044,-0.0115923354137,0.0,-0.00734083149158,0.00972418482831,-0.999925773456,0.0,0.506103118167,0.0565469120201,0.304703461338,1.0,-0.32998,-0.433688,1.711
0.231106225482,-0.102442042605,-0.131830301108,-2.24857939378,-0.00356879898954,2.14067480472,-0.0724006030918,-0.741282145959,-1.0969067168,-0.0125496626841,-1.23577429737,-0.1720657083,0.130291755387,-0.661378867312,0.573727790063,0.819025690168,0.00375348584485,0.0,0.819001038686,-0.573657177355,-0.0116399484826,0.0,-0.00738034483896,0.00975245849002,-0.999925207235,0.0,0.500801407492,0.0497462853397,0.304721436324,1.0,-0.32998,-0.433688,1.727
0.217334574887,-0.12192310127,-0.132220971446,-2.27043388441,-0.00674951629717,2.14292497952,-0.084384542335,-0.768247857036,-1.08853394509,-0.0232159578554,-1.2006358113,-0.182788848539,0.127603175965,-0.670982334345,0.573861711076,0.818932174686,0.00368466086128,0.0,0.818906164246,-0.573790689206,-0.0117339695604,0.0,-0.00749524542144,0.00975125508399,-0.9999243643,0.0,0.495182251855,0.0423130399503,0.304672855951,1.0,-0.32998,-0.433688,1.744
0.204034601578,-0.140087118522,-0.132457866874,-2.29059281501,-0.00968741384081,2.14459527999,-0.0961165647422,-0.799348993566,-1.06769171126,-0.0138945664544,-1.15886882926,-0.170338919262,0.0944765577863,-0.70188261499,0.573751635069,0.819010101933,0.00350158364494,0.0,0.818980145185,-0.573679282169,-0.0120145704458,0.0,-0.0078314193527,0.00976129485503,-0.999921689931,0.0,0.489498615708,0.0350009637792,0.304573247891,1.0,-0.32998,-0.433688,1.761
0.192734328053,-0.155057793897,-0.132816441282,-2.30675445875,-0.0121452859999,2.1459177014,-0.106054929437,-0.816181876256,-1.06929982436,-0.0314743431568,-1.14952861688,-0.174504349283,0.0836220146317,-0.720337613053,0.573805874315,0.818971635246,0.00360917799103,0.0,0.818943332404,-0.573733434701,-0.0119378020926,0.0,-0.0077061635833,0.00980588201197,-0.999922226836,0.0,0.484886647377,0.0288704189519,0.304610980452,1.0,-0.32998,-0.433688,1.775
0.177064333308,-0.175029307776,-0.133164133161,-2.32804647649,-0.0153355968676,2.14722224282,-0.119845172576,-0.840924873318,-1.02667784485,-0.016808697021,-1.12446803214,-0.176372057385,0.0597607385897,-0.742013159204,0.573820240367,0.818961194957,0.00369321019249,0.0,0.818933112713,-0.573746372705,-0.0120168054039,0.0,-0.00772248004328,0.00992016927816,-0.999920973649,0.0,0.478611481885,0.0206736406087,0.304632593999,1.0,-0.32998,-0.433688,1.794
0.162529086067,-0.192689047524,-0.133601241603,-2.34646592737,-0.0183142185872,2.14811693613,-0.132605845201,-0.861806661126,-1.04050032813,-0.0223269721676,-1.06820058572,-0.17493844482,0.055467616628,-0.751567389983,0.573921519387,0.818889793612,0.00378713672918,0.0,0.818863533369,-0.573848072888,-0.0119016747636,0.0,-0.00757306468196,0.00993196664813,-0.999921999323,0.0,0.473041110501,0.0132164307045,0.304705493682,1.0,-0.32998,-0.433688,1.811
0.148671575883,-0.209057049589,-0.133873514261,-2.3634937957,-0.0209241477885,2.14866047337,-0.144993210174,-0.871344591756,-1.01642057902,-0.0153638217283,-1.04951636674,-0.1627396843,0.0167952599742,-0.780205131495,0.573798764379,0.818975642731,0.00382380849356,0.0,0.818948645389,-0.573723611138,-0.0120449632452,0.0,-0.00767086998624,0.0100430811736,-0.999920143949,0.0,0.467726736346,0.00637175522014,0.304680694376,1.0,-0.32998,-0.433688,1.827
0.133419265804,-0.226195814946,-0.134284295239,-2.38090912046,-0.0238224619456,2.14903974477,-0.158393705898,-0.894550042221,-0.976438538359,-0.0208661518614,-1.03068263517,-0.17213243475,0.00944301550763,-0.80593604927,0.573924186393,0.818887325968,0.00391440202283,0.0,0.81886200672,-0.573849339687,-0.0119455511631,0.0,-0.00753592852304,0.0100613895407,-0.999920985989,0.0,0.462159762338,-0.00104062789266,0.304731403187,1.0,-0.32998,-0.433688,1.844
0.116966557381,-0.24410004313,-0.134644252237,-2.39880574523,-0.0267707132673,2.14913833646,-0.173142028088,-0.933082126977,-0.988934490851,-0.0387189540428,-0.977042301099,-0.157449454024,0.0107576062848,-0.835746896169,0.573815508855,0.818962769053,0.00406098555049,0.0,0.818939526376,-0.573740392234,-0.0118642892109,0.0,-0.00738660191742,0.0101338098414,-0.999921368914,0.0,0.456256694919,-0.00878057096948,0.304792733878,1.0,-0.32998,-0.433688,1.862
0.101923153529,-0.259715962859,-0.134995056974,-2.41442321144,-0.0293838869765,2.14904537599,-0.186628631321,-0.940972566098,-0.977865664884,-0.0179776312868,-0.978078193572,-0.165078399881,-0.00969388509972,-0.846903743952,0.573757425676,0.819003407027,0.00407218147457,0.0,0.818979799245,-0.573681578793,-0.011928180229,0.0,-0.00743322786235,0.0101791123271,-0.999920563243,0.0,0.450951352,-0.0156888061997,0.304742293526,1.0,-0.32998,-0.433688,1.878
0.0854951698476,-0.276132370126,-0.135455744632,-2.43030781289,-0.032170975566,2.14877800137,-0.20132005272,-0.977744523093,-0.958439027062,-0.0311677239798,-0.937947778051,-0.160307083497,-0.038525968304,-0.877621300432,0.573815087245,0.818961942122,0.00428134412048,0.0,0.818942259656,-0.573740223729,-0.0116823767474,0.0,-0.00711117952838,0.0102098942331,-0.999922591597,0.0,0.44540086257,-0.0230966110323,0.304829419559,1.0,-0.32998,-0.433688,1.895
0.0687572746141,-0.292146573198,-0.135799301756,-2.44580609373,-0.0347804189866,2.14809308325,-0.216475892811,-0.997487740205,-0.936356652663,-0.0233691134764,-0.894909494699,-0.154502503746,-0.0412266881923,-0.891980615775,0.573715192804,0.819031741269,0.00431639209233,0.0,0.819011395089,-0.573638626745,-0.0118240230753,0.0,-0.00720833975867,0.0103189946603,-0.999920775955,0.0,0.439765467166,-0.030385031345,0.304794910074,1.0,-0.32998,-0.433688,1.912
0.052496299921,-0.306962930613,-0.136274188504,-2.45974579143,-0.0373274111416,2.14738753194,-0.231117925148,-1.01278922459,-0.919020630858,-0.0212408139317,-0.87592478261,-0.151921217835,-0.0483993160705,-0.935086714523,0.573798929783,0.818972247695,0.00447130705752,0.0,0.818954826973,-0.573723183969,-0.0116381465704,0.0,-0.00696616065437,0.0103399536205,-0.999922275962,0.0,0.434540740262,-0.0373871851897,0.304860884103,1.0,-0.32998,-0.433688,1.928
0.0348923309827,-0.322362402635,-0.136758505185,-2.4741292289,-0.0398974403142,2.14631979942,-0.247028671792,-1.0515657063,-0.895947649231,-0.0375904147249,-0.843156757004,-0.15597265678,-0.0577711132958,-0.954189841855,0.573898955374,0.818901599313,0.00457236959937,0.0,0.818885048885,-0.573822222619,-0.0116653522288,0.0,-0.00692918171877,0.0104391795476,-0.999921501905,0.0,0.428935401764,-0.0447661572149,0.304873517323,1.0,-0.32998,-0.433688,1.945
0.0159181522833,-0.338305381531,-0.137140352671,-2.48873936759,-0.042615814005,2.14507665382,-0.26445597858,-1.05878174202,-0.88342880928,-0.0183257340802,-0.798740861566,-0.16574052207,-0.0754802459362,-0.973974790571,0.573697200781,0.819042317553,0.00468516537218,0.0,0.819027979396,-0.573621309917,-0.0115112413301,0.0,-0.00674081286045,0.0104414494867,-0.999922765805,0.0,0.423044630362,-0.0524860222054,0.304923886387,1.0,-0.32998,-0.433688,1.963
-0.0015038961094,-0.352106483122,-0.137598314889,-2.50122252369,-0.0450252349074,2.14368334754,-0.280277809638,-1.09218528641,-0.888304541529,-0.018292617644,-0.759527599283,-0.148740917467,-0.0818606569129,-0.989037823402,0.573793249361,0.818974921492,0.00470445063647,0.0,0.818960844254,-0.573717305421,-0.0115037359743,0.0,-0.00672237595039,0.0104537281762,-0.999922761632,0.0,0.417765166766,-0.0594668669299,0.304946201617,1.0,-0.32998,-0.433688,1.979
-0.0203361530255,-0.366348039219,-0.138111891327,-2.51394585977,-0.0473944781096,2.14216800786,-0.297615690706,-1.11732090607,-0.818944061811,-0.0232007772544,-0.735141743174,-0.15115058947,-0.100644969759,-1.02101987512,0.573832741209,0.818946279204,0.00487070785029,0.0,0.818934163808,-0.573756020905,-0.0114721717406,0.0,-0.0066006214886,0.0105721003638,-0.999922328228,0.0,0.412186931239,-0.0668451280576,0.304969692661,1.0,-0.32998,-0.433688,1.996
-0.039517455748,-0.380160622201,-0.138523119812,-2.52620931459,-0.0498158418184,2.14036807228,-0.315338720183,-1.14795165118,-0.804674324196,-0.0341862176462,-0.686487094255,-0.135955241109,-0.106840811427,-1.05889130056,0.573739120935,0.819012239368,0.00480830276993,0.0,0.81899865362,-0.573661546945,-0.0115923175587,0.0,-0.00673604124767,0.0105891634547,-0.999921244582,0.0,0.406556055868,-0.0741623803731,0.304938712922,1.0,-0.32998,-0.433688,2.013
-0.0580065423717,-0.392791398973,-0.138981891467,-2.53719043292,-0.0520408422253,2.13876521264,-0.332445464119,-1.15819643488,-0.77799573918,-0.0322347410289,-0.687469939987,-0.119219404854,-0.105688287935,-1.08471301047,0.573744381968,0.819008014285,0.00489934672961,0.0,0.818996267387,-0.573667592716,-0.0114609761445,0.0,-0.00657616148112,0.0105884212189,-0.999922316701,0.0,0.401308643708,-0.0811123252037,0.304964812108,1.0,-0.32998,-0.433688,2.029
-0.0744931817193,-0.403465442645,-0.13937451367,-2.54649974986,-0.0538204533261,2.13706727046,-0.347747717191,-1.17755748012,-0.763290636616,-0.0191370709004,-0.664461378898,-0.140470108686,-0.131652056654,-1.08717411297,0.573796471728,0.818971492144,0.00490418072666,0.0,0.818958079368,-0.573716899588,-0.0117187996841,0.0,-0.00678388211267,0.0107407311328,-0.999919304563,0.0,0.396635055316,-0.0871631596265,0.304904660285,1.0,-0.32998,-0.433688,2.043
-0.0996773916378,-0.418941923756,-0.139973204293,-2.55942297199,-0.0565154283552,2.13469479038,-0.371286747486,-1.21257970258,-0.717943780247,-0.0265096400861,-0.602206793393,-0.12640397261,-0.11676578049,-1.12059974153,0.573788325555,0.818975900728,0.00511648168164,0.0,0.818966617106,-0.573710356175,-0.0114391514404,0.0,-0.00643313468434,0.0107540862946,-0.99992147912,0.0,0.389795010689,-0.0962790734055,0.305020597767,1.0,-0.32998,-0.433688,2.064
-0.117988135881,-0.429452708485,-0.14030816866,-2.56837817878,-0.058390802581,2.13275514927,-0.388543566835,-1.22980139033,-0.697814516022,-0.0272709151009,-0.592531631436,-0.113079513335,-0.130914280239,-1.14812207005,0.573636804214,0.819082657865,0.00501630712657,0.0,0.819070712913,-0.573556919491,-0.0116779387284,0.0,-0.00668818819767,0.0108078137902,-0.999919226388,0.0,0.384794768186,-0.102711126853,0.304949020839,1.0,-0.32998,-0.433688,2.079
-0.140327720468,-0.441554782284,-0.140757997119,-2.57839898051,-0.0604792637631,2.1305083138,-0.40961349004,-1.2481280993,-0.66835232168,-0.0199507785594,-0.529770317826,-0.106838507964,-0.116011090236,-1.1916799937,0.573587694773,0.819116548887,0.00509731755883,0.0,0.819105156018,-0.573506745584,-0.0117261697136,0.0,-0.00668188231006,0.0109014356353,-0.999918252234,0.0,0.378868070042,-0.110447359343,0.304952673524,1.0,-0.32998,-0.433688,2.097
-0.161929296282,-0.45238548684,-0.14125639239,-2.5871563462,-0.0625099659542,2.1284830674,-0.430006453563,-1.27515420714,-0.614142707548,-0.0313416181736,-0.518770047326,-0.105300229489,-0.127668440091,-1.20058167942,0.573601219692,0.819106676733,0.00516137576803,0.0,0.819097182998,-0.573521830836,-0.0115438841093,0.0,-0.00649563593035,0.0108494632428,-0.999920044734,0.0,0.373304505049,-0.117863730839,0.305008967389,1.0,-0.32998,-0.433688,2.114
-0.182509138356,-0.462054141599,-0.141651225329,-2.59501221743,-0.06430645814,2.12636242569,-0.449592147542,-1.27497550943,-0.596886089221,-0.0165016863832,-0.477224378346,-0.117915877392,-0.131012416208,-1.24321810951,0.573503251661,0.819175611053,0.00510739574192,0.0,0.819164489369,-0.573422513696,-0.0117007283598,0.0,-0.00665638375514,0.0108944127373,-0.999918498842,0.0,0.367993312685,-0.124757184692,0.30498552027,1.0,-0.32998,-0.433688,2.13
-0.204668697459,-0.471565601095,-0.142077395153,-2.60269488944,-0.0658846358183,2.12439804689,-0.470655334812,-1.30310154444,-0.545761428258,-0.0157627872488,-0.431164119255,-0.102641511999,-0.114674053712,-1.20190156085,0.57360864426,0.819100593908,0.00529973503173,0.0,0.81909128508,-0.573526115567,-0.0117476963591,0.0,-0.00658313536422,0.0110797602791,-0.999916947172,0.0,0.362443455371,-0.132067089556,0.304964593191,1.0,-0.320662285714,-0.421441861225,2.147
-0.226797307053,-0.480254172405,-0.142330648014,-2.60943841793,-0.0673541762611,2.12247829803,-0.491546411785,-1.30482063298,-0.500503973249,-0.0242841190236,-0.384957545498,-0.0868927306553,-0.124050659549,-1.20202772161,0.5737931889,0.818970338141,0.00545055210944,0.0,0.818963666868,-0.573711300044,-0.0116018728443,0.0,-0.00637466912181,0.011121093874,-0.999917839057,0.0,0.357069966006,-0.139248807542,0.30503825445,1.0,-0.311326857143,-0.409172440816,2.164
-0.247310081338,-0.487684153993,-0.142354519484,-2.61534717108,-0.068578547102,2.12068377347,-0.511081068892,-1.27874856122,-0.458407613854,0.00068295397307,-0.358103197552,-0.0760840967913,-0.103009276395,-1.20026165987,0.573748473765,0.81900160062,0.00546021387786,0.0,0.818994239272,-0.573665144621,-0.0117253907276,0.0,-0.00647090397481,0.0111995243709,-0.999916345529,0.0,0.352088036047,-0.145718032944,0.30501033763,1.0,-0.302540571429,-0.397624751021,2.18
-0.268889554877,-0.494685079373,-0.142368671422,-2.62087136322,-0.0696649100711,2.11899735799,-0.531562408273,-1.25221839516,-0.396462669499,-0.00278841942185,-0.308289064078,-0.0531965141048,-0.0902140294812,-1.21823302803,0.57387332579,0.81891346518,0.00555782283745,0.0,0.818906741986,-0.573788539299,-0.0117986016492,0.0,-0.0064731433413,0.0113224593529,-0.999914946548,0.0,0.346968475517,-0.152458957716,0.3049890319,1.0,-0.293205142857,-0.385355330612,2.197
-0.291262998199,-0.501261792715,-0.142209028098,-2.62600078234,-0.0707093682265,2.11735901523,-0.552839541959,-1.23909155405,-0.348456515564,0.00685947535733,-0.274347426946,-0.0548070133896,-0.0978142386475,-1.1641697826,0.573909674981,0.818887873725,0.0055751349366,0.0,0.818881226516,-0.573824558978,-0.011817752514,0.0,-0.00647838961126,0.0113479143217,-0.99991462401,0.0,0.341742789167,-0.159330520407,0.304982599269,1.0,-0.283320571429,-0.372364179592,2.215
-0.310726067065,-0.506397057622,-0.142045699993,-2.62991204665,-0.071387653577,2.116080234,-0.57146222181,-1.21389381393,-0.313570681087,0.0186029178678,-0.233431730032,-0.0440036350957,-0.0696897647886,-1.15255468947,0.573960481911,0.818851242981,0.00572310886008,0.0,0.818846719436,-0.573875186911,-0.0117501837491,0.0,-0.00633742441648,0.0114307101188,-0.999914584311,0.0,0.337283399282,-0.165249001863,0.305012388662,1.0,-0.274534285714,-0.360816489796,2.231
-0.330972820139,-0.511222628354,-0.141826008106,-2.63357003552,-0.0720098356436,2.11484557535,-0.590866518116,-1.19528447254,-0.274095929429,-0.00247742078746,-0.21038567273,-0.03990877664,-0.0723400036386,-1.1292125679,0.574010818416,0.818815002573,0.00585822535782,0.0,0.818812462107,-0.573925459438,-0.011681858047,0.0,-0.00620321537794,0.0115025222862,-0.999914602404,0.0,0.33267693223,-0.171340180488,0.305040018955,1.0,-0.265198857143,-0.348547069388,2.248
-0.350602765011,-0.515331617902,-0.1414107917,-2.63683424836,-0.0725352308055,2.11363315946,-0.609801598224,-1.1369334752,-0.221902300012,0.0278845337542,-0.184306303955,-0.0298704521395,-0.0644080519871,-1.10240609998,0.573866560523,0.818916211892,0.00584427201321,0.0,0.818912212899,-0.573778935399,-0.0118856114193,0.0,-0.00638012254274,0.0116069241413,-0.999912282827,0.0,0.328207578745,-0.177114588791,0.304982389377,1.0,-0.255863428572,-0.33627764898,2.265
-0.368726747065,-0.51860980257,-0.141097491885,-2.63946849023,-0.0729697627825,2.11270071205,-0.627148077014,-1.11686762142,-0.188278703875,0.0224902705757,-0.157360060836,-0.0246806746944,-0.0444140777702,-1.07948465308,0.573939150598,0.818865214398,0.00586165169344,0.0,0.818860477261,-0.573849694926,-0.0120330094054,0.0,-0.0064898307399,0.0117063154833,-0.999910418125,0.0,0.324117558052,-0.182447634536,0.304921664246,1.0,-0.247077142857,-0.324729959184,2.281
-0.387394674358,-0.521561781392,-0.140740748169,-2.64174562098,-0.073317965832,2.11185302106,-0.645091826432,-1.08800696638,-0.164464958082,0.0308208650999,-0.128215147399,-0.0231721644115,-0.0520523479733,-1.0433348065,0.573994859391,0.818825762504,0.00591768147215,0.0,0.818821483204,-0.573904667139,-0.0120647660882,0.0,-0.00648288109168,0.0117708650602,-0.999909705418,0.0,0.319961334179,-0.187918416578,0.304908738822,1.0,-0.237741714286,-0.312460538776,2.298
-0.405385219763,-0.52404139109,-0.140274933123,-2.6435887897,-0.0735477495113,2.11110855958,-0.662521583061,-1.06303276042,-0.137336507348,0.0197313793036,-0.095967919859,-0.00596866279525,-0.0382216053507,-1.00557529912,0.573915800255,0.818880818906,0.00596703836862,0.0,0.818877329164,-0.573825685317,-0.0120311908245,0.0,-0.00642819527623,0.0117913899732,-0.999909816647,0.0,0.315998695519,-0.193134198128,0.304929193157,1.0,-0.228406285714,-0.300191118367,2.315
-0.421882711783,-0.525905165077,-0.139906258241,-2.64499914696,-0.0737051310632,2.1105393385,-0.678428231328,-1.01244260979,-0.106154519933,0.0240878777539,-0.080567909124,-0.00285506161726,-0.0365101896122,-0.986234720848,0.573987534074,0.818830021503,0.00603767457217,0.0,0.818827419037,-0.573897048586,-0.012024240492,0.0,-0.00638092833602,0.0118458057045,-0.999909476223,0.0,0.312372616356,-0.197919145201,0.304931706976,1.0,-0.21962,-0.288643428572,2.331
-0.439790526014,-0.527589778196,-0.139453520845,-2.64624967335,-0.0738401333827,2.11002001843,-0.695666790808,-0.984797954791,-0.0859715024889,0.0314271789758,-0.0675067261699,-0.0139439492187,-0.0272810433759,-0.939238781409,0.574083336994,0.818762518207,0.00608340917719,0.0,0.818760800368,-0.573993181158,-0.0119719115484,0.0,-0.00631043855674,0.0118539601243,-0.999909826932,0.0,0.30845248884,-0.203085448551,0.304946870852,1.0,-0.209735428572,-0.275652277551,2.349
-0.455892291865,-0.528734601296,-0.138897707638,-2.64713843908,-0.0738687189047,2.10963264985,-0.711320710015,-0.945605133297,-0.0610674410447,0.0321296551413,-0.0459854117946,-0.000974046063935,-0.0192109370664,-0.906202856787,0.573992737294,0.818826011354,0.00608667106429,0.0,0.818824326494,-0.573902569114,-0.0119712324294,0.0,-0.00630932181403,0.0118555430617,-0.999909815212,0.0,0.304955909887,-0.207671953723,0.304942643885,1.0,-0.2004,-0.263382857143,2.366
-0.470584310212,-0.529499353073,-0.138427360163,-2.64771489309,-0.0738726915473,2.1093299726,-0.72548136479,-0.891620553382,-0.0364402460643,0.0399130713149,-0.0305659277151,0.000361669690714,-0.0236476790574,-0.872093541087,0.574060038624,0.818778772013,0.00609437907741,0.0,0.818777192889,-0.573969834697,-0.0119701362968,0.0,-0.00630302509908,0.0118617438736,-0.999909781384,0.0,0.30176582062,-0.211864618953,0.304946290637,1.0,-0.191613714286,-0.251835167347,2.382
-0.485450481051,-0.529981777507,-0.137894577735,-2.64809348713,-0.0738631462368,2.10910638413,-0.739897591092,-0.87586825015,-0.0214621708294,0.0206350667654,-0.0172797267475,-0.000875721113804,-0.0153669180282,-0.828162111345,0.574034488655,0.818796974491,0.0060553530245,0.0,0.818794931188,-0.573944532984,-0.0119699883381,0.0,-0.00632567526112,0.0118295062526,-0.999910020259,0.0,0.29855196571,-0.216092774518,0.304945099883,1.0,-0.182278285714,-0.239565746939,2.399
-0.499612350505,-0.530183456711,-0.137308092823,-2.64825620266,-0.0738173958985,2.10895521616,-0.753733345907,-0.820373612367,-0.00373030189508,0.0368448090266,-0.00305604686767,0.00129412645987,-0.00713506574512,-0.797659425852,0.573897975393,0.818893190631,0.0059835673516,0.0,0.818890308531,-0.57380851875,-0.0119663405398,0.0,-0.00636585542843,0.0117675704855,-0.999910496079,0.0,0.295508586702,-0.220100277452,0.304947160264,1.0,-0.172942857143,-0.227296326531,2.416
-0.513196899273,-0.530238098222,-0.136769119464,-2.64830695366,-0.0737486369869,2.10888648825,-0.766830867544,-0.799001117627,0.00209410780976,0.0262752183669,0.00492476370149,0.00648431698517,-0.00370902117023,-0.759401616356,0.573943174203,0.818861885868,0.00593224746895,0.0,0.818858660205,-0.573854512019,-0.0119264639772,0.0,-0.00636200229591,0.0117030101257,-0.999911278305,0.0,0.292573302069,-0.223938168282,0.304952250913,1.0,-0.163607428572,-0.215026906123,2.433
-0.525959979519,-0.530082686553,-0.136106274725,-2.64824739078,-0.0735552670943,2.10886560263,-0.779268806344,-0.721073164487,0.00763924414195,0.0442801421296,0.00740321836883,0.0106745391393,-0.000390828726486,-0.717740927106,0.573828249175,0.818942689103,0.00589570305385,0.0,0.81893893025,-0.573739649322,-0.0119411146136,0.0,-0.00639661306454,0.0116805945315,-0.999911319594,0.0,0.289839522872,-0.227483851555,0.304938207352,1.0,-0.154272,-0.202757485714,2.45
-0.537419529816,-0.529825487757,-0.135575267114,-2.64809532965,-0.0733345869011,2.10886462254,-0.790330253046,-0.709161444488,0.0205043810346,0.0267305829305,0.0137976698566,0.0233291727651,-0.000376678049316,-0.679702576387,0.573897355015,0.818894037648,0.0059268804143,0.0,0.818890493653,-0.573808267415,-0.0119657240381,0.0,-0.00639789026842,0.0117207890661,-0.999910841077,0.0,0.287211043362,-0.230867285585,0.304926006971,1.0,-0.144936571429,-0.190488065306,2.467
-0.54886614215,-0.529396376054,-0.134937298339,-2.64783365628,-0.0730482112898,2.1088870498,-0.801401192987,-0.642919237827,0.0281982529823,0.0481070336225,0.0190688253427,0.0254193363511,0.000278432411573,-0.642134876674,0.573860846062,0.818919555005,0.00593621837672,0.0,0.818915835211,-0.573771183715,-0.0120095994693,0.0,-0.00642898858634,0.0117533284303,-0.999910259662,0.0,0.284777519566,-0.234000274906,0.304911140432,1.0,-0.135601142857,-0.178218644898,2.484
-0.560166026354,-0.528807738477,-0.134252276311,-2.64746036832,-0.0727080118715,2.10896404127,-0.812427376666,-0.621318547216,0.0321138293134,0.032947480339,0.0229116374295,0.0179397203362,0.00332741918849,-0.610051660252,0.573785568635,0.818972159543,0.00595567141434,0.0,0.818968301786,-0.573695125775,-0.0120652490062,0.0,-0.00646448783434,0.011800599064,-0.999909474032,0.0,0.282505047386,-0.236922798319,0.304887311505,1.0,-0.126265714286,-0.16594922449,2.501
-0.569742684334,-0.528234868228,-0.133727019372,-2.64703092885,-0.0724036493315,2.10906249269,-0.821503630379,-0.580725658023,0.0406768084311,0.0344027698377,0.0306004874437,0.0206870541725,0.00408128843649,-0.565355985098,0.573978803415,0.818836415729,0.00600036736046,0.0,0.818833283608,-0.573888395389,-0.0120378650892,0.0,-0.00641362458861,0.0118230075377,-0.999909536864,0.0,0.280461210644,-0.239570748502,0.304895257516,1.0,-0.117479428572,-0.154401534694,2.517
-0.578360623729,-0.527498082482,-0.133074066332,-2.64656155464,-0.0720344105219,2.10919308194,-0.830020421995,-0.527799553247,0.0465525167889,0.0381194186066,0.0257273092947,0.0237505414918,0.00239887651537,-0.520690224769,0.573785138916,0.818971992557,0.00601968993205,0.0,0.818968656933,-0.573693850667,-0.0121017175924,0.0,-0.00645763300251,0.011873951699,-0.999908649951,0.0,0.278667057961,-0.241909146058,0.304867289399,1.0,-0.108693142857,-0.142853844898,2.533
-0.587085548049,-0.526780205669,-0.132476141433,-2.64604492958,-0.0717011716656,2.10930191966,-0.838359392776,-0.499224133111,0.0415161457953,0.0331498892309,0.033215883906,0.0204554847535,0.0133920427745,-0.478495820399,0.573850211613,0.818926296512,0.0060334412609,0.0,0.818922979004,-0.573758553528,-0.0121253294728,0.0,-0.00646813716023,0.0118992756728,-0.999908281014,0.0,0.276821494571,-0.244289038927,0.304864182224,1.0,-0.0993577142858,-0.13058442449,2.55
-0.595147296506,-0.526006517398,-0.131910386893,-2.6454723395,-0.0713374889518,2.10942952625,-0.846001140957,-0.455260701773,0.0428111551664,0.0324880126919,0.0344970627959,0.0184256719634,0.0127002181558,-0.438170742083,0.573982155535,0.818833559817,0.00606904821861,0.0,0.818830654528,-0.573890217398,-0.0121294880827,0.0,-0.00644918867082,0.0119318621658,-0.999908015085,0.0,0.275223443387,-0.246369419977,0.304867388176,1.0,-0.0911205714287,-0.119758465306,2.566
-0.601796950695,-0.525256395566,-0.131247292781,-2.64495289312,-0.0709347038693,2.1095695707,-0.852517501294,-0.397664262722,0.0443153519053,0.04380185529,0.0348668110643,0.0243547187987,0.00843773650022,-0.399956901009,0.573822962153,0.818944950984,0.00609280442986,0.0,0.81894208851,-0.573730458137,-0.0121640443207,0.0,-0.00646617969711,0.0119698923861,-0.999907450816,0.0,0.273786395597,-0.248259412472,0.304856869334,1.0,-0.0812360000001,-0.106767314286,2.583
-0.608783545556,-0.52451432798,-0.130566219034,-2.64439492928,-0.0705510498103,2.1097203528,-0.859109864654,-0.369474033297,0.0421607655888,0.0359301858325,0.03126502933,0.0234658809674,0.0128451459592,-0.346830718001,0.57385867213,0.818920001787,0.00608292662002,0.0,0.81891719312,-0.573766542708,-0.0121380468668,0.0,-0.00645003376868,0.0119471666708,-0.999907826889,0.0,0.272360062444,-0.250120546159,0.304868608007,1.0,-0.0713514285715,-0.0937761632654,2.601
-0.614935178815,-0.523762664652,-0.129867829123,-2.64383209254,-0.0701279221013,2.10987976034,-0.864898341984,-0.329305363203,0.0407898315659,0.0377058156314,0.0325095056083,0.024225709344,0.0111038817042,-0.311554470593,0.573868439526,0.818913149388,0.00608397702805,0.0,0.818910554005,-0.573776673597,-0.0121070341322,0.0,-0.00642388902934,0.0119303074787,-0.999908196493,0.0,0.271203746139,-0.251657511754,0.304881211156,1.0,-0.0620160000001,-0.0815067428573,2.618
-0.619456943419,-0.523172655713,-0.129336318903,-2.64341536086,-0.069758648932,2.10999408852,-0.869120429996,-0.28975305506,0.0389567799994,0.0310834522251,0.025678289416,0.0219304889263,0.00392786000896,-0.267914597995,0.573923098729,0.818874487091,0.00613172398544,0.0,0.818872350088,-0.573830805232,-0.0121255156225,0.0,-0.00641082670232,0.0119804433905,-0.999907680877,0.0,0.270247099858,-0.252918688902,0.30487596917,1.0,-0.0532297142858,-0.0699590530614,2.634
-0.624065980424,-0.522580624414,-0.128603822879,-2.64299115302,-0.0693401588692,2.11013511143,-0.873460005689,-0.238743871892,0.0361749773126,0.0456357989746,0.0227876680969,0.020974404101,0.0118138003189,-0.226556314228,0.573841648184,0.818931674976,0.00611730590386,0.0,0.818929468922,-0.573749657786,-0.0121079322159,0.0,-0.00640589037443,0.0119579080808,-0.999907982268,0.0,0.269420370805,-0.254014058671,0.30488015952,1.0,-0.0438942857144,-0.0576896326532,2.651
-0.627738272119,-0.522153824842,-0.127865729603,-2.64267206813,-0.0689415316741,2.11020731035,-0.876837800197,-0.206159524982,0.0187882245021,0.0430318654073,0.0183262307085,0.029009566733,0.00376516130865,-0.192846378211,0.573732710548,0.819008226748,0.00608672874402,0.0,0.819005700268,-0.57364102264,-0.0120990484904,0.0,-0.00641774650972,0.0119269150529,-0.999908276407,0.0,0.268712596489,-0.254938402406,0.3048943107,1.0,-0.0340097142858,-0.0446984816328,2.669
-0.630609662331,-0.521809103591,-0.127247307973,-2.64241798742,-0.0685977475784,2.11030960852,-0.879340228914,-0.170874097742,0.0265878984942,0.0359473421091,0.0166557612536,0.0156748545472,0.00816640246389,-0.145281385527,0.573757163118,0.818991262342,0.00606439443921,0.0,0.818988757704,-0.573666147918,-0.0120545588253,0.0,-0.00639376365167,0.0118832891324,-0.999908949468,0.0,0.268209490044,-0.255609379612,0.304907042023,1.0,-0.0252234285715,-0.0331507918369,2.685
-0.6329843724,-0.521493281213,-0.126682109704,-2.64220471433,-0.0682312229901,2.11038022648,-0.881383106081,-0.124048427971,0.0178923264904,0.0303533978759,0.0141606797896,0.0244625388123,0.00176112170605,-0.102084631102,0.573796409599,0.81896357447,0.00609023183748,0.0,0.818961386726,-0.573705238992,-0.0120537424153,0.0,-0.00637770085282,0.0119042880256,-0.999908802271,0.0,0.267808706801,-0.256141560097,0.304907767172,1.0,-0.0198309677419,-0.0260635576037,2.702
-0.634921211404,-0.521239528636,-0.126316339383,-2.64204417139,-0.067961895163,2.11037668014,-0.883090634295,-0.110826130748,0.0181933793704,0.0185425554088,0.0101021633163,0.0156761203221,0.00140050072397,-0.0947988485445,0.573848701914,0.818926547643,0.00614196856051,0.0,0.81892453245,-0.573756356832,-0.01212435763,0.0,-0.00640508814904,0.0119875864174,-0.999907632043,0.0,0.267445244466,-0.256587419623,0.304896093316,1.0,-0.0194909677419,-0.0256167004608,2.719
-0.636489407592,-0.521024067924,-0.126044599246,-2.64186976919,-0.0678099622982,2.11040241178,-0.884511231035,-0.0933006614442,0.0166631635498,0.0190523229794,0.0119057453176,0.00805532096381,0.000459788497806,-0.0933094492539,0.573851044383,0.818924979502,0.00613218641525,0.0,0.818922850099,-0.573758767133,-0.0121239277392,0.0,-0.00641031497625,0.0119793468112,-0.999907697296,0.0,0.267154048978,-0.256975253028,0.30490492474,1.0,-0.0191709677419,-0.0251961290323,2.735
-0.638005606074,-0.520734867794,-0.125841294176,-2.64165393665,-0.0676869523912,2.11050435633,-0.886033593471,-0.0896751680265,0.016164320089,0.0119252311375,0.0113859667688,0.0097064308174,0.00759482944278,-0.0912616140029,0.573765826345,0.818984764614,0.00612198897131,0.0,0.818982776046,-0.573674123983,-0.0120813456975,0.0,-0.00638253428568,0.0119458968157,-0.999908275196,0.0,0.266878578972,-0.257386751422,0.304910296132,1.0,-0.0188309677419,-0.0247492718894,2.752
-0.63948516869,-0.520487948059,-0.125703263307,-2.64148848792,-0.0676434967268,2.11055495549,-0.88750123032,-0.0871715730862,0.0153260821101,0.0104861554668,0.00678854667381,0.000541468061071,-0.000321854372104,-0.0846380965651,0.573705196705,0.81902749739,0.00608709239662,0.0,0.819024943207,-0.573613452739,-0.0121035591399,0.0,-0.00642163330147,0.0119295849631,-0.999908219602,0.0,0.266571920424,-0.257791473865,0.30490230414,1.0,-0.0184909677419,-0.0243024147465,2.769
-0.640826954038,-0.520296766989,-0.125645112323,-2.64133493838,-0.0676205735606,2.11055410353,-0.888814068245,-0.0858347466655,0.0157453349206,0.00501671155176,0.011977248425,0.00318212545516,-3.67303511243e-05,-0.080523402111,0.573705554816,0.819027313737,0.00607804465252,0.0,0.81902445159,-0.57361349824,-0.0121346295825,0.0,-0.00645226884074,0.0119400014674,-0.999907898054,0.0,0.266271481881,-0.258169564478,0.304903084631,1.0,-0.0181709677419,-0.023881843318,2.785
-0.642195725891,-0.520095343341,-0.125584952857,-2.64115150019,-0.0675825490407,2.11058089887,-0.89024623287,-0.0778526627071,0.0127987993698,0.00443413742922,0.00876084753181,0.00068157324314,0.0019449044512,-0.0821360049326,0.573636710405,0.819075551129,0.00607560037434,0.0,0.819072766048,-0.573544880803,-0.0121169518993,0.0,-0.00644019355609,0.0119273168695,-0.999908127289,0.0,0.265976403832,-0.258563793565,0.304916081863,1.0,-0.0178309677419,-0.0234349861751,2.802
-0.643537856315,-0.51988731952,-0.125581084884,-2.64096857367,-0.0675489850298,2.11066852112,-0.891526691328,-0.0817857195865,0.0164633156584,-0.00115847650047,0.0134428330513,-0.000427861281272,0.00431766688308,-0.0774027152817,0.573708263963,0.819025332322,0.00608931666093,0.0,0.819023171145,-0.57361718766,-0.0120463293355,0.0,-0.00637343489785,0.0118985992169,-0.999908897182,0.0,0.265684491624,-0.25897165084,0.304930257063,1.0,-0.0174909677419,-0.0229881290323,2.819
-0.644902681773,-0.519693023651,-0.125581019932,-2.64079648152,-0.0675224094389,2.11069336566,-0.892908508179,-0.0787943325667,0.0126415350864,-0.00141336372319,0.0103631030423,0.000465877140326,-0.000327691263512,-0.082027172371,0.573714572267,0.819020775409,0.00610785709171,0.0,0.819018907588,-0.573623512564,-0.012035021736,0.0,-0.00635344471857,0.0119073470438,-0.999908920266,0.0,0.265372464497,-0.259375463462,0.304939096431,1.0,-0.0171509677419,-0.0225412718894,2.836
-0.646240874866,-0.519503020592,-0.125575693452,-2.64062628342,-0.0674905018518,2.11071472163,-0.894181296321,-0.080924011744,0.00194885407823,-0.00023819505281,0.0110922921874,0.000525371006962,0.00429548291778,-0.0807365201209,0.57378679545,0.818970032677,0.00612746646572,0.0,0.818968469983,-0.573695730429,-0.0120250140008,0.0,-0.00633294668832,0.0119182255479,-0.999908920695,0.0,0.26506747501,-0.259769255032,0.304948474113,1.0,-0.0168109677419,-0.0220944147465,2.853
-0.647522876892,-0.519299505381,-0.125566516916,-2.64046323117,-0.0674644396258,2.11076893649,-0.895456289612,-0.0751454562963,0.012550873118,0.00181955024727,0.0100436541273,0.00230379450573,0.0027141684834,-0.0809666087499,0.573805676572,0.818956723888,0.00613814583455,0.0,0.818955426778,-0.573714800822,-0.0120034648939,0.0,-0.00630889463572,0.0119147535322,-0.999909114118,0.0,0.264780107915,-0.26015010917,0.304952511536,1.0,-0.0164709677419,-0.0216475576037,2.87
-0.648682537891,-0.519112372609,-0.125526862399,-2.64030211934,-0.0674421457859,2.11081915531,-0.896639960741,-0.0709228341035,0.010071592752,0.000584592652336,0.00976919664787,-8.57870629698e-05,0.00207117630929,-0.0755259991553,0.573775759583,0.818977749301,0.00612949963875,0.0,0.818976538505,-0.573685302154,-0.0119729016084,0.0,-0.00628925724725,0.0118899060292,-0.999909533597,0.0,0.264529662889,-0.26049123357,0.304962065053,1.0,-0.0161509677419,-0.0212269861751,2.886
-0.649861874161,-0.518903391818,-0.125467349777,-2.64013948354,-0.0674168128568,2.1108518395,-0.897827517483,-0.0692014865289,0.0133726413116,-0.000102478587431,0.00729980157774,0.000351765890677,-0.000430601384238,-0.0679690332108,0.573746164264,0.818998582663,0.0061161662604,0.0,0.818997164162,-0.573655704104,-0.0119801980396,0.0,-0.00630331291028,0.0118829442787,-0.999909527848,0.0,0.264275348353,-0.260830237162,0.304963230579,1.0,-0.0158109677419,-0.0207801290323,2.903
-0.65102954744,-0.518682051578,-0.125388460142,-2.63998426052,-0.0673884058554,2.11088745418,-0.899070237044,-0.0670709133028,0.0212734211618,0.00166836316747,0.00485492305608,0.000170473803026,0.000270243330531,-0.075275159867,0.573649100761,0.819066708463,0.00609780155597,0.0,0.819064910255,-0.573558473367,-0.0120040542598,0.0,-0.00633479742394,0.0118808389588,-0.999909353895,0.0,0.26402665315,-0.261159674302,0.304957172599,1.0,-0.0154709677419,-0.0203332718894,2.92
-0.652185249121,-0.518479017662,-0.125367414596,-2.63983182748,-0.0673640264021,2.11091508214,-0.900254157996,-0.0651497895061,0.0144646315483,-7.43765723154e-05,0.00483571401421,-0.000333234653373,0.00522090133843,-0.0670941280792,0.573629487466,0.819080393766,0.00610463425999,0.0,0.819078573979,-0.573538628078,-0.0120199273269,0.0,-0.00634416539438,0.0118953888993,-0.999909121515,0.0,0.263766186729,-0.261497210045,0.304954521443,1.0,-0.0151309677419,-0.0198864147465,2.937
-0.653333338025,-0.518282328931,-0.125362733292,-2.63966742964,-0.0673443283287,2.11095864511,-0.901375046237,-0.0689723848919,0.0140177885177,0.000245870486339,0.0105251493579,-0.000511810887696,0.000771933773243,-0.0628761609735,0.573665389459,0.81905520186,0.00611098550089,0.0,0.819053573128,-0.573574699157,-0.012002322054,0.0,-0.00632557942946,0.0118907701995,-0.999909294201,0.0,0.263508678217,-0.261841955878,0.304960601066,1.0,-0.0147909677419,-0.0194395576037,2.954
-0.654470487509,-0.518083715415,-0.125365491579,-2.63950781089,-0.0673161018308,2.11099826676,-0.902527960042,-0.070115678899,0.00930830340518,9.19289316835e-05,0.00995303843417,-0.000270817539378,0.00321123569117,-0.0694149486432,0.573674806173,0.819048465376,0.00612984738444,0.0,0.81904711412,-0.573584094707,-0.0119940840332,0.0,-0.00630787460446,0.0119015667853,-0.999909277598,0.0,0.263250976933,-0.262182514902,0.304963281448,1.0,-0.0144509677419,-0.0189927004608,2.971
-0.655523505229,-0.517911573969,-0.125370501911,-2.63936728058,-0.0672969178706,2.11103003066,-0.903509778115,-0.0653439869226,0.00559933913887,-0.00389720029287,0.00839491099143,0.0036372062584,-0.000400874212033,-0.0541245108779,0.573752180134,0.818994169088,0.0061427756738,0.0,0.818993019353,-0.573661460825,-0.0119878903947,0.0,-0.00629425985042,0.0119091979344,-0.999909272533,0.0,0.263008616107,-0.262496522122,0.304966303003,1.0,-0.0141309677419,-0.0185721290323,2.987
-0.656601265714,-0.517726094132,-0.125357061502,-2.63920906321,-0.0672792555029,2.11105859764,-0.904537380608,-0.05805199751,0.0132727995041,0.00135093361274,0.0113748388958,0.000143340989582,0.00410020025889,-0.0611211255737,0.573799456367,0.818961037392,0.00614410347799,0.0,0.818959951909,-0.573708810425,-0.0119810229629,0.0,-0.00628718574501,0.0119067083927,-0.999909346686,0.0,0.262766536763,-0.26281684194,0.304972597858,1.0,-0.0137909677419,-0.0181252718894,3.004
-0.657628884947,-0.517541203421,-0.125352105715,-2.6390525042,-0.0672595862686,2.11110777258,-0.905635608763,-0.0631801490642,0.0100644047364,0.0010930670139,0.00525726196427,0.00133012009008,0.00709577689954,-0.0607366938016,0.573754606962,0.818992415352,0.00614991759712,0.0,0.81899156416,-0.573664247118,-0.0119539246612,0.0,-0.00626230635182,0.0118955790047,-0.999909635277,0.0,0.262538457109,-0.263127920089,0.304979905149,1.0,-0.0134509677419,-0.0176784147465,3.021
-0.658573041083,-0.517355190071,-0.125334752269,-2.63891641943,-0.0672423937674,2.11115485781,-0.906609338683,-0.0623661319343,0.0131872743106,0.00115807422571,0.00822166554124,-7.65492986987e-05,0.0032163670378,-0.0628070127392,0.573732562933,0.819007861482,0.00614946841602,0.0,0.819007017617,-0.573642234612,-0.0119515130998,0.0,-0.00626090892344,0.0118936590188,-0.999909666867,0.0,0.262329504884,-0.263408861428,0.304977599117,1.0,-0.0131309677419,-0.017257843318,3.037
-0.659625500314,-0.517140326368,-0.125285793739,-2.63877123779,-0.0672233102284,2.11118344654,-0.90764348293,-0.0551125172301,0.0145657285327,0.00110215290251,0.00894872242469,0.0049572017422,0.00122091582308,-0.0598574654071,0.573728676018,0.819010670621,0.00613796578613,0.0,0.819009463382,-0.573637991515,-0.0119875136346,0.0,-0.00629705245322,0.0119048615966,-0.999909306588,0.0,0.262097373702,-0.263710219986,0.304967946942,1.0,-0.0127709677419,-0.0167847004608,3.055
-0.66060184911,-0.51695562483,-0.12525793989,-2.63864088828,-0.0672074027792,2.11121732277,-0.908619112033,-0.05835786781,0.00990224747399,-0.000283757180959,0.00447779284851,-0.000315209174665,0.0047430156424,-0.0590880020436,0.573723165201,0.819014562335,0.00613378324224,0.0,0.819013207268,-0.573632323097,-0.0120029629441,0.0,-0.00631218664091,0.0119102566873,-0.999909146916,0.0,0.261878177343,-0.263993764752,0.304962616222,1.0,-0.0124309677419,-0.016337843318,3.072
-0.661471559951,-0.516768836687,-0.125229569456,-2.63851277829,-0.0671898977561,2.11125052424,-0.90951435707,-0.0568091499233,0.0167338832999,0.00114290909882,0.00681682023801,0.00419982305526,0.000440471725679,-0.0589920452045,0.57369636824,0.819033359035,0.00613031469802,0.0,0.819031828352,-0.573605300632,-0.0120237321101,0.0,-0.00633157859544,0.0119191237798,-0.999908918652,0.0,0.261686461416,-0.264248241897,0.304955443699,1.0,-0.0121109677419,-0.0159172718894,3.088
-0.662372888817,-0.516596937569,-0.125221037331,-2.63837009803,-0.0671757159226,2.11128983681,-0.910385939696,-0.0530307761921,0.0115826938037,-0.000682865710544,0.00540749321093,-2.56695092087e-05,0.00423997460528,-0.0494019077619,0.573728109573,0.819011129019,0.00612974150642,0.0,0.819009686856,-0.573637218492,-0.0120092172119,0.0,-0.00631955635057,0.0119105724755,-0.999909096604,0.0,0.261486033737,-0.264520384353,0.304960422973,1.0,-0.0117709677419,-0.0154704147465,3.105
-0.663257467279,-0.516426477179,-0.125197583814,-2.6382347239,-0.0671582608912,2.11132318023,-0.911265247368,-0.051606746848,0.0143854393052,0.00436628478075,0.00680839810162,0.00213857397339,0.0016499302476,-0.0531394574137,0.573730260157,0.819009646819,0.00612649149711,0.0,0.819008184064,-0.573639423293,-0.0120063892025,0.0,-0.00631907319282,0.0119063047097,-0.999909150484,0.0,0.26129081675,-0.264781725948,0.304962449573,1.0,-0.0114309677419,-0.0150235576037,3.122
-0.664073817891,-0.516273683976,-0.125183472834,-2.63811224227,-0.0671392373743,2.11137216106,-0.912129659137,-0.0530881651589,0.00983062787609,0.000134353980836,0.0033016767564,0.000753497862479,0.00542410672857,-0.0598909633407,0.573695340358,0.819034095147,0.00612815953056,0.0,0.819032797193,-0.573604773721,-0.0119828038153,0.0,-0.00629930460045,0.0118938713491,-0.999909423191,0.0,0.261111415322,-0.26502615994,0.30496624372,1.0,-0.0111109677419,-0.0146029861751,3.138
-0.66497901786,-0.516101545147,-0.125167025125,-2.63798067769,-0.0671250629363,2.11139128152,-0.912985429876,-0.0516777797404,0.0109320660646,0.000788309326223,0.00786889793125,0.00457670247682,0.00235083622961,-0.0441848384349,0.57373706972,0.819004866655,0.00612781579085,0.0,0.819003461798,-0.57364630247,-0.0119998386268,0.0,-0.00631284890571,0.0119036837796,-0.999909221005,0.0,0.260905263616,-0.265291405788,0.304964522395,1.0,-0.0107509677419,-0.014129843318,3.156
-0.665806152981,-0.515947120876,-0.125162375544,-2.63787572566,-0.0671096062123,2.11141369233,-0.91380013232,-0.0497296261255,0.011014964016,0.0016985094818,0.00602444135701,-5.76073179706e-05,0.00244220130329,-0.0509151669037,0.573756110252,0.818991460241,0.00613684787093,0.0,0.818990025474,-0.573665022632,-0.0120219334766,0.0,-0.00632548766542,0.0119239045555,-0.999908900203,0.0,0.260711967375,-0.265532412461,0.304957243734,1.0,-0.0104109677419,-0.0136829861751,3.173
-0.666521896553,-0.515807849598,-0.12516699294,-2.63777800535,-0.0670910294777,2.11144378202,-0.914502631821,-0.0475028119552,0.00612616531725,-0.00141958356692,0.00741867029794,0.000366803562623,0.000239145435017,-0.0477455356499,0.573783317621,0.818972292,0.00615111841585,0.0,0.818970989007,-0.57369206134,-0.0120285003736,0.0,-0.00632228244029,0.0119395702566,-0.999908733539,0.0,0.260546176642,-0.265745425217,0.304952704368,1.0,-0.0101109677419,-0.0132887004608,3.188
-0.66738408849,-0.515622516029,-0.125157803194,-2.63764705548,-0.0670723283448,2.11147078952,-0.915377215311,-0.0487123378753,0.00942211788702,4.01121678337e-05,0.00993929901253,-8.39299753963e-06,0.00244994064117,-0.039230618657,0.573781526419,0.818973492899,0.00615830911305,0.0,0.81897213516,-0.573689959438,-0.0120506917792,0.0,-0.00633635902749,0.0119581781187,-0.999908422072,0.0,0.260350345421,-0.266000897307,0.30494631373,1.0,-0.00973096774194,-0.0127892718894,3.207
-0.668125251608,-0.515470860305,-0.125133760448,-2.63752908977,-0.0670537668201,2.11150383889,-0.916093165258,-0.0369336393255,0.00392972814812,0.000409654693153,0.00266594605731,0.000481289331636,0.00523617814938,-0.0381384895724,0.573799148968,0.818961166157,0.00615563736219,0.0,0.818959798921,-0.57370763753,-0.0120474599879,0.0,-0.00633498768054,0.0119542719814,-0.999908477468,0.0,0.260188551148,-0.266219618019,0.304947313089,1.0,-0.00939096774194,-0.0123424147466,3.224
-0.668803571893,-0.515321468847,-0.125097238292,-2.63742094877,-0.0670338616791,2.11154312196,-0.916720154159,-0.039936530875,0.00624298699021,0.00328197645032,0.00729112787921,0.000361163595712,0.0022565153783,-0.0407940134165,0.573829392914,0.818940035722,0.00614757040568,0.0,0.818938583296,-0.573737947334,-0.0120462225785,0.0,-0.00633816155235,0.0119471892083,-0.999908542007,0.0,0.260045039704,-0.266417448907,0.304945504904,1.0,-0.00907096774194,-0.011921843318,3.24
-0.669495556419,-0.515183634327,-0.125047075755,-2.63732591092,-0.0670093037363,2.11157349627,-0.917411839666,-0.0422844826134,0.0105917382317,0.00361325500155,0.000907936030711,0.000657399445453,0.00102834676792,-0.0392054810104,0.573809479841,0.818954043823,0.00614018340141,0.0,0.81895244731,-0.573717980207,-0.0120546727009,0.0,-0.00634961158588,0.01194583369,-0.999908485558,0.0,0.259897135727,-0.266610858916,0.304941568944,1.0,-0.00873096774194,-0.0114749861751,3.257
-0.670190994096,-0.515045791818,-0.125010818384,-2.63722885344,-0.0669888464449,2.11159202276,-0.918145827701,-0.0315307507711,0.0122737124267,0.0031705538587,0.00666372919101,-0.000432291187217,-0.000146095764125,-0.0431301962232,0.573765980341,0.818984537329,0.00613794105834,0.0,0.818982794594,-0.573674279735,-0.0120726894057,0.0,-0.00636628960235,0.0119539967447,-0.999908281953,0.0,0.259743300029,-0.266807312329,0.30493720073,1.0,-0.00837096774194,-0.011001843318,3.275
-0.670712662359,-0.514955958407,-0.124985742498,-2.63716605842,-0.0669667527515,2.11160972007,-0.918689772186,-0.0350521172111,0.00337111726072,0.00107027651915,-0.00162291993399,0.00048198035088,-0.000197777511243,-0.0297073064129,0.57374264777,0.819000843041,0.00614329960676,0.0,0.818999128058,-0.573650849781,-0.012077983585,0.0,-0.00636789230014,0.0119612415941,-0.999908185109,0.0,0.259626591155,-0.266952572408,0.304934661477,1.0,-0.00809096774194,-0.010633843318,3.289
-0.671334078816,-0.514840483578,-0.124964421944,-2.63708533792,-0.0669432722166,2.11163217174,-0.919284036821,-0.0364456853638,0.00398584039854,0.00473037506175,0.00812619549487,0.000874858908521,-0.000662533567603,-0.0361695759889,0.573763999147,0.81898583343,0.00615018909221,0.0,0.818984152565,-0.573672061931,-0.0120859467434,0.0,-0.00637015015374,0.0119716190295,-0.999908046535,0.0,0.259486643934,-0.267129258958,0.304931109475,1.0,-0.00775096774194,-0.0101869861751,3.306
-0.671890983247,-0.514728771239,-0.124955793445,-2.63702512227,-0.066918228507,2.11164846457,-0.919842772392,-0.0319152937298,0.00643004490896,0.000138177265385,0.00533941771241,8.98173826676e-05,0.000466711848383,-0.038621934802,0.573770349451,0.818981248522,0.00616827053738,0.0,0.8189795929,-0.573677935548,-0.0121160876407,0.0,-0.00638437079429,0.0120037706429,-0.999907570378,0.0,0.259355649154,-0.267285530828,0.304918806882,1.0,-0.00743096774194,-0.00976641474655,3.322
-0.672437814495,-0.514638495248,-0.124945505196,-2.63695565626,-0.0668950224134,2.11166606743,-0.920363125563,-0.0302117750522,0.00449638912088,0.000440867822333,0.00183134475531,0.000189648252455,0.000109220742501,-0.0374210628685,0.573798238516,0.818961616776,0.00618050366602,0.0,0.818960118692,-0.573705760589,-0.0121149147894,0.0,-0.00637598240392,0.0120133340757,-0.999907509049,0.0,0.259230207326,-0.267441938465,0.304918770273,1.0,-0.00711096774194,-0.00934584331798,3.338
-0.673045105946,-0.51453363058,-0.124925660882,-2.63687163207,-0.0668697290937,2.11168239907,-0.920966905355,-0.0270982821018,0.00731955517828,0.00434932696258,0.0021133347143,0.00114762504019,-0.000162706138736,-0.0349708402232,0.573802153677,0.818958806308,0.0061894189907,0.0,0.818957416712,-0.573709620627,-0.0121147725354,0.0,-0.00637069308879,0.0120205845932,-0.999907455626,0.0,0.259093573944,-0.267615068817,0.304920071578,1.0,-0.00673096774194,-0.00884641474655,3.357
-0.673563543829,-0.514435196241,-0.124893423119,-2.63678603575,-0.0668486180067,2.11170288614,-0.92149021143,-0.029199340164,0.00397021112425,0.00145212959973,0.00609615149689,0.00389598500988,0.000175113960664,-0.0252600252075,0.573788642494,0.818968294634,0.00618652000542,0.0,0.818966937934,-0.573696258631,-0.0121038962617,0.0,-0.0063636464187,0.0120118648158,-0.999907605286,0.0,0.258984155975,-0.267763997477,0.304925102088,1.0,-0.00639096774194,-0.00839955760369,3.374
-0.674026424249,-0.514350222142,-0.12485813449,-2.63670431053,-0.0668294481513,2.11172706584,-0.9219612547,-0.0285696057378,0.0057569832817,-6.70522707425e-05,0.00404189740673,0.00078410449795,0.000586655306121,-0.0303213237116,0.573769185575,0.818981981824,0.00617916124112,0.0,0.818980684098,-0.573677130789,-0.012080380171,0.0,-0.00634889243801,0.0119921944795,-0.99990793518,0.0,0.258890047389,-0.267897790638,0.304933729772,1.0,-0.00607096774194,-0.00797898617512,3.39
-0.674517158304,-0.514273356991,-0.124832606427,-2.63663480421,-0.0668060519521,2.11175347128,-0.922431573856,-0.0257542919293,0.00174021168644,0.0014450561779,0.00101619710498,9.1599886633e-05,0.00263067017841,-0.0315114887611,0.573781275869,0.818973494451,0.00618140353819,0.0,0.818972368046,-0.573689477419,-0.0120578097554,0.0,-0.00632894227701,0.0119811748339,-0.999908193755,0.0,0.258784389996,-0.268037695254,0.304939764688,1.0,-0.00571096774194,-0.00750584331798,3.408
-0.674912882621,-0.514193103391,-0.124812343391,-2.63657565244,-0.0667855371145,2.11177074141,-0.922825016031,-0.0194353449111,0.000782144317106,-0.000426900654628,0.00388150664241,0.000189736889539,0.000843187195599,-0.0269211014568,0.573780577806,0.818973948049,0.00618610139279,0.0,0.818972873566,-0.573688741486,-0.0120584890351,0.0,-0.00632681346063,0.0119854067961,-0.99990815651,0.0,0.258698885487,-0.268150302987,0.304938937808,1.0,-0.00539096774194,-0.00708527188941,3.424
-0.675305105177,-0.514126893132,-0.124798580858,-2.63652456899,-0.0667663792477,2.11179295939,-0.923225043649,-0.0172537081116,0.00487811450863,0.00149262231216,0.00400259356109,3.21766079713e-06,0.00113859158042,-0.0262022523422,0.573775219506,0.818977651969,0.00619273428404,0.0,0.81897672209,-0.573683465857,-0.0120480943342,0.0,-0.00631457231637,0.0119848339411,-0.999908240756,0.0,0.258611954767,-0.268262350209,0.304939902618,1.0,-0.00505096774194,-0.00663841474655,3.441
-0.67570766147,-0.514059054329,-0.124780373458,-2.63648187147,-0.0667497225675,2.11181000549,-0.923606081637,-0.0256828644336,0.0038025454094,0.000124944818873,0.00243794353238,0.000114196150546,0.00588977896559,-0.0200054815518,0.573789274619,0.818967771727,0.00619710467277,0.0,0.818966863361,-0.573697431738,-0.0120532333969,0.0,-0.00631606826605,0.0119914702963,-0.999908151743,0.0,0.258520264399,-0.268373360287,0.304936116843,1.0,-0.00471096774194,-0.00619155760369,3.458
-0.676057179005,-0.514011566286,-0.124753019128,-2.63644153386,-0.066736767244,2.11181567262,-0.92393550822,-0.0231702724943,0.00345439042611,-6.79903530593e-06,0.00181593000582,-0.000130212033004,0.000359792779276,-0.0222241163061,0.573793876821,0.818964571452,0.00619391072571,0.0,0.818963628729,-0.573702060609,-0.0120526915462,0.0,-0.0063173896497,0.0119885790296,-0.999908178065,0.0,0.258442645542,-0.268467132798,0.304938020737,1.0,-0.00439096774194,-0.00577098617512,3.474
-0.676425771481,-0.513932676713,-0.124732439871,-2.63638771066,-0.0667161279141,2.11182797653,-0.924293511819,-0.0200670916347,0.00179418053579,0.00055522960804,0.00329542420091,0.00188718883371,-8.45445401378e-05,-0.0181662917405,0.573799559444,0.81896054648,0.00619966071658,0.0,0.818959612156,-0.573707590729,-0.0120623753194,0.0,-0.00632193878725,0.0119988883958,-0.999908025654,0.0,0.258362401829,-0.268570451457,0.304934854758,1.0,-0.00403096774194,-0.00529784331798,3.492
-0.676727189338,-0.513878059079,-0.124720359947,-2.63634798803,-0.0667033375925,2.11183276172,-0.924590905074,-0.0143018764438,0.00585927428218,-0.000223460258977,0.000416181505924,7.51606730853e-05,2.92747007044e-05,-0.0139826166695,0.573801802516,0.818958940977,0.00620413760957,0.0,0.818958011449,-0.573709712112,-0.0120701538222,0.0,-0.00632570817929,0.012007035392,-0.999907904018,0.0,0.25829374962,-0.268654628361,0.304933408502,1.0,-0.00371096774194,-0.00487727188941,3.508
-0.677009697264,-0.513814885966,-0.124705152435,-2.63631270506,-0.0666906254755,2.11184750769,-0.924862403276,-0.017030264365,0.00389045892054,0.00284446728255,0.00639415413466,0.00277714604583,-8.87953938039e-05,-0.0115608361037,0.573805239212,0.818956491463,0.00620962516744,0.0,0.818955564397,-0.573712992887,-0.0120802415861,0.0,-0.0063307715128,0.0120173443679,-0.999907748128,0.0,0.258227752745,-0.268736525702,0.304928085628,1.0,-0.00337096774194,-0.00443041474655,3.525
-0.677274821244,-0.513771099683,-0.124675987067,-2.63628366749,-0.0666779231786,2.11185845271,-0.925122330161,-0.0150748464934,0.00480855354026,0.00107050529147,0.00143971719375,8.88456949651e-05,-0.000733869998598,-0.0135405265746,0.57380040286,0.818959954837,0.00619975419415,0.0,0.81895885648,-0.573708120241,-0.0120884682075,0.0,-0.00634324417967,0.0120139428383,-0.999907709957,0.0,0.258171744729,-0.268807369382,0.304925715931,1.0,-0.00303096774194,-0.00398355760369,3.542
-0.677537558309,-0.513724504786,-0.124646584398,-2.63626389352,-0.0666667417433,2.11186578646,-0.925373087695,-0.0131490813361,0.00129167414508,0.00478150085942,0.000221388306899,0.000103990538727,-0.000339856149433,-0.0114314663871,0.573792597202,0.818965428096,0.0061991838571,0.0,0.818964240507,-0.57370016395,-0.0121013039092,0.0,-0.00635419907937,0.0120207799361,-0.999907558229,0.0,0.258116461329,-0.26886862778,0.304919412081,1.0,-0.00269096774194,-0.00353670046084,3.559
-0.677751557346,-0.513710629744,-0.124624491164,-2.63624194856,-0.0666534818662,2.11187172057,-0.925563163034,-0.0110259766537,0.000591507846148,0.0016973535656,0.00498615115169,0.000120484173726,1.57637190997e-05,-0.0138095404739,0.573803202467,0.818958005844,0.00619809672218,0.0,0.818956905422,-0.57371096356,-0.0120857045568,0.0,-0.00634189056136,0.0120110213392,-0.999907753641,0.0,0.258070630083,-0.268924204341,0.304925281735,1.0,-0.00237096774194,-0.00311612903227,3.575
