nelsonifechukwu/NELSON_IML_WORK/CNN-GradCAM/train2dof/data_sample_2022-02-22-09-08-41/robot_state.csv
position_joint1,position_joint2,position_joint3,position_joint4,position_joint5,position_joint6,position_joint7,velocity_joint1,velocity_joint2,velocity_joint3,velocity_joint4,velocity_joint5,velocity_joint6,velocity_joint7,ee_T_00,ee_T_10,ee_T_20,ee_T_30,ee_T_01,ee_T_11,ee_T_21,ee_T_31,ee_T_02,ee_T_12,ee_T_22,ee_T_32,ee_T_03,ee_T_13,ee_T_23,ee_T_33,v_x,v_y,time
0.465075862768,0.547812247084,-0.124005937053,-1.35584195727,0.0795224927399,1.89410481199,0.159170411342,0.00200041383082,-0.00140391719588,-0.00206402457545,-4.0252138528e-05,0.000412453179076,0.00297301571562,0.000244664156574,0.573831857975,0.818959129464,0.00192092225812,0.0,0.818915479653,-0.573773282868,-0.0119333127601,0.0,-0.00867088850094,0.0084209501347,-0.999926948977,0.0,0.661677216804,0.260884292751,0.303189101633,1.0,0.0,0.0,0.0
0.465070522679,0.547819366344,-0.124004231286,-1.35583875904,0.0795224927399,1.89410323758,0.159165906562,-0.00536808339816,0.0020485174747,0.000149185669049,0.000697671573051,0.000194482156568,-0.000398492481393,-0.00016591353053,0.573831177173,0.818959616877,0.00191648902993,0.0,0.818915901313,-0.573772613008,-0.011936584084,0.0,-0.00867611845191,0.00841918953313,-0.999926918438,0.0,0.661678448028,0.260881924437,0.303185387247,1.0,-0.00026,-0.000341714285714,0.014
0.465072678331,0.547809783173,-0.124001269654,-1.35585320934,0.0795211703055,1.89410349655,0.159167542103,0.000224271063594,-0.000291969344069,0.000885495459128,-0.00265846342997,-0.000255116149953,-0.000808790742185,0.0011588859128,0.573829105117,0.818961076372,0.0019132194571,0.0,0.818917300219,-0.573770537509,-0.0119403764393,0.0,-0.00868112172322,0.00841866612486,-0.99992687942,0.0,0.661674271409,0.26088327763,0.303185220598,1.0,-0.00056,-0.000736,0.029
0.465072412201,0.547787048148,-0.123998734253,-1.35587350973,0.0795211702935,1.8941068742,0.159169165157,-0.00467010088688,-0.0016412531979,0.00156310524022,-0.00627672969226,-0.00022223237512,-0.000502749315688,0.00102971708221,0.573829972854,0.818960452825,0.00191986069129,0.0,0.818916734027,-0.573771348882,-0.0119402191662,0.0,-0.00867717329918,0.00842402387569,-0.999926868569,0.0,0.661670380862,0.2608826886,0.303191873839,1.0,-0.0009,-0.00118285714286,0.046
0.465074042592,0.54769111993,-0.124006396567,-1.35597714927,0.0795198911972,1.89413445519,0.159162570751,0.00010230183912,-0.00621975345941,-0.00162995983195,-0.0071964007914,0.000349281117514,0.00711245165758,0.000214001320859,0.573833934058,0.818957632671,0.00193879208609,0.0,0.818914140998,-0.573775211168,-0.0119324609391,0.0,-0.0086599158542,0.00843511766156,-0.999926924654,0.0,0.661656068137,0.260869960929,0.303213149266,1.0,-0.00126,-0.001656,0.064
0.465063359704,0.547571723465,-0.12400110812,-1.35614444839,0.0795184140935,1.89416484426,0.159165907005,-0.00180896728356,-0.00492198364618,-0.00439679890168,-0.00971080944933,-0.000134838007526,-6.23723194823e-05,0.000871077663248,0.573850460999,0.818946070089,0.00193121673461,0.0,0.818902332211,-0.573791624365,-0.0119536190813,0.0,-0.00868142052708,0.00844123022824,-0.999926686598,0.0,0.661628580338,0.260849483176,0.303220563301,1.0,-0.00156,-0.00205028571429,0.079
0.465053579108,0.54741641853,-0.12400412953,-1.35635776342,0.0795156580599,1.89426836063,0.159160931373,0.000387524786625,-0.0104120332092,-0.000603857294856,-0.00920592628145,8.78186006806e-05,0.00854943831167,0.001749179288,0.573867868971,0.818933769845,0.00197394844412,0.0,0.818890546907,-0.573808810049,-0.0119360209909,0.0,-0.00864230805039,0.00846630965368,-0.999926813378,0.0,0.661607822641,0.260824573642,0.303238132115,1.0,-0.0019,-0.00249714285714,0.096
0.465030776352,0.547223099608,-0.124001345435,-1.35657833246,0.0795135045688,1.89438146469,0.159149073369,-0.0013382845715,-0.0129606079792,-2.00585926071e-05,-0.0158682507374,1.5958852843e-05,0.00975341785285,0.000296346236711,0.573886797925,0.818920308724,0.00205378394114,0.0,0.818878058006,-0.573827340137,-0.0119019632723,0.0,-0.00856840702957,0.00851234208559,-0.999927058556,0.0,0.661590345205,0.260794802988,0.303279810017,1.0,-0.00224,-0.002944,0.113
0.465010168639,0.547029055607,-0.124001354507,-1.35682331738,0.0795107408972,1.894506343,0.15913525601,-0.00280242252835,-0.0175861574088,-0.00188260291586,-0.0124324269007,-3.50112016504e-05,0.00909865711085,0.000794538686192,0.573905521165,0.818907011729,0.00212269166915,0.0,0.818865600334,-0.57384572407,-0.0118726769401,0.0,-0.00850468459787,0.00855215869044,-0.999927262815,0.0,0.661569725794,0.260762676234,0.303311487465,1.0,-0.00256,-0.00336457142857,0.129
0.464976062305,0.546804237044,-0.124004129831,-1.35717478268,0.0795038060053,1.89463211254,0.159103373012,-0.00247844993976,-0.0146452245115,-0.000694671859306,-0.0279950521945,0.000289431966601,0.0119674057613,-0.00214526521911,0.573927094536,0.818891875968,0.00212897443437,0.0,0.818850425292,-0.573867147707,-0.0118837991665,0.0,-0.00850996195006,0.00856391083054,-0.999927117334,0.0,0.661530034937,0.260707153061,0.30331443161,1.0,-0.0029,-0.00381142857143,0.146
0.464937802734,0.546500388934,-0.124001345475,-1.35760269267,0.0794952838589,1.89479913723,0.158966320344,-0.00412946278832,-0.0194388294858,-0.000134351212967,-0.0236998300549,-0.00052805695876,0.0102690501884,-0.00948095344774,0.573865945232,0.81893460316,0.00217705093172,0.0,0.81889361456,-0.573805647673,-0.0118774421742,0.0,-0.00847780749763,0.00859899824414,-0.999927089347,0.0,0.661482993189,0.260646616346,0.303340341434,1.0,-0.00326,-0.00428457142857,0.164
0.464895589649,0.546214695647,-0.124006492626,-1.35807745249,0.0794812174386,1.89495853182,0.158935030214,-0.00127517538787,-0.0148132683305,-6.12585022404e-05,-0.0288322815569,0.000404449764808,0.0159955898021,-0.00076156685296,0.573901246398,0.818909914925,0.00215812912896,0.0,0.818868549623,-0.573840888496,-0.0119029420278,0.0,-0.00850917833456,0.00859850288312,-0.999926827139,0.0,0.661426315707,0.260571645787,0.303330665956,1.0,-0.0036,-0.00473142857143,0.181
0.464842653142,0.545910761484,-0.124001611828,-1.35857924878,0.0794582581043,1.89512851789,0.158890806329,-0.00251824303378,-0.0198017975465,-0.00140823215151,-0.0367118424881,3.21032463624e-05,0.0144688090306,-0.00258864416825,0.573926863823,0.818892010738,0.0021393066212,0.0,0.818850284221,-0.573866462058,-0.0119265526444,0.0,-0.00853904675727,0.00859690630729,-0.999926586246,0.0,0.66136697306,0.260491699923,0.303321591419,1.0,-0.00392,-0.005152,0.197
0.464784836855,0.54556488862,-0.124001319876,-1.35917488979,0.0793627067809,1.89532627022,0.158778147608,-0.00227855367567,-0.0221599727113,0.00103890830084,-0.0365454360095,-0.00925750206323,0.0146634370033,-0.0100067064436,0.573889561786,0.818918350545,0.00206225949675,0.0,0.818876112731,-0.573829972091,-0.0119089054806,0.0,-0.00856919990719,0.00852329568763,-0.999926958454,0.0,0.661299053896,0.260385409779,0.303299949905,1.0,-0.00426,-0.00559885714286,0.214
0.464721203546,0.545202618489,-0.124004522617,-1.35982320538,0.0793174476125,1.89553167365,0.158711230467,-0.00143313189662,-0.0225300815195,8.3941694433e-05,-0.040347701608,-0.000298817586318,0.011096181718,-0.00756256149898,0.573913145581,0.818902004353,0.00198884308375,0.0,0.818858825783,-0.573853872048,-0.0119458727175,0.0,-0.00864136018054,0.00848463845581,-0.999926666213,0.0,0.661220414603,0.260275877299,0.303265695139,1.0,-0.00458,-0.00601942857143,0.23
0.464661622004,0.544772969572,-0.124005274163,-1.36054231302,0.0793037002467,1.89577067925,0.158645630981,-0.00288193474877,-0.0246296962828,-0.000600696141229,-0.0485552408038,-0.00120454665208,0.0151562698781,-0.00285302129377,0.573945092835,0.818879679317,0.00196166076749,0.0,0.818835833967,-0.573885624082,-0.0119964321833,0.0,-0.00869803308954,0.00849173500588,-0.999926114599,0.0,0.661130523878,0.260170317969,0.303248301814,1.0,-0.00492,-0.00646628571429,0.247
0.46458430728,0.544295166164,-0.124007730546,-1.3613369068,0.0792764389187,1.8960621556,0.158520297494,-0.00964711892499,-0.0234566564943,0.000150501517211,-0.0504645917004,4.38055114152e-05,0.0175125009425,-0.00620420763623,0.573944598586,0.818880053416,0.00195006960426,0.0,0.818835863339,-0.573884990787,-0.0120246896345,0.0,-0.00872783085115,0.008498456215,-0.999925797852,0.0,0.66104067319,0.260045099829,0.303233606089,1.0,-0.00528,-0.00693942857143,0.265
0.464522463599,0.543812633381,-0.124006052186,-1.36210841379,0.079241706108,1.89633568856,0.158430549903,-0.005726723195,-0.0302197382773,0.000229962483337,-0.0518724620653,-0.000182991573155,0.0151071079898,3.68909800351e-05,0.573954263675,0.818873294588,0.00194358473943,0.0,0.8188288776,-0.573894544195,-0.0120444282764,0.0,-0.00874761640474,0.00850457801297,-0.99992557291,0.0,0.660948021738,0.259932887785,0.303231483185,1.0,-0.0056,-0.00736,0.281
0.464451858296,0.543271659471,-0.124015865191,-1.36295590109,0.0791901613954,1.89661810713,0.158342576744,0.0005523211308,-0.0384405408891,-0.00272112286316,-0.049021704111,-0.00530122811432,0.0160848967664,-0.00392418308707,0.573980157027,0.818855198245,0.00192107996985,0.0,0.818810490775,-0.57392053515,-0.0120559707706,0.0,-0.0087697159352,0.00849305194649,-0.999925477299,0.0,0.66084692784,0.259797863591,0.30323560633,1.0,-0.00594,-0.00780685714286,0.298
0.464374510728,0.542717080488,-0.124016330028,-1.36385233682,0.0791369714814,1.89694350094,0.158203640697,-0.00284990253951,-0.0286171116193,0.000482159365177,-0.0568802570201,-0.00339539651239,0.0121116152257,-0.00894294073229,0.573965734407,0.818865340383,0.00190707837969,0.0,0.818820421523,-0.573906147764,-0.0120663895534,0.0,-0.00878643334855,0.00848741227339,-0.999925378427,0.0,0.660743055378,0.259660823448,0.303229415108,1.0,-0.00628,-0.00825371428571,0.315
0.464296371575,0.542141649838,-0.124014477188,-1.36472439953,0.0790854431591,1.89726265963,0.158083198558,-0.00623057308626,-0.0400141259045,-0.000833140329426,-0.0607196127042,-0.00445536921902,0.0108088600032,-0.0103288941367,0.57396446815,0.818866179643,0.00192770345169,0.0,0.81882149912,-0.573904761734,-0.0120591848332,0.0,-0.00876870924864,0.00850015229355,-0.999925425794,0.0,0.660643559914,0.259527631536,0.303248878327,1.0,-0.0066,-0.00867428571429,0.331
0.464203219308,0.541479117382,-0.124016372428,-1.36574440703,0.0790317755479,1.89764100193,0.157954019385,-0.00679949774344,-0.0368668706758,-0.000804322737346,-0.0563613034365,-0.00486822172625,0.0207960330555,-0.00901682201466,0.573973674208,0.818859684557,0.0019455652232,0.0,0.818815147559,-0.573913801902,-0.0120602245183,0.0,-0.00875921355268,0.00851547360314,-0.999925378659,0.0,0.660533538359,0.259380771113,0.30326209745,1.0,-0.00694,-0.00912114285714,0.348
0.464112654627,0.540798041883,-0.124017328228,-1.36679750381,0.0789657855255,1.89802813554,0.157825697776,-0.00816703169259,-0.0367857477429,-0.000873629623904,-0.0614082596651,-0.00112149293957,0.0199239171129,-0.00123479961277,0.573989104902,0.818848833241,0.00196026882479,0.0,0.818804523747,-0.573929201543,-0.012048668359,0.0,-0.00874115080071,0.00852104540469,-0.999925489258,0.0,0.660408172891,0.259208766556,0.303278488362,1.0,-0.0073,-0.00959428571429,0.366
0.4640348577,0.54015890843,-0.124023253347,-1.36777443123,0.0789103082618,1.89838752992,0.157691791946,-0.0112608106226,-0.0416339048305,-0.000451330560654,-0.0677091138009,-0.00816068656422,0.0310930483379,-0.00363952751462,0.573986577,0.818850559332,0.00197934522106,0.0,0.818806485444,-0.573926578608,-0.0120402932817,0.0,-0.0087233700095,0.00853183169495,-0.999925552561,0.0,0.660295604367,0.25906179451,0.303296558039,1.0,-0.0076,-0.00998857142857,0.381
0.463920312033,0.539371715881,-0.124028712487,-1.36898860344,0.0788428367083,1.8988551534,0.157548831432,-0.00192481583825,-0.0467900536492,-0.00265413860735,-0.0647020878157,-0.000385402371484,0.028142778832,-0.00945378598895,0.574016399304,0.818829567791,0.00201473130224,0.0,0.818785948381,-0.573956238441,-0.0120230607724,0.0,-0.00868863733931,0.00855123237097,-0.999925689242,0.0,0.660163564878,0.25887001961,0.303315595913,1.0,-0.00796,-0.0104617142857,0.399
0.463812083796,0.538618278853,-0.124030101274,-1.37016796609,0.0787713540474,1.8993063316,0.157395855411,-0.00666248561109,-0.0462367609917,-0.00090428752249,-0.0705485198994,0.00078735266473,0.0273672480308,-0.00767212675835,0.574026880977,0.818822170549,0.00203465831875,0.0,0.81877883016,-0.573966652874,-0.0120106441126,0.0,-0.0086669225221,0.00856053255324,-0.999925798115,0.0,0.660032805316,0.258686714789,0.303325653201,1.0,-0.0083,-0.0109085714286,0.416
0.463707994829,0.537889739472,-0.124036084042,-1.37131986653,0.0787082509518,1.89975547441,0.157252049328,-0.0102618210726,-0.0449786881382,-0.00032164692956,-0.0690215504,-0.00433910847369,0.0328315564655,-0.0100376436267,0.574045419959,0.818809117771,0.0020570321002,0.0,0.818766061314,-0.573985087164,-0.0120001439524,0.0,-0.00864528798201,0.00857302080259,-0.999925878408,0.0,0.659906616464,0.258507635461,0.303331063566,1.0,-0.00862,-0.0113291428571,0.432
0.463603577436,0.537063224139,-0.12404355086,-1.37260393411,0.0786345629338,1.90022454412,0.157100086345,-0.00758915822813,-0.0501186958886,0.00579985323848,-0.078446329102,-0.00372968994883,0.0370696094683,-0.00914301898419,0.574070560505,0.818791485908,0.00205938524687,0.0,0.818748429407,-0.574010184148,-0.0120026971679,0.0,-0.00864576460201,0.00857667865483,-0.999925842919,0.0,0.659748148679,0.258295887278,0.303338804924,1.0,-0.00898,-0.0118022857143,0.45
0.463481068712,0.536167895124,-0.124045420474,-1.3739995559,0.078549920645,1.90074787223,0.156930852314,-0.00768347100488,-0.050606067494,-0.000728284212789,-0.0798781250285,-0.0113300747924,0.0272791108466,-0.00886634374998,0.574079915626,0.818784861773,0.00208506781733,0.0,0.818742161136,-0.574019451062,-0.0119870881616,0.0,-0.00861814276544,0.00858884485315,-0.99992597694,0.0,0.659598057785,0.258098733845,0.303357530352,1.0,-0.00932,-0.0122491428571,0.467
0.463372506743,0.53538081675,-0.12404607726,-1.37526196331,0.0784813082638,1.90120497909,0.156781499592,-0.00442886995084,-0.0534821739604,0.00047283990784,-0.0891522134574,-0.00479533527313,0.0289051450665,-0.0170264296517,0.57409791289,0.818772273874,0.00207288470243,0.0,0.818729316603,-0.574037399897,-0.0120048555349,0.0,-0.00863949585602,0.0085892593528,-0.999925789114,0.0,0.659448781274,0.257907143465,0.3033517676,1.0,-0.00962,-0.0126434285714,0.482
0.463251369344,0.534493266793,-0.124043514444,-1.37670285566,0.0784047231523,1.90172107101,0.156593752139,-0.00725520071534,-0.0543690910866,0.000303815831152,-0.0919467276931,-0.00330565109009,0.0243476832629,-0.0136967930451,0.57410001967,0.818770862032,0.00204690084874,0.0,0.818727408358,-0.574039460449,-0.0120364260951,0.0,-0.00868024023235,0.00858613159463,-0.999925463109,0.0,0.659275077288,0.257691992023,0.303336807563,1.0,-0.00996,-0.0130902857143,0.499
0.463111835394,0.533510898272,-0.124054802013,-1.37827837011,0.0783168061713,1.90230176381,0.156392249339,-0.00968835607319,-0.0608390561892,-0.00174043941228,-0.0890849190985,-0.00628808631761,0.0343625130074,-0.00642826842865,0.57411994097,0.818756919415,0.00203646542108,0.0,0.818713292493,-0.574059387213,-0.0120462254678,0.0,-0.00869404575021,0.00858342482195,-0.999925366408,0.0,0.659093590447,0.25744450284,0.303330508003,1.0,-0.01032,-0.0135634285714,0.517
0.46299327429,0.532619454256,-0.124049964204,-1.37970565106,0.0782341090924,1.90284757567,0.156216750287,-0.00586252397766,-0.0574612006118,0.000603442083488,-0.0886618335067,-0.00141050443298,0.0336963392647,-0.0149636670581,0.574125880996,0.818752729892,0.00204620751122,0.0,0.818709178215,-0.574065233495,-0.0120472445314,0.0,-0.0086892250496,0.00859204917373,-0.999925334242,0.0,0.658927498793,0.257235103282,0.303326893294,1.0,-0.01064,-0.013984,0.533
0.462852631968,0.531585033368,-0.124047441093,-1.38136901125,0.0781457161573,1.90344427406,0.156006249425,-0.0060632075069,-0.0607540943816,0.00181968112997,-0.0920773192002,-0.00388250978532,0.0389042446033,-0.0134152974639,0.574139881887,0.818742963169,0.00202563292104,0.0,0.818698994269,-0.574079174465,-0.0120749794857,0.0,-0.00872359876559,0.00859127633963,-0.999925041588,0.0,0.658739491969,0.256996134866,0.303314880991,1.0,-0.01098,-0.0144308571429,0.55
0.462717175934,0.530581983086,-0.12405565482,-1.38301047328,0.0780389511654,1.90401563011,0.155791589987,-0.00957267621311,-0.055898796273,-0.000180363708141,-0.0967846624139,-0.00276407835741,0.035015583004,-0.00881850145317,0.574135258056,0.818746360197,0.00196214732564,0.0,0.818701553194,-0.574074819422,-0.0121084848004,0.0,-0.00878752767332,0.00855848588601,-0.999924763008,0.0,0.658526181033,0.256732071365,0.30329132361,1.0,-0.01134,-0.014904,0.568
0.462589563413,0.529607468837,-0.124058451677,-1.38455263689,0.0779382797402,1.90459960044,0.155583611579,-0.00614032013883,-0.0572166847161,-0.00134467151704,-0.0900091679513,-0.00480645834551,0.0383489053543,-0.0118422983426,0.574128231843,0.81875126815,0.00197007734514,0.0,0.818706642124,-0.574067834724,-0.0120955437149,0.0,-0.00877245261666,0.00855747329206,-0.999924904043,0.0,0.65834691026,0.256499492471,0.30329448609,1.0,-0.01166,-0.0153245714286,0.584
0.462448516893,0.528515290258,-0.124058863876,-1.38625029176,0.0778331379202,1.90523206735,0.155348714912,-0.00724796009147,-0.0605898907102,-0.000366476695601,-0.100127537481,-0.00622057310317,0.0423892955743,-0.0053869147068,0.574115449505,0.818760179802,0.00199135914174,0.0,0.818715838353,-0.57405496756,-0.0120837556901,0.0,-0.00875071685241,0.00856799305933,-0.999925004413,0.0,0.658146751238,0.256245141091,0.303310394234,1.0,-0.012,-0.0157714285714,0.601
0.462311176998,0.527393510863,-0.124059314731,-1.38797714236,0.0777270317099,1.90590964403,0.155106348819,-0.00681458341292,-0.0686973133982,0.000705663462735,-0.105103403907,-0.00266189754289,0.0468022079174,-0.00867959429504,0.574094876677,0.818774458633,0.00205069876613,0.0,0.818730944209,-0.574034192747,-0.0120471346325,0.0,-0.00868688217543,0.00859533429507,-0.999925326365,0.0,0.65794815625,0.255993043543,0.30333688161,1.0,-0.01234,-0.0162182857143,0.618
0.462172284794,0.526306576059,-0.124059580869,-1.38966732626,0.0776151908961,1.90654244479,0.154876755794,-0.00652454573458,-0.0681706616295,0.0013338053267,-0.105006929932,-0.0079465355969,0.037068564923,-0.0261770756889,0.574081921245,0.81878349354,0.00207009832376,0.0,0.818740306418,-0.574021229784,-0.0120285204663,0.0,-0.0086606403681,0.00860039465918,-0.999925510486,0.0,0.657748453161,0.255740017158,0.303352123603,1.0,-0.01266,-0.0166388571429,0.634
0.462014755935,0.525113549527,-0.124067958242,-1.39152346628,0.0775121616521,1.90720523391,0.154635816225,-0.00894186362043,-0.0684292083161,-0.00237862954577,-0.112592506895,-9.10680580595e-05,0.0440426225071,-0.014237144748,0.574091650908,0.81877666225,0.0020737922023,0.0,0.818733416929,-0.57403083684,-0.0120389892587,0.0,-0.00866698963516,0.00860953195474,-0.999925376841,0.0,0.657524161939,0.255455198445,0.30336561713,1.0,-0.013,-0.0170857142857,0.651
0.46185102429,0.523945517907,-0.124071287328,-1.39341692523,0.0773909976054,1.9078886556,0.154373461951,-0.00982725611224,-0.0678260482089,3.04704356719e-06,-0.112183063299,-0.00128005306001,0.0371748659898,-0.021181902035,0.574082274086,0.818783339017,0.00203303431351,0.0,0.818739569973,-0.574021643767,-0.0120588535583,0.0,-0.00870675031465,0.00858746504854,-0.999925221176,0.0,0.657295368084,0.255163002296,0.303345095529,1.0,-0.01334,-0.0175325714286,0.668
0.461701584246,0.522788798668,-0.12407164552,-1.39522303656,0.0772823853371,1.90858048143,0.154138956818,-0.00534181087613,-0.0671923449322,0.000214441914848,-0.111951292678,-0.00316597236993,0.0410229457703,-0.011986963459,0.574080586513,0.818784434227,0.00206817709354,0.0,0.818741125684,-0.574019807743,-0.0120406118392,0.0,-0.00867165789115,0.00860574883562,-0.999925368933,0.0,0.657082919313,0.254894752672,0.303358505341,1.0,-0.01366,-0.0179531428571,0.684
0.461532525676,0.521557884058,-0.124074838064,-1.39719682223,0.0771594675638,1.90934766103,0.153867286957,-0.0169305752988,-0.0710183372901,-2.28198068413e-05,-0.114513057526,-0.0059936067847,0.0380063015956,-0.0142552786586,0.574071530944,0.818790744207,0.00208361760117,0.0,0.818747698185,-0.574010748399,-0.01202557027,0.0,-0.00865057328258,0.00860966041286,-0.999925517891,0.0,0.656853775387,0.254595864438,0.30335058018,1.0,-0.014,-0.0184,0.701
0.461368115288,0.520275381865,-0.124083674851,-1.3992196561,0.0770303944322,1.91009710397,0.153592113122,-0.0109383784765,-0.0811985218356,-0.000158644838382,-0.115097646806,-0.00747421504719,0.0424686257717,-0.0214021337244,0.574060164343,0.818798709522,0.00208516199654,0.0,0.818755748472,-0.573999441235,-0.0120171838584,0.0,-0.00864293921783,0.00860599060387,-0.999925615497,0.0,0.656610615089,0.254289478741,0.303353807452,1.0,-0.01434,-0.0188468571429,0.718
0.461188756908,0.518950129393,-0.124084433281,-1.40129714826,0.0768996344676,1.91083404541,0.153321191985,-0.0158799842636,-0.077247306146,0.00116143633995,-0.125834285323,-0.00775572692292,0.0414634390615,-0.013232458819,0.574060702473,0.818798369899,0.00207032081951,0.0,0.818755177134,-0.574000004263,-0.0120292112471,0.0,-0.00866130115799,0.00860074893911,-0.999925501715,0.0,0.656354492896,0.253971020221,0.303359301734,1.0,-0.01468,-0.0192937142857,0.735
0.461023223209,0.517660327015,-0.124095040695,-1.40328993859,0.0767681009518,1.91155601869,0.153031812577,-0.00943900401909,-0.082282952912,0.000133847749094,-0.119181141515,-0.00541652951238,0.0459583047875,-0.0144166292418,0.574026559856,0.818822295668,0.00207451159571,0.0,0.818779251759,-0.573965941772,-0.0120158843567,0.0,-0.00864834151906,0.0085961693159,-0.999925653267,0.0,0.656095279411,0.253648727663,0.303377706155,1.0,-0.01502,-0.0197405714286,0.752
0.460827187334,0.516226953128,-0.124093690816,-1.4055601148,0.0766222737209,1.91239806293,0.152727868996,-0.00944199036108,-0.0785042764596,2.05978631025e-05,-0.134335096029,-0.000984487435325,0.0486904152686,-0.0111286569826,0.574028204031,0.818821132144,0.0020788052483,0.0,0.818778162589,-0.573967585851,-0.012011567827,0.0,-0.00864232512862,0.0085972245721,-0.999925696212,0.0,0.655837644551,0.253319553857,0.303376717102,1.0,-0.01536,-0.0201874285714,0.769
0.460656592247,0.514933281813,-0.124102501767,-1.40762156954,0.0764975171669,1.91317475959,0.152440756551,-0.00725583552372,-0.0810389845524,-0.000583005922767,-0.130773577647,-0.0126433131085,0.0545778445046,-0.0142268008055,0.574014256413,0.818830898607,0.00208322417395,0.0,0.818788000991,-0.573953635596,-0.012007519334,0.0,-0.00863662003956,0.00859837178414,-0.999925735641,0.0,0.655589439165,0.253007415127,0.303370240666,1.0,-0.01568,-0.020608,0.785
0.460464773997,0.513523526384,-0.124108772807,-1.40989543805,0.0763616300617,1.91395378122,0.152129055659,-0.0150118936913,-0.0726046542848,-0.00144355966161,-0.132591727193,-0.00560144852337,0.0424069855256,-0.0218123805062,0.574003113998,0.818838887335,0.00201211573869,0.0,0.818794920939,-0.573942658349,-0.0120602352017,0.0,-0.00872071841843,0.0085702877131,-0.999925246825,0.0,0.655298849126,0.252657663502,0.303343764419,1.0,-0.01602,-0.0210548571429,0.802
0.460267333591,0.512088568521,-0.124105812142,-1.41218114481,0.0762312225958,1.91477034863,0.151801747753,-0.0129082985996,-0.0885048327241,0.000368033962865,-0.137510106699,-0.010378350393,0.0429863756191,-0.0187746911983,0.573979210136,0.818855699397,0.00198917032755,0.0,0.818811242,-0.573918669481,-0.0120937048565,0.0,-0.00876154584773,0.00857045519543,-0.999924888485,0.0,0.655011751884,0.252311999632,0.303331812128,1.0,-0.01636,-0.0215017142857,0.819
0.460087690563,0.510731313572,-0.124106720746,-1.41436210815,0.0760926842783,1.91560736879,0.151489395556,-0.0163811331436,-0.0852766944494,0.00261132707061,-0.14070360745,-0.00572415821266,0.0485093605096,-0.0173043535454,0.573947975802,0.818877578596,0.0019948048505,0.0,0.818833244115,-0.573887462799,-0.0120849192998,0.0,-0.0087514444517,0.00856969249007,-0.999924983482,0.0,0.654747629921,0.251987238971,0.303316748553,1.0,-0.01668,-0.0219222857143,0.835
0.459883503896,0.509232013887,-0.12411277736,-1.41671447736,0.0759506161913,1.91647289725,0.151169487143,-0.0120532018016,-0.0853948913587,0.000281794261968,-0.140934664048,-0.0038626894047,0.0524371813156,-0.025497827616,0.573941720508,0.818881938834,0.00200464777287,0.0,0.818837694807,-0.573881128131,-0.0120841730761,0.0,-0.00874524992548,0.00857725738621,-0.999924972815,0.0,0.654458689378,0.251626392997,0.303321672722,1.0,-0.01702,-0.0223691428571,0.852
0.45967226325,0.507722510085,-0.12411587226,-1.4191022532,0.0757929234883,1.91731801496,0.15083396295,-0.0129066378101,-0.094442827115,-8.59140117602e-05,-0.147240940084,-0.0108609818904,0.0454692658193,-0.0210993851345,0.573923169737,0.818895023798,0.00197031417236,0.0,0.818850342151,-0.573862740258,-0.0121003885465,0.0,-0.0087784270886,0.00855825055671,-0.999924844958,0.0,0.654158429502,0.251254845364,0.303314498297,1.0,-0.01736,-0.022816,0.869
0.459463536862,0.506248594567,-0.124124146081,-1.42139306997,0.0756472804303,1.91817060959,0.150527084126,-0.0157678405461,-0.0981825031099,-0.00169545078172,-0.142598305109,-0.0093840762425,0.0588129078098,-0.0194887822322,0.573927882454,0.818891660193,0.00199537222695,0.0,0.818847362761,-0.573867398549,-0.012081071288,0.0,-0.00874817788446,0.00856773390329,-0.999925028849,0.0,0.653880893941,0.250895415526,0.303328862909,1.0,-0.01768,-0.0232365714286,0.885
0.459241625701,0.504625645557,-0.124129583803,-1.42386971887,0.0754882467484,1.91913095195,0.150179736215,-0.0162456180276,-0.100962861289,-0.000119581110647,-0.148035934791,-0.0099546775853,0.0578934264056,-0.0241092947066,0.573913980984,0.818901193485,0.00207957739527,0.0,0.818858118038,-0.573853258627,-0.0120236012687,0.0,-0.00865293575987,0.0086035573472,-0.99992554998,0.0,0.653586673081,0.250514115181,0.303367608448,1.0,-0.01802,-0.0236834285714,0.902
0.459001570089,0.502852794451,-0.124125962526,-1.42649156762,0.0753258093938,1.92011511304,0.149818173109,-0.013773410143,-0.0973201839082,-0.00422634514849,-0.151179195624,-0.0154230782208,0.0602313528314,-0.0277488462618,0.573902635584,0.818908840575,0.00219604182203,0.0,0.818867278887,-0.573841424069,-0.0119643842892,0.0,-0.00853772467767,0.00866482529259,-0.999926011293,0.0,0.653267840775,0.250112198054,0.303442994552,1.0,-0.01838,-0.0241565714286,0.92
0.458786552919,0.501242788288,-0.124134430892,-1.42889488349,0.0751691393118,1.92097350599,0.149473606293,-0.0161779677805,-0.108029142402,-0.00072356563781,-0.155344106582,-0.0139013806341,0.051712941119,-0.0199500979837,0.573882869458,0.818922552817,0.00224756138072,0.0,0.818881707622,-0.573821496756,-0.0119325472585,0.0,-0.0084822963375,0.00868853864339,-0.999926277255,0.0,0.652967184981,0.249735937004,0.30349751938,1.0,-0.0187,-0.0245771428571,0.936
0.458538652533,0.499542991532,-0.124132371014,-1.4314909907,0.0750102197694,1.9219054231,0.149115713627,-0.0138039780495,-0.0963858784605,0.000335732586219,-0.159141748279,-0.0133156821243,0.0536299469248,-0.020616880918,0.573880579047,0.818924066421,0.00228064256341,0.0,0.818883555687,-0.573818974317,-0.0119270214022,0.0,-0.00845881174881,0.00871243438155,-0.999926268277,0.0,0.652641996844,0.249327389042,0.303528435005,1.0,-0.01904,-0.025024,0.953
0.458285148021,0.49787109212,-0.124129944612,-1.43414017179,0.0748494847546,1.92288559091,0.148721553628,-0.0136698566813,-0.104713934322,0.000934132684069,-0.159623881895,-0.0145245155736,0.0518912155705,-0.0267609755845,0.573854966809,0.818942004208,0.00228423162168,0.0,0.818901451428,-0.573793259426,-0.011935459299,0.0,-0.00846393520898,0.00871995107636,-0.999926159401,0.0,0.652313119495,0.248911796119,0.303518278142,1.0,-0.01938,-0.0254708571429,0.97
0.458040083397,0.496285060044,-0.124133432827,-1.43666328694,0.0746951471705,1.92378067081,0.148351490893,-0.0183746888016,-0.0995280646637,0.00052216910609,-0.160377557768,-0.00926537815037,0.0517524022312,-0.0287728973729,0.573840999258,0.818951888402,0.00224921206752,0.0,0.818910768362,-0.573779321739,-0.0119662152454,0.0,-0.00850936702942,0.00870877656713,-0.999925871194,0.0,0.651993154542,0.248507524273,0.303500470304,1.0,-0.0197,-0.0258914285714,0.986
0.457770962278,0.494610804735,-0.124135567544,-1.4393967366,0.0745196716456,1.92472368517,0.147972266131,-0.0117253342906,-0.0984805866035,0.000182173801719,-0.16266391982,-0.0125139897357,0.0547836381446,-0.0229636171219,0.573842405269,0.818951177781,0.00214691094648,0.0,0.818908611747,-0.573781038564,-0.0120313046944,0.0,-0.00862136034508,0.00866236346445,-0.999925315014,0.0,0.651639709841,0.248064651125,0.303447609445,1.0,-0.0212245714286,-0.0278951510204,1.003
0.457474918524,0.492429780007,-0.124209037608,-1.44269549407,0.0743297680266,1.92593642284,0.147485486599,-0.0128700578153,-0.155681403214,-0.00240554824414,-0.217495042828,-0.0110870660226,0.0856278357774,-0.028483991136,0.573853632009,0.818943114356,0.00222067129562,0.0,0.818901667443,-0.573792115875,-0.0119755467682,0.0,-0.00853325217665,0.00869088976162,-0.99992582327,0.0,0.651238267027,0.247518003402,0.303503036564,1.0,-0.0318034285714,-0.0417987918367,1.02
0.457115543053,0.489686593857,-0.124243595267,-1.4470748413,0.0741005778776,1.92761136223,0.146824148177,-0.0269459630376,-0.189411413303,-0.00290889731476,-0.309913067964,-0.0173147652712,0.105988531019,-0.048568512501,0.573789523939,0.818987911946,0.00226477504293,0.0,0.81894680548,-0.573727595424,-0.0119801061677,0.0,-0.00851236208497,0.00872895776072,-0.999925669732,0.0,0.650687736458,0.246857264823,0.303473123234,1.0,-0.04176,-0.0548845714286,1.036
0.456503696511,0.485567196839,-0.124306198197,-1.45355080362,0.0737280928759,1.93005238315,0.145871526995,-0.0361799802536,-0.252204634014,-0.00376467028626,-0.3877749139,-0.0206017977314,0.155615732265,-0.0580442005881,0.573777193014,0.818996352589,0.00233540654198,0.0,0.818956126427,-0.573714937837,-0.0119490581666,0.0,-0.00844654005834,0.00876886137701,-0.999925878769,0.0,0.649886243285,0.245814844639,0.303466427175,1.0,-0.0529611428571,-0.0696060734694,1.054
0.455721734511,0.480456152221,-0.124458764771,-1.46164320686,0.0732466871911,1.93288831023,0.144628977,-0.0471014537676,-0.308667037326,-0.014925300364,-0.490056620785,-0.0295806016815,0.172798703839,-0.0783033681466,0.573777261881,0.818996690269,0.00219590021206,0.0,0.818954677033,-0.573715610911,-0.0120158921454,0.0,-0.00858131888299,0.00869295580952,-0.99992539396,0.0,0.648852089882,0.244441346517,0.303410910431,1.0,-0.0641622857143,-0.0843275755102,1.072
0.454925730984,0.475403111093,-0.124586546988,-1.46954195982,0.0727670253927,1.93565835143,0.143491187432,-0.0562437900482,-0.353219398399,-0.00312059249861,-0.554498978354,-0.0288325066561,0.194759481102,-0.0812173694027,0.573843183678,0.818950708813,0.00211754154689,0.0,0.818907697918,-0.573781879583,-0.0120533752356,0.0,-0.00865627988411,0.00865098485092,-0.999925111836,0.0,0.647837384736,0.243092608811,0.303394677585,1.0,-0.0734965714286,-0.0965954938775,1.087
0.453866779615,0.468878671095,-0.124697433779,-1.47958759186,0.0721879701787,1.93933475665,0.141965278231,-0.0678449990742,-0.396412355893,-0.00590903528305,-0.602324815579,-0.0379601032462,0.233710956888,-0.100835840722,0.573867141549,0.818933545852,0.00225792593995,0.0,0.818892137806,-0.573805013813,-0.0120091491757,0.0,-0.00853925029903,0.0087408221978,-0.999925336829,0.0,0.646562539643,0.241395603972,0.303444538431,1.0,-0.0840754285714,-0.110499134694,1.104
0.452633719238,0.461506291151,-0.124750553435,-1.49090576454,0.0714727198543,1.94345068985,0.140150927982,-0.0780592578195,-0.441130575535,-0.00576098344119,-0.706693082212,-0.0412058225144,0.244333678763,-0.105979087758,0.573768999644,0.81900191242,0.00239779066676,0.0,0.818962228026,-0.573706212497,-0.0119497996046,0.0,-0.00841144327376,0.00882029436986,-0.999925722256,0.0,0.645097060274,0.239491864239,0.303498861735,1.0,-0.0946542857143,-0.12440277551,1.121
0.451183492166,0.45332899833,-0.124870238399,-1.50364532975,0.0706317201889,1.9477540343,0.138203569484,-0.0903400653577,-0.497672371108,-0.00356791780441,-0.747878745059,-0.0483877211879,0.263537369391,-0.129848521546,0.573807162824,0.818975849697,0.00215508848752,0.0,0.818932794292,-0.573745167051,-0.0120958099984,0.0,-0.00866987158884,0.00870570266604,-0.999924519185,0.0,0.643380727963,0.237249614348,0.303435179948,1.0,-0.105233142857,-0.138306416327,1.138
0.449601401955,0.444189584449,-0.124992924935,-1.51730110011,0.0697009207787,1.95276165286,0.136100898885,-0.0953826415358,-0.539949492053,-0.00203440038468,-0.830506535498,-0.0524455698499,0.293921668052,-0.123861492352,0.573833787117,0.818956138266,0.00252492791329,0.0,0.818918666951,-0.573771090787,-0.0118194415235,0.0,-0.00823103201645,0.00885027588718,-0.999926958697,0.0,0.641604677453,0.234862735276,0.303637739719,1.0,-0.115812,-0.152210057143,1.155
0.447817419883,0.434385041645,-0.125071203303,-1.53220107279,0.0687266253052,1.95787915115,0.133668437179,-0.106637668998,-0.590745459674,-0.00248656609391,-0.879414358819,-0.0544384889539,0.309091147647,-0.14996507904,0.573750951653,0.81901410831,0.00254612773621,0.0,0.818976424007,-0.573687659589,-0.0118673104302,0.0,-0.0082589716188,0.00889427048361,-0.999926337957,0.0,0.639554054748,0.232243496617,0.303690659926,1.0,-0.126390857143,-0.166113697959,1.172
0.446082147295,0.42509752411,-0.125158397836,-1.54615415597,0.0677478149386,1.96284211504,0.131373376538,-0.123452015587,-0.622929749449,-0.00586894691731,-0.934448642377,-0.0714178198644,0.329120618735,-0.158525829097,0.573687434738,0.819057915054,0.00275788167845,0.0,0.819023402935,-0.573623834664,-0.0117093403191,0.0,-0.00800879539865,0.0089764438717,-0.999927638708,0.0,0.637656070619,0.229750351779,0.303805842417,1.0,-0.135725142857,-0.178381616327,1.187
0.44374598345,0.413197083547,-0.125286038888,-1.56399240045,0.0664587892538,1.96910206452,0.128424979224,-0.132825709221,-0.680518336766,-0.00688867973483,-1.0133499148,-0.0747490732004,0.36636978598,-0.172121487944,0.573668564228,0.819070408159,0.00296509624026,0.0,0.819039236584,-0.573605021722,-0.0115219308939,0.0,-0.00773662750079,0.00903847373269,-0.999929222789,0.0,0.635194281221,0.226478941671,0.303933513093,1.0,-0.146926285714,-0.193103118367,1.205
0.441314171975,0.401387732141,-0.125396272139,-1.58199837176,0.0652532023618,1.97513497051,0.12538386117,-0.152198186661,-0.714356234904,-0.00985063510357,-1.06264838687,-0.0761834962867,0.35591753371,-0.181483364606,0.573647594732,0.819085553796,0.00283540520453,0.0,0.819051847503,-0.573583502698,-0.0116954450631,0.0,-0.00795338157489,0.00903158168692,-0.999927584505,0.0,0.632596074901,0.223149450436,0.303866466136,1.0,-0.157505142857,-0.207006759184,1.222
0.438754980798,0.389499426566,-0.125527636201,-1.59967298511,0.0639625503629,1.98122036347,0.122371427527,-0.168665260941,-0.7386342448,-0.00626590037469,-1.12570010152,-0.0900963048652,0.378199384021,-0.197735846603,0.573704141309,0.819045226379,0.00303682259381,0.0,0.81901453579,-0.573639840523,-0.0115442812673,0.0,-0.00771339454234,0.0091103792215,-0.999928749729,0.0,0.630077211713,0.219771223466,0.303978722145,1.0,-0.167461714286,-0.220092538775,1.238
0.435853108594,0.376291228638,-0.125672295193,-1.61942744848,0.062475194095,1.98778762225,0.118817040162,-0.173362601301,-0.782411249425,-0.010566098471,-1.18171462691,-0.0854948803851,0.40104196115,-0.210145182537,0.573600979571,0.819117635621,0.00299368530388,0.0,0.819086574932,-0.573537051384,-0.0115403794109,0.0,-0.00773608779893,0.00907183503763,-0.999928924851,0.0,0.627155385836,0.215968033432,0.303989777051,1.0,-0.178040571429,-0.233996179592,1.255
0.432592433115,0.362459544402,-0.125844920218,-1.63994151887,0.0609348017226,1.99457384965,0.115172015724,-0.196258531499,-0.864548404397,-0.0153105006699,-1.20133070739,-0.0976998831154,0.41543731783,-0.221809311,0.573719237176,0.819034679889,0.00302934577101,0.0,0.819004174862,-0.573655291565,-0.0115115124558,0.0,-0.00769067575706,0.00908559790433,-0.999929150199,0.0,0.624098787964,0.211874079952,0.304028395009,1.0,-0.188619428571,-0.247899820408,1.272
0.428552886148,0.346338132276,-0.126058341305,-1.66392376495,0.0591123141293,2.00227100817,0.110651442304,-0.225254570983,-0.868114820274,-0.0106825194709,-1.26728756591,-0.091646419346,0.411748948325,-0.241059736737,0.573789327754,0.818986238258,0.00284531218304,0.0,0.818952982976,-0.573725550155,-0.0116512520769,0.0,-0.00790993910272,0.00901571457693,-0.99992807229,0.0,0.620427589722,0.20695544866,0.303960052874,1.0,-0.200442857143,-0.263439183673,1.291
0.425398302711,0.333932526163,-0.126184011155,-1.68210935857,0.0576989962313,2.00821046974,0.107218751799,-0.231462143769,-0.890818798861,-0.00890053608413,-1.33137435009,-0.0999306506968,0.422102902568,-0.252896685902,0.573844000716,0.81894759741,0.00293980255798,0.0,0.818915563511,-0.573779894995,-0.0116051212998,0.0,-0.00781733711104,0.00906715387464,-0.999928335413,0.0,0.617610163687,0.20322043688,0.303989011326,1.0,-0.209154857143,-0.274889240816,1.305
0.421139491047,0.317360107885,-0.126330693152,-1.70609751356,0.0557116343409,2.01586969134,0.102500791119,-0.247233109406,-0.940647219444,-0.0111784357469,-1.3632409901,-0.116302770914,0.434013638193,-0.263795404327,0.573738782852,0.819020895028,0.00305441646426,0.0,0.818990827573,-0.573674890786,-0.0114843778448,0.0,-0.00765385075011,0.00909074705938,-0.99992938595,0.0,0.613789912594,0.198256314666,0.304084268929,1.0,-0.220356,-0.289610742857,1.323
0.417334599908,0.303135129351,-0.126430847596,-1.72660295247,0.0540216462643,2.02233501253,0.0982524787115,-0.259193723269,-0.95767057539,0.000975548258646,-1.37534596687,-0.119980280486,0.414655897326,-0.297279172998,0.573551333809,0.81915177138,0.003160669552,0.0,0.819123062513,-0.573487125662,-0.0114311880815,0.0,-0.00755142005766,0.00914552657394,-0.999929665226,0.0,0.610450833971,0.193960277275,0.304138518391,1.0,-0.229690285714,-0.301878661224,1.338
0.412308602895,0.28547084973,-0.126593202171,-1.7519396412,0.0519465337861,2.03008615736,0.0930342393889,-0.28424210682,-0.995104487608,-0.00426401881686,-1.41194165909,-0.109148849288,0.43195523264,-0.290406091456,0.57359510859,0.819120972777,0.0031984777005,0.0,0.819092163659,-0.573530066026,-0.0114907657784,0.0,-0.00757805001658,0.00921107240627,-0.999928862121,0.0,0.606238313594,0.188470892817,0.304167472788,1.0,-0.240891428571,-0.316600163265,1.356
0.407175741267,0.268247769633,-0.126790447785,-1.77647405047,0.0498219076265,2.03746001386,0.0876980701547,-0.310469065587,-1.04215460629,-0.00878331888378,-1.43757571348,-0.133997898872,0.443358985889,-0.311177911948,0.573559243758,0.819146148551,0.00318246998816,0.0,0.819117086059,-0.573494198805,-0.0115043541945,0.0,-0.00759876565372,0.0092054214678,-0.99992875695,0.0,0.602079476393,0.183005640236,0.304179365007,1.0,-0.251470285714,-0.330503804082,1.373
0.401912199635,0.2515608008,-0.127031356649,-1.79999697324,0.0476955439066,2.04442339509,0.0825036028929,-0.337253040247,-1.07339480056,-0.0202097527011,-1.48256323679,-0.142661539044,0.457560942987,-0.330579261584,0.573698442423,0.819048628007,0.00319202493917,0.0,0.819020118097,-0.573633871185,-0.0114444258351,0.0,-0.00754263287484,0.00918015866517,-0.999929414197,0.0,0.598039282408,0.177570929951,0.304215151491,1.0,-0.261426857143,-0.343589583673,1.389
0.395663114393,0.2322796346,-0.127233671044,-1.82695793834,0.0452843191457,2.05220184341,0.0762306091592,-0.352714619282,-1.1068226096,-0.0185858864822,-1.50365307718,-0.140674656021,0.46102914573,-0.352648499455,0.57366338189,0.819073046461,0.00322734253712,0.0,0.819044561818,-0.573598182966,-0.0114837778953,0.0,-0.00755500058762,0.00923133795028,-0.999928849652,0.0,0.593260838394,0.171326503858,0.304239273195,1.0,-0.272628,-0.358311085714,1.407
0.389783627252,0.214718047526,-0.127387803379,-1.85128130575,0.0430096225666,2.05909592282,0.0703737691674,-0.375788830056,-1.13666838292,-0.0187064470114,-1.530901976,-0.157305026025,0.451547203329,-0.37582245035,0.573550319406,0.819152041978,0.00327263388252,0.0,0.819124061197,-0.573484898431,-0.0114712920377,0.0,-0.00752007097175,0.0092602346571,-0.999928845762,0.0,0.588845770933,0.165621645066,0.304263311939,1.0,-0.282584571429,-0.371396865306,1.423
0.383459260783,0.19674358975,-0.127579235148,-1.87596591962,0.0406675456617,2.06577257082,0.0642020741324,-0.401176067388,-1.14728518649,-0.0117821250007,-1.53758671219,-0.145726838998,0.433836604028,-0.388546314677,0.573499611694,0.819187822685,0.00320210126271,0.0,0.819158364452,-0.573433726045,-0.0115794077385,0.0,-0.00764966423478,0.00926399223539,-0.999927827938,0.0,0.584248681138,0.159659689461,0.304264255226,1.0,-0.292541142857,-0.384482644898,1.439
0.376150580688,0.177126396434,-0.127938381061,-1.90254259763,0.0381093934618,2.0729066375,0.0572586692231,-0.448753002825,-1.16516578414,-0.0276156365352,-1.57168361153,-0.155837565223,0.436164343512,-0.421520636221,0.573656142724,0.819077667365,0.00333940731243,0.0,0.819049901222,-0.573589702383,-0.011526470832,0.0,-0.00752577008997,0.00934755199544,-0.999927990435,0.0,0.57896529625,0.152547970886,0.304342351427,1.0,-0.303742285714,-0.399204146939,1.457
0.367997265807,0.155812215571,-0.128216996326,-1.93106598005,0.0351888893686,2.08030626863,0.0494849656339,-0.454860233566,-1.21543048208,-0.0206488294412,-1.5703367769,-0.169797944465,0.42504068649,-0.447862400072,0.573581425012,0.819129909204,0.00335970688436,0.0,0.819102467875,-0.57351501025,-0.0115076948386,0.0,-0.00749959909063,0.00935272427339,-0.999928138699,0.0,0.573732675677,0.14571884025,0.304384051207,1.0,-0.314321142857,-0.413107787755,1.474
0.360271343179,0.136551191803,-0.128475671607,-1.95665461173,0.0325065924083,2.0867134788,0.042260305291,-0.498295502937,-1.22527851683,-0.0206828908562,-1.62724567024,-0.170315341682,0.418583383386,-0.472499410488,0.573561552585,0.819143863646,0.00335006705624,0.0,0.819116255001,-0.573495116729,-0.0115177594471,0.0,-0.00751359953668,0.00935041839644,-0.999928055161,0.0,0.568648037098,0.139084071443,0.304392686812,1.0,-0.324277714286,-0.426193567347,1.49
0.351462889183,0.115617849244,-0.128850993319,-1.98406662558,0.0295440553506,2.09335109243,0.0340892760392,-0.530440181309,-1.25177676122,-0.0257925297451,-1.60193424309,-0.193026169238,0.410352593456,-0.48576734371,0.573594175282,0.819120851395,0.00339113451011,0.0,0.819093974702,-0.573527862509,-0.0114716360135,0.0,-0.00745188960314,0.00935790161151,-0.999928446949,0.0,0.563096655026,0.131727087697,0.304435599404,1.0,-0.334856571429,-0.440097208163,1.507
0.342063488032,0.0942527313293,-0.129236630129,-2.01165914951,0.0264441362461,2.09975322968,0.0254171754296,-0.559133414125,-1.27933249562,-0.0177885417861,-1.66622130092,-0.186014066881,0.365885635263,-0.53061558571,0.57355399639,0.819148871981,0.00341842936613,0.0,0.819122647227,-0.57348798625,-0.0114177636896,0.0,-0.00739256240326,0.00934899690288,-0.999928970616,0.0,0.557012162718,0.123693428065,0.304485933142,1.0,-0.346057714286,-0.454818710204,1.525
0.33269337233,0.0738604483546,-0.129588461147,-2.03774643658,0.0235627821038,2.1055017711,0.0168246408956,-0.597983689958,-1.30158222871,-0.0222786764077,-1.65690524838,-0.204126923549,0.382680447014,-0.543624610187,0.573577393991,0.819132281466,0.00346777524039,0.0,0.819105979453,-0.57351032983,-0.0114909922915,0.0,-0.00742398074475,0.00943163043582,-0.999927961834,0.0,0.551791689826,0.11683837702,0.304499759961,1.0,-0.34998,-0.459973714286,1.54
0.322168371704,0.0523416371742,-0.130037627862,-2.06504116376,0.0203312682023,2.11119434751,0.00745919028761,-0.6318816053,-1.28311466585,-0.0282217801671,-1.60023151801,-0.190194029834,0.329227712461,-0.552956613314,0.573759466444,0.819005357584,0.00332352449725,0.0,0.81897696515,-0.573692540503,-0.0115907905894,0.0,-0.00758638444051,0.00937239627826,-0.999927299837,0.0,0.545828795559,0.108881797198,0.304448680172,1.0,-0.34998,-0.459973714286,1.557
0.310623113713,0.0297354000798,-0.130385281287,-2.09317875012,0.0169975089545,2.1167258614,-0.00270390076832,-0.649354666284,-1.25564030356,-0.0208261260794,-1.53890853048,-0.191426225417,0.299030878409,-0.570637394541,0.573922852831,0.818890908301,0.00331454395363,0.0,0.81886152935,-0.573854862397,-0.0117106598862,0.0,-0.00768783376126,0.00943534952113,-0.999925932953,0.0,0.539502020812,0.100542368705,0.304450325515,1.0,-0.34998,-0.459973714286,1.575
0.300012256245,0.00985700333231,-0.130694099249,-2.11747208903,0.0138906947252,2.12131060186,-0.0120602945855,-0.673118387271,-1.25557857784,-0.024300210013,-1.51096118111,-0.204115170522,0.280953681096,-0.59519472509,0.573955273062,0.818868032298,0.00335217917854,0.0,0.818839763117,-0.573887922536,-0.0116121319064,0.0,-0.00758517449838,0.00940992311386,-0.99992695657,0.0,0.533926748291,0.0931218909095,0.304503612377,1.0,-0.34998,-0.459973714286,1.591
0.288416982406,-0.0110894298254,-0.130982692622,-2.14261644672,0.0107893213978,2.12576025152,-0.022323172555,-0.679215621026,-1.23668956131,-0.00692653727398,-1.47670430136,-0.187721281217,0.267637152445,-0.606245077937,0.573973401508,0.81885438438,0.00357469502215,0.0,0.818828496121,-0.573904718219,-0.0115764954633,0.0,-0.00742807273992,0.00957184691542,-0.999926599047,0.0,0.528002358007,0.0853122475154,0.30460261648,1.0,-0.34998,-0.459973714286,1.608
0.276504655744,-0.031736338211,-0.13125075606,-2.16716219304,0.00751988888469,2.12978167912,-0.0327945495142,-0.713494567056,-1.22050559978,-0.0195653991621,-1.44930386609,-0.207884918106,0.248002399633,-0.608203494801,0.573923056027,0.818889549035,0.0036026576593,0.0,0.818864341753,-0.57385470763,-0.0115200363656,0.0,-0.00736637715213,0.00956188646518,-0.999927150754,0.0,0.522057532405,0.0775235649658,0.304644296255,1.0,-0.34998,-0.459973714286,1.625
0.264845544015,-0.0509659288993,-0.13157071308,-2.18969462609,0.00460672533361,2.13312545242,-0.0429717809927,-0.728628048774,-1.23353601361,-0.00888603643745,-1.37451428811,-0.183997830695,0.215274623278,-0.640231795833,0.574047380934,0.818802033224,0.00368534019804,0.0,0.818776958946,-0.573977540839,-0.0116112450533,0.0,-0.00739215087572,0.00968306288125,-0.999925794446,0.0,0.516457152794,0.0701302561675,0.304678326792,1.0,-0.34998,-0.459973714286,1.641
0.252253255013,-0.0711074136426,-0.131781392234,-2.21307693292,0.00139296357337,2.13635176603,-0.0541221302417,-0.754007451519,-1.18100821428,-0.0129321890657,-1.34519654626,-0.179010717326,0.184120349989,-0.655208359252,0.573855458629,0.818936694271,0.00365380352787,0.0,0.818910930699,-0.573785379135,-0.0116607536069,0.0,-0.00745306346359,0.00968391320198,-0.999925334048,0.0,0.510485950338,0.0624185426773,0.30466553966,1.0,-0.34998,-0.459973714286,1.658
0.23911187087,-0.0910377163629,-0.132157919165,-2.23590503024,-0.00176712871238,2.13920180425,-0.065641767125,-0.768752007214,-1.16407033286,-0.0135771548405,-1.32589082327,-0.172376064314,0.155308466701,-0.693660853844,0.57391354202,0.818896027727,0.00364540270932,0.0,0.818869406291,-0.573842511786,-0.0117649482981,0.0,-0.00754252759757,0.00973735937606,-0.999924144178,0.0,0.504519467506,0.0545539337478,0.304637184352,1.0,-0.34998,-0.459973714286,1.675
0.225741352939,-0.110763739694,-0.13239272718,-2.25807305139,-0.00502258009479,2.14169695074,-0.0774312428282,-0.79891714218,-1.13913092444,-0.0209228075624,-1.31664520295,-0.192737310076,0.144967477196,-0.708912408875,0.573728032516,0.819026050435,0.00363597514779,0.0,0.818999658894,-0.573657515102,-0.0117201109312,0.0,-0.00751341635495,0.00970220538874,-0.999924705058,0.0,0.498565289696,0.0468416574215,0.30465123148,1.0,-0.34998,-0.459973714286,1.692
0.211791238737,-0.130226244588,-0.132793406162,-2.27960816306,-0.00814903844206,2.14374565805,-0.0896027109117,-0.836150350289,-1.13627763962,-0.0187229084438,-1.25465833182,-0.182862572503,0.110980027549,-0.727532914805,0.573848503119,0.818941519885,0.00366461141064,0.0,0.818914815451,-0.573776987984,-0.0117999998257,0.0,-0.00756098566699,0.00977260496677,-0.99992366093,0.0,0.492623153395,0.0389816967931,0.304659739226,1.0,-0.34998,-0.459973714286,1.709
0.197530418507,-0.149476383903,-0.133129845674,-2.30066165242,-0.0113056858674,2.14551224924,-0.102244148768,-0.85087407116,-1.12471371929,-0.0230127424679,-1.23199824612,-0.181239479684,0.0933420752294,-0.750682262116,0.573726829391,0.819026782384,0.00366085732826,0.0,0.818999626019,-0.573654824798,-0.0118533314794,0.0,-0.00760827395567,0.00979900373133,-0.999923043886,0.0,0.486654244862,0.0312041110998,0.3046389677,1.0,-0.34998,-0.459973714286,1.726
0.184500413061,-0.166239696637,-0.133518823163,-2.31869997111,-0.0140395154294,2.14667671706,-0.113603992742,-0.873486285585,-1.13506577062,-0.0153726202904,-1.17767237642,-0.173232764523,0.0858452236712,-0.76879022595,0.573875336996,0.818922674201,0.00367398525724,0.0,0.818894834635,-0.573802165327,-0.0119612614341,0.0,-0.00768735550989,0.00987307057329,-0.999921710457,0.0,0.481040936686,0.0238091537935,0.304634417006,1.0,-0.34998,-0.459973714286,1.742
0.168491101187,-0.186151744461,-0.133948314784,-2.3398815425,-0.0173428473593,2.14774540375,-0.127768432496,-0.904938661824,-1.11635484954,-0.0381409896959,-1.16329319539,-0.18367014487,0.0471307915721,-0.790278673445,0.573851797459,0.818939651721,0.00356486921917,0.0,0.818909168262,-0.573777497036,-0.0121616171569,0.0,-0.00791434115659,0.00989846052877,-0.999919688617,0.0,0.475025171353,0.0159784992942,0.304574683034,1.0,-0.34998,-0.459973714286,1.759
0.152908130473,-0.204718679001,-0.134351470356,-2.35911102689,-0.0203980481147,2.14856661122,-0.141579797046,-0.923949932862,-1.08015277685,-0.0255445715891,-1.13492486632,-0.178321997934,0.0346975882773,-0.832675064439,0.573843534905,0.818944681106,0.00373545657539,0.0,0.818916639114,-0.573768847708,-0.0120662538718,0.0,-0.00773845480346,0.00998336152975,-0.999920221223,0.0,0.469109755551,0.0081641688846,0.30463371455,1.0,-0.34998,-0.459973714286,1.776
0.137791935085,-0.221987678925,-0.13482293355,-2.37662586148,-0.0232712429939,2.14898842049,-0.154906642077,-0.951194749218,-1.0684590552,-0.0294376041774,-1.09176691769,-0.187563023671,0.0197696773498,-0.833623012091,0.573982401717,0.818846525243,0.00391376009694,0.0,0.818821191064,-0.573907539635,-0.0119473811271,0.0,-0.00753708020591,0.010062449951,-0.999920966638,0.0,0.463549039841,0.000746866606226,0.304725538786,1.0,-0.34998,-0.459973714286,1.792
0.121458881365,-0.239930944924,-0.13516114245,-2.39478304773,-0.0262979072362,2.14909398964,-0.169511636794,-0.969655148053,-1.04423020149,-0.0164334201956,-1.03959675046,-0.172380510978,0.00454197766786,-0.876114530828,0.573841109878,0.818945653603,0.00389152403467,0.0,0.818919588515,-0.573765763442,-0.012012624563,0.0,-0.00760500983554,0.0100803771514,-0.999920271733,0.0,0.457587349021,-0.00698262344543,0.304711320009,1.0,-0.34998,-0.459973714286,1.809
0.103549855506,-0.258614921722,-0.135640790988,-2.41332460011,-0.0294155087238,2.14906365251,-0.185514750191,-0.998000163396,-1.02832083205,-0.0157907973511,-1.0188075198,-0.173274563254,-0.0122010945461,-0.895864359838,0.573865515307,0.818927753015,0.00405617850653,0.0,0.818904004275,-0.5737898005,-0.0119265890044,0.0,-0.00743976411696,0.0101660746943,-0.999920647269,0.0,0.451328330097,-0.0152672869457,0.304737430312,1.0,-0.34998,-0.459973714286,1.827
0.0882893006655,-0.274021276576,-0.136095576455,-2.42820050453,-0.0320325190943,2.14887220693,-0.199218550926,-1.030237492,-1.02438445242,-0.0409422387449,-0.993631224783,-0.175397026655,-0.0243742704366,-0.923449578812,0.573892578288,0.818907475766,0.0043129597284,0.0,0.818888489353,-0.573818017103,-0.0116306558434,0.0,-0.00704971274789,0.0102067766579,-0.99992305867,0.0,0.445806739147,-0.0226375098365,0.304845259607,1.0,-0.34998,-0.459973714286,1.843
0.0695257574808,-0.291985953341,-0.136522839043,-2.44567256309,-0.0350220441569,2.14810279021,-0.216169426439,-1.05393451105,-0.989554032203,-0.0211357122353,-0.953964004308,-0.169155077306,-0.0364959552652,-0.948143086312,0.573799535293,0.818972847361,0.00427965939475,0.0,0.818951945187,-0.573722968624,-0.0118496264891,0.0,-0.00724932302526,0.0103043439495,-0.999920630756,0.0,0.439810678961,-0.0303825530704,0.304772967187,1.0,-0.34998,-0.459973714286,1.86
0.0512382136842,-0.308637350088,-0.1370491549,-2.46141284475,-0.0379320096396,2.14725049832,-0.232663335848,-1.07994115946,-0.973800622474,-0.021539537807,-0.93037666221,-0.162536246677,-0.0660037484276,-0.971862643994,0.573838697141,0.818944985376,0.0043597582716,0.0,0.818925702181,-0.573762687809,-0.0117396458936,0.0,-0.00711279445386,0.0103071796535,-0.999921582027,0.0,0.433892467175,-0.0382435520085,0.304803926911,1.0,-0.34998,-0.459973714286,1.877
0.0336579277335,-0.324011660923,-0.13758388063,-2.47569186285,-0.0404778533439,2.14619188096,-0.248583138444,-1.11447191013,-0.960279447212,-0.0395735920023,-0.874061984025,-0.155839186698,-0.0619386868429,-0.996501564107,0.573959797849,0.818859121822,0.0045426823722,0.0,0.818841914398,-0.573882741106,-0.011716039742,0.0,-0.00698695352315,0.0104444756206,-0.999921044588,0.0,0.428310514502,-0.0456106197185,0.304844045169,1.0,-0.34998,-0.459973714286,1.893
0.0134373719793,-0.34089269586,-0.138047489455,-2.4911456551,-0.0433657060884,2.14480267265,-0.267119161401,-1.13764528258,-0.932805289472,-0.0252651156646,-0.818178631742,-0.156632694381,-0.0915754767146,-1.028949687,0.573819224026,0.818957007121,0.00465462426892,0.0,0.818941648349,-0.573742441057,-0.0116161452779,0.0,-0.006842699824,0.0104776348677,-0.999921695248,0.0,0.422034448483,-0.0538297165741,0.304885085137,1.0,-0.34998,-0.459973714286,1.911
-0.00618456458671,-0.356359084689,-0.138576666289,-2.50500227919,-0.0460485012623,2.14322045371,-0.285070179375,-1.15589360478,-0.899620862427,-0.0307192320933,-0.794010798901,-0.141137821246,-0.0921992102686,-1.07191744046,0.573842458341,0.818940125965,0.00475920070678,0.0,0.818926491541,-0.573765934119,-0.0115239402121,0.0,-0.00670687893788,0.0105105640793,-0.999922269888,0.0,0.41612291703,-0.0616539628519,0.304950549176,1.0,-0.34998,-0.459973714286,1.928
-0.0250763640383,-0.370491891103,-0.139050211614,-2.51766664527,-0.0485148064208,2.14164595997,-0.302479352952,-1.17277158057,-0.855577302272,-0.0270576428855,-0.79584502511,-0.154597970041,-0.0964062248741,-1.0866729823,0.573791553315,0.818975607761,0.00479104767143,0.0,0.818962196854,-0.573714648374,-0.0115398988728,0.0,-0.00670233050337,0.0105453864569,-0.999921933748,0.0,0.41051108766,-0.0689963684971,0.304931698989,1.0,-0.34998,-0.459973714286,1.944
-0.0468005823293,-0.3858521333,-0.139620564729,-2.53105277896,-0.051211760476,2.13965173377,-0.32249986729,-1.21347407493,-0.867358013536,-0.0272566765024,-0.727342142658,-0.155742154957,-0.10174029373,-1.1260102877,0.573837429712,0.818942942585,0.00487933936784,0.0,0.818930958202,-0.573760715412,-0.0114662133977,0.0,-0.00659072818572,0.0105757881052,-0.99992235449,0.0,0.404252465105,-0.0772759332595,0.304984633095,1.0,-0.34998,-0.459973714286,1.962
-0.0665100499159,-0.399011213235,-0.140056165,-2.54252722448,-0.0534177679401,2.13779840478,-0.340874826095,-1.24797603099,-0.806207269705,-0.0414082984886,-0.699618063395,-0.132746041112,-0.129282363482,-1.16594585536,0.573761817207,0.818995406065,0.00496476188616,0.0,0.818983711509,-0.573683554648,-0.0115588195727,0.0,-0.00661854531025,0.010698274414,-0.99992086776,0.0,0.398650858123,-0.0845689507895,0.304956425733,1.0,-0.34998,-0.459973714286,1.978
-0.0865902718039,-0.411658846023,-0.140530733475,-2.55333572069,-0.0556667802485,2.135773639,-0.35964360013,-1.25385054305,-0.780851549028,-0.0261576690609,-0.652166683495,-0.122750797585,-0.107843874652,-1.18924412365,0.573690110471,0.819045612482,0.00496877472471,0.0,0.819033519458,-0.573611121245,-0.0116242199866,0.0,-0.0066707503701,0.0107384998478,-0.999920089662,0.0,0.393066077434,-0.0918864631099,0.304954971801,1.0,-0.34998,-0.459973714286,1.994
-0.108473878511,-0.424581460032,-0.141071409098,-2.56421196607,-0.058043054497,2.13368219021,-0.380113415695,-1.29804833367,-0.727494715697,-0.0347258849955,-0.638571814835,-0.129212565325,-0.136997790388,-1.2153326921,0.573675850948,0.819055390221,0.00500326788301,0.0,0.819044255445,-0.573597588148,-0.0115352240904,0.0,-0.00657825172982,0.0107155836222,-0.999920948311,0.0,0.387141814658,-0.0997345730924,0.304973903156,1.0,-0.34998,-0.459973714286,2.011
-0.132015893626,-0.437550784348,-0.141592421587,-2.57522250164,-0.0603564230298,2.1312113262,-0.402232576938,-1.31017848965,-0.69736852647,-0.0225236753398,-0.592662162941,-0.121977278603,-0.13126496409,-1.23501522118,0.573659561949,0.819067244482,0.00492979739032,0.0,0.819052918332,-0.573577961085,-0.0118906025785,0.0,-0.00691171302536,0.0108591318777,-0.999917150307,0.0,0.380778765183,-0.10794348829,0.304865837722,1.0,-0.34998,-0.459973714286,2.029
-0.152022215031,-0.448000721603,-0.142129056245,-2.58352473438,-0.0622206313951,2.12935706969,-0.421177666783,-1.336348107,-0.682867745374,-0.0330543196341,-0.548417427358,-0.131251266996,-0.125873750414,-1.28718093169,0.573677366309,0.819053260695,0.0051751745324,0.0,0.819043999079,-0.573598012536,-0.0115323236411,0.0,-0.00647724216228,0.0108547376861,-0.99992010681,0.0,0.375619684585,-0.114880410184,0.305007402031,1.0,-0.34998,-0.459973714286,2.044
-0.176477740104,-0.459703564631,-0.142671851517,-2.59315412616,-0.0643863054499,2.12683900154,-0.444354965584,-1.37221207767,-0.637224528559,-0.0400620244742,-0.510177136799,-0.125603694239,-0.14152154826,-1.29343384141,0.573665820314,0.819061663518,0.00512492538277,0.0,0.819050012359,-0.57358375867,-0.0118108401797,0.0,-0.00673436209852,0.0109732567876,-0.999917114566,0.0,0.369258505339,-0.123129983129,0.304938635259,1.0,-0.349734857143,-0.459651526531,2.062
-0.201157081903,-0.470490264921,-0.143058189413,-2.60190434272,-0.0662394274973,2.12458267683,-0.467895225632,-1.37706017248,-0.57282079306,-0.033907208565,-0.46044471302,-0.0945555560001,-0.116433279563,-1.31472794553,0.573597499595,0.81910878011,0.00524039178588,0.0,0.819097812839,-0.573513702567,-0.0118975993457,0.0,-0.00674012135853,0.0111170407236,-0.999915487514,0.0,0.363039190956,-0.131259307644,0.304903079056,1.0,-0.338533714286,-0.44493002449,2.08
-0.221737871742,-0.478746162768,-0.143226483695,-2.60826029118,-0.0676540615287,2.12279514279,-0.487288854616,-1.37344215327,-0.530811310421,-0.0101556056015,-0.414568931254,-0.085416222062,-0.111122363006,-1.31003276928,0.573722458031,0.819020441092,0.00536704061253,0.0,0.819012443289,-0.573640428574,-0.0116629046574,0.0,-0.00647353047525,0.0110871568352,-0.999917580782,0.0,0.358044498752,-0.137935490674,0.305004499624,1.0,-0.329199428572,-0.432662106123,2.095
-0.244687937051,-0.48718550833,-0.143326240658,-2.61489466448,-0.0690232148481,2.12078110215,-0.509123505213,-1.34095541241,-0.473493211379,-0.00269248273025,-0.372330157922,-0.068722736837,-0.111118818278,-1.27082882383,0.573739247906,0.819008095278,0.00545547269038,0.0,0.81900066531,-0.573655924301,-0.0117276441014,0.0,-0.00647559590416,0.0111968610437,-0.999916344981,0.0,0.352474659957,-0.145213518674,0.305010350034,1.0,-0.318620571429,-0.418758465306,2.112
-0.270066082836,-0.495466820071,-0.14329420192,-2.62139505736,-0.0703014896848,2.11877724124,-0.533192982144,-1.32597885967,-0.421261677823,0.0110043896682,-0.316327818747,-0.0683179739987,-0.0903353069425,-1.24752069891,0.573840603328,0.818936372219,0.00556121664314,0.0,0.818929848973,-0.57375608399,-0.0117730814594,0.0,-0.00645074693364,0.0113103362324,-0.999915228486,0.0,0.346148341383,-0.153527773531,0.305000669542,1.0,-0.306174857143,-0.402401240816,2.132
-0.288343000006,-0.500867442647,-0.1431337965,-2.62556389171,-0.0711651779315,2.11743693569,-0.550596455477,-1.28584549672,-0.370235282421,0.0236124069537,-0.283416799642,-0.0548716085449,-0.094514077253,-1.21257742123,0.573846805626,0.818931949023,0.00557256170726,0.0,0.818925703767,-0.573762475008,-0.0117499312251,0.0,-0.00642519098662,0.0113063922009,-0.999915437633,0.0,0.342196171866,-0.158730293994,0.305015730042,1.0,-0.298085142857,-0.391769044898,2.145
-0.310096235774,-0.506593262806,-0.142965685104,-2.62995630305,-0.0718821864164,2.1160019967,-0.571329681957,-1.26809494684,-0.32761529221,0.0167298014631,-0.244750692594,-0.0550890301521,-0.0787477631162,-1.19621642813,0.573975818122,0.818840253591,0.00575727462518,0.0,0.818836286477,-0.573890604248,-0.0117242144963,0.0,-0.00629633418178,0.0114439013122,-0.999914693011,0.0,0.33692479968,-0.165720926588,0.305031549968,1.0,-0.286884,-0.377047542857,2.163
-0.332578823013,-0.511858573016,-0.14269239971,-2.63397113693,-0.0725681865095,2.11466696618,-0.592815067602,-1.23708368251,-0.27735424652,0.00621987287575,-0.214469883463,-0.0400741223553,-0.0757824971943,-1.19619862496,0.574084196389,0.818763240411,0.00590241552505,0.0,0.818761393455,-0.573998894184,-0.0116531954342,0.0,-0.00615334654146,0.011522807146,-0.999914676981,0.0,0.332109003567,-0.172100821741,0.305054341506,1.0,-0.276305142857,-0.363143902041,2.18
-0.350670927693,-0.515553154628,-0.142264871632,-2.63695406175,-0.0730660894426,2.11355306381,-0.610295357068,-1.1865607931,-0.236216592008,0.0287993072386,-0.190490836219,-0.0378018418451,-0.0662965752648,-1.16256662619,0.573890808952,0.818899253603,0.00583941349501,0.0,0.818895150516,-0.573803123296,-0.0118934880395,0.0,-0.00638901778499,0.0116076543485,-0.999912217553,0.0,0.327993275311,-0.17740727642,0.304979638833,1.0,-0.266970857143,-0.350875983674,2.195
-0.371890953316,-0.519286644546,-0.141858066702,-2.63998478665,-0.0735176659611,2.11249213667,-0.630641773333,-1.16328908303,-0.189770929419,0.0258665106824,-0.150928414401,-0.0184808983065,-0.0543175953743,-1.11492942299,0.57394416883,0.818861577892,0.00587828373476,0.0,0.818856679319,-0.573853961319,-0.0120878747098,0.0,-0.00652514538056,0.0117514633545,-0.999909658713,0.0,0.323218799158,-0.183631066475,0.304897517481,1.0,-0.255769714286,-0.336154481633,2.213
-0.394611585005,-0.522690759222,-0.141275796678,-2.64262329957,-0.0738975467857,2.11146899285,-0.652486355904,-1.12439610134,-0.161693048828,0.0304428337446,-0.116125598035,-0.0111286181972,-0.0499260328955,-1.07914152161,0.573928656709,0.818872380882,0.0058879315999,0.0,0.818867121166,-0.573837535871,-0.0121600658111,0.0,-0.00657895254699,0.0118006710348,-0.999908726608,0.0,0.318185044419,-0.190234353354,0.304876632306,1.0,-0.243324,-0.319797257143,2.233
-0.408882167732,-0.524532009216,-0.140924542096,-2.64398543662,-0.0740278185926,2.11092696285,-0.666232897588,-1.10384281766,-0.133926425385,0.0157096457311,-0.0948489047525,-0.0106629016468,-0.0349335919418,-1.0545948682,0.573971595295,0.818841692854,0.00596965161395,0.0,0.818837679483,-0.573880437925,-0.0121179423235,0.0,-0.00649693520976,0.0118437583911,-0.999908753447,0.0,0.315053153747,-0.194371608196,0.304895462773,1.0,-0.235234285714,-0.309165061225,2.246
-0.426876935233,-0.526486970215,-0.140368391724,-2.64543144886,-0.0741640739752,2.11034111061,-0.683628675354,-1.04052844238,-0.109824853051,0.0388039413813,-0.078278836034,-0.00632087067048,-0.0302414805071,-1.00340393077,0.573923791997,0.818874985356,0.00599885313835,0.0,0.818871755117,-0.573833257337,-0.012049412684,0.0,-0.00642474489478,0.011827963742,-0.99990940686,0.0,0.311132148909,-0.199546636581,0.304918453943,1.0,-0.224655428572,-0.295261420408,2.263
-0.44524675478,-0.528042452369,-0.139851178552,-2.6466109576,-0.0742260564225,2.10984264683,-0.701332909137,-0.992877340252,-0.0787774679983,0.0384397197322,-0.0520520871616,2.49939580477e-05,-0.0264745560443,-0.969614320117,0.574006470002,0.818816547611,0.00606470580415,0.0,0.818814220597,-0.573915724267,-0.0120316452715,0.0,-0.00637120288466,0.0118723381661,-0.99990922356,0.0,0.307126517652,-0.204821459166,0.304922018798,1.0,-0.213454285714,-0.280539918367,2.281
-0.460852161949,-0.529022937143,-0.139339788429,-2.64736804209,-0.0742398025406,2.10950646021,-0.716368545428,-0.969416401675,-0.0480375503305,0.023620950573,-0.0403118276477,-0.000263234668475,-0.0177524494527,-0.926566624033,0.57406111526,0.818778126123,0.00607972284164,0.0,0.818776055072,-0.573970407425,-0.0120203968967,0.0,-0.00635257935674,0.0118786026325,-0.999909267651,0.0,0.303741897176,-0.209275845711,0.304920756386,1.0,-0.203497714286,-0.267454138776,2.297
-0.476671445805,-0.529722170688,-0.138684924467,-2.64789245257,-0.0742139030862,2.10921653314,-0.731665350923,-0.911323333263,-0.0297313037432,0.0369059282817,-0.0232228415752,0.0068611024679,-0.012735939333,-0.879163607883,0.574006767121,0.818816610154,0.00602802918641,0.0,0.818814034482,-0.573916600835,-0.0120024632002,0.0,-0.0063683528212,0.0118255576757,-0.999909796066,0.0,0.300338436964,-0.213751651896,0.304930104897,1.0,-0.192918857143,-0.253550497959,2.314
-0.491777182471,-0.530095547862,-0.138108965,-2.64818228014,-0.074190294166,2.10901339703,-0.746234393476,-0.875567758742,-0.011437769899,0.0343030281017,-0.0140079744576,0.00287482296543,-0.0147793680952,-0.846381842224,0.574033027615,0.818798625865,0.00596995730587,0.0,0.818795378193,-0.573943251356,-0.0120008238548,0.0,-0.0063999645941,0.0117772694502,-0.999910164154,0.0,0.297078991491,-0.218037923409,0.304932380352,1.0,-0.18234,-0.239646857143,2.331
-0.505089318203,-0.53022852295,-0.13742354423,-2.64831217582,-0.0740634264999,2.10889125556,-0.759276665398,-0.810172267601,-0.00803113612649,0.0381574673468,-0.00953676419428,0.0016916319342,-0.00857531977296,-0.790020561134,0.573817288096,0.818950323913,0.0059020120447,0.0,0.818946209082,-0.573727866764,-0.0120078486762,0.0,-0.00644780692309,0.0117239672759,-0.999910483182,0.0,0.294234307793,-0.221751634268,0.304929460684,1.0,-0.172383428572,-0.226561077551,2.347
-0.522549001811,-0.530155565677,-0.136572398463,-2.6482959189,-0.0738144595266,2.10882403882,-0.776068764828,-0.751595943558,0.0105998825175,0.0473913159159,0.00386209066301,0.0264284345426,0.00121580818035,-0.747013465978,0.573871048944,0.818912819805,0.00587874508794,0.0,0.818908519598,-0.573781924945,-0.0119952506635,0.0,-0.00645007105618,0.0116981067425,-0.99991077146,0.0,0.290488211442,-0.226618861571,0.304926879638,1.0,-0.158693142857,-0.208568130612,2.369
-0.532849944719,-0.529961381131,-0.135986406505,-2.64817924984,-0.0735568100347,2.1088264166,-0.786069677906,-0.729735455522,0.0210334898137,0.0417444443335,0.0118089406881,0.00748717047417,0.00218800058275,-0.705328130868,0.573820189239,0.818948284649,0.00590291398246,0.0,0.818944307359,-0.573730992572,-0.0119881820144,0.0,-0.00643114021788,0.011713444195,-0.999910713844,0.0,0.288295609633,-0.229456549003,0.30492467469,1.0,-0.149981142857,-0.19711807347,2.383
-0.54550922916,-0.529575360212,-0.135326423016,-2.64792772361,-0.0732318579742,2.10884589248,-0.798149719559,-0.67871874836,0.0316424423746,0.0425271343291,0.0218428910426,0.0190890549732,0.00155995154968,-0.651007824305,0.57398223157,0.818834358762,0.00595295342846,0.0,0.818830868713,-0.573892497174,-0.0120065412043,0.0,-0.00641513667064,0.0117662298775,-0.999910196896,0.0,0.285578532852,-0.232953284508,0.30491709579,1.0,-0.13878,-0.182396571429,2.401
-0.555126699167,-0.529116049267,-0.13464982659,-2.64764548044,-0.0728693668051,2.10892164045,-0.807579515251,-0.630140493307,0.0344011317857,0.0401995601279,0.019216817119,0.0172256551589,0.000805525006533,-0.621541881144,0.573829626365,0.818941045549,0.00598921717393,0.0,0.818937836971,-0.57373942258,-0.0120266810134,0.0,-0.00641301619099,0.0118062897376,-0.999909738299,0.0,0.283558664206,-0.235561708734,0.304901844095,1.0,-0.129445714286,-0.170128653061,2.416
-0.56731361366,-0.52840458888,-0.133880517533,-2.64715411986,-0.072456389987,2.1090391869,-0.819119723788,-0.5927111071,0.0403786875775,0.0385736421041,0.0218417543062,0.0158803430626,0.0121988824029,-0.563644198635,0.574020621862,0.818806948605,0.00602108742072,0.0,0.818804095891,-0.57393013572,-0.0120332358433,0.0,-0.00639733677067,0.0118376444749,-0.99990946803,0.0,0.280977278101,-0.238899958336,0.304895338166,1.0,-0.117,-0.153771428572,2.436
-0.574454175722,-0.527849801564,-0.133293084833,-2.64676592774,-0.0721349641928,2.10914859028,-0.826098809018,-0.523698252931,0.0496991543396,0.0485307012925,0.030450889198,0.0315416942338,0.00423372533761,-0.528344986976,0.573897363467,0.818893297402,0.00602748521026,0.0,0.818890535521,-0.573806889986,-0.0120287463694,0.0,-0.00639177029646,0.0118393443629,-0.999909483502,0.0,0.279508591836,-0.24083015112,0.304893553067,1.0,-0.108910285714,-0.143139232653,2.449
-0.584602145923,-0.526978158772,-0.132413960415,-2.64616825053,-0.0716806506935,2.10928125522,-0.835820925275,-0.491630186229,0.041657410411,0.0442816408315,0.0317466912134,0.0195975909763,0.00494451232934,-0.46790480851,0.573852992104,0.818924549962,0.00600598236118,0.0,0.818921171804,-0.573761998924,-0.0120842816471,0.0,-0.00645023465138,0.0118532555055,-0.999908943258,0.0,0.277412899556,-0.24355479548,0.304880356699,1.0,-0.0964645714287,-0.126782008163,2.469
-0.591155797842,-0.526386329686,-0.131858882499,-2.64576067388,-0.0713391338545,2.10938365253,-0.841979556231,-0.455941548282,0.0479978252555,0.0411775566173,0.0314916567333,0.0228917297567,0.00239038945787,-0.420225832767,0.573952962777,0.818854267585,0.00603588259993,0.0,0.81885108652,-0.573861465115,-0.01211048563,0.0,-0.00645308665047,0.0118935671211,-0.999908446176,0.0,0.276054247065,-0.245309464509,0.304871996015,1.0,-0.0877525714287,-0.115331951021,2.483
-0.599005904619,-0.52556779922,-0.131058338906,-2.64519076029,-0.0708472382199,2.109533736,-0.849498386835,-0.386191582481,0.0443598158041,0.0411746991969,0.0323421783499,0.0232900561782,0.0128414992445,-0.370433549377,0.573900181812,0.818891039372,0.0060657936928,0.0,0.818888036233,-0.573808172889,-0.0121372048442,0.0,-0.00645857064148,0.0119329796989,-0.999907941193,0.0,0.274468891668,-0.247383908621,0.304864516217,1.0,-0.0759291428572,-0.0997925877552,2.502
-0.604483518948,-0.524985959355,-0.130390529747,-2.6447973326,-0.0704687751125,2.10962640617,-0.854746146629,-0.35817440869,0.0339134955609,0.0432340717948,0.0240920706222,0.0233420292615,0.00315759847997,-0.333962473551,0.573799678444,0.818961477959,0.00606411898284,0.0,0.818958162218,-0.573707162099,-0.0121806237267,0.0,-0.00649655819628,0.0119557279001,-0.999907423366,0.0,0.273375967571,-0.248794216433,0.304854941486,1.0,-0.066594857143,-0.0875246693879,2.517
-0.610405792186,-0.524384117969,-0.129625680834,-2.64433011507,-0.0700110416001,2.10977417581,-0.860106259829,-0.299864688082,0.0344884482716,0.0415709127369,0.0255968898198,0.0329979997482,0.0105462429103,-0.278918347926,0.573939843585,0.818863199956,0.00607145829004,0.0,0.81886043895,-0.5738481128,-0.0121108158266,0.0,-0.00643313037788,0.0119227862923,-0.999908226789,0.0,0.272217754087,-0.25031609595,0.3048785067,1.0,-0.0553937142858,-0.0728031673471,2.535
-0.614284143795,-0.523921867319,-0.129041683647,-2.64397866068,-0.0696189563239,2.10987858776,-0.863772709969,-0.268438284297,0.0297987130949,0.0427577643233,0.0262041314217,0.0201690209156,0.00960778223085,-0.260448817341,0.573886562366,0.818900259487,0.0061094558081,0.0,0.818898181787,-0.573795027624,-0.0120739820023,0.0,-0.00638193450257,0.011932348013,-0.9999084408,0.0,0.271490585299,-0.251292856353,0.304892249064,1.0,-0.0466817142858,-0.0613531102042,2.549
-0.618766633133,-0.523403774599,-0.128268041796,-2.64359688568,-0.0691245080537,2.10998571018,-0.867751959685,-0.214847419571,0.0248868657577,0.0460257236495,0.0149623428762,0.0242847857356,0.00245238208507,-0.195896773053,0.573982817988,0.818832565308,0.00614015852018,0.0,0.818831004424,-0.573891349345,-0.0120520638467,0.0,-0.00634496065871,0.0119456597287,-0.999908517159,0.0,0.270662649514,-0.252385136243,0.304904054564,1.0,-0.0348582857144,-0.0458137469389,2.568
-0.621727498264,-0.523079158541,-0.127521099256,-2.64336414557,-0.0687184916857,2.11003998478,-0.870399515518,-0.174424737752,0.0220355850134,0.0428191574943,0.0126578474503,0.0333075946058,0.00454815978101,-0.149366307352,0.573896495277,0.818893263879,0.00611408079714,0.0,0.818891387136,-0.573805201903,-0.0120512756217,0.0,-0.00636053952162,0.0119231825062,-0.999908686459,0.0,0.270163271173,-0.253037527311,0.304913711763,1.0,-0.0249017142858,-0.0327279673471,2.584
-0.623816079988,-0.522855994586,-0.126830730639,-2.64319935474,-0.0683587242039,2.11012342072,-0.8721283102,-0.130021631317,0.0182093683071,0.0377258690839,0.00981700289828,0.0250675254284,0.00389865884668,-0.107395196762,0.573864680418,0.818915881146,0.00607083829777,0.0,0.81891383667,-0.573774316924,-0.0119961764944,0.0,-0.00634069042475,0.0118559037353,-0.999909612511,0.0,0.269858637195,-0.25345954301,0.304930682356,1.0,-0.0198381818182,-0.026073038961,2.599
-0.625850403675,-0.522637487831,-0.126281215967,-2.64300955776,-0.0680524370307,2.11014235829,-0.873985828774,-0.103629235587,0.0161047545945,0.0282310220375,0.0106944425725,0.0181210825325,0.00195538061051,-0.0970049669536,0.573761012566,0.818988622653,0.00605667613537,0.0,0.818986512497,-0.57367095119,-0.0119782724483,0.0,-0.00633565167546,0.0118332296205,-0.999909913039,0.0,0.269528238911,-0.253900938448,0.304951707604,1.0,-0.0194781818182,-0.0255998961039,2.617
-0.627522186604,-0.522419359768,-0.125973517861,-2.64281905083,-0.0678718595143,2.11019776439,-0.875573014644,-0.0988414834148,0.0187776304131,0.00931036994775,0.0128610841398,0.0108826890665,0.005245101685,-0.0948106456245,0.573699381067,0.819031845473,0.00605005501563,0.0,0.819029942235,-0.573609907588,-0.0119320802907,0.0,-0.00630250358513,0.0118008304901,-0.99991050542,0.0,0.269233137815,-0.254316130504,0.304970386329,1.0,-0.0191381818182,-0.025153038961,2.634
-0.629017943006,-0.522189085255,-0.125824727808,-2.6426498824,-0.0677588529237,2.11025736805,-0.877020911747,-0.092363203003,0.0164308471341,0.00255413861985,0.0079929534144,0.00195256852731,0.00369986646048,-0.095646892712,0.573690395946,0.819038019517,0.00606622504164,0.0,0.819036385078,-0.573600968731,-0.0119195423903,0.0,-0.0062830868014,0.0118068133403,-0.999910556989,0.0,0.268937978313,-0.254720859878,0.304971401756,1.0,-0.0188181818182,-0.0247324675325,2.65
-0.630576176678,-0.521952473566,-0.125721982541,-2.6424815173,-0.0677119200006,2.11026901264,-0.878409798858,-0.090661324711,0.00868255433933,0.00115192084993,0.0123461743573,0.00512073091217,2.79187191586e-06,-0.0848059876488,0.573785360594,0.81897158939,0.00605331657691,0.0,0.818969514616,-0.573695455773,-0.0119668315138,0.0,-0.0063278566431,0.0118241021247,-0.999910070376,0.0,0.268602646198,-0.255152161394,0.30496446855,1.0,-0.0184781818182,-0.0242856103896,2.667
-0.632015931671,-0.521726560539,-0.125676061857,-2.64231876613,-0.0676760131789,2.1103001538,-0.87988619746,-0.0761072870722,0.0176794712432,0.00303731977226,0.00957876371696,0.000930110701422,0.00117042917562,-0.0865860019885,0.57374682237,0.818998544582,0.00605926513582,0.0,0.818996393178,-0.573656613286,-0.0119893659143,0.0,-0.00634345784864,0.0118416048747,-0.999909764397,0.0,0.268285890521,-0.255566388369,0.30495920233,1.0,-0.0181381818182,-0.0238387532468,2.684
-0.633233872663,-0.521531805275,-0.125604785871,-2.64217950522,-0.0676458728077,2.11036147645,-0.881087679182,-0.0833399112551,0.0104564240717,0.00212848005909,0.0112209842178,0.00141888360435,0.00150659859175,-0.0730337297911,0.573730080417,0.819010385787,0.00604398034986,0.0,0.819008134174,-0.573640122192,-0.0119763630042,0.0,-0.00634181815761,0.0118214963793,-0.999910012734,0.0,0.268030255727,-0.255914502459,0.304957870608,1.0,-0.0178381818182,-0.0234444675325,2.699
-0.634638017167,-0.521282985609,-0.125583219671,-2.64201496129,-0.0676158017764,2.11038671705,-0.882524721622,-0.0774654713905,0.0153676577435,-0.00130717161041,0.00589219319831,7.35061914485e-05,0.000608467342998,-0.0786629417239,0.57370955339,0.81902466401,0.00605763924166,0.0,0.819022253968,-0.573618916326,-0.0120263560618,0.0,-0.00637522851839,0.0118612050755,-0.999909330027,0.0,0.267714702746,-0.256323733269,0.304943883432,1.0,-0.0174781818182,-0.0229713246753,2.717
-0.63595327399,-0.521089990407,-0.125582099469,-2.64186756761,-0.0675916026109,2.11040322157,-0.883835739777,-0.0739255860948,0.00983792994117,0.000689499056625,0.00888821259081,0.00205005532997,0.00777613633362,-0.0791840944555,0.573730353503,0.819009950973,0.00607688888062,0.0,0.819007639046,-0.573639346356,-0.0120471738706,0.0,-0.00638093556853,0.0118890766399,-0.999908962615,0.0,0.267412320477,-0.256709304497,0.304941371897,1.0,-0.0171381818182,-0.0225244675325,2.734
-0.637178692648,-0.520909241637,-0.125577893835,-2.64172038514,-0.0675616341984,2.11043483967,-0.885015554644,-0.0806599671563,0.00931925428039,0.00120199427906,0.0123101359165,0.000351671261818,0.00217469065416,-0.0792349162166,0.573785222049,0.818971368535,0.00609617741958,0.0,0.818969329866,-0.573694162208,-0.0120412577701,0.0,-0.00636422648853,0.011901907248,-0.999908916464,0.0,0.267136302192,-0.257071496147,0.304944622632,1.0,-0.0168181818182,-0.0221038961039,2.75
-0.638453005852,-0.520726234665,-0.12557429855,-2.6415525972,-0.067534740896,2.1104905729,-0.886363194485,-0.0770561088435,0.0100412586929,-0.000920507278604,0.00960438309774,0.00145631736548,0.00484194268505,-0.0739108019033,0.573742762484,0.8190010117,0.00611001089792,0.0,0.818999442486,-0.573652195812,-0.0119924288323,0.0,-0.0063169117985,0.0118848935871,-0.999909418862,0.0,0.266855399007,-0.257455430016,0.304958438085,1.0,-0.0164781818182,-0.021657038961,2.767
-0.63978085179,-0.520520311996,-0.125550167601,-2.64138716673,-0.0675035966255,2.1105235629,-0.88767544648,-0.0752400055244,0.0125674756252,0.000406284757754,0.00907517593846,0.00661149146855,0.00236147903836,-0.067995342739,0.573753925048,0.818993115716,0.00612019638007,0.0,0.81899175489,-0.573663456304,-0.0119787822706,0.0,-0.00629972849496,0.0118854925512,-0.999909520151,0.0,0.26657842175,-0.257821655358,0.30496490177,1.0,-0.0161381818182,-0.0212101818182,2.784
-0.640839094822,-0.520371448935,-0.12551871318,-2.64124665744,-0.0674818128719,2.11053405775,-0.888727604502,-0.0693130752233,0.00980309636213,0.000192305712149,0.0114696429776,0.000239569427106,-0.000455061798843,-0.0762982080954,0.57375963783,0.818989119731,0.00611936766845,0.0,0.818987721686,-0.573669121486,-0.011983225043,0.0,-0.00630376002197,0.011887406715,-0.999909471988,0.0,0.266326839193,-0.258151767792,0.304972046478,1.0,-0.0158181818182,-0.0207896103896,2.8
-0.642079830124,-0.52016252928,-0.125454931678,-2.64108823026,-0.0674554149346,2.11057067834,-0.890053706112,-0.0693764779932,0.00917797633026,0.00652555689604,0.0156719901472,0.000554836900912,0.00112061366186,-0.0679607622934,0.573664131087,0.819056116636,0.00610650536088,0.0,0.81905451474,-0.573573619943,-0.0119896326016,0.0,-0.00631777317019,0.0118798116767,-0.999909473811,0.0,0.266060254987,-0.258507255624,0.304971840453,1.0,-0.0154581818182,-0.0203164675325,2.818
-0.643212053019,-0.519960449565,-0.125409684361,-2.64093742686,-0.0674265138051,2.1106441589,-0.89116720187,-0.0651373923092,0.00895947634077,-0.000291446813715,0.0100414627097,0.0021647125268,0.00546210631784,-0.0655185073865,0.573667661706,0.81905369657,0.00609942192391,0.0,0.819052192125,-0.573577536052,-0.0119609202174,0.0,-0.00629826578112,0.0118575663253,-0.999909860922,0.0,0.265821769106,-0.258840745326,0.304973381041,1.0,-0.0151181818182,-0.0198696103896,2.835
-0.644284615803,-0.519779991213,-0.125351079905,-2.64080243961,-0.0674039738109,2.11068128097,-0.892260040361,-0.0665476367289,0.00963027694301,0.00175669718385,0.0118466672271,0.000406205176413,7.11843002682e-05,-0.0712518814233,0.573626238227,0.819082812234,0.0060854268991,0.0,0.819081122278,-0.573536172534,-0.0119633116187,0.0,-0.0063088519373,0.0118471558291,-0.999909917586,0.0,0.265591715578,-0.259147151675,0.304972887302,1.0,-0.0147981818182,-0.019449038961,2.851
-0.645416043653,-0.519584346112,-0.125332507462,-2.64066377823,-0.0673795812612,2.11068970275,-0.893394157658,-0.0738751738015,0.0103860756467,0.000526766059677,0.0101145510798,0.00172071637674,0.00180165524513,-0.0636044489618,0.5736359954,0.819075908138,0.00609494801447,0.0,0.819074082301,-0.573545400592,-0.0120028356595,0.0,-0.0063356260979,0.0118777012153,-0.999909385922,0.0,0.265316290025,-0.259494745585,0.304964627358,1.0,-0.0144381818182,-0.0189758961039,2.869
-0.646531433027,-0.519421767082,-0.125317220192,-2.64053526733,-0.0673540820188,2.11072772363,-0.894469905339,-0.06619740908,0.00502234531926,-0.00032095791751,0.00656571402169,0.00032420126121,0.000614587038053,-0.0617827583259,0.573667883527,0.819053488012,0.00610656099093,0.0,0.819051860331,-0.573577321524,-0.0119938827527,0.0,-0.00632116830855,0.0118823242454,-0.999909422499,0.0,0.265081492027,-0.259799527719,0.30496724358,1.0,-0.0141181818182,-0.0185553246753,2.885
-0.647552672804,-0.519268980346,-0.12530414108,-2.64040610286,-0.0673336954722,2.11075530583,-0.895486101324,-0.0659214052763,0.0145784613488,0.0005419195809,0.00798393772746,0.000414011539557,8.0729615052e-05,-0.0636590527791,0.573678148994,0.819046247098,0.00611337732257,0.0,0.819044765422,-0.573587664107,-0.0119837690182,0.0,-0.00630882468665,0.0118821848923,-0.999909502112,0.0,0.264851382259,-0.260099516207,0.304972367443,1.0,-0.0137981818182,-0.0181347532468,2.901
-0.648652017889,-0.519096308552,-0.1252813935,-2.64026456888,-0.0673118762821,2.11080265323,-0.896592384411,-0.0616762808194,0.0118521076197,0.00142262649946,0.00871737323381,0.00601491265515,0.00258586446576,-0.0520840167897,0.573673007056,0.819049840734,0.00611443121045,0.0,0.819048513398,-0.573582783989,-0.0119611668905,0.0,-0.00628978045824,0.0118700429063,-0.999909766301,0.0,0.2646083634,-0.260423315585,0.304977699651,1.0,-0.0134381818182,-0.0176616103896,2.919
-0.649651407773,-0.518913573084,-0.125260130584,-2.64011558146,-0.0672973711215,2.11085019252,-0.897581881145,-0.057178956953,0.00797143210941,0.0045972706772,0.00619073731221,0.00242643239368,0.00533740289737,-0.0642406890287,0.573679973376,0.819045010318,0.00610787378539,0.0,0.819043723598,-0.573590013567,-0.0119424483194,0.0,-0.0062781081726,0.0118539873484,-0.999910030124,0.0,0.264391558123,-0.260723301255,0.304982679994,1.0,-0.0130981818182,-0.0172147532468,2.936
-0.650591466576,-0.518738216274,-0.125243801123,-2.6399979862,-0.0672817937607,2.11087711662,-0.898528672546,-0.062373351275,0.0107889410384,0.000595737744298,0.000309030668916,0.000569054087832,0.00407143131703,-0.0593474013823,0.573675799456,0.819047911983,0.00611080156484,0.0,0.819046499423,-0.573585519174,-0.0119679103166,0.0,-0.0062973459109,0.0118709597018,-0.999909707799,0.0,0.264178630099,-0.260997578715,0.30497422822,1.0,-0.0127781818182,-0.0167941818182,2.952
-0.651572285099,-0.518567480453,-0.125234888776,-2.63988322101,-0.0672677963427,2.11089911315,-0.899534845893,-0.0509252682588,0.00905348315862,-0.00110095913211,0.00387105097447,0.00342493121297,0.00111674075818,-0.0467663793275,0.573660808578,0.819058360695,0.00611762852898,0.0,0.819056849884,-0.573570150466,-0.0119960849582,0.0,-0.00631672618133,0.011892598318,-0.999909328427,0.0,0.26395168655,-0.26128288125,0.304965586753,1.0,-0.0124381818182,-0.0163473246753,2.969
-0.652601009714,-0.51838873598,-0.125228491835,-2.63975588061,-0.0672602763052,2.11092417529,-0.900520493327,-0.0482061839045,0.00664887530186,0.00100324411795,0.00977204353637,4.18210186455e-06,0.00202323197618,-0.0534273904971,0.57370150476,0.819029852156,0.00611813822867,0.0,0.819028216476,-0.573610588537,-0.0120174970634,0.0,-0.00633338191024,0.0119056132102,-0.99990906819,0.0,0.263713961309,-0.261585355603,0.304959898205,1.0,-0.0120781818182,-0.0158741818182,2.987
-0.653427682886,-0.518240338673,-0.125231291046,-2.6396513951,-0.0672502397847,2.11095261561,-0.901312069832,-0.0516166841492,0.0145291206446,0.00355254120963,0.00322878137814,-0.000309563564049,0.000142013406219,-0.0461353658381,0.573742052665,0.819001398489,0.0061248003202,0.0,0.818999776652,-0.573650962502,-0.0120285479484,0.0,-0.00633802201926,0.0119177233379,-0.999908894524,0.0,0.263522997318,-0.261831236711,0.304955069267,1.0,-0.0117781818182,-0.0154798961039,3.002
-0.654368588918,-0.518062729798,-0.125216541259,-2.63952465373,-0.067237104785,2.11100558499,-0.902293590238,-0.0478312081407,0.00441712828424,0.00116508659963,0.00514300092758,0.000454055738829,0.00107827559598,-0.0596199781681,0.573710612106,0.819023438308,0.00612274126824,0.0,0.819021833887,-0.573619620513,-0.0120213759307,0.0,-0.00633378607016,0.0119116790622,-0.999908993387,0.0,0.263314297121,-0.26211162094,0.304952091805,1.0,-0.0114181818182,-0.0150067532468,3.02
-0.655178568815,-0.517908249534,-0.125187265941,-2.63941392483,-0.0672291724278,2.11102859242,-0.903075830599,-0.0493508470946,0.0074252693463,0.00367014883029,0.0124127837167,-0.000262759904761,-0.000394460684611,-0.0384349405671,0.573721790693,0.819015690767,0.0061116333981,0.0,0.819013845323,-0.573630663108,-0.0120387047958,0.0,-0.00635419014329,0.0119126089983,-0.999908852853,0.0,0.263134515809,-0.262346796105,0.304948136003,1.0,-0.0110981818182,-0.0145861818182,3.036
-0.655986423513,-0.517770491427,-0.125155379928,-2.63931404875,-0.0672175409091,2.11105363219,-0.903835215244,-0.049395563489,0.00336606753832,0.00184642838564,0.00618104289384,0.00149476107238,-0.000690436310243,-0.0432807816088,0.573755749592,0.818991980556,0.00610102413875,0.0,0.818989962562,-0.573664595846,-0.0120465595466,0.0,-0.00636621668455,0.0119086896128,-0.999908823042,0.0,0.262942070488,-0.26259236174,0.304946609998,1.0,-0.0107581818182,-0.0141393246753,3.053
-0.656855966126,-0.517620930809,-0.125134220777,-2.63919789191,-0.0672072630087,2.11108462485,-0.90469978008,-0.0516977868224,0.00945493795875,0.00281952284741,0.00502687468401,-0.000358206934378,0.00431126835667,-0.0491013253168,0.573748593982,0.818997025457,0.00609672839615,0.0,0.818994958205,-0.573657472637,-0.012046137292,0.0,-0.00636843941948,0.0119048733579,-0.999908854331,0.0,0.262759397807,-0.262832849282,0.304946442978,1.0,-0.0104181818182,-0.0136924675325,3.07
-0.657699371689,-0.517454657489,-0.125138969799,-2.63906182684,-0.06719266798,2.11111353021,-0.905569003564,-0.0425318619165,0.00524325953543,-0.000571806328893,0.00991965734888,0.00434918297075,0.000222582023161,-0.052702984621,0.573744115201,0.819000100476,0.00610512848429,0.0,0.818998155905,-0.573652983719,-0.0120424995624,0.0,-0.0063607056439,0.0119096315238,-0.999908846896,0.0,0.262569741624,-0.26309032483,0.304949333853,1.0,-0.0100581818182,-0.0132193246753,3.088
-0.658380804419,-0.517318662691,-0.12513851916,-2.63896583862,-0.0671772953246,2.1111443928,-0.906247380669,-0.0474253490406,0.00737363753764,0.000286690882431,0.00672342391132,0.000665691121652,0.00403602593694,-0.0466726423559,0.573757924386,0.818990361182,0.0061138692109,0.0,0.818988491178,-0.573666678983,-0.012047391615,0.0,-0.00635949700411,0.0119197044188,-0.999908734558,0.0,0.262415565327,-0.263294396084,0.304945462033,1.0,-0.00975818181819,-0.012825038961,3.103
-0.659150926199,-0.517173807366,-0.125118085426,-2.63886553161,-0.0671557673022,2.11117695873,-0.906970467783,-0.0447781122108,0.011439323065,0.0016892061919,0.00828045197175,0.00115349691706,0.000561134588905,-0.0469084434689,0.573796429654,0.818963353198,0.00611803370115,0.0,0.818961490274,-0.573705069812,-0.0120547592822,0.0,-0.00636258163152,0.011927641478,-0.999908620287,0.0,0.2622438801,-0.263517890794,0.304940900402,1.0,-0.00941818181819,-0.0123781818182,3.12
-0.659960790972,-0.51701125125,-0.12508926058,-2.63877425829,-0.0671425249818,2.11121465405,-0.907773315479,-0.0461351424051,0.00348650561339,0.000288036872996,0.00489800352522,0.000705208678473,0.00542884900159,-0.0395188407108,0.573792329245,0.818966258535,0.00611368812996,0.0,0.818964155729,-0.57370064605,-0.0120841736819,0.0,-0.00638922669026,0.0119409275015,-0.999908291811,0.0,0.262060988818,-0.263748788034,0.304926331879,1.0,-0.00903818181819,-0.0118787532468,3.139
-0.66052286897,-0.516894296282,-0.125050014139,-2.63871056415,-0.0671205867614,2.11122500576,-0.908350322564,-0.0364394723601,0.00643935170857,0.00363381861867,0.00818785885148,0.00345542809056,-1.54804906313e-05,-0.0432592081221,0.573765091757,0.818985336657,0.00611430478517,0.0,0.818982988668,-0.573672939117,-0.0121231224757,0.0,-0.00642117197277,0.0119635664219,-0.999907816566,0.0,0.261936850752,-0.263901290261,0.304913961819,1.0,-0.00875818181819,-0.0115107532468,3.153
-0.661186239575,-0.516770071221,-0.125022977639,-2.63863926628,-0.0671066210291,2.11124512992,-0.909029465557,-0.0427075223349,0.00595604353884,0.000260356341,8.46461155897e-05,1.46489418506e-05,0.00170302825513,-0.0336447718148,0.573742806371,0.819000955171,0.00611346607752,0.0,0.818998408601,-0.573650313032,-0.0121520355596,0.0,-0.00644566110048,0.0119792926121,-0.99990747072,0.0,0.261785552091,-0.264086930562,0.304902901647,1.0,-0.00841818181819,-0.0110638961039,3.17
-0.661840443142,-0.516645767489,-0.124998389678,-2.63855132891,-0.0670912214696,2.11126612201,-0.909689250377,-0.0390642520016,0.0073589865274,0.000193459678978,0.00761635939663,-2.33690497198e-05,0.000407496207141,-0.0353316887005,0.573731981918,0.819008548117,0.00611211398593,0.0,0.819005908959,-0.573639357725,-0.012163686149,0.0,-0.00645613809205,0.0119847839766,-0.999907337324,0.0,0.261640043575,-0.264274909654,0.304899383602,1.0,-0.00805818181819,-0.0105907532468,3.188
-0.662402971229,-0.516546932269,-0.124984919341,-2.63847629563,-0.0670726678017,2.11128461568,-0.91025257134,-0.0367414312761,0.00360088600228,0.000623642338463,0.00734684512123,7.02145490181e-05,0.00327189051591,-0.0252690992753,0.573733604463,0.81900736146,0.00611881404896,0.0,0.819004793787,-0.573640920262,-0.0121650834716,0.0,-0.00645341504233,0.0119910860927,-0.999907279346,0.0,0.261513719651,-0.264437663651,0.304898920104,1.0,-0.00773818181819,-0.0101701818182,3.204
-0.663001266483,-0.51646269202,-0.12498593991,-2.63840043762,-0.0670536494658,2.11130873845,-0.91081745739,-0.0337183984141,0.0087835802099,-0.000253031280032,0.00606162687521,0.00096074604152,0.000168696149442,-0.0344467581359,0.5737736913,0.818979183486,0.00613148344595,0.0,0.818976901149,-0.573681165285,-0.0121450765016,0.0,-0.00642917204994,0.0119902995379,-0.999907444949,0.0,0.261376054727,-0.264614064057,0.304904351044,1.0,-0.00739818181819,-0.00972332467533,3.221
-0.663614594904,-0.516401905473,-0.124985162562,-2.63831544829,-0.0670307551436,2.1113338311,-0.911423298064,-0.0265625154325,0.00110860607249,-0.00153120831172,0.00221351685266,0.00054826543527,0.000403785826257,-0.0402462640282,0.573796577862,0.818963063203,0.00614290200258,0.0,0.818961205444,-0.573704511906,-0.0121005742825,0.0,-0.006385835733,0.0119742970848,-0.999907914416,0.0,0.261245024944,-0.264786095268,0.304919432816,1.0,-0.00705818181819,-0.00927646753247,3.238
-0.664094811089,-0.516345830406,-0.124976325668,-2.63823570707,-0.0670098999152,2.11134096429,-0.911906174649,-0.0310452691355,0.00437575372481,0.000794197301369,0.00411575494452,0.00488175883516,-0.000101746421911,-0.0308837930262,0.573797612801,0.818962265763,0.00615253618511,0.0,0.818960803848,-0.573706012725,-0.0120565179449,0.0,-0.00634420839612,0.011956917403,-0.999908387377,0.0,0.261132363594,-0.264938649366,0.304939073555,1.0,-0.00673818181819,-0.0088558961039,3.254
-0.664645154156,-0.516255352938,-0.124948761001,-2.63814402251,-0.0669843476608,2.11136458315,-0.912449734917,-0.0286326497688,0.0034771354942,-0.000222084227013,0.00745731121742,0.000635503267769,0.00210848753648,-0.0325561981679,0.573799131123,0.818961189983,0.00615413071868,0.0,0.818959929025,-0.573707863901,-0.0120278198715,0.0,-0.0063197661612,0.0119417689642,-0.999908723189,0.0,0.261017381642,-0.265099445273,0.3049500218,1.0,-0.00637818181819,-0.00838275324676,3.272
-0.665132092588,-0.516180844186,-0.1248979938,-2.63806709628,-0.0669595901421,2.11138675845,-0.912916173265,-0.0318847660932,0.00305068007978,0.00324456706844,0.00414021716886,0.00372015775705,-0.000103174249281,-0.0197032541046,0.573794303788,0.818964645432,0.00614437748325,0.0,0.818963441138,-0.573703426204,-0.012000322578,0.0,-0.00630291086168,0.011917966724,-0.999909113562,0.0,0.260920995806,-0.265234949953,0.304960577604,1.0,-0.00603818181819,-0.0079358961039,3.289
-0.665547773919,-0.516090274908,-0.124845813561,-2.63801091511,-0.0669354109727,2.11141111066,-0.913351089918,-0.0277605620574,0.00521137094651,0.00219793397189,0.00426997632344,9.04024039293e-05,-5.03622626447e-05,-0.0288637115964,0.57375480193,0.818992375633,0.00613700397531,0.0,0.818991034213,-0.573663886159,-0.0120074350623,0.0,-0.00631354177233,0.0119157041728,-0.999909073458,0.0,0.260839011795,-0.265346223739,0.304955998987,1.0,-0.00571818181819,-0.00751532467533,3.305
-0.665966997143,-0.515991478516,-0.124803942821,-2.63796586722,-0.0669137400105,2.11143467633,-0.913787927379,-0.022643426465,0.00512035605747,0.00165538876545,0.00183227764214,0.00200044995831,0.000161773699247,-0.0269904299903,0.573722406338,0.81901508487,0.00613499162267,0.0,0.819013544709,-0.573631180771,-0.012034489248,0.0,-0.00633732775748,0.0119293270426,-0.999908760554,0.0,0.260750702935,-0.26545772077,0.304943012622,1.0,-0.00537818181819,-0.00706846753247,3.322
-0.666358369946,-0.5158941213,-0.124781853111,-2.63793607014,-0.0668885472322,2.11144554364,-0.914196484988,-0.0200094160145,0.00991681682824,-0.000474476144385,0.00153440139013,-9.64095056858e-06,-5.83000833905e-05,-0.0259607095104,0.573705222027,0.819027014055,0.00614942020035,0.0,0.819025310833,-0.573613277517,-0.01208697533,0.0,-0.00637229292393,0.0119711221376,-0.99990803883,0.0,0.260660272189,-0.265560088396,0.30492208078,1.0,-0.00503818181819,-0.00662161038962,3.339
-0.666714432048,-0.515826676072,-0.124758872012,-2.63791797109,-0.066867640009,2.11145217982,-0.914562336005,-0.0214556772461,0.00036088397775,0.00446300391123,-0.00116242807808,0.00273568483654,-0.000408198523254,-0.025452888704,0.573690953846,0.819036927991,0.00616011075463,0.0,0.81903510179,-0.573598472693,-0.0121260489186,0.0,-0.00639837492298,0.0120021825886,-0.999907499928,0.0,0.260576349464,-0.265650327889,0.304906530059,1.0,-0.00471818181819,-0.00620103896105,3.355
-0.667084457085,-0.515774541429,-0.124748813718,-2.63789592686,-0.0668490725901,2.1114569359,-0.914938881699,-0.0218339395093,-2.26836748094e-05,0.00152871025366,0.00341814386823,0.00212112241858,0.00183742321537,-0.0224833591194,0.573687654698,0.819039133592,0.00617409043822,0.0,0.819037336716,-0.573594824617,-0.0121476392586,0.0,-0.00640808898704,0.0120259928032,-0.999907151636,0.0,0.260486530055,-0.265748223453,0.304897955702,1.0,-0.00437818181819,-0.00575418181819,3.372
-0.66743178478,-0.515724812761,-0.124726696095,-2.63786472209,-0.0668252094985,2.11146009413,-0.915275655054,-0.0207655605943,0.00246432086313,0.00452658406361,-0.000510851324852,0.000689282941602,-0.00029951567392,-0.0192963240806,0.573692442,0.819035700282,0.00618470344402,0.0,0.819033956304,-0.573599402389,-0.0121593956,0.0,-0.0064115603332,0.0120414673209,-0.99990694315,0.0,0.260407746589,-0.265839249621,0.304894579704,1.0,-0.00403818181819,-0.00530732467533,3.389
-0.667735832819,-0.515694275741,-0.124701510622,-2.63782320667,-0.0668097568737,2.11147468272,-0.915563937278,-0.0212075126713,0.00387725490227,0.000212473809392,0.00171362973489,0.000386966212089,0.000418647905989,-0.0182858374245,0.573696095361,0.819033162709,0.00618186467773,0.0,0.819031561645,-0.573603405989,-0.0121317998954,0.0,-0.00639053084073,0.0120233399971,-0.999907295908,0.0,0.260344886131,-0.265923818312,0.304904011327,1.0,-0.00371818181819,-0.00488675324676,3.405
-0.668049238735,-0.515643703323,-0.124686016934,-2.63776614046,-0.0667895015304,2.11147764101,-0.915854566382,-0.018055880287,0.00703916892996,-0.00171092281173,0.00642250798283,9.94686325328e-05,-0.000130682144126,-0.0181999211628,0.573715247465,0.819019701159,0.00618795934961,0.0,0.819018253275,-0.573622665556,-0.0121196230724,0.0,-0.00637677910318,0.0120214956591,-0.999907405878,0.0,0.26027904074,-0.266014458413,0.304911894575,1.0,-0.00335818181819,-0.00441361038962,3.423
-0.668308542678,-0.515614338682,-0.124662842738,-2.63771822612,-0.0667703296859,2.11148833153,-0.916110746082,-0.0134113057954,0.00213232421975,0.00287530433942,-1.00284398723e-05,5.73614707686e-05,0.00207295928443,-0.0192078963711,0.573711852934,0.819022076987,0.00618822364549,0.0,0.81902083212,-0.573619647295,-0.0120881633163,0.0,-0.00635090823606,0.0120036377615,-0.999907785071,0.0,0.260228783332,-0.266088547159,0.304924287424,1.0,-0.00301818181819,-0.00396675324676,3.44
-0.668539114378,-0.515590831406,-0.124643300162,-2.63768594505,-0.0667545924166,2.11149703845,-0.916327146549,-0.014680208337,0.00257024930969,0.00169753135172,0.000368643427142,0.000427481126252,0.00132926713347,-0.0168650339168,0.573717876578,0.819017848709,0.00618938549031,0.0,0.819016741742,-0.573625896782,-0.0120687277351,0.0,-0.00633423357744,0.0119934860986,-0.999908012657,0.0,0.26018132792,-0.266152017577,0.304931484449,1.0,-0.00269818181819,-0.00354618181819,3.456
-0.668761743964,-0.515579428232,-0.124610378551,-2.6376655155,-0.0667409715383,2.11150617378,-0.916528033521,-0.00882824496801,-0.000428525985238,0.00217476892315,0.00112555461484,7.78180231455e-05,0.00498453876252,-0.0177255075786,0.573719087289,0.819017047437,0.0061831860159,0.0,0.819015990156,-0.573627381309,-0.0120491569541,0.0,-0.00632174186337,0.0119771901455,-0.999908287042,0.0,0.260136426155,-0.2662079232,0.304938115102,1.0,-0.00235818181819,-0.00309932467533,3.473
-0.66896685552,-0.515561275462,-0.124590035179,-2.63765081542,-0.066726466921,2.11151445868,-0.916723024163,-0.00728523414747,0.00166870282668,0.000420576033252,0.00116998329012,0.00023027037344,0.00171598661615,-0.0137177502958,0.5737198665,0.819016485679,0.00618529460335,0.0,0.8190154965,-0.573628228246,-0.0120423898634,0.0,-0.00631497782348,0.011975040992,-0.999908355525,0.0,0.260091880768,-0.266260153157,0.304939284279,1.0,-0.00201818181819,-0.00265246753247,3.49
-0.669145022519,-0.515551712032,-0.124561763597,-2.63763017259,-0.0667149532522,2.11152784398,-0.916880344012,-0.0128183334102,0.00032839606448,0.000394674692845,0.00460221433129,-0.000100170934329,-0.000173864637451,-0.00687978758236,0.573722745129,0.819014521448,0.00617837193981,0.0,0.819013610333,-0.573631455182,-0.0120169304061,0.0,-0.00629805327635,0.0119547871757,-0.999908704627,0.0,0.26005831684,-0.266306388979,0.304946942918,1.0,-0.00169818181819,-0.0022318961039,3.506
-0.669320571164,-0.515526315409,-0.124532281475,-2.63761136142,-0.0667039457742,2.11153931204,-0.917030600292,-0.0143105409564,-0.000202037106339,0.000534448434585,0.00121176956802,3.82174004164e-05,-0.000230053755635,-0.0127897050159,0.573728181993,0.819010762343,0.00617181126685,0.0,0.819009810052,-0.573637002857,-0.0120111154149,0.0,-0.00629697471155,0.0119461193839,-0.999908815013,0.0,0.260024607415,-0.26635070121,0.304947788651,1.0,-0.00135818181819,-0.00178503896105,3.523
-0.669489814391,-0.515484005225,-0.124497830507,-2.63759072436,-0.0666955346181,2.11154859859,-0.917143598886,-0.00812720317366,-0.00158929151298,0.00437388327259,0.000949108253592,0.000325443513212,-0.000137555804883,-0.0113201665808,0.573754495367,0.818992409198,0.00616113816195,0.0,0.818991256088,-0.573663239027,-0.012023208405,0.0,-0.00631261948126,0.0119445181223,-0.999908735496,0.0,0.259993141969,-0.266392427159,0.304943147861,1.0,-0.000998181818187,-0.0013118961039,3.541
-0.669609587316,-0.515462658308,-0.124484532742,-2.63757718842,-0.0666859312204,2.11155367785,-0.917179260084,-0.00682372339061,0.00258716489257,0.00116149754281,0.00280602760702,3.84916814672e-05,-0.000325998544036,-0.00249231256434,0.573811356327,0.818952586228,0.00615920144851,0.0,0.818951417869,-0.573720115062,-0.0120229632601,0.0,-0.00631270063128,0.0119432295587,-0.999908750376,0.0,0.25996930823,-0.266425076232,0.304943800007,1.0,-0.000678181818187,-0.000891324675332,3.557
-0.669705970046,-0.515436122336,-0.124481843073,-2.63756314655,-0.0666770378312,2.11155752926,-0.917265805201,-0.00573369391511,0.00170896158971,-0.000476310948788,0.00154769304046,0.000336920648007,0.000125218138707,-0.0121558966865,0.573829457937,0.818939841096,0.00616739574806,0.0,0.818938711227,-0.573738048608,-0.0120326944422,0.0,-0.00631570486983,0.0119556638384,-0.999908582809,0.0,0.259947354794,-0.26645097977,0.304939144946,1.0,-0.000338181818187,-0.000444467532475,3.574
