nelsonifechukwu/NELSON_IML_WORK/CNN-GradCAM/train2dof/data_sample_2022-02-21-09-54-06/robot_state.csv
position_joint1,position_joint2,position_joint3,position_joint4,position_joint5,position_joint6,position_joint7,velocity_joint1,velocity_joint2,velocity_joint3,velocity_joint4,velocity_joint5,velocity_joint6,velocity_joint7,ee_T_00,ee_T_10,ee_T_20,ee_T_30,ee_T_01,ee_T_11,ee_T_21,ee_T_31,ee_T_02,ee_T_12,ee_T_22,ee_T_32,ee_T_03,ee_T_13,ee_T_23,ee_T_33,v_x,v_y,time
0.465079054916,0.547639197421,-0.123963394535,-1.35577053959,0.0794523768151,1.89408756383,0.159175487766,-0.000780027294048,-9.24093506608e-05,5.48382168989e-05,-0.000812055447944,0.00114695202442,-6.87564355471e-05,-0.00172556768039,0.573775191299,0.818998428464,0.00208588725591,0.0,0.818957395436,-0.573716416587,-0.0117900254543,0.0,-0.00845946742773,0.00847324004087,-0.999928318238,0.0,0.661687805742,0.260908023847,0.303339492374,1.0,-0.0,-0.0,0.001
0.465078021442,0.547639102035,-0.123962012576,-1.35577051703,0.0794537941071,1.89408919144,0.159173961868,-0.000377947392197,-0.00104497074644,5.36957778496e-05,0.000287407497989,0.000337312393454,0.000564338346061,0.0017249996839,0.573779786469,0.818995192594,0.00209237851758,0.0,0.818954237785,-0.573720979557,-0.0117873207769,0.0,-0.00845348035281,0.00847705186194,-0.999928336563,0.0,0.661688292481,0.260909745651,0.303342824628,1.0,-0.0002,-0.000262857142857,0.011
0.465078993984,0.547646064374,-0.123960475411,-1.35576595355,0.0794537941151,1.89408756389,0.159166129023,-0.00167742548788,0.000240950753659,0.00163450448968,0.00201394533476,0.000180427057793,0.000689287910281,0.00179976326138,0.573771253458,0.819001178883,0.00208916132516,0.0,0.818960176124,-0.573712454059,-0.0117896939298,0.0,-0.00845735818677,0.00847569057411,-0.999928315312,0.0,0.661688222851,0.260911617786,0.303339872212,1.0,-0.00054,-0.000709714285714,0.028
0.465075461285,0.547620744186,-0.123961206173,-1.35579712786,0.0794482016053,1.89409161962,0.159167994808,-0.00154512854994,-0.000102409834285,-0.000328396203421,-0.00423793709624,-0.000382436582793,7.15262455656e-05,-0.000331926766247,0.573776389044,0.818997589622,0.00208577797942,0.0,0.818956570795,-0.57371763026,-0.0117882476009,0.0,-0.00845806161534,0.00847214283809,-0.999928339427,0.0,0.661683957823,0.260904857925,0.303343337138,1.0,-0.0009,-0.00118285714286,0.046
0.46508048607,0.54750738217,-0.123960593317,-1.35588556956,0.0794528247968,1.8941139837,0.159169288208,0.000227801434738,-0.0124490676078,-0.000723459746142,-0.00792645770105,3.73315239523e-05,0.00494608407158,4.2529527447e-05,0.573778905346,0.818995703686,0.00213354744901,0.0,0.818955201925,-0.573719855373,-0.0117750453144,0.0,-0.00841981509682,0.00850371611568,-0.999928394199,0.0,0.661669430455,0.260901803491,0.303383477749,1.0,-0.00122,-0.00160342857143,0.062
0.465074748282,0.547362081755,-0.12395269763,-1.35607256152,0.0794503185322,1.89416540461,0.159164687955,-0.000937321249285,-0.00691564645784,0.00181890307128,-0.00834685786045,-0.00030086986838,0.00515232302499,-0.000294505081596,0.573783958001,0.818992121416,0.00214976746068,0.0,0.818951690518,-0.573724702894,-0.011783072113,0.0,-0.00841703058289,0.00852165751887,-0.999928264902,0.0,0.661640478434,0.260885375219,0.303401600858,1.0,-0.00158,-0.00207657142857,0.08
0.465061927372,0.547224701178,-0.123961145265,-1.35625565983,0.0794468501538,1.89424446136,0.15916427648,-0.000182514009936,-0.00754514941112,0.00124877602596,-0.0110076964628,0.000471860655779,0.0045876553566,0.00137666102846,0.573809396606,0.818974218697,0.00217999500456,0.0,0.818934172017,-0.573750012697,-0.0117682511206,0.0,-0.00838728358658,0.00853816986491,-0.999928374,0.0,0.661623374047,0.260856885774,0.303418903351,1.0,-0.00186,-0.00244457142857,0.094
0.465047393207,0.54703414861,-0.123958724281,-1.35646165894,0.0794439836683,1.89435267969,0.159140051606,0.000788314096844,-0.0113173011538,7.0168690801e-05,-0.0134818623549,0.000294431650495,0.00710421752885,-0.00347151616536,0.573810642566,0.818973114786,0.00226509108376,0.0,0.818934121052,-0.57375088091,-0.0117294046396,0.0,-0.008306628976,0.00858558288804,-0.999928641295,0.0,0.661606151234,0.260833619225,0.303465139664,1.0,-0.0022,-0.00289142857143,0.111
0.465016634561,0.54682246265,-0.123955536915,-1.35671644026,0.0794376302382,1.89448081888,0.159129237967,-0.00128675524549,-0.0149278250389,0.000657741036254,-0.0169685190864,-8.59912737066e-05,-0.000354208742169,0.000276211334211,0.573837453522,0.818954110306,0.00234287222278,0.0,0.818916080326,-0.573777351595,-0.011694061803,0.0,-0.00823277146697,0.00862927252397,-0.999928876036,0.0,0.661586512569,0.260795334812,0.303504815702,1.0,-0.00254,-0.00333828571429,0.128
0.464986406981,0.546586726969,-0.123955569327,-1.35705837461,0.0794271304937,1.89461553271,0.159100985836,-0.00325083727187,-0.0191620729214,0.00101748061836,-0.0232483507796,0.000198115345871,0.012240278366,-0.00694989157524,0.573855464637,0.818941404355,0.00237251768669,0.0,0.818903682493,-0.573795171378,-0.0116878998912,0.0,-0.00821052403629,0.00865019523619,-0.99992887818,0.0,0.661549645271,0.260745275456,0.303520696888,1.0,-0.00288,-0.00378514285714,0.145
0.464934608615,0.546325166866,-0.123958777829,-1.35746054859,0.0794120419467,1.89477236567,0.158972621079,-0.00875179446273,-0.0143012789732,-0.00058797091551,-0.0233010872167,-0.00472801210156,0.0103605334261,-0.0101736898711,0.5738135493,0.818970720054,0.00239107415201,0.0,0.818933177296,-0.573753128462,-0.0116852729877,0.0,-0.00819816799776,0.00866346471859,-0.99992886468,0.0,0.661510637215,0.260673054565,0.303528196927,1.0,-0.00322,-0.004232,0.162
0.464893083834,0.546054216216,-0.123958399526,-1.35790534144,0.0793942260134,1.89492187429,0.158940435282,-0.00108090819226,-0.0100162655991,0.00247644694857,-0.0380020507122,-0.000125749252145,0.00921981810287,-9.92925443541e-05,0.573841009807,0.818951525485,0.00237513590563,0.0,0.818913674022,-0.573780536421,-0.0117062984885,0.0,-0.00822424259308,0.00866275220135,-0.999928656734,0.0,0.661457252981,0.260603828331,0.303521282524,1.0,-0.00354,-0.00465257142857,0.178
0.464840189558,0.545724748276,-0.123961174945,-1.35844512093,0.0793389235734,1.89510694862,0.158895663049,-0.00398370425086,-0.0213900204507,-0.000211998397628,-0.0285247361419,-0.000350107371462,0.00922701671659,-0.00108011586004,0.573865029186,0.818934795684,0.00233999913009,0.0,0.818896677538,-0.573804881121,-0.0117020007083,0.0,-0.00824063129416,0.00863175267905,-0.999928789885,0.0,0.661396445739,0.260511095044,0.303513694379,1.0,-0.0039,-0.00512571428571,0.196
0.46478333293,0.54539886261,-0.123964246049,-1.35901407486,0.0792602273165,1.89528960145,0.158810230509,-0.00863800987034,-0.0198813232095,-0.000228812313575,-0.0395634261584,-0.00379757244378,0.00873834385876,-0.00774450649516,0.57385060531,0.818945127377,0.00226009560751,0.0,0.818906308624,-0.573791105348,-0.0117035046334,0.0,-0.00828786490301,0.00856703471118,-0.999928956082,0.0,0.661325802509,0.2604015848,0.303488164131,1.0,-0.00424,-0.00557257142857,0.213
0.464734698596,0.545004210582,-0.123962523725,-1.35970375565,0.0792496525479,1.89550326179,0.158714710854,0.000342212688461,-0.0233450505877,0.00113307324336,-0.042983583955,7.90154620164e-05,0.00795015065014,-0.00385969594189,0.573850447715,0.818945370118,0.00221163327568,0.0,0.818905599046,-0.573790798859,-0.0117680031287,0.0,-0.00836849797323,0.00856435762701,-0.99992830744,0.0,0.661238115725,0.260313045699,0.303458988678,1.0,-0.00456,-0.00599314285714,0.229
0.464663037773,0.544608415436,-0.12397006549,-1.36036421639,0.0792251311086,1.89574487372,0.158651304529,-0.00623050567848,-0.0277018403442,-0.000219192486057,-0.0447425111357,-0.00492094613111,0.0247474853408,-0.00131377490791,0.573891254144,0.818916811861,0.00219785580313,0.0,0.818876716115,-0.573831504569,-0.0117930093771,0.0,-0.00839645639684,0.00856784284167,-0.999928043206,0.0,0.661161412408,0.260194859618,0.303445476453,1.0,-0.0049,-0.00644,0.246
0.464598397045,0.544150811615,-0.123973508743,-1.36110510648,0.0791961105297,1.89600918206,0.158547115979,-0.00185758044226,-0.0322137772713,-0.00052685420436,-0.0446962566032,-0.00128215274983,0.0145154792486,-0.00593017672051,0.573891731527,0.818916539443,0.00217458340335,0.0,0.818876015966,-0.573831945217,-0.0118201533448,0.0,-0.00843203599125,0.00856436735429,-0.999927773582,0.0,0.661073641624,0.260079860138,0.303428433284,1.0,-0.00524,-0.00688685714286,0.263
0.464524204954,0.543635315965,-0.123973950274,-1.36197253155,0.0791528903622,1.89631260595,0.158444207187,-0.00337627860686,-0.0315715141528,0.000380050017286,-0.0528782863374,-0.000805195799299,0.0247601953759,-0.002997054201,0.573909991268,0.818903803926,0.00215145057429,0.0,0.818862886586,-0.573850199695,-0.0118434869612,0.0,-0.00846422914524,0.00855900331344,-0.999927547519,0.0,0.66097656995,0.259955201985,0.303418346956,1.0,-0.00558,-0.00733371428571,0.28
0.464442993505,0.54307324466,-0.123978605651,-1.36286602984,0.0790937314669,1.8966188373,0.15832785837,-0.00660475364092,-0.0308373557517,-0.000536559560547,-0.0514400852169,-0.000657374211909,0.0200707774789,-0.00281729610975,0.573918297165,0.818898048522,0.00212631320052,0.0,0.818856832507,-0.573858633157,-0.011853434505,0.0,-0.00848671459303,0.00854421354152,-0.999927483416,0.0,0.660872199753,0.259811360489,0.303417352614,1.0,-0.00594,-0.00780685714286,0.298
0.464375731907,0.542538702201,-0.123980383967,-1.36370883732,0.0790400457866,1.89692085739,0.158216458504,-0.00461516813259,-0.0340465189918,8.8630745006e-05,-0.0536886843259,-0.00575371875187,0.018165780242,-0.00769512986494,0.573915891704,0.818899753487,0.00211893597281,0.0,0.818858453673,-0.573856269716,-0.0118558617261,0.0,-0.0084929610676,0.00853954050122,-0.9999274703,0.0,0.660773219458,0.259684669298,0.303420494509,1.0,-0.00626,-0.00822742857143,0.314
0.464304463987,0.541941866539,-0.123982593558,-1.36463063971,0.0789919762397,1.89726940644,0.158089395084,-0.00405026001921,-0.0393803546816,0.00089411376259,-0.0597165611127,-0.00388371634133,0.022565729465,-0.0080022191853,0.573910177461,0.818903697605,0.00214223179588,0.0,0.818862645404,-0.573850407392,-0.0118500970032,0.0,-0.0084749308328,0.00855524958456,-0.999927488997,0.0,0.660667650034,0.259550595261,0.303434088665,1.0,-0.0066,-0.00867428571429,0.331
0.464228384356,0.541361356117,-0.123983462742,-1.36553527295,0.0789399768114,1.89760517501,0.157980554817,-0.0067494915545,-0.0378034418006,-5.40221881179e-05,-0.0562346043034,-0.0040756496901,0.019919235093,-0.0102537662879,0.573920290961,0.818896581729,0.00215289498278,0.0,0.818855643134,-0.573860451885,-0.0118475470292,0.0,-0.00846661748501,0.0085626227009,-0.999927496312,0.0,0.660564074844,0.259414445403,0.303443072444,1.0,-0.00692,-0.00909485714286,0.347
0.464150370005,0.540718736115,-0.123981555508,-1.36650019309,0.0788763788823,1.89796284093,0.157850731941,-0.00645088539731,-0.0426864272726,0.000555522591469,-0.0593601405989,-0.00117908451726,0.026978504882,-0.00434368058322,0.57391298976,0.818901624691,0.00218086337087,0.0,0.818861081856,-0.573853073502,-0.0118290132641,0.0,-0.00843546544102,0.00857481359928,-0.99992765513,0.0,0.660452953135,0.259271906907,0.303468973941,1.0,-0.00724,-0.00951542857143,0.363
0.464051939154,0.539916490733,-0.123983944513,-1.36773569369,0.078812724209,1.89841524866,0.157690663882,-0.00516867528586,-0.0422818770231,0.000804583295494,-0.0673368306159,-0.00269507743203,0.0308296824208,-0.00797168807196,0.573915545693,0.818899775091,0.00220265043973,0.0,0.818859412656,-0.573855438716,-0.0118298208985,0.0,-0.0084235969191,0.00859314460645,-0.999927597819,0.0,0.660308519661,0.259089796291,0.303487175836,1.0,-0.00762,-0.0100148571429,0.382
0.463941436029,0.539126869931,-0.123988868645,-1.36894234601,0.0787323650211,1.89887450755,0.157556758333,-0.00442430241313,-0.0466389173597,-2.33304921039e-05,-0.0676576872977,-0.0104395058295,0.0242082077799,-0.00710478324783,0.57394511599,0.818878969578,0.002232468245,0.0,0.81883909574,-0.573884992354,-0.0118024463474,0.0,-0.00838375649505,0.00860215433497,-0.999927855181,0.0,0.660176166686,0.258899281001,0.303510691475,1.0,-0.00798,-0.010488,0.4
0.463841569533,0.538462191769,-0.123994941326,-1.36997214109,0.078668572449,1.89929084569,0.157417756466,-0.00465021717557,-0.052833566534,-0.00123996057665,-0.0712298429923,-0.00442832384976,0.0302753476617,-0.0032825513312,0.573957359552,0.818870279188,0.00227204295526,0.0,0.818831002021,-0.573897167146,-0.0117719400087,0.0,-0.0083359332784,0.00861717672124,-0.999928125658,0.0,0.660069235205,0.258734249532,0.303526337746,1.0,-0.00828,-0.0108822857143,0.415
0.463732857237,0.537742165665,-0.123996539887,-1.37113261247,0.0786169052233,1.89972616959,0.157269909177,-0.0076887061257,-0.0465979450333,-0.00166372063111,-0.0727759146618,-0.00203152563718,0.0158492735194,-0.00610460094263,0.5739767202,0.818856697435,0.00227610098694,0.0,0.818817313085,-0.57391634455,-0.0117891540296,0.0,-0.00834749689119,0.00863057702365,-0.99992791362,0.0,0.659937671876,0.258554447522,0.303520306126,1.0,-0.0086,-0.0113028571429,0.431
0.463633627902,0.53697170913,-0.124007401636,-1.37232928776,0.0785463098695,1.90016636426,0.157128220776,-0.00440194992526,-0.05208808536,-0.000150735585578,-0.0732794131173,-0.00165830406609,0.024588463431,-0.00946012009023,0.573996569722,0.818842756212,0.00228592376486,0.0,0.818803523087,-0.573936178415,-0.0117813661154,0.0,-0.00833527243198,0.00863435240712,-0.999927983003,0.0,0.659800494576,0.258369182551,0.303533214836,1.0,-0.00892,-0.0117234285714,0.447
0.463495359655,0.536025216462,-0.124008047304,-1.37382111222,0.0784562566039,1.90073016024,0.156947888294,-0.0101548243912,-0.0509001719251,0.000761319540109,-0.0799111669108,-0.00406275267943,0.0343755577015,-0.00632345287944,0.574020585924,0.818825880989,0.00230009974815,0.0,0.818786835391,-0.573960141067,-0.0117737656743,0.0,-0.00832065867336,0.00864184164699,-0.999928040017,0.0,0.659632689645,0.258136619983,0.303540132537,1.0,-0.0093,-0.0122228571429,0.466
0.463382071019,0.535130203833,-0.124019680236,-1.37523263435,0.0783610328156,1.90123761846,0.156768601022,-0.00661494446061,-0.0511987697343,0.00011985591749,-0.0838258064634,-0.00113894195486,0.0304902599677,-0.0126282891739,0.574026585988,0.818821719973,0.00228393953984,0.0,0.818782570549,-0.573966311934,-0.011769529757,0.0,-0.00832640255359,0.00862623895434,-0.999928126928,0.0,0.659466900176,0.257918385295,0.303544200944,1.0,-0.00964,-0.0126697142857,0.483
0.463247130172,0.534175264532,-0.124024610133,-1.37677270598,0.0782971352701,1.90179502819,0.156583415734,-0.00472354396438,-0.0587735183009,-0.0003330819067,-0.0886139063373,-0.00413830656713,0.0267385026919,-0.0168035581468,0.574056221566,0.818800970461,0.00227423713301,0.0,0.81876142515,-0.573995701864,-0.0118071939883,0.0,-0.00836250056075,0.00864021715534,-0.999927705003,0.0,0.659284727039,0.257683745416,0.303533365644,1.0,-0.01,-0.0131428571429,0.501
0.4631259694,0.533256860797,-0.124035422921,-1.37825523237,0.0781974059538,1.90234822887,0.156392658918,-0.00737750235456,-0.058736547357,-7.29741654289e-05,-0.0852769060698,-0.00509683669935,0.0403414445484,-0.0106077319428,0.574062863822,0.818796347184,0.00226210509524,0.0,0.818756768869,-0.574002518797,-0.0117986756417,0.0,-0.00836241949706,0.00862546145364,-0.999927833073,0.0,0.659124866328,0.257471401943,0.303528302804,1.0,-0.01032,-0.0135634285714,0.517
0.463007624757,0.532372254391,-0.124031475487,-1.37968991967,0.0781250213161,1.90288739563,0.156217365884,-0.00640324959698,-0.060246112313,0.000396421055697,-0.0959387864981,-0.0010070831917,0.0333757741309,-0.00709250089465,0.574070926469,0.818790719722,0.0022529051253,0.0,0.818750867211,-0.574010456769,-0.011822007499,0.0,-0.00838672039902,0.00863140500407,-0.999927578262,0.0,0.658943770742,0.257245557012,0.303511170749,1.0,-0.01066,-0.0140102857143,0.534
0.462880486092,0.53140091185,-0.124033984098,-1.38126434875,0.0780344713423,1.90346101633,0.156017120996,-0.0100310498562,-0.0580502526687,-0.000973652795299,-0.0887777946551,-0.0031416756594,0.0338620408949,-0.00730997006568,0.574074364347,0.818788375764,0.00222863518345,0.0,0.818748140754,-0.574013920388,-0.0118426395969,0.0,-0.00841751008471,0.00862341273909,-0.999927388502,0.0,0.658754963159,0.257010471584,0.303496243077,1.0,-0.011,-0.0144571428571,0.551
0.462741410416,0.530372960241,-0.124031715279,-1.38290718896,0.0779169566316,1.90403626482,0.155812502134,-0.00909656505213,-0.058324291373,0.000620428029795,-0.0912472330872,-0.00271077894878,0.0258306181455,-0.0185761847143,0.574076647366,0.818786891119,0.00218558503373,0.0,0.81874617559,-0.574016454119,-0.0118556846341,0.0,-0.00845288013657,0.00859567656821,-0.99992732894,0.0,0.658555018114,0.256758730002,0.303488356948,1.0,-0.01134,-0.014904,0.568
0.462604447694,0.529391875612,-0.124039650672,-1.38446589378,0.0778249186192,1.90460218208,0.15560219197,-0.0097507390964,-0.063476184893,-0.00114240166469,-0.102358729237,-0.00987635743165,0.028134052744,-0.0106348654375,0.57408203925,0.818783139832,0.0021746351741,0.0,0.818742261111,-0.574021867773,-0.0118638985915,0.0,-0.00846583498861,0.00859148222906,-0.99992725539,0.0,0.658371565472,0.256515309031,0.303486835812,1.0,-0.01166,-0.0153245714286,0.584
0.462474752558,0.528306410656,-0.124037834625,-1.38614884626,0.0777196527505,1.90525082931,0.15536678182,-0.00101442623617,-0.0620553941,0.000417367865253,-0.0948113213384,-0.0146106537195,0.0408542437129,-0.019405819123,0.574057215178,0.818800434619,0.00221559718903,0.0,0.818760122497,-0.573996919191,-0.0118383051896,0.0,-0.0084216256161,0.00861007290604,-0.999927468803,0.0,0.658174514601,0.25627245361,0.303506284511,1.0,-0.012,-0.0157714285714,0.601
0.462316388793,0.527126825704,-0.124040379689,-1.38797289343,0.0776028014376,1.90595281319,0.155102496826,-0.0114433296291,-0.0648851624535,0.000394178603497,-0.10310337764,-0.00408077179189,0.0443283898446,-0.0183685768878,0.574039581191,0.818812677712,0.00225941250167,0.0,0.818773016167,-0.573979199723,-0.0118056420088,0.0,-0.0083699147126,0.00862701788002,-0.999927756936,0.0,0.657966002537,0.255994458479,0.303529306439,1.0,-0.01236,-0.0162445714286,0.619
0.462180823536,0.526093403982,-0.124043198226,-1.38957499709,0.0775011713652,1.90655886979,0.154895688909,-0.0104766115929,-0.0724790239028,0.00117005603482,-0.107976759239,-0.00699446633433,0.0355533021397,-0.00983514878857,0.57404235272,0.818810657462,0.002287228016,0.0,0.818771408336,-0.573981916602,-0.0117850416387,0.0,-0.00833705068615,0.00863799624124,-0.999927936707,0.0,0.657779385546,0.255751721107,0.303546523011,1.0,-0.01266,-0.0166388571429,0.634
0.462028714787,0.524861826069,-0.124054604542,-1.39153164076,0.077371352264,1.90724865774,0.154633812165,-0.00616208226981,-0.0658254274659,-0.00377897670204,-0.110815924238,-0.00926907464065,0.0366811555911,-0.0128511186797,0.574030642143,0.818818973792,0.00224876423958,0.0,0.818779297298,-0.573970430046,-0.0117963829361,0.0,-0.00836853911282,0.0086128927005,-0.999927890216,0.0,0.657538674996,0.255454817395,0.30354163853,1.0,-0.01302,-0.017112,0.652
0.461864799489,0.52366092024,-0.124064803715,-1.39342532596,0.0772605852427,1.90793300346,0.154378115126,-0.0118672975164,-0.0784808687424,-0.00576097671963,-0.111135875559,-0.0012140488522,0.0419299732229,-0.0176163874472,0.574034476652,0.818816305675,0.00224144533764,0.0,0.818776493785,-0.573974250949,-0.0118050570809,0.0,-0.00837980265568,0.00861191832394,-0.999927804279,0.0,0.657311920404,0.255160643976,0.303544331964,1.0,-0.01336,-0.0175588571429,0.669
0.461738687894,0.522665325777,-0.124060955371,-1.39501329429,0.0771674673669,1.90854727745,0.154158384049,-0.00930137587888,-0.0724269623561,0.000403389789227,-0.113015126679,-0.0108547923471,0.0475003012958,-0.0186725141067,0.574011928883,0.818832049016,0.00226448765957,0.0,0.818792522118,-0.573951602117,-0.0117945348025,0.0,-0.00835819770058,0.00862451528301,-0.999927876533,0.0,0.657110073913,0.254915362981,0.303545454786,1.0,-0.01366,-0.0179531428571,0.684
0.461558705583,0.521367286731,-0.12406926643,-1.39709648897,0.0770332476731,1.90935550259,0.153874864417,-0.011237861682,-0.0745047536895,-0.000589842444077,-0.114556040482,-0.00601093316137,0.0414448055011,-0.0157939874125,0.574011838049,0.818832094109,0.0022711975709,0.0,0.818792752997,-0.573951587373,-0.0117792144529,0.0,-0.00834180199192,0.00862121463567,-0.99992804191,0.0,0.656883015312,0.254611008683,0.303532247496,1.0,-0.014,-0.0184,0.701
0.46141398854,0.520234184038,-0.124074601024,-1.39888174027,0.0769285800848,1.91001405891,0.153629109562,-0.00627924656511,-0.0795842737743,-0.0005326998988,-0.122606919081,-0.00242849801146,0.045072036807,-0.0134015991725,0.573999865792,0.818840470506,0.00227702302025,0.0,0.818801163789,-0.57393955163,-0.0117810081984,0.0,-0.00834005329679,0.00862689231815,-0.999928007529,0.0,0.656666778035,0.254343601423,0.303535606617,1.0,-0.0143,-0.0187942857143,0.716
0.461246354123,0.518908381897,-0.124082954442,-1.40094020411,0.0768008020756,1.91075023216,0.153349088036,-0.00817462039306,-0.0789246795648,-0.00097082794004,-0.124807684235,-0.00260349236104,0.0410189482405,-0.0238083455018,0.573988553373,0.81884839879,0.00227756377707,0.0,0.81880909336,-0.573928232611,-0.0117813133479,0.0,-0.00834011199031,0.00862739504083,-0.999928002702,0.0,0.656413722469,0.254031091599,0.303550684919,1.0,-0.01464,-0.0192411428571,0.733
0.461085495867,0.517622054943,-0.124078732319,-1.40293922463,0.0766573642563,1.91146735876,0.153081530642,-0.0124538483816,-0.0788029090581,0.000751830631904,-0.130323550179,-0.00331538389022,0.0389989420275,-0.0173944263803,0.573965141459,0.81886482744,0.00227105097187,0.0,0.818825544702,-0.573904959435,-0.0117716515721,0.0,-0.0083361845148,0.00861627809895,-0.999928131307,0.0,0.656165442058,0.253733155271,0.303563874553,1.0,-0.01496,-0.0196617142857,0.749
0.460895763511,0.516278064716,-0.124087217273,-1.4050718076,0.0765254707033,1.91226103492,0.152780930989,-0.0137945825848,-0.0830474722465,-0.001022799783,-0.125327562355,-0.00895718186959,0.0522314279958,-0.0127031391,0.573957623076,0.818870096807,0.00227120445764,0.0,0.818830841309,-0.573897467494,-0.0117684759685,0.0,-0.00833357501632,0.00861450460684,-0.999928168339,0.0,0.655911187734,0.253400824576,0.303560673489,1.0,-0.0153,-0.0201085714286,0.766
0.460712221709,0.514914071502,-0.124089698099,-1.40726423927,0.0763978853589,1.91308497289,0.152485383316,-0.00862460609127,-0.0746043429914,-0.00153668687358,-0.129979467039,-0.0082882525565,0.0465826943883,-0.0138336199035,0.573949053453,0.818876112048,0.00226805173407,0.0,0.818836749906,-0.573888843097,-0.0117779316621,0.0,-0.00834321793452,0.00861726274868,-0.999928064161,0.0,0.655645335797,0.253072003977,0.30354507084,1.0,-0.01564,-0.0205554285714,0.783
0.46051966743,0.513505468507,-0.124090728356,-1.4095319537,0.0762644056272,1.91386310633,0.152174530101,-0.0139707715899,-0.0768904742099,3.41442451643e-05,-0.133780789452,-0.00275728199511,0.0475939730713,-0.0215758983889,0.573935813683,0.818885569867,0.00220275671434,0.0,0.818845189241,-0.573875683805,-0.0118322650238,0.0,-0.00842532478471,0.00859484287009,-0.999927568666,0.0,0.655355019682,0.252725862697,0.303520445567,1.0,-0.01598,-0.0210022857143,0.8
0.460324526449,0.512086778526,-0.124096719446,-1.41181210468,0.0761092665435,1.9146767458,0.151857035843,-0.0096990831444,-0.0870624937255,-0.000987616378176,-0.138736683251,-0.00788983582559,0.0489123961092,-0.0177164342893,0.573917205217,0.818898747336,0.00215175956103,0.0,0.818857782908,-0.573857359846,-0.0118494228941,0.0,-0.00846883755531,0.00856273759356,-0.999927476528,0.0,0.655071159896,0.252372775388,0.303499722848,1.0,-0.01632,-0.0214491428571,0.817
0.460123240825,0.510645061436,-0.12409934146,-1.41411333434,0.0759828037623,1.91555852876,0.151519517498,-0.0117489958208,-0.0863146231872,-0.00399597266924,-0.137378994535,-0.0089648842319,0.0470102638167,-0.0195494203366,0.573894010721,0.818914939537,0.00217558332679,0.0,0.818874167881,-0.573833955002,-0.0118505765365,0.0,-0.008456353394,0.00858266912723,-0.999927411304,0.0,0.654794846325,0.252024625416,0.303490488138,1.0,-0.01666,-0.021896,0.834
0.459900607139,0.508974681494,-0.124097901601,-1.41675192641,0.0758154671796,1.91653337636,0.151160247103,-0.0117819471609,-0.0887251152659,-1.33086647268e-05,-0.137709148991,-0.00613418114978,0.0584800027636,-0.0232677406503,0.573873229111,0.818929498164,0.00217734885192,0.0,0.818888742957,-0.573813162359,-0.0118502431565,0.0,-0.00845528504147,0.00858370903332,-0.999927411412,0.0,0.654468251171,0.251627721653,0.303488077885,1.0,-0.01704,-0.0223954285714,0.853
0.459666722817,0.507373610094,-0.124101116987,-1.41927922762,0.0756538588643,1.91743200569,0.150804294044,-0.0105049829667,-0.0944138008092,-0.000428058549046,-0.143177525731,-0.0132211955419,0.0569390528346,-0.0209254251111,0.573862716941,0.818936936333,0.00215018976262,0.0,0.818895802287,-0.573802733809,-0.0118673741899,0.0,-0.00848500966016,0.00857118998829,-0.999927267012,0.0,0.654153605155,0.251228934719,0.303483069177,1.0,-0.0174,-0.0228685714286,0.871
0.459477439521,0.505997923259,-0.124103597186,-1.42141805566,0.0755276310009,1.9182253194,0.150509026628,-0.0094660443798,-0.0914368092637,0.000338905192622,-0.143339740932,-0.00402998300332,0.051361994697,-0.0196614238846,0.573854257361,0.818942791564,0.00217769494738,0.0,0.818901949085,-0.573794098438,-0.0118607454717,0.0,-0.00846388645369,0.00858982330207,-0.999927286137,0.0,0.653890773993,0.250901453508,0.303495685436,1.0,-0.0177,-0.0232628571429,0.886
0.459234628559,0.504271161006,-0.124112689224,-1.4240456145,0.0753539042503,1.91923872733,0.150151027409,-0.017477997896,-0.0990764995216,-0.000453667612356,-0.146274076279,-0.00379541861521,0.0508860611103,-0.0151784498672,0.573854930004,0.818942088283,0.00226323858982,0.0,0.8189025315,-0.573794613475,-0.011795437717,0.0,-0.00836130726541,0.00862240790413,-0.99992786871,0.0,0.653580473931,0.250489070574,0.303539716321,1.0,-0.01806,-0.023736,0.904
0.459049141658,0.502898091303,-0.124115977448,-1.42608620664,0.0752181219314,1.92001994227,0.149861695427,-0.0158924092502,-0.0978776033376,0.000732355525332,-0.145050471336,-0.0125009750968,0.0575952048755,-0.0210019749256,0.573840253182,0.818952117596,0.00235368100191,0.0,0.818913853356,-0.573779718211,-0.0117338251011,0.0,-0.00825910550541,0.00866096989617,-0.999928384824,0.0,0.653336762076,0.250172999701,0.303595135086,1.0,-0.01834,-0.024104,0.918
0.458766912655,0.500903442011,-0.124119203904,-1.42907530888,0.0750307082642,1.92107619257,0.14944034946,-0.0111908672244,-0.0963541080239,0.000826083617902,-0.152505793626,-0.00783713682923,0.0524136572495,-0.0172454517022,0.573830412661,0.8189588565,0.0024074399239,0.0,0.818921226155,-0.573769612583,-0.0117134080982,0.0,-0.00821164152894,0.00869318082773,-0.999928496219,0.0,0.652962036501,0.249699965439,0.303656247876,1.0,-0.01874,-0.0246297142857,0.938
0.458584796499,0.499573118205,-0.124122609302,-1.43107101014,0.0748986396586,1.92180058346,0.14916098339,-0.0163162516846,-0.100010505462,-0.0016363856513,-0.152263480918,-0.00885314003983,0.065001836965,-0.0245489481878,0.573818941044,0.818966757911,0.0024534131729,0.0,0.818929772233,-0.573758026029,-0.0116834335002,0.0,-0.00816083527721,0.00871351629193,-0.999928735161,0.0,0.652713849682,0.249387767666,0.303697241218,1.0,-0.019,-0.0249714285714,0.951
0.458237427817,0.497306825884,-0.124120233943,-1.43463956948,0.074682680422,1.92312000686,0.148631316478,-0.0152925891613,-0.0975727092882,0.000397161751101,-0.154875544386,-0.0081036031713,0.0555453460425,-0.0237414072094,0.573790916154,0.818986343446,0.00246995726591,0.0,0.818949458223,-0.573729822795,-0.0116885504849,0.0,-0.00815583210241,0.00872972233022,-0.999928634629,0.0,0.65227263287,0.24882381566,0.303693202451,1.0,-0.01946,-0.025576,0.974
0.458057382629,0.496129140222,-0.124117775382,-1.43654458253,0.0745626288936,1.92379090268,0.148356412112,-0.0150233371892,-0.0988471939167,0.00153566358838,-0.160752151656,-0.0117288146039,0.0570114520844,-0.0200606275523,0.573775209197,0.818997492915,0.00242132416432,0.0,0.818959894862,-0.573714208182,-0.0117236870863,0.0,-0.00821268037525,0.00870989608602,-0.999928342228,0.0,0.652027282847,0.248523692911,0.303665287619,1.0,-0.0197,-0.0258914285714,0.986
0.457718050693,0.494059315553,-0.12412594354,-1.43993202224,0.0743540938294,1.92496782202,0.147889656933,-0.017291845901,-0.101073546332,-0.000433193371565,-0.162496086504,-0.00342687541218,0.0637220224929,-0.0275072147965,0.573790791202,0.818986924783,0.00230040602218,0.0,0.818947593839,-0.573730073552,-0.01180627583,0.0,-0.00834953417325,0.0086584110276,-0.999927655982,0.0,0.651592894897,0.247969758614,0.303597014875,1.0,-0.020652,-0.0271426285714,1.007
0.457520726097,0.49280239078,-0.124128402406,-1.44195500307,0.0742258287511,1.92572744283,0.147594735252,-0.0190159360189,-0.105355407106,-0.00219554109825,-0.169169225653,-0.0104081639158,0.061132336831,-0.0135728846184,0.573779604487,0.818994789042,0.00229082889444,0.0,0.818955342031,-0.573718933874,-0.0118101471088,0.0,-0.00835831795245,0.00865267468861,-0.999927632252,0.0,0.651342763418,0.247647365611,0.30357508224,1.0,-0.021996,-0.0289090285714,1.019
0.457164009017,0.490508632158,-0.124138847627,-1.44564174369,0.0740029727486,1.92703402514,0.147070418101,-0.0165451941967,-0.117918511798,-0.00167852226956,-0.19400927967,-0.0143878098249,0.0631082200184,-0.0310434315299,0.573773783316,0.818999066905,0.00221830782304,0.0,0.81895850553,-0.57371322128,-0.0118681443415,0.0,-0.00844748925497,0.00862649822613,-0.99992710907,0.0,0.650869616694,0.247055066592,0.303529785931,1.0,-0.024236,-0.0318530285714,1.039
0.456844973845,0.488528931774,-0.124157512936,-1.44884454076,0.0737987301195,1.92817353956,0.146612434343,-0.0212810420635,-0.125965346104,-0.00136185248742,-0.205326753508,-0.0155214575369,0.0765711475061,-0.0313410279137,0.573777269258,0.818996833946,0.00213966582036,0.0,0.818955235959,-0.573717009439,-0.0119105616107,0.0,-0.00852731375128,0.0085864653592,-0.999926776086,0.0,0.650462147115,0.246527605534,0.303481149271,1.0,-0.026028,-0.0342082285714,1.055
0.456492579429,0.486325235214,-0.124182976699,-1.45219741351,0.0735977470707,1.92949230567,0.146124296968,-0.0232428507629,-0.140771339374,-0.00355539588769,-0.214379053914,-0.00944662733619,0.0861171161452,-0.0291973860334,0.573796717564,0.818982831443,0.00227938908578,0.0,0.81894316867,-0.573736019776,-0.0118242548113,0.0,-0.00837625533231,0.00865157528851,-0.999927491667,0.0,0.650067523205,0.245972189363,0.303531220133,1.0,-0.02782,-0.0365634285714,1.071
0.456084379749,0.483855185077,-0.124213311958,-1.45598828397,0.0733573509846,1.9308405814,0.145546401035,-0.0258255221336,-0.146295242175,-0.00820328233991,-0.228229063621,-0.0165256128902,0.0773844641119,-0.0308077703324,0.573800823265,0.818979906267,0.00229679156773,0.0,0.818940496518,-0.573740085306,-0.0118120522269,0.0,-0.00835623291898,0.00865886762915,-0.99992759607,0.0,0.64959318156,0.245325541161,0.303559207345,1.0,-0.029724,-0.0390658285714,1.088
0.455708004495,0.48154473318,-0.124247893812,-1.45960481343,0.0731348115122,1.93207802997,0.144995548428,-0.0227096859469,-0.156511179471,-0.00707486801209,-0.248403133418,-0.0127791698173,0.0836584544881,-0.0423889070448,0.573799344687,0.818981108522,0.00223669865348,0.0,0.818940817826,-0.573738738821,-0.0118550991623,0.0,-0.00842598381534,0.00863433819283,-0.999927222852,0.0,0.649124958184,0.24471138855,0.303548754194,1.0,-0.031404,-0.0412738285714,1.103
0.455268692556,0.478930692771,-0.124259792818,-1.4636185742,0.0728985230892,1.93356104184,0.144406283789,-0.0233511777395,-0.16068162941,0.000624026595343,-0.249477722445,-0.0117581503321,0.0915647466174,-0.0394470789245,0.573816985927,0.818968535295,0.00231338705521,0.0,0.818929098433,-0.573755929801,-0.011832652282,0.0,-0.00836341138876,0.00868444404586,-0.999927314249,0.0,0.64862470511,0.244041164368,0.303578806476,1.0,-0.033196,-0.0436290285714,1.119
0.454781098685,0.476010298176,-0.124279979795,-1.46805139457,0.0726220530219,1.93520575259,0.143770515081,-0.0314210822106,-0.173537510226,-0.000313337712666,-0.266593201798,-0.00941550252357,0.0993970959234,-0.037349262082,0.573849914414,0.818945146518,0.00242273044953,0.0,0.818907154881,-0.573788462305,-0.0117736617885,0.0,-0.0082520072759,0.00874047439034,-0.999927751632,0.0,0.648074104764,0.243294148498,0.303633963403,1.0,-0.0351,-0.0461314285714,1.136
0.454262772109,0.472945805438,-0.124296867838,-1.4727844452,0.0723184122203,1.93688577265,0.143078865059,-0.0336461201193,-0.187632999683,-0.00236484384451,-0.288220700451,-0.0171518395008,0.0945328169583,-0.0424534114343,0.573864828004,0.818934679499,0.00242833170441,0.0,0.818896699309,-0.573803288022,-0.0117783452782,0.0,-0.00825246958464,0.00874789932898,-0.999927682887,0.0,0.647464506328,0.242494348721,0.303646919481,1.0,-0.037004,-0.0486338285714,1.153
0.453722318678,0.469736020754,-0.124296315766,-1.47770770096,0.0720148842445,1.93866539046,0.142336859773,-0.0319061905331,-0.195041792391,0.000851270449815,-0.285970111734,-0.0176478070303,0.114758642123,-0.0446389083473,0.573851805318,0.818943617786,0.00249064700835,0.0,0.818906248971,-0.573789823079,-0.0117703538013,0.0,-0.00821030629221,0.00879421449309,-0.999927623712,0.0,0.646828869798,0.241677148921,0.303675550231,1.0,-0.038908,-0.0511362285714,1.17
0.453196853845,0.466545874419,-0.12429495452,-1.48249475877,0.0717037707869,1.94047388543,0.141550655052,-0.0389812883314,-0.203899224402,-0.000289376702173,-0.309224079774,-0.0178452107362,0.10903260463,-0.0526222032168,0.573772335261,0.81899874224,0.00266728319603,0.0,0.818963767213,-0.573709835871,-0.0116670098344,0.0,-0.0080251742849,0.00887878671678,-0.999928379297,0.0,0.646185299574,0.240831990398,0.303758456448,1.0,-0.040812,-0.0536386285714,1.187
0.452597666254,0.463055571,-0.124300300897,-1.48793915682,0.0713364916777,1.94232660038,0.140727378485,-0.0368918483232,-0.202693415662,0.000393974900934,-0.329582611502,-0.0142740707415,0.109462627338,-0.0534472417867,0.573754098174,0.819011819118,0.00257330033002,0.0,0.818975456134,-0.573691751682,-0.0117355529176,0.0,-0.00813543200172,0.00884096160825,-0.999927823467,0.0,0.645490894064,0.239967252656,0.303730948853,1.0,-0.042604,-0.0559938285714,1.203
0.451963098681,0.459430976227,-0.12431023694,-1.49354832037,0.0709530077762,1.94428247482,0.139900851382,-0.0358561572117,-0.2177182755,0.000586391985356,-0.337526213901,-0.0214155889229,0.117623200058,-0.049443424722,0.573759538421,0.819008123001,0.00253642074226,0.0,0.818971272165,-0.573697316352,-0.0117554872198,0.0,-0.00817285910277,0.00882224849882,-0.999927683538,0.0,0.644744814576,0.239009331974,0.303726732009,1.0,-0.044508,-0.0584962285714,1.22
0.451281818613,0.455743927464,-0.124319478649,-1.49940245181,0.0705610553987,1.94637476553,0.138996833928,-0.0428399643898,-0.218000182687,-0.00139985161615,-0.348583692673,-0.0222604233573,0.12565855822,-0.0551948859249,0.573746542217,0.819017458114,0.00246079269537,0.0,0.818979576092,-0.573684551273,-0.0117998506885,0.0,-0.00825272385433,0.00878563164035,-0.999927349974,0.0,0.643971748821,0.238002355697,0.303657961611,1.0,-0.046412,-0.0609986285714,1.237
0.450569305629,0.451816635526,-0.124377268222,-1.50540317161,0.0701473666003,1.94851699432,0.138037758322,-0.0394848138085,-0.238893452354,-0.00995336541666,-0.356728810839,-0.0190855993761,0.133160581718,-0.0495182277611,0.573747140033,0.819016937269,0.00249452845855,0.0,0.818979773275,-0.573685322153,-0.0117485749642,0.0,-0.00819136523129,0.00878384875291,-0.999927870167,0.0,0.64319091008,0.236933527696,0.303686268362,1.0,-0.048316,-0.0635010285714,1.254
0.449817251844,0.447696334562,-0.12442035628,-1.51161159165,0.0697322858814,1.95072991168,0.137115585068,-0.0453282461053,-0.246089711096,0.000642570227269,-0.374169440191,-0.0267201772193,0.122477351395,-0.0557759059091,0.573806069176,0.818975365318,0.00258706010993,0.0,0.818939519358,-0.573744035145,-0.0116872866742,0.0,-0.00808744527537,0.00882505169844,-0.999928353279,0.0,0.642376227547,0.235831723879,0.303749788976,1.0,-0.05022,-0.0660034285714,1.271
0.449077805141,0.443747814361,-0.124442237782,-1.5177207377,0.0693208221373,1.95274641681,0.136197604481,-0.0478050632231,-0.240218155889,-0.00311901632268,-0.379303081851,-0.0303035886215,0.125919635687,-0.0576673850485,0.573835251377,0.818955307465,0.00246080336287,0.0,0.818917573402,-0.573773406583,-0.011782731975,0.0,-0.00823774596102,0.00877671106219,-0.999927551818,0.0,0.641528169107,0.234749243526,0.303721727151,1.0,-0.052012,-0.0683586285714,1.287
0.44827641531,0.439460216176,-0.124451912864,-1.52434463924,0.0688541389523,1.9550967862,0.135109091459,-0.048535724686,-0.251658315493,-0.000661946770056,-0.391669111063,-0.0157892924275,0.136361141159,-0.0647530919085,0.573771332816,0.819000113087,0.00245342687982,0.0,0.818962370548,-0.573709616736,-0.0117753213454,0.0,-0.00823659349852,0.00876577488445,-0.999927657242,0.0,0.640632097315,0.233592892805,0.303705257563,1.0,-0.053916,-0.0708610285714,1.304
0.447403783073,0.434992402648,-0.124463319696,-1.53108285018,0.06841238979,1.95753316055,0.134012304049,-0.0507586848159,-0.272105842502,-0.00416627338239,-0.393420358741,-0.0328250518355,0.139522859688,-0.0653651579408,0.573769964378,0.819000640944,0.00259326292788,0.0,0.818964635719,-0.573707651113,-0.0117133853945,0.0,-0.00810565142157,0.00884474963845,-0.99992803182,0.0,0.639736529389,0.23238982851,0.303760014334,1.0,-0.05582,-0.0733634285714,1.321
0.446500603311,0.430440166125,-0.124497963543,-1.53805172788,0.06789389099,1.96001225959,0.132901932978,-0.0572064129383,-0.270331999543,-0.000381071922827,-0.42335251713,-0.0329945159187,0.140328477027,-0.0653666215056,0.573782559868,0.81899177259,0.00260716741133,0.0,0.818956360752,-0.573720647285,-0.0116552547745,0.0,-0.00804992697902,0.00882290812382,-0.99992867494,0.0,0.638799762562,0.231120534871,0.303762265242,1.0,-0.057724,-0.0758658285714,1.338
0.445614157159,0.426012748611,-0.124545397573,-1.54493839506,0.067394158091,1.96222787695,0.131783340073,-0.0524903287989,-0.278518053764,-0.00326986681706,-0.429332774105,-0.0309774131997,0.140922135622,-0.0693172915904,0.573781291037,0.81899335775,0.00237842766921,0.0,0.818954910615,-0.573720141071,-0.0117813840405,0.0,-0.00828448291833,0.00870793041885,-0.999927767036,0.0,0.637817159792,0.229850535798,0.303691646469,1.0,-0.059516,-0.0782210285714,1.354
0.44462572402,0.421155404726,-0.124583230216,-1.55233436847,0.0668667007582,1.96473079909,0.130571549162,-0.0619685329209,-0.287727830118,-0.00241658166829,-0.439705462494,-0.0275331072136,0.148628318282,-0.0646783726854,0.573790826377,0.818986818955,0.00232912941713,0.0,0.818947746647,-0.573729879128,-0.0118051242785,0.0,-0.0083321104602,0.00868127444449,-0.999927603084,0.0,0.636784932289,0.228483799136,0.303689958229,1.0,-0.06142,-0.0807234285714,1.371
0.443595413985,0.416144762132,-0.124597397396,-1.55974825577,0.0663680617205,1.96746166793,0.129389372593,-0.0617088894928,-0.293774183239,2.8693349483e-05,-0.441730439777,-0.0250118911375,0.164680240671,-0.0740768845902,0.573848127972,0.818945851961,0.00260086138723,0.0,0.818910381047,-0.573786254121,-0.0116562985518,0.0,-0.00805369389393,0.00881898728555,-0.999928679196,0.0,0.635791121073,0.227125242138,0.303796278563,1.0,-0.063324,-0.0832258285714,1.388
0.442271852585,0.40985134033,-0.124626885524,-1.56931741738,0.0656929310307,1.97068458436,0.127750901862,-0.062670791509,-0.301968196553,-0.00429825615643,-0.462213162735,-0.0398167669395,0.149084419991,-0.0754552719957,0.5738151234,0.818969156614,0.00254392890613,0.0,0.818932754037,-0.573753246161,-0.0117091326016,0.0,-0.00812998751097,0.00880235354644,-0.999928208361,0.0,0.634430643038,0.225346946749,0.303781959696,1.0,-0.065676,-0.0863170285714,1.409
0.441366049814,0.4055392415,-0.124678928412,-1.57593741681,0.0652197739695,1.97283843613,0.126703998513,-0.0595447289128,-0.306901013992,-0.00233262901113,-0.471218551413,-0.0323103533325,0.15982829079,-0.0710695394164,0.573872375248,0.818929477768,0.0023988063417,0.0,0.818891064613,-0.573810893641,-0.0117995566257,0.0,-0.00828670307945,0.00873596886106,-0.999927504072,0.0,0.633468063667,0.224100564686,0.303732769289,1.0,-0.067244,-0.0883778285714,1.423
0.440208328303,0.400187023148,-0.124700858761,-1.58393061298,0.0646695898431,1.97567085459,0.125320855098,-0.065458264567,-0.321111931676,0.000211862591638,-0.464407865536,-0.0357547311408,0.178356066794,-0.0720523195285,0.573869199681,0.818931228472,0.00255569807211,0.0,0.818894797457,-0.573807076694,-0.0117258831725,0.0,-0.00813637092204,0.00882214090042,-0.999927982056,0.0,0.632350455063,0.222601410066,0.303783562218,1.0,-0.069148,-0.0908802285714,1.44
0.439147885851,0.39533035743,-0.124710379185,-1.59106056998,0.0641332538656,1.97820213082,0.124085326893,-0.0672251636035,-0.321410969118,-0.00166285791271,-0.482922547672,-0.0357320694014,0.166764620829,-0.0801890296892,0.573860705784,0.81893655725,0.00274817335057,0.0,0.818902938226,-0.57379826102,-0.0115879384103,0.0,-0.00791304164841,0.00890052110888,-0.999929079733,0.0,0.631352989024,0.221249621955,0.303877863848,1.0,-0.070828,-0.0930882285714,1.455
0.437916337253,0.389795052592,-0.124725595163,-1.59950642847,0.0634930766425,1.98091636121,0.122672326666,-0.0708481315982,-0.325166223891,-0.00262232466573,-0.495537077557,-0.0427355133225,0.163485788133,-0.0848983362572,0.573866634495,0.818933012304,0.00256009246821,0.0,0.818896791415,-0.573804662078,-0.0117047720702,0.0,-0.00811658752561,0.00881359935248,-0.99992821816,0.0,0.630091859921,0.219644181099,0.303812847671,1.0,-0.072732,-0.0955906285714,1.472
0.436668758969,0.384107691548,-0.124728075325,-1.60810081097,0.0628573630556,1.98371679293,0.121111576484,-0.0763567110654,-0.348686773709,0.000388407176324,-0.503599488071,-0.0348940361789,0.170868629781,-0.094644202547,0.573756904105,0.819010199377,0.00246073328043,0.0,0.818972392072,-0.573694992447,-0.0117908255234,0.0,-0.00824525474871,0.00878050922209,-0.999927456585,0.0,0.628799749632,0.218031053788,0.303778235759,1.0,-0.074636,-0.0980930285714,1.489
0.435430650985,0.37860586886,-0.124726091992,-1.61612379601,0.0622918052977,1.98656137403,0.11971512435,-0.0777996010364,-0.338870521001,-1.76049429061e-05,-0.508774864569,-0.0337494446871,0.175319700848,-0.0908680341917,0.573755910173,0.819010038376,0.00273120507858,0.0,0.818975662817,-0.573692934872,-0.0116630653706,0.0,-0.00798544830413,0.00892871508207,-0.999928252757,0.0,0.627569203377,0.216414069013,0.303883210493,1.0,-0.07654,-0.100595428571,1.506
0.433867717187,0.372042363003,-0.124762111029,-1.62605378295,0.0615115869451,1.98977304239,0.117937127008,-0.0861331185307,-0.355434638096,-0.00287686324329,-0.53526972256,-0.0355460738872,0.16761069779,-0.0846174691029,0.5737527812,0.819012778553,0.00256154878326,0.0,0.818976288725,-0.573690505571,-0.011738365503,0.0,-0.00814449193652,0.00883293763144,-0.999927820627,0.0,0.626071456549,0.214447530542,0.303822414943,1.0,-0.078668,-0.103392228571,1.525
0.432517927261,0.366353585539,-0.124833024491,-1.63452855348,0.0608683179194,1.99250319268,0.116506211977,-0.0825121753446,-0.356478482941,-0.00824198566116,-0.521318006201,-0.0452839995389,0.176966189094,-0.0938406699685,0.573856911263,0.818939966207,0.00251476555773,0.0,0.818902897362,-0.573794824765,-0.0117597051906,0.0,-0.00818769074726,0.00880790647893,-0.999927688637,0.0,0.624797866714,0.212750353376,0.303822926668,1.0,-0.08046,-0.105747428571,1.541
0.431038554302,0.360183762404,-0.124854574639,-1.64350095952,0.0601651760351,1.99561649637,0.114787926458,-0.0907443639901,-0.362376142001,-0.00102689751087,-0.543025838135,-0.0380677496762,0.184097208119,-0.0974870814876,0.573794508699,0.818983016684,0.00272526519909,0.0,0.81894901878,-0.573732057527,-0.0116093800891,0.0,-0.0079444660728,0.00889342303118,-0.999928893715,0.0,0.623471375797,0.210963677906,0.303911820447,1.0,-0.082364,-0.108249828571,1.558
0.429566480722,0.354332128622,-0.124887116471,-1.65225747633,0.059526168699,1.99837274695,0.113181423735,-0.0910859196174,-0.371053691121,-0.00235684877118,-0.545240800845,-0.0404647164558,0.173343671012,-0.108233983025,0.573828465497,0.818959634379,0.00259929690501,0.0,0.818923502916,-0.573765899756,-0.0117360790231,0.0,-0.00812014339633,0.0088632921892,-0.999927750051,0.0,0.622197725554,0.20930285122,0.303862768771,1.0,-0.084044,-0.110457828571,1.573
0.427962729893,0.348027128988,-0.124943863358,-1.66165584929,0.0588133891051,2.00139430278,0.111425721104,-0.0940325926356,-0.380884161272,-0.00522719778933,-0.550891983631,-0.0435489528675,0.184153353677,-0.104108771079,0.573859915882,0.818937939861,0.00248887555662,0.0,0.818900159308,-0.573797523293,-0.0118185552614,0.0,-0.00825071151951,0.00882050554004,-0.999927059561,0.0,0.620827941083,0.207488717227,0.303810104079,1.0,-0.085836,-0.112813028571,1.589
0.42631732396,0.341487766157,-0.12495747758,-1.67102152388,0.0580812210718,2.00453927081,0.109672146485,-0.0974479453921,-0.383514849466,-0.000170914688009,-0.563152158971,-0.0423963377377,0.174284064286,-0.106578220755,0.573877170994,0.818924941153,0.00277132999727,0.0,0.818891026322,-0.573813974779,-0.0116514488146,0.0,-0.00795158724638,0.00895609018193,-0.999928277782,0.0,0.619325239457,0.205480452796,0.303949748885,1.0,-0.087852,-0.115462628571,1.607
0.424719531276,0.335358761279,-0.12495826506,-1.68017035936,0.0573408966762,2.00735258352,0.107918105795,-0.0983091446406,-0.392143835452,-0.000376519557195,-0.580048416137,-0.0405306120969,0.174929805454,-0.108942520155,0.573827004632,0.818960724997,0.00257809397204,0.0,0.818923986783,-0.573764156027,-0.0117874522634,0.0,-0.00817439992201,0.00887539229724,-0.999927200649,0.0,0.617855761043,0.203619059538,0.303872797019,1.0,-0.089644,-0.117817828571,1.623
0.423007130343,0.328638800591,-0.124948673325,-1.68983795213,0.0565387304146,2.01046119394,0.106027333998,-0.103305712548,-0.412427660049,0.00222216862585,-0.558389227353,-0.0509426790558,0.19041017622,-0.110226531254,0.573740550893,0.819020960877,0.00268194075111,0.0,0.818985738055,-0.573677519137,-0.0117137440963,0.0,-0.00805538791979,0.00891729290179,-0.9999277937,0.0,0.61632367637,0.201657980638,0.30394959845,1.0,-0.091548,-0.120320228571,1.64
0.42120875999,0.321918023832,-0.124956478622,-1.69965086823,0.0557759822755,2.01366352571,0.10411607903,-0.107573893306,-0.396776543846,-0.00361715784845,-0.593622594981,-0.0426142566143,0.185840214692,-0.111521635322,0.573732797001,0.81902611486,0.002765451833,0.0,0.818991791662,-0.573669266227,-0.0116946602153,0.0,-0.00799193126637,0.0089746652569,-0.999927789602,0.0,0.614770953568,0.199636169307,0.303955744959,1.0,-0.093452,-0.122822628571,1.657
0.41935047139,0.315074318039,-0.125009522533,-1.70969610124,0.0549517292234,2.01670275811,0.102139433991,-0.104778845177,-0.40155656206,-0.00372360903913,-0.587119912246,-0.0523843457008,0.176984220961,-0.123445982403,0.573732348058,0.819026955343,0.00260501722729,0.0,0.818990307218,-0.573669129162,-0.0118048222989,0.0,-0.00817420708042,0.00890646375227,-0.999926925951,0.0,0.613127176732,0.197516597513,0.303906901561,1.0,-0.095356,-0.125325028571,1.674
0.417422998798,0.30805193833,-0.125049830935,-1.71964069549,0.054083406566,2.01993580838,0.100072703748,-0.112115653873,-0.416452726687,0.000403691246262,-0.585198056529,-0.0513998542068,0.185349385842,-0.121035993243,0.573677886972,0.819064432365,0.00280794142565,0.0,0.819031119735,-0.573614735956,-0.011614925778,0.0,-0.00790284816421,0.00896319005686,-0.999928600559,0.0,0.611550203928,0.195387789726,0.304023510544,1.0,-0.09726,-0.127827428571,1.691
0.415522459327,0.301438452499,-0.125071164439,-1.7292686187,0.0533007600599,2.02287436581,0.0980861978816,-0.118797618235,-0.411299864884,-0.00141402111282,-0.602001172563,-0.0522024199047,0.183625334117,-0.123740960082,0.573663444921,0.819074795271,0.00273470557815,0.0,0.819040179667,-0.573600150233,-0.0116960952995,0.0,-0.00801150357866,0.00894962837776,-0.999927857379,0.0,0.609962554402,0.193319682845,0.30398922514,1.0,-0.099052,-0.130182628571,1.707
0.413431272684,0.294357120659,-0.125159610561,-1.73959845718,0.0524669554336,2.02595422928,0.0960323806366,-0.12155505238,-0.427519710859,-0.00959828493583,-0.598918004691,-0.0476996450243,0.186761423208,-0.12622367494,0.573798427545,0.818980732969,0.00258272622357,0.0,0.818943695782,-0.573735175502,-0.0118287121349,0.0,-0.00820584443907,0.00890257518376,-0.99992670145,0.0,0.608246198545,0.191036140629,0.303925650442,1.0,-0.100956,-0.132685028571,1.724
0.411298175734,0.287070690438,-0.125214933213,-1.74982561109,0.0516033915322,2.02928942525,0.0938273313893,-0.123972147704,-0.414269655468,-0.000494282193771,-0.607906953681,-0.0509291244741,0.185195972264,-0.130678159178,0.573795968676,0.818981478111,0.00287606401601,0.0,0.818948748506,-0.573732231556,-0.0116198406176,0.0,-0.00786649507281,0.00902294044913,-0.999928349834,0.0,0.606599447572,0.188779362586,0.304047804786,1.0,-0.10286,-0.135187428571,1.741
0.409091922457,0.279786911467,-0.125241811148,-1.76046501559,0.0506557312043,2.03231393727,0.0915792549116,-0.126501436158,-0.427292197946,-0.00132740044438,-0.624522849296,-0.0583275459306,0.182313606429,-0.13248888543,0.573766617279,0.819003077506,0.00256414387583,0.0,0.818965958328,-0.573703612028,-0.0118182717951,0.0,-0.00820830040292,0.00888104736422,-0.999926872727,0.0,0.604760179509,0.186432966025,0.303934025787,1.0,-0.104764,-0.137689828571,1.758
0.406810195644,0.272287049286,-0.125310841043,-1.77093442706,0.0497626727699,2.03558170146,0.0893191775544,-0.130077973892,-0.443648599087,-0.00521605482595,-0.607897735255,-0.0604612592109,0.203826530744,-0.139717269488,0.57382861842,0.818958919251,0.00278427046287,0.0,0.81892493439,-0.573765115774,-0.0116743589117,0.0,-0.007963456414,0.00897936263192,-0.999927974611,0.0,0.603023867242,0.18406831166,0.30404293829,1.0,-0.106668,-0.140192228571,1.775
0.404587277565,0.265251785353,-0.125397976012,-1.78092942043,0.0489053135173,2.03859000806,0.0871304695794,-0.136571726799,-0.444130706989,-0.00423498370102,-0.623165012321,-0.046972222103,0.178635605869,-0.130778069638,0.57390474241,0.818905522375,0.00279981499316,0.0,0.818871724914,-0.573841160168,-0.0116691017287,0.0,-0.00794939581338,0.00898981523646,-0.999927992572,0.0,0.601332212977,0.181773722968,0.304045545294,1.0,-0.10846,-0.142547428571,1.791
0.402155045258,0.257677466596,-0.125476819331,-1.7917523979,0.0479244582433,2.04164612462,0.0847521685619,-0.142585987056,-0.451583422454,-0.00147522981734,-0.625827962083,-0.0513372460472,0.172424031715,-0.143861231621,0.573958240711,0.818868682944,0.0026009448239,0.0,0.818832151089,-0.573895192226,-0.0117882816527,0.0,-0.00816054205718,0.00889588991687,-0.999927131693,0.0,0.599439619396,0.179276219992,0.303988260604,1.0,-0.110364,-0.145049828571,1.808
0.399705259002,0.249943718079,-0.12546815812,-1.80246988951,0.046937614322,2.04491582109,0.0823386054611,-0.146897083238,-0.449826295958,0.00501509121706,-0.642721701522,-0.0650349752342,0.189358673899,-0.155402677281,0.57391323608,0.818899588826,0.00279423931405,0.0,0.818865989059,-0.573849977236,-0.011637976196,0.0,-0.00792701237444,0.00896746877119,-0.999928370924,0.0,0.597591340737,0.176855034559,0.304080360098,1.0,-0.112268,-0.147552228571,1.825
0.396871590039,0.241300147722,-0.125474881333,-1.8147874692,0.045890099838,2.04838175502,0.0795019652259,-0.155875968039,-0.453006949431,0.00170223511357,-0.655695241733,-0.0570668773898,0.184267378027,-0.146288229906,0.573857180203,0.818939391947,0.0026374130592,0.0,0.818902728395,-0.57379334738,-0.0118432609855,0.0,-0.00818574048337,0.00895629754013,-0.999926386484,0.0,0.595376215909,0.174061617488,0.303990249505,1.0,-0.114396,-0.150349028571,1.844
0.394590213356,0.234254960674,-0.125481273917,-1.82429264429,0.0450546603108,2.0512412045,0.0772923709619,-0.152505210525,-0.470928522136,-0.000139073871386,-0.633565163241,-0.0562376552075,0.192369812013,-0.148305717439,0.573856245327,0.818938939881,0.00296130841201,0.0,0.818906628311,-0.573791420308,-0.0116656328618,0.0,-0.00785441887106,0.00911960694118,-0.999927567814,0.0,0.593712057218,0.171870674205,0.304153341847,1.0,-0.116076,-0.152557028571,1.859
0.391937047382,0.226319974448,-0.125462787305,-1.83544103274,0.0439953150509,2.05436539426,0.0746196325604,-0.161831439724,-0.466832869415,0.00243818657402,-0.668258648183,-0.0611891905645,0.174792187592,-0.158725795658,0.573708037664,0.81904316619,0.0028506733156,0.0,0.819009277831,-0.573643452282,-0.0117362422508,0.0,-0.00797737251928,0.0090680789934,-0.999927063076,0.0,0.59167653764,0.169316307282,0.304105977868,1.0,-0.11798,-0.155059428571,1.876
0.388980029707,0.217783193113,-0.125530121431,-1.84721336272,0.0428956930012,2.05766450958,0.0717620803898,-0.162523717887,-0.484359430745,-0.00303308805962,-0.637847168825,-0.0484750555318,0.198702352991,-0.170940392706,0.573713837645,0.819039032076,0.0028711202248,0.0,0.81900540528,-0.573649175171,-0.0117267578452,0.0,-0.00795780985869,0.00907944103722,-0.99992711585,0.0,0.589544705893,0.166497393341,0.304134617313,1.0,-0.119996,-0.157709028571,1.894
0.38628308721,0.21012644692,-0.125577209307,-1.85771135691,0.0419412210504,2.06067290214,0.069204452351,-0.169625211458,-0.478243651521,-0.00336198155781,-0.663716926168,-0.0603789343588,0.183804807968,-0.167584397804,0.57375003936,0.819013224855,0.00299612212654,0.0,0.818981153221,-0.573684864144,-0.0116745116322,0.0,-0.00784290050547,0.00915219527096,-0.999927360478,0.0,0.587641742198,0.163978178197,0.304175413598,1.0,-0.121788,-0.160064228571,1.91
0.383311967004,0.201971115706,-0.125621760287,-1.86908555549,0.040827014604,2.0635894107,0.0663597837204,-0.171722416061,-0.483659584622,-0.00553797025099,-0.663239572476,-0.0713545960024,0.178496105123,-0.168876541773,0.573719824935,0.819035373256,0.0027141727495,0.0,0.818999159263,-0.573655117435,-0.0118714054695,0.0,-0.00816625914826,0.00903393979899,-0.999925847322,0.0,0.585490492845,0.161210229672,0.304086415136,1.0,-0.123692,-0.162566628571,1.927
0.380455460781,0.194130202005,-0.125702142409,-1.87961598071,0.0398370409628,2.0666454544,0.0636828867435,-0.180052562502,-0.48539106461,-0.00240893859071,-0.661483564684,-0.0625558979521,0.182746716315,-0.162716758957,0.573781639262,0.818991117248,0.00298784485395,0.0,0.818958882874,-0.573716423433,-0.0116859122846,0.0,-0.00785663395921,0.0091522602001,-0.999927252072,0.0,0.583577847642,0.158605319995,0.304193605763,1.0,-0.125484,-0.164921828571,1.943
0.37744956463,0.186297300595,-0.125806271827,-1.89042686511,0.0388322871642,2.06945669868,0.0608740900557,-0.183373966882,-0.49161504077,-0.0110761833912,-0.683499205555,-0.0650552678669,0.165560172975,-0.171502528575,0.573865726975,0.818932687536,0.00285089282142,0.0,0.818898000729,-0.573800210748,-0.0118376284904,0.0,-0.00805853316365,0.00912797545285,-0.999925867306,0.0,0.581532159591,0.155875548992,0.304127832056,1.0,-0.127276,-0.167277028571,1.959
0.374201052131,0.177807525815,-0.125932175782,-1.9017454071,0.0377063021446,2.07253499373,0.0578803538557,-0.19055560597,-0.505527745369,-0.00189404710352,-0.659385840272,-0.0644488705938,0.187234551546,-0.172433527911,0.57396635808,0.818861590895,0.00301025762679,0.0,0.818829454951,-0.573900816825,-0.0117014124551,0.0,-0.00785439912939,0.0091812814712,-0.999927003578,0.0,0.57942030288,0.152966779807,0.304224345326,1.0,-0.12918,-0.169779428571,1.976
0.370931849689,0.169320572371,-0.125931989695,-1.91327003179,0.0365215470519,2.07552287713,0.0548030136991,-0.19135558299,-0.507784243471,-0.000676396622244,-0.673400033777,-0.0680287284966,0.167599832203,-0.186196279442,0.573882081709,0.818920961156,0.00292618766261,0.0,0.818887703727,-0.573816807875,-0.0117450664319,0.0,-0.00793933828433,0.00913667817883,-0.999926741326,0.0,0.577184009966,0.150107075709,0.304193912381,1.0,-0.131084,-0.172281828571,1.993
0.367541324432,0.160749198432,-0.12595883884,-1.92482184474,0.035392031004,2.07848643249,0.0516006016874,-0.202361424779,-0.514525024698,-0.00226273571981,-0.659684167987,-0.0680529456995,0.182666523815,-0.182625335163,0.573826339935,0.818960085071,0.00290818819783,0.0,0.818926125736,-0.57376060051,-0.0118118919609,0.0,-0.00800501835975,0.00915974237881,-0.999926006663,0.0,0.574929483541,0.147187224626,0.304178575521,1.0,-0.132988,-0.174784228571,2.01
0.364064718639,0.152060584284,-0.125982951858,-1.9363403374,0.0341694455079,2.08153052372,0.0484180414866,-0.206794858309,-0.507528300302,0.000199204809742,-0.683996689261,-0.065523094861,0.16237382408,-0.187630951093,0.573804593282,0.818974911056,0.00302170318501,0.0,0.818943027711,-0.57373915637,-0.0116809551086,0.0,-0.0078328905424,0.00917736514315,-0.999927208248,0.0,0.572692618709,0.144235688215,0.304233251045,1.0,-0.134892,-0.177286628571,2.027
0.360472230618,0.143301201006,-0.126017682873,-1.94812116604,0.0330027071903,2.08428237294,0.0451298018641,-0.215117974834,-0.515275298279,-0.0030703524184,-0.693091807786,-0.078263483684,0.16305004476,-0.197009296369,0.573812495395,0.818970104489,0.00281691031157,0.0,0.818934448139,-0.573746518334,-0.0119184416653,0.0,-0.00814481174512,0.00914599173334,-0.999925003626,0.0,0.570302297253,0.141206440041,0.304161391645,1.0,-0.136796,-0.179789028571,2.044
0.357028595013,0.134950233789,-0.126113767353,-1.95894118409,0.0318921301246,2.08716243833,0.0419169424746,-0.213583597641,-0.515371352072,-0.00642166280977,-0.684606614014,-0.0714572099247,0.178467606221,-0.199850277938,0.57380586488,0.818973652488,0.00311975338851,0.0,0.818942552063,-0.573739518679,-0.0116964963939,0.0,-0.00778934653452,0.00926659544182,-0.99992672546,0.0,0.568192419297,0.138340058217,0.304284815016,1.0,-0.138588,-0.182144228571,2.06
0.353227753898,0.126063730301,-0.12618728244,-1.97077752515,0.030610172336,2.08988854302,0.0384559684378,-0.226212601437,-0.528247755805,-0.00221071499214,-0.699949377517,-0.0692632202008,0.154346935038,-0.20224537649,0.573802623624,0.818976730682,0.00290010773297,0.0,0.818942413788,-0.573736628251,-0.0118469913233,0.0,-0.00803866695936,0.00917303253977,-0.999925614887,0.0,0.56576347943,0.135196449334,0.304215504795,1.0,-0.140492,-0.184646628571,2.077
0.349518683847,0.117532705216,-0.126319987492,-1.98170676256,0.0294451399128,2.09263619943,0.0351675792945,-0.229711490525,-0.527900191779,-0.00686231292435,-0.686739625837,-0.0746182972741,0.169478413497,-0.208879787414,0.573925105307,0.818889879265,0.00317585207146,0.0,0.818859827896,-0.573858941773,-0.0116294499914,0.0,-0.00770089605657,0.00927518956779,-0.999927330889,0.0,0.563451849356,0.131996624597,0.304355876464,1.0,-0.142396,-0.187149028571,2.094
0.345506149147,0.108527437804,-0.126373841699,-1.99354046983,0.0281532823154,2.09537390487,0.0314924328508,-0.235287307365,-0.532602845014,-0.00375749224286,-0.693884078432,-0.0736066450828,0.161809794052,-0.213622119259,0.573883687183,0.818919545593,0.00300638190631,0.0,0.818886909015,-0.573817644827,-0.0117595761456,0.0,-0.00790518396787,0.0092106930391,-0.999926332887,0.0,0.560975105225,0.128792243882,0.304277859932,1.0,-0.1443,-0.189651428571,2.111
0.341446574732,0.0993559193501,-0.126370584557,-2.00528745007,0.0268408874149,2.09812397022,0.0278015213528,-0.236917092791,-0.55094244365,-0.000258638654135,-0.69340643117,-0.0720817752763,0.168691325953,-0.21941842048,0.573788440991,0.818985784191,0.00313961462376,0.0,0.818955291899,-0.573722449071,-0.011641658099,0.0,-0.00773323398514,0.0092512309767,-0.999927303266,0.0,0.558678119257,0.12581933464,0.304361096616,1.0,-0.146092,-0.192006628571,2.127
0.337275087513,0.0902098225305,-0.126382859651,-2.01715617053,0.0256435201209,2.100824252,0.0240191263974,-0.250121766741,-0.542925118951,-0.00309331353504,-0.702199897763,-0.0692386667026,0.153339270805,-0.232070387776,0.573757632593,0.819007274845,0.00316380993355,0.0,0.818976106005,-0.573690379014,-0.0117572837093,0.0,-0.00781440402191,0.00933709577432,-0.999925874119,0.0,0.556158877528,0.122616811412,0.304328736397,1.0,-0.147996,-0.194509028571,2.144
0.333177103512,0.0815090793013,-0.126489485139,-2.02835184313,0.0243747574845,2.10319777297,0.0202834833362,-0.255555009832,-0.563290137067,-0.0102151253876,-0.690460053027,-0.0744926649345,0.166969019945,-0.242902409595,0.573707779477,0.81904246169,0.00309461096604,0.0,0.819010220433,-0.573640569377,-0.0118111342506,0.0,-0.00789877815133,0.0093108368759,-0.999925456032,0.0,0.553617584544,0.119263785902,0.304333000751,1.0,-0.1499,-0.197011428571,2.161
0.328477293204,0.0716055559547,-0.126592814419,-2.04084797871,0.0229744320966,2.10606184042,0.0161146712783,-0.267485303526,-0.543856920851,-0.00502200598707,-0.705149026991,-0.0709440789211,0.149152318472,-0.228054956801,0.573783559314,0.818988865754,0.00322672184892,0.0,0.81895863026,-0.573716227694,-0.0117131935774,0.0,-0.00774190149096,0.00936356988516,-0.999926190536,0.0,0.551101336204,0.115907091548,0.30437174727,1.0,-0.151804,-0.199513828571,2.178
0.323820078395,0.0622018045745,-0.126739178647,-2.05289213048,0.0215842638798,2.10841417559,0.0119755634349,-0.279932260732,-0.557248715275,-0.011019007173,-0.703092148399,-0.0829637196936,0.142501471858,-0.246591072263,0.5738447815,0.818946904688,0.00298009192687,0.0,0.818912716137,-0.573777437553,-0.0119231876952,0.0,-0.0080547032255,0.00928267293211,-0.999924474018,0.0,0.548441949145,0.112403049554,0.304297095477,1.0,-0.153708,-0.202016228571,2.195
0.319085346291,0.0526868866502,-0.12685260659,-2.06465017558,0.0202237103024,2.1110546809,0.007794984048,-0.284724314298,-0.5489676529,-0.000260498862449,-0.70174564243,-0.0760712575441,0.151958614415,-0.24568326481,0.573905791683,0.818903084171,0.00326004741075,0.0,0.81887332947,-0.573838390424,-0.0116926840085,0.0,-0.00770458297499,0.00938024554905,-0.999926322483,0.0,0.545911121085,0.108943586297,0.304413203035,1.0,-0.155612,-0.204518628571,2.212
0.314602768607,0.0437558609624,-0.126853221698,-2.07604120447,0.0189506639229,2.11323771649,0.00383719931041,-0.28109897135,-0.555081445039,0.000476623010892,-0.7136987605,-0.0843966675286,0.131598818294,-0.248982880475,0.57387059881,0.818928493032,0.00306692415223,0.0,0.818894986511,-0.573802405562,-0.0119393190552,0.0,-0.00801779447283,0.00936329326024,-0.999924018969,0.0,0.543318834338,0.105729191998,0.304309111314,1.0,-0.157404,-0.206873828571,2.228
0.309642061434,0.0340726058863,-0.126902935167,-2.08780188316,0.0175393561755,2.11569823475,-0.00061826425975,-0.295624955803,-0.559019129464,-0.00571992946973,-0.698233873831,-0.0923757118812,0.147769164038,-0.258920170665,0.573789238369,0.818984463873,0.00333238173609,0.0,0.818955240583,-0.57372111361,-0.0117108761571,0.0,-0.007679315721,0.00944882811641,-0.999925871131,0.0,0.540709183632,0.102234668149,0.304447018961,1.0,-0.159308,-0.209376228571,2.245
0.304554500381,0.02443691224,-0.127027017256,-2.09981764859,0.0160670633577,2.11796018496,-0.00510138287675,-0.300902763723,-0.565874880699,-0.00614850745422,-0.705382492295,-0.0923151993275,0.118778911146,-0.268321854287,0.573810340945,0.818970192311,0.00320369037453,0.0,0.818939109711,-0.573742424326,-0.0117945757182,0.0,-0.00782146344933,0.0093916576758,-0.999925307948,0.0,0.537959553257,0.0986352256803,0.304396811158,1.0,-0.15998,-0.210259428571,2.262
0.299325362662,0.0147352055602,-0.127150236347,-2.11152582502,0.0146258317832,2.12017256231,-0.00967138106356,-0.312589964997,-0.570873659974,-0.00767431898837,-0.680122030138,-0.0866178565019,0.138130454964,-0.26618151298,0.573872452117,0.818926146654,0.00333495578289,0.0,0.818897198007,-0.57380460451,-0.0116791198204,0.0,-0.00765087090974,0.00943349269995,-0.999926233974,0.0,0.535283786712,0.0950192828725,0.304490104365,1.0,-0.15998,-0.210259428571,2.279
0.294319356765,0.00576214210305,-0.127237151723,-2.12259056084,0.0133329672051,2.12212491146,-0.0140365997094,-0.32083159066,-0.568399508243,0.00055737248491,-0.691668294601,-0.0737811217844,0.119579557682,-0.274986900976,0.573931926473,0.81888478025,0.00325689291401,0.0,0.818853854497,-0.573863161433,-0.0118399251196,0.0,-0.00782667430341,0.00946241253029,-0.999924600117,0.0,0.532529862459,0.091409828625,0.304434261245,1.0,-0.15998,-0.210259428571,2.296
0.288385177236,-0.00494347634203,-0.127241750789,-2.13543079318,0.0117828604863,2.12440864689,-0.0193100892342,-0.315032525906,-0.568856657364,0.00203466263427,-0.667562940778,-0.0854730330504,0.121593595724,-0.282896866261,0.573831048949,0.818954970682,0.00338085167343,0.0,0.818925589458,-0.573761783201,-0.0117916059022,0.0,-0.00771713935987,0.00953523911608,-0.999924759657,0.0,0.529660959066,0.0877010057482,0.304497409349,1.0,-0.15998,-0.210259428571,2.314
0.283318409767,-0.0138454352388,-0.127244031546,-2.14616580566,0.0104250248896,2.1263182239,-0.0237377761593,-0.327677836864,-0.554150385118,-0.000642221357224,-0.682100397389,-0.084380856161,0.109156537197,-0.28345985492,0.573771151472,0.818996799419,0.00341396856439,0.0,0.818968042968,-0.573702022476,-0.0117507831395,0.0,-0.00766540069459,0.00953837516988,-0.999925127713,0.0,0.52710557548,0.0843961724206,0.304496912658,1.0,-0.15998,-0.210259428571,2.33
0.277775506796,-0.0232750904332,-0.127308754708,-2.1575358104,0.00896534189037,2.12798921373,-0.0285952947534,-0.325315993545,-0.554920272858,-0.00651624504191,-0.652325548512,-0.0831884951083,0.103305719669,-0.278498563282,0.573741542081,0.819018403567,0.00320068905225,0.0,0.81898604831,-0.573672170111,-0.0119516030711,0.0,-0.00795258974488,0.00947863334817,-0.999923452983,0.0,0.524314846529,0.0807937365151,0.304439807313,1.0,-0.15998,-0.210259428571,2.347
0.271772935417,-0.0332594706611,-0.127486087188,-2.16919065983,0.00742583444702,2.13006002462,-0.0337250984382,-0.336310300206,-0.540963104137,-0.00501854390697,-0.659199133699,-0.0914096028759,0.0993010856703,-0.28476094661,0.573909563128,0.818899637559,0.00345598859036,0.0,0.818871865236,-0.573840824412,-0.011675763978,0.0,-0.0075782374525,0.00953102792884,-0.999925862164,0.0,0.52153798725,0.0769242838963,0.304550060612,1.0,-0.15998,-0.210259428571,2.365
0.26676732157,-0.0415101884892,-0.127533378047,-2.1790615068,0.00624137473476,2.13142393936,-0.0381288306337,-0.334630510218,-0.540065797642,-0.00079307108389,-0.666492916239,-0.0795834981122,0.0819528977169,-0.297083366007,0.573895354601,0.818910148799,0.00332220749118,0.0,0.818879168501,-0.573825262532,-0.0119257023277,0.0,-0.00785986340864,0.00956477582578,-0.999923365869,0.0,0.519054844647,0.0737783998621,0.304478875784,1.0,-0.15998,-0.210259428571,2.38
0.26036755908,-0.0519296898333,-0.127548765456,-2.19103109889,0.00467566076506,2.13336128192,-0.0436934519275,-0.343271840445,-0.550075396636,-0.00263653191757,-0.628891636419,-0.0859150163511,0.108816371538,-0.301937824319,0.573859814349,0.818933896332,0.00359636145997,0.0,0.818907433998,-0.573789978237,-0.0116799965299,0.0,-0.0075017333351,0.00964795352813,-0.999925317706,0.0,0.516103811769,0.0698509219935,0.304602919635,1.0,-0.15998,-0.210259428571,2.399
0.255554546714,-0.0594850651681,-0.127574918482,-2.19994810289,0.00347823314153,2.13457073691,-0.0479118205569,-0.349425591635,-0.542281007199,-0.00608906372568,-0.641598064948,-0.0805112167047,0.0826840748993,-0.301588201966,0.573798993873,0.818977066304,0.00346791001342,0.0,0.818948564058,-0.5737291203,-0.0117852810354,0.0,-0.00766238145121,0.00960260720632,-0.999924536075,0.0,0.513830733166,0.0669136315466,0.304546573873,1.0,-0.15998,-0.210259428571,2.413
0.250012691946,-0.0681392219572,-0.127617768621,-2.21011027486,0.00215961612902,2.13583000844,-0.0527826603939,-0.352125727421,-0.548995187921,-0.00719815346897,-0.620422701266,-0.0849494494945,0.082087268484,-0.295543096048,0.573744444003,0.819015942897,0.0033083466927,0.0,0.8189842759,-0.57367381063,-0.0119942372485,0.0,-0.00792571226985,0.0095912955641,-0.999922592071,0.0,0.511194637239,0.0635672012304,0.304472733192,1.0,-0.15998,-0.210259428571,2.429
0.243223601731,-0.0783888893871,-0.127813386003,-2.22168937419,0.000620787367541,2.13750760351,-0.0586584690478,-0.359974646296,-0.533457941064,-0.0117207781391,-0.614822443191,-0.0779272939095,0.0833873426052,-0.316431848654,0.573894799788,0.818909471624,0.00357532693164,0.0,0.81888200761,-0.573824095234,-0.0117861038071,0.0,-0.0076002896286,0.0096919411802,-0.99992414806,0.0,0.508257105395,0.0594869275195,0.304577694684,1.0,-0.15998,-0.210259428571,2.448
0.237201509531,-0.0874527777782,-0.127829592741,-2.23224412351,-0.000754345833007,2.13868221266,-0.0639332369596,-0.35556775537,-0.525388334597,0.000473414782436,-0.623335608248,-0.0773923826377,0.0736194159254,-0.319341091494,0.57382896726,0.818956416018,0.00338406523887,0.0,0.818925026597,-0.57375717144,-0.0120522170029,0.0,-0.00792876139553,0.00968739346404,-0.999921641505,0.0,0.505444561305,0.0559710046723,0.30447386421,1.0,-0.15998,-0.210259428571,2.465
0.23142603728,-0.0960406258921,-0.127861810272,-2.24177522346,-0.0020827827327,2.13988666377,-0.0690022088486,-0.362668165877,-0.538368195787,-0.0063781718431,-0.597732550737,-0.0868255967694,0.0818422850256,-0.315563142702,0.573760647066,0.819003531718,0.00356115333674,0.0,0.818975274942,-0.573689237498,-0.0118703291096,0.0,-0.00767899396549,0.00972741152671,-0.999923202309,0.0,0.502940633591,0.0526476619889,0.304572377957,1.0,-0.15998,-0.210259428571,2.481
0.225536368715,-0.104530225782,-0.127938428883,-2.25131414971,-0.00344436557318,2.14091882132,-0.074073659143,-0.366393481791,-0.532426583562,-0.00385372788093,-0.598506715836,-0.0866840456443,0.064575352248,-0.313813054386,0.57379507379,0.81897954901,0.00352965997343,0.0,0.818950958172,-0.573723865944,-0.011874369772,0.0,-0.00769996408341,0.00970426013388,-0.999923266,0.0,0.500377358364,0.0492719840482,0.304579767738,1.0,-0.15998,-0.210259428571,2.497
0.219136341287,-0.113483798697,-0.128104312632,-2.26148381888,-0.00484962183504,2.14188017684,-0.0796031157745,-0.381087187884,-0.518627494116,-0.00859955765571,-0.589751459454,-0.0822369415406,0.0586136750756,-0.322719441396,0.573908645653,0.818900623567,0.00337373215734,0.0,0.818868891979,-0.573836625038,-0.0120835596906,0.0,-0.00795941673399,0.00969769040077,-0.999921298146,0.0,0.497592205659,0.0456149640628,0.304501672145,1.0,-0.15998,-0.210259428571,2.514
0.213094945196,-0.12193234323,-0.128157566559,-2.27061343464,-0.00611360641877,2.14295360529,-0.0848670723152,-0.368579990566,-0.518230716393,0.00184051287585,-0.577830147895,-0.0751790737194,0.0636694843234,-0.341025157122,0.573918669502,0.81889232399,0.00367006922002,0.0,0.818865496064,-0.573846874224,-0.0118241786516,0.0,-0.00757681726244,0.00979159845076,-0.999923355283,0.0,0.495129825504,0.0422754355436,0.304631226929,1.0,-0.15998,-0.210259428571,2.53
0.206653826682,-0.130802886015,-0.128174288472,-2.28044747327,-0.0074788743669,2.14378286185,-0.0905578266407,-0.379793167079,-0.522620466157,-0.0017038067083,-0.576855037018,-0.08040622026,0.049769167231,-0.34020409266,0.573812875563,0.818966748951,0.00360483725753,0.0,0.818938357867,-0.573740410291,-0.0119438065121,0.0,-0.00771348809067,0.00980583825668,-0.99992217079,0.0,0.492369617589,0.0387634667758,0.304604796039,1.0,-0.15998,-0.210259428571,2.547
0.199281036805,-0.140668368435,-0.128264945945,-2.29122957128,-0.00904080166251,2.14474732502,-0.0970154265952,-0.386477715359,-0.528367361271,-0.00400387839893,-0.547393424123,-0.0760504570698,0.0610374252747,-0.351118185085,0.573790257004,0.818982438129,0.00364059126636,0.0,0.818954668348,-0.573717865329,-0.0119083623777,0.0,-0.00766421496425,0.00981457048324,-0.999922464002,0.0,0.489340228743,0.0347677730413,0.304619218733,1.0,-0.15998,-0.210259428571,2.566
0.19295888651,-0.148941972778,-0.128417414176,-2.3001247889,-0.0103112109036,2.14554350643,-0.102502230548,-0.399568703985,-0.515993081426,-0.0125773959969,-0.562216233878,-0.0756925660157,0.0392162641181,-0.357151342778,0.573898700159,0.818905771154,0.00379035973868,0.0,0.818880285314,-0.573826209188,-0.0118028332973,0.0,-0.00749054475901,0.00987767172755,-0.999923158718,0.0,0.486827285249,0.0313607264632,0.304672240655,1.0,-0.15998,-0.210259428571,2.582
0.186184606866,-0.157677625767,-0.12850182174,-2.30964549511,-0.0117221235206,2.14610386554,-0.108453236714,-0.389416918812,-0.514614574306,-0.00126074987534,-0.556799881126,-0.0848794911185,0.0336437530921,-0.35033304157,0.573859585624,0.818933852256,0.00364259771367,0.0,0.818905679397,-0.573786627455,-0.0119641675771,0.0,-0.00770793638735,0.00984888582521,-0.999921790524,0.0,0.484042465291,0.0277790120367,0.304622575681,1.0,-0.15998,-0.210259428571,2.599
0.179756810051,-0.16585697316,-0.128516332025,-2.3182810575,-0.0129524023713,2.14670253751,-0.114057517906,-0.408506672189,-0.513883205252,-0.00235751018188,-0.527924474971,-0.0752600804026,0.037292616634,-0.353293954803,0.573850321389,0.818939733339,0.00377739348641,0.0,0.818913537524,-0.573777170467,-0.0118795459131,0.0,-0.00756139559621,0.00991063071314,-0.999922299329,0.0,0.481522902456,0.0244699617779,0.304687337734,1.0,-0.15998,-0.210259428571,2.615
0.173248041307,-0.1739539306,-0.128565043283,-2.32690498282,-0.0141635476093,2.14725896855,-0.119830741541,-0.412236422266,-0.494871564804,-0.00222558505461,-0.546114788891,-0.0841633914297,0.0271167217727,-0.358198900341,0.573797737278,0.81897622486,0.00385314276749,0.0,0.818950710259,-0.57372392782,-0.0118884697623,0.0,-0.00752587877878,0.00997730314949,-0.999921904236,0.0,0.478974022295,0.0211450908242,0.304692846517,1.0,-0.15998,-0.210259428571,2.631
0.165295907318,-0.18353600024,-0.128769868967,-2.33713556063,-0.0157680797346,2.14769657706,-0.126745711412,-0.424665340739,-0.499336375381,-0.00699561447448,-0.536786960429,-0.0723900733098,0.0244132743263,-0.367905150195,0.57390169993,0.81890407523,0.00370152556258,0.0,0.818876040842,-0.573827711237,-0.0120222482092,0.0,-0.00772117876693,0.00993087048205,-0.999920877475,0.0,0.475878133481,0.0170487765349,0.304640068183,1.0,-0.15998,-0.210259428571,2.65
0.158605617561,-0.191601082292,-0.128823354929,-2.34540049753,-0.0169623839452,2.14816606482,-0.132654096399,-0.411132740247,-0.497073103348,-0.00428705166717,-0.514558023314,-0.0751369035184,0.0367252439154,-0.367092056864,0.573886773698,0.818913449157,0.00393454758827,0.0,0.818889087432,-0.573812794379,-0.0118442557156,0.0,-0.00744186983354,0.0100194126882,-0.999922111938,0.0,0.473385210946,0.0137223221773,0.304739544934,1.0,-0.15998,-0.210259428571,2.666
0.151434491466,-0.200025677593,-0.128865875596,-2.35422204305,-0.0183339446354,2.148500323,-0.139053507484,-0.430305057832,-0.487300637141,-0.00548965328081,-0.522680962109,-0.077416612436,0.00657307297451,-0.378495692874,0.573755857174,0.81900539647,0.00388893472252,0.0,0.818980411146,-0.573682014002,-0.0118650693888,0.0,-0.00748668809692,0.00999280680806,-0.999922043618,0.0,0.47065775623,0.0101916633189,0.304722620869,1.0,-0.15998,-0.210259428571,2.683
0.14367142367,-0.208882960123,-0.129011506521,-2.36353864947,-0.0196887175225,2.1487085708,-0.145854179624,-0.436717086959,-0.490030616533,-0.010881260949,-0.513254010435,-0.0674963408742,0.00580091875064,-0.37766589644,0.573851989709,0.818938432535,0.00380585399166,0.0,0.818910886037,-0.573776484962,-0.0120935080324,0.0,-0.00772027762558,0.0100567325347,-0.999919626492,0.0,0.467717259426,0.00638746163699,0.304647837102,1.0,-0.15998,-0.210259428571,2.701
0.136614758354,-0.2167956905,-0.129152120461,-2.37143804706,-0.0208987568797,2.14897716354,-0.152007186029,-0.434159993478,-0.497422294345,-0.00668519001875,-0.494263794958,-0.0776517553806,0.0151986223326,-0.383000722916,0.573982699923,0.81884573192,0.00403415488524,0.0,0.818822046402,-0.57390752215,-0.0118894594739,0.0,-0.00742054417939,0.0101277939995,-0.99992117855,0.0,0.465231579447,0.00296792649605,0.304758161069,1.0,-0.15998,-0.210259428571,2.717
0.12923115022,-0.225047960514,-0.129163239743,-2.37992269658,-0.0222523208793,2.14914034436,-0.15862524148,-0.432088457447,-0.479243242834,-0.000786905463801,-0.50272337956,-0.0770103853706,0.00360307473133,-0.392325721178,0.573811844083,0.818965740792,0.00397868073062,0.0,0.818941377312,-0.573736946325,-0.0119031024835,0.0,-0.00746566074742,0.0100886417014,-0.999921238507,0.0,0.462500388282,-0.000516424709591,0.30473205717,1.0,-0.15998,-0.210259428571,2.734
0.122505840434,-0.232267345013,-0.129237360583,-2.38734455809,-0.0233986424929,2.14916066393,-0.164589670573,-0.44834796685,-0.488209458514,-0.00409979199372,-0.489457865542,-0.0823323086303,0.00162787891435,-0.398001466289,0.573798794543,0.818975271958,0.00389797431692,0.0,0.818949049721,-0.573723111011,-0.0120412937104,0.0,-0.00762531065031,0.0101017166678,-0.999919901771,0.0,0.460062485148,-0.00367467196529,0.304680307432,1.0,-0.15998,-0.210259428571,2.749
0.115235533447,-0.239996506721,-0.129383571307,-2.39500881188,-0.0246294843938,2.14918168006,-0.170997161796,-0.454483449105,-0.477360824644,-0.00929958628185,-0.465137511011,-0.076890480227,0.00150603590197,-0.408806440328,0.57387530177,0.81892125727,0.00398237512689,0.0,0.818896458336,-0.57379972849,-0.0119669966848,0.0,-0.00751508689305,0.0101289117339,-0.999920461145,0.0,0.457527099006,-0.00708299248036,0.304732593655,1.0,-0.15998,-0.210259428571,2.765
0.107007917084,-0.248620648698,-0.129495000515,-2.40348733052,-0.0259247013635,2.14922967548,-0.178317412726,-0.45390217283,-0.468714390785,-0.0012202318587,-0.475648335681,-0.0678387557131,0.000150565289363,-0.404747406374,0.573903682745,0.818900398,0.00417707881721,0.0,0.818878593142,-0.573828056492,-0.0118303921091,0.0,-0.00729112816396,0.0102102226034,-0.999921292305,0.0,0.454698878611,-0.010859937141,0.304804280251,1.0,-0.15998,-0.210259428571,2.783
0.0991409766454,-0.25661084127,-0.129543715792,-2.41161459394,-0.0271940969358,2.14914874724,-0.185341129833,-0.474078514547,-0.469420141412,-0.00186580916837,-0.473658115468,-0.0756541307417,-0.00611244713051,-0.409983010025,0.573843797235,0.818942853632,0.00407992178165,0.0,0.818918888672,-0.573767282436,-0.0119877555484,0.0,-0.00747650505012,0.0102204209503,-0.999919819219,0.0,0.451925344525,-0.0144032704944,0.304716411135,1.0,-0.15998,-0.210259428571,2.8
0.0916551655413,-0.264138911175,-0.129656939647,-2.41899667756,-0.0283866049506,2.14904395554,-0.191967161705,-0.468715974595,-0.473001640222,-0.00504380752915,-0.451334204368,-0.0662946628936,-0.00725990425229,-0.410962025808,0.573895662417,0.818906204731,0.00414046044587,0.0,0.81888319941,-0.573819156837,-0.0119426911661,0.0,-0.00740421092919,0.0102446093953,-0.999920109628,0.0,0.449376234982,-0.0177681134081,0.304735681384,1.0,-0.15998,-0.210259428571,2.816
0.0830795510537,-0.272566187601,-0.129815068428,-2.42697988701,-0.0296909664171,2.14893693427,-0.199624786206,-0.474714373851,-0.471866872337,-0.00388223021447,-0.449066446858,-0.0757769841002,-0.0125622261682,-0.422841856632,0.573955662392,0.818862824794,0.00439530199812,0.0,0.818844449168,-0.573880171987,-0.0116646117521,0.0,-0.007029475602,0.0102942368042,-0.999922304562,0.0,0.446590233761,-0.0215921255769,0.304862853054,1.0,-0.15998,-0.210259428571,2.834
0.0744934509272,-0.280787104088,-0.129853135778,-2.43516635354,-0.0310205903851,2.14861983354,-0.207381806778,-0.484380560384,-0.458170977133,-0.00572862967079,-0.448630074921,-0.0750681746192,-0.0213931219345,-0.430871248974,0.573824801914,0.818955295309,0.00425063469296,0.0,0.818934045478,-0.573748372718,-0.011856680027,0.0,-0.00727143615243,0.0102848445479,-0.999920670948,0.0,0.443653284084,-0.0253151751332,0.304768230171,1.0,-0.15998,-0.210259428571,2.852
0.0666971241631,-0.288097349388,-0.129943845882,-2.44222602621,-0.0321840481475,2.14834948366,-0.214365356023,-0.490537813165,-0.460864026035,-0.00821969439972,-0.438420567847,-0.0611323413301,-0.0193967716047,-0.447550184749,0.573823354681,0.818956195192,0.00427257307547,0.0,0.818935220532,-0.57374683636,-0.0118498624411,0.0,-0.0072532826213,0.0102988866777,-0.999920658265,0.0,0.441090500537,-0.0286827740117,0.304765363412,1.0,-0.15998,-0.210259428571,2.868
0.0587804897091,-0.295376053565,-0.130113207096,-2.44899440718,-0.0332347260066,2.14809965427,-0.221449291657,-0.495818852372,-0.447815124433,-0.00537748941538,-0.414719788789,-0.0641482850841,-0.0169863102202,-0.4378050297,0.573970832081,0.818851301724,0.00455812302971,0.0,0.818834766364,-0.573894432818,-0.0116426919038,0.0,-0.00691788518084,0.010415115689,-0.99992183106,0.0,0.438450205556,-0.0323052852288,0.304873252945,1.0,-0.15998,-0.210259428571,2.885
0.0494063006614,-0.303887953546,-0.130170574937,-2.45705116656,-0.0346251057233,2.14765612311,-0.229946150854,-0.49259014016,-0.434295634654,-0.00420817275489,-0.42932909222,-0.0790750074942,-0.0396311424121,-0.444788641623,0.57381824977,0.81895846952,0.00451534416181,0.0,0.818941572131,-0.573742295123,-0.011628719788,0.0,-0.00693292811775,0.010370774352,-0.999922187746,0.0,0.435413880626,-0.0362409522973,0.304866289865,1.0,-0.15998,-0.210259428571,2.904
0.0423424794823,-0.31003474301,-0.130242256542,-2.46301883001,-0.035633067145,2.14719120006,-0.236255859211,-0.497989911512,-0.442549676268,-0.00860575565558,-0.410722517288,-0.0658337157939,-0.0364034535155,-0.453818563132,0.573861855395,0.818928438353,0.00441935303456,0.0,0.81890940131,-0.573784879631,-0.0117919995772,0.0,-0.00712118295464,0.010386228471,-0.999920704362,0.0,0.433124511224,-0.0391820785913,0.30480810614,1.0,-0.15998,-0.210259428571,2.918
0.0331594569154,-0.317970459832,-0.130435003317,-2.47043562809,-0.036844112513,2.14669193398,-0.244534636638,-0.512900863584,-0.435236412501,-0.00872023947646,-0.407367576674,-0.0735632935435,-0.03190300506,-0.45255327841,0.573952861542,0.818864169353,0.00450907743751,0.0,0.818846109231,-0.573875296068,-0.0117873177906,0.0,-0.00706470005945,0.010457806637,-0.999920358975,0.0,0.430402259809,-0.0427973021976,0.304814896164,1.0,-0.15998,-0.210259428571,2.935
0.0255478583088,-0.324510795438,-0.130492352595,-2.47631881531,-0.0378703020899,2.14630517652,-0.2515305344,-0.513351215483,-0.433852644992,-0.00245999663661,-0.394287481136,-0.068523054831,-0.0272015653256,-0.466620963274,0.573836718999,0.818944608852,0.00467915183176,0.0,0.818930147225,-0.573760752311,-0.0115221514916,0.0,-0.00675142015702,0.0104439331843,-0.999922668303,0.0,0.428092600048,-0.0459019844945,0.304918821298,1.0,-0.15998,-0.210259428571,2.95
0.0161604159391,-0.332168563045,-0.130560286042,-2.48352762159,-0.0390828548188,2.14564133086,-0.260014399598,-0.521604833764,-0.422388938221,-0.0034554077094,-0.397498130441,-0.0738604125188,-0.0401210132174,-0.480248870928,0.573827746167,0.818951226845,0.00462089601495,0.0,0.818935353736,-0.573750947338,-0.0116397479021,0.0,-0.00688127484429,0.0104636268744,-0.99992157721,0.0,0.425347045419,-0.0494674947519,0.304869766441,1.0,-0.15998,-0.210259428571,2.967
0.0077123479481,-0.33898131214,-0.13073534426,-2.48980147235,-0.0401008621794,2.14499089525,-0.26765541327,-0.527248086313,-0.430245252152,-0.00698606534655,-0.383438070807,-0.0725377894246,-0.0427779483895,-0.476926352704,0.573943826152,0.818869669924,0.00465778929905,0.0,0.818853310363,-0.573865424557,-0.0117676466348,0.0,-0.00696335874828,0.0105682177918,-0.999919908997,0.0,0.422591304785,-0.053072322602,0.304847997839,1.0,-0.15998,-0.210259428571,2.984
-0.00122721962617,-0.346124389564,-0.130815096031,-2.49631413804,-0.0412055339792,2.14432728423,-0.275900374977,-0.530508887874,-0.413276371244,-0.00466684649624,-0.381588117407,-0.0666918357167,-0.0336303189383,-0.48252089675,0.573838515383,0.818943237207,0.00469887188526,0.0,0.818927324232,-0.573759863586,-0.0117645002216,0.0,-0.00693856739264,0.010599161988,-0.999919753804,0.0,0.419875406564,-0.0565920970831,0.304852414647,1.0,-0.15998,-0.210259428571,3.001
-0.0109519095005,-0.353604712517,-0.130915857475,-2.50284590773,-0.042410326279,2.14364537829,-0.284710851165,-0.539193850168,-0.40483814855,-0.00736464923368,-0.358617529828,-0.0711924386802,-0.0319919596966,-0.494157318556,0.573877456695,0.818915059869,0.00485142425979,0.0,0.818902724243,-0.573800830078,-0.0114753009148,0.0,-0.00661367280205,0.0105584643298,-0.99992238607,0.0,0.417081384959,-0.0604123658156,0.304970735077,1.0,-0.15998,-0.210259428571,3.019
-0.0196540783888,-0.360088096349,-0.131083431108,-2.50877544549,-0.0434328349147,2.14290106562,-0.292648478916,-0.543060293913,-0.399576648794,-0.0103125575478,-0.368261991971,-0.0672291433747,-0.0522113309656,-0.506533946654,0.573946667679,0.818866694078,0.00482772107899,0.0,0.818853155798,-0.573868678976,-0.011618753426,0.0,-0.00674386212945,0.0106219439576,-0.999920844182,0.0,0.414486577192,-0.0638003120153,0.30492285793,1.0,-0.15998,-0.210259428571,3.035
-0.0288466352939,-0.366954006168,-0.131141019257,-2.51497741553,-0.0445423191758,2.14207413931,-0.301218536489,-0.554407634252,-0.407194081251,-0.0013877838174,-0.360005327562,-0.0555728995509,-0.0428641163731,-0.501840103091,0.573762282744,0.818996234495,0.00477050156132,0.0,0.818981534545,-0.573683847526,-0.0116976948131,0.0,-0.0068437400771,0.0106188532139,-0.999920198405,0.0,0.411577902393,-0.0675034144085,0.304890284885,1.0,-0.15998,-0.210259428571,3.053
-0.0377915203987,-0.373265802551,-0.131235215623,-2.52062914341,-0.0455221788125,2.14130370737,-0.309333754898,-0.569005048742,-0.38790915538,-0.00571554080597,-0.344720182242,-0.0604797820635,-0.0500690354649,-0.508662085928,0.573849096129,0.818935380899,0.00477532037767,0.0,0.818920287288,-0.573769924066,-0.0117636817082,0.0,-0.00689389267883,0.0106613901158,-0.999919401254,0.0,0.409165686962,-0.0706832784581,0.304870469266,1.0,-0.15998,-0.210259428571,3.068
-0.0467919530473,-0.379520237594,-0.131403038299,-2.52600149949,-0.0464788889116,2.1405481131,-0.317494995619,-0.55811271611,-0.382337017736,-0.00891167523494,-0.32285403447,-0.0711728862473,-0.0476894055873,-0.507672436981,0.5740177754,0.818816304557,0.00491933111298,0.0,0.818803660576,-0.573939027835,-0.0116320529953,0.0,-0.00670124755123,0.0107051776144,-0.999920243046,0.0,0.406656137772,-0.074098739384,0.304939399172,1.0,-0.15998,-0.210259428571,3.084
-0.0591294076806,-0.387953799418,-0.131508498772,-2.53339788263,-0.0478593197668,2.13944620678,-0.329024167579,-0.574229092642,-0.380974757342,-0.00977152516123,-0.341884254805,-0.0616767210918,-0.0567028309273,-0.523800014343,0.573837522235,0.81894269959,0.00490915121056,0.0,0.818930124414,-0.573759156984,-0.0116029308434,0.0,-0.00668559376638,0.0106786544947,-0.999920631437,0.0,0.403152167236,-0.0786721907614,0.304939110144,1.0,-0.15998,-0.210259428571,3.106
-0.0671994459537,-0.393288991706,-0.131633828983,-2.53808851438,-0.0487156263191,2.13862753119,-0.336414059545,-0.574229934679,-0.385808107476,-0.0135361069289,-0.327728848386,-0.0617695030741,-0.0566966406981,-0.523850698702,0.573909929926,0.818892150226,0.00487704131383,0.0,0.818878438243,-0.573830510255,-0.0117215947027,0.0,-0.00680025771051,0.0107210499822,-0.999919404543,0.0,0.400856094343,-0.0816455283318,0.304910418173,1.0,-0.15998,-0.210259428571,3.12
-0.0769108115919,-0.399606402533,-0.131723796589,-2.54351639622,-0.0496813249642,2.13773004196,-0.345492729821,-0.562993034162,-0.367841851756,0.00134325845297,-0.314460531897,-0.0633765492006,-0.0467702800522,-0.537800014983,0.573833352251,0.818945417372,0.00494308730294,0.0,0.818932646251,-0.573753866211,-0.0116862659806,0.0,-0.00673442817851,0.0107542318009,-0.999919493747,0.0,0.398161442319,-0.0851728042675,0.304929463468,1.0,-0.15998,-0.210259428571,3.137
-0.0855730564579,-0.405071218628,-0.131799089451,-2.54823376534,-0.0505693304813,2.13687466421,-0.353594624118,-0.58501118442,-0.36358168993,-0.0085126711306,-0.309540486856,-0.0583439909149,-0.0621751975931,-0.537293180826,0.573748910489,0.819004722908,0.00491919385939,0.0,0.818991418729,-0.57366916098,-0.0117258983089,0.0,-0.00678170685018,0.0107567060371,-0.999919147595,0.0,0.395759422243,-0.0882914029717,0.30491902602,1.0,-0.15998,-0.210259428571,3.152
-0.0957059824913,-0.411126764606,-0.131959023517,-2.55331298195,-0.0515482516162,2.13598292866,-0.362840260314,-0.596111933071,-0.354500370044,-0.00881944518343,-0.296246319832,-0.0568715133495,-0.0473622485662,-0.5498583327,0.573936626825,0.818872525512,0.00502814588002,0.0,0.818861497403,-0.573857894343,-0.0115633936766,0.0,-0.00658363093158,0.0107542172779,-0.999920498147,0.0,0.392924529854,-0.0921716657353,0.304979659299,1.0,-0.15998,-0.210259428571,3.17
-0.106814464479,-0.417830995199,-0.132040173266,-2.55898296567,-0.0525150130743,2.13489738219,-0.373370943834,-0.5815054589,-0.352401422741,-0.00610209333266,-0.295926741966,-0.050154524144,-0.0621133988943,-0.563062016093,0.573787001264,0.818976923055,0.00510133165164,0.0,0.81896638396,-0.573707318838,-0.0116069443246,0.0,-0.00657927491611,0.0108379415779,-0.999919622852,0.0,0.390057938943,-0.0958632362318,0.304978745106,1.0,-0.15998,-0.210259428571,3.188
-0.116443882466,-0.423377762557,-0.132166762436,-2.56372818555,-0.0534101019834,2.13386820334,-0.382295827643,-0.605040124815,-0.335165941841,-0.0113042109874,-0.281797705762,-0.0606838953515,-0.0597804656818,-0.557567840723,0.573846708558,0.818935404792,0.00505022332451,0.0,0.818923163753,-0.573765486813,-0.0117798519299,0.0,-0.00674942391164,0.0108957838975,-0.999917860212,0.0,0.387272244162,-0.0994570289825,0.304935690501,1.0,-0.15998,-0.210259428571,3.205
-0.126781010916,-0.429086784125,-0.132310854519,-2.56852066395,-0.0543551599807,2.13290771903,-0.391835427668,-0.598325026453,-0.33792918869,-0.00707899480272,-0.273490577667,-0.0511679008467,-0.0582212596241,-0.57453079141,0.573967431191,0.818850623789,0.00507845971011,0.0,0.818838974748,-0.573886459185,-0.0117393482824,0.0,-0.00669844236853,0.0108966541142,-0.999918193553,0.0,0.384714261786,-0.102862237839,0.304941385586,1.0,-0.15998,-0.210259428571,3.221
-0.137572263053,-0.43493047506,-0.132360666119,-2.5734357892,-0.0552651670848,2.13186064106,-0.40213727063,-0.609020984569,-0.321938954747,-0.00442228536491,-0.276326782332,-0.0503709829969,-0.0656919432385,-0.569267129088,0.573771354153,0.818987989706,0.00508456213772,0.0,0.81897608101,-0.573689845587,-0.0117850203931,0.0,-0.00673495816152,0.0109262522471,-0.999917625282,0.0,0.381707609845,-0.10676379363,0.304923304628,1.0,-0.15998,-0.210259428571,3.24
-0.146260875181,-0.439428342751,-0.132502733703,-2.57711932826,-0.055978131089,2.13098759476,-0.410216481217,-0.6202886668,-0.321256955542,-0.00927256318274,-0.255674526391,-0.0538780637565,-0.059641822468,-0.580641715166,0.57388828574,0.818905772376,0.0051301423845,0.0,0.81889429786,-0.57380634432,-0.0117963999124,0.0,-0.00671656104866,0.0109710712966,-0.999917258278,0.0,0.379621931193,-0.109553457839,0.304940029279,1.0,-0.15998,-0.210259428571,3.253
-0.159801308251,-0.44643505216,-0.132590949628,-2.58271994508,-0.0570898234578,2.12972457416,-0.423028411072,-0.616089693336,-0.313352162529,-0.002907450604,-0.25827902405,-0.0477809572914,-0.0624816799893,-0.569751274411,0.57379043513,0.818973705159,0.00523007778341,0.0,0.818964790446,-0.573710284031,-0.0115727658317,0.0,-0.00647736621087,0.0109238022152,-0.999919353884,0.0,0.376156944853,-0.114141274486,0.305026468285,1.0,-0.15998,-0.210259428571,3.275
-0.167917766699,-0.450432192071,-0.132682749177,-2.58606144897,-0.057749470243,2.12891773144,-0.430664349063,-0.630530399466,-0.299872297855,-0.00858990966283,-0.258741042604,-0.044481447497,-0.0570462304442,-0.603334052137,0.573799432675,0.818967547404,0.0052071356447,0.0,0.818957799948,-0.573718453532,-0.0116621131348,0.0,-0.00656358875154,0.0109563491958,-0.999918435531,0.0,0.374040720019,-0.116865819175,0.304994159942,1.0,-0.15998,-0.210259428571,3.288
-0.178710139091,-0.455475157793,-0.132843147037,-2.59021615565,-0.0585540721335,2.12785417478,-0.440769330921,-0.627721093819,-0.30076904071,-0.00433666596944,-0.233286478338,-0.046606038714,-0.0667237017109,-0.593392258882,0.573932201927,0.818874407681,0.00522292421882,0.0,0.818864055935,-0.573849799916,-0.0117818476935,0.0,-0.00665080758214,0.0110390592353,-0.999916949516,0.0,0.371443487804,-0.120277969842,0.304965680235,1.0,-0.15998,-0.210259428571,3.304
-0.18930986471,-0.460329458383,-0.1329032058,-2.59412798322,-0.0592585991181,2.12688986826,-0.450981156113,-0.630375625256,-0.280713738995,-0.00676072350325,-0.229565903784,-0.0407785097698,-0.0601280598582,-0.603842172462,0.57378099209,0.81897974343,0.00531976212624,0.0,0.81897070558,-0.573698383005,-0.0117428974717,0.0,-0.00656538263268,0.0110947943126,-0.999916897192,0.0,0.368628446514,-0.123979794838,0.3049845335,1.0,-0.15998,-0.210259428571,3.322
-0.199662010781,-0.464785433981,-0.133043668323,-2.5978060537,-0.0600188584378,2.12594867447,-0.460674494339,-0.652011743248,-0.275293951344,-0.0110481938703,-0.228439402168,-0.0502275204107,-0.0608248582878,-0.616156723096,0.573906153165,0.818892120596,0.00530745565582,0.0,0.818882372215,-0.573822636927,-0.0118316831552,0.0,-0.00664346181659,0.0111366720584,-0.99991591594,0.0,0.366030470297,-0.127403469539,0.304945808718,1.0,-0.15998,-0.210259428571,3.338
-0.210486140664,-0.469431371254,-0.133100063204,-2.60152243588,-0.0607806670257,2.1249301289,-0.471024558779,-0.629030142406,-0.274191973206,-0.000158640655698,-0.20765147364,-0.0450232198285,-0.0544432698576,-0.611922307173,0.573813614482,0.81895696349,0.00530798332922,0.0,0.818947169858,-0.573730025979,-0.0118379547912,0.0,-0.00664955412088,0.0111399520305,-0.999915838908,0.0,0.363327793157,-0.13092270266,0.304951583248,1.0,-0.15998,-0.210259428571,3.355
-0.222152174132,-0.474299161347,-0.133262540648,-2.60520918367,-0.0615537731875,2.12391095918,-0.482114697975,-0.656033313987,-0.265222095741,-0.0126884732611,-0.199846392743,-0.0488954256553,-0.045351580735,-0.611675010466,0.573875665257,0.818912588907,0.0054442131047,0.0,0.818905720195,-0.573793580659,-0.011623042965,0.0,-0.00639452478864,0.0111286930291,-0.99991762773,0.0,0.360482516289,-0.134741505703,0.305046179258,1.0,-0.15998,-0.210259428571,3.373
-0.23264107198,-0.4783815244,-0.133353434455,-2.60841889294,-0.0622720548613,2.1230134528,-0.492067868636,-0.645106986843,-0.254551199193,-0.00117552465634,-0.199690406051,-0.038063155691,-0.0552865643807,-0.627014045163,0.573900918759,0.818894895447,0.00544357973722,0.0,0.818888379431,-0.573819460996,-0.0115669838782,0.0,-0.00634863429376,0.0110962005005,-0.99991828125,0.0,0.357926448435,-0.138133857217,0.305063770474,1.0,-0.15998,-0.210259428571,3.389
-0.243631389576,-0.482496061694,-0.133396672106,-2.61179009887,-0.0629193999576,2.12206202802,-0.502743112438,-0.655196430443,-0.23901748725,-0.00448220793541,-0.193770225202,-0.0379372199265,-0.0528255133588,-0.619273953183,0.573733119371,0.819012467691,0.0054435654796,0.0,0.819005116966,-0.573650241246,-0.011694699775,0.0,-0.00645552655986,0.011168159586,-0.999916795733,0.0,0.35521745345,-0.141614600187,0.305011731987,1.0,-0.15998,-0.210259428571,3.406
-0.253692919346,-0.486038148053,-0.133553064392,-2.61464099993,-0.0635616675099,2.12117419711,-0.512234919939,-0.676866366281,-0.228398569156,-0.013247868868,-0.183829791151,-0.0412911602018,-0.0586573055079,-0.639475332708,0.573883844213,0.818906981748,0.00542544899402,0.0,0.81889862919,-0.573799682125,-0.0118197633612,0.0,-0.00656629225239,0.01122628012,-0.999915423644,0.0,0.352756549935,-0.144837858236,0.304977170044,1.0,-0.15998,-0.210259428571,3.421
-0.26485304041,-0.48983194692,-0.133581723015,-2.6176820841,-0.0641732303322,2.1202460833,-0.523053478752,-0.652710561697,-0.212436191531,-0.00526136718102,-0.1802939379,-0.0336679037468,-0.0581530928815,-0.636306698555,0.573757616338,0.818995419808,0.00542650246011,0.0,0.818986454911,-0.573672407402,-0.0119122860976,0.0,-0.00664320092548,0.0112792140487,-0.999914319935,0.0,0.350062587928,-0.148338009103,0.304946916958,1.0,-0.15998,-0.210259428571,3.438
-0.276922388551,-0.493747790302,-0.133750348655,-2.62072251369,-0.0648212409787,2.11933563092,-0.534627191813,-0.679322739424,-0.214000627761,-0.0123901287354,-0.167669422826,-0.0339951721768,-0.0489474392535,-0.649698105813,0.573841271495,0.818936213047,0.0055155226273,0.0,0.81892846072,-0.573755811365,-0.0118824260841,0.0,-0.00656651228471,0.0113356631944,-0.999914188146,0.0,0.34718439241,-0.152159889668,0.304956469613,1.0,-0.15998,-0.210259428571,3.456
-0.287642781209,-0.497130079379,-0.133783322095,-2.62331070948,-0.065376986304,2.11848945894,-0.544961650313,-0.658025127436,-0.216800589309,0.00544836331733,-0.15671232205,-0.0260432574898,-0.0546810289751,-0.651039159584,0.573800423997,0.81896465495,0.00554204511359,0.0,0.818957353702,-0.57371505815,-0.0118588266488,0.0,-0.00653253091136,0.0113435167573,-0.999914321663,0.0,0.344635253772,-0.155492517573,0.304975809619,1.0,-0.15998,-0.210259428571,3.472
-0.299052400541,-0.500521704736,-0.133836501457,-2.62590216597,-0.0659409879674,2.11763228952,-0.556009210924,-0.681096530302,-0.199132725963,-0.00670639791511,-0.143998874904,-0.0376035562303,-0.0561480719935,-0.660550348824,0.573750196755,0.818999597289,0.00557837482361,0.0,0.818992839311,-0.573664831815,-0.011837938884,0.0,-0.00649527477792,0.0113608875317,-0.999914367154,0.0,0.341939823083,-0.159029320271,0.30499223792,1.0,-0.15998,-0.210259428571,3.489
-0.310737183733,-0.503736251355,-0.133964296371,-2.62835372795,-0.0665099273957,2.11684691304,-0.567173736225,-0.672945034838,-0.181721610807,-0.00364789346631,-0.142272718481,-0.0326378276916,-0.0449103521266,-0.65854291768,0.573887978393,0.818902673689,0.00563437507682,0.0,0.818896888092,-0.573802816409,-0.0117881913856,0.0,-0.0064204847701,0.0113792926266,-0.999914640894,0.0,0.339205513178,-0.162668184633,0.305007047688,1.0,-0.15942,-0.209523428571,3.506
-0.321463601092,-0.506566449892,-0.133982442518,-2.63049001812,-0.0669939166073,2.11618704408,-0.577681939862,-0.671857101484,-0.17580180508,-0.00304613640318,-0.131419446156,-0.0321593534799,-0.0467264256514,-0.645825022266,0.573753181555,0.818996866517,0.00567152470245,0.0,0.818992191895,-0.573669038397,-0.0116777951746,0.0,-0.0063106210325,0.0113453250151,-0.99991572628,0.0,0.336721257289,-0.165962528136,0.305032615534,1.0,-0.157628,-0.207168228571,3.522
-0.333124758508,-0.509390112988,-0.134046827799,-2.63265186987,-0.0674922062151,2.11546049726,-0.588815165621,-0.68858899668,-0.161956204353,0.00149543282314,-0.127886804403,-0.0307964776514,-0.0375635886259,-0.657820648384,0.573890258652,0.818900595201,0.00570377986103,0.0,0.818896378879,-0.573806052239,-0.0116654178268,0.0,-0.00628007510765,0.0113656931528,-0.999915687284,0.0,0.33386390961,-0.169742050032,0.3050355142,1.0,-0.155612,-0.204518628571,3.54
-0.345733331732,-0.51230021106,-0.134003664513,-2.63489250584,-0.0679333532359,2.11465269358,-0.601201535742,-0.66921766451,-0.146578278099,-0.000507704759107,-0.113918801554,-0.027837767489,-0.0370387320544,-0.651128892372,0.573734064842,0.819009748056,0.0057447655297,0.0,0.819005674554,-0.573649043127,-0.0117144043676,0.0,-0.00629885339306,0.011426168392,-0.999914879938,0.0,0.331099237259,-0.173331964316,0.305026615891,1.0,-0.153596,-0.201869028571,3.558
-0.357228018999,-0.514670822473,-0.13402630489,-2.6367521541,-0.0683419197229,2.11395830689,-0.612190983599,-0.682231440212,-0.139590260151,-0.00193702068986,-0.110497413277,-0.0235420939882,-0.038643331288,-0.646789040683,0.573884776123,0.818904012493,0.00576445641547,0.0,0.818899514298,-0.573798423184,-0.0118195573403,0.0,-0.00637156960264,0.0115037960607,-0.99991352915,0.0,0.328444779074,-0.176801670466,0.304997793842,1.0,-0.151692,-0.199366628571,3.575
-0.368395484246,-0.516795832303,-0.133976684666,-2.63843057893,-0.0686638376855,2.11335425036,-0.623110070308,-0.658294793293,-0.120542460297,0.00312801960734,-0.0950133325301,-0.0179988120941,-0.0322681549424,-0.63688718552,0.573820901578,0.818948505331,0.00580219171205,0.0,0.818943925048,-0.573733385526,-0.0118994479394,0.0,-0.0064162475425,0.0115800445512,-0.999912363328,0.0,0.325893001216,-0.180136430634,0.304968691477,1.0,-0.149788,-0.196864228571,3.592
-0.378922178844,-0.518672924682,-0.13397183531,-2.63988984462,-0.0689799348937,2.11278469112,-0.633288981062,-0.661106227571,-0.113618493267,-0.00172972868826,-0.0881972231604,-0.013286350601,-0.0421783511955,-0.648892470907,0.573884729553,0.818903561088,0.00583281440733,0.0,0.818898825306,-0.573796081428,-0.0119798894746,0.0,-0.00646365254695,0.0116517848306,-0.999911224612,0.0,0.323482036154,-0.183282823243,0.304948372955,1.0,-0.147996,-0.194509028571,3.608
