nelsonifechukwu/NELSON_IML_WORK/CNN-GradCAM/train2dof/data_sample_2022-02-21-09-02-01/robot_state.csv
position_joint1,position_joint2,position_joint3,position_joint4,position_joint5,position_joint6,position_joint7,velocity_joint1,velocity_joint2,velocity_joint3,velocity_joint4,velocity_joint5,velocity_joint6,velocity_joint7,ee_T_00,ee_T_10,ee_T_20,ee_T_30,ee_T_01,ee_T_11,ee_T_21,ee_T_31,ee_T_02,ee_T_12,ee_T_22,ee_T_32,ee_T_03,ee_T_13,ee_T_23,ee_T_33,v_x,v_y,time
0.465096056946,0.547582701466,-0.123988148035,-1.35573974302,0.0794564523015,1.89408907351,0.15916396948,-1.86274436257e-05,8.08965195493e-05,-0.000419644970611,-0.000249981935816,2.59325336225e-05,0.000495639430903,0.000782128820346,0.573774006108,0.818999060381,0.00216238556765,0.0,0.81895915385,-0.573715069198,-0.0117333116212,0.0,-0.00836913913919,0.00850333838419,-0.99992882284,0.0,0.661697966945,0.260911385036,0.303398288672,1.0,0.0,0.0,0.0
0.465093912265,0.547579917394,-0.123988148971,-1.35574503273,0.0794561012357,1.89408615098,0.159162934317,0.000714267346666,-0.00202381043686,3.52516831942e-05,-0.00205667555376,-0.000251372339991,0.000180848188876,0.000761682457578,0.573775086939,0.818998314919,0.00215793144518,0.0,0.818958344627,-0.573716160892,-0.0117364133698,0.0,-0.00837422385866,0.00850148124565,-0.999928796061,0.0,0.661696824085,0.260909117549,0.303397488383,1.0,-0.00016,-0.000210285714286,0.009
0.465086223384,0.547573972745,-0.123981149846,-1.35574276549,0.079456438972,1.8940860379,0.159162045133,-0.00121918125648,-0.00304196972055,0.00208063492166,-0.000437319262857,-7.03573642399e-05,-0.000148293856798,0.000974593871481,0.573775718355,0.818997848974,0.00216686508162,0.0,0.818957959473,-0.573716722329,-0.0117358440769,0.0,-0.00836862544445,0.00850847758595,-0.999928783423,0.0,0.661697858261,0.260908475851,0.303402538123,1.0,-0.0005,-0.000657142857143,0.026
0.465087887799,0.547556443354,-0.123985802174,-1.35575534652,0.0794551165618,1.89409050162,0.159163566619,0.000412345458603,-0.0015071791136,0.00108725732614,-0.000356604548105,-0.00020809255051,0.000207098816388,0.00101002843524,0.573779052974,0.81899551159,0.00216731755955,0.0,0.818955663295,-0.573720090741,-0.0117314082143,0.0,-0.00836469809153,0.00850633705812,-0.999928834496,0.0,0.661695965086,0.260903112125,0.303406522175,1.0,-0.00084,-0.001104,0.043
0.465095328881,0.547454830738,-0.123987941801,-1.3558542475,0.0794523699854,1.8941047739,0.159154962104,0.000816433402923,-0.0102692120354,0.000305204052951,-0.00735281010913,-0.00039869759591,0.000132780007495,0.000425451524989,0.573772128331,0.819000299095,0.00219128596642,0.0,0.81896070854,-0.573713021366,-0.0117249257182,0.0,-0.00834570905832,0.00852217676982,-0.999928858291,0.0,0.661678598921,0.260899516632,0.303435718962,1.0,-0.00118,-0.00155085714286,0.06
0.465084357752,0.547329490463,-0.123980678684,-1.35601164158,0.0794497708982,1.89414176062,0.159158768445,-0.000142358128864,-0.00861057034619,0.00178916644254,-0.00517978204768,-0.00461194576238,7.29071198122e-05,0.00110932900988,0.573792578714,0.818985931618,0.00220620160856,0.0,0.818946421739,-0.573733297201,-0.0117306822409,0.0,-0.00834165300312,0.00853790370717,-0.999928757975,0.0,0.661655015737,0.260877224991,0.303456152782,1.0,-0.00152,-0.00199771428571,0.077
0.465065344083,0.547154480617,-0.123988632359,-1.35624076568,0.0794470270481,1.89424564097,0.159151568244,-0.00234859691791,-0.0113740125718,0.000258643287252,-0.0157566221304,0.000438835485094,0.00589821678173,0.00140537292654,0.57381450161,0.818970456729,0.00224847699104,0.0,0.818931454143,-0.573755015395,-0.0117133524322,0.0,-0.0083029744986,0.00856280488047,-0.999928866964,0.0,0.661634291479,0.260846047626,0.303476745833,1.0,-0.00186,-0.00244457142857,0.094
0.465038895261,0.546962468577,-0.123988994003,-1.35645597784,0.0794470915407,1.89434583729,0.159136397565,-0.00123846562681,-0.00927066426634,-0.00022179654058,-0.00753906154519,6.90493729407e-06,0.00194042665495,-0.000188451488714,0.573836085493,0.818955129456,0.00232159966364,0.0,0.818916993043,-0.573776239386,-0.0116847131675,0.0,-0.00823733565463,0.00860647318103,-0.999929034942,0.0,0.661616972806,0.260812138333,0.303519028341,1.0,-0.00222,-0.00291771428571,0.112
0.465011935401,0.546765027395,-0.123986126057,-1.3566954497,0.0794398539103,1.89448309536,0.159123577643,-0.00436658619616,-0.0086316630068,0.000142415780233,-0.0165430207295,-9.71649830495e-05,0.0119557049644,-0.001004569031,0.573857378752,0.81893996453,0.00240629358488,0.0,0.81890291607,-0.573797211971,-0.0116413267474,0.0,-0.00815298013353,0.00865114864745,-0.999929340775,0.0,0.661601419102,0.260778288532,0.303556702546,1.0,-0.00254,-0.00333828571429,0.128
0.464972937139,0.546525572004,-0.123983896262,-1.3570384878,0.0794322424784,1.89461422104,0.159086620773,-0.00149367363305,-0.0136837472591,0.000773169440557,-0.024897586087,-0.00453949368389,0.010013051559,-0.00817736449298,0.573874658292,0.818927763186,0.00243765324099,0.0,0.818891003674,-0.573814252374,-0.011639363213,0.0,-0.00813319409808,0.00867587493319,-0.999929287674,0.0,0.661565285282,0.260723876358,0.303574307931,1.0,-0.00288,-0.00378514285714,0.145
0.464945947011,0.54628768977,-0.123989243396,-1.35740088907,0.0794183951572,1.89474136552,0.158975106103,0.000134722822792,-0.0180811629291,0.000495352141539,-0.0261669712683,4.99577334606e-05,0.0123155943098,-0.00938924684383,0.573825725475,0.81896203236,0.00244402080735,0.0,0.818925295237,-0.573765238733,-0.0116429611227,0.0,-0.00813300550733,0.00868266824243,-0.999929230243,0.0,0.661522810401,0.260669420505,0.303581460804,1.0,-0.00318,-0.00417942857143,0.16
0.464902622449,0.546012672662,-0.123990032642,-1.35785883505,0.0793968728446,1.89490190191,0.158941433522,-0.0019108948911,-0.0157388624685,7.94725309465e-05,-0.0269865507622,0.000296531485548,0.00261151367857,-0.000717495507069,0.573854067462,0.818942222399,0.00242745353787,0.0,0.818905207784,-0.573793569668,-0.0116596301079,0.0,-0.00815586318789,0.008678947603,-0.999929076367,0.0,0.661469664346,0.260596967144,0.303572151324,1.0,-0.00352,-0.00462628571429,0.177
0.464866186344,0.545702004299,-0.123992429502,-1.35837313019,0.0793515891967,1.89508218521,0.158899022617,-0.000468635209068,-0.0187603810227,-8.6326217134e-05,-0.029053193874,-0.00667147186142,0.00956222366282,-0.00133850141078,0.573867557887,0.818932854551,0.00239846682183,0.0,0.818895581983,-0.573807287968,-0.011660573989,0.0,-0.00817312675818,0.00865588565515,-0.99992913531,0.0,0.661408326663,0.260519412458,0.303562969132,1.0,-0.00386,-0.00507314285714,0.194
0.464811421497,0.545357296114,-0.123987802226,-1.35896695263,0.0792785569034,1.895278732,0.158800674892,0.000512584449089,-0.0167049608248,0.000710385463633,-0.0364764813479,-0.00291262931041,0.00828015319635,-0.0053472941366,0.573842333075,0.81895071591,0.00233421987207,0.0,0.818912871651,-0.573782574452,-0.0116624526313,0.0,-0.00821179734671,0.00860409738137,-0.999929265445,0.0,0.661337531117,0.260421419894,0.303541137829,1.0,-0.0042,-0.00552,0.211
0.464760205615,0.544952563785,-0.123992439732,-1.35965063763,0.0792633607346,1.89549391414,0.158734862382,-0.000299636140847,-0.0268869449128,0.00419193586776,-0.0448230944377,-0.00412549035039,0.0129924873482,-0.00471905744752,0.573867573088,0.818933145438,0.00229319929787,0.0,0.818894509271,-0.573807691552,-0.0117159166132,0.0,-0.008278856442,0.00860143855136,-0.999928735356,0.0,0.661249280613,0.260321164583,0.303521026383,1.0,-0.00454,-0.00596685714286,0.228
0.46469387123,0.544574536884,-0.123994834683,-1.3603165495,0.0792383296441,1.89572267665,0.158640232812,-0.00768950347077,-0.0273275803686,-0.000838224131007,-0.045214282526,-5.0844159943e-05,0.00727660210711,-0.00845680437325,0.573877897737,0.818926036215,0.00224779851077,0.0,0.818886641623,-0.573818011386,-0.011760309565,0.0,-0.00834115701838,0.00858983928445,-0.999928317311,0.0,0.661165134961,0.260210226719,0.303490117072,1.0,-0.00488,-0.00641371428571,0.245
0.464637500139,0.544120983595,-0.123998035547,-1.36105978512,0.0792025067146,1.895985112,0.15855554193,-0.00599584688454,-0.0302354461351,3.29418547586e-05,-0.0448483852013,-6.23147816996e-05,0.0164910148299,-0.00903181559887,0.573887484045,0.818919366505,0.00223018395178,0.0,0.818879669707,-0.57382758849,-0.0117784604154,0.0,-0.00836602933481,0.00858592861724,-0.99992814311,0.0,0.661081782606,0.260103922569,0.303481573502,1.0,-0.0052,-0.00683428571429,0.261
0.46456852752,0.54363557241,-0.123996465547,-1.36186194327,0.0791694312054,1.89626406683,0.158450707724,-0.00213755778304,-0.0289242187842,-0.000563729840566,-0.0538244819627,6.31657913833e-05,0.0229290676642,-0.00289714484353,0.573892846219,0.818915673033,0.00220644997352,0.0,0.818875490475,-0.573832860371,-0.0118121275699,0.0,-0.00840716476328,0.00858586861986,-0.999927798614,0.0,0.660985057117,0.259983967413,0.303467350526,1.0,-0.00554,-0.00728114285714,0.278
0.464492314167,0.543119331948,-0.124002395369,-1.36271506646,0.0791149772834,1.89655937812,0.158348071658,-0.000666245039674,-0.0267035941927,-0.000647526586903,-0.0534280890903,-0.00386446066501,0.0118420348831,-0.00999623995413,0.573908271704,0.818904966743,0.00216749017738,0.0,0.818864296209,-0.573848455606,-0.0118305237832,0.0,-0.00844442637577,0.00856468067305,-0.999927666338,0.0,0.660885351594,0.25984689294,0.303452255705,1.0,-0.00588,-0.007728,0.295
0.464416217056,0.542588498975,-0.124004159495,-1.36355496808,0.0790629548202,1.89685295121,0.158223568463,-0.0058767783711,-0.0394091687956,-4.82368345944e-05,-0.0531017017313,-0.00747878692744,0.0150245896528,-0.00503547891693,0.573902615259,0.81890896785,0.00215347961189,0.0,0.81886810289,-0.573842842841,-0.0118392859273,0.0,-0.00845970143179,0.00855817769231,-0.999927592902,0.0,0.660787481742,0.25971435587,0.303453429887,1.0,-0.0062,-0.00814857142857,0.311
0.464332916578,0.541996783413,-0.124002956241,-1.36448405144,0.0790028136634,1.89720365716,0.158120710037,-0.0107166296204,-0.037254417452,0.000869978083162,-0.0575966447867,-0.00328994695814,0.0254821569704,-0.0103244030619,0.573916851011,0.818898976105,0.00215915766869,0.0,0.818858213806,-0.573857083547,-0.0118330150893,0.0,-0.00845115872919,0.00855937554443,-0.999927654886,0.0,0.660676824873,0.259561778328,0.303459522834,1.0,-0.00656,-0.00862171428571,0.329
0.464255412446,0.54136919284,-0.124005940421,-1.3654454018,0.0789513382153,1.89755266101,0.158000607475,-0.00214481241001,-0.0390677122769,0.00161512409975,-0.0602047619336,-0.000464410005041,0.0243275408823,-0.0107841424047,0.573928164885,0.818890996987,0.00217795924502,0.0,0.818850422836,-0.573868264726,-0.0118299054408,0.0,-0.00843770382002,0.0085731038279,-0.999927650905,0.0,0.66057163672,0.259428112485,0.303476495643,1.0,-0.00688,-0.00904228571429,0.345
0.464154550629,0.54070641095,-0.124008398282,-1.36646716616,0.0788887090957,1.89793321486,0.157853169931,-0.00829309293619,-0.0346231485321,0.000647378416191,-0.0584443887662,-0.00210418534651,0.0217943478217,-0.00256551654141,0.573931681437,0.818888486573,0.00219510846836,0.0,0.81884815001,-0.573871728394,-0.0118191994583,0.0,-0.00841905775908,0.00858103873829,-0.99992774001,0.0,0.660459371564,0.259263172433,0.303491729317,1.0,-0.00722,-0.00948914285714,0.362
0.464052419116,0.53999229904,-0.124012337557,-1.36754389442,0.0788342338112,1.89833615603,0.157728987624,-0.0100935658799,-0.0457699933969,0.000297477166433,-0.0641101804337,-0.0027235416781,0.0320033385465,-0.00205846942549,0.573961457635,0.818867510898,0.00223419940146,0.0,0.818827609365,-0.57390127375,-0.0118076683373,0.0,-0.00838686757179,0.00860673639125,-0.999927789663,0.0,0.660340250483,0.259093533548,0.303518983451,1.0,-0.00756,-0.009936,0.379
0.463957108623,0.539251909001,-0.12402533139,-1.36870844522,0.0787572877215,1.89876321982,0.157579470337,-0.0119854539706,-0.0442778652364,-0.00597512121262,-0.0725203594935,-0.00132612936202,0.0228956416593,-0.010843348927,0.573970016574,0.818861524808,0.00222938641928,0.0,0.818821665587,-0.573909957869,-0.0117977593636,0.0,-0.00838142552422,0.00859719556117,-0.999927917369,0.0,0.660207671443,0.258911082035,0.303525246065,1.0,-0.0079,-0.0103828571429,0.396
0.463857300699,0.538557608036,-0.124023598485,-1.36979914507,0.0786943788446,1.89919428422,0.15743818346,-0.00385797214411,-0.0445828113822,0.000694273718541,-0.0692191802069,-0.00487970734696,0.0278917956386,-0.00778473605248,0.57397589427,0.818857292365,0.00227033892693,0.0,0.81881794281,-0.573915654141,-0.0117790222462,0.0,-0.00834251583216,0.00862003503942,-0.999928046124,0.0,0.660082086718,0.258736255171,0.30353873213,1.0,-0.00824,-0.0108297142857,0.413
0.46374245287,0.537782737312,-0.124038525381,-1.37102000467,0.0786327309236,1.8996687385,0.157291935347,-0.00992634387698,-0.0443581812927,-0.000832173301831,-0.0707429397226,-0.00130806588613,0.0324491834791,-0.00623699333373,0.574014274872,0.81883034801,0.00228480234261,0.0,0.818791186295,-0.573953974716,-0.0117717906203,0.0,-0.008327888362,0.00862811799543,-0.999928098343,0.0,0.659957476422,0.258547914339,0.303541657451,1.0,-0.00856,-0.0112502857143,0.429
0.46364732462,0.536956723251,-0.124042855621,-1.37227712773,0.0785497444317,1.90013774424,0.157140901695,-0.00538348955669,-0.0516629999759,0.000798554412066,-0.0769446843322,-0.0094374699767,0.0211680958876,-0.0061592213295,0.574018551384,0.818827273847,0.0023119629303,0.0,0.818788542394,-0.573958228361,-0.0117482697758,0.0,-0.00829299323127,0.00863689984284,-0.999928312543,0.0,0.659811651611,0.258362647173,0.303567285865,1.0,-0.0089,-0.0116971428571,0.446
0.463526281169,0.536127579657,-0.124051085125,-1.37359884715,0.0784744144272,1.90063973225,0.156981138707,-0.00714901119491,-0.049566344736,-0.000341093115236,-0.0777076407726,-0.00319752185468,0.032566892582,-0.00778254843351,0.574045289585,0.818808509584,0.00231884437911,0.0,0.818769870376,-0.573984940381,-0.0117445511277,0.0,-0.00828571617765,0.00864067052455,-0.999928340293,0.0,0.659664385897,0.25815387326,0.303567244266,1.0,-0.00924,-0.012144,0.463
0.463425332145,0.535230274405,-0.124058097311,-1.37499174881,0.0783953644994,1.90114040208,0.156804761361,-0.00543594469315,-0.0560962364868,-0.000601939869065,-0.0863270950277,-0.00439181585109,0.0324972132605,-0.00764217835054,0.574043674926,0.818809625405,0.00232454792164,0.0,0.818771013747,-0.573983255975,-0.0117471617756,0.0,-0.00828459705247,0.00864682285204,-0.999928296382,0.0,0.659496547031,0.257950837188,0.30358109472,1.0,-0.00958,-0.0125908571429,0.48
0.463301349355,0.534351846021,-0.12405566469,-1.37642394988,0.0783176378576,1.90166264063,0.156638116827,-0.00905177763678,-0.052762652546,-0.000432975856331,-0.0859856129876,-0.0066650022198,0.035940561466,-0.0075497040554,0.574064762978,0.818794905266,0.00230172067443,0.0,0.818755877979,-0.57400430361,-0.0117736406527,0.0,-0.00831915957967,0.0086435459774,-0.999928037759,0.0,0.659326751383,0.257734871816,0.303564329443,1.0,-0.00992,-0.0130377142857,0.497
0.463185382944,0.533471556462,-0.124053161964,-1.37782359625,0.0782291571809,1.90217431083,0.15646585852,-0.00938864454274,-0.0533716120967,0.00107200827941,-0.089502289638,0.000307009819559,0.0387771577279,-0.00964079654005,0.574069761657,0.818791425339,0.00229291150517,0.0,0.818752278781,-0.574009330202,-0.0117788680576,0.0,-0.00832844391681,0.00863938483324,-0.999927996434,0.0,0.659160628127,0.257525694137,0.303563251235,1.0,-0.01024,-0.0134582857143,0.513
0.463062754731,0.532538535906,-0.124058150266,-1.37933588499,0.0781583160078,1.90275326637,0.156275415108,-0.00380555539213,-0.0544920686324,-0.000366008488434,-0.0952039453378,-0.00560514243318,0.0402860618101,-0.00356414028249,0.574081629124,0.818783083522,0.00230046564867,0.0,0.818743882546,-0.574021008989,-0.0117933427803,0.0,-0.00833583444454,0.0086540002293,-0.999927808466,0.0,0.6589851925,0.2573025062,0.303551696642,1.0,-0.01058,-0.0139051428571,0.53
0.46292091472,0.531567041289,-0.124058153195,-1.3808834123,0.0780580280359,1.90331875585,0.156079486093,-0.00992773215158,-0.061866773809,-0.00142058857477,-0.0949937832554,-0.00802121917529,0.0406053160414,-0.0110322672083,0.574094785468,0.818773896546,0.0022870362999,0.0,0.818734548829,-0.574034244,-0.0117971254942,0.0,-0.00834650195156,0.0086453103119,-0.999927794651,0.0,0.658804887731,0.257060254334,0.303548897204,1.0,-0.01092,-0.014352,0.547
0.462802074935,0.53063397339,-0.124058863877,-1.38242096971,0.0779599496168,1.90385225807,0.155885081503,-0.0072736867826,-0.0560606880765,-0.000976192605871,-0.104240624564,-0.00628035243083,0.0325524593064,-0.00986766948655,0.574090608398,0.818777001108,0.00222321981572,0.0,0.818736794616,-0.574030284996,-0.0118338476515,0.0,-0.00841324876832,0.00861409851165,-0.999927504648,0.0,0.658613216342,0.256831647598,0.303520823984,1.0,-0.01124,-0.0147725714286,0.563
0.462660169384,0.529601539118,-0.124058726036,-1.38405837702,0.0778609213558,1.90445204471,0.155657508589,-0.00969408027855,-0.0617420228921,0.000748748868685,-0.0983363043374,-0.00615007231996,0.0400168146894,-0.0225672000845,0.574082697623,0.818782560782,0.00221841163642,0.0,0.818742256768,-0.574022358265,-0.0118404432184,0.0,-0.00842149267982,0.00861386677713,-0.999927437247,0.0,0.658419427958,0.256582149292,0.303520733509,1.0,-0.01154,-0.0151668571429,0.58
0.462520589885,0.528519455458,-0.124060166237,-1.38573161732,0.0777547030502,1.90507783957,0.155436186266,-0.00646502852522,-0.0649743054543,-0.00181381272343,-0.0996897382133,-0.00645223809473,0.0373125032177,-0.0129808123068,0.574078939253,0.818785124994,0.00224443691551,0.0,0.818745197831,-0.574018537965,-0.0118222672402,0.0,-0.00839170972963,0.0086247026355,-0.999927594235,0.0,0.658223445908,0.256330294125,0.303540588645,1.0,-0.01192,-0.0156662857143,0.597
0.462382642099,0.52741083494,-0.124062750899,-1.38745277078,0.077652346131,1.90574929077,0.155189486223,-0.00430638489898,-0.0670278784069,0.000341369565072,-0.103921171597,-0.00460086510612,0.035478357825,-0.0190579388573,0.574057525917,0.818800002237,0.00229350748258,0.0,0.818760732411,-0.573996957833,-0.011794166408,0.0,-0.00834075774894,0.00864853036568,-0.999927814736,0.0,0.658025199696,0.25607723587,0.303560068165,1.0,-0.01226,-0.0161131428571,0.614
0.462219765206,0.526186333663,-0.124065946687,-1.38935880797,0.0775208215353,1.90647011702,0.154932016665,-0.0134249422889,-0.0684353626653,0.00103155116752,-0.106954322471,-0.00773928852092,0.0417163970826,-0.00704596304105,0.574049827498,0.818805335147,0.00231637354128,0.0,0.818766512904,-0.573989329711,-0.011764082053,0.0,-0.00830307931175,0.00864990489762,-0.999928116426,0.0,0.657804087958,0.255785690554,0.303577063768,1.0,-0.01262,-0.0165862857143,0.632
0.462064391122,0.52500746178,-0.124077618932,-1.39118643216,0.0774112273272,1.90712487537,0.154689695792,-0.0105724139409,-0.0668403279622,-6.8159374091e-05,-0.1082183125,-0.0111526052773,0.0340656389205,-0.0081579291257,0.574055639723,0.818801249671,0.00232011646086,0.0,0.818762466168,-0.573995116766,-0.011763367916,0.0,-0.00830028463731,0.00865261855933,-0.99992811615,0.0,0.65758517307,0.255501962792,0.303593519823,1.0,-0.01296,-0.0170331428571,0.649
0.461916502159,0.523851751342,-0.124084017674,-1.39308169222,0.0772859897472,1.90779837822,0.154430195008,-0.00794962810954,-0.0674223641511,-0.000210343858778,-0.11133259202,-0.0119764785279,0.0352920676322,-0.0153211759941,0.574036730509,0.818814685675,0.0022559811293,0.0,0.818775112591,-0.573976499762,-0.0117915064386,0.0,-0.00836033944845,0.00861606489286,-0.999927931478,0.0,0.657350640911,0.255216694563,0.303562670878,1.0,-0.0133,-0.01748,0.666
0.461769658027,0.522773989772,-0.124081513133,-1.39478734478,0.0771928385107,1.90844070437,0.154198433759,-0.0119623353371,-0.0757776311936,0.000703698649782,-0.114215776914,-0.00858671509851,0.0423175244834,-0.01962126625,0.574031905193,0.818818020297,0.00227340246886,0.0,0.818778558295,-0.573971489027,-0.0117961503094,0.0,-0.00835419308737,0.00863294604289,-0.999927837247,0.0,0.657147828784,0.254961833757,0.303564014522,1.0,-0.0136,-0.0178742857143,0.681
0.461607975555,0.521540524031,-0.124081928656,-1.396739543,0.0770683875151,1.90921156767,0.153938735551,-0.00832749596258,-0.0748429170158,0.000616028566144,-0.118282567427,-0.0129100624705,0.051091890613,-0.0117849185657,0.574023096161,0.818824089398,0.0023114055851,0.0,0.81878521041,-0.57396262861,-0.0117655035264,0.0,-0.00830737722863,0.00864638194008,-0.999928111197,0.0,0.65692230636,0.254671991942,0.303568350087,1.0,-0.01394,-0.0183211428571,0.698
0.461448931661,0.520350864763,-0.124090668879,-1.39863935519,0.076949527268,1.90991410146,0.153673427603,-0.00889499627051,-0.0732231943046,-0.000564183984371,-0.125267774278,-0.0143943509452,0.0368157122164,-0.0153836280609,0.574011588232,0.818832188901,0.00229997719459,0.0,0.818793197374,-0.573951202776,-0.0117670585895,0.0,-0.00831533176045,0.00863779997522,-0.999928119251,0.0,0.656694599138,0.254381021595,0.303560863213,1.0,-0.01426,-0.0187417142857,0.714
0.461265470444,0.51896455356,-0.124096108828,-1.4008189284,0.0768173133795,1.91070077689,0.153387230118,-0.00551627391455,-0.0734564779176,-0.00116795348007,-0.117869377032,-0.00843226382909,0.0502638482831,-0.015720887426,0.574011488884,0.818832277067,0.00229337374711,0.0,0.818793159529,-0.573951086787,-0.0117753465586,0.0,-0.00832590978085,0.0086371492385,-0.99992803685,0.0,0.656428277315,0.254048928588,0.303565109924,1.0,-0.01462,-0.0192148571429,0.732
0.461087194218,0.517589351955,-0.12410147141,-1.40294235812,0.0766723498105,1.91145200056,0.153094253119,-0.0123596608852,-0.0825662118789,-0.00211977494844,-0.133003783757,-0.0114928234413,0.0480870447667,-0.0131087993115,0.573994500715,0.81884420193,0.00228757867818,0.0,0.818805090692,-0.573934207382,-0.011768430383,0.0,-0.0083237515875,0.00862826150974,-0.999928131549,0.0,0.656166407286,0.253722434293,0.303584715443,1.0,-0.01496,-0.0196617142857,0.749
0.460939119889,0.516496880426,-0.12409713183,-1.40469837959,0.076558942247,1.91210690949,0.152857331172,-0.0156969303631,-0.0760536902369,0.00121946527953,-0.129598308523,-0.00948981446936,0.0491951800353,-0.0119438800761,0.57398099182,0.818853702849,0.00227623849286,0.0,0.818814454092,-0.573920753496,-0.0117730784979,0.0,-0.00833420887032,0.00862150624261,-0.999928102712,0.0,0.65595262853,0.253459872256,0.303571901709,1.0,-0.01524,-0.0200297142857,0.763
0.460707010057,0.514800891843,-0.124103675822,-1.40739803543,0.0763962818694,1.91312828427,0.152484693461,-0.0108596337788,-0.0830024797822,0.00175748833146,-0.130475870644,-0.00825065833985,0.0515102381196,-0.0201338304411,0.573969286535,0.818861873464,0.00228849339962,0.0,0.818822779529,-0.573908998473,-0.0117670768869,0.0,-0.00832238390147,0.00862797736707,-0.999928145385,0.0,0.655629764805,0.253048710611,0.303564903149,1.0,-0.01566,-0.0205817142857,0.784
0.46054104179,0.513540738034,-0.124109672701,-1.40939446353,0.0762827357408,1.91381234148,0.152203232969,-0.0111689253335,-0.0832369119751,-0.000473487080084,-0.133552108221,-0.0107967480645,0.0423833817072,-0.0245972755163,0.573953044602,0.818873367404,0.00224892171946,0.0,0.818833600142,-0.573892746034,-0.0118067026881,0.0,-0.00837771582391,0.00861815154864,-0.999927768062,0.0,0.65537455419,0.25274415944,0.303557327985,1.0,-0.01596,-0.020976,0.799
0.46034271096,0.512136835277,-0.12411204163,-1.41166538788,0.0761436344048,1.91461597601,0.151890605102,-0.0149211212012,-0.0864303419067,-3.44756548024e-06,-0.134161041195,-0.0113822694345,0.0555881065828,-0.0193934015278,0.573939130866,0.818883268038,0.00219414895882,0.0,0.818842675684,-0.573878932808,-0.0118486226757,0.0,-0.00844362556146,0.00859721652779,-0.999927393892,0.0,0.655071628493,0.252373646205,0.303530649957,1.0,-0.01632,-0.0214491428571,0.817
0.460123131693,0.510513085791,-0.124115020328,-1.41425586199,0.0759875614817,1.91560361694,0.151528336542,-0.014864293022,-0.0868406115241,-0.000828592812144,-0.14193367898,-0.00836120101431,0.0633323710645,-0.016729657566,0.573921256232,0.818895753534,0.0022098394568,0.0,0.818855377516,-0.573861011024,-0.0118388192358,0.0,-0.00842678033583,0.00860425458933,-0.999927475458,0.0,0.654776643796,0.252004023782,0.303519405769,1.0,-0.01668,-0.0219222857143,0.835
0.459956233451,0.5092814392,-0.124112790081,-1.41619822967,0.0758644869434,1.91631678664,0.151260213827,-0.0150607710292,-0.0875989512386,-0.000499632600047,-0.135519339789,-0.0135898175849,0.0492317760685,-0.0186652187633,0.573904638941,0.818907399851,0.00220969950486,0.0,0.818867004585,-0.573844378557,-0.0118408150825,0.0,-0.00842866973017,0.00860511439438,-0.999927452135,0.0,0.654535945604,0.251710297619,0.303518637216,1.0,-0.01696,-0.0222902857143,0.849
0.459749588047,0.507771609106,-0.124113193558,-1.418570968,0.0757063908977,1.91716966514,0.150913992616,-0.0079097472546,-0.0884022682049,0.000949545932777,-0.140258089074,-0.011256110214,0.0486215098288,-0.0246434396009,0.573870827919,0.818931134538,0.00219468659282,0.0,0.818890576932,-0.573810664492,-0.0118444598361,0.0,-0.00844062486757,0.00859456361457,-0.999927442032,0.0,0.654239324209,0.251345545692,0.303519416106,1.0,-0.0173,-0.0227371428571,0.866
0.459525736384,0.506214124767,-0.124121591717,-1.42100100936,0.0755560486549,1.91805902148,0.150595304107,-0.00981744681678,-0.0924799194029,-0.0026003529109,-0.142144850464,-0.00944109351096,0.0504681824037,-0.0187351936167,0.573884233924,0.818921709321,0.00220611824526,0.0,0.818881296652,-0.57382401995,-0.011839046502,0.0,-0.00842949085198,0.0086009566965,-0.999927480984,0.0,0.653942247773,0.250962461204,0.30352913496,1.0,-0.01764,-0.023184,0.883
0.459316821551,0.504702750067,-0.124125309136,-1.42331879452,0.0754100886196,1.91896502038,0.150272730241,-0.0150221751242,-0.105181914211,0.000168036553141,-0.148816799633,-0.0162443734811,0.0540579927691,-0.0202215799728,0.573874159459,0.818928550038,0.00228603113583,0.0,0.818889259695,-0.573813722261,-0.0117872559588,0.0,-0.00834132499239,0.00863657423098,-0.999927913343,0.0,0.653668183607,0.250606434214,0.30356077521,1.0,-0.01796,-0.0236045714286,0.899
0.459094687312,0.503041863902,-0.124125251102,-1.42579581138,0.0752553708784,1.91990326132,0.149917531998,-0.0104674287943,-0.099913949309,0.0011563495648,-0.14560204187,-0.0112340824283,0.0557014864019,-0.0203895110542,0.573850628548,0.818944744702,0.00238917168755,0.0,0.818906815979,-0.573789828649,-0.011730566181,0.0,-0.00823596168087,0.00868826903176,-0.999928338891,0.0,0.653368195751,0.250227942648,0.303623099299,1.0,-0.0183,-0.0240514285714,0.916
0.458857131142,0.501346935968,-0.124134544728,-1.42832159763,0.0750902115656,1.92081796064,0.149566407055,-0.0178956996247,-0.103576819046,-0.00051664918898,-0.151265328434,-0.00468863071034,0.0515490600555,-0.0166775245399,0.573848590235,0.818945977157,0.00245537875466,0.0,0.81890897618,-0.573787620851,-0.0116876769223,0.0,-0.00816286722439,0.00871785647285,-0.999928680745,0.0,0.65305808699,0.249825468184,0.303683554332,1.0,-0.01864,-0.0244982857143,0.933
0.458595699106,0.499440449872,-0.124137295072,-1.43122977391,0.0749031441407,1.92184894392,0.149153635928,-0.0137040024677,-0.107992771132,0.000128054979935,-0.153392952673,-0.0107905246464,0.0587406500869,-0.0224509071315,0.573823935903,0.81896318421,0.00247798181314,0.0,0.818926449346,-0.573762859051,-0.0116789998134,0.0,-0.0081430537248,0.00873114258966,-0.999928726373,0.0,0.652689040824,0.249373182576,0.30371882648,1.0,-0.01902,-0.0249977142857,0.952
0.458365618648,0.497967430866,-0.124146120759,-1.43355471334,0.0747558966376,1.92272362612,0.14881409526,-0.0188860403323,-0.0996287933878,-0.00237548284876,-0.156474717625,-0.0143184521456,0.06194664115,-0.025996685747,0.573819083165,0.818966542613,0.00249174193409,0.0,0.818930035323,-0.573758010316,-0.0116657509781,0.0,-0.0081243592703,0.00873476101201,-0.999928846837,0.0,0.652408327388,0.24899711093,0.303715479826,1.0,-0.01932,-0.025392,0.967
0.458115359264,0.49640357925,-0.124138351716,-1.43606662818,0.0746018925817,1.92360895385,0.148445381002,-0.0189059133276,-0.099671507188,0.00217647019807,-0.15477394603,-0.0163452751776,0.0494240363644,-0.0219930475307,0.57380192256,0.818978718136,0.00244127175137,0.0,0.818941396121,-0.57374086319,-0.0117114698894,0.0,-0.00819094493668,0.00871949031214,-0.999928436894,0.0,0.652087542408,0.248596462628,0.303686388775,1.0,-0.01964,-0.0258125714286,0.983
0.457847789014,0.494725277981,-0.124141123707,-1.43880283211,0.0744360453263,1.92455164015,0.148058913118,-0.0152394636601,-0.10206361898,-0.00212063864666,-0.163385335412,-0.0168731730458,0.0588258342173,-0.0215118073285,0.573799539466,0.818980668537,0.00234520218477,0.0,0.818941917872,-0.573738647475,-0.0117833122419,0.0,-0.00830493170354,0.00868201066837,-0.999927822795,0.0,0.651733014158,0.248155433313,0.303635052374,1.0,-0.01998,-0.0262594285714,1.0
0.457570735072,0.492990876099,-0.124144743449,-1.44160723089,0.0742535689829,1.9255855043,0.147671445128,-0.0144767676512,-0.109789860607,-0.000823830373407,-0.172826217176,-0.0108018852371,0.0676364508862,-0.0217222755576,0.573803273382,0.818978162165,0.00230656740999,0.0,0.818938934971,-0.573742555046,-0.0118003482362,0.0,-0.0083410122225,0.00866018303849,-0.99992771176,0.0,0.651383745161,0.247703944227,0.303597566484,1.0,-0.0212965714286,-0.0279897795918,1.017
0.457263051085,0.491014987673,-0.124145123175,-1.44477678238,0.0740597165773,1.92672233425,0.147217533117,-0.0182773229093,-0.109175858718,0.00043226254711,-0.181795346323,-0.0102384222464,0.0596713384568,-0.0256925788299,0.573789895897,0.818987666653,0.00225923400754,0.0,0.81894767968,-0.573729213536,-0.0118420599169,0.0,-0.00840247424299,0.00864521522241,-0.999927326699,0.0,0.650978572767,0.247199658686,0.303562390744,1.0,-0.0227777142857,-0.0299364244898,1.035
0.456940858144,0.489031472274,-0.124158543948,-1.44796739298,0.0738623874667,1.92784281214,0.146757419313,-0.0184840256721,-0.12531207201,0.000249808288265,-0.188760422843,-0.00205834396226,0.0709917939792,-0.0251100540841,0.573791915796,0.818986456633,0.00218360261935,0.0,0.818945376364,-0.573731421705,-0.0118942499256,0.0,-0.00848859159736,0.00861324155231,-0.999926875268,0.0,0.650570103697,0.246674482693,0.303520597282,1.0,-0.0241765714286,-0.031774922449,1.052
0.456632725601,0.487135153503,-0.124173074227,-1.45087773862,0.0736721250232,1.92897142582,0.146338974943,-0.0235042692278,-0.127031707116,-0.00051230200878,-0.198586430177,-0.0141622317111,0.0813205523296,-0.0221071877271,0.573805019665,0.818977039901,0.00227033558915,0.0,0.818937267817,-0.573744364712,-0.0118280278317,0.0,-0.00838445239789,0.00864641063718,-0.99992746764,0.0,0.650224157314,0.246191523442,0.30355124613,1.0,-0.0254108571429,-0.0333971265306,1.067
0.456263889592,0.484870367088,-0.124205331748,-1.45430884791,0.073457699114,1.93026301129,0.145812201369,-0.0198650431498,-0.130945184294,-0.00522803129261,-0.205685632036,-0.0113159083431,0.0721481529202,-0.0360676371476,0.5738103475,0.818973026305,0.00236942797044,0.0,0.818934674947,-0.573749451293,-0.0117606211735,0.0,-0.00827233278379,0.00868894013618,-0.999928032825,0.0,0.649811557732,0.245609256686,0.303603559867,1.0,-0.0268097142857,-0.0352356244898,1.084
0.45581987204,0.482207403752,-0.124244413995,-1.45842947034,0.0731997796565,1.93165236017,0.145194935335,-0.0224952760603,-0.139277544389,-0.00430447917594,-0.217471264778,-0.0164055912378,0.0745882952924,-0.0359490814313,0.57382828701,0.818960630674,0.00230853501409,0.0,0.818921392925,-0.573767520477,-0.0118038788773,0.0,-0.00834251029799,0.00866407511591,-0.999927665546,0.0,0.649279672165,0.244898055079,0.3036114017,1.0,-0.0283731428571,-0.0372904163265,1.103
0.455423249814,0.479849900051,-0.124258346967,-1.46207994159,0.0729829186188,1.93300038813,0.144658774692,-0.0256289240732,-0.151990378793,-0.0013039072338,-0.230413545856,-0.0176608385036,0.0806142791276,-0.0354804873952,0.573843803856,0.818949616166,0.00235835941504,0.0,0.818910922153,-0.573782736704,-0.0117906547937,0.0,-0.00830292615544,0.00869744793297,-0.999927705295,0.0,0.64882496926,0.244287837206,0.303625423124,1.0,-0.0296897142857,-0.0390207673469,1.119
0.454987930679,0.477247498302,-0.124270468608,-1.46603661339,0.0727360698592,1.93446934772,0.144076338067,-0.0245848021596,-0.154200656111,0.000165636155534,-0.241561734078,-0.0118491791484,0.0823049376429,-0.042370490348,0.573857227318,0.818939928277,0.00245426771195,0.0,0.818902476822,-0.573795795678,-0.0117416020667,0.0,-0.00820757628102,0.00874797754002,-0.999928051702,0.0,0.648333537743,0.243624289954,0.303672239557,1.0,-0.0310885714286,-0.0408592653061,1.136
0.454633958664,0.475192544508,-0.12428313372,-1.46920915645,0.0725377917138,1.93563506757,0.143625883165,-0.0235594484942,-0.158476395535,-0.000385550740032,-0.25101741666,-0.0235207591146,0.089751929721,-0.0428811598397,0.573886783217,0.818919100344,0.00249279796433,0.0,0.81888213473,-0.57382519101,-0.0117237572582,0.0,-0.00817053578662,0.0087695859003,-0.999928165774,0.0,0.647936083286,0.243086346841,0.30368582412,1.0,-0.0321582857143,-0.0422651755102,1.149
0.454102490091,0.472068389124,-0.124289995095,-1.47405818679,0.0722332706645,1.93730787853,0.142918037996,-0.0278853774143,-0.167953658171,0.000146573085481,-0.257211124417,-0.0193705700906,0.081943325668,-0.0335435462577,0.573896654012,0.818912305209,0.002452303643,0.0,0.818874571231,-0.573834950948,-0.0117742329966,0.0,-0.00823500529398,0.00876549077735,-0.999927672814,0.0,0.647297822079,0.242270665578,0.303683336119,1.0,-0.0337217142857,-0.0443199673469,1.168
0.453617763539,0.469132244392,-0.124285078176,-1.47849174385,0.0719511151641,1.93898291867,0.142215287092,-0.0285572717247,-0.177534488568,0.000282247439705,-0.259980462345,-0.0157812857465,0.102662507781,-0.0412915060856,0.573849168564,0.818945116587,0.00260281715553,0.0,0.818909337282,-0.573786922394,-0.011696662072,0.0,-0.00808561751222,0.00884376134671,-0.99992820276,0.0,0.646739319993,0.241542657186,0.303746129952,1.0,-0.0351205714286,-0.0461584653061,1.185
0.453107975153,0.466092959488,-0.124285140455,-1.48311078364,0.0716320050761,1.94066067541,0.141483669634,-0.0310109468395,-0.184136785446,0.000675211215675,-0.280173472734,-0.0213738579713,0.0904976686795,-0.0394553542083,0.573798297645,0.818980532404,0.00267358645022,0.0,0.818945788426,-0.573735938356,-0.0116454093368,0.0,-0.00800358500177,0.00887180922609,-0.999928614266,0.0,0.646143303433,0.24077005687,0.303790125418,1.0,-0.0365194285714,-0.0479969632653,1.202
0.452493012316,0.462626895082,-0.124301361254,-1.488586507,0.0712675325008,1.94252573424,0.140672950571,-0.034330362467,-0.181770522188,-0.00183537827565,-0.289311996174,-0.0213008977565,0.103791608325,-0.0482022142555,0.573806405681,0.81897526867,0.00254263793192,0.0,0.81893868039,-0.573744351395,-0.0117304690939,0.0,-0.00814829680665,0.00881345254664,-0.999927961562,0.0,0.645408781686,0.239830991304,0.303735363301,1.0,-0.0380828571429,-0.050051755102,1.221
0.45196143364,0.459596923241,-0.124294953992,-1.49329437193,0.0709565818899,1.94417178527,0.139986421766,-0.0337458548255,-0.191511283764,0.000732207078797,-0.290332139345,-0.0183242451415,0.100896018759,-0.0439941520912,0.573808467171,0.818973913482,0.00251375029722,0.0,0.818936793724,-0.573746349995,-0.0117643807346,0.0,-0.00819262360543,0.00880927349095,-0.999927636191,0.0,0.644778920776,0.23903823335,0.303723337856,1.0,-0.0393994285714,-0.0517821061224,1.237
0.451348908066,0.456330747423,-0.124306380078,-1.49846198233,0.0706116716057,1.94601696048,0.139183553993,-0.0401748007726,-0.19746531412,-0.00118848967879,-0.310155636315,-0.0244672406794,0.11125248293,-0.0463729984287,0.573805023926,0.818976502544,0.00245554467674,0.0,0.818938590786,-0.573743086291,-0.011798404852,0.0,-0.00825392347355,0.00878109333884,-0.999927379937,0.0,0.644100308724,0.238140382208,0.303670739077,1.0,-0.0407982857143,-0.0536206040816,1.254
0.450712940622,0.452920039899,-0.124351609518,-1.50377783548,0.0702371373385,1.94784535057,0.138335865404,-0.0368111162581,-0.210083348417,-0.00554011827084,-0.308394276195,-0.0181421134444,0.119993483412,-0.0500546529609,0.573804353208,0.818977233011,0.00236705517558,0.0,0.818938333473,-0.573742924046,-0.011824126893,0.0,-0.00832576986463,0.0087233756568,-0.999927289493,0.0,0.643394270248,0.237187253461,0.303643614763,1.0,-0.0421971428571,-0.0554591020408,1.271
0.450147573055,0.449736283729,-0.124394001461,-1.50851463131,0.0699303222975,1.94964320808,0.137599155214,-0.0373485038152,-0.208053081041,-0.00645999654821,-0.318423567675,-0.0168638734989,0.118985042335,-0.050647356924,0.573826757867,0.818960943116,0.00256369030223,0.0,0.818924829808,-0.573764843728,-0.0116950471564,0.0,-0.00810698756801,0.00881057026807,-0.999928322733,0.0,0.642797329423,0.236355128824,0.303730436937,1.0,-0.0434314285714,-0.0570813061224,1.286
0.449465949627,0.446065470708,-0.124412812444,-1.51412360063,0.069536593061,1.95149279898,0.136773863864,-0.0422411092795,-0.212826291316,-0.00200630631786,-0.337842265012,-0.0284586168994,0.113713027555,-0.0510461533409,0.57386552951,0.81893404244,0.00247690825653,0.0,0.818896724964,-0.573803842373,-0.0117495200926,0.0,-0.00820098040565,0.00877114550047,-0.999927902864,0.0,0.642024035455,0.235357665944,0.303737365158,1.0,-0.0448302857143,-0.0589198040816,1.303
0.448736650192,0.442128963585,-0.124414290156,-1.52016929728,0.0691183365423,1.95364505914,0.135828350065,-0.0415853881688,-0.219951326925,-0.00122111453504,-0.330892909443,-0.0234114272263,0.127265327154,-0.0487866903287,0.573843424652,0.81894945915,0.00250084849105,0.0,0.818912469903,-0.573781670872,-0.0117348928153,0.0,-0.00817550050216,0.00878213617902,-0.999928015047,0.0,0.641209897353,0.234309126279,0.303740824713,1.0,-0.0463114285714,-0.0608664489796,1.321
0.44804900373,0.438578128944,-0.124413137786,-1.52569564788,0.0687548561753,1.95558580123,0.134924005713,-0.0462022657415,-0.221128255327,-0.00183061042162,-0.354242726137,-0.0304357705809,0.122195496465,-0.0520459305645,0.573809069795,0.818973618209,0.00247204374793,0.0,0.818936031461,-0.573747187644,-0.0117765846536,0.0,-0.00822654238221,0.0087821258651,-0.999927596512,0.0,0.640456808869,0.233340428688,0.303706178452,1.0,-0.047628,-0.0625968,1.337
0.447278219933,0.434633084873,-0.12443476453,-1.53162978647,0.0683407904024,1.95772282235,0.133970231917,-0.0450054792863,-0.237675877177,-0.00134106590812,-0.348955561566,-0.0217717838713,0.125309205175,-0.0547133487523,0.573819840562,0.818965735745,0.00258092119223,0.0,0.818929737487,-0.573757747493,-0.0116995363969,0.0,-0.00810085186997,0.00882718917511,-0.999928225889,0.0,0.639669856939,0.232268614948,0.303760390169,1.0,-0.0490268571429,-0.0644352979592,1.354
0.446522061099,0.430866667484,-0.124463116686,-1.53739971913,0.0679232311447,1.95974456977,0.133041101812,-0.0452946733737,-0.234573699034,-0.00163688808475,-0.363621269907,-0.0242444834264,0.122279141796,-0.0598733957046,0.573832297306,0.81895703474,0.00257229860791,0.0,0.818921118849,-0.573770445014,-0.0116800870098,0.0,-0.00808973625855,0.00880909041785,-0.999928475489,0.0,0.638889277544,0.23121242442,0.303757834179,1.0,-0.0503434285714,-0.0661656489796,1.37
0.445704774148,0.426751578713,-0.124515172064,-1.5438040852,0.0674538573216,1.96180217567,0.132027323093,-0.0473255965044,-0.243744433081,-0.00835364859467,-0.37461344228,-0.027219565157,0.133762356022,-0.0641091577338,0.573851798365,0.818944036377,0.0023506801339,0.0,0.818905250877,-0.573790768128,-0.0117937016218,0.0,-0.00830974303866,0.00869298855682,-0.999927687446,0.0,0.637976141269,0.230030107119,0.303691186421,1.0,-0.0517422857143,-0.0680041469388,1.387
0.444902971784,0.42277354888,-0.12453635741,-1.54980407883,0.0670310493637,1.96389031587,0.131017418173,-0.0505842222666,-0.251907840406,-0.00221158234332,-0.381429858686,-0.0249505856886,0.130550364568,-0.0633566139776,0.57383311219,0.818957004662,0.00239390303009,0.0,0.818918823142,-0.573771965414,-0.0117660404955,0.0,-0.00826248591278,0.00871232362702,-0.999927910773,0.0,0.637150999515,0.228931464129,0.303720979146,1.0,-0.0530588571429,-0.0697344979592,1.403
0.443898044468,0.417955107497,-0.12455730327,-1.55703839604,0.0665382535162,1.96645735099,0.129881425436,-0.0553165507806,-0.255705485102,-0.000949002598787,-0.382155731572,-0.0224633963287,0.136697164842,-0.0593621515998,0.573907277499,0.818904671484,0.00251450925502,0.0,0.818868030116,-0.573845649453,-0.0117075513764,0.0,-0.00814458512576,0.00877826918585,-0.999928301291,0.0,0.636164821669,0.227593201042,0.303770799468,1.0,-0.0546222857143,-0.0717892897959,1.422
0.443037480962,0.413794350392,-0.124568408889,-1.56323793671,0.066105163639,1.96870148025,0.128833144231,-0.0540943786818,-0.259713446696,-0.00213715518763,-0.393368649506,-0.0312670736869,0.141764165436,-0.0619116915163,0.5738974882,0.818911016359,0.00267716737325,0.0,0.81887659203,-0.573835407239,-0.0116103111771,0.0,-0.0079717117766,0.00885556861382,-0.999929012838,0.0,0.635320769262,0.226454118642,0.303833793726,1.0,-0.0559388571429,-0.0735196408163,1.438
0.442053343882,0.409046635436,-0.124582117386,-1.57051011106,0.0655906242169,1.97100513206,0.127628582788,-0.0576083059071,-0.266668668947,-0.0025201448997,-0.392763810375,-0.0254086077955,0.118180412921,-0.0598776005466,0.573878595886,0.818924849973,0.00248881130984,0.0,0.818887558462,-0.573816725413,-0.0117592148675,0.0,-0.00820194962813,0.0087865875029,-0.999927759342,0.0,0.634246746013,0.22511281377,0.303784698564,1.0,-0.05742,-0.0754662857143,1.456
0.441209630325,0.40502301737,-0.124597031124,-1.57663306066,0.0651542356708,1.97312217632,0.126625266993,-0.0545911903775,-0.267405136265,-0.00229491205195,-0.402273941416,-0.029017803228,0.136718953882,-0.0639768623407,0.57388332644,0.818921526217,0.00249167307536,0.0,0.818884243687,-0.573821414573,-0.0117612295179,0.0,-0.00820190657032,0.0087901345779,-0.99992772852,0.0,0.633375742121,0.223984613869,0.303772131427,1.0,-0.0586542857143,-0.0770884897959,1.471
0.440264220358,0.400648967977,-0.124592144655,-1.58316994333,0.0647100659292,1.97544152598,0.12548627025,-0.0622588268681,-0.27281645802,-0.000331433735621,-0.398393390216,-0.025540132141,0.153837658715,-0.0727793269531,0.573857742426,0.81893903065,0.00262724902991,0.0,0.818903342811,-0.573795160719,-0.0117121974722,0.0,-0.00808422851177,0.00887276904155,-0.999927957014,0.0,0.6324569406,0.222774062099,0.303811295161,1.0,-0.0599708571429,-0.0788188408163,1.487
0.439208752541,0.395867488157,-0.124612585917,-1.59021493044,0.0641731214001,1.97789274813,0.12426917945,-0.0627477984097,-0.282195614129,-0.000879622990819,-0.420160451943,-0.0379114346234,0.142161060398,-0.0734387797389,0.573864687841,0.81893373838,0.00275664536751,0.0,0.818900054197,-0.573802017245,-0.011605737498,0.0,-0.00792271385998,0.00891771166089,-0.999928849981,0.0,0.631466224589,0.221422458552,0.303889495176,1.0,-0.0613697142857,-0.0806573387755,1.504
0.438147066258,0.39104125355,-0.124625553539,-1.59759349918,0.0636247421855,1.98022603199,0.123063187931,-0.0695647441253,-0.290376967108,-0.00016226453209,-0.428228537298,-0.0368123024706,0.13951652485,-0.071575783299,0.573885282088,0.818919946479,0.00255952395174,0.0,0.818883409096,-0.573822973944,-0.011743244151,0.0,-0.00814822010427,0.00883539679026,-0.999927768528,0.0,0.630354701605,0.220027828985,0.303824114447,1.0,-0.0627685714286,-0.0824958367347,1.521
0.437072919883,0.386146602346,-0.124624247116,-1.60500251887,0.0630729632781,1.98269696725,0.12172098263,-0.0628758563406,-0.292049567263,0.00123347269068,-0.43667260766,-0.0253157686841,0.14158437285,-0.0809615910547,0.57379012622,0.818986777082,0.00250936636799,0.0,0.818949456066,-0.573727872595,-0.01178403658,0.0,-0.00821143480738,0.00881677780905,-0.999927415749,0.0,0.629254596753,0.218641945288,0.303795620558,1.0,-0.0641674285714,-0.0843343346939,1.538
0.435945733055,0.381102343743,-0.124632887082,-1.61232040635,0.0625553650205,1.98528299409,0.120418829753,-0.0688593922458,-0.299190313289,-0.00133842017692,-0.433779140195,-0.0278253929292,0.153166015795,-0.0756358975281,0.573782406186,0.81899134501,0.002770207794,0.0,0.818957440077,-0.573719253514,-0.0116480208548,0.0,-0.00795045978989,0.00895228407603,-0.999928320831,0.0,0.628208397758,0.217243941304,0.30391334455,1.0,-0.0655662857143,-0.0861728326531,1.555
0.434758217334,0.376086380126,-0.124641372388,-1.61993468907,0.0619668000697,1.98777057651,0.119085086985,-0.0658170207274,-0.299190017715,-0.00176690255686,-0.453260218253,-0.0360777910115,0.143147247689,-0.0797081499646,0.57378127888,0.818992522644,0.00265306635778,0.0,0.818957044074,-0.573718476294,-0.0117139584427,0.0,-0.00807168659186,0.00889416867844,-0.999927868218,0.0,0.62706751994,0.215760955494,0.303857846759,1.0,-0.0669651428571,-0.0880113306122,1.572
0.433534013761,0.370925239047,-0.124711234688,-1.62774865425,0.0613486092064,1.99024460566,0.117713498841,-0.0776243413916,-0.304087946528,-0.0107071912342,-0.465258577511,-0.0331260273758,0.143158453084,-0.080145428971,0.5738186321,0.818966939591,0.00246499760878,0.0,0.818929128094,-0.573756633086,-0.0117964422819,0.0,-0.00824674628048,0.00878784590961,-0.999927379833,0.0,0.625884329882,0.214196222492,0.30379804323,1.0,-0.068364,-0.0898498285714,1.589
0.432206802144,0.365336257993,-0.124757962385,-1.63592883804,0.0607125198896,1.99301479998,0.116289096048,-0.0778712867024,-0.316761170602,-0.000615898434181,-0.441654655284,-0.0404331108409,0.159774688234,-0.0794212200062,0.573883533449,0.818921098966,0.00258275153706,0.0,0.818885144157,-0.573821447241,-0.0116967630503,0.0,-0.00809684371599,0.00882772653508,-0.999928253609,0.0,0.624678705947,0.212563939695,0.303865369987,1.0,-0.0698451428571,-0.0917964734694,1.607
0.431062810425,0.360634921369,-0.124762241968,-1.64276913336,0.0601941871307,1.99538392534,0.11497286767,-0.0757502523618,-0.312927027369,-0.000434646959083,-0.46247339119,-0.0311213788757,0.162596882001,-0.0924670072574,0.573837376262,0.818952855881,0.00276267070411,0.0,0.818919361364,-0.573774814598,-0.0115882966017,0.0,-0.00790526992664,0.00891237383674,-0.999929035632,0.0,0.623671957274,0.211206979066,0.303937555036,1.0,-0.0710794285714,-0.093418677551,1.622
0.429702644438,0.355266600163,-0.124796253438,-1.65083822935,0.0595900982605,1.99788101693,0.11349339291,-0.0792138651855,-0.313487388035,-0.00224907801401,-0.470225876873,-0.0388361724874,0.148647880126,-0.0922771376866,0.573869978345,0.818930582287,0.00258771127398,0.0,0.818894373043,-0.573807528514,-0.0117334104372,0.0,-0.00812415684608,0.00885268463642,-0.99992781142,0.0,0.622415942429,0.209567652507,0.303874337619,1.0,-0.0724782857143,-0.0952571755102,1.639
0.428405489268,0.350168952269,-0.124833058527,-1.65852124145,0.059011630611,2.0003182848,0.112086920399,-0.0811150248691,-0.323241676697,-0.00397423095908,-0.477892697293,-0.0367153564158,0.158762457449,-0.0835569049017,0.573902304594,0.818908337686,0.00245482195813,0.0,0.818870080377,-0.573839999941,-0.0118403054262,0.0,-0.00828760936409,0.00880552835905,-0.999926886428,0.0,0.621221837491,0.208009785865,0.303803691258,1.0,-0.0737948571429,-0.0969875265306,1.655
0.426898477424,0.344202868793,-0.124839039569,-1.66700671762,0.0583769886495,2.00323511886,0.110476667839,-0.0862893410309,-0.330811293722,0.00100724602271,-0.475217315176,-0.0350181616631,0.165421885818,-0.0829569810192,0.573922214175,0.818893331646,0.00278394723663,0.0,0.818859441735,-0.573858812411,-0.0116629756832,0.0,-0.00795329348464,0.00897347507518,-0.99992810835,0.0,0.619952980412,0.206286114889,0.303955103248,1.0,-0.075276,-0.0989341714286,1.673
0.425453069074,0.338570570157,-0.124844757517,-1.67533098889,0.0576975472335,2.00580476598,0.108909470039,-0.085344170936,-0.328678897223,-0.000159096155493,-0.494896920083,-0.0400121514448,0.146620522553,-0.0996223049249,0.573897903872,0.81891078682,0.0026582064887,0.0,0.818875113306,-0.573834779548,-0.0117448495214,0.0,-0.0080927684391,0.00891725534606,-0.999927492199,0.0,0.618625769096,0.204592570313,0.303926413218,1.0,-0.0766748571429,-0.100772669388,1.69
0.424084373972,0.333221584992,-0.124837538761,-1.68328225058,0.0570360035256,2.00826790056,0.107385480688,-0.0861084141749,-0.33625470393,0.00156810686373,-0.493104344716,-0.0423422727932,0.153718645208,-0.0927423498404,0.573823149099,0.818963622367,0.00251509433821,0.0,0.818925972216,-0.573760436524,-0.011830486501,0.0,-0.00824583521167,0.00884845345564,-0.999926852861,0.0,0.617342513138,0.202992772649,0.303871910202,1.0,-0.0779914285714,-0.102503020408,1.706
0.422581331847,0.327378397635,-0.124837167242,-1.69154816399,0.0563749525151,2.01106144516,0.105730179893,-0.0912156430392,-0.336542316733,-0.00148548575097,-0.486451241838,-0.0348137205331,0.164332416325,-0.101951727738,0.573762897363,0.819004889053,0.00280646026011,0.0,0.818971310198,-0.573699460474,-0.0116477047329,0.0,-0.00792961505506,0.00898160417511,-0.99992822342,0.0,0.6160672541,0.201301604492,0.30401002626,1.0,-0.0793902857143,-0.104341518367,1.723
0.420908285483,0.321258141294,-0.124850916726,-1.70062447517,0.0556339165616,2.01392056534,0.103985862302,-0.0962822246573,-0.353256547389,-0.000520611755244,-0.507470620354,-0.045008739214,0.167167386552,-0.094541487599,0.573773628359,0.818997729635,0.00269984332563,0.0,0.818962642802,-0.573710421823,-0.0117170170092,0.0,-0.00804743701352,0.00893415819825,-0.999927707174,0.0,0.614610006581,0.199410599011,0.303943560881,1.0,-0.0808714285714,-0.106288163265,1.741
0.419296265469,0.315306557257,-0.124899500106,-1.70934563627,0.0549331132331,2.01652708208,0.102272075664,-0.0959912108389,-0.350673154033,-0.00262110984363,-0.513415789167,-0.0371369287746,0.154305982799,-0.107762024748,0.573780554906,0.818993351252,0.002551924255,0.0,0.81895596877,-0.573717481063,-0.0118372310945,0.0,-0.00823068847445,0.00888205763358,-0.999926679722,0.0,0.613175643723,0.197570575129,0.303904544249,1.0,-0.0822702857143,-0.108126661224,1.758
0.417829667216,0.309966073615,-0.124931786348,-1.716896933,0.0542731717303,2.01903725811,0.100692231143,-0.0935535352587,-0.364210310168,-0.00765736646217,-0.500953403868,-0.0512852049012,0.170790356737,-0.0912746387519,0.573735278052,0.819024412515,0.00275487293565,0.0,0.818990332127,-0.573672210427,-0.0116523718025,0.0,-0.0079633362424,0.00894176323325,-0.999928312504,0.0,0.611992715894,0.195953563105,0.304004660583,1.0,-0.0835045714286,-0.109748865306,1.773
0.416085384509,0.303930596723,-0.124939979457,-1.72560172526,0.0535616623302,2.02177113404,0.0988936967858,-0.101665292518,-0.35346685255,-0.00206704461406,-0.518480061815,-0.0378987444852,0.149759181079,-0.113075256321,0.573733833707,0.819025288589,0.00279492633278,0.0,0.818991612511,-0.573670499196,-0.0116466256445,0.0,-0.00793566693121,0.0089712571294,-0.999928268295,0.0,0.610582792906,0.194076610015,0.304019389376,1.0,-0.0849034285714,-0.111587363265,1.79
0.414299937386,0.297869564677,-0.125020711611,-1.7345842731,0.0528147868481,2.02437375497,0.0971331282431,-0.104501509978,-0.348922961879,-0.00889351443579,-0.524795922789,-0.0412536924873,0.147867717952,-0.0976016597995,0.573842780024,0.818949891897,0.00250704555184,0.0,0.818912078899,-0.573780033116,-0.0118417706567,0.0,-0.00825948314006,0.00884853484053,-0.999926739501,0.0,0.609075009366,0.192096935888,0.303901000669,1.0,-0.0863022857143,-0.113425861224,1.807
0.412579745229,0.291965670918,-0.125075969258,-1.74284139519,0.0521625746826,2.02704841371,0.0953845920181,-0.111355733277,-0.36741931631,-0.0024188911226,-0.511860084637,-0.0399532835678,0.17425076168,-0.117029574772,0.573893697412,0.818913363433,0.00277022803633,0.0,0.818879048102,-0.573830068343,-0.0117006045104,0.0,-0.00799229512688,0.00898355784319,-0.99992770684,0.0,0.607751611743,0.190271265039,0.304018298886,1.0,-0.0876188571428,-0.115156212245,1.823
0.410711225445,0.285709585787,-0.125091606245,-1.75179567818,0.0514006758263,2.02979956365,0.0934816041137,-0.117296202267,-0.362783970259,-0.00168808013229,-0.535975375705,-0.041894426567,0.148502310879,-0.109010309586,0.573884066882,0.818920035773,0.00279279260604,0.0,0.818885977113,-0.573820319507,-0.0116937722402,0.0,-0.00797385675723,0.00899802151228,-0.999927723997,0.0,0.606261774651,0.188304955693,0.304028714148,1.0,-0.0890177142857,-0.116994710204,1.84
0.408825219915,0.279408188237,-0.125122300993,-1.7609660198,0.050567545904,2.03243748972,0.0915120399655,-0.111156227148,-0.372375236921,-0.00237197205623,-0.542720327762,-0.0507238855298,0.153648229764,-0.11968045908,0.573818633389,0.81896665426,0.0025577502763,0.0,0.818929471702,-0.573755666798,-0.011819564131,0.0,-0.00821246329126,0.0088770741306,-0.999926873827,0.0,0.604680164692,0.186288499811,0.303946775103,1.0,-0.0904165714286,-0.118833208163,1.857
0.40686221919,0.272939655146,-0.125142497371,-1.76996877804,0.0498025063894,2.03529280355,0.0895870496414,-0.1177577887,-0.387722240505,-0.00139236001914,-0.526194080834,-0.0463120721,0.168930230345,-0.11701738838,0.573858183117,0.818938132764,0.00280486638409,0.0,0.818904393614,-0.573794581325,-0.0116670245906,0.0,-0.00794530717241,0.00899230806919,-0.999928002653,0.0,0.603190109263,0.184280659297,0.304056051078,1.0,-0.0918154285714,-0.120671706122,1.874
0.404835658992,0.266507299413,-0.125189573072,-1.77911377528,0.0490077028453,2.0380345187,0.08757312289,-0.125670531232,-0.383096897437,-0.00180360812783,-0.546766602532,-0.0445009340796,0.155254211354,-0.113013134784,0.57388361329,0.818920312423,0.00280485278439,0.0,0.818886548348,-0.573819980252,-0.0116703941147,0.0,-0.00794779524484,0.00899447732984,-0.99992796337,0.0,0.601635682109,0.182201517556,0.304055712472,1.0,-0.0932142857143,-0.122510204082,1.891
0.402769162318,0.259984396954,-0.125269077401,-1.78847512388,0.048162154128,2.04065487612,0.0855446365504,-0.124545923357,-0.385671897293,-0.00225141042352,-0.545434826647,-0.0479621645843,0.163243440271,-0.115594248769,0.57393444686,0.818885396396,0.00258943583316,0.0,0.818848657438,-0.573871381421,-0.0118008770642,0.0,-0.00817772022034,0.00889345713243,-0.999927012993,0.0,0.599993127562,0.180053458929,0.303989812033,1.0,-0.0946131428571,-0.124348702041,1.908
0.400792323652,0.253686247069,-0.125269162776,-1.79708714385,0.0473936143915,2.04330095173,0.0836197091001,-0.120857096523,-0.396997371812,-0.00040712418273,-0.538199020861,-0.0452251392541,0.168444398663,-0.113155625559,0.573934667799,0.81888440535,0.00284159714469,0.0,0.81885124108,-0.573871042698,-0.0116369341514,0.0,-0.00789874566167,0.00900585867567,-0.999928249589,0.0,0.598523146769,0.178100287131,0.304122804689,1.0,-0.0959297142857,-0.126079053061,1.924
0.39839923471,0.246291311235,-0.125256835879,-1.80759446579,0.0464801682278,2.04632061663,0.0811715348405,-0.123266479509,-0.390319168795,-0.00043670061407,-0.557796734522,-0.0408320518307,0.159540818347,-0.13146148155,0.573827754387,0.818959596223,0.00276314137499,0.0,0.818924845389,-0.573763773418,-0.0117463534475,0.0,-0.00803455314474,0.00900336208695,-0.999927190063,0.0,0.596653328107,0.175735866165,0.304073259374,1.0,-0.0974931428571,-0.128133844898,1.943
0.396456979223,0.240414608994,-0.125264704572,-1.81598476778,0.0457292038915,2.04869248459,0.0792513367851,-0.132415615918,-0.388114142975,0.000571376530396,-0.551287289398,-0.0508130589002,0.14836209273,-0.139707310853,0.573795104416,0.818982899076,0.00263364212467,0.0,0.818946069581,-0.573731166066,-0.0118587985607,0.0,-0.00820130855821,0.00896150396178,-0.99992621227,0.0,0.595145398533,0.173822161822,0.304002508229,1.0,-0.0987274285714,-0.12975604898,1.958
0.394084731381,0.233115579061,-0.125255106854,-1.82584888036,0.0448644869498,2.05170675808,0.0769826601351,-0.126592088112,-0.397178548547,0.00032441707101,-0.555120691047,-0.0574230807045,0.17375937896,-0.130269986498,0.57380459109,0.818975001248,0.00299757838871,0.0,0.818943105104,-0.573739586628,-0.0116543657221,0.0,-0.00782495545082,0.0091423507296,-0.999927591126,0.0,0.593423056049,0.17155939818,0.304166127363,1.0,-0.100208571429,-0.131702693878,1.976
0.391766049056,0.226272080425,-0.125268844619,-1.835494038,0.0439281943086,2.05433269333,0.0746489821678,-0.141405298173,-0.409775286082,-0.0057899983505,-0.575503330917,-0.0573778708568,0.163558741234,-0.13686733057,0.573692550448,0.819054154482,0.00281006888899,0.0,0.81901972961,-0.573628100742,-0.0117571871895,0.0,-0.00801799290406,0.00904668674324,-0.999926931955,0.0,0.591653918253,0.169312360233,0.304104680527,1.0,-0.101607428571,-0.133541191837,1.993
0.389635371951,0.220185265635,-0.125311420351,-1.84400134881,0.0431281193425,2.05666337936,0.072626894026,-0.143733398752,-0.405368030855,-0.000670170801537,-0.557299147364,-0.0465177228056,0.158844856444,-0.135454385832,0.573720611699,0.819034831533,0.00271133711296,0.0,0.818998962204,-0.573656337033,-0.011825979532,0.0,-0.00813066997761,0.00900556387774,-0.999926393304,0.0,0.590101067302,0.167276519397,0.304072494359,1.0,-0.102841714286,-0.135163395918,2.008
0.387161651052,0.213183136001,-0.125378540857,-1.85345726609,0.0422960728225,2.05951325863,0.0703135165095,-0.150850808959,-0.405310292319,-0.00489612320821,-0.566120572958,-0.0532921686259,0.157382022349,-0.133464581712,0.573815664998,0.818967122401,0.00303017002578,0.0,0.818935620199,-0.573750516593,-0.0116422326119,0.0,-0.0077961942237,0.00916218601808,-0.999927634233,0.0,0.5884360673,0.164974518361,0.304191280351,1.0,-0.104240571429,-0.137001893878,2.025
0.384614786825,0.206200055292,-0.125445713451,-1.86324462297,0.0413396510612,2.06205704729,0.0678868378103,-0.14909761105,-0.410434755066,-0.00473035958734,-0.582269190742,-0.0555439298242,0.140409981575,-0.146210755706,0.573827532052,0.818959695035,0.00277997630423,0.0,0.818924652101,-0.573762917794,-0.0118014934227,0.0,-0.00807005551227,0.00904878719025,-0.999926494126,0.0,0.586603883889,0.162576974551,0.304104358934,1.0,-0.105639428571,-0.138840391837,2.042
0.382037830743,0.19905967186,-0.12550179924,-1.87296211497,0.0404019233,2.06471433438,0.0653994090694,-0.154249177201,-0.434008881479,-9.85282448667e-05,-0.562981752953,-0.0524976539462,0.163443690328,-0.143030753923,0.573802637407,0.818977012838,0.00281649597626,0.0,0.818942521005,-0.573737980456,-0.0117738682281,0.0,-0.00802675125747,0.00906259944011,-0.999926717593,0.0,0.584803629231,0.160197677665,0.304140783161,1.0,-0.107038285714,-0.140678889796,2.059
0.379503748184,0.192336849402,-0.125545293965,-1.88211361508,0.0395438922379,2.06733416031,0.0630947354931,-0.163085303374,-0.41440714207,-0.00267488651399,-0.582833496622,-0.0562495646776,0.157524623702,-0.150395325631,0.573893247684,0.818913033667,0.00295473422873,0.0,0.818880455648,-0.573828230047,-0.0116922478714,0.0,-0.00787957596831,0.00912985199315,-0.999927276398,0.0,0.583129295105,0.157920849481,0.304171083374,1.0,-0.108354857143,-0.142409240816,2.075
0.37674560175,0.185167624374,-0.125674732453,-1.89200565776,0.0386109378153,2.06983366884,0.0605205633175,-0.161869224562,-0.429020147357,-0.00981336131884,-0.577661402476,-0.0575938453491,0.144690989368,-0.14442296322,0.573992678874,0.81884400461,0.00276543209448,0.0,0.818808337598,-0.57392760985,-0.0118638877768,0.0,-0.00812767202808,0.00907431829163,-0.999925796094,0.0,0.581245044227,0.155396759377,0.304103382977,1.0,-0.109753714286,-0.144247738775,2.092
0.373967714465,0.177822800822,-0.125719898998,-1.90168888949,0.0376565470817,2.07254321699,0.0579302856302,-0.170272468032,-0.42499591786,0.000785179499188,-0.565534843027,-0.0515851922693,0.170158244708,-0.14408280588,0.574006347776,0.818833456996,0.00303797934051,0.0,0.818801853174,-0.573940909528,-0.0116663837474,0.0,-0.00780935506299,0.00918425826595,-0.999927329046,0.0,0.579444214712,0.15295210479,0.304239424182,1.0,-0.111152571429,-0.146086236735,2.109
0.371177587254,0.170513555352,-0.125703042139,-1.91164254662,0.0366225487144,2.07508782944,0.0552944364157,-0.162811281185,-0.429149481832,0.000218965909509,-0.585191359513,-0.0584456964974,0.14119795623,-0.153371271624,0.573906746335,0.818903715227,0.00291523563692,0.0,0.818870451901,-0.573841664383,-0.0117334616587,0.0,-0.0079358444644,0.00912128874026,-0.999926909561,0.0,0.577499180871,0.150506652823,0.304198791932,1.0,-0.112551428571,-0.147924734694,2.126
0.367952941174,0.162296431832,-0.125710257111,-1.92279066654,0.0355285836687,2.07790275698,0.0522160882723,-0.169907138039,-0.442127281539,1.67082408709e-06,-0.581499810943,-0.052067356898,0.156265640822,-0.172389292612,0.573808799462,0.81897269479,0.00281669122795,0.0,0.818937538556,-0.573743389159,-0.0118565695509,0.0,-0.00809430458521,0.00911027352185,-0.999925739818,0.0,0.575307221492,0.147720593022,0.304150874424,1.0,-0.114114857143,-0.149979526531,2.145
0.36517347421,0.155192947504,-0.125709157083,-1.93200175235,0.034566145404,2.08046455223,0.0496552561061,-0.178794054157,-0.439700589851,0.00125015635798,-0.583854125557,-0.0665559943665,0.156837776916,-0.166385484033,0.573770334647,0.818998467466,0.00314010634645,0.0,0.818968377653,-0.573704817945,-0.0115898737111,0.0,-0.00769074273836,0.00922175106525,-0.999927903293,0.0,0.57355153086,0.145377251115,0.304301728653,1.0,-0.115431428571,-0.151709877551,2.161
0.362090511439,0.147721403304,-0.125730450481,-1.94216292634,0.0335419941616,2.08278287955,0.0468453906398,-0.18802131028,-0.43030960155,-0.000666903124589,-0.603959115224,-0.0631810962156,0.130755719885,-0.17296290871,0.57377614099,0.81899549329,0.00284058145586,0.0,0.818960486185,-0.573710464158,-0.0118647496569,0.0,-0.00808766090503,0.00913421010395,-0.999925575204,0.0,0.571484373381,0.142763831811,0.304194121166,1.0,-0.116830285714,-0.15354837551,2.178
0.35932809009,0.141030621585,-0.125770077451,-1.95097458293,0.0326789167965,2.08501180694,0.0443389307258,-0.186434531916,-0.447818655512,0.00167465655272,-0.572273895179,-0.0543565666195,0.150088192883,-0.169038483522,0.573817057972,0.818966497514,0.00293374023369,0.0,0.818932439613,-0.573750733274,-0.0118533673472,0.0,-0.00802442962491,0.00920437663778,-0.99992544121,0.0,0.569739730843,0.140464223938,0.304230410272,1.0,-0.118064571429,-0.155170579592,2.193
0.356143204335,0.133424430531,-0.125824103554,-1.9609171863,0.03163202979,2.08762511713,0.0413693225569,-0.18966090203,-0.450661488728,-0.00166005273621,-0.586025635087,-0.0663564631324,0.140555962871,-0.17183233267,0.573772443368,0.818997072093,0.00311865930658,0.0,0.818965964991,-0.573706114295,-0.0116957046929,0.0,-0.00778970396287,0.00926492726559,-0.999926738134,0.0,0.567786027574,0.137836531589,0.304297173599,1.0,-0.119463428571,-0.157009077551,2.21
0.35243772751,0.124899841226,-0.125941806974,-1.97232726567,0.0303919468037,2.09021839243,0.0380725278757,-0.202338029896,-0.447475271682,-0.00868292839579,-0.594176651913,-0.0589352823905,0.135551184374,-0.157997403942,0.573869590845,0.818930017565,0.00284005911442,0.0,0.818894893817,-0.57380377945,-0.0118794978929,0.0,-0.00809899669519,0.00914316853652,-0.999925401578,0.0,0.56544409891,0.134757370357,0.304200342404,1.0,-0.121026857143,-0.159063869388,2.229
0.349262357969,0.117519549312,-0.126043646064,-1.98169970249,0.0293883435638,2.09265725493,0.0351989649875,-0.198869100307,-0.45755371051,-0.00622953430162,-0.591446966485,-0.0669568547514,0.148419755812,-0.185218592947,0.57392345768,0.818891089575,0.00316149337713,0.0,0.818861000207,-0.573857519305,-0.0116170899477,0.0,-0.00769903292854,0.00925632227282,-0.999927520068,0.0,0.563590776216,0.13218805414,0.304349166223,1.0,-0.122343428571,-0.160794220408,2.245
0.345989738985,0.110264689512,-0.126057477132,-1.9912506645,0.0283403958384,2.09485798889,0.0322107029681,-0.205751833273,-0.451352191268,-0.00169365354325,-0.596152328928,-0.0756923572842,0.132414521225,-0.189895251785,0.573866229906,0.818931591721,0.00305698479333,0.0,0.818899960961,-0.573800424276,-0.0116907629715,0.0,-0.00781998651627,0.00921247616784,-0.999926986381,0.0,0.561609895749,0.129598580935,0.304306591272,1.0,-0.12366,-0.162524571429,2.261
0.342712445755,0.102898679983,-0.126066657891,-2.00088657093,0.0272750771816,2.09703038039,0.0292669364063,-0.202937881746,-0.465542868712,0.0015926293906,-0.592402559669,-0.0633751828926,0.138216498603,-0.187013262541,0.573830036723,0.818957336894,0.00295232169609,0.0,0.818924119996,-0.573764333203,-0.0117695596117,0.0,-0.00794498327218,0.00917163085342,-0.999926376504,0.0,0.559579117883,0.127017590107,0.304270443603,1.0,-0.124976571429,-0.164254922449,2.277
0.339187111434,0.0949605265381,-0.126061803956,-2.01092425558,0.0262603885451,2.09945313356,0.0259911707123,-0.213401724414,-0.469878336176,0.000241076622072,-0.60192151047,-0.0576982188416,0.140967038712,-0.192330968235,0.573730640307,0.819025897619,0.00323702079336,0.0,0.818996235248,-0.573663814387,-0.0116508203136,0.0,-0.00768550983963,0.00933572018333,-0.999926885961,0.0,0.55749221828,0.124315932977,0.304380080619,1.0,-0.126375428571,-0.166093420408,2.294
0.335738364499,0.0875351310791,-0.126098826198,-2.02062370111,0.0252329816585,2.1014804948,0.0229168325495,-0.222715201365,-0.460808631588,-0.0040530142704,-0.609556891695,-0.068599174155,0.120419616314,-0.201468628681,0.573745843021,0.819016097012,0.00301452358445,0.0,0.81898244859,-0.573678490677,-0.0118947525242,0.0,-0.00801278071812,0.00929358565137,-0.999924709471,0.0,0.555258609302,0.121477618285,0.30428102593,1.0,-0.127774285714,-0.167931918367,2.311
0.331962787789,0.0795195532789,-0.126209732571,-2.03074646297,0.024062036689,2.10379431528,0.0194763808263,-0.215817157941,-0.479555603676,-0.00378072234368,-0.595218289386,-0.0695387316799,0.152727043354,-0.199771899764,0.573728670208,0.819027532697,0.00317183963813,0.0,0.818996646012,-0.573661605813,-0.0117304194056,0.0,-0.00778812378861,0.00932798354447,-0.9999261642,0.0,0.55326463927,0.118760726772,0.304371703828,1.0,-0.129090857143,-0.169662269388,2.327
0.328102597836,0.071502428233,-0.126260532432,-2.04096290358,0.0229359893407,2.1060482294,0.016101095663,-0.232612062262,-0.469105643971,-0.00218282342997,-0.610773515221,-0.0637271523827,0.124630424339,-0.206202125191,0.573792482513,0.818982687227,0.00320810455653,0.0,0.818952100758,-0.573725080838,-0.0117360633668,0.0,-0.00777121228748,0.00936152913862,-0.999925982277,0.0,0.551069141186,0.115870913123,0.304373863508,1.0,-0.130489714286,-0.171500767347,2.344
0.324098302118,0.0634342555765,-0.126392473045,-2.05134732087,0.0217365531012,2.1080627155,0.0125414200006,-0.238198289891,-0.47300643835,-0.00680117651281,-0.607648017309,-0.0738568505038,0.117352455188,-0.215734158173,0.573848464832,0.818944428975,0.00295102724051,0.0,0.818909779023,-0.573781134656,-0.0119469759748,0.0,-0.00809082143259,0.00927255741341,-0.999924276277,0.0,0.548773454907,0.112850032959,0.304287761056,1.0,-0.131888571429,-0.173339265306,2.361
0.31955691723,0.0542981517912,-0.126469589173,-2.06256382672,0.02042545685,2.11065849903,0.00856277584505,-0.240869982084,-0.478399603202,-0.000541689955864,-0.598693764081,-0.0617322018019,0.131516198778,-0.207804583414,0.573905632244,0.818902989682,0.00331144537337,0.0,0.818874210769,-0.573838441358,-0.011628286966,0.0,-0.0076223510635,0.00938537729734,-0.999926904557,0.0,0.546381169272,0.109550327232,0.304442110803,1.0,-0.133452,-0.175394057143,2.38
0.316196792114,0.0475895227529,-0.12646655722,-2.07109937182,0.019467581549,2.11231300843,0.00554892983862,-0.247660803298,-0.478352297784,-0.00138887928924,-0.608277717696,-0.0646572577884,0.115017348687,-0.221657207015,0.573839129652,0.818950079139,0.00318873953451,0.0,0.818918936353,-0.573771422108,-0.0117846406582,0.0,-0.00782157537179,0.00937398760479,-0.99992547288,0.0,0.544449690011,0.107136177722,0.304380389438,1.0,-0.134604,-0.176908114286,2.394
0.311748044606,0.0388519003445,-0.126481060953,-2.08196329931,0.0182073791384,2.1144644386,0.00159932590462,-0.254524994803,-0.488406181582,0.000423989540406,-0.597531982472,-0.0700321239339,0.125290844686,-0.220744664075,0.573789046198,0.818985111893,0.00320372625428,0.0,0.818953918825,-0.573720999224,-0.0118085050834,0.0,-0.00783309564055,0.00939947600865,-0.99992514343,0.0,0.54200353849,0.103982890131,0.30439528244,1.0,-0.136085142857,-0.178854759184,2.412
0.307173199344,0.0300824403694,-0.126577296931,-2.0927353451,0.0168918479349,2.11669386562,-0.00242707693057,-0.258282098258,-0.491548493607,-0.00867395956822,-0.598833650291,-0.0732259301475,0.113242380894,-0.234137414125,0.573810489802,0.818969569039,0.00333371910209,0.0,0.818940752381,-0.573742837321,-0.0116596575247,0.0,-0.00763635426512,0.00942073360315,-0.999926465232,0.0,0.539600515,0.100747625057,0.304453280579,1.0,-0.137566285714,-0.180801404082,2.43
0.302737627418,0.0217600714625,-0.126680774488,-2.10314620716,0.0156761281202,2.11847678277,-0.00636778681542,-0.265457087387,-0.489862881443,-0.00483519759791,-0.607250957479,-0.0708704146198,0.108142129895,-0.237703127414,0.573822324751,0.81896214433,0.00311330594143,0.0,0.818929310669,-0.57375404671,-0.0119090265105,0.0,-0.00796692339332,0.00938342342625,-0.999924236878,0.0,0.537171267678,0.0976289693604,0.304371957707,1.0,-0.138965142857,-0.182639902041,2.447
0.298188738785,0.0132880989168,-0.126809488605,-2.11324875228,0.0144272624896,2.12049306346,-0.0103288573689,-0.268293756376,-0.492130593321,-0.00565057718431,-0.599495502147,-0.0728144568538,0.116695709919,-0.229200587471,0.573905261859,0.818902980426,0.0033772713417,0.0,0.818874534902,-0.57383721464,-0.0116659369429,0.0,-0.00761541317252,0.00946088624662,-0.999926245837,0.0,0.534887079174,0.0944877922941,0.304511132169,1.0,-0.13998,-0.183973714286,2.464
0.293799472517,0.00545995743929,-0.126853841831,-2.12294339336,0.0133010484926,2.12216052199,-0.0141926121337,-0.276249179751,-0.494678671195,-0.000634409737487,-0.597043342689,-0.064916864435,0.102306718214,-0.247016127065,0.573909546357,0.818900480745,0.00325301959338,0.0,0.81886940005,-0.573840671875,-0.0118547823269,0.0,-0.0078413229673,0.00946755322992,-0.99992443669,0.0,0.532600590108,0.0915272992446,0.304438906225,1.0,-0.13998,-0.183973714286,2.48
0.289153038889,-0.00288530721969,-0.1268510633,-2.13307446817,0.0120698587254,2.12393692384,-0.0182870249435,-0.26848659172,-0.496318904478,0.00144950750753,-0.584823483228,-0.0741697594586,0.106171940149,-0.235294327424,0.573842194007,0.818947700145,0.00324772319749,0.0,0.818916239329,-0.573772972784,-0.0118960315404,0.0,-0.00787892357074,0.0094862407459,-0.999923964009,0.0,0.530200431208,0.08845117072,0.304434183715,1.0,-0.13998,-0.183973714286,2.497
0.284747003461,-0.0107458217425,-0.126850983405,-2.14239209174,0.0108763125897,2.12570464439,-0.0221681485483,-0.283019318021,-0.486277268324,-0.00119320670305,-0.58384027389,-0.0746173319687,0.107304562035,-0.246573801631,0.573760667389,0.819004007758,0.00344655409593,0.0,0.818976054193,-0.573691906282,-0.0116861553289,0.0,-0.00759389406627,0.0095278849961,-0.999925773335,0.0,0.528017106599,0.0855736110927,0.304520884652,1.0,-0.13998,-0.183973714286,2.513
0.280207304318,-0.0185174876156,-0.126886069744,-2.15186303275,0.0096852288126,2.12711624295,-0.0261553239875,-0.285369694321,-0.482001023115,-0.005787116896,-0.593728604416,-0.0644273412719,0.0883426337349,-0.247357331971,0.57372133724,0.819032448587,0.0032283522809,0.0,0.819000746319,-0.573652216246,-0.011902068166,0.0,-0.0078963806223,0.00947267576993,-0.999923954902,0.0,0.525697217598,0.0826130107014,0.304440850526,1.0,-0.13998,-0.183973714286,2.529
0.275315825764,-0.0268140036626,-0.127007959664,-2.16154056555,0.00845609139726,2.12877806315,-0.0303665777389,-0.288832399919,-0.493371523155,-0.0108840729476,-0.564880244775,-0.0727169394795,0.105781436982,-0.244534002267,0.573831622773,0.818954359988,0.00343101501378,0.0,0.818925884284,-0.573762502041,-0.0117360215581,0.0,-0.00764282541312,0.00954443105959,-0.999925242733,0.0,0.523386503573,0.0794460550724,0.304545376329,1.0,-0.13998,-0.183973714286,2.546
0.270644131247,-0.0345115288609,-0.127119101362,-2.17068010276,0.00726769959287,2.13026376863,-0.0343895031427,-0.287122927465,-0.477160504535,-0.00827642816866,-0.573921087477,-0.0720055445112,0.0758835140909,-0.24985738744,0.573930367679,0.81888511901,0.00344119488841,0.0,0.818856871691,-0.573861319495,-0.0117199220413,0.0,-0.00762264787585,0.00954444900774,-0.999925396583,0.0,0.521022319135,0.0762633602988,0.304545418215,1.0,-0.13998,-0.183973714286,2.563
0.265648292243,-0.0426478487864,-0.127135792121,-2.18043055624,0.00609848935817,2.13162762714,-0.0388029532391,-0.288495883928,-0.468547366311,0.00279679294464,-0.57338023463,-0.0640814785746,0.0818870481691,-0.269140902916,0.573867434153,0.818929757652,0.00331163894613,0.0,0.818898458259,-0.573797164413,-0.0119530780368,0.0,-0.00788867414442,0.00957156253273,-0.999923074047,0.0,0.518712627407,0.0733363261885,0.304466279705,1.0,-0.13998,-0.183973714286,2.579
0.260644624454,-0.0508347350345,-0.127134387094,-2.18977365005,0.0048576452338,2.13317789394,-0.0430955564071,-0.289503955857,-0.475172450275,-6.26169529319e-05,-0.543028473576,-0.075587435828,0.0873240997994,-0.259821408515,0.57386905371,0.818927502037,0.00357805842513,0.0,0.818900824035,-0.573799303412,-0.0116853198585,0.0,-0.00751648708601,0.00963610396715,-0.999925321173,0.0,0.51641847965,0.0702722874008,0.304594440914,1.0,-0.13998,-0.183973714286,2.596
0.255535215278,-0.0589183216423,-0.127145764121,-2.19926850462,0.00361125283989,2.13444776545,-0.0476125441561,-0.30423920784,-0.473037664168,0.000712053060992,-0.566597651881,-0.0681722612937,0.0645788248265,-0.254887081542,0.57377100174,0.818996653359,0.00347365079917,0.0,0.818968101265,-0.573700956511,-0.0117986656164,0.0,-0.00767037854641,0.00961472650265,-0.999924358303,0.0,0.513995305255,0.0671612325753,0.30455518859,1.0,-0.13998,-0.183973714286,2.613
0.250349347529,-0.0669388329717,-0.127232474201,-2.20873382917,0.00239186392458,2.13565188218,-0.0521240952315,-0.307681624317,-0.469598967087,-0.010213977509,-0.545217566133,-0.0697640987286,0.0639864298766,-0.275983527592,0.573804244322,0.818974000477,0.00332003637446,0.0,0.818942398031,-0.573733452031,-0.0120009011433,0.0,-0.00792376264567,0.00960527149302,-0.999922473367,0.0,0.511552517006,0.064006135029,0.304470744677,1.0,-0.13998,-0.183973714286,2.63
0.245371985988,-0.0745205502991,-0.127382469456,-2.2172188565,0.00121716051246,2.13692377272,-0.0564015250603,-0.307284573255,-0.469916801971,-0.00663777434894,-0.532447025303,-0.0776499487494,0.0659665669169,-0.272698121297,0.573926856467,0.818887046182,0.00356593921473,0.0,0.818859829806,-0.573856650306,-0.0117418452436,0.0,-0.00756905276303,0.00965915067685,-0.999924702289,0.0,0.509419148549,0.0609976665586,0.304593604549,1.0,-0.13998,-0.183973714286,2.646
0.240074778557,-0.082505932881,-0.12742345924,-2.22644018616,4.80671749164e-05,2.13800045377,-0.0610473482626,-0.307788161766,-0.461097655732,0.000499410086573,-0.542680117616,-0.0670599171651,0.0519614053839,-0.271876603675,0.573909505364,0.818899489233,0.00350044109018,0.0,0.818870356686,-0.573838182169,-0.0119090943007,0.0,-0.00774381358049,0.00970133664431,-0.999922955741,0.0,0.506990353153,0.0578823111438,0.304552080156,1.0,-0.13998,-0.183973714286,2.663
0.234782360883,-0.0904417469881,-0.127409934724,-2.23560020798,-0.00115312149555,2.13905261156,-0.0657121952476,-0.308861929363,-0.470772284871,0.00137967324351,-0.529689057391,-0.070289243763,0.0621877322745,-0.277621434912,0.573805583196,0.818972724957,0.00340225965306,0.0,0.818941438441,-0.57373355659,-0.012061233263,0.0,-0.00792598314031,0.00970724129524,-0.999921471045,0.0,0.504550519471,0.0548252670984,0.304491543386,1.0,-0.13998,-0.183973714286,2.68
0.229362127529,-0.098418361007,-0.127423055013,-2.24435611981,-0.00241534886532,2.14020390701,-0.0704417274246,-0.319156223789,-0.460847579554,0.000880863358383,-0.525388701993,-0.0713372145847,0.0627695426561,-0.282118964487,0.573742342513,0.819016049369,0.00363072780906,0.0,0.818989196208,-0.573671333263,-0.011774752153,0.0,-0.00756101210063,0.00972938805364,-0.99992408217,0.0,0.502260443181,0.051728802554,0.304623294174,1.0,-0.13998,-0.183973714286,2.697
0.22384626524,-0.106310014196,-0.127488193376,-2.25329136077,-0.00363213639451,2.14109965525,-0.0751645630453,-0.32844428718,-0.46251570856,-0.0109797737305,-0.533311472223,-0.0712164311122,0.0525538072041,-0.284479910627,0.573815210289,0.818965380063,0.00354367054204,0.0,0.818936712578,-0.573743623213,-0.0119022063633,0.0,-0.00771448510939,0.00973189632058,-0.999922885483,0.0,0.499835698648,0.0485842592405,0.304588859331,1.0,-0.13998,-0.183973714286,2.714
0.217560623458,-0.115064172936,-0.127650799108,-2.26310621229,-0.00502512399711,2.14209725648,-0.0806004157261,-0.333790713277,-0.473020166761,-0.00388409547722,-0.507734743765,-0.0719734921231,0.0651841426166,-0.283372809419,0.573916800263,0.818894387983,0.00349780039228,0.0,0.818864899476,-0.573845083189,-0.0119517282035,0.0,-0.0077801573876,0.00972371078634,-0.999922456293,0.0,0.497165880116,0.0450037485257,0.304571191389,1.0,-0.13998,-0.183973714286,2.733
0.212294017178,-0.122422274626,-0.127654202059,-2.27108388146,-0.00612375209973,2.14302216163,-0.0852490014542,-0.332361392192,-0.458326233683,0.00207326596532,-0.504680180383,-0.0654730250756,0.0413829852947,-0.300816439858,0.573842373681,0.818945527861,0.00372819865957,0.0,0.818919838578,-0.573770892403,-0.0117476770453,0.0,-0.00748171975331,0.00979459930177,-0.999924041962,0.0,0.495005740711,0.0421165376151,0.304669312025,1.0,-0.13998,-0.183973714286,2.749
0.206619176741,-0.130151324146,-0.127670219768,-2.27973111332,-0.0073101837377,2.14371186074,-0.0902057030414,-0.336884539699,-0.456202402997,-0.00155784946591,-0.503391457627,-0.0716281528696,0.0460726432134,-0.294376806614,0.573805108766,0.818972215811,0.00359913657038,0.0,0.818943824969,-0.57373275992,-0.0119364417329,0.0,-0.00771082003422,0.00979687053648,-0.999922279271,0.0,0.492569106827,0.0390221729444,0.304608209619,1.0,-0.13998,-0.183973714286,2.766
0.201519457325,-0.136976360189,-0.127735471234,-2.28727513637,-0.00840493137262,2.14435159521,-0.0946388743291,-0.339268005133,-0.456255072296,-0.00438364139624,-0.492230920874,-0.0724962117585,0.0413261409117,-0.302122745858,0.573813739877,0.818966423443,0.00354063580494,0.0,0.818937052962,-0.573741328988,-0.0119890616276,0.0,-0.00778737976061,0.00977923442243,-0.999921858592,0.0,0.490443445712,0.0362449304741,0.304582260228,1.0,-0.13998,-0.183973714286,2.781
0.195696985432,-0.14476544947,-0.127825094949,-2.29550237226,-0.00956332112126,2.14519172411,-0.0997470377626,-0.345886018951,-0.458061976906,-0.00389949825308,-0.481679914645,-0.0740989426003,0.0452476142221,-0.293941885453,0.573836351482,0.818949199279,0.00384676735397,0.0,0.8189248975,-0.57376428229,-0.0117178293082,0.0,-0.00738931148643,0.00987452009371,-0.999923943072,0.0,0.488153766817,0.0331179936055,0.304717156544,1.0,-0.13998,-0.183973714286,2.798
0.18974455465,-0.152360949041,-0.127959429202,-2.3038606524,-0.0107751245027,2.14572694363,-0.104912490805,-0.348622794158,-0.44414484422,0.000178783953843,-0.491161521617,-0.0736460697797,0.0281413126716,-0.318963205742,0.573921113198,0.818890433081,0.00370962744308,0.0,0.818863463156,-0.573848330237,-0.0118940949423,0.0,-0.00761134358634,0.00986414050009,-0.999922380078,0.0,0.4857318212,0.0299245769128,0.304652999534,1.0,-0.13998,-0.183973714286,2.815
0.183882154095,-0.159986031682,-0.12795075896,-2.31214106836,-0.0120027330503,2.14624018052,-0.110108523111,-0.344047731485,-0.451688663717,0.00143137486513,-0.482489562738,-0.075591279473,0.0317349412613,-0.310625063364,0.57377762263,0.818991441847,0.00360622398865,0.0,0.818962754749,-0.573704758568,-0.0119834565534,0.0,-0.00774558962484,0.00982939159034,-0.999921691385,0.0,0.483304690267,0.0268752287666,0.304619341709,1.0,-0.13998,-0.183973714286,2.832
0.177514947379,-0.168052441048,-0.127967925686,-2.32055168957,-0.013169208509,2.14688070713,-0.11570149782,-0.354765121221,-0.44500095212,-0.00208911412344,-0.464283360516,-0.0675496354617,0.0344874806109,-0.320195758131,0.57376100608,0.819001908313,0.00386380413512,0.0,0.818977168859,-0.573688011995,-0.0117986728697,0.0,-0.00744666085409,0.0099341770514,-0.999922926714,0.0,0.480861768779,0.0236141266754,0.304729854422,1.0,-0.13998,-0.183973714286,2.85
0.171767250445,-0.175095410692,-0.128007992776,-2.32816794146,-0.0142385880016,2.1472914601,-0.120723172111,-0.361927821716,-0.43545737031,-0.00189258852801,-0.475073615087,-0.0775151906159,0.0141208826953,-0.304966129486,0.573774095027,0.818993034321,0.00380059356424,0.0,0.81896657928,-0.573700137584,-0.0119432432711,0.0,-0.00760117834179,0.00996547457638,-0.999921452617,0.0,0.478586292232,0.0206844058125,0.304672795283,1.0,-0.13998,-0.183973714286,2.866
0.16512944945,-0.183021503412,-0.128203627662,-2.33661100489,-0.0155511316137,2.14767873496,-0.126471615174,-0.371050392003,-0.43790234182,-0.0084071073401,-0.464288392749,-0.0719190106872,0.0206282659714,-0.316254614841,0.573914361677,0.818895149963,0.00371291370875,0.0,0.818867197797,-0.573840243335,-0.0120264043894,0.0,-0.00771789351319,0.00994270087054,-0.999920785272,0.0,0.476038226684,0.0172585841633,0.30463931791,1.0,-0.13998,-0.183973714286,2.884
0.158924229208,-0.190523164072,-0.128235359938,-2.34432777213,-0.0166574071749,2.14810438969,-0.131994143188,-0.359514026374,-0.4464376533,0.0015920782299,-0.447521533755,-0.0622864932966,0.0315177968356,-0.335715001823,0.57384585679,0.818942201179,0.00391799358946,0.0,0.818917483593,-0.573771751836,-0.011869235892,0.0,-0.00747232798767,0.0100198182035,-0.999921880727,0.0,0.473575316226,0.0139987838343,0.304728740069,1.0,-0.13998,-0.183973714286,2.902
0.153786896516,-0.196656024794,-0.128240981288,-2.35063763397,-0.0176459091489,2.14841144148,-0.136570391959,-0.367624621755,-0.430664855857,-0.00600904400632,-0.457193273215,-0.0709236580638,0.0210963925436,-0.330685875686,0.573728005858,0.819024559552,0.00396144508488,0.0,0.819000945926,-0.57365449832,-0.0117776920541,0.0,-0.00737386022405,0.0100018116134,-0.999922791994,0.0,0.471633972206,0.0114693903806,0.304762143135,1.0,-0.13998,-0.183973714286,2.916
0.147019240993,-0.204388634502,-0.128323031097,-2.35887159653,-0.018861609683,2.14859802719,-0.142511424697,-0.380798219489,-0.429171611103,-0.00547127882047,-0.452195884884,-0.0621232599729,0.0139388303447,-0.333163342085,0.573769373469,0.818996287866,0.00381227401562,0.0,0.818969407957,-0.57369461825,-0.0120141884107,0.0,-0.00765264196112,0.010015701984,-0.999920558237,0.0,0.469190771796,0.00833090339315,0.304668985092,1.0,-0.13998,-0.183973714286,2.933
0.140143804158,-0.212188595531,-0.128499526798,-2.36686932153,-0.0200257973217,2.1488092527,-0.148537884214,-0.389167448337,-0.435056146337,-0.0156148926272,-0.427933718291,-0.0688916656687,0.00964688422838,-0.338211780364,0.573908037489,0.81889870074,0.00390247786072,0.0,0.818872510467,-0.573832284783,-0.0120443947039,0.0,-0.00762391817115,0.0101082013843,-0.999919846856,0.0,0.466668727066,0.00496238631999,0.304689032601,1.0,-0.13998,-0.183973714286,2.951
0.134028462364,-0.219067256125,-0.128547087249,-2.37369307413,-0.0210815453305,2.14905554115,-0.15389396156,-0.381862424855,-0.424808960287,-0.00171098394262,-0.428254379839,-0.0664721580798,0.0167509425344,-0.342154519656,0.573938105332,0.818876581511,0.00411611500817,0.0,0.818854343906,-0.573863180538,-0.0118051002057,0.0,-0.00730497389419,0.0101460908435,-0.999921844044,0.0,0.464517992014,0.00204283123581,0.304800626008,1.0,-0.13998,-0.183973714286,2.967
0.127486098033,-0.226237650712,-0.128552142605,-2.38119315516,-0.0222784022233,2.14912430304,-0.159757152622,-0.391207777248,-0.416851236168,-0.00199935235503,-0.442405402434,-0.0711098134219,-0.000123080081065,-0.342575266681,0.573784727249,0.818984953199,0.00393447711401,0.0,0.818959671179,-0.573709530041,-0.0119657437654,0.0,-0.00754266230125,0.0100881333341,-0.999920665759,0.0,0.462079426347,-0.00103542904725,0.304710178477,1.0,-0.13998,-0.183973714286,2.984
0.121568745748,-0.232595664639,-0.128602406109,-2.38767113502,-0.0232784386325,2.14914777349,-0.164976669216,-0.390659359154,-0.419071371421,0.00123628010771,-0.436127610075,-0.0670315233134,0.0024277341424,-0.346406168122,0.573789683147,0.818981641738,0.00390088614218,0.0,0.818955494387,-0.57371403909,-0.0120352176906,0.0,-0.00761877588326,0.0101005303509,-0.999919963567,0.0,0.459952325685,-0.00380434202409,0.304690319056,1.0,-0.13998,-0.183973714286,2.999
0.114799465567,-0.239788540757,-0.128774922033,-2.39477968028,-0.0244026623712,2.14917755797,-0.170942360187,-0.408791185877,-0.424509943649,-0.00816995868773,-0.408817680582,-0.0646288573997,0.00330703075529,-0.357721060974,0.573901390605,0.818902808751,0.00401628953921,0.0,0.818878475158,-0.573825723229,-0.0119511164475,0.0,-0.00748229663444,0.010147810779,-0.999920515428,0.0,0.457603099998,-0.00699169839985,0.304750279263,1.0,-0.13998,-0.183973714286,3.016
0.107980765934,-0.246910844166,-0.128851723007,-2.40175116631,-0.0254984109729,2.14925322052,-0.177002195963,-0.396221176797,-0.416091545294,0.000503925999454,-0.41560613143,-0.0626369473455,-0.00547455751223,-0.353415852814,0.573911096948,0.818895129824,0.00419118740597,0.0,0.818873938668,-0.573836026974,-0.0117657816762,0.0,-0.00723002618425,0.0101847628953,-0.999921995621,0.0,0.455288587065,-0.010124319566,0.304828995129,1.0,-0.13998,-0.183973714286,3.033
0.101166794324,-0.253921187783,-0.128857946109,-2.40891791764,-0.0265561517912,2.14918741566,-0.183109350476,-0.40866032673,-0.406686597902,-0.00220944065527,-0.429075271385,-0.0600942923967,-9.84142450512e-05,-0.362997204306,0.573829743076,0.81895252338,0.00411549654309,0.0,0.818929218654,-0.573753372358,-0.0119477799112,0.0,-0.00742352741243,0.0102264887368,-0.999920151897,0.0,0.452851651657,-0.0131809816816,0.304741785959,1.0,-0.13998,-0.183973714286,3.05
0.0946178617812,-0.260490342702,-0.128922606982,-2.41546126445,-0.0275960687518,2.14910333153,-0.18892143616,-0.408907148234,-0.40393355939,-0.0040167279273,-0.407516404631,-0.0618233814167,-0.00433213181087,-0.354003071859,0.573838098949,0.818946709116,0.00410739868877,0.0,0.818923088226,-0.57376146624,-0.0119792457725,0.0,-0.00745384031852,0.0102379883527,-0.999919808714,0.0,0.450602312068,-0.0161229948015,0.304720769933,1.0,-0.13998,-0.183973714286,3.066
0.0871219914489,-0.26788628977,-0.129102622864,-2.42248227605,-0.028741728002,2.14902283828,-0.195569900199,-0.416821316741,-0.402192881074,-0.0098853609167,-0.383140316144,-0.0591066296926,-0.00455455582861,-0.3753151732,0.573960960203,0.818859434703,0.00433465823848,0.0,0.81883988979,-0.573885105621,-0.0117416921948,0.0,-0.00712733685539,0.0102888620933,-0.999921667125,0.0,0.44816842008,-0.0195052370625,0.304836361724,1.0,-0.13998,-0.183973714286,3.084
0.0805036134184,-0.274360681629,-0.129130828526,-2.42878998131,-0.0297594337305,2.14889863479,-0.201514922256,-0.409586148825,-0.390542563734,-0.000553183668906,-0.40408578465,-0.0563501535812,-0.0130895723125,-0.368726621535,0.573895006072,0.818905421137,0.00437951351507,0.0,0.81888675158,-0.573819444303,-0.0116824795137,0.0,-0.00705393160463,0.0102910403818,-0.999922165239,0.0,0.445950506398,-0.0224012181262,0.304847505875,1.0,-0.13998,-0.183973714286,3.1
0.0733720056969,-0.28116461432,-0.129149018882,-2.43557195183,-0.0308658618569,2.14860854989,-0.207972648688,-0.429768104969,-0.402224811492,-0.000550213141182,-0.381517330584,-0.066090162758,-0.0173736690924,-0.385070223381,0.573763445656,0.818998383568,0.00423119876073,0.0,0.818976888091,-0.573687102861,-0.011862195598,0.0,-0.00728787517582,0.0102715459724,-0.999920687964,0.0,0.443507987614,-0.025483520162,0.304761903855,1.0,-0.13998,-0.183973714286,3.117
0.0661126997221,-0.287961289068,-0.129236092827,-2.44212718069,-0.0319285263131,2.14837778125,-0.214456731787,-0.430323795734,-0.397117561015,-0.00492565739778,-0.377284104359,-0.0499957510778,-0.0174330207862,-0.375076074901,0.573790140283,0.81897944169,0.0042773711516,0.0,0.818958600075,-0.573713711277,-0.011837894989,0.0,-0.00724114556545,0.01029565554,-0.999920779506,0.0,0.441131916741,-0.0286183455703,0.304764783533,1.0,-0.13998,-0.183973714286,3.134
0.0587118641328,-0.294735082323,-0.129407838455,-2.44841934411,-0.0329088470242,2.14813397758,-0.221053452266,-0.434488572407,-0.39976258174,-0.00540114063426,-0.370572621601,-0.0595885711534,-0.011696231111,-0.389901520112,0.573946408168,0.818868649596,0.00451687508474,0.0,0.818851502668,-0.573870025727,-0.0116686354195,0.0,-0.00696311456906,0.0103960214934,-0.999921715822,0.0,0.438817284337,-0.0318144961997,0.304859264419,1.0,-0.13998,-0.183973714286,3.151
0.0518436488448,-0.301049017063,-0.12943316854,-2.45435171385,-0.0338765858481,2.14782606011,-0.227310681555,-0.431365540799,-0.392448741656,-1.3897286821e-05,-0.369052527959,-0.0690200899467,-0.0270644067061,-0.398760494261,0.573842585163,0.818940985789,0.00459305451643,0.0,0.81892519952,-0.573766548757,-0.0115849910993,0.0,-0.00685221491948,0.0104095297435,-0.999922341405,0.0,0.436604232653,-0.034696636627,0.304898875241,1.0,-0.13998,-0.183973714286,3.167
0.0443590912671,-0.30762300251,-0.129471236703,-2.46073057632,-0.0349939704599,2.14735192043,-0.233967558139,-0.440981006982,-0.389868028794,0.000705710696852,-0.374619489428,-0.0599380230344,-0.0290097292154,-0.39157182174,0.573840935963,0.818943124823,0.00441422911221,0.0,0.818924304841,-0.573764394346,-0.0117537068159,0.0,-0.00709302645774,0.0103598770871,-0.999921177855,0.0,0.434163585887,-0.0378174645375,0.304821653534,1.0,-0.13998,-0.183973714286,3.184
0.0368155292923,-0.31417931777,-0.129630021927,-2.46691511438,-0.0359599642114,2.14696460154,-0.240800435126,-0.447461140762,-0.376747677183,-0.0127518951583,-0.365487166996,-0.0499512045981,-0.0207360080067,-0.405124922956,0.573907525276,0.818895949767,0.00450808042921,0.0,0.81887790106,-0.573830006528,-0.0117836184679,0.0,-0.00706282159607,0.0104544760345,-0.999920407073,0.0,0.431781968679,-0.0409672555136,0.304816393635,1.0,-0.13998,-0.183973714286,3.201
0.0296494715484,-0.32031443245,-0.129718758557,-2.47253707501,-0.0369017116776,2.14656164278,-0.247281502965,-0.448484156356,-0.380915142324,-0.00208284973885,-0.342980576674,-0.0543083844959,-0.0267182478202,-0.40593588601,0.573912885625,0.818891582484,0.00461765662488,0.0,0.818875525883,-0.573835868066,-0.0116626125895,0.0,-0.0069007711428,0.0104748113148,-0.999921325748,0.0,0.429444336183,-0.0440993751924,0.304872708338,1.0,-0.13998,-0.183973714286,3.218
0.0215757444423,-0.327133408154,-0.129727952001,-2.47871794077,-0.0379951347064,2.14612788118,-0.254665274322,-0.451599159445,-0.369627089677,-0.00411255097814,-0.347320717808,-0.0536379499762,-0.0306081801996,-0.416844266149,0.573789883826,0.818977185982,0.00472069505392,0.0,0.818963703285,-0.573714494775,-0.0114401961703,0.0,-0.00666105673473,0.0104305475553,-0.999923414068,0.0,0.4271367025,-0.0471795169581,0.304951340432,1.0,-0.13998,-0.183973714286,3.235
0.0137909948088,-0.333451013376,-0.12978972157,-2.48474431717,-0.0389799606144,2.14551930863,-0.261699728601,-0.457047867126,-0.367160524404,-0.00749011835623,-0.34958588519,-0.063122075768,-0.0346272445293,-0.415848439077,0.57379809392,0.81897211095,0.00460171731853,0.0,0.818955727742,-0.573720963393,-0.0116841372786,0.0,-0.0069290142834,0.0104731400954,-0.99992114794,0.0,0.424685856909,-0.0502939430199,0.304858072654,1.0,-0.13998,-0.183973714286,3.252
0.00587939425632,-0.339770899189,-0.129950391551,-2.49052671508,-0.0399125016272,2.14496290879,-0.268800313005,-0.463796687798,-0.37093362611,-0.0029998948257,-0.339445658214,-0.0569748690141,-0.0376986647687,-0.415080827551,0.573959759313,0.818858295478,0.00469398740328,0.0,0.818842733701,-0.573881737631,-0.0117079280917,0.0,-0.00689347311408,0.0105637204512,-0.999920440754,0.0,0.42229879485,-0.053472603613,0.304866030345,1.0,-0.13998,-0.183973714286,3.269
-0.00147035375998,-0.345635546741,-0.129969687442,-2.49587675499,-0.0408092907205,2.14439988961,-0.275634682859,-0.460959327194,-0.364606339829,0.000161721219474,-0.3342485508,-0.0563105002634,-0.0377730464392,-0.430970192202,0.573798257491,0.818971387912,0.00470875594296,0.0,0.818955909754,-0.573720049486,-0.0117162109157,0.0,-0.00689386655038,0.0105792085974,-0.999920274297,0.0,0.420065490454,-0.0563467877531,0.304867535646,1.0,-0.13998,-0.183973714286,3.285
-0.00948822180986,-0.351819074898,-0.130030019445,-2.50129453373,-0.0418190628949,2.14382520694,-0.282881666687,-0.472244325749,-0.363533875605,-0.004682591027,-0.319950525836,-0.0595244857293,-0.0253182989474,-0.432372729357,0.573820235044,0.818955457929,0.00480027943875,0.0,0.818942474443,-0.573743784489,-0.0114908752501,0.0,-0.0066565126692,0.0105250520984,-0.999922454052,0.0,0.417753462005,-0.0594946431709,0.304958961186,1.0,-0.13998,-0.183973714286,3.302
-0.017565839508,-0.357899525129,-0.130198822956,-2.5068063253,-0.0427614155939,2.14316718667,-0.290271533896,-0.476856046328,-0.348032474604,-0.0107177662809,-0.331149435174,-0.0578194328294,-0.0464410217262,-0.431812725428,0.573881744162,0.818912181113,0.00483013903911,0.0,0.818899100626,-0.573804432232,-0.011553503637,0.0,-0.00668987847485,0.0105859451457,-0.999921588572,0.0,0.415357354268,-0.0626564328827,0.304943629754,1.0,-0.13998,-0.183973714286,3.319
-0.0261010006388,-0.364263151294,-0.130257630492,-2.51264668032,-0.0437748723066,2.14238465885,-0.298178576383,-0.469881451735,-0.347815214131,-0.000144125728652,-0.320970182844,-0.0676607019893,-0.0398975485336,-0.440386647332,0.573762200088,0.818996506523,0.00473359839662,0.0,0.818981186841,-0.573683665915,-0.0117308978105,0.0,-0.00689210893851,0.0106076780003,-0.9999199848,0.0,0.412782808271,-0.0659112238461,0.304876652572,1.0,-0.13998,-0.183973714286,3.337
-0.0343628816594,-0.370229022512,-0.130306620164,-2.51791835564,-0.0447166490728,2.14171291048,-0.30569564532,-0.48438394536,-0.349756299965,-0.00496259154461,-0.309255903161,-0.0569426488447,-0.0472408436213,-0.437582241755,0.573780787053,0.818983283106,0.00476836480883,0.0,0.818968806464,-0.573702745403,-0.0116619405797,0.0,-0.00681544161984,0.0105967435008,-0.999920626241,0.0,0.410413583245,-0.0690462322943,0.304899742776,1.0,-0.13998,-0.183973714286,3.354
-0.0426869883858,-0.37602677488,-0.130450485448,-2.5230625976,-0.0455713806764,2.14095859866,-0.313262649131,-0.498683092475,-0.341117575105,-0.012900488549,-0.297929158328,-0.0486962226915,-0.0467809448244,-0.445984562496,0.57392273638,0.818883496836,0.0048226731709,0.0,0.8188690494,-0.573843444998,-0.0117442525889,0.0,-0.00684984712201,0.0106896371862,-0.999919402378,0.0,0.408034889332,-0.0722021819207,0.304891233784,1.0,-0.13998,-0.183973714286,3.371
-0.0500225715495,-0.381147133681,-0.130535790285,-2.52740946299,-0.0463428919363,2.14037496771,-0.320067874535,-0.493419220873,-0.341512427055,-0.00460783513012,-0.293692346285,-0.0520030589378,-0.0367640872186,-0.452053253253,0.573900221525,0.818898406899,0.00496807950335,0.0,0.818886820655,-0.573822031471,-0.0115498076818,0.0,-0.00660745285141,0.0106969379656,-0.999920955418,0.0,0.406003763358,-0.0749582315907,0.304971599139,1.0,-0.13998,-0.183973714286,3.386
-0.0584498977552,-0.386855635775,-0.130573736339,-2.53246646512,-0.0472869940108,2.13959385092,-0.327842061373,-0.504076622638,-0.336394084437,-0.00275142184871,-0.299534447216,-0.0621321842231,-0.0559022917442,-0.46095985346,0.573834709292,0.818944716442,0.00490150222386,0.0,0.818932113346,-0.573756481422,-0.0115948548513,0.0,-0.006683405125,0.0106677331246,-0.999920762644,0.0,0.403602618375,-0.0780677077383,0.304945883558,1.0,-0.13998,-0.183973714286,3.403
-0.0679583951591,-0.393179795096,-0.130705507759,-2.5380413541,-0.0482859383927,2.13866056201,-0.336625374243,-0.504590889174,-0.335746385972,-0.0133742010439,-0.285009129808,-0.0558540141525,-0.0481242036744,-0.458677133958,0.573850124712,0.818934067553,0.00487588649006,0.0,0.81892037788,-0.573770777723,-0.0117156401904,0.0,-0.0067968265516,0.0107161907112,-0.999919479961,0.0,0.400892389111,-0.0815659699458,0.304910187522,1.0,-0.13998,-0.183973714286,3.422
-0.0754786637212,-0.398075306139,-0.130804709712,-2.54220314213,-0.0490309740446,2.13800161825,-0.343640217865,-0.496992683232,-0.326849607851,-0.00848986755547,-0.275631260067,-0.0503116264149,-0.0438044658676,-0.467489115554,0.573818812968,0.818955386796,0.00497907848345,0.0,0.818943514495,-0.573739910678,-0.0116095591262,0.0,-0.00665114299547,0.0107395742391,-0.999920208738,0.0,0.398691341459,-0.0844971710456,0.30495339584,1.0,-0.13998,-0.183973714286,3.438
-0.0841009761125,-0.403467677454,-0.130837816661,-2.54689471383,-0.0498916928714,2.13714317279,-0.351635430837,-0.515296899304,-0.321874156059,-0.00748601065982,-0.272548832971,-0.0560129816289,-0.0588335853883,-0.477772031386,0.573784062335,0.818980099179,0.00491872552931,0.0,0.818966960522,-0.573704580758,-0.0117012175467,0.0,-0.00676129911519,0.0107424526601,-0.999919439028,0.0,0.396445651897,-0.0874148995845,0.304924554085,1.0,-0.13998,-0.183973714286,3.454
-0.0923718236691,-0.408526251714,-0.130907067146,-2.55117769362,-0.0507003625148,2.13636924167,-0.35923230407,-0.518007404363,-0.312308462057,-0.0110970125793,-0.271413719371,-0.0446719449793,-0.0459112526128,-0.477958263189,0.573841751484,0.818939528354,0.00494368827228,0.0,0.818927028585,-0.573762683582,-0.011646960278,0.0,-0.00670178133699,0.0107322386613,-0.999919949386,0.0,0.394217321776,-0.090386213195,0.304948699076,1.0,-0.13998,-0.183973714286,3.47
-0.101135894391,-0.413826144989,-0.131056530604,-2.55561476344,-0.0515240113751,2.13560310415,-0.367456706331,-0.510705997689,-0.308675781574,-0.00344915461923,-0.260685959206,-0.0429750346193,-0.0489152981086,-0.488659619997,0.57383401787,0.818944277065,0.00505350369487,0.0,0.81893376948,-0.573755542703,-0.0115241192562,0.0,-0.00653826163984,0.0107516234872,-0.999920823729,0.0,0.391871593423,-0.0935347494203,0.304990359811,1.0,-0.13998,-0.183973714286,3.487
-0.111005136474,-0.419684958709,-0.131117110964,-2.5606062347,-0.0523930364432,2.13457175375,-0.37668695779,-0.534756221626,-0.306155830875,6.00945960152e-05,-0.263143807349,-0.0509555892422,-0.0489061211388,-0.487987545284,0.573793817241,0.818972384994,0.00506308354741,0.0,0.818961289377,-0.573714152483,-0.0116286131757,0.0,-0.00661887781421,0.0108191040748,-0.999919565487,0.0,0.389176998232,-0.0969865541436,0.304973424279,1.0,-0.13998,-0.183973714286,3.506
-0.119446048349,-0.424480654058,-0.131208221258,-2.56466914015,-0.0531228101973,2.13371252819,-0.384527459327,-0.528124281509,-0.296592274842,-0.0146436016789,-0.253868826295,-0.0487999856671,-0.0540545522359,-0.486106139956,0.573846066351,0.818935682222,0.00507813135136,0.0,0.818924234923,-0.573765452062,-0.0117068517524,0.0,-0.00667363078414,0.0108767450703,-0.99991857622,0.0,0.386914625302,-0.0999373014464,0.304959690047,1.0,-0.13998,-0.183973714286,3.522
-0.128369920292,-0.429404221147,-0.131311554203,-2.56880699058,-0.0539041176035,2.1328817407,-0.392910700036,-0.515610948874,-0.290683100299,-0.00141765507106,-0.243097805615,-0.0446584591845,-0.0527529036917,-0.499031039185,0.573830362843,0.818946496609,0.00510854900357,0.0,0.818935437646,-0.573749642113,-0.0116980359585,0.0,-0.00664916541994,0.0108964698234,-0.999918524453,0.0,0.38456373247,-0.103046241023,0.304957395632,1.0,-0.13998,-0.183973714286,3.539
-0.137408036803,-0.434261938325,-0.131346818593,-2.57292067697,-0.0546831099868,2.13197683942,-0.401413721799,-0.545059078562,-0.291139662995,-0.00018880266605,-0.24203880713,-0.0483549769717,-0.0596110674408,-0.498191754786,0.573759860416,0.818996152792,0.00506667427182,0.0,0.818984077948,-0.573678521639,-0.0117805253965,0.0,-0.00674169257017,0.0109089281946,-0.999917769053,0.0,0.382175022952,-0.106140032997,0.304927719102,1.0,-0.13998,-0.183973714286,3.556
-0.146092925627,-0.438760671783,-0.131451025593,-2.57664507679,-0.0553748439636,2.13110347995,-0.409495115137,-0.541920796642,-0.281151070709,-0.0153100186532,-0.230923797554,-0.0451201530246,-0.0595823256291,-0.503151057146,0.573851041172,0.818932078748,0.00509704270726,0.0,0.818919996755,-0.573768931779,-0.0118321063349,0.0,-0.00676529694032,0.0109641478306,-0.999917005666,0.0,0.379922847081,-0.109121610514,0.304927716572,1.0,-0.13998,-0.183973714286,3.572
-0.155225572473,-0.443517734815,-0.131558961444,-2.5804038384,-0.0561233617038,2.13029210514,-0.41812810752,-0.528536303316,-0.282565362875,-0.0065174861548,-0.21990926828,-0.0458976630663,-0.0473385799971,-0.505528878471,0.573830840069,0.818945484705,0.00521602987594,0.0,0.818936201917,-0.573750412103,-0.0116064078132,0.0,-0.00651244136605,0.0109319209146,-0.999919037329,0.0,0.377605176446,-0.112249405109,0.305011879875,1.0,-0.13998,-0.183973714286,3.589
