nelsonifechukwu/NELSON_IML_WORK/CNN-GradCAM/train2dof/data_sample_2022-02-21-10-53-03/robot_state.csv
position_joint1,position_joint2,position_joint3,position_joint4,position_joint5,position_joint6,position_joint7,velocity_joint1,velocity_joint2,velocity_joint3,velocity_joint4,velocity_joint5,velocity_joint6,velocity_joint7,ee_T_00,ee_T_10,ee_T_20,ee_T_30,ee_T_01,ee_T_11,ee_T_21,ee_T_31,ee_T_02,ee_T_12,ee_T_22,ee_T_32,ee_T_03,ee_T_13,ee_T_23,ee_T_33,v_x,v_y,time
0.465076074684,0.547672014479,-0.123962615058,-1.35574562296,0.0795028234058,1.89409326958,0.159185084581,0.0011278002587,-0.00110604374334,-0.000100950407516,-0.000155878692469,-4.59043862553e-06,-0.000162823524537,0.00142191533502,0.573802625703,0.818979135683,0.00211399001845,0.0,0.818938056077,-0.573743323438,-0.0118239595895,0.0,-0.00847085163621,0.00851600989453,-0.999927858522,0.0,0.661691836325,0.260918855234,0.303331823063,1.0,0.0,0.0,0.0
0.465073330943,0.547669239086,-0.123958004881,-1.35574616659,0.0795028234058,1.89409315909,0.159178078174,-0.000863124240254,-0.00136659551568,0.00102960078541,0.000628409776375,0.000122907542164,-0.000123579825963,-0.000953555280515,0.573795937535,0.818983813503,0.00211711798325,0.0,0.818942750299,-0.573736599298,-0.0118251114172,0.0,-0.00847006984663,0.00851916333629,-0.999927838283,0.0,0.661691420208,0.260919672496,0.30333336831,1.0,-0.00018,-0.000236571428571,0.01
0.465067231109,0.547669199959,-0.123963645363,-1.35575215289,0.0795028234058,1.89409638363,0.159182744414,-0.0002521196222,0.00127339188671,-0.000189242028682,-0.000378886741893,4.62414631304e-05,-0.000280394536501,-0.000572885663455,0.573809045073,0.818974639588,0.00211338713367,0.0,0.818933554938,-0.573749747216,-0.0118240038976,0.0,-0.00847116709303,0.00851560797561,-0.999927859272,0.0,0.66169357896,0.260911880523,0.303331013459,1.0,-0.0006,-0.000788571428571,0.031
0.465069371204,0.547645512506,-0.123961174501,-1.35576977173,0.079502111329,1.89410146993,0.159181218047,-0.000214886386539,0.000153279389685,0.000237597967848,-0.000336327241092,-0.000218816041069,6.4063444114e-05,-0.00024123423606,0.573805081263,0.81897738911,0.00212408680836,0.0,0.818936426709,-0.573745724593,-0.0118202969724,0.0,-0.00846203314832,0.00852220260444,-0.999927880428,0.0,0.661690095617,0.260913178192,0.303339766786,1.0,-0.00086,-0.00113028571429,0.044
0.465066927881,0.547534163367,-0.123960516677,-1.35588689467,0.0795041458101,1.89412058997,0.15918191369,-0.000819779721776,-0.0108328181033,0.00139357979583,-0.0116180774194,0.000344168323851,-0.000457331844849,0.00107959786224,0.573814058062,0.81897105178,0.00214243247039,0.0,0.818930213905,-0.573754512857,-0.011824154508,0.0,-0.00845457273215,0.00853953317511,-0.99992779568,0.0,0.661670374454,0.260901131712,0.303364541847,1.0,-0.00124,-0.00162971428571,0.063
0.465062706703,0.547390263097,-0.123958390778,-1.35606702242,0.0794993476686,1.89415884261,0.159170007918,-0.00196719186569,-0.00641105465744,0.000891234645545,-0.0110620877938,0.000113974165482,0.00103402838992,-0.00147546168407,0.57381484986,0.818970477702,0.00214979838062,0.0,0.818929634189,-0.573755172969,-0.0118322710915,0.0,-0.00845698558954,0.00855023107972,-0.999927683857,0.0,0.66164139048,0.260881896899,0.303383983754,1.0,-0.00158,-0.00207657142857,0.08
0.465043197853,0.547233184801,-0.123961174836,-1.35628268019,0.0794958756423,1.8942634044,0.159168654983,1.61924916978e-05,-0.0133595624023,0.000330205001622,-0.0125397349161,-0.000822704450308,0.00934390934607,8.15840947505e-05,0.573842955909,0.81895067082,0.00219262818626,0.0,0.818910349394,-0.573783071835,-0.0118141031194,0.0,-0.00841723679656,0.00857517086817,-0.999927805679,0.0,0.661622873296,0.26085038805,0.303401770656,1.0,-0.00192,-0.00252342857143,0.097
0.465035699299,0.547111913789,-0.123961253898,-1.35643260509,0.0794944476039,1.89434792959,0.15915410906,0.000813459599346,-0.00645074267861,-0.00084651088055,-0.0098161235243,0.000366256266265,0.00856359255012,-0.00271978283427,0.573845405302,0.818948815967,0.00224377838493,0.0,0.818909133125,-0.573785295523,-0.0117903871165,0.0,-0.00836843764351,0.00860347572922,-0.999927972134,0.0,0.661610612497,0.260834695023,0.303423651824,1.0,-0.00216,-0.00283885714286,0.109
0.465006649663,0.5468526926,-0.123963538027,-1.35675328172,0.0794884905789,1.89450571441,0.159134931369,0.00260849592967,-0.0170760878109,-0.00145131122293,-0.0227725161146,0.000301037670154,0.00703974549107,-0.00121445800851,0.573871616551,0.818930202018,0.00233213227951,0.0,0.818891619327,-0.573811117886,-0.0117500505521,0.0,-0.00828442734291,0.00865295067986,-0.99992824478,0.0,0.661583819822,0.2607892558,0.303468390254,1.0,-0.00258,-0.00339085714286,0.13
0.464965443853,0.546627327526,-0.123963339019,-1.35710394284,0.0794808390657,1.89463006334,0.159101804242,0.000669590700066,-0.0184204064305,-0.00353687762423,-0.0195613013442,9.67360251265e-05,0.00334409343986,-0.00356392196983,0.573895655697,0.818913336988,0.00233875545317,0.0,0.818874713633,-0.573834996738,-0.0117620912886,0.0,-0.00829023331195,0.00866552763268,-0.999928087746,0.0,0.661545256537,0.260730648914,0.303471870723,1.0,-0.00292,-0.00383771428571,0.147
0.464930327845,0.546368353257,-0.123959187904,-1.35749574554,0.0794719578825,1.89478070127,0.158971905632,0.00113512608452,-0.0199615712211,0.000251595833047,-0.0291298991825,-7.224849604e-05,0.0130474360003,-0.00334143088605,0.573834727594,0.81895596014,0.00236382317552,0.0,0.818917512334,-0.5737738246,-0.011766609423,0.0,-0.00828019447291,0.008688032579,-0.999927975641,0.0,0.661500934924,0.260675506035,0.303481709135,1.0,-0.00324,-0.00425828571429,0.163
0.464880179914,0.546094495372,-0.123959044361,-1.3579664173,0.0794568807089,1.89494271991,0.158948828969,-0.000451653561195,-0.0161395938059,0.00164636078869,-0.0342763712793,-9.66707096971e-05,0.00535465040954,0.0011658853404,0.573882181445,0.818922749102,0.00234940935254,0.0,0.818883981573,-0.573821188313,-0.0117904820226,0.0,-0.00830751303005,0.00869040854567,-0.999927728402,0.0,0.661447248974,0.260588669746,0.303470792022,1.0,-0.0036,-0.00473142857143,0.181
0.464817383671,0.545757366697,-0.123961579626,-1.3585245833,0.0794324971093,1.89513137111,0.15888143446,-0.00243719587722,-0.0185912753391,0.000175346225498,-0.0321426204596,0.000371712529194,0.00878801310515,-0.0066341577927,0.573901767589,0.818909114497,0.00231738064243,0.0,0.81886982694,-0.573840786556,-0.0118196917415,0.0,-0.0083496065229,0.00868114220734,-0.999927458289,0.0,0.661382999238,0.260502721167,0.303455087643,1.0,-0.00394,-0.00517828571429,0.198
0.464756507153,0.545426513134,-0.123961579951,-1.35909543593,0.0793341188773,1.89531691564,0.158780476463,-0.00407552779114,-0.0207933841542,9.61216520224e-05,-0.0341760752552,-0.0115001450223,0.00674001183771,-0.00677326607133,0.573874604101,0.818928377008,0.0022358442675,0.0,0.818888547188,-0.57381447628,-0.0118000422116,0.0,-0.00838059096193,0.00860281744741,-0.999927876013,0.0,0.661318973703,0.260395702358,0.303433539318,1.0,-0.00426,-0.00559885714286,0.214
0.46468681761,0.545034623127,-0.123967559971,-1.35978438484,0.0793040330359,1.89553923867,0.158744910096,-0.005211200342,-0.0300540554623,6.78524595785e-05,-0.0475886904918,-0.00124349903376,0.019399348052,-0.00561566017302,0.573937076067,0.81888475646,0.0021760641546,0.0,0.818844027463,-0.573877050048,-0.0118463926423,0.0,-0.00845219980706,0.00858110630428,-0.999927459835,0.0,0.661236528109,0.260279736631,0.303402481973,1.0,-0.0046,-0.00604571428571,0.231
0.464619711378,0.544606116929,-0.123975771672,-1.36049513629,0.0792868246284,1.89578117204,0.158617392533,-0.00415522061275,-0.0258497882348,-0.0018678083386,-0.0436798467596,-0.00370635775613,0.0168772781348,-0.0123571305538,0.573928348059,0.818890931705,0.00215410480033,0.0,0.818849687641,-0.573868178439,-0.011884852812,0.0,-0.00849638957625,0.0085851072741,-0.999927050988,0.0,0.66115298195,0.260165504618,0.303388729693,1.0,-0.00494,-0.00649257142857,0.248
0.464565363719,0.544177497283,-0.123973957105,-1.3612045256,0.0792551284379,1.89603659818,0.158537378338,-0.00476936778375,-0.0267425454801,0.000407104501642,-0.0519666772371,-0.000139068381692,0.0189297295961,-0.0047155770101,0.573937186578,0.818884778723,0.00213820937143,0.0,0.81884320066,-0.573876951866,-0.0119081380096,0.0,-0.00852448800525,0.00858554673036,-0.999926808067,0.0,0.661067548067,0.260064253967,0.303376480916,1.0,-0.00526,-0.00691314285714,0.264
0.464497164369,0.543663624618,-0.123974372273,-1.3620213284,0.0792169389408,1.89633004526,0.158429084706,-0.00424772727901,-0.029617776715,7.33250275732e-05,-0.051380970897,8.57957767184e-05,0.0160606294847,-0.0013220549631,0.573939950413,0.818882847539,0.00213593719811,0.0,0.818841121599,-0.573879605512,-0.0119232066623,0.0,-0.00853810301175,0.00859236328114,-0.999926633354,0.0,0.660971609642,0.25994246056,0.303376747938,1.0,-0.0056,-0.00736,0.281
0.464423709025,0.543140947139,-0.123985327558,-1.36286379018,0.0791678135801,1.89661890315,0.158326998553,-0.00336075997357,-0.0320018912109,-0.0017353865012,-0.0531426113247,-0.00481701820219,0.0191751337992,-0.00396749386207,0.573957869138,0.818870361012,0.00210789262619,0.0,0.818828268131,-0.573897635182,-0.0119381130576,0.0,-0.00856621728211,0.00857814115636,-0.999926515008,0.0,0.660873351086,0.259806078909,0.303370901328,1.0,-0.00594,-0.00780685714286,0.298
0.464358415438,0.542611738344,-0.123984984509,-1.36372269595,0.0791142416767,1.89691454848,0.158200293018,-0.00428562051931,-0.0384556980228,-0.000914904804097,-0.0582885281499,-0.0018856115146,0.0188120610108,-0.00753387380721,0.573940720926,0.818882456099,0.00207818633309,0.0,0.818839945908,-0.573880581601,-0.0119569204761,0.0,-0.00859884717979,0.00856443043451,-0.999926352467,0.0,0.660768240569,0.259679518709,0.30336199731,1.0,-0.00626,-0.00822742857143,0.314
0.46428742579,0.542019178308,-0.123978250783,-1.36464206857,0.0790679802675,1.89725704702,0.158094744865,-0.00281627071583,-0.0351948266794,0.00113403940662,-0.0526440938224,0.000257537126597,0.0209385736984,-0.00873054293121,0.573946466395,0.818878379254,0.00209776167715,0.0,0.818836003492,-0.57388612478,-0.0119608557709,0.0,-0.00859077526762,0.00858277893786,-0.999926264525,0.0,0.660659686811,0.25955092516,0.303372919587,1.0,-0.0066,-0.00867428571429,0.331
0.464191455689,0.541340155145,-0.123979198872,-1.3656577074,0.0790051715889,1.89763667312,0.157955590203,-0.00449266404909,-0.0398164204878,0.00115558047493,-0.0601855233259,-0.00640762898255,0.0277867467786,-0.00299645071236,0.573951356302,0.818874859193,0.00213365451298,0.0,0.818832970593,-0.573890885593,-0.0119400420727,0.0,-0.00855308006637,0.00860027558699,-0.999926437335,0.0,0.660547622511,0.259390938989,0.303402515924,1.0,-0.00696,-0.00914742857143,0.349
0.464110530838,0.540658346777,-0.123983234648,-1.36669971651,0.0789446914086,1.8980259116,0.157822734846,-0.00650565926103,-0.0432195090322,0.0006697277782,-0.0668455302102,-0.00668530892991,0.0204140106813,-0.00161495349539,0.573953286996,0.818873440721,0.00215854782946,0.0,0.818831872924,-0.573892710804,-0.0119275844264,0.0,-0.00852857143488,0.00861352988657,-0.999926532587,0.0,0.660427949779,0.259237042888,0.303422369869,1.0,-0.0073,-0.00959428571429,0.366
0.464023121982,0.540021040634,-0.123986714395,-1.36767853363,0.0788905818649,1.89838852017,0.157689139273,-0.00551757312707,-0.0408930540159,0.00120960373068,-0.0634225428851,-0.0036338885414,0.0273275208372,-0.00370464101948,0.573957543121,0.818870387747,0.00218487240027,0.0,0.81882910543,-0.573896801367,-0.0119207542472,0.0,-0.00850782517271,0.00863121011039,-0.999926556864,0.0,0.660310091583,0.259079414208,0.303439514679,1.0,-0.00762,-0.0100148571429,0.382
0.463934282633,0.539333118503,-0.123995517596,-1.36876606524,0.0788208424754,1.89880024694,0.157561151855,-0.00514750064411,-0.042338159354,-0.00184669366315,-0.0676757216976,-0.00831605807841,0.0229270384826,-0.00731599849112,0.573973366332,0.818859301518,0.00218310794502,0.0,0.81881810214,-0.573912737184,-0.0119093496015,0.0,-0.00849933187837,0.00862338381274,-0.999926696618,0.0,0.660195138844,0.258918166024,0.303442831816,1.0,-0.00792,-0.0104091428571,0.397
0.463831880688,0.538626158466,-0.123993048493,-1.36986420989,0.07875896533,1.89922799675,0.157424182479,-0.00113369858993,-0.0414718569447,-0.00053115691514,-0.072071363248,-0.00887596839714,0.0245164746207,-0.00904257784028,0.57398759355,0.81884924046,0.00221602137304,0.0,0.818808439649,-0.573926799791,-0.0118959884779,0.0,-0.00846935013598,0.00864281320296,-0.999926783264,0.0,0.660074402483,0.25874993981,0.303456560396,1.0,-0.00824,-0.0108297142857,0.413
0.463715668963,0.537853768327,-0.124001831365,-1.3710941728,0.078692476338,1.89969949768,0.157277627065,-0.0101197715778,-0.049157580672,0.000610080128104,-0.0726744992647,9.24999136095e-05,0.0237738564927,-0.0104168184657,0.574010428749,0.818833173305,0.00223805356977,0.0,0.818792641133,-0.57394952557,-0.0118869603186,0.0,-0.00844907032484,0.00865590763544,-0.999926841561,0.0,0.65993132434,0.258545694209,0.303463492243,1.0,-0.0086,-0.0113028571429,0.431
0.463602465848,0.537036251577,-0.124005425599,-1.37236117633,0.0786162145227,1.90016600177,0.157120378987,-0.00735188783568,-0.049631350892,-0.000505999954522,-0.0734386276371,-0.00865514759762,0.0276880716301,-0.00518577580981,0.574034963383,0.818815963427,0.0022418188338,0.0,0.818775484357,-0.57397404633,-0.0118847489261,0.0,-0.00844483890414,0.00865797440891,-0.999926859413,0.0,0.659795044373,0.258356387221,0.303472530554,1.0,-0.00892,-0.0117234285714,0.447
0.463479337452,0.536201570348,-0.124016952259,-1.37368375174,0.0785439378356,1.90067288994,0.156951650246,-0.00920921843894,-0.0452014908438,-0.000598802556784,-0.0785328206227,-0.00984945479023,0.024680832767,-0.00544356813647,0.574059286896,0.818798866804,0.00225781974304,0.0,0.818758595129,-0.573998302412,-0.0118768107064,0.0,-0.00842889673036,0.00866676966775,-0.999926917731,0.0,0.65964980714,0.258145126858,0.303476547678,1.0,-0.00926,-0.0121702857143,0.464
0.463366004628,0.535310765788,-0.124014843821,-1.3750758871,0.0784630973096,1.90117592877,0.156777827973,-0.00344178406203,-0.0567637452453,0.00141868640776,-0.0886533733596,-0.000453878812453,0.0345930790743,-0.00800485069637,0.574062998168,0.818796254539,0.00226154563932,0.0,0.818755959988,-0.574001925056,-0.0118833883037,0.0,-0.00843210462784,0.00867363448331,-0.999926831161,0.0,0.659483635707,0.257939105326,0.303486103061,1.0,-0.0096,-0.0126171428571,0.481
0.463244006159,0.534427603315,-0.124016482542,-1.37651426869,0.0783870059808,1.901707396,0.15660720226,-0.0099307002439,-0.0510639910544,-0.000250023373137,-0.0892892380988,-0.00136263976569,0.0289460056158,-0.00709345219421,0.574082900024,0.818782345789,0.00224522284313,0.0,0.818741728015,-0.574021775712,-0.0119050710735,0.0,-0.00845901807937,0.00867292233785,-0.999926610023,0.0,0.659314672112,0.257722309974,0.303470696415,1.0,-0.00994,-0.013064,0.498
0.463129718862,0.533548942951,-0.124026869186,-1.37791417513,0.0783024151937,1.90221068767,0.156434004701,-0.00531390316425,-0.0563374270365,-0.000434758961645,-0.0898299826616,-0.00272201756708,0.0356714806941,-0.0114392762256,0.574095854664,0.81877331228,0.00222702879197,0.0,0.818732467822,-0.57403481217,-0.0119133309062,0.0,-0.008476088543,0.00866290145492,-0.999926552333,0.0,0.659149042919,0.257506769624,0.303468066778,1.0,-0.01026,-0.0134845714286,0.514
0.462994526569,0.532605993435,-0.12402748372,-1.37942838135,0.0782217939919,1.90279048107,0.156231098796,-0.00396068357968,-0.0580880244786,-0.00169856649162,-0.0902921854336,-0.00484115262969,0.0346196185771,-0.0153152303423,0.574102172488,0.818768851884,0.0022382206495,0.0,0.818728064581,-0.574040993567,-0.0119180901873,0.0,-0.00847349375482,0.00867486254687,-0.999926470628,0.0,0.658976334307,0.257276236553,0.303462529965,1.0,-0.0106,-0.0139314285714,0.531
0.4628699606,0.531632249628,-0.124022282996,-1.3809831888,0.0781275788897,1.90336784609,0.156031401786,-0.00834308194706,-0.0596608131841,0.000990860408349,-0.0950724689628,-0.00843197809509,0.0375699000461,-0.0166347754508,0.574096554343,0.818772799851,0.00223504298913,0.0,0.818731927108,-0.574035343845,-0.0119248669547,0.0,-0.0084809263177,0.00867609312504,-0.99992639694,0.0,0.658790766741,0.257049346016,0.303458747129,1.0,-0.01094,-0.0143782857143,0.548
0.462714102323,0.530509436933,-0.124025329482,-1.38281052887,0.0780172815962,1.90400531247,0.155801321719,-0.00859649153205,-0.0608919167227,0.00067321630716,-0.0926192406665,-0.00603426372954,0.0362275131246,-0.0133305920346,0.574107590679,0.818765217557,0.00217709538268,0.0,0.818723513216,-0.574046536748,-0.0119636723304,0.0,-0.00854584924789,0.00865104083695,-0.999926061243,0.0,0.658567848413,0.256768178712,0.3034355452,1.0,-0.01132,-0.0148777142857,0.567
0.462601269465,0.529661783014,-0.124021934521,-1.38416127384,0.0779322026408,1.90449294799,0.155617314323,-0.00644634833077,-0.0625871450357,0.00102985878204,-0.0956248852204,-0.00759302901076,0.0349540316489,-0.0185586681868,0.574097363235,0.818772426997,0.00216268772875,0.0,0.818730508097,-0.574036342901,-0.0119740987782,0.0,-0.00856276542283,0.0086451234041,-0.999925967704,0.0,0.658404742458,0.256565985784,0.303431899211,1.0,-0.0116,-0.0152457142857,0.581
0.462416267808,0.528252866738,-0.124028043051,-1.38633590176,0.0777978215345,1.90531720476,0.155317741244,-0.0102083770846,-0.0612964647402,3.57246036528e-06,-0.0983852187621,-0.00267349304591,0.0375558282139,-0.0152333759577,0.574089695339,0.818777680388,0.00220877907028,0.0,0.818736419683,-0.57402854533,-0.0119436649737,0.0,-0.00851146793793,0.00866530968789,-0.99992623094,0.0,0.658153838915,0.256235211597,0.303460592537,1.0,-0.01204,-0.015824,0.603
0.462314304493,0.527452669314,-0.124030495275,-1.38756351695,0.0777192762896,1.90579802688,0.155149937745,-0.0105794212617,-0.0740775972265,7.32256601187e-05,-0.0998062734633,-0.00549582359356,0.0456106644632,-0.0160526247094,0.574082921095,0.818782316951,0.00225034597998,0.0,0.818741672448,-0.574021680429,-0.0119134837781,0.0,-0.00846296540814,0.00868194675338,-0.999926498307,0.0,0.658014349943,0.256051387794,0.303481306553,1.0,-0.01228,-0.0161394285714,0.615
0.462133975052,0.526023335543,-0.124039685976,-1.38979092496,0.0775815362273,1.90662008229,0.154843226519,-0.00184586996982,-0.0695880755798,-0.00191932062954,-0.108557811699,-0.0111159759898,0.0377752444299,-0.0126764488716,0.574069046466,0.81879199941,0.00226682428164,0.0,0.818751604157,-0.574007777303,-0.011900806168,0.0,-0.00844327266865,0.00868801773726,-0.999926612054,0.0,0.657749551258,0.255715293106,0.303498452854,1.0,-0.0127,-0.0166914285714,0.636
0.462013932262,0.525116569288,-0.124040365074,-1.39119024548,0.0774905164457,1.90712891445,0.154654172737,-0.0108110040854,-0.0706192649889,-9.61876342967e-05,-0.114722423799,-0.0024456389921,0.0366677232651,-0.0163274481895,0.574063743027,0.81879568806,0.00227751121495,0.0,0.818755459338,-0.574002460243,-0.0118920284691,0.0,-0.00843000689591,0.00869167445774,-0.999926692202,0.0,0.657582280697,0.255501583669,0.303514350225,1.0,-0.01296,-0.0170331428571,0.649
0.461862492444,0.52388512496,-0.124053182665,-1.39319928614,0.0773595260616,1.90784520401,0.154370458637,-0.00377905384701,-0.0686450327843,-0.000371767213025,-0.107990710477,-0.011840085273,0.0369808245683,-0.0224088559361,0.574037044158,0.818814573218,0.00221664619385,0.0,0.818773611237,-0.573976068928,-0.0119160707426,0.0,-0.00848491387185,0.0086553640786,-0.999926542757,0.0,0.657334194494,0.255199713588,0.303486541571,1.0,-0.01332,-0.0175062857143,0.667
0.461703630117,0.522668888541,-0.12405606239,-1.39512332472,0.0772452063642,1.90858766691,0.154121436044,-0.0070726834387,-0.071201148603,-0.000580495631901,-0.113452338747,-0.011925604904,0.0506380336695,-0.0174729314872,0.574037825651,0.818813949319,0.00224455421968,0.0,0.818773357091,-0.573976744813,-0.0119009677331,0.0,-0.00845651927991,0.00866955375006,-0.99992666037,0.0,0.657108999132,0.254913093216,0.303490114291,1.0,-0.01366,-0.0179531428571,0.684
0.461556277642,0.52159228445,-0.124057048895,-1.39685374263,0.0771388388727,1.90926453026,0.153884781101,-0.00896137325878,-0.0671720451736,-0.000679188635875,-0.110664216984,-0.00727476623339,0.0413070511584,-0.0175563348248,0.574029554279,0.818819704219,0.00226046404327,0.0,0.818779356506,-0.573968449478,-0.0118882826893,0.0,-0.00843708751336,0.00867521393276,-0.999926775428,0.0,0.656908255003,0.254653157208,0.303481683024,1.0,-0.01396,-0.0183474285714,0.699
0.461367150446,0.520163126732,-0.124068097303,-1.399134508,0.0770044262627,1.91009854997,0.153577359662,-0.00868734066651,-0.0772898235491,0.000348855688401,-0.118420001107,-0.00742758006761,0.0489772542491,-0.018931003441,0.574025945089,0.818822278796,0.00224432895774,0.0,0.818781680792,-0.573964863735,-0.0119013149402,0.0,-0.00845705868021,0.00866944590634,-0.999926656743,0.0,0.656632125164,0.254305430673,0.303472563497,1.0,-0.01434,-0.0188468571429,0.718
0.461223656736,0.518989037636,-0.124069135847,-1.40095953844,0.0768863761828,1.91074436536,0.153337618784,-0.0107086393357,-0.0753604523884,-0.000211140934607,-0.121622938545,-0.00216484002882,0.0486199760993,-0.013843258989,0.574012829227,0.818831493826,0.00223685086058,0.0,0.818790795011,-0.573951775926,-0.011905453281,0.0,-0.00846487854603,0.00866556265447,-0.999926624236,0.0,0.656403822865,0.254034204384,0.303484170776,1.0,-0.01464,-0.0192411428571,0.733
0.461034965724,0.517543109502,-0.124069827627,-1.40320775665,0.0767461811274,1.91155326477,0.153036791906,-0.00909795827072,-0.0769581534192,0.000597223955655,-0.123548838229,-0.0120941649186,0.0489951750371,-0.015889215068,0.574002724768,0.818838565241,0.00224119040183,0.0,0.818797888216,-0.573941619805,-0.0119072335317,0.0,-0.00846395252892,0.00867003338478,-0.99992659332,0.0,0.656127056421,0.253694382425,0.303498903451,1.0,-0.015,-0.0197142857143,0.751
0.460857782259,0.516269505336,-0.124072996281,-1.405215549,0.0766101972397,1.912300665,0.152742269887,-0.0141984427185,-0.0805667559389,0.000607198354232,-0.131579936572,-0.0053830721537,0.0464133524882,-0.0198669279373,0.573978322822,0.818855664088,0.00224348442088,0.0,0.818815123301,-0.573917320763,-0.0118932620418,0.0,-0.00845145313608,0.00866364037427,-0.999926754455,0.0,0.655887039821,0.253383496145,0.303501505081,1.0,-0.01532,-0.0201348571429,0.767
0.46067357079,0.514900000481,-0.124081149664,-1.40740176005,0.0764852298769,1.91312910791,0.152459518855,-0.0158032393116,-0.07740584353,-0.000712840839448,-0.123624574582,-0.00285176568315,0.0475948714484,-0.0139490979773,0.573985276959,0.818850760995,0.00225387544231,0.0,0.81881030949,-0.573924185427,-0.0118934165186,0.0,-0.00844554214263,0.00867230939169,-0.99992672925,0.0,0.655624972328,0.253052457478,0.303493295819,1.0,-0.01566,-0.0205817142857,0.784
0.460481533463,0.513486127085,-0.124084433179,-1.40967802112,0.0763462550844,1.91390862761,0.152133500868,-0.0139360275898,-0.0770315802536,-0.00146286929491,-0.131061683338,-0.00602368254503,0.0478596227707,-0.0191338214511,0.573959735212,0.818868853748,0.00218394557538,0.0,0.818827364965,-0.573898799821,-0.0119440717162,0.0,-0.00852742875019,0.00864385706134,-0.99992628063,0.0,0.655333658946,0.252703616797,0.303468480416,1.0,-0.016,-0.0210285714286,0.801
0.46029680462,0.512157811998,-0.124085105726,-1.4118183205,0.076213998921,1.91467350172,0.151827808304,-0.0163890536975,-0.0838207108645,2.05310063412e-06,-0.136417516399,-0.0104333920591,0.0494128024002,-0.0247616153283,0.57393753492,0.818884522824,0.00214270632227,0.0,0.818842425844,-0.573876700431,-0.0119733554598,0.0,-0.00857531133938,0.00862666305011,-0.999926019623,0.0,0.655065869404,0.25237622351,0.303446658469,1.0,-0.01632,-0.0214491428571,0.817
0.46010373401,0.510724896566,-0.124083024085,-1.41412419993,0.0760753841245,1.91555304676,0.151493404756,-0.00908639690928,-0.0881831327751,0.00125119697536,-0.134636751647,-0.00689363868833,0.0511082094929,-0.0293671634297,0.573903690964,0.818908229576,0.0021475410342,0.0,0.818866153746,-0.573842798589,-0.0119754606776,0.0,-0.00857461743269,0.00863147593324,-0.99992598404,0.0,0.654785282288,0.252033447116,0.303428728835,1.0,-0.01666,-0.021896,0.834
0.459921935348,0.509415340086,-0.124093877389,-1.41621815675,0.0759466949135,1.91632892658,0.151215390815,-0.011265520448,-0.0911330208072,-0.00180005539657,-0.143364650228,-0.0128638266754,0.0521890299031,-0.0240960475404,0.573907068128,0.818905892813,0.00213606425613,0.0,0.818863683624,-0.573846239263,-0.0119794918833,0.0,-0.00858446933356,0.00862442655657,-0.999925960335,0.0,0.654530004137,0.251708693378,0.303416282434,1.0,-0.01696,-0.0222902857143,0.849
0.459700983995,0.507825444537,-0.124100377663,-1.41872750309,0.0757800083524,1.91721709024,0.150866833845,-0.0102789552956,-0.0811840299362,0.000415731548338,-0.137453853304,-0.00887642079482,0.0411530563849,-0.015962213557,0.573892126262,0.818916453081,0.00210171102823,0.0,0.81887383381,-0.573831480367,-0.0119926369847,0.0,-0.00861510565944,0.00860368175342,-0.99992587556,0.0,0.654215267795,0.251316897074,0.30341135582,1.0,-0.01732,-0.0227634285714,0.867
0.459484963505,0.506265254982,-0.124104309133,-1.42117029406,0.0756251599811,1.91812499057,0.150534409628,-0.0162970188812,-0.0970322990711,-0.000218802610597,-0.1461522537,-0.0103529234068,0.0532185691259,-0.0104979418499,0.573884194686,0.818921967563,0.00211873367951,0.0,0.81887959734,-0.573823505854,-0.01198065484,0.0,-0.00859560773842,0.00861066201895,-0.999925983274,0.0,0.653916114281,0.250940599151,0.303418398461,1.0,-0.01766,-0.0232102857143,0.884
0.459264056854,0.504636264722,-0.124107129627,-1.42362571975,0.0754699221479,1.91908291463,0.150194856346,-0.0132339938382,-0.102546691083,-0.00179774273907,-0.149345128234,-0.0113670176263,0.0530007877328,-0.0150066219967,0.573873935291,0.818928871847,0.00222624121933,0.0,0.818888002244,-0.573812908725,-0.0119135411681,0.0,-0.00847906012711,0.00866007971138,-0.999926551582,0.0,0.653625717236,0.250564510747,0.303471148971,1.0,-0.018,-0.0236571428571,0.901
0.4590580745,0.50308383324,-0.124115149902,-1.42595947327,0.075327747558,1.91995749388,0.149860554987,-0.0114301284319,-0.10134966372,-0.00124606495433,-0.149354307264,-0.00617025585539,0.059525020236,-0.0268230912896,0.573856133444,0.818941128203,0.00230511339919,0.0,0.818901301395,-0.573794811907,-0.0118709436561,0.0,-0.00839910358997,0.00870004169203,-0.999926879493,0.0,0.653341585989,0.250205144875,0.303520678678,1.0,-0.01832,-0.0240777142857,0.917
0.458819954027,0.501267704837,-0.124113298775,-1.42863895236,0.0751496436268,1.92092597678,0.149489525616,-0.0120843333697,-0.103553798634,-0.00125563188136,-0.153393067758,-0.0132083453814,0.0519271761669,-0.0213630179059,0.573834522962,0.818956025231,0.00239079421742,0.0,0.818917364311,-0.573772925426,-0.0118206336161,0.0,-0.00830896610309,0.00874111884498,-0.999927274317,0.0,0.653006650327,0.249793772785,0.303596856071,1.0,-0.01868,-0.0245508571429,0.935
0.458574852488,0.499573000994,-0.124113856577,-1.43123197126,0.0749787464967,1.9218553326,0.149114586371,-0.0161875103626,-0.100947015398,-0.00117077419902,-0.154021511517,-0.00722764783356,0.0592026758298,-0.0193631445142,0.573814274211,0.818970148452,0.00241279050124,0.0,0.818931791206,-0.573752614035,-0.011807037784,0.0,-0.00828542614966,0.00875112614989,-0.999927382116,0.0,0.65268220689,0.249383734913,0.303625534695,1.0,-0.01902,-0.0249977142857,0.952
0.458338774953,0.497989877657,-0.124113882847,-1.43372225601,0.0748305805743,1.92277838746,0.148759245539,-0.0115492949335,-0.101381853282,-0.00113442583123,-0.158628621953,-0.00920825039689,0.0643332836513,-0.0239604376595,0.573803308389,0.818977785262,0.00242846258702,0.0,0.818939542751,-0.573741495978,-0.0118096575951,0.0,-0.00827869685486,0.0087653533998,-0.999927313237,0.0,0.652373657797,0.248993878311,0.303624227092,1.0,-0.01934,-0.0254182857143,0.968
0.458073050748,0.496307626352,-0.124116010095,-1.43640914546,0.0746682214915,1.92372080793,0.148361153187,-0.0144352210601,-0.103237942797,-0.000105215899848,-0.161173513113,-0.00905713478767,0.0567289681606,-0.0242934519715,0.57378844476,0.818988346853,0.00237808339731,0.0,0.818949292385,-0.573726662307,-0.0118541284703,0.0,-0.00834418388047,0.00874946010865,-0.9999269081,0.0,0.652031477667,0.248560699456,0.303599620202,1.0,-0.01968,-0.0258651428571,0.985
0.457784723818,0.494538303212,-0.124116399034,-1.43930604805,0.0744895061069,1.92472022606,0.147961498223,-0.0161019409101,-0.0987848487931,-0.000309520688737,-0.158415184495,-0.00672934798512,0.0585308965622,-0.0198586757827,0.573795082956,0.818984003801,0.00226962452947,0.0,0.818943350846,-0.573733534736,-0.0119317276856,0.0,-0.00846989748013,0.00870522819709,-0.999926237199,0.0,0.651656834968,0.248091491973,0.303540022954,1.0,-0.0203102857143,-0.0266935183673,1.003
0.457537712279,0.492952187687,-0.124139527364,-1.44184358911,0.0743271857508,1.9256592803,0.147592690761,-0.0150594000432,-0.112081675923,-0.0032812308373,-0.175093667447,-0.017264851022,0.071547044095,-0.0192101595767,0.573795621728,0.818983681892,0.0022494847096,0.0,0.818942861899,-0.573734252458,-0.0119307754744,0.0,-0.00848066727667,0.00868819345152,-0.999926294072,0.0,0.651345193306,0.247674633402,0.303518633978,1.0,-0.0227874285714,-0.0299491918367,1.018
0.457193962005,0.490664495834,-0.124164688331,-1.44547964955,0.0741113202215,1.92697687634,0.14706003403,-0.017158362621,-0.124657168866,-0.00210207857373,-0.202589521089,-0.012787878459,0.0660984040908,-0.0343560187861,0.573782697466,0.818992810213,0.00222256792982,0.0,0.818951547786,-0.573721345347,-0.0119552153028,0.0,-0.00851626467924,0.00868003824907,-0.999926062353,0.0,0.65088625853,0.247089835219,0.303494689016,1.0,-0.0259251428571,-0.034073044898,1.037
0.456875637219,0.488681047568,-0.124173902327,-1.44869248346,0.0739136352295,1.92812423549,0.146610539466,-0.0196983596043,-0.142272511596,0.000606518909803,-0.218979371454,-0.021002364116,0.0769297356625,-0.0309089965947,0.573788323298,0.818989059826,0.00215100737836,0.0,0.818946745387,-0.573727145493,-0.0120057338594,0.0,-0.00859863891332,0.00865047694142,-0.999925613562,0.0,0.650475475627,0.246568761282,0.303444363419,1.0,-0.0284022857143,-0.0373287183673,1.052
0.456433709249,0.485952420487,-0.124199676809,-1.4528776145,0.0736600310346,1.9297368743,0.145994231629,-0.0291718754867,-0.156005802052,-0.00117034760438,-0.24233953771,-0.00902607480264,0.0937068261437,-0.0318892811964,0.573803290833,0.818978226609,0.00227918217559,0.0,0.818937680527,-0.573741684973,-0.0119290082433,0.0,-0.00846209911614,0.00871158007566,-0.999926247906,0.0,0.649974739088,0.245874744621,0.303488417043,1.0,-0.0313748571429,-0.0412355265306,1.07
0.456009455575,0.4833354402,-0.124229553605,-1.45691890751,0.0734046424443,1.93117414659,0.145363828252,-0.0320795618628,-0.167685941337,-0.00350218924643,-0.26261468172,-0.0223772281484,0.0912843855039,-0.0404690001326,0.573785400801,0.81899074511,0.0022847652176,0.0,0.818950275124,-0.573723778257,-0.0119256043473,0.0,-0.00845629826715,0.00871401454554,-0.999926275767,0.0,0.649464789017,0.24519388383,0.303506677616,1.0,-0.0340171428571,-0.044708244898,1.086
0.455552075635,0.480493369202,-0.124286601585,-1.4613588039,0.0731302410495,1.93272704606,0.144711921303,-0.0299598473406,-0.182524184824,-0.0049615408762,-0.28653928593,-0.0211321467996,0.100579354684,-0.0450173448159,0.573808909552,0.818974423637,0.00223061614848,0.0,0.818933207737,-0.573747461746,-0.0119581899433,0.0,-0.00851380528038,0.00868860885194,-0.999926008861,0.0,0.648859459445,0.24439182999,0.303493368912,1.0,-0.0368245714286,-0.0483980081633,1.103
0.454980397758,0.477024880932,-0.124322567775,-1.46664138107,0.0728099782671,1.93465633865,0.143947572496,-0.0284872509063,-0.197155795626,-0.000445857844793,-0.30043194226,-0.0200578393517,0.107145782729,-0.0511450588373,0.573848028293,0.818946717807,0.00233681828037,0.0,0.818906883436,-0.573786146441,-0.0119046761706,0.0,-0.00840862341247,0.00874527989682,-0.999926404858,0.0,0.648237053401,0.243544429551,0.303556981787,1.0,-0.039632,-0.0520877714286,1.12
0.45442343797,0.473752369069,-0.124345382217,-1.47166495068,0.072500083418,1.93651179542,0.143222496301,-0.0323770127912,-0.205137872681,-0.000134786668582,-0.323360049822,-0.0181687430597,0.116720192929,-0.0439910226217,0.573885179289,0.818920431461,0.00242380478373,0.0,0.818881703545,-0.573822925057,-0.0118639445446,0.0,-0.00832495211563,0.00879352063492,-0.999926681896,0.0,0.647608342282,0.242694915432,0.303591606977,1.0,-0.0422742857143,-0.0555604897959,1.136
0.453758135555,0.469843098021,-0.124358520024,-1.47765803915,0.0721352391081,1.93863724845,0.142310890255,-0.0354097262307,-0.22381353429,-0.00116373925068,-0.332149555436,-0.0211432380048,0.127514033005,-0.0617077763606,0.573880252005,0.8189237512,0.00246839639446,0.0,0.818885318168,-0.573817523447,-0.011875705264,0.0,-0.00830904797194,0.00883673643106,-0.999926433199,0.0,0.646831703468,0.241685148978,0.303625123467,1.0,-0.0452468571429,-0.0594672979592,1.154
0.453105789946,0.465864543148,-0.124362027092,-1.48360235161,0.0717506157899,1.94086374079,0.14134892007,-0.0385030393938,-0.234272033995,-0.000392260224357,-0.359512791951,-0.0269776421801,0.128795223751,-0.0566996119854,0.573806031089,0.81897507249,0.00268630371806,0.0,0.818939561343,-0.573742593508,-0.0117549208642,0.0,-0.0080858959833,0.00894513709698,-0.999927298761,0.0,0.64607873405,0.240700421748,0.3037341642,1.0,-0.0480542857143,-0.0631570612245,1.171
0.452483443721,0.462214819878,-0.124366624309,-1.4892772944,0.0713729071196,1.94279958718,0.140489264923,-0.0440982090963,-0.251005591239,0.000177297448934,-0.385258218003,-0.0235898058042,0.126930917536,-0.0560821776277,0.573777260504,0.818995487934,0.0026063331028,0.0,0.818958744712,-0.573713908668,-0.0118183061995,0.0,-0.00818400746824,0.00891572629648,-0.999926763241,0.0,0.645312753372,0.239744984627,0.303716500207,1.0,-0.0505314285714,-0.0664127346939,1.186
0.451648398312,0.457391929106,-0.124376335754,-1.49675126497,0.0708703278268,1.94540797305,0.139374644366,-0.0457576623153,-0.253460967717,0.00110300878321,-0.404705275023,-0.0259715326851,0.141913218374,-0.0638654532376,0.573764080748,0.819004870195,0.00255912913518,0.0,0.81896740404,-0.573700790232,-0.011855011935,0.0,-0.00824129677434,0.00889799468356,-0.999926450654,0.0,0.644312229884,0.238479208148,0.303704742302,1.0,-0.0536691428571,-0.0705365877551,1.205
0.450936501041,0.453440304683,-0.124391549312,-1.50293048217,0.0704602462359,1.94760835356,0.138385324887,-0.0474905033602,-0.275319890666,-0.00437182819943,-0.411609387342,-0.0250639506733,0.140812387464,-0.0664525542646,0.573719374028,0.819036288521,0.00252682628197,0.0,0.81899833474,-0.573656140422,-0.0118788530475,0.0,-0.00827984171209,0.00888476571096,-0.99992624986,0.0,0.643491829416,0.237419093432,0.303670502269,1.0,-0.0561462857143,-0.0737922612245,1.22
0.45008406095,0.448654399084,-0.124448486393,-1.51009060755,0.0699611237486,1.95030468188,0.137291766103,-0.0526543727892,-0.281921372188,-0.00254725047259,-0.425571863485,-0.0221096400181,0.156196512335,-0.06825961656,0.573751840234,0.81901277449,0.00276549295974,0.0,0.818978521858,-0.573688385519,-0.0116860581933,0.0,-0.00798465348183,0.0089699494292,-0.999927890058,0.0,0.642583906521,0.236159559572,0.303781108816,1.0,-0.0589537142857,-0.0774820244898,1.237
0.449176288242,0.443706509327,-0.124475777368,-1.51774617726,0.0694488093728,1.952829785,0.136136775953,-0.056398438254,-0.294242733371,0.00209252231653,-0.459536456817,-0.0331497370291,0.148209842846,-0.0712740795228,0.573770855687,0.818999971228,0.00260752627295,0.0,0.818963314511,-0.573707577591,-0.0118089712654,0.0,-0.00817574695353,0.00891128347674,-0.99992687042,0.0,0.641517348662,0.234815270237,0.303746214303,1.0,-0.0617611428571,-0.0811717877551,1.254
0.448284469612,0.438897742057,-0.124504514673,-1.52523556499,0.0689154226746,1.95537659694,0.13492588461,-0.0595349200765,-0.30016162904,-0.00140140911035,-0.472344540701,-0.0319424554502,0.165023907968,-0.0674712459057,0.573713954165,0.819040258254,0.00247003201248,0.0,0.819001825318,-0.573651218097,-0.0118759001287,0.0,-0.0083100634302,0.00883650047894,-0.999926426846,0.0,0.640481251919,0.233498022849,0.303691592732,1.0,-0.0644034285714,-0.0846445061224,1.27
0.447257363556,0.433504819236,-0.124510579349,-1.53326630713,0.0683882318317,1.95834189734,0.133618297858,-0.0606439036489,-0.319794964615,0.000412630506005,-0.475481689678,-0.0356372059563,0.185370283064,-0.0783382029063,0.573695239998,0.81905248632,0.00274648112081,0.0,0.81901767464,-0.573631509659,-0.0117339956572,0.0,-0.00803544491309,0.00898132695405,-0.999927381059,0.0,0.639421430042,0.232081807515,0.303806802395,1.0,-0.0672108571429,-0.0883342693877,1.287
0.446152261306,0.428046296642,-0.124555388706,-1.54169501037,0.0677679807477,1.96125698147,0.132272299672,-0.0657950292665,-0.327454032277,-0.00358604056603,-0.512759996429,-0.0340150392136,0.166648775269,-0.0773758981284,0.573720771715,0.819034888964,0.002659636164,0.0,0.818999235409,-0.573657666521,-0.0117422715683,0.0,-0.00809176520601,0.00891519673577,-0.999927518675,0.0,0.638269399179,0.230532743368,0.3037677981,1.0,-0.0700182857143,-0.0920240326531,1.304
0.445002380133,0.42231161073,-0.12466334301,-1.55052788926,0.0671301128764,1.96412067414,0.130802673769,-0.068969502584,-0.338401376842,-0.00178927505324,-0.523643713654,-0.0349031512835,0.165557710822,-0.0860043254897,0.573734545999,0.819025965113,0.00242612843635,0.0,0.818987360398,-0.573672400221,-0.0118502166254,0.0,-0.00831399225518,0.00878601633765,-0.999926839049,0.0,0.637020695023,0.228871740554,0.303714059516,1.0,-0.0728257142857,-0.0957137959184,1.321
0.443853814305,0.416700383516,-0.124721319144,-1.5588968481,0.0665415586499,1.96710907761,0.129477307757,-0.0765832866059,-0.361346880954,-0.0031350845191,-0.517909921073,-0.038040744322,0.199645167577,-0.0914765054445,0.573812135629,0.818971001888,0.00262258905171,0.0,0.818935271194,-0.573749595748,-0.0117119543507,0.0,-0.00808719728404,0.00886836295813,-0.999927972095,0.0,0.635818961346,0.227216811003,0.303809031465,1.0,-0.0756331428571,-0.0994035591837,1.338
0.442497589501,0.410263812814,-0.12472475142,-1.56856037575,0.0658857272457,1.97052139804,0.127806635272,-0.0783734305291,-0.355959427091,-0.00166467646901,-0.547647094984,-0.0355114889889,0.17816392881,-0.0911947243562,0.573778998929,0.818993786132,0.00275419074345,0.0,0.81895953588,-0.573715747329,-0.0116733354133,0.0,-0.0079804202141,0.00895365786626,-0.999928069865,0.0,0.634546947074,0.22553289398,0.303851606352,1.0,-0.0784405714286,-0.103093322449,1.355
0.441238310572,0.40442571929,-0.124798876348,-1.57760211301,0.0652279952187,1.97346987866,0.126351706972,-0.0808835466278,-0.36095435465,-0.00704475335326,-0.574756471829,-0.035173944414,0.181920514912,-0.0958155204992,0.573853748996,0.818942196331,0.00251012589783,0.0,0.818904681216,-0.573791265477,-0.011809049306,0.0,-0.00823079892822,0.00883239111541,-0.999927118752,0.0,0.633237770342,0.223812715688,0.303750069191,1.0,-0.0810828571429,-0.106566040816,1.371
0.439656259834,0.397144494484,-0.124862990043,-1.58834692165,0.0644702382392,1.97728183716,0.12449194861,-0.0835142478271,-0.389276073395,-0.00154290673635,-0.564048190098,-0.0394840921629,0.205331337406,-0.0957379286791,0.573888246851,0.81891713765,0.0027836470774,0.0,0.818883419724,-0.573825048993,-0.01164065932,0.0,-0.00793556177424,0.0089600925169,-0.999928369235,0.0,0.631746599326,0.221760565713,0.30387360593,1.0,-0.0842205714286,-0.110689893878,1.39
0.438344488254,0.391313521978,-0.124868537507,-1.59718321432,0.0637943330707,1.98021349461,0.12300157921,-0.0942060899017,-0.387592587781,-0.00169272513799,-0.596376636001,-0.0424678074995,0.188345427465,-0.100326966501,0.573896673561,0.818911536936,0.00269251743403,0.0,0.818876649574,-0.573833804187,-0.0116852409483,0.0,-0.00802427559461,0.00891113213221,-0.999928098778,0.0,0.630454167405,0.220076159005,0.303842074383,1.0,-0.0866977142857,-0.113945567347,1.405
0.436748574757,0.384141247742,-0.124922480282,-1.60809336795,0.0629821042951,1.98370714019,0.121067465201,-0.0838652050297,-0.401060746038,-0.00670947432688,-0.595267983204,-0.0403580340414,0.1992327592,-0.111003750051,0.573844233009,0.818949004386,0.00246401262241,0.0,0.818910859615,-0.573781893219,-0.0118359587486,0.0,-0.00827940020986,0.00880997298404,-0.999926915283,0.0,0.628815996426,0.217984602332,0.303763883343,1.0,-0.0896702857143,-0.11785237551,1.423
0.435360475583,0.377920398806,-0.124920298815,-1.61714173205,0.0623512393377,1.98688925181,0.11946855966,-0.0971235418961,-0.413943262739,0.00198407840379,-0.604409272501,-0.0295547151184,0.212757562635,-0.107566192752,0.573830444119,0.81895769174,0.00276901483443,0.0,0.818923378226,-0.573766847208,-0.0116983990847,0.0,-0.00799187886846,0.00898068143077,-0.999927736006,0.0,0.627507960761,0.216269130673,0.303892915757,1.0,-0.0921474285714,-0.12110804898,1.438
0.433774477947,0.371241324437,-0.124958394334,-1.62720642275,0.0615708648941,1.99015696854,0.117671551338,-0.104515715488,-0.420549954743,-0.0026087935922,-0.637081021043,-0.0507504764492,0.205682355512,-0.110542230389,0.573829842419,0.818958550223,0.00263663947574,0.0,0.818922500538,-0.573766699526,-0.0117668827049,0.0,-0.00812392968164,0.00891156341602,-0.999927290259,0.0,0.625994960479,0.214285001599,0.303843963515,1.0,-0.0947897142857,-0.124580767347,1.454
0.431946995952,0.363480526374,-0.125046633693,-1.63862761957,0.0606791779104,1.9939112264,0.115672298304,-0.0993423522421,-0.438314755527,-0.00367074365964,-0.63067638318,-0.0455353788101,0.219336573744,-0.112423680778,0.573906728054,0.818904563683,0.0026702012731,0.0,0.818869268567,-0.573843805365,-0.0117113168461,0.0,-0.0080583275001,0.00890792080083,-0.99992785355,0.0,0.624284703892,0.212000916654,0.303899056922,1.0,-0.0977622857143,-0.12848757551,1.472
0.43013982099,0.356043924245,-0.125057820882,-1.64966875736,0.059849927146,1.99754407028,0.113580606294,-0.111315505129,-0.436504310597,-0.000865461410385,-0.662528154894,-0.0530565593439,0.210519004407,-0.129147080893,0.573828617005,0.818959253546,0.00268444375311,0.0,0.818923858223,-0.573765338093,-0.0117387451133,0.0,-0.00807346859723,0.00893455492708,-0.999927493788,0.0,0.622599396315,0.209823553047,0.303893271265,1.0,-0.100569714286,-0.132177338775,1.489
0.428216847008,0.348493563565,-0.125109332644,-1.66095725743,0.058992226789,2.00114170265,0.1114904014,-0.112611809821,-0.45403547541,-0.00318878087585,-0.668501118922,-0.0502117069377,0.21610603478,-0.127738153825,0.57386648981,0.81893313986,0.00255170794834,0.0,0.818895644326,-0.573803286765,-0.0118515274705,0.0,-0.00824158887202,0.00889094817114,-0.999926510926,0.0,0.620852111327,0.207526092522,0.303829302219,1.0,-0.103377142857,-0.135867102041,1.506
0.426154686977,0.340183651118,-0.125148956678,-1.67289038828,0.0580594547174,2.00519571295,0.109252202275,-0.121393483572,-0.457805116988,-0.00409569441605,-0.668914479696,-0.0565058426485,0.222655761956,-0.124160471945,0.573876122948,0.818925295573,0.00288143759467,0.0,0.818892478444,-0.573812177072,-0.0116379161515,0.0,-0.00787733160793,0.0090384837924,-0.999928124146,0.0,0.619042889029,0.205112248974,0.303980334713,1.0,-0.106349714286,-0.139773910204,1.524
0.424117099364,0.332329484814,-0.125162017146,-1.68467720966,0.0570989582838,2.00878895814,0.106983738066,-0.121390813768,-0.467333216977,-0.00193754300616,-0.703283308683,-0.0576148813801,0.217962296219,-0.13709954538,0.573791726634,0.818985474948,0.00256771730789,0.0,0.818948142693,-0.573728423914,-0.0118482941046,0.0,-0.00823056683441,0.00890145183276,-0.999926508262,0.0,0.61713375382,0.202719031206,0.30384704514,1.0,-0.109157142857,-0.143463673469,1.541
0.422122702017,0.324630266358,-0.125158605517,-1.69564920521,0.0561954716338,2.01240609528,0.104806948903,-0.128684084014,-0.478113465424,0.000406760143027,-0.685811380632,-0.054166516986,0.228712277481,-0.144969379563,0.573714502788,0.819038737121,0.00282192972865,0.0,0.819005062011,-0.573650682538,-0.0116768885076,0.0,-0.00794517507107,0.00901054849763,-0.999927839501,0.0,0.615415945636,0.200468427746,0.30398188504,1.0,-0.111799428571,-0.146936391837,1.557
0.419902815716,0.31642717272,-0.125181156612,-1.70767654024,0.0552391129571,2.01615663132,0.10250605317,-0.131821922814,-0.489568664396,-0.00271854252778,-0.726401063917,-0.0530800792054,0.212024578216,-0.13603444341,0.573747187042,0.819016096347,0.00274703243601,0.0,0.818981035222,-0.573683161318,-0.0117661067454,0.0,-0.00806085976021,0.00900071140744,-0.999927002203,0.0,0.613467513184,0.197965679,0.303942236254,1.0,-0.114606857143,-0.150626155102,1.574
0.417041605826,0.306002031112,-0.125282274728,-1.72258768611,0.0539659362606,2.02089479783,0.0994096455483,-0.137879216056,-0.501703982164,-0.00164804617019,-0.714691349622,-0.0618821447605,0.225123508695,-0.140494223575,0.57368586555,0.819058566547,0.00288775622245,0.0,0.819025969817,-0.573622082126,-0.0116152728745,0.0,-0.00785725929027,0.00902883904644,-0.999928369205,0.0,0.611077651773,0.19476430182,0.304040646513,1.0,-0.118074857143,-0.155184097959,1.595
0.415177054724,0.299502091872,-0.125302304595,-1.73207557662,0.0531981238002,2.02373997983,0.0974711577327,-0.140151295281,-0.503086732972,-0.000809585446185,-0.741457830564,-0.0574050166852,0.2180010193,-0.137735548322,0.573678987868,0.819063808192,0.00276475841359,0.0,0.819029103587,-0.573615048731,-0.0117409645071,0.0,-0.0080308466876,0.00900013552066,-0.999927248885,0.0,0.609495275086,0.19273152194,0.303987899158,1.0,-0.120221714286,-0.158005681633,1.608
0.412333832462,0.289740761021,-0.125410269474,-1.74591803765,0.0520958412487,2.02804534572,0.0946067705108,-0.151503073163,-0.513264373905,-0.00974189053291,-0.730066670302,-0.0540307663723,0.238767367637,-0.153661090249,0.573794823649,0.81898203553,0.00294495048321,0.0,0.818949453942,-0.573729995248,-0.0116803828292,0.0,-0.00787656892684,0.00911408427009,-0.999927443933,0.0,0.607231955894,0.189673341389,0.304082032221,1.0,-0.123359428571,-0.162129534694,1.627
0.410204639602,0.282556688013,-0.125455724718,-1.75628810526,0.0512043445161,2.03119996362,0.0924004082034,-0.150098801678,-0.521330245754,-0.00273862212107,-0.733799674458,-0.0618105915246,0.226265542156,-0.153735070321,0.573768862937,0.819000428603,0.00288734729731,0.0,0.818967052239,-0.573704182035,-0.0117143400573,0.0,-0.00793771913399,0.00908614081598,-0.999927214681,0.0,0.605490163088,0.187400430259,0.304047915126,1.0,-0.125671428571,-0.165168163265,1.641
0.407475281456,0.273593449003,-0.125494718589,-1.76904182536,0.0500754275478,2.03498704034,0.0896584648307,-0.161997072186,-0.533659916631,-0.00786280986151,-0.746073579419,-0.0659817008671,0.230737802798,-0.15911355787,0.573765285199,0.819003092863,0.00284223214633,0.0,0.818969138944,-0.573700772122,-0.0117354346306,0.0,-0.00798092013912,0.00906125986867,-0.999927096584,0.0,0.603322866619,0.184553984915,0.304058934993,1.0,-0.128478857143,-0.168857926531,1.658
0.404139430707,0.262919513816,-0.125652402385,-1.78415343817,0.0487366747702,2.03957949908,0.0863409112705,-0.172460850423,-0.539297856375,-0.00706651232023,-0.750627516405,-0.0678011929753,0.229552064671,-0.17311150147,0.573857877335,0.818937998492,0.00290484909023,0.0,0.818905325442,-0.573793671542,-0.0116463454242,0.0,-0.00787100232783,0.00906231793111,-0.999927958263,0.0,0.600775286483,0.181081826101,0.304088729518,1.0,-0.131781714286,-0.17319882449,1.678
0.40153727034,0.254783033255,-0.125755149058,-1.79562208534,0.047702522078,2.04289031459,0.083800241962,-0.172660903165,-0.560337721597,-0.00327313688902,-0.748906845225,-0.0734268709181,0.234656505969,-0.173961508352,0.573932607032,0.818885835788,0.00284559887502,0.0,0.818852447421,-0.573868653989,-0.011669799597,0.0,-0.00792338615001,0.00902797792599,-0.999927855181,0.0,0.598787321643,0.178419004187,0.304097445518,1.0,-0.134258857143,-0.176454497959,1.693
0.398690459477,0.246044924227,-0.125769165893,-1.80794397373,0.0465816276512,2.04652917397,0.0809863907826,-0.179698414679,-0.548352885012,-0.000266010934778,-0.75865383702,-0.069200019625,0.225555772022,-0.174359900711,0.573893241277,0.818913398038,0.00285324944214,0.0,0.818880127241,-0.573829288049,-0.0116632880369,0.0,-0.00791409711349,0.00903012529958,-0.999927909353,0.0,0.596631590977,0.175603025286,0.304089904327,1.0,-0.136901142857,-0.179927216327,1.709
0.395576627378,0.236532829448,-0.125785569835,-1.82115599343,0.0454464623879,2.05032629738,0.0778970191089,-0.183956977345,-0.573095973905,-0.00212516541113,-0.782412559722,-0.0693907128362,0.228807427836,-0.178651683964,0.573852517508,0.81894161016,0.00294519959806,0.0,0.818908898508,-0.573787526467,-0.0116977483355,0.0,-0.00789000597183,0.00912480817105,-0.999927240194,0.0,0.59427797496,0.172570827176,0.304137617336,1.0,-0.139708571429,-0.183616979592,1.726
0.392782332363,0.228089299346,-0.125784587724,-1.83288356716,0.0443453858185,2.05375538892,0.0751606639362,-0.189600156277,-0.563423562113,0.00095831380733,-0.801395351095,-0.0781204498491,0.219196919573,-0.18495658596,0.573785155692,0.818988524,0.00302317146435,0.0,0.818957019479,-0.573720138422,-0.011633998317,0.0,-0.00779380681375,0.009151439221,-0.999927751258,0.0,0.592178111655,0.169877134379,0.304164001593,1.0,-0.142185714286,-0.186872653061,1.741
0.389044359084,0.21718796762,-0.125836806909,-1.84796391128,0.0429353251704,2.0579141374,0.0714900983178,-0.198489549155,-0.593565325946,-0.0010345662637,-0.766862237735,-0.0731533232533,0.230097713138,-0.197465994915,0.573717588844,0.819036037884,0.00297385260526,0.0,0.819003627212,-0.573652435312,-0.0116914060142,0.0,-0.00786987658941,0.00914333737675,-0.999927229564,0.0,0.589421152178,0.166309461486,0.304174884448,1.0,-0.145323428571,-0.190996506122,1.76
0.385999024801,0.208535549178,-0.125934745133,-1.85987384678,0.0418393864825,2.06127678601,0.0685848409505,-0.202924317804,-0.577429446047,-0.00373499087655,-0.820517427678,-0.0724526384,0.226986341201,-0.202806156101,0.57377344243,0.81899667482,0.00303814026267,0.0,0.818965029551,-0.573707983338,-0.0116694956031,0.0,-0.00781442322447,0.00918395411322,-0.999927292245,0.0,0.587252857927,0.163431297975,0.304193856806,1.0,-0.147800571429,-0.194252179592,1.775
0.382197288636,0.197979350498,-0.126003029002,-1.87436311932,0.040444490203,2.06513122877,0.0649192908509,-0.214606198882,-0.59650006144,-0.00778452809285,-0.813092631585,-0.0755503749885,0.223703405754,-0.210002213129,0.573730648178,0.819026891671,0.00297337560315,0.0,0.818994127885,-0.57366509188,-0.0117357466603,0.0,-0.00790632254121,0.00916851121948,-0.999926711547,0.0,0.584394878496,0.15971173055,0.304202229663,1.0,-0.150938285714,-0.198376032653,1.794
0.378887960481,0.189113284323,-0.126128894688,-1.88648012809,0.0392911057655,2.06847639447,0.0618130142941,-0.221426522113,-0.584911889606,-0.0116286935088,-0.778769163632,-0.0753790433237,0.221156564362,-0.213511724377,0.573812680428,0.818969368139,0.00298809812962,0.0,0.818936783065,-0.573747047612,-0.011731052896,0.0,-0.00789311246485,0.00917866709401,-0.999926722738,0.0,0.582292144411,0.156876108689,0.304188796043,1.0,-0.153250285714,-0.201414661224,1.808
0.374263055104,0.177084899323,-0.126309971259,-1.90271220348,0.0377529049685,2.07278765107,0.05756426411,-0.235427126801,-0.613650714185,-0.00747157124882,-0.778553443872,-0.0788912203846,0.225330536684,-0.213186421746,0.573999624086,0.818838082072,0.00306166604361,0.0,0.818806136594,-0.573933342457,-0.0117378018886,0.0,-0.00785431818026,0.00924458280322,-0.99992642098,0.0,0.579235826003,0.152724080303,0.304233939924,1.0,-0.156553142857,-0.205755559184,1.828
0.371240406934,0.169251466964,-0.126328032085,-1.91338107903,0.0366178003296,2.0755511094,0.0547217341311,-0.230949755029,-0.602483746921,-0.000376121431729,-0.802941925309,-0.0805705924498,0.206197469614,-0.23059912972,0.573923242483,0.818892064508,0.0029402932965,0.0,0.818858760302,-0.573857648628,-0.0117676118519,0.0,-0.00794924721394,0.00916156726257,-0.999926434871,0.0,0.577166665887,0.150063469462,0.304190761016,1.0,-0.1587,-0.208577142857,1.841
0.366183365821,0.156275004403,-0.126367379399,-1.93058380424,0.0348971640437,2.08007951088,0.0499494716554,-0.245191852591,-0.625044775593,-0.00288637013549,-0.785727523197,-0.0870768211343,0.219713537727,-0.22677578702,0.573810466368,0.818970358663,0.00313802778584,0.0,0.818939725099,-0.573744332421,-0.0116582404875,0.0,-0.00774747689922,0.00925965430047,-0.999927115046,0.0,0.573667567375,0.145510714647,0.304281524658,1.0,-0.162333142857,-0.213352130612,1.863
0.362927283939,0.148290816667,-0.126418119596,-1.94138911498,0.0337479095706,2.08275483277,0.0469449048913,-0.250517237617,-0.623586103275,-0.00293106165308,-0.808135502989,-0.0817259819251,0.206267592216,-0.23344069552,0.573800285548,0.818978041452,0.00299112458228,0.0,0.818945396323,-0.573734528328,-0.0117420503382,0.0,-0.00790052204676,0.00918733642817,-0.999926584605,0.0,0.571681630675,0.142938171826,0.304222743285,1.0,-0.164314857143,-0.215956669388,1.875
0.357226443948,0.134450310577,-0.126548471642,-1.95958511851,0.0319265345143,2.08730144045,0.0416695301518,-0.262763789878,-0.62730006486,-0.00481136139329,-0.850299970171,-0.083323825202,0.209214445798,-0.256063481192,0.573818224003,0.81896490394,0.00314305877396,0.0,0.818933833437,-0.573751472437,-0.0117205473248,0.0,-0.00779553240261,0.00929959986684,-0.999926370848,0.0,0.568060112378,0.138168170362,0.30429452928,1.0,-0.167948,-0.220731657143,1.897
0.354003539898,0.126866119538,-0.126647401677,-1.96966041067,0.0308244974876,2.08970566507,0.0386979057677,-0.271004496567,-0.637891377443,-0.00704240272335,-0.865306765306,-0.0944906204291,0.206476929332,-0.247654729724,0.573810619532,0.818970669548,0.00302691808824,0.0,0.818938117493,-0.573744302284,-0.0117720947983,0.0,-0.00790447553798,0.00923398939331,-0.999926123624,0.0,0.566014455593,0.135480590653,0.304254685653,1.0,-0.169929714286,-0.223336195918,1.909
0.349517360999,0.116556757075,-0.126795730292,-1.98292897709,0.0293905602263,2.0929568998,0.0347243792554,-0.279608089287,-0.644737543472,-0.00114685882764,-0.807582700623,-0.095231686708,0.205378728039,-0.260585407996,0.573955939794,0.818868115236,0.00321495365764,0.0,0.818838549065,-0.573889619233,-0.0116138883695,0.0,-0.00766536193123,0.00929856722835,-0.999927386801,0.0,0.563347129817,0.131832129082,0.304368863283,1.0,-0.172572,-0.226808914286,1.925
0.343795926425,0.103707369539,-0.126868132332,-1.9998196665,0.0275682263713,2.09680645717,0.0294822049603,-0.289157859492,-0.640922636639,-0.00221539649489,-0.862991630968,-0.0960697164279,0.187964082617,-0.262407194243,0.573880232042,0.818921851497,0.00303764933065,0.0,0.818889280862,-0.573813682899,-0.0117877015549,0.0,-0.0079103139305,0.00925240551692,-0.999925907218,0.0,0.559814365655,0.127281208111,0.304286553466,1.0,-0.175874857143,-0.231149812245,1.945
0.339709586398,0.0945195683893,-0.126885806529,-2.01149719931,0.0262865855197,2.09959067208,0.0257367247223,-0.293211437802,-0.65035328503,-0.000601832973809,-0.8424580317,-0.08670459688,0.192303712661,-0.268762307597,0.573783871687,0.818988562922,0.00324796786643,0.0,0.818959083218,-0.573717052344,-0.0116409091422,0.0,-0.00767050458005,0.00933949851809,-0.999926965896,0.0,0.557382435975,0.124117378264,0.304384275045,1.0,-0.178186857143,-0.234188440816,1.959
0.334244528432,0.082711297998,-0.126943761975,-2.02682566712,0.0246550882718,2.10285803314,0.020775883865,-0.310597022737,-0.672608198213,-0.00340871402565,-0.855932028574,-0.0968737223127,0.175369640581,-0.279588001328,0.573728739597,0.819027821622,0.00308345123295,0.0,0.818994962629,-0.573661010967,-0.0118761351441,0.0,-0.00795818256446,0.00933919088315,-0.999924720588,0.0,0.553900972146,0.119675435638,0.304309016078,1.0,-0.181324571429,-0.238312293878,1.978
0.329207517409,0.0720293886359,-0.127085850041,-2.04020824328,0.0230946735444,2.10595518409,0.0162466738474,-0.321721085894,-0.662575562336,-0.0123366532491,-0.831359377301,-0.0893327561232,0.186883461813,-0.278789464364,0.573741023402,0.819018285895,0.00332149605568,0.0,0.818989466055,-0.573673611627,-0.0116442567242,0.0,-0.00763155147551,0.00940123905382,-0.999926685376,0.0,0.55124854781,0.116091604229,0.304421393039,1.0,-0.183801714286,-0.241567967347,1.993
0.323596177649,0.0606798304382,-0.127284079231,-2.05471570842,0.021427290104,2.1088664845,0.0112851386572,-0.330921234954,-0.683117388284,-0.0103936714144,-0.84479816086,-0.0979279793483,0.178065648683,-0.29531496797,0.573856759832,0.818938048037,0.00310476645048,0.0,0.818905706779,-0.573789219526,-0.0118373080153,0.0,-0.00791269274549,0.00933560992673,-0.999925115037,0.0,0.548062450713,0.111864041736,0.304348561703,1.0,-0.186609142857,-0.245257730612,2.01
0.318201651846,0.0498132000744,-0.127386530532,-2.06821734306,0.0198760833813,2.11177654851,0.0064862709392,-0.338937140798,-0.670694567776,-0.00572784761031,-0.831286677249,-0.0984440115528,0.179327866271,-0.300544399984,0.573871757283,0.818926762476,0.00330314914711,0.0,0.818897305304,-0.573803897341,-0.0117063086493,0.0,-0.00769139767185,0.00942304127421,-0.999926021611,0.0,0.545112885606,0.107934775685,0.304430768933,1.0,-0.189251428571,-0.24873044898,2.026
0.312384226596,0.0382838676944,-0.127458996903,-2.08268413701,0.0182250896065,2.11462925911,0.00130314390851,-0.347812568606,-0.684596352662,-0.00426702722961,-0.814693725858,-0.0907137614675,0.173937567681,-0.299398257796,0.573837669719,0.818950863043,0.00324955905414,0.0,0.818919911979,-0.573769028417,-0.0118332876249,0.0,-0.00782653545684,0.00945169678482,-0.99992470255,0.0,0.541847144771,0.103763443004,0.304393620034,1.0,-0.18998,-0.249688,2.043
0.305631518236,0.02538338433,-0.12754151046,-2.09861362354,0.01623449487,2.11777799173,-0.00467731012682,-0.352856135804,-0.690782035004,-0.00791687324848,-0.840248196472,-0.110484456818,0.158603711877,-0.319938196986,0.573759927805,0.819005316354,0.00325329521552,0.0,0.818974964717,-0.573691950709,-0.0117600918398,0.0,-0.00776533796602,0.00941201798985,-0.999925553951,0.0,0.538043568658,0.0987666868249,0.304412737901,1.0,-0.18998,-0.249688,2.063
0.300170700562,0.0152201568461,-0.127686302636,-2.11094434549,0.0147668757258,2.12005938177,-0.00945286565842,-0.36847903147,-0.682810278543,-0.0124886596225,-0.823343760128,-0.100262786795,0.155302463669,-0.318704301741,0.573861121376,0.818934112661,0.0033285722805,0.0,0.818904498352,-0.573792579786,-0.011757757513,0.0,-0.00771906725594,0.00947328511497,-0.999925333647,0.0,0.535591629704,0.0954803381189,0.304466376462,1.0,-0.18998,-0.249688,2.076
0.292746111862,0.00186448936462,-0.127836752182,-2.12731494025,0.0128136050666,2.12295903171,-0.0159241642571,-0.370012589524,-0.662750850632,-0.00489696934438,-0.840034685742,-0.0938953273518,0.14190073876,-0.322776410115,0.573956426034,0.818867462988,0.00329332280503,0.0,0.818836590359,-0.573887017835,-0.0118775397552,0.0,-0.00783628651529,0.00951406665983,-0.999924034689,0.0,0.531576516348,0.0901858464533,0.304439496813,1.0,-0.18998,-0.249688,2.097
0.287923015837,-0.00685568737853,-0.127837157193,-2.13762738766,0.0115238304323,2.12484690579,-0.0202352484312,-0.369815370035,-0.679336047308,0.000520795479355,-0.782762410578,-0.103592303781,0.147042284316,-0.336517407038,0.573828849924,0.818955987411,0.00350550703174,0.0,0.818928447706,-0.573759443528,-0.0117066392117,0.0,-0.00757605037348,0.00958855135655,-0.999925328784,0.0,0.529154122107,0.0870161248001,0.304551425151,1.0,-0.18998,-0.249688,2.11
0.280682756459,-0.0193577816619,-0.127895811079,-2.1528069342,0.00954917390337,2.12733224997,-0.0265719253124,-0.379580685903,-0.653082313456,-0.00507772678274,-0.817995408934,-0.0974441233549,0.118665013286,-0.344308116758,0.573757815451,0.819006562241,0.00331166367503,0.0,0.818976197608,-0.573688697736,-0.0118326980127,0.0,-0.00779134330788,0.00950145961954,-0.999924505768,0.0,0.525488933116,0.0822794035745,0.304471769866,1.0,-0.18998,-0.249688,2.129
0.274066424289,-0.0306415150662,-0.12805031924,-2.1659430187,0.00787527851285,2.12952609332,-0.0322963637502,-0.392912418197,-0.662635157309,-0.0154544196916,-0.773719164365,-0.0997307438773,0.132767214244,-0.330413818347,0.573866131685,0.818929603984,0.00356560300588,0.0,0.818903119965,-0.573796877547,-0.0116434672513,0.0,-0.00748939234778,0.00960185980253,-0.999925853896,0.0,0.522327874957,0.0780077370874,0.304611033173,1.0,-0.18998,-0.249688,2.146
0.268056836689,-0.0403833403739,-0.12819562874,-2.1776223446,0.00637171476544,2.13128373941,-0.0374671494336,-0.405704929349,-0.65815635185,-0.00633639091267,-0.764898115546,-0.092099591217,0.10826477604,-0.349957323165,0.573984728296,0.818847060001,0.00343087640825,0.0,0.818818151952,-0.573915049449,-0.0117939370484,0.0,-0.00768854710276,0.00957898805763,-0.99992456177,0.0,0.519441423293,0.0741759814874,0.304533428228,1.0,-0.18998,-0.249688,2.161
0.260910277137,-0.0521141030961,-0.128226322597,-2.19120362444,0.00462741230256,2.13336006144,-0.0437645925391,-0.395780350872,-0.649032366954,0.000401287829868,-0.751663000195,-0.098382737423,0.115715254359,-0.360810070366,0.573888994513,0.818913372125,0.00361356242737,0.0,0.818887016772,-0.573818949088,-0.0116882133043,0.0,-0.00749824794114,0.00966702245709,-0.999925159677,0.0,0.516058911272,0.0697703752952,0.304617269811,1.0,-0.18998,-0.249688,2.179
0.253570049463,-0.0636286310254,-0.128313997952,-2.20482936097,0.00283063856712,2.1352003063,-0.0501965798971,-0.404991511819,-0.628874666544,-0.00798357722408,-0.753770941922,-0.0955410196661,0.092405478196,-0.354577516643,0.573845403015,0.818944761451,0.00341731345757,0.0,0.818914871095,-0.573774791382,-0.0119025029401,0.0,-0.00778687403617,0.00962887079172,-0.99992332178,0.0,0.512575236526,0.065281353503,0.30450632586,1.0,-0.18998,-0.249688,2.197
0.248597778131,-0.0713347582091,-0.128408120887,-2.21367808139,0.00163427312073,2.13637612481,-0.0545293231182,-0.415679281816,-0.656723925767,-0.00772693311044,-0.723024710488,-0.102754607159,0.101112008608,-0.357353729129,0.573863872737,0.818931726227,0.00343951259669,0.0,0.818902112629,-0.573793163677,-0.0118946269492,0.0,-0.00776746811377,0.00964270646963,-0.999923339387,0.0,0.510304522387,0.0622742046112,0.304526746964,1.0,-0.18998,-0.249688,2.209
0.240117678804,-0.084076872722,-0.128583092652,-2.22827918406,-0.000307893437192,2.1382647824,-0.0619009197512,-0.414050946153,-0.632678654931,-0.00749925928251,-0.730278961354,-0.100835116674,0.097270828715,-0.369218753338,0.57395249617,0.818869425041,0.00348479195189,0.0,0.818839930995,-0.573881026008,-0.011936594902,0.0,-0.00777480631265,0.00970471208695,-0.999922682486,0.0,0.506320037951,0.0569791450654,0.304521498996,1.0,-0.18998,-0.249688,2.23
0.232462114485,-0.095516982897,-0.128620034555,-2.2412028681,-0.00206014644116,2.13977747985,-0.0686561241273,-0.435246262742,-0.641652803615,-0.00660872775965,-0.692761513487,-0.108868798173,0.0946407463345,-0.36905132957,0.573828798651,0.818955908687,0.00353219018524,0.0,0.818926862252,-0.573756961915,-0.01193691071,0.0,-0.00774933404654,0.00974253613162,-0.999922512404,0.0,0.503087649308,0.0528060997125,0.304555207726,1.0,-0.18998,-0.249688,2.247
0.225068001613,-0.106226834806,-0.128713914034,-2.25324515349,-0.00377710462455,2.14111807684,-0.0750391606705,-0.437926092122,-0.623113963569,-0.00372689229116,-0.720874802889,-0.0874531829244,0.0759594098706,-0.368478457399,0.573851526844,0.818940043306,0.00351816861453,0.0,0.818910947198,-0.573779904502,-0.0119259653697,0.0,-0.00774814532048,0.00972498746516,-0.999922692443,0.0,0.499854342329,0.0485717660914,0.304561466441,1.0,-0.18998,-0.249688,2.264
0.217901732184,-0.1162420717,-0.128914983596,-2.26446756531,-0.00536827654923,2.14221005343,-0.0812365675912,-0.450767291576,-0.62900159294,-0.0187816779451,-0.676113212503,-0.102963000981,0.0743672711557,-0.377038816998,0.573976123829,0.818853014439,0.00344919102378,0.0,0.818822465691,-0.573904048278,-0.0120274665219,0.0,-0.00786937403557,0.00972794100549,-0.999921716994,0.0,0.496788657801,0.0444842770863,0.304537259497,1.0,-0.18998,-0.249688,2.28
0.210287579733,-0.126831110331,-0.12897151097,-2.27610715038,-0.00693701887898,2.14341352552,-0.0879428019025,-0.445121394235,-0.609591556128,-0.00125343106034,-0.697743043593,-0.0883095432588,0.0597493840826,-0.392671613156,0.573924389716,0.818888541961,0.00361906546104,0.0,0.81886006653,-0.573851513103,-0.0119741075959,0.0,-0.00772880212308,0.00983592995072,-0.999921756989,0.0,0.493589473222,0.0402993863395,0.304584859657,1.0,-0.18998,-0.249688,2.297
0.203450756272,-0.136098151813,-0.129032683572,-2.28635225256,-0.00845058147075,2.14426726646,-0.0939281446559,-0.457529454575,-0.609010581367,-0.0111246296712,-0.676019070938,-0.0996846720662,0.0592339299151,-0.409371287525,0.573858748446,0.818934988254,0.00351692274897,0.0,0.818904914775,-0.573785926879,-0.0120497955878,0.0,-0.00785018956934,0.00979509452498,-0.99992121222,0.0,0.490702270316,0.0365718174943,0.304553183987,1.0,-0.18998,-0.249688,2.312
0.194181579625,-0.148429956317,-0.129219133686,-2.29952930157,-0.0103509230497,2.1455111957,-0.102049345589,-0.466249685693,-0.614182201095,-0.0150102211608,-0.66471155218,-0.0941213281527,0.053062636421,-0.402622985209,0.573908571903,0.818898689345,0.00382551772652,0.0,0.818873684358,-0.573835992997,-0.0117851223467,0.0,-0.00745574502637,0.00989638906716,-0.999923233728,0.0,0.48700253068,0.0315737400544,0.30468374464,1.0,-0.18998,-0.249688,2.332
0.187548624508,-0.156962172104,-0.129312775597,-2.30882929991,-0.0117295660705,2.14608262443,-0.107869385591,-0.472512504816,-0.609620763506,-0.00231538315494,-0.664526021298,-0.102720435647,0.0418920345369,-0.417683494751,0.573886263763,0.818914894711,0.00370113297666,0.0,0.818887563036,-0.5738131912,-0.0119301136091,0.0,-0.00764613601753,0.0098775302622,-0.999921982457,0.0,0.484290035833,0.0280599066181,0.30463802435,1.0,-0.18998,-0.249688,2.346
0.179021294277,-0.167921329889,-0.129362150447,-2.32039112808,-0.0134044414386,2.14686646087,-0.115389756098,-0.47542510755,-0.614108942854,-0.00383076890214,-0.632322266876,-0.0824910493043,0.0462510352041,-0.421397448108,0.573805109923,0.818970989311,0.00386799601209,0.0,0.818946141483,-0.573731877861,-0.0118193306367,0.0,-0.00746063992941,0.00994986429031,-0.999922666536,0.0,0.480909381787,0.0236543323204,0.304723892463,1.0,-0.18998,-0.249688,2.364
0.17075298086,-0.178070100469,-0.129482989363,-2.33130519947,-0.0150056182614,2.14746629661,-0.122633953877,-0.49253799605,-0.607139852212,-0.0170818339543,-0.643633484837,-0.0946603914099,0.022973945013,-0.428435355732,0.573826629325,0.818956237563,0.00379833326919,0.0,0.818929640104,-0.573752524063,-0.0119596234278,0.0,-0.00761525152184,0.00997351011765,-0.999921265421,0.0,0.477649150768,0.0194128339107,0.304663693388,1.0,-0.18998,-0.249688,2.381
0.162256745653,-0.188255165176,-0.129676168692,-2.34198889666,-0.0166194580131,2.14794481907,-0.13006281059,-0.502041078315,-0.592328683615,-0.0060720817268,-0.606293022716,-0.0850686309776,0.0259354888858,-0.450666533105,0.573926234756,0.818886304663,0.00382674737245,0.0,0.818859769451,-0.573851607037,-0.0119899114448,0.0,-0.0076225359043,0.0100150870232,-0.999920794352,0.0,0.474410621842,0.015090150166,0.304680445792,1.0,-0.18998,-0.249688,2.398
0.153801915605,-0.19833890416,-0.129749413137,-2.3523858626,-0.018232735017,2.14848638847,-0.137587848783,-0.500878522639,-0.585257182394,-0.00314108951887,-0.618770856978,-0.0947355536057,0.0186794085218,-0.450406533495,0.57381010402,0.818966946016,0.00398155232723,0.0,0.818943399904,-0.573736253971,-0.0117968442532,0.0,-0.00737700662371,0.0100300075365,-0.999922486357,0.0,0.471241457036,0.0109048634635,0.304753037818,1.0,-0.18998,-0.249688,2.415
0.145659510329,-0.20771129219,-0.129872254665,-2.36226729689,-0.0196938859455,2.14868567029,-0.144771412467,-0.507232615901,-0.587722758762,-0.00499418988666,-0.618199986307,-0.0946164229063,0.0148386962853,-0.448115752235,0.573825241972,0.818956971066,0.00384943110856,0.0,0.818930114056,-0.573749734196,-0.0120605846889,0.0,-0.00766863747577,0.010073276926,-0.999919857334,0.0,0.468122119411,0.00691586492559,0.304665871732,1.0,-0.18998,-0.249688,2.431
0.136809057781,-0.217686698371,-0.130059228789,-2.37227887222,-0.021213228725,2.14899356529,-0.152502884407,-0.521238497753,-0.582803312976,-0.0089957211371,-0.579336370267,-0.0887163411795,0.0209376794639,-0.462258999696,0.573981567163,0.818846201287,0.00409952388239,0.0,0.818823242511,-0.573905992512,-0.0118809167693,0.0,-0.00737604425348,0.0101764085921,-0.99992101422,0.0,0.464963853183,0.00262257146674,0.304778222939,1.0,-0.18998,-0.249688,2.448
0.129075133483,-0.226305645671,-0.130094019667,-2.381170802,-0.0226394012757,2.14914882589,-0.159442003267,-0.51666748581,-0.566968069094,-0.00379005521274,-0.60107542734,-0.0898211556703,0.00158853909481,-0.466171382774,0.573809019427,0.818967534284,0.00401670436857,0.0,0.818943325458,-0.573733526821,-0.0119338506263,0.0,-0.00746906206095,0.0101373995352,-0.999920719979,0.0,0.462093951213,-0.00103197841972,0.304732274079,1.0,-0.18998,-0.249688,2.463
0.118413200191,-0.237761605798,-0.130245396349,-2.39278849579,-0.0245101870892,2.14917933747,-0.168885997855,-0.538752155318,-0.576110718626,-0.0137384743995,-0.566965361692,-0.092845259248,0.00254625339404,-0.476850556484,0.573797389164,0.818975968161,0.00395811372052,0.0,0.81895059252,-0.573721566272,-0.0120099253224,0.0,-0.00756513066742,0.0101329584616,-0.999920042779,0.0,0.458265745193,-0.00603582356409,0.304708596432,1.0,-0.18998,-0.249688,2.483
0.110784921441,-0.245768323561,-0.130404068915,-2.40058043414,-0.0257495956953,2.14926058722,-0.175611099569,-0.546854905205,-0.570471668671,-0.00667822382219,-0.563442165017,-0.0817355960909,-5.97315978382e-05,-0.48080708908,0.573903327412,0.818900558272,0.00419444254723,0.0,0.818879269238,-0.573828050525,-0.0117837916026,0.0,-0.00724300418228,0.0101976955954,-0.999921769888,0.0,0.455684584316,-0.00958135348817,0.304819604332,1.0,-0.18998,-0.249688,2.497
0.101040282796,-0.255863066811,-0.130520894668,-2.41078218456,-0.0273153633335,2.14918586461,-0.184412907445,-0.551330078092,-0.56124434995,-0.0129574355995,-0.56356638816,-0.0991373238022,-0.000188290011148,-0.49484551335,0.573790026939,0.818980095265,0.00416598684135,0.0,0.818957376321,-0.573713383376,-0.0119380235388,0.0,-0.00738706347307,0.0102618820743,-0.99992005934,0.0,0.452219720056,-0.0140027290429,0.304745435141,1.0,-0.18998,-0.249688,2.515
0.0909584344829,-0.265875154079,-0.130711295452,-2.42060331987,-0.0289385499459,2.14903117045,-0.193274323699,-0.562636842076,-0.557564510045,-0.0083342954481,-0.528506223028,-0.0817349841129,-0.00587904017394,-0.497025005717,0.573934030155,0.818878877714,0.00422605802312,0.0,0.818857160139,-0.57385745961,-0.0118875665928,0.0,-0.00730946299875,0.0102834148623,-0.999920408397,0.0,0.448820499511,-0.0185521167163,0.304765551333,1.0,-0.18998,-0.249688,2.533
0.0830419923271,-0.273670319968,-0.13084789971,-2.42800279976,-0.0301766195444,2.14890572268,-0.200330486636,-0.565878149454,-0.552557797783,-0.00711889479339,-0.534755171489,-0.0903678139036,-0.0150755991268,-0.497162489815,0.573973537143,0.818850160804,0.00442037460765,0.0,0.818832128609,-0.573897992966,-0.0116527133401,0.0,-0.00700511694704,0.0103080923051,-0.999922332769,0.0,0.446228131193,-0.0220728789024,0.304870260403,1.0,-0.18998,-0.249688,2.547
0.0728849308871,-0.283427099272,-0.130961775056,-2.43765921598,-0.0317609883456,2.14852421794,-0.209588371161,-0.578493677798,-0.541412031863,-0.00819005891672,-0.527792308518,-0.0812263812665,-0.0181672126588,-0.517846790306,0.573797377819,0.81897427197,0.00429627276842,0.0,0.818953544227,-0.573720695584,-0.0118491669337,0.0,-0.00723944164357,0.0103176673736,-0.999920564957,0.0,0.442753618219,-0.0264935693245,0.304776938329,1.0,-0.18998,-0.249688,2.565
0.0641010421116,-0.291546224978,-0.131124441948,-2.4454433197,-0.0330068078344,2.14819098677,-0.217376113493,-0.588586531783,-0.535143294242,-0.0108872552894,-0.50247453539,-0.0820395286267,-0.0194679743078,-0.528923272709,0.573926276582,0.818883440587,0.0043916605248,0.0,0.818863612286,-0.573848757629,-0.011863167476,0.0,-0.00719454098016,0.0104049548669,-0.999919984546,0.0,0.439717459705,-0.0305408854988,0.304784186177,1.0,-0.18998,-0.249688,2.581
0.0536014737783,-0.301224313379,-0.131251507923,-2.45442070981,-0.0345314641145,2.14781053386,-0.226889272343,-0.567794525695,-0.537723669841,-0.00303650972943,-0.49695406469,-0.0786676846278,-0.0271064571559,-0.533846313604,0.573871893998,0.818920319031,0.00461597861236,0.0,0.818904937272,-0.573795948753,-0.0115611334776,0.0,-0.0068191485783,0.0104148577599,-0.999922511973,0.0,0.436577083362,-0.0347527184401,0.304910513857,1.0,-0.18998,-0.249688,2.598
0.0441214604122,-0.309602043834,-0.131407172948,-2.4625299494,-0.0359042727418,2.14721313653,-0.235428907349,-0.599776479367,-0.520639293653,-0.0102235663772,-0.496886807688,-0.0874966445625,-0.0397268863912,-0.531203487691,0.573878931984,0.818916163382,0.00447612311226,0.0,0.818897636299,-0.573801430924,-0.0118036449878,0.0,-0.00709792647763,0.0104395508093,-0.999920314434,0.0,0.433469858497,-0.0387334640111,0.30481629017,1.0,-0.18998,-0.249688,2.614
0.0331391272842,-0.318976342686,-0.13159777721,-2.47133155522,-0.0374167526859,2.14658946485,-0.245240041723,-0.605819178228,-0.516207904312,-0.011865882548,-0.473017645471,-0.084291140663,-0.0319524335341,-0.554398812352,0.574007068233,0.818826183133,0.00450714277615,0.0,0.818807912559,-0.573929226342,-0.0118149220225,0.0,-0.00708772299777,0.0104725345484,-0.999920041905,0.0,0.43004073176,-0.0432963188733,0.304810815637,1.0,-0.18998,-0.249688,2.632
0.0235794689148,-0.327236895944,-0.131652670672,-2.47876823722,-0.0386494968686,2.14609907254,-0.254108657298,-0.602893569598,-0.512304225453,-0.00772190971811,-0.470666655794,-0.0697582715374,-0.0399375516367,-0.548420681604,0.573800652603,0.81896938087,0.00476562389742,0.0,0.818955872125,-0.573724183378,-0.0115146784562,0.0,-0.00669614432887,0.0105101680411,-0.999922345994,0.0,0.427117357237,-0.0471653946812,0.304934233078,1.0,-0.18998,-0.249688,2.648
0.0129959609689,-0.335788204996,-0.131850357105,-2.48684419685,-0.0400295536916,2.14527792998,-0.263675679481,-0.635344076068,-0.502189038031,-0.0165410707642,-0.466497431174,-0.0755538935864,-0.0495480537231,-0.569208001918,0.573876864889,0.818916609736,0.00465587204686,0.0,0.818900126461,-0.573798330842,-0.0117815663818,0.0,-0.00697672311317,0.0105740661701,-0.99991975401,0.0,0.423815738231,-0.0514448399379,0.304838681453,1.0,-0.18998,-0.249688,2.665
0.00226536258445,-0.34431289868,-0.13198557479,-2.4946286807,-0.0414170724481,2.14448198094,-0.273332247704,-0.625695163482,-0.491038126406,-0.00376437992298,-0.450227699864,-0.0854461916569,-0.0463930164584,-0.576587755512,0.573950692384,0.818864821837,0.00466402952112,0.0,0.81884846112,-0.57387214427,-0.0117773788989,0.0,-0.00696765880053,0.0105789718474,-0.999919765324,0.0,0.420575214018,-0.0557134267421,0.304843655093,1.0,-0.18998,-0.249688,2.682
-0.00773330404809,-0.352264589463,-0.132128228104,-2.50165391747,-0.0426654310904,2.14373552615,-0.282616945868,-0.634364091867,-0.501951223493,-0.0156534940652,-0.430153339688,-0.0825523195981,-0.045633669364,-0.589442634943,0.573818824119,0.818956335993,0.00481909992788,0.0,0.818942905227,-0.57374122817,-0.01158740599,0.0,-0.00672479271502,0.0105958433781,-0.999921249532,0.0,0.41759790849,-0.0596466447757,0.304933500263,1.0,-0.18998,-0.249688,2.698
-0.0188097358424,-0.360467877938,-0.132339250925,-2.50907156354,-0.0440207518527,2.14285679671,-0.292622053492,-0.654760454335,-0.479798899156,-0.00775718993822,-0.441665951516,-0.0908963085298,-0.0613042112839,-0.593481002055,0.573963832158,0.818854706419,0.00482037872246,0.0,0.81884109461,-0.573885897119,-0.0116183375309,0.0,-0.00674751291091,0.0106158341098,-0.999920884438,0.0,0.414355563702,-0.0639785290139,0.304917503175,1.0,-0.18998,-0.249688,2.715
-0.0303757644586,-0.369066657063,-0.132403956709,-2.51682631713,-0.0453701489731,2.14181125211,-0.30338287833,-0.643594003945,-0.474012366418,-0.00977691984942,-0.434979702351,-0.066235889808,-0.0575951278384,-0.59602901307,0.573761487487,0.818996721402,0.00478254232915,0.0,0.818981872905,-0.5736825408,-0.0117380209556,0.0,-0.00686987190981,0.0106518449186,-0.999919668303,0.0,0.41090741683,-0.068358820343,0.304879524788,1.0,-0.18998,-0.249688,2.733
-0.0395948067007,-0.375595793821,-0.132564052634,-2.52266018019,-0.0463836887991,2.14096830452,-0.311841104413,-0.661472846715,-0.464587670349,-0.0131999873713,-0.413120994538,-0.0669153822849,-0.0668294464035,-0.60865991043,0.573817286823,0.818957518274,0.00480119845102,0.0,0.818942114473,-0.573737033886,-0.0118480374595,0.0,-0.00694854777693,0.0107307189202,-0.999918281339,0.0,0.408230708986,-0.0718565740066,0.304853183399,1.0,-0.18998,-0.249688,2.747
-0.0516429817487,-0.383917633537,-0.132715811188,-2.5297315995,-0.0477602337453,2.14000530788,-0.322860310606,-0.658414823493,-0.449632215859,-0.00774987041179,-0.399885859121,-0.0662153272091,-0.0642816148107,-0.62853889525,0.573867048104,0.818921739945,0.00495397295219,0.0,0.818910232369,-0.573789328003,-0.0115145686762,0.0,-0.00658712062634,0.0106648960101,-0.999921431831,0.0,0.404906698411,-0.0763951523109,0.304975339403,1.0,-0.18998,-0.249688,2.765
-0.0637010342638,-0.392025473887,-0.132903000828,-2.53691778511,-0.0490696993419,2.13884456296,-0.334090951877,-0.676262990759,-0.443477109401,-0.011701685136,-0.396758640616,-0.0762042281667,-0.0673156182476,-0.613672967919,0.573799299251,0.818969431366,0.00491747572117,0.0,0.818956472335,-0.573720130499,-0.011672839515,0.0,-0.00673857366598,0.0107252721981,-0.999919776863,0.0,0.401447597621,-0.0808526464793,0.30491919036,1.0,-0.18998,-0.249688,2.783
-0.0746994155138,-0.399124886509,-0.133070710673,-2.543070489,-0.0502574015992,2.13776122885,-0.34420651146,-0.677414445488,-0.436894724193,-0.00150615709256,-0.379697863409,-0.077815317916,-0.0606247311532,-0.638734564414,0.573854423496,0.818930976658,0.00488907001057,0.0,0.818917337128,-0.573774842171,-0.0117291237662,0.0,-0.00680024833335,0.0107347604284,-0.999919257511,0.0,0.39837681882,-0.0848866242608,0.30491027042,1.0,-0.18998,-0.249688,2.799
-0.0862676639725,-0.406493581124,-0.133186355266,-2.54938966144,-0.051437002831,2.13664369897,-0.355091875096,-0.689670270211,-0.426183415217,0.000286858995953,-0.361955845333,-0.0648240108589,-0.0682092233649,-0.637518364437,0.573698240359,0.819040246903,0.0049142509021,0.0,0.819026886792,-0.57361852863,-0.0117255799545,0.0,-0.00678494716045,0.0107520552147,-0.999919175634,0.0,0.395166550391,-0.0890502865554,0.304916416644,1.0,-0.18998,-0.249688,2.816
-0.0982902561155,-0.413680586603,-0.133403362661,-2.55536525542,-0.0525310653628,2.13561148597,-0.366130364882,-0.704953215353,-0.428587277425,-0.00972018753509,-0.348450417027,-0.073027977102,-0.0585317313121,-0.650820763461,0.573912906278,0.818888600001,0.00511700088219,0.0,0.818878726421,-0.573833919839,-0.0115330290429,0.0,-0.00650808263343,0.0108093654955,-0.999920398071,0.0,0.391995825704,-0.0933893866479,0.304993758497,1.0,-0.18998,-0.249688,2.833
-0.110133430898,-0.420745299049,-0.133499131961,-2.56137087366,-0.0536452809344,2.13438549362,-0.377335964085,-0.694171040419,-0.412598756965,-0.00506638112291,-0.350505985405,-0.0690783227967,-0.0723177312372,-0.665822611509,0.573738815815,0.819010616956,0.00511150091011,0.0,0.819000112771,-0.573658950597,-0.0116176840407,0.0,-0.00658287506649,0.0108520450414,-0.999919446193,0.0,0.388755086898,-0.0975424606324,0.304978696753,1.0,-0.18998,-0.249688,2.85
-0.122309835021,-0.427583896635,-0.13373244561,-2.56723653021,-0.0548012173465,2.13311559683,-0.388623082942,-0.717284038477,-0.408328910618,-0.0184104745359,-0.333869947015,-0.069438421632,-0.065799237332,-0.655152203464,0.573857799246,0.818927619312,0.00505247203753,0.0,0.818915102733,-0.573776076564,-0.0118243553528,0.0,-0.00678443421773,0.0109232545044,-0.999917323564,0.0,0.385457689977,-0.101823746626,0.304915194319,1.0,-0.18998,-0.249688,2.867
-0.134485379791,-0.434244646221,-0.133808987413,-2.57280290412,-0.0558403746717,2.131973096,-0.400081295993,-0.715044195573,-0.380498295497,-0.012074320722,-0.318926196453,-0.0624687563316,-0.0719665904148,-0.676564712569,0.573762889389,0.818993824095,0.00509997606659,0.0,0.818981947767,-0.5736810573,-0.0118051102715,0.0,-0.00674268256059,0.0109503333394,-0.999917309797,0.0,0.382070272325,-0.106250795307,0.304915464472,1.0,-0.18998,-0.249688,2.885
-0.146158760905,-0.440302422489,-0.133997150532,-2.57774822495,-0.0568591608373,2.13083361264,-0.411018722712,-0.748932362933,-0.38241232985,-0.00970687030875,-0.301140721636,-0.0590378179728,-0.0751877901501,-0.682113556275,0.573835728802,0.818942521127,0.00514298960366,0.0,0.818931459278,-0.573754155705,-0.0117550293965,0.0,-0.00667601028596,0.0109574228064,-0.999917679498,0.0,0.379245398927,-0.11004511688,0.304948953612,1.0,-0.18998,-0.249688,2.9
-0.160816212126,-0.447823222728,-0.134140374749,-2.58376000541,-0.0580520309595,2.1294543351,-0.424872641246,-0.727160313602,-0.370100105686,-0.00920535468681,-0.302253196223,-0.0565967999353,-0.0780257689647,-0.696209882308,0.573780635939,0.818980317263,0.00526959765439,0.0,0.818971985745,-0.573700487272,-0.0115492151015,0.0,-0.00643553300989,0.0109425795192,-0.999919418687,0.0,0.37549467215,-0.115017526107,0.30503548633,1.0,-0.18998,-0.249688,2.92
-0.171195891131,-0.45283607943,-0.134313422529,-2.58800649213,-0.0588917575784,2.12837232926,-0.434686640047,-0.75359425257,-0.35494646405,-0.0214999077306,-0.296872358392,-0.0584459988598,-0.0835882828871,-0.703202159123,0.57379331178,0.818971746983,0.00522110158175,0.0,0.818961318944,-0.573710853672,-0.0117881870346,0.0,-0.00665891768872,0.0110400756719,-0.999916884318,0.0,0.37276796816,-0.118502599716,0.30495904248,1.0,-0.18998,-0.249688,2.934
-0.183171180523,-0.458415929427,-0.134420916334,-2.59255342173,-0.05979577657,2.12720919355,-0.446023232672,-0.739248223889,-0.341811807774,-0.00166075490036,-0.273460159063,-0.0467244413426,-0.0668115786286,-0.716147753556,0.573771150824,0.818987178558,0.005235908829,0.0,0.818976587115,-0.573688055742,-0.0118368642944,0.0,-0.00669059054988,0.011079951315,-0.99991623183,0.0,0.369722913888,-0.122479449349,0.304951883991,1.0,-0.18998,-0.249688,2.95
-0.197514780165,-0.464727375681,-0.134627097738,-2.59768485267,-0.0608477031262,2.12595281282,-0.459623158391,-0.766470999158,-0.32865349215,-0.0146727871912,-0.26140513194,-0.0579327358782,-0.0677539984566,-0.721322389858,0.573810561981,0.818959180528,0.00529589361632,0.0,0.818949319082,-0.573727166224,-0.0118278659264,0.0,-0.00664826934916,0.0111242370413,-0.999916022406,0.0,0.366134795936,-0.127237592272,0.304940536758,1.0,-0.18998,-0.249688,2.969
-0.208970988066,-0.469572021192,-0.134726127326,-2.6015788122,-0.0616792853541,2.12489728466,-0.470437879536,-0.745850400624,-0.32116898903,-0.00732436355479,-0.255273705293,-0.0512057285359,-0.0719941128349,-0.719123103889,0.573844620129,0.818935377682,0.00528640061568,0.0,0.818925297928,-0.573761093055,-0.0118453117924,0.0,-0.00666754226172,0.0111267498694,-0.99991586612,0.0,0.363285007751,-0.130983828073,0.304937383268,1.0,-0.18998,-0.249688,2.984
-0.222729815442,-0.47530932776,-0.134919693771,-2.6059348491,-0.0625830051986,2.12368149953,-0.483626640504,-0.779564576331,-0.312813906197,-0.0169808185915,-0.239589169995,-0.0473937867749,-0.0663746119998,-0.737238744456,0.573830153535,0.818944409367,0.00545492081014,0.0,0.818937671662,-0.573748029392,-0.011620481987,0.0,-0.00638690165975,0.0111356375056,-0.999917599137,0.0,0.359919751018,-0.135478080733,0.305041381563,1.0,-0.18998,-0.249688,3.002
-0.235140783556,-0.480108505833,-0.135025415735,-2.60976402031,-0.0634520073871,2.12258536595,-0.495448530067,-0.768474574982,-0.303697674689,0.000286276415332,-0.236376450368,-0.0568878134953,-0.0615680712756,-0.752936849701,0.573809629775,0.818959054577,0.0054150350757,0.0,0.818951726805,-0.573727510956,-0.0116429908975,0.0,-0.00642850199073,0.0111157266345,-0.999917554093,0.0,0.356866552147,-0.139471546667,0.30503091856,1.0,-0.18998,-0.249688,3.018
-0.247540924329,-0.484682194308,-0.13513521072,-2.61344400205,-0.0642197885978,2.12150775967,-0.507380875129,-0.786039186598,-0.287077049975,-0.016716874591,-0.225418007816,-0.0486101724843,-0.0606844786007,-0.747861924777,0.573771998903,0.818985317929,0.00543039517105,0.0,0.818977457518,-0.573688573908,-0.0117512189398,0.0,-0.00650884543344,0.0111901070554,-0.999916204707,0.0,0.353625552779,-0.143671164111,0.304995732972,1.0,-0.18998,-0.249688,3.035
-0.261737062654,-0.489527090209,-0.135277877512,-2.6173247906,-0.0650385814818,2.12031459506,-0.520967527361,-0.780576926879,-0.259063210354,-0.00694236197231,-0.210607720595,-0.0380324441658,-0.0588449539573,-0.754538226293,0.573782302742,0.818978038755,0.00543948511535,0.0,0.818969475762,-0.573697438115,-0.0118740966821,0.0,-0.00660413288734,0.0112681357571,-0.999914703635,0.0,0.35038495658,-0.147916208847,0.304957797918,1.0,-0.18998,-0.249688,3.052
-0.274349050008,-0.493645736702,-0.135429252034,-2.62055708821,-0.065705731315,2.11935667739,-0.53314848203,-0.794157606528,-0.252239969987,-0.0108477890626,-0.195382982518,-0.033880535807,-0.0576132941065,-0.765158436793,0.573780213369,0.818978890283,0.00553090575318,0.0,0.818971342282,-0.573694715543,-0.0118769011232,0.0,-0.00655400608405,0.0113446025881,-0.999914168815,0.0,0.347367607169,-0.151895975054,0.3049528815,1.0,-0.188629714286,-0.247913338776,3.068
-0.287826068269,-0.497816498146,-0.135488837777,-2.62378913705,-0.0664028365771,2.11830214082,-0.546049987012,-0.77097131397,-0.240358273198,0.00551060043508,-0.178282426887,-0.037151030789,-0.0624405193373,-0.761346066742,0.573815825176,0.818953750602,0.00555878165315,0.0,0.818946378815,-0.573729894221,-0.011898907736,0.0,-0.00655554212309,0.0113803447736,-0.999913752591,0.0,0.344165421886,-0.156090837238,0.304956345193,1.0,-0.185822285714,-0.24422357551,3.085
-0.301173194903,-0.501717992124,-0.135530920513,-2.6267548555,-0.0670187583053,2.11731558008,-0.558889922948,-0.792971084957,-0.223736877964,-0.00805582702021,-0.164003481475,-0.0348681070501,-0.0541748145897,-0.746795129741,0.573831343639,0.818942398466,0.0056288500739,0.0,0.818936051866,-0.573745348563,-0.0118644366958,0.0,-0.00648688858916,0.01141807374,-0.999913770216,0.0,0.341028562671,-0.160215588167,0.304981363937,1.0,-0.183014857143,-0.240533812245,3.102
-0.314525275969,-0.505264685183,-0.135505979207,-2.62944199708,-0.0675903807061,2.11645256982,-0.571687531664,-0.774819448375,-0.206197879648,0.00670709503741,-0.148331395632,-0.0340780238416,-0.0510730162323,-0.750525259053,0.573871472425,0.818913962677,0.00567466032101,0.0,0.818908728338,-0.573786219914,-0.0117735037123,0.0,-0.00638556762671,0.0114037263353,-0.999914586128,0.0,0.337953041962,-0.16431676043,0.30500861539,1.0,-0.180207428571,-0.23684404898,3.119
-0.326900916101,-0.508377277159,-0.13550626059,-2.63179019468,-0.0680597510295,2.11569679611,-0.583639064836,-0.781586262368,-0.191310797783,-0.00483788460737,-0.146600952263,-0.0250647765358,-0.0544189083008,-0.746153451927,0.573885346934,0.818903642462,0.00576019434489,0.0,0.818899933084,-0.573800540662,-0.0116870027359,0.0,-0.00626544710975,0.0114242423353,-0.999915111827,0.0,0.33510588326,-0.168096752451,0.305033591375,1.0,-0.177565142857,-0.233371330612,3.135
-0.341477751295,-0.51179916627,-0.135432064495,-2.63441165546,-0.0686095614347,2.1147705733,-0.597716288896,-0.754515966187,-0.172015677921,0.00339227700171,-0.134684039905,-0.018411000221,-0.0464788693072,-0.746998025214,0.573857730105,0.818922888387,0.00577541135752,0.0,0.818919247212,-0.573772640763,-0.011703425068,0.0,-0.00627055036213,0.0114459168346,-0.999914831966,0.0,0.331739867258,-0.172490748369,0.305033198188,1.0,-0.174427428571,-0.229247477551,3.154
-0.352839937225,-0.514173021646,-0.135385569726,-2.63630268361,-0.0689673318633,2.11406369254,-0.608731970221,-0.765955988759,-0.154191740221,0.00275244032185,-0.122967327162,-0.0313698253932,-0.0511973719667,-0.737376750385,0.57384838782,0.818929251422,0.00580136737393,0.0,0.818924996446,-0.573761477131,-0.0118475507245,0.0,-0.00637382744805,0.0115498050085,-0.999912984378,0.0,0.329119252538,-0.175893687258,0.304992316102,1.0,-0.171950285714,-0.225991804082,3.169
-0.368645097862,-0.517180509419,-0.135284922796,-2.63867174081,-0.0694416495573,2.11321364639,-0.623989126013,-0.73291645676,-0.134114161428,0.00384046684956,-0.103214184648,-0.018936567567,-0.036891187986,-0.720500965603,0.573888254037,0.818901129606,0.00582741021662,0.0,0.818896562141,-0.573800057282,-0.011944106406,0.0,-0.00643739785179,0.0116268524169,-0.999911684206,0.0,0.325517368726,-0.180611440456,0.304955174826,1.0,-0.168482285714,-0.221433861225,3.19
-0.378262402086,-0.518844654956,-0.135199637504,-2.63997473615,-0.0697128049944,2.1127590132,-0.633298569097,-0.73951259706,-0.127907052163,0.00302717822802,-0.0981400081756,-0.0165125729295,-0.0335395074121,-0.724137592794,0.57388971484,0.818900050509,0.00583518456526,0.0,0.818895437494,-0.573801222077,-0.0119652369203,0.0,-0.00645022127052,0.0116453566308,-0.999911386231,0.0,0.323345224904,-0.183470252884,0.304939130393,1.0,-0.166335428571,-0.218612277551,3.203
-0.392145747951,-0.521094626587,-0.135082445147,-2.64163276873,-0.0700640226506,2.11210889006,-0.646814234274,-0.702431970077,-0.114531060519,0.0165913383942,-0.0857321881376,-0.0214886237522,-0.0331490324995,-0.705548606903,0.573862306516,0.818918972164,0.00587512476194,0.0,0.818915089696,-0.573774043921,-0.0119234765027,0.0,-0.00639349012349,0.0116538864223,-0.999911651205,0.0,0.320228201268,-0.187592205955,0.304960262504,1.0,-0.163197714286,-0.21448842449,3.222
-0.403654762208,-0.522790900654,-0.134974344503,-2.6428713893,-0.0703215240118,2.1116116947,-0.658073196843,-0.722047553223,-0.103317271872,0.00801337888602,-0.0717567116092,-0.0153050054872,-0.0374468052828,-0.701419535382,0.573809124236,0.818955958256,0.00591390572818,0.0,0.818952794209,-0.57372111323,-0.0118807404402,0.0,-0.00633699260087,0.0116607113929,-0.999911931289,0.0,0.317650540182,-0.190992904489,0.304980280839,1.0,-0.160555428571,-0.211015706123,3.238
-0.414488659263,-0.524242967179,-0.134924481487,-2.64390793652,-0.070550386617,2.11115719081,-0.668485723984,-0.713167195029,-0.0887217601466,0.00661181905931,-0.0698777723641,-0.0142545395183,-0.0319542416988,-0.695352084151,0.573961184773,0.81884900237,0.00596796387358,0.0,0.818846690169,-0.57387321062,-0.0118483346177,0.0,-0.00627726324926,0.0116875566614,-0.99991199462,0.0,0.315218880118,-0.194200357485,0.305003971733,1.0,-0.158078285714,-0.207760032653,3.253
-0.428442867981,-0.525796646175,-0.134734287034,-2.64508189101,-0.0708025657108,2.11070434443,-0.682206966685,-0.704438905208,-0.0717197496064,0.00582433657462,-0.0520988743065,-0.013847034304,-0.0209449073312,-0.684307764438,0.573842362694,0.818932178936,0.00598130270812,0.0,0.818930210283,-0.573754679361,-0.0118163233619,0.0,-0.00624508725761,0.0116792012617,-0.999912293725,0.0,0.312124288441,-0.198292610134,0.305005476854,1.0,-0.154775428571,-0.203419134694,3.273
-0.437563020036,-0.526697688598,-0.134709093632,-2.64577780686,-0.0709508540041,2.11040286117,-0.690976653456,-0.695490561955,-0.0630075843483,0.0118164098229,-0.0496956082554,-0.0183812617969,-0.0173792926082,-0.680529095997,0.57400837321,0.81881543825,0.00603427449706,0.0,0.818813868652,-0.573919909949,-0.0118546349013,0.0,-0.00624368800637,0.0117458334838,-0.999911521964,0.0,0.310073361829,-0.200977358496,0.304993665073,1.0,-0.152628571429,-0.20059755102,3.286
-0.451720029261,-0.527891381679,-0.134497777469,-2.64669673768,-0.0711228902446,2.11001853718,-0.70495266961,-0.673866479417,-0.0527882787352,0.0105024934272,-0.0418742768633,-0.0138636642096,-0.0164536677844,-0.65787215257,0.573881222317,0.818904312577,0.00606765322816,0.0,0.818903086014,-0.573792483606,-0.0118603699597,0.0,-0.00623105426043,0.0117754902777,-0.999911251958,0.0,0.306931730591,-0.205093587226,0.304984862091,1.0,-0.149160571429,-0.196039608163,3.307
-0.461207999092,-0.528526340872,-0.134423362215,-2.64718449582,-0.0712372327282,2.10977668664,-0.71411896578,-0.684001418476,-0.043920490724,0.00279081340901,-0.0372041395497,-0.0101337931334,-0.024010423962,-0.662231877738,0.574015352503,0.818810034905,0.00610317387665,0.0,0.818809050682,-0.573926029895,-0.0118910735952,0.0,-0.00623388005429,0.0118232204431,-0.999910671109,0.0,0.304817443199,-0.207868859616,0.304976292978,1.0,-0.146848571429,-0.193000979592,3.321
-0.473623218108,-0.52917055372,-0.134223520698,-2.64767795049,-0.0713326073892,2.10951045745,-0.726396165495,-0.644960026839,-0.0280373842368,0.0135552067201,-0.025969088227,-3.4506691207e-05,-0.0166821386851,-0.65073405075,0.573918374699,0.81887781212,0.00612983700273,0.0,0.818876976729,-0.573828589174,-0.0119161290435,0.0,-0.00624049810987,0.0118586961226,-0.999910209724,0.0,0.302078058528,-0.21147050976,0.304969521037,1.0,-0.143710857143,-0.188877126531,3.34
-0.482700098073,-0.529516885774,-0.134117082755,-2.64796410372,-0.0714005503979,2.10935156561,-0.735296203509,-0.654888414987,-0.0256201223965,0.00842870527112,-0.0191569511433,-0.00321760350614,-0.00993049216494,-0.628149136317,0.573942892766,0.818860421215,0.00615737865805,0.0,0.818859693136,-0.573852511819,-0.0119517587877,0.0,-0.00625351542556,0.0119018853589,-0.99990961525,0.0,0.30006451054,-0.214109329943,0.304954951578,1.0,-0.141398857143,-0.185838497959,3.354
-0.494214106808,-0.529820033987,-0.133958839551,-2.64819870847,-0.0714670591974,2.10916356575,-0.746559081281,-0.624298945719,-0.00875205462138,0.00837625761919,-0.010967757493,0.000426355627513,-0.00852047115256,-0.62308787696,0.573995176091,0.818823577096,0.00618339035737,0.0,0.818822920998,-0.5739041676,-0.0119907197631,0.0,-0.00626973126418,0.0119459470525,-0.999908988268,0.0,0.297515650667,-0.217449418404,0.304946850068,1.0,-0.138426285714,-0.181931689796,3.372
-0.504055739747,-0.52996440932,-0.133783047012,-2.64834394677,-0.0714860004633,2.10906544178,-0.756379288733,-0.617559853926,-0.00751184108317,0.0128116059352,-0.00915067004851,-0.000690222867941,-0.00198293792087,-0.61873840893,0.573872630433,0.818909265073,0.00621019476734,0.0,0.818908739763,-0.573781117716,-0.0120188099923,0.0,-0.00627914325595,0.011983079587,-0.999908484894,0.0,0.295340413408,-0.220284408322,0.304929577015,1.0,-0.135784,-0.178458971429,3.388
-0.514616674376,-0.530037234121,-0.133675262207,-2.64841649646,-0.0715021320743,2.1089634179,-0.766610711071,-0.614701558681,0.00404119874065,0.00550290752463,-0.000795638739326,0.000158949583819,-0.00690877262801,-0.587279060776,0.574055559795,0.818780575919,0.00627133704012,0.0,0.818780604347,-0.573963277158,-0.0120509469135,0.0,-0.00626768476686,0.0120529942658,-0.99990771647,0.0,0.292981551873,-0.223339514082,0.30491717287,1.0,-0.132976571429,-0.174769208163,3.405
-0.524137460368,-0.529977677467,-0.133470368594,-2.64838634216,-0.0715178376139,2.10893998082,-0.776095028874,-0.588374249328,0.0052352544518,0.00747699233965,0.00251798711919,0.000807720575235,0.000782166954539,-0.595481568109,0.573936145518,0.818864352992,0.00626252086789,0.0,0.818864365349,-0.573844117214,-0.0120344173776,0.0,-0.00626096518359,0.0120353740175,-0.999907970809,0.0,0.290881448222,-0.226074864426,0.3049123261,1.0,-0.130334285714,-0.171296489796,3.421
-0.534145929938,-0.529832640906,-0.133336612309,-2.64826172459,-0.0715311807032,2.1089328175,-0.785926554327,-0.588718311691,0.0128348686941,0.00594849917379,0.00354740668971,-9.69949402506e-05,-0.00138400998241,-0.574896004538,0.57398809247,0.818827762623,0.00628583814374,0.0,0.818828310209,-0.573896398718,-0.0119945337511,0.0,-0.00621415700328,0.0120319734261,-0.99990830373,0.0,0.288655585526,-0.228970455875,0.304918808316,1.0,-0.127526857143,-0.167606726531,3.438
-0.544049295099,-0.529611448968,-0.133183138989,-2.64804788547,-0.0715286275286,2.10894302741,-0.795603642695,-0.571461654951,0.0191982159755,0.0144914164479,0.0125211030276,0.00444932411645,0.00124461030216,-0.573559315818,0.574078137155,0.818764516714,0.00630123095708,0.0,0.818765687477,-0.573987180863,-0.0119252722111,0.0,-0.0061472822998,0.0120055008956,-0.999909035297,0.0,0.286453942729,-0.231829530483,0.304940038424,1.0,-0.124719428571,-0.163916963265,3.455
-0.553414479229,-0.529222251667,-0.132972102905,-2.6477364033,-0.0715277000684,2.10897198062,-0.805074071704,-0.546841330195,0.0224303522612,0.00677089398218,0.0180445743119,-0.00138471625862,0.0025794823056,-0.550934688121,0.573861180994,0.818916852335,0.00626744050891,0.0,0.818917698975,-0.5737706368,-0.0119082136327,0.0,-0.00615588201296,0.0119664098893,-0.999909450976,0.0,0.284384907574,-0.234524083457,0.304947343167,1.0,-0.121912,-0.1602272,3.472
-0.56340850649,-0.528726363533,-0.132801892725,-2.64736776922,-0.0715209337216,2.10901357283,-0.8148807841,-0.552254508096,0.030769294215,0.00796001744001,0.0245098229296,-0.000408186496204,-0.000861437895142,-0.54634496179,0.573923119748,0.818873546367,0.00625416501918,0.0,0.818874116754,-0.573832416434,-0.0119283553387,0.0,-0.00617909097944,0.0119675631782,-0.999909294019,0.0,0.282270631871,-0.237241346383,0.304941687962,1.0,-0.119104571429,-0.156537436735,3.489
-0.571539845874,-0.528196128473,-0.132654616809,-2.64694415146,-0.0715081094993,2.10912713815,-0.822839712074,-0.525898503935,0.0380984191005,0.0101471564293,0.0261474335628,0.00109539616465,0.0100407866411,-0.541254651912,0.573984998396,0.818830367903,0.00622873312509,0.0,0.818831000806,-0.573895148245,-0.0118700396674,0.0,-0.00614502753853,0.0119137338543,-0.999910146754,0.0,0.280348835186,-0.23975952364,0.304953902291,1.0,-0.116462285714,-0.153064718367,3.505
-0.581886323264,-0.527320290211,-0.132437964538,-2.64632597424,-0.0714705090431,2.10922672573,-0.833227266299,-0.518856205004,0.0455575252603,0.0102509935881,0.0368770089395,-0.00117117906959,0.00317481430443,-0.506063688261,0.573849717187,0.818925462386,0.00619161066508,0.0,0.818925071166,-0.573759006342,-0.011961494831,0.0,-0.00624320050336,0.0119347954122,-0.999909287439,0.0,0.278046471104,-0.242743357138,0.304928692448,1.0,-0.113159428571,-0.148723820408,3.525
-0.588615346193,-0.526722737036,-0.132301653481,-2.64589010891,-0.0714204507124,2.10933030913,-0.839820586069,-0.516541682847,0.0478428947851,0.00550334921903,0.0298772908944,0.00668323929428,0.00575654807977,-0.499723003854,0.573910579037,0.818882858654,0.00618530303745,0.0,0.818882298306,-0.573819715528,-0.0119775829674,0.0,-0.00625910905792,0.0119393266123,-0.999909133889,0.0,0.276547278043,-0.244683347619,0.304920540295,1.0,-0.111012571429,-0.145902236735,3.538
-0.59809559979,-0.525696163342,-0.132088286969,-2.64512558098,-0.0713653277247,2.10950966215,-0.849258565872,-0.478133937648,0.0549578067075,0.0101516736722,0.0459519701847,0.00066030363329,0.00724585853267,-0.497243822007,0.573860992068,0.818917982547,0.00613567805656,0.0,0.818916665208,-0.57377013753,-0.0120029839995,0.0,-0.00630911206904,0.0119128826785,-0.999909135037,0.0,0.274452644257,-0.247436279794,0.304912996461,1.0,-0.107874857143,-0.141778383674,3.557
-0.604752642985,-0.524891925735,-0.131907742455,-2.64454279737,-0.0712504763987,2.10964232155,-0.856038056484,-0.479066603375,0.0576059603694,0.00944288019593,0.0411922905229,0.00379681352285,0.00347835077315,-0.478454169389,0.573714815352,0.81902031348,0.00614684100726,0.0,0.819018830033,-0.573623356677,-0.0120477228905,0.0,-0.00634148030008,0.0119465656521,-0.999908528415,0.0,0.272988525934,-0.249354798503,0.304899227712,1.0,-0.105562857143,-0.138739755102,3.571
-0.613862810734,-0.52380472366,-0.131707522504,-2.6436935113,-0.0711133130171,2.10983415709,-0.86493756395,-0.474739749511,0.0586570617206,0.00565717796565,0.0485680025594,0.00614134527991,0.00681318502652,-0.465013916702,0.573851408896,0.81892452397,0.00615885137883,0.0,0.81892325955,-0.573759987612,-0.0120382093786,0.0,-0.00632480416607,0.0119520001718,-0.999908569092,0.0,0.270965991468,-0.251993431361,0.304908174704,1.0,-0.102425142857,-0.134615902041,3.59
