nelsonifechukwu/NELSON_IML_WORK/CNN-GradCAM/train2dof/data_sample_2022-02-21-10-14-11/robot_state.csv
position_joint1,position_joint2,position_joint3,position_joint4,position_joint5,position_joint6,position_joint7,velocity_joint1,velocity_joint2,velocity_joint3,velocity_joint4,velocity_joint5,velocity_joint6,velocity_joint7,ee_T_00,ee_T_10,ee_T_20,ee_T_30,ee_T_01,ee_T_11,ee_T_21,ee_T_31,ee_T_02,ee_T_12,ee_T_22,ee_T_32,ee_T_03,ee_T_13,ee_T_23,ee_T_33,v_x,v_y,time
0.465088358965,0.547629427023,-0.123951237286,-1.35576278437,0.0794428827895,1.89408756383,0.159183129564,-0.000118598476033,-0.000823168128993,0.000151619889583,-0.00202594787375,0.00032204130385,-2.97800454575e-05,0.00058308761857,0.573767956721,0.819003454415,0.00210247426563,0.0,0.818962680906,-0.573709162053,-0.0117758889598,0.0,-0.00843844745397,0.00847863894822,-0.999928450083,0.0,0.661685437818,0.260921990209,0.303352841148,1.0,0.0,0.0,0.0
0.465088594856,0.547632533027,-0.123950895764,-1.3557578685,0.0794414586359,1.89408837763,0.159171287495,0.00020726606097,0.00107343644359,-0.00058820184484,0.00010932871048,-0.000145734919469,0.00017823047269,-0.00187335690547,0.573757191994,0.819010992115,0.00210388482711,0.0,0.818970252897,-0.573698409177,-0.0117731507825,0.0,-0.00843550693395,0.00847811225275,-0.99992847936,0.0,0.661686585148,0.26092271165,0.303353037496,1.0,-0.0001,-0.000131428571429,0.006
0.465085432655,0.547625990104,-0.123951842687,-1.35576317892,0.0794414586359,1.89408943872,0.159178799551,-0.000120279853415,-0.00278658315414,-0.000704357370783,-0.00301355915053,-0.000109686534403,0.000405960126902,0.000261481134019,0.573766881,0.819004199463,0.00210580874685,0.0,0.818963486961,-0.573708091234,-0.0117719997909,0.0,-0.00843336011652,0.00847912732685,-0.999928488862,0.0,0.661686795083,0.26091959925,0.303355268478,1.0,-0.00044,-0.000578285714286,0.023
0.465082243815,0.547618964192,-0.123951573261,-1.35577061508,0.079442170712,1.89409160503,0.159174798607,-0.00045630784679,-0.00205064780172,-0.00093865790205,-0.00148829182073,0.000107925952282,0.000156807062934,-0.00104854331952,0.573766624636,0.819004373085,0.00210813228425,0.0,0.818963678148,-0.573707813156,-0.0117722512168,0.0,-0.00843223561161,0.00848117190338,-0.999928481005,0.0,0.661686438467,0.26091711758,0.303356886872,1.0,-0.00076,-0.000998857142857,0.039
0.465081839024,0.547557430389,-0.123951661937,-1.3558248302,0.0794428784064,1.89410016775,0.159181099723,-0.00118030154658,-0.00514076163439,-0.0018963256139,-0.00237406046456,7.00570527583e-05,0.000856013765178,0.000902493235965,0.573775273265,0.81899827078,0.0021248882497,0.0,0.818957745103,-0.573716346785,-0.011769115083,0.0,-0.00841996388802,0.00849318443251,-0.999928482456,0.0,0.661677430959,0.260911869485,0.303375420603,1.0,-0.0011,-0.00144571428571,0.056
0.465086416722,0.547413592833,-0.123948801736,-1.35599035914,0.0794394544916,1.89413531419,0.159176049151,0.000758342898696,-0.00644490445776,-0.000436903961819,-0.0111463750423,0.00038863077694,7.00952630381e-05,0.00180337781251,0.573773502311,0.818999465435,0.00214256000498,0.0,0.818959063424,-0.573714400479,-0.0117722563136,0.0,-0.00841241606411,0.00850944150327,-0.999928407768,0.0,0.661648633515,0.260900626954,0.303401476161,1.0,-0.00144,-0.00189257142857,0.073
0.465069447164,0.547287984349,-0.123946296227,-1.35618116517,0.0794339182661,1.89420109501,0.159165003631,-0.000172835954696,-0.00632069569328,0.000714743389074,-0.0120245471444,-8.23723372996e-05,0.00574828604195,-0.00012672668105,0.573785781385,0.818990851178,0.00214701374847,0.0,0.818950434991,-0.573726587869,-0.0117785525797,0.0,-0.00841488994356,0.00851682781407,-0.999928324067,0.0,0.661625486241,0.260873420146,0.303405252577,1.0,-0.00176,-0.00231314285714,0.089
0.465049171714,0.547113169191,-0.123946325461,-1.35638813826,0.0794292721681,1.89431447071,0.159151645957,-0.000547228953621,-0.0116590019983,0.000890303621796,-0.0149193614846,0.000366070164126,0.0107838179354,-0.00152249536055,0.573801991082,0.818979300038,0.00221991917554,0.0,0.818939811698,-0.573742495925,-0.0117422352034,0.0,-0.00834314623063,0.00855586285791,-0.999928592011,0.0,0.661610816991,0.260844676575,0.303440406318,1.0,-0.00208,-0.00273371428571,0.105
0.465025816675,0.546912284789,-0.123946659153,-1.35663650234,0.0794255461286,1.89444888223,0.159139177897,-0.000587458618346,-0.0124496546622,0.000220082993707,-0.0153162898677,0.00022518062322,0.0139618644946,-0.00130452795728,0.57382425626,0.8189634813,0.00229915767494,0.0,0.818924982475,-0.573764420265,-0.0117051278404,0.0,-0.00826705654124,0.00859968950678,-0.999928848027,0.0,0.661592351443,0.26081072617,0.303476156302,1.0,-0.00244,-0.00320685714286,0.123
0.464990050066,0.546696171089,-0.12394959109,-1.35692571479,0.0794160584092,1.8945676508,0.159118102029,-0.00387035715164,-0.0145067143392,-0.000202995896593,-0.0199474625547,-0.000670462247752,0.0147996299914,0.000500779996578,0.573852020617,0.818943906146,0.00234177734644,0.0,0.818905922961,-0.573791984857,-0.0116873587339,0.0,-0.00822775655217,0.00862467581611,-0.999928956971,0.0,0.661565939267,0.260760408351,0.303501954018,1.0,-0.00276,-0.00362742857143,0.139
0.46494412373,0.546442202835,-0.123952541762,-1.35731669385,0.0794011269585,1.89470798114,0.159014519481,-0.000813167835709,-0.0118733636633,-0.00111692448598,-0.0249746936862,-0.000310526781752,0.0163104228999,-0.0196053539344,0.573824745793,0.818962995824,0.00234935900034,0.0,0.818925037924,-0.573764608921,-0.0116919935138,0.0,-0.00822748939182,0.00863327033151,-0.999928885002,0.0,0.661524417385,0.260692353559,0.303507970162,1.0,-0.0031,-0.00407428571429,0.156
0.464901954598,0.546154991395,-0.123951252798,-1.35775621535,0.0793787186401,1.89486624586,0.158942195528,-0.000755710333156,-0.0195765205409,0.00029845987061,-0.0298270437062,-0.00146542854739,0.0147290230579,-0.00153050212526,0.573817744437,0.818967878554,0.00235732198941,0.0,0.81892997255,-0.5737575252,-0.0116939829421,0.0,-0.00822462352066,0.00864086291077,-0.999928842996,0.0,0.661474646091,0.260623921856,0.303515809785,1.0,-0.00344,-0.00452114285714,0.173
0.46485791616,0.54587598164,-0.123952004009,-1.35823030548,0.0793098034981,1.89502630869,0.158924282525,-0.00105986785431,-0.0243788766208,-0.00101901721753,-0.0309966343914,-0.00843996539893,0.00977823609743,-0.00167765448521,0.573847821564,0.818946954921,0.00230425969663,0.0,0.818908694523,-0.573788143123,-0.0116817698483,0.0,-0.00824475168978,0.00859070187711,-0.999929109443,0.0,0.661420606801,0.260541448766,0.303501505835,1.0,-0.00376,-0.00494171428571,0.189
0.464797914523,0.545526031733,-0.123952949455,-1.35884054582,0.0792414344869,1.89523029957,0.158818266605,-0.00231655042966,-0.0161348896024,-0.000159148636602,-0.0383716306871,-0.000538452443888,0.0140479651722,-0.00526025184985,0.573826666651,0.818961960641,0.00223842887496,0.0,0.818923090982,-0.57376748791,-0.0116870772543,0.0,-0.0082870935421,0.00853962209112,-0.999929196961,0.0,0.661350056678,0.260436149574,0.30347642647,1.0,-0.00412,-0.00541485714286,0.207
0.464742855112,0.545167507807,-0.123958214976,-1.35946447593,0.0792393251924,1.89543486582,0.158729509598,-0.0026006272696,-0.0257440053449,-0.00143585176228,-0.0435710817081,0.000401626894208,0.00818569935153,-0.00534667337542,0.573836928822,0.818954861693,0.0022046611695,0.0,0.818915224825,-0.573777538262,-0.0117447025249,0.0,-0.00835355700523,0.00854513914451,-0.999928596792,0.0,0.66127262582,0.260340878106,0.303451189922,1.0,-0.00444,-0.00583542857143,0.223
0.464680108439,0.544753201084,-0.123958310724,-1.36014943955,0.0792179073223,1.89566649716,0.158680984134,-0.00402565322261,-0.024519368715,-0.00055955709521,-0.042081871598,0.000497088394312,0.0126723195943,-0.00868742343767,0.573881063789,0.818923995977,0.00218182003446,0.0,0.818883854444,-0.573821543325,-0.0117820307701,0.0,-0.00839677404342,0.00854830613282,-0.999928207747,0.0,0.661189860639,0.260235721801,0.303438501863,1.0,-0.00478,-0.00628228571429,0.24
0.464620991477,0.544317158185,-0.123961304047,-1.36087900711,0.0791799630193,1.89592349985,0.158570340013,-0.00282809298266,-0.0310195729573,-0.000448095853959,-0.0434813563226,-0.00241042856057,0.0193803577595,-0.00821658158587,0.573871518959,0.818930761343,0.00215284839164,0.0,0.818890176706,-0.573812044877,-0.0118051916589,0.0,-0.00843246660624,0.00853777404737,-0.999927997368,0.0,0.661103032166,0.260125329429,0.303422198407,1.0,-0.00512,-0.00672914285714,0.257
0.464554478565,0.543823429046,-0.123961916426,-1.36166529937,0.0791438080693,1.89620088986,0.158461830038,-0.000442655714699,-0.0297838083097,-0.00446463180704,-0.0470058195682,-0.00105701458098,0.0123938479378,-0.00172443229372,0.5738823718,0.818923164472,0.00214963462117,0.0,0.818882412343,-0.573822781787,-0.0118218762644,0.0,-0.00844786164977,0.00854482888839,-0.999927807161,0.0,0.661006192219,0.259997037206,0.303422952066,1.0,-0.00548,-0.00720228571429,0.275
0.464478942592,0.543335640129,-0.123962319145,-1.36245824643,0.0790880030762,1.89647601056,0.158379302414,-0.00489845980009,-0.0301861717754,-0.000423562357903,-0.0491054189913,-0.00671898614496,0.0184194778414,0.000163328039799,0.573895411456,0.818914115153,0.00211556466824,0.0,0.818872963922,-0.573835998924,-0.0118347876116,0.0,-0.0084778506852,0.00852447313864,-0.999927727091,0.0,0.660917954553,0.259878894365,0.30341286817,1.0,-0.00578,-0.00759657142857,0.29
0.464404866339,0.542790809104,-0.123965572841,-1.36333218856,0.0790412085383,1.89678288617,0.158247701751,-0.00519926055442,-0.0360107372199,-0.00310804724845,-0.0510996426519,-0.00187834718391,0.0155745184152,-0.00309294930837,0.573886635732,0.81892030716,0.0020992261148,0.0,0.818878873132,-0.573827218881,-0.0118516206294,0.0,-0.00850110339548,0.00852066265547,-0.999927562151,0.0,0.660814821948,0.259744726327,0.303408984368,1.0,-0.00612,-0.00804342857143,0.307
0.464334868332,0.542174755289,-0.123965460986,-1.36429829294,0.078989465193,1.89714167001,0.15814483265,-0.0040249288939,-0.0314139867197,0.000774941577671,-0.0562738067085,-0.00500608947565,0.0238390654705,-0.000737890054054,0.573899535834,0.818911240382,0.00210951348048,0.0,0.818869874699,-0.573840010533,-0.0118540087359,0.0,-0.00849702135351,0.00853059139103,-0.999927512192,0.0,0.660700987645,0.259607929709,0.303415924504,1.0,-0.00648,-0.00851657142857,0.325
0.464259229951,0.541620132877,-0.123965178168,-1.36514780229,0.0789358734853,1.89745283108,0.158022966997,-0.00626136479137,-0.0350285301342,-5.68162869155e-05,-0.0515916587612,-0.00895937557491,0.0158089310812,-0.0123915502671,0.573894293238,0.818914881158,0.00212238265035,0.0,0.818873690087,-0.573834724444,-0.0118463330327,0.0,-0.0084834048761,0.00853667059328,-0.999927575926,0.0,0.660604302695,0.25947701631,0.303430691582,1.0,-0.00678,-0.00891085714286,0.34
0.464174939988,0.540928724838,-0.12396867032,-1.36621993732,0.0788681981215,1.89785248315,0.157867287029,-0.00624242531048,-0.0381147437158,-5.57137417184e-05,-0.062033264225,-0.00582181895673,0.028697253996,-0.00867869934629,0.573879668778,0.818925094921,0.00213578386728,0.0,0.818884114237,-0.573820084892,-0.0118348859763,0.0,-0.0084664924477,0.00854092436372,-0.999927682943,0.0,0.660481245603,0.259317303933,0.303443910388,1.0,-0.00714,-0.009384,0.358
0.464085281057,0.540239507636,-0.123974670431,-1.36728019463,0.0788130708315,1.89824252353,0.157739526828,-0.00600013993854,-0.0405281357846,-0.000856683422964,-0.0688387485467,-0.00296832519068,0.020452738491,-0.00578408224316,0.573896641038,0.818913149984,0.00215524686264,0.0,0.81887236135,-0.573836916347,-0.0118319970988,0.0,-0.00845278054334,0.00855538019704,-0.99992767537,0.0,0.660360024137,0.259155357436,0.303460396452,1.0,-0.00748,-0.00983085714286,0.375
0.463988532979,0.539592980385,-0.123971839337,-1.36826845572,0.0787575214044,1.89862246186,0.157620630137,-0.00642517752916,-0.0446701739587,0.000160501031548,-0.0655923205058,-0.00443852241236,0.0274763450871,-0.0104522866762,0.573916412294,0.818899201587,0.00219003206613,0.0,0.818858827336,-0.573856509859,-0.0118183707311,0.0,-0.00842145233687,0.00857624913803,-0.999927760936,0.0,0.660251952086,0.259001092627,0.303479710438,1.0,-0.00778,-0.0102251428571,0.39
0.463880948669,0.538752892544,-0.123977537881,-1.36958044787,0.0786749393029,1.89912242642,0.157452680039,-0.00791310600467,-0.0403317204468,0.000583685143048,-0.0682134562321,-0.0110677646346,0.0303870812889,-0.0084007157537,0.573921470983,0.81889560385,0.00220953390459,0.0,0.818855547424,-0.573861557507,-0.0118005156429,0.0,-0.00839558545635,0.0085820236217,-0.999927928911,0.0,0.660104100969,0.258802625013,0.303492244586,1.0,-0.00816,-0.0107245714286,0.409
0.4637707678,0.538026143444,-0.123980757367,-1.37070787127,0.0786103734545,1.89955961651,0.157314373451,-0.00343988778401,-0.047218472119,0.00043143870823,-0.0662510115604,-0.00383423285816,0.0296900464588,-0.0125312919633,0.573945750589,0.818878502706,0.0022405555677,0.0,0.818838851755,-0.573885716628,-0.0117841422566,0.0,-0.00836411896437,0.00859827786436,-0.999928052978,0.0,0.659982292658,0.258622967769,0.303506922558,1.0,-0.00848,-0.0111451428571,0.425
0.463671779016,0.537278954432,-0.123984259319,-1.37190192679,0.0785370563019,1.9000045612,0.157163528104,-0.00836581725373,-0.050187504949,0.000245344977729,-0.074475384556,-0.00720904123309,0.0304376235686,-0.00886166757528,0.573951955811,0.818874165122,0.00223629557425,0.0,0.818834476359,-0.573891955495,-0.0117843389957,0.0,-0.00836665980055,0.00859496580976,-0.999928060196,0.0,0.659844551861,0.258442018701,0.303504873117,1.0,-0.0088,-0.0115657142857,0.441
0.463551379791,0.536439819112,-0.123987813902,-1.37319455549,0.0784703863746,1.90049690468,0.157007733712,-0.00440323539883,-0.0504070536119,0.00174879200881,-0.0759967602334,-0.00643977305337,0.0336232390966,-0.0118938675525,0.57397881425,0.818855235629,0.0022739341301,0.0,0.818815960951,-0.57391858914,-0.0117737858442,0.0,-0.00833613361032,0.00862000315971,-0.999928099626,0.0,0.659700748261,0.258240718827,0.303524810018,1.0,-0.00914,-0.0120125714286,0.458
0.4634397427,0.535581400817,-0.123999273588,-1.3745539243,0.0783841626703,1.90098739008,0.15683800481,-0.00547690167077,-0.0479958684737,0.000874746739425,-0.0766376487429,6.3864204149e-05,0.0219331597006,-0.00910678106126,0.573993960526,0.818844648866,0.0022630077235,0.0,0.81880529151,-0.573933836488,-0.0117725456457,0.0,-0.00834122989531,0.00861049857818,-0.999928139017,0.0,0.659535039498,0.258015085522,0.30352691848,1.0,-0.0095,-0.0124857142857,0.476
0.463318053702,0.534679778235,-0.124000171978,-1.37598934713,0.0783154858831,1.9015197798,0.156664848384,-0.00486793052827,-0.053732685782,-0.0011928583002,-0.0887166699839,-0.000502722530867,0.034692210704,-0.013278364854,0.574009670479,0.81883362524,0.00226699664014,0.0,0.81879414883,-0.573949352803,-0.0117910627227,0.0,-0.00835393821947,0.00862455366182,-0.999927911797,0.0,0.659373781326,0.257815367588,0.303525636301,1.0,-0.00982,-0.0129062857143,0.492
0.463192979028,0.533764169987,-0.124005669013,-1.3774630775,0.0782145793687,1.90204884133,0.156484272659,-0.0108673629639,-0.0582592027054,-0.000779330606273,-0.0895138620399,-0.00491436612897,0.0285539266778,-0.0115569502808,0.574021617968,0.818825341353,0.00223368836709,0.0,0.818785520676,-0.573961518408,-0.011798026057,0.0,-0.00837863286127,0.00860139930236,-0.999927904622,0.0,0.659199783475,0.257586392116,0.3035160291,1.0,-0.01016,-0.0133531428571,0.509
0.46307032851,0.532839644919,-0.124001651833,-1.3789468036,0.0781466290168,1.90261739825,0.156290655126,-0.00560308416812,-0.0555599236912,0.000342250250754,-0.0860599103673,-0.00564477977842,0.0306544800072,-0.0135859913424,0.574023762258,0.818823786241,0.00225263164613,0.0,0.818784006058,-0.573963377599,-0.0118126838522,0.0,-0.00837973978535,0.00862534605521,-0.999927689069,0.0,0.659026582549,0.257371471014,0.303510947836,1.0,-0.0105,-0.0138,0.526
0.462949444322,0.531932743573,-0.1240030789,-1.38040516308,0.0780589304436,1.90316541849,0.156094396869,-0.00709656179172,-0.056363019494,0.00197563610329,-0.0868964556595,-0.00330108638396,0.0446201837063,-0.00822617573688,0.574019166037,0.818827020651,0.00224814936691,0.0,0.818787174013,-0.573958790922,-0.0118159593899,0.0,-0.00838504316899,0.00862350905107,-0.999927660455,0.0,0.658856229646,0.257152781084,0.303503684819,1.0,-0.01082,-0.0142205714286,0.542
0.46281510849,0.530920753059,-0.12400550048,-1.38202235539,0.0779517782128,1.90373930193,0.155890634411,-0.00643039678361,-0.0575625894739,-2.7058926365e-05,-0.0936744826679,-0.000628933577967,0.0345886492278,-0.0123699591778,0.574023136112,0.818824326265,0.00221558724395,0.0,0.818784092803,-0.573962924966,-0.0118286532312,0.0,-0.00841408607482,0.00860417387232,-0.999927583052,0.0,0.658661110187,0.256905831521,0.303496934257,1.0,-0.01116,-0.0146674285714,0.559
0.46267820958,0.529897857989,-0.124011590889,-1.38366585378,0.0778536090071,1.90432148882,0.155677706639,-0.00506236236734,-0.0595412347301,-0.00130588856349,-0.09288391316,-0.0110295659763,0.0301924879572,-0.0129436851218,0.574027980429,0.818821020576,0.00218193691719,0.0,0.818780305693,-0.573967856598,-0.0118514768603,0.0,-0.00845203945041,0.00858977168298,-0.999927386789,0.0,0.658462329971,0.256654118673,0.303485977564,1.0,-0.0115,-0.0151142857143,0.576
0.462549400856,0.52891133257,-0.124007116987,-1.38523596799,0.0777510674676,1.90490007028,0.155463543695,-0.00742974999921,-0.0609710439038,0.000607209713614,-0.106243505331,-0.0101461998216,0.0307113040173,-0.0124585854824,0.574012488092,0.818831902607,0.00217386472091,0.0,0.8187910993,-0.573952415035,-0.0118536021155,0.0,-0.00845857552027,0.00858422200063,-0.99992737918,0.0,0.658274331876,0.256421182712,0.303483433902,1.0,-0.01182,-0.0155348571429,0.592
0.462408877791,0.527808970531,-0.124004588619,-1.38694864163,0.0776385006083,1.90556385545,0.155219584213,-0.00960714986804,-0.0635400601707,-0.000798256549299,-0.104481568797,-0.0130478164394,0.0328403641988,-0.0109376978812,0.573998723878,0.818841424029,0.00222130190521,0.0,0.818801340385,-0.573938570711,-0.0118164688108,0.0,-0.00840108505436,0.00860160860316,-0.999927714437,0.0,0.658066010673,0.256151211406,0.303508910967,1.0,-0.01218,-0.016008,0.61
0.46225309013,0.526584819991,-0.124014435043,-1.38881570719,0.0775305769981,1.90627630106,0.154977749081,-0.00994267565103,-0.0645508469358,-0.000792587032459,-0.101933805451,-0.0090449919984,0.0399531084881,-0.0156221154386,0.573996924176,0.818842544398,0.00227275646583,0.0,0.818803120698,-0.573936563098,-0.0117905884242,0.0,-0.00835037816111,0.00862886770895,-0.999927904314,0.0,0.65786150208,0.255885275187,0.30353672182,1.0,-0.01252,-0.0164548571429,0.627
0.462115574404,0.525543725799,-0.124010207145,-1.39043790135,0.077429542837,1.90685818,0.154752905656,-0.0130109824823,-0.0680375817259,0.00133982524021,-0.10950100607,-0.00471187349337,0.0358319918605,-0.0242469443146,0.573983851862,0.818851728426,0.00226529366981,0.0,0.818812181523,-0.573923494032,-0.0117975119851,0.0,-0.00836046878708,0.0086265975119,-0.999927839585,0.0,0.657650835639,0.255625084249,0.303542545615,1.0,-0.01284,-0.0168754285714,0.643
0.461955838723,0.524295439439,-0.124021160487,-1.39241044641,0.0773010903555,1.90756827805,0.154488429581,-0.00813002770953,-0.0674475184279,-0.00116050641234,-0.11332255372,-0.0111964939714,0.0417763936394,-0.0136644212352,0.573975721779,0.818857458426,0.00225399403637,0.0,0.818817816038,-0.573915461467,-0.0117972085546,0.0,-0.00836679127272,0.008617087675,-0.9999278687,0.0,0.657425695644,0.255339855223,0.303548216524,1.0,-0.01318,-0.0173222857143,0.66
0.461796220103,0.523123147968,-0.124019531641,-1.3943183483,0.0771879412876,1.90827470315,0.154232395994,-0.00697383784276,-0.0630569798793,0.00201174988307,-0.112034860234,-0.00129599797203,0.0450389020947,-0.0154643707292,0.573967534541,0.818863265052,0.00222920203941,0.0,0.818823234346,-0.573907303477,-0.0118179867508,0.0,-0.00839812157563,0.00860862888531,-0.999927678916,0.0,0.657195307566,0.255054460853,0.303525445667,1.0,-0.01352,-0.0177691428571,0.677
0.461643204431,0.521949529456,-0.124030760095,-1.39614234074,0.0770756596314,1.90899159163,0.153976819003,-0.00844684763224,-0.0783554231556,-0.00128523943129,-0.115368428984,-0.00725225995966,0.0517285855234,-0.0137455130043,0.573959065069,0.818869060696,0.00228034229497,0.0,0.818829792778,-0.573898738807,-0.0117794293522,0.0,-0.00833728520061,0.00862828858817,-0.999928018565,0.0,0.656987397576,0.25477675434,0.303544513397,1.0,-0.01384,-0.0181897142857,0.693
0.461479159294,0.520709783352,-0.124031398321,-1.39816448671,0.0769555121231,1.90975369007,0.153709621353,-0.00578811062888,-0.0693229189768,-0.000437388986702,-0.118552541817,-0.00630132295924,0.0413151648723,-0.0174740121526,0.573950762771,0.818874931261,0.00226180646558,0.0,0.818835382099,-0.573890466901,-0.0117938934759,0.0,-0.0083598554939,0.00862132730525,-0.999927890166,0.0,0.656743730161,0.254477173185,0.303519033841,1.0,-0.01418,-0.0186365714286,0.71
0.461298846645,0.519388577939,-0.124040021607,-1.40020391247,0.0768177014894,1.91048943888,0.153433078883,-0.0130030898227,-0.0742456403495,-0.0002403638077,-0.122730931474,-0.00738194835556,0.043374863052,-0.0233299179096,0.573949170468,0.818876030473,0.00226789270468,0.0,0.818836666472,-0.57388896092,-0.0117779912347,0.0,-0.00834335675695,0.00861716790836,-0.99992806382,0.0,0.656499061588,0.254156733214,0.303540037809,1.0,-0.01452,-0.0190834285714,0.727
0.461119118849,0.517964485454,-0.124044259323,-1.40243610166,0.0766644246789,1.9112835935,0.153129440125,-0.0119750191631,-0.0757296874214,0.00017082945412,-0.125442630923,-0.0106075492748,0.0431142915066,-0.0127229607866,0.573927447903,0.81889131512,0.00224621141364,0.0,0.818851760784,-0.573867418273,-0.0117782429492,0.0,-0.00835623419706,0.00859933665167,-0.999928109795,0.0,0.65622209943,0.25381924823,0.303546025545,1.0,-0.01488,-0.0195565714286,0.745
0.460946997444,0.516694301543,-0.124050336549,-1.40443374866,0.0765373640267,1.91200878682,0.152856741719,-0.00993870990297,-0.0731870876915,-0.000168042926434,-0.121853214279,-0.00965598848143,0.0468434332307,-0.0183095257675,0.573920681966,0.818896074455,0.0022398562396,0.0,0.818856460361,-0.573860701023,-0.0117787965041,0.0,-0.00836040571088,0.00859438114292,-0.999928117531,0.0,0.655979119612,0.2535110747,0.303549351692,1.0,-0.0152,-0.0199771428571,0.761
0.460739530246,0.51514924362,-0.12405622019,-1.40686664348,0.0764036529504,1.91293283568,0.152520111664,-0.0121494114196,-0.0847910160367,0.000302129243872,-0.130744454129,-0.00512268563628,0.0454268652135,-0.015456371291,0.573911660673,0.81890229858,0.00227552757948,0.0,0.818863039054,-0.573851432073,-0.0117730233887,0.0,-0.00833530163445,0.00862018679867,-0.999928104979,0.0,0.65568835187,0.253144190265,0.303555138496,1.0,-0.01558,-0.0204765714286,0.78
0.460606442939,0.514093233627,-0.12406023304,-1.40859581093,0.0762955520835,1.91354620375,0.152281689331,-0.00889636419101,-0.0803233241809,0.000237091154592,-0.136123055127,-0.00773923989162,0.0461534482498,-0.0162682061874,0.573892754804,0.818915705071,0.00221830393821,0.0,0.818875645844,-0.573832691344,-0.0118095677283,0.0,-0.00839826685637,0.00859410588987,-0.999927802623,0.0,0.655453202948,0.25286220014,0.303523166068,1.0,-0.01586,-0.0208445714286,0.794
0.460396645533,0.512605999533,-0.124064150102,-1.41100006011,0.0761498467358,1.9143802885,0.151943345421,-0.0115544997855,-0.0828892883027,6.25773019327e-05,-0.136407307366,-0.00661100466704,0.0509952444196,-0.0205382112773,0.573873974833,0.818929043657,0.002151595956,0.0,0.818888020279,-0.57381407803,-0.0118558423809,0.0,-0.00847464077603,0.00856584046393,-0.999927400785,0.0,0.655163885218,0.252515033942,0.303495808447,1.0,-0.0162,-0.0212914285714,0.811
0.460192753343,0.511166608612,-0.124069925213,-1.41329950162,0.0760118114005,1.91524929978,0.151621745455,-0.0100978713168,-0.0883548022007,-0.000141613432755,-0.140314226865,-0.00717573920327,0.051242541778,-0.0188057301079,0.573864878279,0.818935403401,0.00215718261105,0.0,0.818894438892,-0.573804946398,-0.0118544651181,0.0,-0.00847040220256,0.00856953101593,-0.999927405077,0.0,0.654887704211,0.252160801749,0.3034849383,1.0,-0.01654,-0.0217382857143,0.828
0.460004158415,0.509792665152,-0.12406998352,-1.41550997277,0.0758729794241,1.91608227379,0.151308560446,-0.0126094570889,-0.0850928322517,0.00289060984922,-0.143225829472,-0.0161143009302,0.0587367081943,-0.0204948858896,0.573840761881,0.818952321088,0.00215004389316,0.0,0.818911271518,-0.573780869318,-0.0118570774696,0.0,-0.00847689026734,0.00856493444871,-0.999927389478,0.0,0.654617822097,0.251827136782,0.303466841329,1.0,-0.01686,-0.0221588571429,0.844
0.459805642469,0.508299225297,-0.12407621648,-1.41788773544,0.0757223807578,1.91692247214,0.150981042786,-0.011719158479,-0.0869923999977,7.85253898396e-05,-0.144954602175,-0.0129621429901,0.0453478776581,-0.0219210745335,0.573822169231,0.818965455785,0.00210884602665,0.0,0.818923839556,-0.573762413506,-0.0118821191422,0.0,-0.00852123259314,0.00854537219131,-0.999927179953,0.0,0.654316180499,0.251463828667,0.303453073923,1.0,-0.0172,-0.0226057142857,0.861
0.459574931685,0.506668022651,-0.12408762278,-1.42043157512,0.0755626753426,1.91784754265,0.150634278869,-0.0123285104609,-0.0883143295578,-0.00250451024029,-0.141869619621,-0.00653314049542,0.0558275671944,-0.0179173655664,0.573823711166,0.818964359663,0.00211494844345,0.0,0.818922842479,-0.573763950325,-0.0118766272493,0.0,-0.00851321716236,0.00854723447611,-0.999927232311,0.0,0.654004110979,0.251062880084,0.303463547192,1.0,-0.01756,-0.0230788571429,0.879
0.459365175991,0.505154825865,-0.124091151993,-1.42274262442,0.0754224513817,1.91872733669,0.150310154781,-0.0145948986049,-0.0978699443443,-0.000555441855101,-0.14397969995,-4.93803483618e-05,0.0601650884697,-0.0174535180928,0.573814088592,0.818970920344,0.00218409385316,0.0,0.818930304954,-0.573754055409,-0.0118400351371,0.0,-0.00844367433442,0.00858276486114,-0.999927517629,0.0,0.653726562898,0.250706399178,0.303497546769,1.0,-0.01788,-0.0234994285714,0.895
0.459141172433,0.50349906102,-0.12409540386,-1.42520951906,0.0752654461552,1.91967480487,0.149969499737,-0.0117886902426,-0.0970183050205,-0.000297444160625,-0.143986199614,-0.0118281502207,0.0547086529332,-0.0192188630207,0.573806069737,0.81897623265,0.00229599423461,0.0,0.818937159,-0.5737456934,-0.0117709734431,0.0,-0.00832299092423,0.0086346972486,-0.999928082327,0.0,0.653432537804,0.250325534211,0.303562220522,1.0,-0.01822,-0.0239462857143,0.912
0.458909616063,0.501807762644,-0.124097493378,-1.42771356367,0.0750973658153,1.92060245461,0.149603534894,-0.0120680028223,-0.0980029370153,0.000716390774356,-0.147277554957,-0.0116724255126,0.0530294699831,-0.0242895419494,0.573780025003,0.818994218553,0.00238742234867,0.0,0.818956434927,-0.573719417387,-0.0117104528333,0.0,-0.00822124089255,0.00867458582748,-0.999928578829,0.0,0.653127458742,0.249934097716,0.30363155103,1.0,-0.01856,-0.0243931428571,0.929
0.458684099272,0.500192234018,-0.124099297798,-1.43014658819,0.0749423917696,1.92145928589,0.14927496438,-0.0171296208914,-0.0990531612863,0.000371133306213,-0.154156479406,-0.00451880623949,0.056109706509,-0.0140482975926,0.573778800919,0.818994979113,0.00242047599104,0.0,0.818957584287,-0.573718029856,-0.0116980450912,0.0,-0.00819212720206,0.0086945248525,-0.999928644599,0.0,0.652819972699,0.249551669577,0.303675072582,1.0,-0.01888,-0.0248137142857,0.945
0.458437780489,0.498518626865,-0.124101706472,-1.43275581782,0.0747758541849,1.92243600197,0.14889159304,-0.0155339261747,-0.0975134299552,-0.000182530408915,-0.147930814837,-0.0062052637962,0.0579103561077,-0.0280925204465,0.573756019636,0.819010848474,0.00245090082937,0.0,0.818973877849,-0.573695172387,-0.011678333818,0.0,-0.00815876919679,0.00870790573799,-0.999928800897,0.0,0.652500334317,0.249141472201,0.303685143519,1.0,-0.01922,-0.0252605714286,0.962
0.458173947196,0.4968457143,-0.124101789607,-1.43542231644,0.0746130334066,1.92339888574,0.14849856572,-0.0208624598219,-0.0945326196971,-0.000534648187785,-0.159660185045,-0.0104393803988,0.0577107095882,-0.0207548264909,0.573741373656,0.819021183974,0.00242554294332,0.0,0.81898378242,-0.573680511806,-0.0117039056891,0.0,-0.00819441774537,0.00870166279529,-0.99992856374,0.0,0.652166489436,0.248714248017,0.303665635809,1.0,-0.01956,-0.0257074285714,0.979
0.457932856489,0.495269514161,-0.124099242348,-1.43796842823,0.0744572895646,1.92426815692,0.148133784605,-0.0124281604452,-0.096677736923,0.000949507172262,-0.160208326401,-0.00636333822705,0.0516665525355,-0.020126019251,0.573724374694,0.819033332462,0.0023428829487,0.0,0.818994671079,-0.573663625708,-0.0117694597955,0.0,-0.00829571286879,0.00867140156296,-0.999927991379,0.0,0.651832683046,0.248311418816,0.303627263857,1.0,-0.01988,-0.026128,0.995
0.457627249141,0.493473029717,-0.124104496532,-1.44091589617,0.0742728600132,1.9253406461,0.147718606501,-0.0115622375669,-0.0981139499583,0.00043377697403,-0.164459950976,-0.00909376978869,0.0587347565312,-0.0240974203063,0.573736844705,0.819024798096,0.00227157061089,0.0,0.818985155158,-0.573676310116,-0.0118132867713,0.0,-0.00837238976096,0.00863826680039,-0.9999276391,0.0,0.651465984082,0.2478265094,0.303568589485,1.0,-0.0215228571429,-0.0282871836735,1.013
0.45734340062,0.491540575014,-0.124126986622,-1.44397446308,0.0740824539648,1.9264659431,0.147288046539,-0.0202610969189,-0.117874163535,0.00105551447039,-0.183493452848,-0.00517185778798,0.0718580788594,-0.025357867716,0.573734595102,0.819026394511,0.00226415068218,0.0,0.818986693617,-0.573674129237,-0.0118125366905,0.0,-0.00837605592959,0.00863173642395,-0.99992766479,0.0,0.65108364944,0.247337046778,0.303555870694,1.0,-0.0237085714286,-0.0311598367347,1.03
0.456966556838,0.489206216389,-0.124144438155,-1.44774252816,0.0738588858391,1.92778402764,0.146749155573,-0.0214339424275,-0.127580088864,9.20417823022e-05,-0.203376226045,-0.00854028106606,0.0706778024915,-0.0266293927955,0.573741656159,0.819021707459,0.00216831731641,0.0,0.818980548512,-0.573681351692,-0.0118875893855,0.0,-0.00849243405282,0.00859638043391,-0.999926987738,0.0,0.650599299664,0.246719277814,0.303500676733,1.0,-0.0261514285714,-0.0343704489796,1.049
0.456662955357,0.487291337997,-0.124162508381,-1.45071848168,0.073668923027,1.92891526546,0.146324798311,-0.0217629244916,-0.138137795137,-0.000623972597166,-0.212259139536,-0.0103938050169,0.0853539735786,-0.0318495228563,0.573752113202,0.819014245545,0.00221925488467,0.0,0.818973867023,-0.573691724336,-0.0118472555319,0.0,-0.00843006519456,0.00861506551857,-0.999927354685,0.0,0.650238098678,0.246229913194,0.303513470196,1.0,-0.0279514285714,-0.0367361632653,1.063
0.456253317651,0.484802129075,-0.124182474113,-1.45452847769,0.0734380913279,1.93034639336,0.145733064971,-0.031260305326,-0.14509049672,-0.0021688577643,-0.232771669696,-0.011889289505,0.0853854625783,-0.0366173808225,0.573743184108,0.819020244085,0.00231200544132,0.0,0.81898107446,-0.573682438799,-0.0117985588876,0.0,-0.00833706217415,0.0086629982341,-0.999927720316,0.0,0.649774729079,0.245593225128,0.303553091376,1.0,-0.0301371428571,-0.0396088163265,1.08
0.455835264175,0.482295841288,-0.124212100932,-1.45842136234,0.0731892952102,1.93167350798,0.145152898216,-0.0275009895871,-0.161228352256,-0.00243526814794,-0.248612688041,-0.0172968861768,0.0911308351244,-0.0376497178951,0.573754667649,0.819012354062,0.00225657836472,0.0,0.818972405626,-0.573694075253,-0.0118344304841,0.0,-0.00839812082146,0.00863830145515,-0.999927423024,0.0,0.649273140348,0.244926571213,0.303554985279,1.0,-0.0321942857143,-0.0423124897959,1.096
0.455371235227,0.479450290901,-0.124240538834,-1.46286128377,0.0729205421476,1.93328403915,0.144497167592,-0.0263937328154,-0.177986978008,-0.000479436895566,-0.265525068751,-0.020999817405,0.103203905675,-0.0437315384068,0.573756235649,0.819011167802,0.00228822444118,0.0,0.818971556981,-0.57369544358,-0.0118268242843,0.0,-0.00837371845268,0.0086598716437,-0.999927441099,0.0,0.648680298514,0.244141342159,0.303568376066,1.0,-0.0345085714286,-0.045354122449,1.114
0.454825236488,0.476234931134,-0.124270088373,-1.4677574692,0.0726161132108,1.93509582808,0.143787356944,-0.0288804080278,-0.182632740207,-0.0021702000787,-0.277530870676,-0.0198643143216,0.105589946246,-0.0433955524354,0.573804021301,0.818977438565,0.00237637551817,0.0,0.818939001245,-0.573742914578,-0.0117782474791,0.0,-0.00828284980585,0.0087046799529,-0.999927808867,0.0,0.648106209859,0.243352082187,0.303608632791,1.0,-0.0366942857143,-0.0482267755102,1.131
0.454317146502,0.473227900415,-0.124285955361,-1.4723977915,0.0723319146438,1.93676254324,0.143112231864,-0.0376974249766,-0.19087171634,-0.00431302152106,-0.294309109322,-0.0123064108595,0.0997438052568,-0.0443770428469,0.573824725365,0.818962841572,0.00240740244927,0.0,0.818924660188,-0.57376334396,-0.0117801937612,0.0,-0.00826642083159,0.00873141578927,-0.99992771172,0.0,0.647511978774,0.242571792305,0.303625001072,1.0,-0.0387514285714,-0.0509304489796,1.147
0.453755388729,0.469834791206,-0.124296772464,-1.4775696513,0.0720118821526,1.93860352752,0.142331224819,-0.0321478230501,-0.199342328232,-0.00121039405385,-0.300241063195,-0.0234386581718,0.114230875785,-0.0476120394274,0.573812689449,0.818971101905,0.00246547641081,0.0,0.818933486098,-0.573750891379,-0.0117731427533,0.0,-0.00822745280911,0.00877480884078,-0.999927653258,0.0,0.646840477864,0.241708694806,0.303667707133,1.0,-0.0409371428571,-0.0538031020408,1.164
0.453165034432,0.466249948078,-0.124294944759,-1.48293128884,0.0716645906847,1.9406390724,0.141448825863,-0.0373452252944,-0.216754559173,-0.000233618359074,-0.319832089893,-0.022250419351,0.118033533544,-0.0562668949417,0.573731586538,0.81902724194,0.00268150505677,0.0,0.818992517363,-0.573669115899,-0.0116511316527,0.0,-0.00800445169827,0.00888092581017,-0.999928526401,0.0,0.64616642853,0.240823832541,0.303765888545,1.0,-0.0431228571429,-0.056675755102,1.181
0.452601925246,0.462997476735,-0.124301298145,-1.48801771193,0.0713191056298,1.94236205246,0.140699236226,-0.0427803385003,-0.221212739536,0.000674583949732,-0.345276331124,-0.0197579082284,0.112466002688,-0.0543306943264,0.573720001469,0.819035661687,0.00258683208674,0.0,0.818999591452,-0.573657737801,-0.0117139217808,0.0,-0.00811031958254,0.00883929582732,-0.999928042194,0.0,0.645434475877,0.239905554168,0.30374198571,1.0,-0.04518,-0.0593794285714,1.197
0.451896389806,0.458944715018,-0.12431382211,-1.49432128062,0.0708870643157,1.94456026644,0.139759475742,-0.0399177683709,-0.227429800612,-0.000217734288359,-0.355435054883,-0.028425197498,0.120761850623,-0.0553775306983,0.573718344438,0.819037033853,0.00251899463845,0.0,0.819000078582,-0.573656323038,-0.0117490945362,0.0,-0.00817806379039,0.00880389737508,-0.999927802726,0.0,0.644639070783,0.238887785294,0.303717624158,1.0,-0.0473657142857,-0.0622520816326,1.214
0.451169534079,0.455001348185,-0.124335184919,-1.50054257165,0.0704784235378,1.94677765206,0.138791527463,-0.0460341746768,-0.237786667464,-0.00436313395465,-0.36627594778,-0.0236081451663,0.120614463526,-0.0522229222951,0.573711265915,0.819042178278,0.00245773581196,0.0,0.819004353187,-0.573649393832,-0.0117893730912,0.0,-0.00824627392473,0.00877676146931,-0.999927481083,0.0,0.643818716216,0.237810335303,0.303660939147,1.0,-0.0495514285714,-0.0651247346939,1.231
0.4504034004,0.450764467653,-0.124385542424,-1.50690996377,0.0700329856414,1.94912380919,0.137768593782,-0.0459768749324,-0.251259677493,-0.00252955108907,-0.381734958234,-0.020754123899,0.146340564951,-0.0582596826888,0.573705484416,0.819045752177,0.00261149250512,0.0,0.819010361263,-0.573643527834,-0.0116566727393,0.0,-0.00804943749472,0.00882650643823,-0.999928647124,0.0,0.64300548591,0.236680978171,0.303743605708,1.0,-0.0517371428571,-0.0679973877551,1.248
0.449608114443,0.446368555307,-0.124431263505,-1.51359446166,0.0695886452794,1.95140316193,0.136794768334,-0.0525543029656,-0.266338289393,-0.00229084150083,-0.391798459436,-0.0297361759192,0.13130401774,-0.0567113668265,0.573771555498,0.818999520441,0.00259509513984,0.0,0.818963839937,-0.573709564159,-0.0116752630999,0.0,-0.00807335941543,0.00882439284733,-0.999928472921,0.0,0.642100753542,0.235498023905,0.303774247515,1.0,-0.0539228571429,-0.0708700408163,1.265
0.448777444438,0.441891151274,-0.124446388779,-1.52055561774,0.0691100146927,1.95376951795,0.135703234667,-0.0386303046247,-0.267456564075,-0.00124877043052,-0.415433845489,-0.0296372625681,0.144369839665,-0.0687363304309,0.573746696269,0.819017279156,0.00248432386127,0.0,0.818980012823,-0.573684948423,-0.0117501255496,0.0,-0.00819849449754,0.008776376275,-0.999927877353,0.0,0.641140227966,0.234281133329,0.303731407553,1.0,-0.0561085714286,-0.0737426938775,1.282
0.447997157362,0.437840281858,-0.124446568378,-1.52683855506,0.0686954840916,1.95598246327,0.134667583269,-0.0539644679578,-0.275864401244,0.00152187909297,-0.424531527068,-0.0279872619489,0.155795159475,-0.0667663163518,0.573696248499,0.819052662207,0.00246939087408,0.0,0.819014975439,-0.573634320608,-0.0117848686121,0.0,-0.00823605922377,0.00878357212887,-0.999927505467,0.0,0.640226296761,0.233106144519,0.303700506905,1.0,-0.0581657142857,-0.0764463673469,1.298
0.447003188851,0.432716364547,-0.124471556832,-1.53445989151,0.0681724633062,1.95879479725,0.133434805572,-0.05568783478,-0.29026362469,-0.00305851273059,-0.42915811769,-0.0213450061607,0.160189708108,-0.0759426213904,0.573711317356,0.819041321824,0.00271742208134,0.0,0.819007120264,-0.573648789397,-0.0116254153224,0.0,-0.00796300295763,0.00889539163664,-0.999928728756,0.0,0.639286670879,0.231809690619,0.303814165141,1.0,-0.0603514285714,-0.0793190204082,1.315
0.44601798552,0.427826689436,-0.124520634649,-1.54209666627,0.0676056328344,1.96131464068,0.132218837152,-0.0556489908984,-0.294718916549,-0.0019555664518,-0.453871166227,-0.0301364640901,0.143617687991,-0.0755847711514,0.573727523993,0.81903069509,0.0024890991606,0.0,0.818993652546,-0.573665934332,-0.0117277354197,0.0,-0.00817762134156,0.0087672498142,-0.999928128337,0.0,0.638214084008,0.23040273926,0.303730081985,1.0,-0.0625371428571,-0.0821916734694,1.332
0.444989203248,0.422708917795,-0.124586292034,-1.54993872587,0.0670388355371,1.96391831404,0.130905753033,-0.0614194194668,-0.297171579537,-0.00298389717232,-0.472785463596,-0.0262780881828,0.157461104237,-0.07851067794,0.573716761975,0.819038618309,0.00235916240675,0.0,0.818999978309,-0.573655753339,-0.0117838488199,0.0,-0.008298239935,0.00869291291406,-0.999927783632,0.0,0.637113845116,0.228945113729,0.303704767498,1.0,-0.0647228571429,-0.0850643265306,1.349
0.443978616489,0.417758813304,-0.124621168266,-1.55737070085,0.0665212715489,1.96656113812,0.129733901825,-0.0655352339443,-0.315238936485,-0.00170203359121,-0.459933368082,-0.0359742064705,0.175435281385,-0.0777305067335,0.57377755568,0.818995677144,0.0024787736988,0.0,0.818958712793,-0.573716224815,-0.0117075627619,0.0,-0.00816648783341,0.00874771848284,-0.999928390385,0.0,0.636100078403,0.227574824106,0.303756631042,1.0,-0.06678,-0.087768,1.365
0.442790779651,0.412037745943,-0.124639064885,-1.56592000779,0.0659408819237,1.96964931956,0.128263263826,-0.0655104095213,-0.321748231932,-0.000830700473289,-0.488739398124,-0.0363397436278,0.169923379909,-0.0872397160629,0.573750946689,0.819013642404,0.00269288508459,0.0,0.818979446775,-0.573688858597,-0.0115976800983,0.0,-0.00795393318806,0.00885976805057,-0.999929117216,0.0,0.63493214249,0.22600413808,0.303830432295,1.0,-0.0690942857143,-0.0908096326531,1.383
0.441745933593,0.407183424467,-0.124674775947,-1.57338042926,0.0653969279771,1.97202433193,0.12705638667,-0.0703747256261,-0.327844797306,-0.00630452737479,-0.49222570766,-0.033473935879,0.165273735211,-0.0830720934539,0.573793749248,0.818984322876,0.00248175498382,0.0,0.818947176139,-0.573732168683,-0.0117332098493,0.0,-0.00818560985293,0.00876503746013,-0.999928082369,0.0,0.633841862525,0.22459182714,0.303768572804,1.0,-0.0710228571429,-0.0933443265306,1.398
0.440462684359,0.401232889562,-0.124715659815,-1.58247246992,0.0647769150377,1.97511209183,0.125522781266,-0.0729275340574,-0.341422858688,-0.000510622797806,-0.500091838586,-0.0367204589695,0.176109948673,-0.0934054286321,0.573809861451,0.818973176666,0.00243427702028,0.0,0.818935081854,-0.573748102607,-0.0117980237483,0.0,-0.00826576230742,0.00876350594789,-0.999927436436,0.0,0.632538882943,0.222888427555,0.303725310006,1.0,-0.0733371428571,-0.0963859591837,1.416
0.439178404999,0.395334254316,-0.124739838736,-1.59107662785,0.0641260597206,1.97819607868,0.124047884232,-0.0761911778662,-0.342336846251,-0.00131247674762,-0.516328186997,-0.0411079405926,0.182659995808,-0.091951214812,0.573825578551,0.818961272244,0.00271787887718,0.0,0.818927381198,-0.573763375129,-0.0115879500824,0.0,-0.00793081567718,0.00887537847008,-0.999929162401,0.0,0.631347118048,0.221248098309,0.303867937661,1.0,-0.0755228571429,-0.0992586122449,1.433
0.437936928564,0.389762771569,-0.124761072958,-1.59953555412,0.0634986114376,1.98093441154,0.122634092993,-0.0731260968868,-0.349879277733,-0.00559574086005,-0.529564587031,-0.0412718642768,0.175476540721,-0.0877270841235,0.573848393312,0.818945745401,0.00257574919494,0.0,0.818909804311,-0.573786450503,-0.0116871092874,0.0,-0.00809333426076,0.00881610489355,-0.999928384553,0.0,0.630091142418,0.219635159065,0.303823054837,1.0,-0.07758,-0.101962285714,1.449
0.436594336514,0.383709894925,-0.124775683552,-1.60867965785,0.0628190825733,1.98392581442,0.120976463453,-0.0795554297881,-0.36069051322,-0.000347159951989,-0.541343009931,-0.0379040957945,0.183849664741,-0.0926986519518,0.573748526855,0.819015920529,0.00250933330166,0.0,0.818978933067,-0.573686637468,-0.0117429163883,0.0,-0.00817822194745,0.00879274137638,-0.999927899593,0.0,0.628650237977,0.217801870534,0.303806764388,1.0,-0.0798942857143,-0.105003918367,1.467
0.435195211931,0.37747385636,-0.124769365176,-1.6178344516,0.062173517441,1.98711371096,0.119373585532,-0.0844293297851,-0.3570581914,0.00159184677122,-0.550035904855,-0.0387437415079,0.182534427319,-0.0963940126044,0.573741685518,0.819020084901,0.00270660841157,0.0,0.818985436567,-0.573678849163,-0.011669602216,0.0,-0.00800506872142,0.00891218170342,-0.999928243372,0.0,0.627390198535,0.21616942354,0.303877090448,1.0,-0.0819514285714,-0.107707591837,1.483
0.43378731117,0.371545652829,-0.124811477766,-1.62679483589,0.0614634630819,1.99000109127,0.117779880006,-0.0870214527543,-0.369289546396,-0.00398876122332,-0.569411518068,-0.0381052193511,0.17972886941,-0.0915842704314,0.573743153606,0.819019572954,0.00254552753812,0.0,0.818982935052,-0.573681002552,-0.0117390930149,0.0,-0.00815438315501,0.00882013767628,-0.999927853001,0.0,0.626039619146,0.2143970683,0.303819862277,1.0,-0.0840085714286,-0.110411265306,1.499
0.432172556967,0.364638442053,-0.124873692518,-1.63689843533,0.0606861369796,1.99335085699,0.116019730388,-0.0899102075284,-0.394267480255,-0.000163509364561,-0.554372168002,-0.0476236710453,0.196102620266,-0.103919149078,0.573808663575,0.818973371312,0.00264226954349,0.0,0.818938206172,-0.57374639546,-0.0116634073246,0.0,-0.00803618211264,0.00885659016665,-0.999928487737,0.0,0.624531488162,0.212390471786,0.303899471039,1.0,-0.0863228571428,-0.113452897959,1.517
0.430569181899,0.358077455977,-0.124887597357,-1.64660627407,0.0599432788717,1.99660704071,0.114169663375,-0.0916486157338,-0.384979067304,-0.000600992746577,-0.578959237784,-0.0416512813457,0.180881113225,-0.107894586452,0.573742847288,0.819019248445,0.00271344139006,0.0,0.818985016309,-0.573680352419,-0.011625111199,0.0,-0.0079646951694,0.00889226344405,-0.999928743102,0.0,0.62307168787,0.210465168622,0.303917221246,1.0,-0.0885085714286,-0.11632555102,1.534
0.42899427906,0.351829140509,-0.124931485263,-1.6560528279,0.0592220213135,1.99954636283,0.112462987101,-0.100547209864,-0.387753811948,-0.00717542524508,-0.596098700435,-0.0403106638,0.182910362341,-0.113568868844,0.573782781176,0.818992005877,0.00248218383385,0.0,0.818954357782,-0.573720658156,-0.0117946248923,0.0,-0.00823578192064,0.00880051737842,-0.999927358757,0.0,0.621593442146,0.208555485198,0.303816116646,1.0,-0.0905657142857,-0.11902922449,1.55
0.427257741637,0.344944362514,-0.124986521837,-1.66598086204,0.0584920215612,2.00292439771,0.1105532393,-0.102027981503,-0.407890015988,0.000166091260347,-0.589281974909,-0.048737823437,0.196649639164,-0.100278772752,0.573806189068,0.818974727193,0.00275690160649,0.0,0.818940672251,-0.57374310441,-0.011652140396,0.0,-0.00796120849372,0.00894398132943,-0.999928309609,0.0,0.620106237124,0.206524095305,0.303931305212,1.0,-0.0927514285714,-0.121901877551,1.567
0.425467754262,0.338021798825,-0.124995204283,-1.676189529,0.0576714185488,2.00615423791,0.108636468141,-0.102262426563,-0.405669342616,-0.0016398502297,-0.605778552957,-0.0446922788304,0.184849626797,-0.120590251113,0.573801463846,0.818978279192,0.00268425056434,0.0,0.818943152274,-0.573738489091,-0.0117049724497,0.0,-0.0080462152463,0.00891475058114,-0.999927890221,0.0,0.618498553728,0.204441708025,0.303913024834,1.0,-0.0949371428571,-0.124774530612,1.584
0.423756605968,0.331401209023,-0.124999682026,-1.68602675376,0.0568479218668,2.00916513879,0.106767209844,-0.101338088748,-0.406657094716,0.000708878818185,-0.604075771157,-0.0547941953473,0.195146754558,-0.122357727849,0.573744042065,0.819019161308,0.00247679352002,0.0,0.818981200317,-0.573681685122,-0.0118264358177,0.0,-0.00826534559792,0.00881396411536,-0.999926996385,0.0,0.616906880007,0.202441749079,0.303842532331,1.0,-0.0969942857143,-0.127478204082,1.6
0.421766447313,0.323727657795,-0.125000562523,-1.69695065496,0.055997437783,2.0128295062,0.104563085101,-0.113935065288,-0.418204167113,-0.001160067269,-0.622046737431,-0.0474162374229,0.208892599006,-0.122185075058,0.57366455071,0.819073808419,0.00279759210771,0.0,0.819040049862,-0.573601083668,-0.0116593497958,0.0,-0.00794531914828,0.0089800685357,-0.999928112552,0.0,0.615301610529,0.20033678066,0.303975572525,1.0,-0.09918,-0.130350857143,1.617
0.419784888387,0.316455235415,-0.125037609725,-1.70763367433,0.0551263065893,2.01610568857,0.102524664319,-0.11562524784,-0.430985946521,-0.00433997959986,-0.6391044069,-0.0555578660529,0.188191942885,-0.132020138346,0.573705293689,0.819045676273,0.0026763917897,0.0,0.819010143172,-0.5736420229,-0.0117457160552,0.0,-0.00808514281348,0.00893074344638,-0.999927433511,0.0,0.613469124395,0.197963101092,0.303936611301,1.0,-0.101494285714,-0.133392489796,1.635
0.41799162909,0.309854825109,-0.125100871868,-1.71704996762,0.054315884897,2.01909737359,0.10055142121,-0.116028214249,-0.450271457664,-0.00251676323496,-0.621985025571,-0.057418652905,0.208477482449,-0.12692564054,0.573639745852,0.8190912569,0.00277520258641,0.0,0.819057479968,-0.573576665609,-0.0116361539396,0.0,-0.0079394333687,0.00894818310572,-0.999928445148,0.0,0.611962757767,0.195947351568,0.30401299311,1.0,-0.103422857143,-0.135927183673,1.65
0.415859910403,0.302358239066,-0.125106293895,-1.7278934258,0.0534211477234,2.02248223313,0.0983119785721,-0.129335135166,-0.436340159559,-0.00404241539412,-0.642889523695,-0.0574371723091,0.193106444463,-0.131731616417,0.573616963259,0.819107255329,0.00276235944561,0.0,0.819073113663,-0.573553707098,-0.0116673240066,0.0,-0.00797258174059,0.00895532173587,-0.999928117493,0.0,0.610079667308,0.193489906679,0.304000836648,1.0,-0.105737142857,-0.138968816327,1.668
0.413497831352,0.294343424403,-0.125199949936,-1.73959086714,0.0524819829025,2.025944737,0.0959884454205,-0.126767578059,-0.452165085701,-0.00377556223148,-0.636860798409,-0.0446466495643,0.1903387593,-0.140346732312,0.573744683572,0.819018342697,0.00259601602537,0.0,0.818981464377,-0.573681373477,-0.0118232666388,0.0,-0.00819434397526,0.00890979692366,-0.999926731439,0.0,0.608241022718,0.1910554414,0.303937889022,1.0,-0.107922857143,-0.141841469388,1.685
0.411503654266,0.28744137092,-0.125265607395,-1.7492229888,0.0516602507072,2.02910795949,0.0939118417301,-0.136252775207,-0.453580419406,-0.00400330146433,-0.650301513682,-0.0618479457557,0.196793368789,-0.134056092085,0.573745098604,0.819016988668,0.00291221588724,0.0,0.818984776977,-0.573681304736,-0.0115949375639,0.0,-0.00782591771065,0.00903777307994,-0.999928534281,0.0,0.606584573963,0.188784722758,0.304076348252,1.0,-0.10998,-0.144545142857,1.701
0.409008582946,0.279205667486,-0.125296977426,-1.76124702549,0.0506049812047,2.03254591438,0.0913562646357,-0.142883839306,-0.458009544304,-0.0076094139373,-0.672799573758,-0.0573782796913,0.188760967423,-0.14289413254,0.57370100474,0.819048953104,0.00259161728316,0.0,0.819012196076,-0.573637910738,-0.0118032598891,0.0,-0.00818095524039,0.00889427946251,-0.999926979216,0.0,0.60462159321,0.186281067734,0.303955851073,1.0,-0.112165714286,-0.147417795918,1.718
0.406569144333,0.271194625883,-0.125384344695,-1.77242607359,0.0496315876168,2.03606193819,0.0889258357101,-0.14660507757,-0.469026787927,-0.00386018686608,-0.660008790223,-0.0570603632314,0.209808086775,-0.154216633491,0.573758251835,0.819008038135,0.00283704473465,0.0,0.818974993809,-0.573694868817,-0.0116148142188,0.0,-0.00788518001389,0.00898773723734,-0.999928519703,0.0,0.602774524025,0.183746037148,0.304074622187,1.0,-0.114351428571,-0.15029044898,1.735
0.40416907036,0.263634420153,-0.125461633199,-1.78318844368,0.0487085379719,2.03922681652,0.0866056933297,-0.154685985805,-0.474113985355,-0.00849580217295,-0.681388137981,-0.0591076833189,0.192799878359,-0.15043973064,0.573860455204,0.818936603388,0.00278648262224,0.0,0.818902676133,-0.573796973412,-0.0116699282771,0.0,-0.00795820935008,0.00897894130207,-0.999928020168,0.0,0.600931734814,0.181278926138,0.304058355334,1.0,-0.116408571429,-0.152994122449,1.751
0.401410176786,0.254992754492,-0.12557047097,-1.79535832368,0.0475962692134,2.04275786511,0.0839007936547,-0.163946482047,-0.49351497665,-0.00184340782872,-0.666616087476,-0.0542271539378,0.205881654236,-0.148610121816,0.573924880408,0.818891629452,0.00273455000246,0.0,0.818857257432,-0.5738618273,-0.0116679912377,0.0,-0.00798572024569,0.00893592863536,-0.999928186147,0.0,0.598827487859,0.178453243767,0.304075113574,1.0,-0.118722857143,-0.156035755102,1.769
0.398754509482,0.246767076946,-0.125556589631,-1.80695198653,0.0465624956412,2.04619270063,0.0812498587131,-0.160202414943,-0.488357582343,-0.000648166202592,-0.683043360713,-0.0585617901906,0.201239540724,-0.154794102054,0.573852829325,0.818942009129,0.00276818735619,0.0,0.818907905906,-0.573789480903,-0.0116713388473,0.0,-0.00796994634484,0.00896469392869,-0.999928054521,0.0,0.596793312938,0.175836275376,0.304072173653,1.0,-0.120908571429,-0.158908408163,1.786
0.396173310488,0.238944103808,-0.125572870767,-1.81800750223,0.0455934981255,2.049305919,0.0786891335331,-0.165682212544,-0.494769538682,-0.00566420233841,-0.692375605783,-0.0533826888978,0.194622544706,-0.162809467537,0.573814888279,0.818968926079,0.00266814686449,0.0,0.818932890061,-0.573751196852,-0.0117996859522,0.0,-0.00813288025865,0.0089560411308,-0.999926820115,0.0,0.594808496747,0.173302034805,0.304025872957,1.0,-0.122965714286,-0.161612081633,1.802
0.393397998021,0.23043533994,-0.125562852041,-1.829635608,0.044521194432,2.0528120756,0.0759972594836,-0.165310543997,-0.49047111213,0.000383176441683,-0.702437951652,-0.0655859875639,0.19243413383,-0.166807224731,0.573772647491,0.818997546124,0.00295217470037,0.0,0.818965602223,-0.573708428527,-0.0116072526328,0.0,-0.00781277433552,0.00907782838089,-0.999928274222,0.0,0.592757676143,0.170639246112,0.304150813567,1.0,-0.125151428571,-0.164484734694,1.819
0.390489200639,0.221903413935,-0.125572756945,-1.84168576387,0.0433885847844,2.05601247846,0.0730986614586,-0.171245597475,-0.501302894773,-0.00228733424123,-0.707824165284,-0.0675621203129,0.194451036326,-0.163510877789,0.573659464369,0.819077807122,0.00266678127564,0.0,0.819041510356,-0.573595530822,-0.0118287039268,0.0,-0.00815913214066,0.0089700252234,-0.999926480903,0.0,0.590518016945,0.167837144775,0.304047624818,1.0,-0.127337142857,-0.167357387755,1.836
0.387813172418,0.214210095565,-0.12564957434,-1.85205538247,0.0424582529671,2.0590981298,0.0705637905299,-0.176651401823,-0.5064816037,-0.00666616223478,-0.689639924088,-0.0573415596489,0.199956618667,-0.172441566638,0.573734168787,0.819024352398,0.00299343390895,0.0,0.818992563293,-0.573669375279,-0.0116351209749,0.0,-0.00781235647314,0.00912724229913,-0.999927827663,0.0,0.588555357189,0.165157072867,0.30418502779,1.0,-0.129394285714,-0.170061061224,1.852
0.384505980215,0.204991798132,-0.125698783065,-1.86489459513,0.0412341132907,2.06252345716,0.0674056581116,-0.19032474828,-0.513419475983,-0.00292824816257,-0.732291644806,-0.0714050837894,0.181183796751,-0.175240981711,0.573722838862,0.819032978111,0.00279854165709,0.0,0.818998245777,-0.573658248884,-0.0117827756448,0.0,-0.00804523021597,0.00905222248385,-0.99992666308,0.0,0.586286624251,0.162231901495,0.304113898829,1.0,-0.13158,-0.172933714286,1.869
0.381291522721,0.196101576365,-0.125761111426,-1.8769002547,0.0400782515669,2.06584815807,0.064308542002,-0.192756570744,-0.518243737212,-0.00421883487606,-0.705404568669,-0.068875543546,0.20353254095,-0.176734841551,0.573701619427,0.819047297105,0.00295362030495,0.0,0.819014795686,-0.57363673631,-0.0116793024076,0.0,-0.00787174751252,0.0091196690175,-0.999927430981,0.0,0.583940342505,0.159110001051,0.304202833096,1.0,-0.133894285714,-0.175975346939,1.887
0.378140456774,0.187753744094,-0.125892302844,-1.88839363961,0.0390085550016,2.06896881933,0.0613522361965,-0.199084321874,-0.537927753576,-0.0124936451437,-0.733558513903,-0.0622521136351,0.184268662805,-0.179686116195,0.573786963721,0.818987690971,0.00290330912573,0.0,0.818954197994,-0.5737218536,-0.011747475966,0.0,-0.00795549949092,0.00911840131996,-0.999926779712,0.0,0.58192481995,0.156400185191,0.304156412937,1.0,-0.135822857143,-0.178510040816,1.902
0.37445824169,0.178150878547,-0.126039707238,-1.90128966883,0.0377579354058,2.07238843159,0.0579603511218,-0.204497923052,-0.545800131679,-0.00469775069707,-0.712404422714,-0.0711091160623,0.202303189283,-0.186622109048,0.573918940504,0.818894940694,0.00297871410138,0.0,0.818862443611,-0.573853569938,-0.0117100646777,0.0,-0.00788011871559,0.00915996137859,-0.999926996754,0.0,0.579498796661,0.153091793761,0.30421938769,1.0,-0.138137142857,-0.181551673469,1.92
0.370954593316,0.169094684894,-0.126044816312,-1.91360181986,0.0364760635827,2.07561467631,0.0546881889543,-0.20374541377,-0.541783753258,-0.0001450658101,-0.72959886857,-0.0721741934803,0.175826620521,-0.20178323467,0.573848876495,0.818944337074,0.0028959664027,0.0,0.818910925227,-0.573783986228,-0.0117294754049,0.0,-0.00794428126516,0.00910266006364,-0.999927012324,0.0,0.577119637391,0.150026297823,0.304183610308,1.0,-0.140322857143,-0.184424326531,1.937
0.367767103382,0.160978013983,-0.126064614791,-1.92450655573,0.0354060472881,2.07838609391,0.0516435334325,-0.215502835324,-0.553332943044,-0.00648580820394,-0.70909508369,-0.0704969936584,0.189122326606,-0.202280403058,0.573764743803,0.819003200861,0.00291935780561,0.0,0.818969674262,-0.573699302194,-0.0117698854227,0.0,-0.00796489364794,0.00914418685922,-0.999926469455,0.0,0.574850908581,0.147099979244,0.304200815698,1.0,-0.14238,-0.187128,1.953
0.36383264904,0.151143479222,-0.126098612219,-1.93754917145,0.0340304326394,2.08183592098,0.048048584107,-0.214691489274,-0.541630397094,-0.00605641601135,-0.744872872103,-0.0785384364273,0.180693946456,-0.195809217696,0.573750923345,0.81901254609,0.00301234281507,0.0,0.818980793205,-0.573685820078,-0.0116527724113,0.0,-0.00781577892134,0.00915301606254,-0.999927565325,0.0,0.572450988942,0.143936657998,0.304240754989,1.0,-0.144565714286,-0.190000653061,1.97
0.359970033861,0.14175606891,-0.126158844496,-1.95009874434,0.0327909706105,2.08481555654,0.044510100923,-0.224732213381,-0.566290020522,-0.00898864054135,-0.709050211188,-0.0698735023651,0.181187270811,-0.21560213883,0.573777949242,0.818994095532,0.00287808069965,0.0,0.818959612103,-0.573712174541,-0.0118423574434,0.0,-0.00804778583142,0.00915209162755,-0.999925733423,0.0,0.569920239772,0.140682624894,0.304198224286,1.0,-0.146751428571,-0.192873306122,1.987
0.356266629506,0.13282971704,-0.126264442458,-1.96174835324,0.0315835410181,2.08785217337,0.0410457947853,-0.228250354582,-0.553767343394,-0.00757955431812,-0.730267057039,-0.075564809436,0.186203217794,-0.225888753615,0.573757375035,0.81900770862,0.00309753372843,0.0,0.818976547322,-0.573691380281,-0.011677415354,0.0,-0.0077870147157,0.00923698849948,-0.999927017559,0.0,0.567627644712,0.137597356804,0.304282913463,1.0,-0.148808571429,-0.195576979592,2.003
0.351901805061,0.122727757052,-0.126397165672,-1.97512833791,0.0301407183191,2.09095213726,0.0371544375239,-0.239779823478,-0.5577496315,-0.0122737578062,-0.750090835489,-0.082062929114,0.178710234014,-0.210654915735,0.573865233119,0.818932820679,0.00291141432503,0.0,0.818898949161,-0.573799529399,-0.0118050000615,0.0,-0.00799708779759,0.00915880957905,-0.999926078665,0.0,0.5648926214,0.133987976872,0.304231202506,1.0,-0.151122857143,-0.198618612245,2.021
0.347645943129,0.113031538592,-0.126496401074,-1.98760818693,0.0287962918221,2.09407163627,0.0332821086553,-0.25299926605,-0.560112738882,0.00012540505285,-0.742972591119,-0.0793626846385,0.175700111923,-0.228748113128,0.573883969138,0.818918846222,0.00314009090345,0.0,0.818888528611,-0.573818164619,-0.0116206093969,0.0,-0.00771464337157,0.00924044377133,-0.999927546614,0.0,0.562381872304,0.130573883898,0.304332733906,1.0,-0.153308571429,-0.201491265306,2.038
0.343846652894,0.104493532046,-0.12652153754,-1.99885936778,0.0275538247254,2.09655824808,0.029836386752,-0.258000342389,-0.567699825974,-0.00114630492425,-0.753990617942,-0.0829622484584,0.16886926233,-0.233790100082,0.573814227386,0.818968416875,0.00295152704004,0.0,0.818935221438,-0.57374856547,-0.0117657813523,0.0,-0.00794252184039,0.00916865871148,-0.999926423315,0.0,0.559854025725,0.127361198095,0.304268342029,1.0,-0.155365714286,-0.204194938775,2.054
0.33920789378,0.0940543337962,-0.126517369536,-2.01213280197,0.0261283249482,2.09971329715,0.025561636102,-0.261383818177,-0.57285178307,0.00123342563378,-0.750260883424,-0.0740470871861,0.170845876054,-0.240457344354,0.573692335405,0.819052960588,0.00317788458882,0.0,0.819022782227,-0.573626011844,-0.0116459276098,0.0,-0.0077158627791,0.009284118034,-0.999927132652,0.0,0.557233404326,0.123982772295,0.304364105922,1.0,-0.157551428571,-0.207067591837,2.071
0.334627854308,0.0842132317247,-0.12656676343,-2.02495204932,0.024769568653,2.10242689117,0.021406774365,-0.270459346601,-0.577911947462,-0.00365078939669,-0.765532502931,-0.085546419003,0.158445294637,-0.257342978195,0.573655206424,0.819079669925,0.00299087934154,0.0,0.819045812131,-0.57358806775,-0.0118925634883,0.0,-0.00802557879147,0.0092720766783,-0.999924806513,0.0,0.554464333921,0.12046380477,0.304273948577,1.0,-0.159737142857,-0.209940244898,2.088
0.330189877999,0.074744903818,-0.126691031761,-2.03672608661,0.0233740110406,2.10516977824,0.0174231500265,-0.276703685872,-0.5803506379,-0.00742280131035,-0.734524644739,-0.0838324426685,0.167233593739,-0.24875749764,0.573661836425,0.819073985392,0.00326355399692,0.0,0.819044951193,-0.573595280379,-0.0116003945343,0.0,-0.00762976911017,0.00932788064656,-0.999927385997,0.0,0.551993220545,0.117084702696,0.304428516109,1.0,-0.161794285714,-0.212643918367,2.104
0.325305187188,0.0647695741652,-0.126838274871,-2.04962083712,0.0219407100111,2.10779416079,0.0130922246338,-0.291982344624,-0.587764833439,-0.00869189411918,-0.778119082561,-0.0863465534799,0.144615693572,-0.259155083691,0.573749356396,0.819013615981,0.00301989641804,0.0,0.818980321357,-0.573682313527,-0.011856781962,0.0,-0.00797855831683,0.0092762353548,-0.999925144231,0.0,0.548993971351,0.113174563251,0.304310971189,1.0,-0.164108571429,-0.21568555102,2.122
0.319938549568,0.0539709163053,-0.126987775025,-2.06297613092,0.020385539313,2.11068289665,0.00836059868865,-0.296340854496,-0.590331285216,-0.00820086622783,-0.726439110875,-0.0839514915351,0.160398076947,-0.25691238141,0.573837010913,0.818951298419,0.00325616720726,0.0,0.818921798462,-0.573770003424,-0.0116541012854,0.0,-0.00767599809665,0.00935428105082,-0.999926785559,0.0,0.546274017869,0.109445764921,0.304438283402,1.0,-0.166294285714,-0.218558204082,2.139
0.315442044919,0.0450227208972,-0.127014859984,-2.07436878741,0.0191157382682,2.11296842651,0.00437803937481,-0.304850363513,-0.603302285016,0.000694518852773,-0.773528360814,-0.0897019178362,0.138951679578,-0.263998939058,0.573818398109,0.818964755687,0.0031498944581,0.0,0.818932962809,-0.573750656633,-0.0118208857492,0.0,-0.0078737863907,0.00936277438834,-0.999925168172,0.0,0.54371160107,0.106209040537,0.304355192976,1.0,-0.168222857143,-0.221092897959,2.154
0.30986656908,0.0340748618281,-0.127063115493,-2.08776914686,0.0175081240403,2.11568227159,-0.000637324520923,-0.311945935052,-0.605589555626,-0.0026317353975,-0.749560358097,-0.0990927575601,0.151388890814,-0.278664503344,0.57370715655,0.819042011919,0.00332086378973,0.0,0.819012931049,-0.573639440282,-0.0116772526017,0.0,-0.00765932948485,0.00941933512389,-0.999926302683,0.0,0.540710972372,0.102266730476,0.304459691078,1.0,-0.16998,-0.223402285714,2.172
0.304439726716,0.023836763294,-0.127154701707,-2.10055094267,0.015953935404,2.11809795194,-0.00539874208062,-0.322005449388,-0.604859233026,-0.00934303923371,-0.756146782397,-0.0849248116557,0.128225833207,-0.290201239539,0.573719680213,0.819033759688,0.00318997320819,0.0,0.819002683659,-0.57365204555,-0.0117763193097,0.0,-0.0078154188944,0.00936908315064,-0.999925566984,0.0,0.537784009248,0.0984543870382,0.304399536315,1.0,-0.16998,-0.223402285714,2.189
0.298862936456,0.0135313056773,-0.127327040708,-2.11298183657,0.0144178274419,2.12044768294,-0.010250679015,-0.329368691361,-0.605814717852,-0.012574582079,-0.719794598031,-0.0888466618681,0.144940893448,-0.280858635352,0.573836159655,0.818951594314,0.00333090747811,0.0,0.818922845628,-0.573768641643,-0.0116475610171,0.0,-0.00762776526381,0.00941172911887,-0.999926615583,0.0,0.534946726349,0.0945824620419,0.30449839279,1.0,-0.16998,-0.223402285714,2.206
0.293550805147,0.00398348518196,-0.127426501224,-2.12470504111,0.0130606111065,2.12250331137,-0.0149062363464,-0.332486181233,-0.609193705237,-0.0109100683603,-0.734221261235,-0.0759027423634,0.127954710184,-0.287370505366,0.57389723022,0.818909012034,0.00327811777488,0.0,0.818878561636,-0.573828637055,-0.0118043843714,0.0,-0.00778578878893,0.00945906597989,-0.999924950966,0.0,0.532194614081,0.0909807681613,0.304456253142,1.0,-0.16998,-0.223402285714,2.222
0.287551710542,-0.0067779835248,-0.127429377856,-2.13757541452,0.0114620086566,2.12484390812,-0.0202204403803,-0.337699685822,-0.605716991823,-0.00277664438153,-0.703071673477,-0.103205256014,0.137812029307,-0.293613557146,0.573784287379,0.818987490105,0.00343940543866,0.0,0.818959507658,-0.57371562643,-0.0116812545482,0.0,-0.00759370690029,0.00951943737997,-0.999925855215,0.0,0.529167188511,0.0870293595546,0.304533612147,1.0,-0.16998,-0.223402285714,2.24
0.282129305681,-0.0162021970942,-0.127436909675,-2.14899996534,0.0099770821619,2.12675459235,-0.0249547574513,-0.343302927021,-0.589913139025,0.00292910868742,-0.710866231716,-0.0940533658596,0.107730398936,-0.292165225197,0.573710341667,0.819039745851,0.00332948678735,0.0,0.819010303584,-0.573642014526,-0.0117349347953,0.0,-0.00770159278384,0.00945951956042,-0.999925598711,0.0,0.526417650418,0.083492579476,0.30448997142,1.0,-0.16998,-0.223402285714,2.256
0.275882392518,-0.0268710456084,-0.127540194781,-2.1616088719,0.00839745535291,2.12876105181,-0.0304148400496,-0.351034513824,-0.602112855425,-0.00879631339479,-0.688729516906,-0.0924309729018,0.131661943462,-0.295220388921,0.573737897708,0.819020193715,0.00339026870836,0.0,0.818991302076,-0.57366906758,-0.0117386084223,0.0,-0.00766941271514,0.00951166823115,-0.999925351352,0.0,0.523359340396,0.079453409481,0.304541738365,1.0,-0.16998,-0.223402285714,2.274
0.270551958563,-0.0356029677678,-0.127696268704,-2.17201285119,0.00702166175407,2.13044565296,-0.0349573445233,-0.355713187378,-0.581764072368,-0.00652117482432,-0.688788029714,-0.0924772200466,0.103117444127,-0.299608114511,0.573888539387,0.818914744811,0.00336630262255,0.0,0.818885723548,-0.573819993544,-0.0117274754613,0.0,-0.00767229854107,0.00948706357731,-0.999925562959,0.0,0.520829344932,0.0760201665692,0.304522849402,1.0,-0.16998,-0.223402285714,2.289
0.264879170404,-0.0449103000439,-0.127736909568,-2.18311767782,0.00572644874887,2.13202690518,-0.0399957158716,-0.359215076137,-0.580124551832,-0.00237853091256,-0.682902283547,-0.0833826165445,0.10452614531,-0.312882908007,0.573839916831,0.818949113117,0.00329345993518,0.0,0.818917411391,-0.57376951829,-0.0119816569216,0.0,-0.00792283292815,0.00957280900224,-0.999922792043,0.0,0.518037978339,0.0724847301459,0.304451637598,1.0,-0.16998,-0.223402285714,2.305
0.258391664512,-0.0554056310051,-0.12776996194,-2.19509866517,0.00404410721858,2.13393146103,-0.045637887017,-0.361398859172,-0.5715962333,-0.00388665447805,-0.676630681965,-0.101130648043,0.0918114600211,-0.324468764381,0.573770128087,0.818997035851,0.0035273622259,0.0,0.818970089919,-0.573701052829,-0.0116550719374,0.0,-0.00752196276773,0.00957632065155,-0.999925854331,0.0,0.515074850933,0.0685030963389,0.304595352162,1.0,-0.16998,-0.223402285714,2.323
0.251800647829,-0.0657170358718,-0.127799454722,-2.20733612412,0.00247696636623,2.13549036131,-0.0514218386116,-0.372249834782,-0.567891458851,0.000495289562201,-0.673611755012,-0.0864286820912,0.0906314802854,-0.322011720932,0.573715825791,0.819035997372,0.00330653102891,0.0,0.819004725501,-0.573645710533,-0.0119417458985,0.0,-0.00788409421413,0.00955941719567,-0.999923226354,0.0,0.512089480609,0.0647345849484,0.304472267506,1.0,-0.16998,-0.223402285714,2.34
0.246169410727,-0.0743864753441,-0.127952192776,-2.21707742387,0.00114233858284,2.13686319876,-0.0562943176203,-0.374923656672,-0.571376131635,-0.0123060140387,-0.64515635903,-0.0848859182074,0.0932528436413,-0.326331215093,0.573794453909,0.818980117488,0.00349838888553,0.0,0.818952104106,-0.573724594432,-0.0117595844423,0.0,-0.00762390088736,0.00961278234789,-0.999924732443,0.0,0.509438788431,0.061108814669,0.304581493913,1.0,-0.16998,-0.223402285714,2.356
0.239334845906,-0.0846044700139,-0.12805231702,-2.2288807154,-0.000379155762476,2.13833074538,-0.0622205875165,-0.374736028395,-0.569244956655,0.00116896804016,-0.660784681492,-0.0783667559863,0.0834586206195,-0.32642247899,0.573859612402,0.818934614521,0.00346255603243,0.0,0.818905158733,-0.573788644623,-0.0119029073686,0.0,-0.00776107694962,0.00966628891241,-0.99992316132,0.0,0.50635146793,0.0570736368194,0.304530617538,1.0,-0.16998,-0.223402285714,2.374
0.232499400274,-0.094859983749,-0.128061839261,-2.24043324096,-0.00195007773304,2.13968694132,-0.0682795712108,-0.388900833268,-0.573218159614,-0.00242385929484,-0.623471659866,-0.0960907662845,0.0896834422979,-0.341195809021,0.573707379705,0.819041039612,0.00351636240342,0.0,0.819012237283,-0.573636183219,-0.0118840811076,0.0,-0.00771658600545,0.00969811559033,-0.999923197478,0.0,0.503286849055,0.0531349665012,0.30457031146,1.0,-0.16998,-0.223402285714,2.392
0.226648490345,-0.103293627542,-0.128128253802,-2.24991421988,-0.00331994707858,2.14077378915,-0.0733407791092,-0.383245308384,-0.556762383954,-0.00492035107001,-0.639037309094,-0.085294932363,0.0697814307342,-0.338392708718,0.573708491658,0.819040280629,0.00351172440556,0.0,0.819011801265,-0.573637793406,-0.0118363113392,0.0,-0.00768010578768,0.00966692217438,-0.999923780391,0.0,0.500755305112,0.0497800446706,0.304583899992,1.0,-0.16998,-0.223402285714,2.407
0.219880524247,-0.112805324061,-0.128310869607,-2.26073504336,-0.00482260467289,2.14181714554,-0.0791756050606,-0.399810646566,-0.552914280146,-0.0109285520858,-0.631774348223,-0.091745973107,0.0553011237583,-0.341788847376,0.573822334497,0.818961182877,0.00335503710363,0.0,0.818929548668,-0.573750813926,-0.0120476030833,0.0,-0.00794171690562,0.00966090874981,-0.999921794929,0.0,0.497969469754,0.0461355427607,0.304500183389,1.0,-0.16998,-0.223402285714,2.423
0.213071675141,-0.122352162634,-0.128396922076,-2.27107601117,-0.00625940747778,2.14298802201,-0.0851345567201,-0.395520135917,-0.553146574919,4.97659882192e-05,-0.610264319041,-0.0756611662344,0.0572052033858,-0.356236289565,0.573842349693,0.818945969339,0.00363371759674,0.0,0.818918897834,-0.573770985038,-0.0118085731161,0.0,-0.00758580768258,0.00975216711228,-0.999923672466,0.0,0.494998695652,0.0421207861686,0.30462945127,1.0,-0.16998,-0.223402285714,2.441
0.206590987703,-0.131205198939,-0.128427463761,-2.2808969644,-0.00762698643144,2.14383252462,-0.0908132074983,-0.410815384987,-0.552907949963,-0.0017460749942,-0.600511626189,-0.0880739496262,0.0567048139978,-0.35559645697,0.573788575179,0.818983905766,0.00357491151041,0.0,0.818955401374,-0.573716572146,-0.0119202477447,0.0,-0.0077116535514,0.00976758311633,-0.999922559361,0.0,0.492246609231,0.0385848270426,0.304600272572,1.0,-0.16998,-0.223402285714,2.457
0.199585645383,-0.140605109143,-0.128517457628,-2.2911554333,-0.00912797408722,2.1447217016,-0.0969336817126,-0.406638816652,-0.563208985529,-0.00550127364889,-0.581701410882,-0.0826735329064,0.0588861331568,-0.362460616137,0.573774246518,0.818993866408,0.00359273167105,0.0,0.818965740442,-0.573702367817,-0.0118935294903,0.0,-0.00767971689422,0.00976671311442,-0.999922813653,0.0,0.489357975389,0.0347848061138,0.304617447633,1.0,-0.16998,-0.223402285714,2.474
0.192017679805,-0.150489638417,-0.12870500628,-2.30181142686,-0.0106526175186,2.14565346248,-0.103500760194,-0.43054397558,-0.54124932676,-0.0137446003285,-0.595947607167,-0.0914776284533,0.038445653326,-0.364628722723,0.573905751663,0.818901063415,0.00373944468093,0.0,0.818875067957,-0.573833631659,-0.0118039466479,0.0,-0.00752059013547,0.00983668027734,-0.999923337284,0.0,0.486339264344,0.0307073550421,0.304663509213,1.0,-0.16998,-0.223402285714,2.492
0.185250431551,-0.159203267884,-0.128766530185,-2.31128481899,-0.012097232389,2.14619729745,-0.109457496535,-0.419422380383,-0.543550350468,-0.00132437892062,-0.58835153642,-0.0969158038708,0.0367684024142,-0.362197813888,0.573821043345,0.818961166339,0.00357283417915,0.0,0.8189325051,-0.573748878742,-0.0119383053482,0.0,-0.00772724764131,0.00977654910417,-0.999922351351,0.0,0.483561280455,0.0271438240716,0.304618981576,1.0,-0.16998,-0.223402285714,2.508
0.177996225584,-0.16847011336,-0.128788552823,-2.32095765447,-0.0134372603957,2.14692868565,-0.115849862346,-0.436873205876,-0.550416690723,-4.84647136794e-05,-0.562682361468,-0.0802180282334,0.0456063659919,-0.377762972816,0.573780198873,0.81898845926,0.00386443789312,0.0,0.818964136217,-0.573707745185,-0.0117436624225,0.0,-0.00740100853574,0.00990330767074,-0.999923571864,0.0,0.480748990091,0.0234252061447,0.304740874789,1.0,-0.16998,-0.223402285714,2.525
0.17060633624,-0.177551491053,-0.128889564245,-2.33074406559,-0.0148901303477,2.14741704424,-0.122347806432,-0.444432165499,-0.537760239919,-0.00799827331091,-0.56243912477,-0.0882012122586,0.0285376364132,-0.389463697792,0.573764863599,0.818999772109,0.00374185587491,0.0,0.818972997804,-0.573691699117,-0.0119084059806,0.0,-0.00760645657745,0.00989729440998,-0.999922089656,0.0,0.477814118922,0.0196335515158,0.304673970471,1.0,-0.16998,-0.223402285714,2.542
0.163893907978,-0.185598074153,-0.129062610531,-2.33925434303,-0.0161644896419,2.14780780874,-0.128198210962,-0.445540097236,-0.53729189177,-0.00343943414824,-0.565681357336,-0.0798820010958,0.0239773204177,-0.398224780144,0.573876876777,0.818921347535,0.00372877362122,0.0,0.818893922395,-0.57380311913,-0.0119779481857,0.0,-0.00766956319741,0.0099275286871,-0.999921307891,0.0,0.475239001275,0.0162006612427,0.304660899968,1.0,-0.16998,-0.223402285714,2.557
0.15591694621,-0.195214365003,-0.129100903112,-2.34908609373,-0.0176569301379,2.14834864669,-0.135293329775,-0.441621732997,-0.53479091992,-0.00264739224072,-0.552911834477,-0.0846000562357,0.0253394712415,-0.398191716315,0.573763160258,0.818999930554,0.00396189158368,0.0,0.818976714459,-0.573690178124,-0.0117246577872,0.0,-0.00732973674531,0.00997206565036,-0.9999234135,0.0,0.472260478249,0.0122532815896,0.304779521457,1.0,-0.16998,-0.223402285714,2.575
0.148204472043,-0.204104223871,-0.129179985962,-2.35850844158,-0.0190692054328,2.14858131402,-0.142102716491,-0.451238200746,-0.525404076119,-0.0041632182638,-0.546963357205,-0.0779534303753,0.00390162100779,-0.389967351278,0.573734182664,0.819020975911,0.00380467643928,0.0,0.818994448692,-0.573660052197,-0.0119576095417,0.0,-0.00761108868871,0.00997669030208,-0.99992126539,0.0,0.469305264607,0.00846878952356,0.304688480872,1.0,-0.16998,-0.223402285714,2.592
0.140806156748,-0.212503898818,-0.129366752077,-2.36715622493,-0.0203419726825,2.14880322278,-0.148595591067,-0.472030569653,-0.528083785174,-0.012609119474,-0.531010251358,-0.0813332697577,0.0201289462772,-0.407767563234,0.573863128781,0.81893032799,0.0038696545024,0.0,0.818904005033,-0.573787895755,-0.0120178253609,0.0,-0.0076215474887,0.0100656562279,-0.999920294113,0.0,0.466575761379,0.004843771931,0.304693292368,1.0,-0.16998,-0.223402285714,2.608
0.132451231819,-0.221864495214,-0.129440115794,-2.37655862243,-0.0218364013531,2.1490762435,-0.15595116653,-0.459479345412,-0.513110229022,-0.000772805681472,-0.524663655236,-0.0798359722553,0.00758507749081,-0.41315138645,0.573851655119,0.81893761963,0.0040249191543,0.0,0.81891438352,-0.573777307268,-0.0118144415367,0.0,-0.00736602517382,0.0100759950122,-0.999922104965,0.0,0.463589119828,0.000854857594196,0.304781841263,1.0,-0.16998,-0.223402285714,2.626
0.124448110092,-0.230554482565,-0.129508925723,-2.38556972711,-0.0232591285261,2.14915631444,-0.163083700958,-0.479971366911,-0.515094309642,-0.00913779729996,-0.517791503097,-0.0814211065362,0.00244755248258,-0.423262690872,0.573763823161,0.818999840041,0.00388383119266,0.0,0.818973965481,-0.573688902258,-0.011976401425,0.0,-0.00758070594996,0.0100525760457,-0.999920736165,0.0,0.460648071365,-0.0029138811002,0.304696293668,1.0,-0.16998,-0.223402285714,2.643
0.11675712766,-0.238771471187,-0.12963867799,-2.39380319021,-0.024572661169,2.14917814794,-0.169887085172,-0.483835573892,-0.515637567583,-0.0127281736044,-0.510576469246,-0.0862339106176,0.00368940430214,-0.426012002789,0.573797248515,0.818976259055,0.00391811200647,0.0,0.818950829814,-0.573722196608,-0.0119635432458,0.0,-0.00755009542831,0.0100735832236,-0.99992075635,0.0,0.457927870415,-0.00651588986479,0.304717337526,1.0,-0.16998,-0.223402285714,2.659
0.108490940182,-0.247452574255,-0.129780724796,-2.40229256735,-0.0258884358824,2.14924882838,-0.177231717351,-0.483453806706,-0.506176781158,-0.0103639711417,-0.50728537785,-0.0767324591578,8.58135946521e-05,-0.435678882331,0.573852548915,0.818936364011,0.0041509884523,0.0,0.818914716077,-0.573777711897,-0.0117716619057,0.0,-0.00725863709444,0.0101546992289,-0.999922094101,0.0,0.455106145781,-0.0103330147689,0.304814590588,1.0,-0.16998,-0.223402285714,2.676
0.100685436429,-0.255437337511,-0.129832322163,-2.41042599422,-0.0271404588437,2.14917231128,-0.184237412818,-0.489213269324,-0.497191766585,-0.0014709563118,-0.50795154668,-0.0860592435207,-0.0139927042889,-0.439955681086,0.573767688228,0.81899626416,0.00406277472107,0.0,0.818972435698,-0.573691738905,-0.0119450902092,0.0,-0.00745234744266,0.0101812033237,-0.99992039964,0.0,0.452336133709,-0.0138540401995,0.304724736668,1.0,-0.16998,-0.223402285714,2.692
0.092212259217,-0.26394745037,-0.129961974442,-2.41879451889,-0.0285031274221,2.14904774896,-0.191705097033,-0.502241124113,-0.501488968476,-0.007548760388,-0.483848564881,-0.0792533644855,-0.00840708238357,-0.440703320513,0.57384803364,0.818939751725,0.0041066084498,0.0,0.818916607814,-0.573772072615,-0.0119140687922,0.0,-0.00740078978516,0.0102000311926,-0.999920590684,0.0,0.449447400611,-0.0176687618899,0.30473710097,1.0,-0.16998,-0.223402285714,2.709
0.0836117300917,-0.27239795866,-0.130129793819,-2.42680800098,-0.0298256205998,2.14893063779,-0.199380379583,-0.502955800169,-0.497818876545,-0.00890901319023,-0.479899588715,-0.0795047172795,-0.0126764015569,-0.445613703932,0.573912203061,0.818893548296,0.00434587610185,0.0,0.818874784809,-0.573837241948,-0.01164703645,0.0,-0.00704399306826,0.0102433019212,-0.999922725478,0.0,0.446649267948,-0.0215103048033,0.304860240348,1.0,-0.16998,-0.223402285714,2.726
0.0750468656574,-0.280652765293,-0.130178462455,-2.43500385628,-0.0311632726809,2.14863347646,-0.207161089247,-0.50645683961,-0.486193442985,-0.00406373253461,-0.478373060979,-0.0820447007554,-0.0207782036597,-0.45629576584,0.573748523347,0.819008857261,0.00422736157826,0.0,0.818987743272,-0.57367280468,-0.0118040857993,0.0,-0.0072426678923,0.0102349311699,-0.999921391883,0.0,0.443715090253,-0.0252299830887,0.304778174059,1.0,-0.16998,-0.223402285714,2.743
0.0662107641653,-0.288910356515,-0.130300584916,-2.44296469186,-0.0324544962149,2.14831051112,-0.215024550033,-0.517260045553,-0.478788429098,-0.00862449639833,-0.464188116512,-0.0800835805969,-0.0194219409058,-0.461074732012,0.573816830976,0.818960771308,0.00427158623079,0.0,0.818940036421,-0.57374067602,-0.0118152583089,0.0,-0.00722558940115,0.0102781649499,-0.999921071977,0.0,0.440818960627,-0.0290503665959,0.304778290783,1.0,-0.16998,-0.223402285714,2.76
0.0572807805339,-0.297125447675,-0.130473355913,-2.45059949628,-0.033674455386,2.1480191959,-0.223038984362,-0.524564443796,-0.484345384081,-0.00160549690816,-0.449052890235,-0.0671434636096,-0.0161631842895,-0.47590580132,0.573912348563,0.818892400802,0.0045386094773,0.0,0.818875997886,-0.573836598055,-0.0115933481128,0.0,-0.00688941708969,0.0103703236687,-0.999922493156,0.0,0.438007387765,-0.0328845580806,0.304887278934,1.0,-0.16998,-0.223402285714,2.777
0.0472870952036,-0.306098382343,-0.13056247499,-2.45919982316,-0.0351864207561,2.14747348803,-0.232068552467,-0.540279574454,-0.472403206984,-0.00506255720378,-0.460972416629,-0.0775004697239,-0.0411756813833,-0.485886358945,0.57380463109,0.818968574015,0.00441214416771,0.0,0.818950245795,-0.573728861195,-0.0116805669775,0.0,-0.00703477827373,0.0103158885889,-0.99992204413,0.0,0.434577080039,-0.0373086671508,0.304840488535,1.0,-0.16998,-0.223402285714,2.797
0.0397538922453,-0.312660627198,-0.130675221122,-2.46545971154,-0.0361945257603,2.14701964428,-0.2388192018,-0.538231610683,-0.471516286233,-0.00886336070525,-0.445894536588,-0.076417937715,-0.0347426794099,-0.479724909517,0.573880322907,0.818915523266,0.0044144801804,0.0,0.818896457339,-0.573803410547,-0.0117891943888,0.0,-0.00712144761839,0.0103807887257,-0.999920758965,0.0,0.432338613239,-0.0402210282589,0.30480656124,1.0,-0.16998,-0.223402285714,2.81
0.030531700404,-0.320581413911,-0.130838391703,-2.4727685802,-0.0374528251781,2.14652263393,-0.247181178501,-0.539382209553,-0.464246701191,-0.00377293465684,-0.418598292231,-0.0774964357991,-0.0231741858657,-0.501352659608,0.573896664745,0.8189034407,0.00452989032567,0.0,0.818886433041,-0.573820205525,-0.0116674081678,0.0,-0.00695527200551,0.0104055527037,-0.999921671264,0.0,0.429485364084,-0.0440421714198,0.304856712154,1.0,-0.16998,-0.223402285714,2.827
0.0213076119503,-0.328392647404,-0.130906915073,-2.47987068291,-0.0386471408593,2.14602412866,-0.255656220241,-0.554294659143,-0.458625919268,-0.00869590045143,-0.42506866512,-0.0682888586138,-0.0285372299603,-0.49994095362,0.573797645387,0.818971911663,0.00469222289173,0.0,0.818957866193,-0.573722030775,-0.0114800568677,0.0,-0.00670994165979,0.0104301632597,-0.999923091231,0.0,0.42650086411,-0.0480055259682,0.304929792771,1.0,-0.16998,-0.223402285714,2.845
0.0123526366498,-0.335571837068,-0.131040407904,-2.48668751094,-0.0397733086006,2.14529973869,-0.263713988375,-0.563307225677,-0.4453197131,-0.0130166024914,-0.425268003302,-0.066192469684,-0.0453484969629,-0.515248196856,0.573867273991,0.818923735619,0.00458410115443,0.0,0.818906697041,-0.573789545946,-0.0117526765297,0.0,-0.0069943711106,0.0104986297086,-0.999920425607,0.0,0.423878233439,-0.0513777317777,0.30483527709,1.0,-0.16998,-0.223402285714,2.86
0.00281917565026,-0.343255448104,-0.131180442794,-2.49366842244,-0.0409680808702,2.14460900153,-0.272354542366,-0.559472610984,-0.445550263064,-0.00351483135226,-0.40628956096,-0.0644634448495,-0.0395947753548,-0.516466463216,0.573914603565,0.818890132778,0.00466102498513,0.0,0.818874142894,-0.573836694441,-0.0117189212096,0.0,-0.00692197504463,0.0105426558387,-0.999920466172,0.0,0.420985050295,-0.0551744527534,0.3048596593,1.0,-0.16998,-0.223402285714,2.877
-0.00677503145797,-0.350763222992,-0.131272235168,-2.50037240021,-0.0421751323856,2.14387949454,-0.281173113036,-0.571433466888,-0.441538886069,-0.0069675478038,-0.391694081208,-0.0721022635621,-0.0457822387209,-0.520327543903,0.573827474991,0.818950818388,0.0047257705828,0.0,0.818936309029,-0.573750363152,-0.0116012688194,0.0,-0.00678958672649,0.0105274345974,-0.999921534238,0.0,0.418142284182,-0.0589439100737,0.304914386124,1.0,-0.16998,-0.223402285714,2.894
-0.0183668700651,-0.359455129284,-0.131466132281,-2.50817460438,-0.0435660414182,2.14297772755,-0.291694491129,-0.584178577418,-0.440242972371,-0.010412590413,-0.403565603393,-0.0734372109352,-0.0484852422476,-0.527059296372,0.573930478703,0.818878291251,0.00478504273313,0.0,0.818864644635,-0.573853320419,-0.0115675110751,0.0,-0.00672660055039,0.0105574527497,-0.999921643448,0.0,0.414750078574,-0.0634724687213,0.304930268692,1.0,-0.16998,-0.223402285714,2.914
-0.025784605765,-0.365000803989,-0.131498545847,-2.51324127793,-0.0444692254178,2.14228870996,-0.298639095161,-0.566478333883,-0.42737475554,0.00141490386657,-0.388629183425,-0.0680548934622,-0.0496493994109,-0.535847860151,0.573725134127,0.819022690303,0.00469575779923,0.0,0.8190072031,-0.573647224579,-0.0116965765843,0.0,-0.00688618577301,0.0105566826801,-0.999920565293,0.0,0.41233987131,-0.0665040502804,0.304880785877,1.0,-0.16998,-0.223402285714,2.928
-0.0363385733283,-0.372620895698,-0.131616525667,-2.52004739075,-0.0456461435989,2.14137732054,-0.308316426013,-0.592740751957,-0.426267842927,-0.00619427815192,-0.37630370216,-0.0653486015184,-0.0572768714016,-0.543663359953,0.573750960419,0.819004428815,0.00472524077812,0.0,0.818988893988,-0.573672291395,-0.011749064248,0.0,-0.00691192902499,0.0106111609127,-0.999919811035,0.0,0.409438692464,-0.0702923859839,0.304866556035,1.0,-0.16998,-0.223402285714,2.945
-0.0459503910539,-0.379289284048,-0.131782200251,-2.52578715287,-0.0466798567955,2.1405431628,-0.316978989295,-0.60096219543,-0.408991061451,-0.0060110240714,-0.343066502192,-0.0682632429015,-0.0446842128452,-0.550329544933,0.573958381787,0.818858363636,0.00484800802555,0.0,0.818844906405,-0.573880041847,-0.0116388884903,0.0,-0.00674855606572,0.0106502093311,-0.999920511857,0.0,0.406754901895,-0.0739384365577,0.304933305322,1.0,-0.16998,-0.223402285714,2.961
-0.0559837003637,-0.386224002733,-0.131867413723,-2.53180621721,-0.0478055155829,2.13969379064,-0.326418313253,-0.597771522775,-0.403020911246,-0.00783159649532,-0.360272790928,-0.0607498532443,-0.0532754434343,-0.557430046327,0.573757662929,0.818998709357,0.0048995104764,0.0,0.818986625482,-0.573680325994,-0.0115125040649,0.0,-0.00661810062228,0.0106182254121,-0.999921723953,0.0,0.40392090677,-0.0776667507597,0.304968459814,1.0,-0.16998,-0.223402285714,2.978
-0.0663534284993,-0.393089342011,-0.13202628032,-2.5378865091,-0.0489361864401,2.13865915901,-0.335948891791,-0.617267991302,-0.397804237024,-0.0100007098821,-0.351027941342,-0.0650851678303,-0.0607387816903,-0.559120902382,0.573819958488,0.818955525286,0.00482179898358,0.0,0.818941372425,-0.573741165265,-0.0116983208964,0.0,-0.00681407115913,0.0106617059592,-0.999919945026,0.0,0.400783732791,-0.0817255491962,0.304907846021,1.0,-0.16998,-0.223402285714,2.996
-0.0761512094326,-0.399422372513,-0.132148726082,-2.54333766889,-0.0499394017792,2.13773976495,-0.345000123438,-0.600350845447,-0.388930054164,-0.00326228872287,-0.335289796295,-0.0655897245324,-0.0561420493006,-0.56348097609,0.573827944096,0.818949667017,0.0048662478164,0.0,0.818936211838,-0.573749198955,-0.0116655278383,0.0,-0.00676160453399,0.0106793580196,-0.999920112817,0.0,0.398244995497,-0.0850710812277,0.304927594997,1.0,-0.16998,-0.223402285714,3.011
-0.0865474865121,-0.405992517516,-0.132243799549,-2.54898228521,-0.0509975136538,2.13673798035,-0.354765820385,-0.622477430441,-0.375779831398,-0.00824578154095,-0.324163756112,-0.0672237313987,-0.0501356587539,-0.58391630453,0.573698960074,0.819040006014,0.00487018076972,0.0,0.819026548112,-0.573620139394,-0.0116703071663,0.0,-0.00676494492583,0.0106842561346,-0.999920037899,0.0,0.395371429671,-0.088814138618,0.304928568229,1.0,-0.16998,-0.223402285714,3.028
-0.0979515690813,-0.412812901133,-0.132442901113,-2.5546668135,-0.0520472541237,2.13574595434,-0.365208162488,-0.6349325314,-0.379176975556,-0.00962660779862,-0.313036083306,-0.0559243056282,-0.0512248503377,-0.58955624002,0.573913632322,0.81888862424,0.00503096682013,0.0,0.818877943541,-0.57383540423,-0.0115147442955,0.0,-0.00654247219861,0.010728423043,-0.999921045381,0.0,0.392526727459,-0.0927060355191,0.304993623038,1.0,-0.16998,-0.223402285714,3.045
-0.107889249805,-0.418773020585,-0.132507068105,-2.55973929246,-0.0529283715457,2.13474271317,-0.37463461401,-0.630199245691,-0.371048109163,-0.00611448994082,-0.320328404085,-0.0553115413561,-0.0692472999977,-0.59243512765,0.573763935331,0.818993244757,0.00507527895948,0.0,0.818982673739,-0.573684839382,-0.0115685816204,0.0,-0.00656310596397,0.0107944082747,-0.999920200011,0.0,0.389643918363,-0.096414651222,0.304987101799,1.0,-0.16998,-0.223402285714,3.062
-0.120711423742,-0.426065791892,-0.13271782175,-2.56599064033,-0.0541689753956,2.13338708837,-0.386530703116,-0.651670881754,-0.359297309443,-0.0174537745935,-0.310478943353,-0.0617445296578,-0.0635886666249,-0.612204685685,0.573843959765,0.818937729488,0.00498517431667,0.0,0.81892481378,-0.57376323051,-0.0117750410238,0.0,-0.00678284623087,0.0108397278148,-0.999918243307,0.0,0.386158592889,-0.100923606464,0.304926093347,1.0,-0.16998,-0.223402285714,3.082
-0.130299707852,-0.431343373445,-0.132784928109,-2.57040273039,-0.0550221796761,2.13251045799,-0.395498534384,-0.625201448868,-0.344172275923,-0.00208478648893,-0.293029030112,-0.0559823501646,-0.0537536621656,-0.601484013372,0.573819332836,0.818954839123,0.00500915587938,0.0,0.818942545288,-0.57373902662,-0.0117210814697,0.0,-0.00672521765223,0.0108282024911,-0.999918757439,0.0,0.383642036475,-0.104241209442,0.3049331544,1.0,-0.16998,-0.223402285714,3.097
-0.141249567723,-0.437131214864,-0.132886518506,-2.57526395731,-0.0559146584641,2.1314245719,-0.405878757941,-0.653754252396,-0.332100086481,-0.00892068091354,-0.282433719146,-0.0588777379469,-0.065951402359,-0.594818394036,0.57373790863,0.819011756544,0.00503008395809,0.0,0.81899905151,-0.573656448694,-0.0118143725243,0.0,-0.00679070063562,0.0108981971987,-0.999917554443,0.0,0.380770528403,-0.107994774513,0.304909406952,1.0,-0.16998,-0.223402285714,3.114
-0.151216702031,-0.442249076448,-0.133045903251,-2.57934364138,-0.0567844240034,2.13047101509,-0.415111351487,-0.659021529862,-0.342111891853,-0.000619149515396,-0.267912685245,-0.0561874771593,-0.0519170892042,-0.611202985431,0.573877960787,0.818913265328,0.00508889911705,0.0,0.818902167191,-0.573797648341,-0.0116724560041,0.0,-0.0066388585333,0.0108660849704,-0.999918923591,0.0,0.378235336054,-0.111438524925,0.30497775397,1.0,-0.16998,-0.223402285714,3.129
-0.162275266693,-0.447963062914,-0.13310707233,-2.58394147571,-0.0576576805727,2.12942735333,-0.425655448928,-0.657560961394,-0.33225049081,-0.00612849302574,-0.279982602285,-0.0503083971992,-0.0607570659511,-0.619820814288,0.573736824342,0.819011588905,0.00517885459708,0.0,0.819002320844,-0.573657358611,-0.011540375415,0.0,-0.00648093793457,0.01086284142,-0.999919994859,0.0,0.375383789264,-0.115154684196,0.305029590354,1.0,-0.16998,-0.223402285714,3.146
-0.173666906822,-0.453418201821,-0.1333053383,-2.58852848837,-0.0585466430259,2.12826271643,-0.436335113334,-0.684041954758,-0.318412965221,-0.0133894508872,-0.260383172166,-0.0526942990944,-0.0690573811697,-0.636243840948,0.573850850746,0.818931814309,0.00516057274196,0.0,0.818920884116,-0.573769057053,-0.0117644221578,0.0,-0.00667341110981,0.0109773358039,-0.999917478436,0.0,0.372415588426,-0.118984799695,0.304962364743,1.0,-0.16998,-0.223402285714,3.163
-0.184992590462,-0.458704002875,-0.133350204622,-2.59278135913,-0.0593464355282,2.12719496186,-0.447137039401,-0.659081527479,-0.309175666363,-0.00318756253338,-0.244866917621,-0.0488035980175,-0.0606403267899,-0.626758330669,0.573750166804,0.81900197739,0.0052205388034,0.0,0.818991918573,-0.573668343795,-0.0117309650467,0.0,-0.00661295304071,0.0110064341509,-0.999917560232,0.0,0.369562118528,-0.12272475963,0.3049840545,1.0,-0.16998,-0.223402285714,3.18
-0.196469716603,-0.46373146232,-0.133487984962,-2.59688679562,-0.0601856909145,2.12617337829,-0.458052097397,-0.684951131433,-0.301225606339,-0.014876428077,-0.236086093259,-0.0459145268316,-0.0623881928461,-0.643716029605,0.573737764712,0.819010540767,0.00524007214315,0.0,0.819000545839,-0.573655562509,-0.0117536555417,0.0,-0.00662049871346,0.0110353504679,-0.99991719159,0.0,0.366692348148,-0.126526158656,0.304966454583,1.0,-0.16998,-0.223402285714,3.197
-0.207467072982,-0.468399179157,-0.133608479516,-2.60068833598,-0.0610176139028,2.12514504536,-0.46837067146,-0.679352873876,-0.28609814337,-0.00313467026921,-0.23680148761,-0.0481839644988,-0.0637750271164,-0.643235481156,0.573824945514,0.818949759854,0.00519323037761,0.0,0.818938783327,-0.57374227011,-0.0118247009712,0.0,-0.00670438931495,0.011038458682,-0.999916598319,0.0,0.363936604313,-0.130135737903,0.304940958238,1.0,-0.16998,-0.223402285714,3.213
-0.219020295468,-0.47330184746,-0.133697916124,-2.60442797072,-0.0617729062749,2.12411744089,-0.479469306484,-0.69178225523,-0.283833865562,-0.00173710593636,-0.214308369346,-0.0433161472153,-0.0545476734964,-0.65032894186,0.57373936417,0.819008956361,0.0053120902978,0.0,0.819000563119,-0.573658049588,-0.011630419387,0.0,-0.0064782190105,0.0110236466087,-0.999918252606,0.0,0.361106034183,-0.133891347614,0.305027357919,1.0,-0.16998,-0.223402285714,3.23
-0.231555017435,-0.478224144134,-0.133874147638,-2.60826207266,-0.0625997051375,2.12304452207,-0.491356374935,-0.682733658197,-0.266517828438,-0.000359516588059,-0.209218937143,-0.0451599508062,-0.0565962707123,-0.657932941418,0.573837960036,0.818939408343,0.00538404920537,0.0,0.818932379411,-0.573757145855,-0.0115430686697,0.0,-0.00636405964948,0.0110332356286,-0.999918879938,0.0,0.358051936144,-0.137969249298,0.305064946864,1.0,-0.16998,-0.223402285714,3.248
-0.24184792645,-0.482141005977,-0.133920627444,-2.61142051917,-0.063234373478,2.12215337984,-0.501348576642,-0.693367792585,-0.257122323537,-0.00712315324222,-0.209484050436,-0.0417186865609,-0.0491564015182,-0.659790895127,0.573676518356,0.81905248709,0.00538726093876,0.0,0.819045114299,-0.573595056483,-0.011599949221,0.0,-0.00641098444843,0.0110672413123,-0.999918204379,0.0,0.355516724161,-0.141237678256,0.305039817961,1.0,-0.16998,-0.223402285714,3.263
-0.254607208995,-0.486609525286,-0.134073132262,-2.61503460701,-0.0640406006627,2.12103433311,-0.513421909479,-0.714344120219,-0.246327583516,-0.0156261489196,-0.196432312231,-0.0483786118338,-0.0627692825383,-0.668854030243,0.573807679749,0.818960872952,0.00534622632015,0.0,0.818951966123,-0.573724616041,-0.0117681363414,0.0,-0.00657050807103,0.0111311638747,-0.999916459318,0.0,0.352402685167,-0.145310131821,0.304989207213,1.0,-0.16998,-0.223402285714,3.281
-0.266482570012,-0.490627395575,-0.134122726606,-2.61825548186,-0.0646785339689,2.12005958472,-0.524953157206,-0.701022612018,-0.227310379564,-0.0071889088082,-0.185408871821,-0.040420743909,-0.0562678306216,-0.67815757376,0.573676964174,0.819052302202,0.00536786131316,0.0,0.819042985731,-0.573592680471,-0.0118647096959,0.0,-0.00663897965326,0.0112032354931,-0.999915202136,0.0,0.349535121962,-0.14903429277,0.304956440986,1.0,-0.16998,-0.223402285714,3.298
-0.277896616004,-0.494300994908,-0.134292233952,-2.62112353693,-0.065283038069,2.11919170216,-0.535888756238,-0.719790351651,-0.22855575302,-0.014448892109,-0.181162680943,-0.0349435931658,-0.0572517445583,-0.678687918851,0.57377467048,0.818983287106,0.00545434303179,0.0,0.818974927643,-0.573689770825,-0.0118685148314,0.0,-0.00659114138566,0.0112770404942,-0.999914688967,0.0,0.346806608529,-0.152643709606,0.304955994518,1.0,-0.16998,-0.223402285714,3.314
-0.289974169384,-0.498089360742,-0.134322084843,-2.62397866959,-0.0659119479808,2.11825184712,-0.547555348994,-0.707825822864,-0.220300520934,-0.0009662261032,-0.160557131761,-0.0301287546911,-0.0645959929386,-0.684075074182,0.573704988644,0.819031873045,0.00548851913598,0.0,0.819024406319,-0.573620751516,-0.0117899188158,0.0,-0.00650811612068,0.0112593831453,-0.999915431782,0.0,0.343949053316,-0.156398286732,0.304997470561,1.0,-0.16998,-0.223402285714,3.331
-0.302908539526,-0.501821234142,-0.134427127479,-2.62684370642,-0.0665401816989,2.11731217625,-0.560015319606,-0.72915825428,-0.205940084307,-0.00826652725255,-0.154381094597,-0.0327284213996,-0.0492607811974,-0.699537239352,0.573740682179,0.819006484059,0.00554577158421,0.0,0.818999720192,-0.573656165963,-0.0117817010161,0.0,-0.00646804799111,0.0113018441495,-0.999915212743,0.0,0.340900397535,-0.160417777156,0.305007179318,1.0,-0.168094285714,-0.220923918367,3.349
-0.315075184667,-0.505072142434,-0.13445635866,-2.62933816226,-0.0671242763972,2.11651609242,-0.571741819501,-0.702203141911,-0.192607737198,0.000173428980295,-0.14058896984,-0.0261889257422,-0.048737112186,-0.687116659603,0.573732752964,0.819011999523,0.00555155059402,0.0,0.819005628003,-0.573648773915,-0.0117308306013,0.0,-0.00642317450127,0.0112773300396,-0.999915778782,0.0,0.338071773824,-0.164169386315,0.30501622876,1.0,-0.165908571429,-0.218051265306,3.366
-0.326445643079,-0.507941287237,-0.1344880255,-2.63151980406,-0.0675836592936,2.11581394099,-0.582714534453,-0.711953287088,-0.176532045295,-0.00362854240882,-0.140791376472,-0.022480840211,-0.0500698295594,-0.679893938435,0.573762270699,0.818990884111,0.00561563591267,0.0,0.818985601481,-0.57367852364,-0.0116740302734,0.0,-0.00633947670965,0.0112974605846,-0.999916085689,0.0,0.335444245193,-0.167653613177,0.305030544318,1.0,-0.163851428571,-0.215347591837,3.382
-0.337845236249,-0.510683998919,-0.134474994263,-2.63359079052,-0.0680391505794,2.11509437555,-0.593662961176,-0.6967608149,-0.16647430075,0.00641851815858,-0.125281756907,-0.0259709057851,-0.0495956890075,-0.674984408816,0.573810934904,0.818956620896,0.00564012204146,0.0,0.818951824732,-0.573727399066,-0.0116416163514,0.0,-0.00629820749966,0.0112992925464,-0.999916325784,0.0,0.332809542851,-0.171113272654,0.305045416121,1.0,-0.161794285714,-0.212643918367,3.398
-0.348948318825,-0.513149608462,-0.134451071035,-2.63548277652,-0.0684189323483,2.11439757243,-0.604526615034,-0.697512369577,-0.149266632793,0.00172368907101,-0.114379614055,-0.0341559159804,-0.0461984885784,-0.671479144364,0.573720898743,0.819019429914,0.0056789673366,0.0,0.819014764032,-0.573636578551,-0.0116892663308,0.0,-0.00631619446004,0.0113577531501,-0.99991555,0.0,0.330247275013,-0.174456546528,0.305039164985,1.0,-0.159737142857,-0.209940244898,3.414
-0.361646390288,-0.515648970632,-0.134460474977,-2.63747148061,-0.0688362020534,2.11366984239,-0.616661664524,-0.693981154671,-0.129340098224,0.00272861386385,-0.104710654557,-0.0286335783404,-0.0417287385368,-0.674712747222,0.573898362555,0.818894881828,0.00570866657328,0.0,0.818889729355,-0.573812338785,-0.01182192523,0.0,-0.006405334069,0.0114595725892,-0.999913821232,0.0,0.3273279637,-0.178279879643,0.304996064456,1.0,-0.157422857143,-0.206898612245,3.432
-0.373209110196,-0.517787953212,-0.134374777104,-2.63915347199,-0.0691522622226,2.11307955699,-0.628013052348,-0.681573007096,-0.121550874593,0.00163898302541,-0.0932539722103,-0.0220141610249,-0.0336109697261,-0.659120992364,0.573780459087,0.818977242328,0.00574527798715,0.0,0.81897216808,-0.57369361032,-0.0118733436562,0.0,-0.00642809273471,0.0115181371031,-0.999913002286,0.0,0.324697512084,-0.181718026977,0.304971944993,1.0,-0.155237142857,-0.204025959184,3.449
-0.384244374649,-0.51969815811,-0.134378915539,-2.64059879959,-0.0694770540926,2.11250185617,-0.638617015985,-0.688905492855,-0.11550125096,-0.00178939715475,-0.0820851742908,-0.0181776526737,-0.0377489802179,-0.651097985603,0.573915581502,0.818882267086,0.00578661073396,0.0,0.818877421405,-0.573827993665,-0.0119142478364,0.0,-0.0064359709637,0.0115765202356,-0.999912277381,0.0,0.322178912753,-0.185018695354,0.304968640225,1.0,-0.15318,-0.201322285714,3.465
-0.395582367075,-0.521489853984,-0.134252533359,-2.64190925539,-0.0697418012385,2.11198372449,-0.649781988966,-0.658328882599,-0.0979522653449,0.00467108543375,-0.07035621147,-0.0135385054898,-0.0289378590862,-0.65571878918,0.573779566567,0.818977347821,0.00581890439358,0.0,0.818973156021,-0.573692304548,-0.0118682905316,0.0,-0.00638172329921,0.0115755319578,-0.999912636518,0.0,0.319641017029,-0.188371851897,0.304990456038,1.0,-0.150994285714,-0.198449632653,3.482
-0.407000704135,-0.523136392702,-0.134194471456,-2.64312042842,-0.0700267363605,2.11150599592,-0.66082255844,-0.678308777863,-0.0950322016626,-0.00213372965055,-0.0709762585613,-0.0149419171037,-0.0299851869896,-0.649603858099,0.573856806438,0.818923010721,0.00584936896095,0.0,0.818919412071,-0.573769773238,-0.0118317687826,0.0,-0.00633323854574,0.0115801257919,-0.999912891594,0.0,0.317072748454,-0.191759339405,0.30500489302,1.0,-0.148808571429,-0.195576979592,3.499
-0.418219535401,-0.524567519649,-0.134111657126,-2.64415394753,-0.0702752977098,2.11108946991,-0.67177860239,-0.644744174101,-0.0793720384356,0.0111405163201,-0.0633105015835,-0.00731086827742,-0.0189839785882,-0.643016983249,0.573847938829,0.818929033182,0.00587610545624,0.0,0.818926122396,-0.573761433986,-0.0117715686763,0.0,-0.00626871735452,0.0115674093862,-0.999913445366,0.0,0.314569711892,-0.195078865802,0.305026223185,1.0,-0.146622857143,-0.192704326531,3.516
-0.429250745314,-0.525757172777,-0.134017101639,-2.64508408189,-0.070482657983,2.11070353091,-0.682606063758,-0.653414335127,-0.0672949987881,0.000903794765923,-0.0499013882575,-0.0115772015775,-0.0223337164896,-0.623951285013,0.573806505076,0.818957925052,0.00589564493208,0.0,0.818954933846,-0.573719319692,-0.0118197057023,0.0,-0.00629751750386,0.0116107150677,-0.999912762479,0.0,0.312102194067,-0.19832152894,0.305008460557,1.0,-0.144437142857,-0.189831673469,3.533
-0.440320990141,-0.526854413237,-0.133994837609,-2.64592293834,-0.0706877190565,2.11034264578,-0.693319085274,-0.640262675034,-0.0572861850976,0.00240376480225,-0.0464877039984,-0.0173150089448,-0.0252107054927,-0.626704742968,0.573947936666,0.818858458314,0.00594458954818,0.0,0.818855855125,-0.573860078677,-0.0118509716969,0.0,-0.00629302694771,0.0116698273911,-0.999912102607,0.0,0.309608922622,-0.201584311343,0.304998276947,1.0,-0.142251428571,-0.186959020408,3.55
-0.450315234274,-0.527710279946,-0.133863530265,-2.64658659316,-0.0708281472682,2.11008535166,-0.70325567094,-0.62833103114,-0.0521505811589,0.000150110952392,-0.0391775792112,-0.00898988599027,-0.0119033855919,-0.618575084653,0.573804684592,0.818958706693,0.00596385550609,0.0,0.818956360007,-0.573716793116,-0.0118435046224,0.0,-0.00627789804169,0.0116802207116,-0.999912076355,0.0,0.307385489847,-0.204495488863,0.304990820366,1.0,-0.140194285714,-0.184255346939,3.566
-0.461126275045,-0.528471461405,-0.13378681099,-2.64715549685,-0.0709760107935,2.10981961783,-0.713694627918,-0.639787325059,-0.0437180003223,0.00429398931776,-0.0315531353918,-0.014049724678,-0.016423105241,-0.617006679377,0.573959600703,0.818849888606,0.00599863249761,0.0,0.818847956051,-0.573871473554,-0.0118449825971,0.0,-0.00625693907491,0.0117107349095,-0.999911850816,0.0,0.304977038109,-0.207664219209,0.304989510504,1.0,-0.138008571429,-0.181382693878,3.583
