nelsonifechukwu/NELSON_IML_WORK/CNN-GradCAM/train2dof/data_sample_2022-02-22-09-04-39/robot_state.csv
position_joint1,position_joint2,position_joint3,position_joint4,position_joint5,position_joint6,position_joint7,velocity_joint1,velocity_joint2,velocity_joint3,velocity_joint4,velocity_joint5,velocity_joint6,velocity_joint7,ee_T_00,ee_T_10,ee_T_20,ee_T_30,ee_T_01,ee_T_11,ee_T_21,ee_T_31,ee_T_02,ee_T_12,ee_T_22,ee_T_32,ee_T_03,ee_T_13,ee_T_23,ee_T_33,v_x,v_y,time
0.465063736812,0.547804796648,-0.123991749123,-1.35583694535,0.0795266760051,1.8941088741,0.159171635351,-0.000446336431644,-0.000213330368795,0.000891111018821,0.00232175892861,9.09733872073e-05,9.02916251424e-05,0.00311230299872,0.573833729094,0.818957771771,0.00194069855438,0.0,0.81891428031,-0.573774974257,-0.0119342918824,0.0,-0.00866032356268,0.00843772742734,-0.999926899104,0.0,0.661679045947,0.260886130632,0.30319665567,1.0,0.0,0.0,0.0
0.465060820627,0.547804798186,-0.123997758834,-1.35584256179,0.0795234816091,1.89410588202,0.159166942825,-0.00134494004647,-0.000446706259577,-0.000799024401207,-0.000134034499926,-0.000131184576481,0.000241164024687,-0.000693249015684,0.573835912288,0.818956266236,0.00193045653847,0.0,0.818912691141,-0.573777248581,-0.0119339935035,0.0,-0.00866593356587,0.00842919169645,-0.999926922491,0.0,0.661679480551,0.260879333527,0.303193914707,1.0,-0.00028,-0.000368,0.015
0.465063083789,0.547794964452,-0.12400012841,-1.35584831473,0.0795244092181,1.89410473303,0.159170685523,-0.000315175643804,-0.00178109749908,-0.00101500645331,-0.000664577273926,0.000315566236422,7.21577868556e-05,-0.000651067018184,0.573830662661,0.818959931005,0.0019362075541,0.0,0.818916434514,-0.573771979091,-0.0119304733309,0.0,-0.00865980470378,0.00843182594282,-0.999926953379,0.0,0.661676957259,0.260883632804,0.303198768878,1.0,-0.0006,-0.000788571428571,0.031
0.465070096069,0.54775201347,-0.123997377711,-1.35588622814,0.0795235592201,1.89411276079,0.1591672255,0.00183278843935,-0.00759132513169,-0.000712273136806,-0.00713517911783,4.50123641059e-05,0.00507795416887,-0.000462669182921,0.573830641169,0.818959921256,0.00194667229388,0.0,0.81891651915,-0.573771872961,-0.0119297679947,0.0,-0.00865322265075,0.00843999101218,-0.999926941476,0.0,0.661669729421,0.260881685028,0.303211109884,1.0,-0.00098,-0.001288,0.05
0.465060292007,0.547670263197,-0.123994695919,-1.35599209735,0.07952285229,1.89414768308,0.159166010236,-0.000581601800661,-0.00773068911666,-0.000188933587354,-0.010295093556,-0.00342524210168,0.00261366313143,-0.00038023441867,0.573841493136,0.818952285473,0.00196004463353,0.0,0.818908987429,-0.573782599252,-0.0119308845315,0.0,-0.00864635211939,0.00845169748152,-0.999926902031,0.0,0.661656567312,0.260867516293,0.303221576375,1.0,-0.0013,-0.00170857142857,0.066
0.465056387016,0.547546641756,-0.12399030883,-1.35616468937,0.0795201368343,1.8941732249,0.159166721569,-0.000502633392157,-0.00591964719895,0.00840125188573,-0.00756965969325,7.10344172691e-05,0.00475226881509,0.00140760766119,0.573850868197,0.81894574732,0.00194702777962,0.0,0.81890213547,-0.573791886969,-0.0119544917401,0.0,-0.00867305841149,0.00845468344929,-0.999926645502,0.0,0.661625517897,0.260849897898,0.303229070042,1.0,-0.0016,-0.00210285714286,0.081
0.465037209733,0.547373824937,-0.123997076252,-1.35639340175,0.0795169941247,1.89428613616,0.159154829662,-0.00349860246867,-0.0152076575661,0.00141079934077,-0.0141090015281,0.000296012164158,0.00753735259964,-0.0009360126491,0.57387369663,0.818929625189,0.00199905112311,0.0,0.818886669713,-0.573814474007,-0.0119297312878,0.0,-0.00862269191691,0.00848331864087,-0.999926838568,0.0,0.661606899341,0.260815583452,0.303252653052,1.0,-0.00196,-0.002576,0.099
0.465023614838,0.547182796909,-0.123992463478,-1.35661487286,0.0795142210998,1.89440417443,0.15914406641,-7.35599289074e-06,-0.0103858646486,0.00151164246171,-0.0192938990928,-0.000132440930028,0.0101828094911,-0.000667085870091,0.573884624439,0.818921765137,0.00208022095407,0.0,0.818879801356,-0.57382500207,-0.0118947397068,0.0,-0.00854734300608,0.0085298233766,-0.999927089862,0.0,0.66158734986,0.260793060848,0.303292644638,1.0,-0.0023,-0.00302285714286,0.116
0.465003763891,0.546970657234,-0.123995517662,-1.35687810996,0.0795113651317,1.89453005725,0.159129950359,-0.000369251495738,-0.0181565087756,0.00046677985803,-0.0168684972723,9.83925991998e-05,0.00324524396864,-0.00156590305008,0.573905555025,0.818906916644,0.00215004323808,0.0,0.818865803756,-0.573845590458,-0.0118651022846,0.0,-0.00848278481599,0.00857020999944,-0.999927294288,0.0,0.66156372687,0.260757796432,0.303328637278,1.0,-0.00262,-0.00344342857143,0.132
0.464966473175,0.546740576589,-0.123996001671,-1.35723303379,0.0795046543854,1.89466526267,0.159100529439,-0.00766784195141,-0.00980682427689,-0.00100933003962,-0.0173849748934,-0.000205162412098,0.00562166827101,-0.00132790231551,0.57393045233,0.818889424428,0.00216641400753,0.0,0.818848400631,-0.573870293886,-0.0118713723137,0.0,-0.00847826383077,0.00858747206238,-0.999927184532,0.0,0.661525552838,0.260701830809,0.303334403375,1.0,-0.00296,-0.00389028571429,0.149
0.464931345244,0.546447839995,-0.123992810315,-1.35764485534,0.0794981855092,1.89480951202,0.158959111747,-0.00208578516652,-0.0188363087443,0.00101744110893,-0.0256858215348,-9.20373504313e-05,0.0118262876707,-0.0119298695702,0.573862407027,0.818937019087,0.00220078887847,0.0,0.818896244118,-0.573801918269,-0.0118763151643,0.0,-0.00846330020295,0.00861775447195,-0.999927050768,0.0,0.661476335855,0.260644148834,0.303358109535,1.0,-0.0033,-0.00433714285714,0.166
0.46489164295,0.54618266642,-0.12399555273,-1.35810048675,0.0794828949062,1.89497211149,0.158927775344,-0.00399835313428,-0.0168249542397,0.00101698894415,-0.0312196383095,-0.00224908076895,0.0170334882812,0.000906437549611,0.573886787441,0.818919968789,0.00218788028358,0.0,0.818878889151,-0.573826208383,-0.0118993435723,0.0,-0.00848931046486,0.00862065100583,-0.999926805313,0.0,0.661424802566,0.260583287305,0.303345468706,1.0,-0.0036,-0.00473142857143,0.181
0.46483633985,0.545852428296,-0.123997904922,-1.35863956791,0.0794587494963,1.89515502076,0.158885575302,-0.00990517834096,-0.01352162071,-0.000192445332065,-0.0312556385971,-0.00203069442447,0.0145119980685,-0.00494315418911,0.573928652266,0.81889069318,0.00216370809298,0.0,0.818849237698,-0.573868103758,-0.0119194090278,0.0,-0.00851917408112,0.00861280690488,-0.999926618923,0.0,0.661360714844,0.2604851593,0.303336361914,1.0,-0.00396,-0.00520457142857,0.199
0.464773863724,0.545501487279,-0.123993130376,-1.35924724416,0.0793602999213,1.89535150323,0.158777341307,-0.0100596484478,-0.0257277948835,0.000761514179491,-0.0361169616575,-0.0100883528791,0.00534114510335,-0.00477693914858,0.573895518677,0.818914132038,0.00207963748258,0.0,0.818872061628,-0.573835798526,-0.0119067173197,0.0,-0.00855737339977,0.00853633309558,-0.999926948521,0.0,0.661290250562,0.260376465559,0.303312311263,1.0,-0.0043,-0.00565142857143,0.216
0.464712362751,0.545131545676,-0.124003773631,-1.3599034048,0.0793211712452,1.89556504522,0.158711174817,-0.00206609088437,-0.0240502786097,-0.00146541462257,-0.0370987139358,-0.00092201759237,0.0178235745394,-0.00681970079669,0.573925274889,0.818893440525,0.00201464876444,0.0,0.818850524,-0.573865819266,-0.0119410102113,0.0,-0.00862244288029,0.00850310747558,-0.999926672633,0.0,0.661212436067,0.260264751192,0.303280710911,1.0,-0.00462,-0.006072,0.232
0.464644225072,0.544710155619,-0.123998495854,-1.36061729513,0.0793017305889,1.89580506375,0.158632687138,-0.00345580227417,-0.0236077580987,-0.000414126825265,-0.0409634321443,7.21822797026e-05,0.0107950813549,-0.00741158055769,0.57394832227,0.818877352648,0.00198785963633,0.0,0.818833780442,-0.573888674835,-0.0119906548452,0.0,-0.00867823264658,0.0085099066944,-0.999926132155,0.0,0.661120460959,0.260149523576,0.303263958806,1.0,-0.00498,-0.00654514285714,0.25
0.464567573361,0.544188226382,-0.124001581646,-1.361468855,0.0792756911266,1.89612011811,0.158504619349,-0.00319903120389,-0.0266699363375,-0.00043202984962,-0.0475159322114,-0.00137793505277,0.015871951027,-0.00590120552343,0.57394834283,0.818877348057,0.00198381003853,0.0,0.818833516163,-0.573888509899,-0.012016568352,0.0,-0.00870177737411,0.008521463706,-0.999925829113,0.0,0.661027682461,0.260027159774,0.30325130607,1.0,-0.00534,-0.00701828571429,0.268
0.46450360777,0.543742138685,-0.124006665107,-1.36219890957,0.0792437524831,1.89636768767,0.158439510856,-0.00115363919253,-0.0274360042464,-0.00384975593863,-0.0493725947085,-0.000185536760523,0.0200862835141,-0.00682473849917,0.573983027246,0.81885309907,0.00195792718121,0.0,0.818808805057,-0.573923179648,-0.0120445641598,0.0,-0.00873919715246,0.00851670738695,-0.999925543292,0.0,0.660940359093,0.259912758545,0.303241089941,1.0,-0.00564,-0.00741257142857,0.283
0.464421269704,0.543202825474,-0.124007718848,-1.36304959321,0.0791938196905,1.89665687423,0.158310479855,-0.00448198926413,-0.0306422564379,-7.8307296694e-05,-0.052241884798,-0.00131620415939,0.0207131867763,-0.00524880005009,0.573979424165,0.818855666519,0.00194034715627,0.0,0.818811088607,-0.573919600261,-0.0120598719182,0.0,-0.00876185988637,0.00851105997069,-0.999925393052,0.0,0.660840769988,0.259775376408,0.303242811079,1.0,-0.00598,-0.00785942857143,0.3
0.46435048554,0.5426003654,-0.124005915235,-1.36400215649,0.0791371108912,1.89699997141,0.158185399196,-0.00326884035974,-0.0275129297417,0.00126802709852,-0.0500534728126,-0.0034532653059,0.0240667014641,-0.0128791096292,0.573971516534,0.818861221823,0.00193507193335,0.0,0.818816534205,-0.573911676948,-0.0120671984127,0.0,-0.00877096932629,0.00851086092762,-0.999925314883,0.0,0.660726710451,0.259638591474,0.303245216166,1.0,-0.00634,-0.00833257142857,0.318
0.464270821432,0.542034848674,-0.124013856809,-1.36487486403,0.0790851665179,1.89732495853,0.15804861935,-0.00835471128984,-0.0402599273285,-0.000484229345452,-0.0523341306518,-0.00386359854882,0.0230570837633,-0.0109404264065,0.573964959679,0.818865785356,0.00194872669022,0.0,0.818821304224,-0.573905088927,-0.0120568467739,0.0,-0.00875472369356,0.0085160304625,-0.999925413238,0.0,0.660630605777,0.259498837071,0.303258176952,1.0,-0.00666,-0.00875314285714,0.334
0.464197911533,0.541439765731,-0.124011379645,-1.36579343729,0.0790290737885,1.89766545661,0.157940909594,-0.00738870587678,-0.0359083349249,0.00345372059847,-0.0585016009364,-0.0040853075924,0.0191059508659,-0.00798551922459,0.573970743419,0.818861696924,0.00196313772915,0.0,0.818817391294,-0.573910797213,-0.0120508695559,0.0,-0.00874149785573,0.00852446199432,-0.999925457103,0.0,0.660523744531,0.259364915999,0.303271136692,1.0,-0.00698,-0.00917371428571,0.35
0.464106275041,0.54071382641,-0.124013985168,-1.36691845054,0.0789677698016,1.89807478328,0.157796424776,-0.00318464667875,-0.0399599121352,0.000307098781711,-0.063604214019,-0.00402498920252,0.0230536181202,-0.00809839723087,0.573975257117,0.818858504832,0.00197488798239,0.0,0.818814285002,-0.573915193578,-0.0120525581736,0.0,-0.00873608974353,0.00853510099501,-0.999925413612,0.0,0.660392541228,0.259196726377,0.303284395492,1.0,-0.00734,-0.00964685714286,0.368
0.464017986121,0.540019808597,-0.124019985639,-1.36795706401,0.0789060763653,1.89845545467,0.157677240197,-0.0064170644936,-0.0453445224401,-0.00105258576259,-0.071532398731,-0.0105106688583,0.0191599346426,-0.00927993858831,0.573995132461,0.818844499514,0.00200510045655,0.0,0.818800686427,-0.573934948571,-0.0120356809685,0.0,-0.00870472152439,0.00855036454295,-0.999925556774,0.0,0.660274469147,0.259036622524,0.30331371446,1.0,-0.00766,-0.0100674285714,0.384
0.463910365129,0.539276285505,-0.1240123111,-1.36910324813,0.0788368335666,1.89889506226,0.157534353254,-0.00540903982519,-0.0451474622521,0.0007957501724,-0.0657044098235,-0.00716529488901,0.0287794277973,-0.00839761847553,0.574005849067,0.818836907168,0.00203754726031,0.0,0.818793493078,-0.573945501318,-0.0120218181046,0.0,-0.00867463428511,0.00856908932856,-0.999925657951,0.0,0.660146677905,0.258862351282,0.30333136564,1.0,-0.008,-0.0105142857143,0.401
0.463814864581,0.538559996159,-0.124025738925,-1.37022271499,0.0787758915939,1.89933332671,0.157388572452,-0.00508053691024,-0.0436587474003,0.000189748140412,-0.0678095729516,-0.000818647459621,0.0299835794734,-0.00617687496897,0.574019828904,0.818827034795,0.00206640137062,0.0,0.818784028236,-0.573959388101,-0.0120034502311,0.0,-0.00864288549608,0.00858232012234,-0.999925819404,0.0,0.660025087243,0.258687912951,0.303342966806,1.0,-0.00832,-0.0109348571429,0.417
0.463697760878,0.537771841147,-0.124024161026,-1.37145159975,0.0787053494171,1.89981319076,0.157237238539,-0.00892518762052,-0.0492013276465,0.00364003084985,-0.0744264134057,-0.0105739480421,0.0335239338202,-0.0084448845391,0.574039788458,0.818812955267,0.00210058446833,0.0,0.818770379271,-0.573979186569,-0.0119877568633,0.0,-0.00861020463291,0.00860151136145,-0.999925936447,0.0,0.65989080056,0.258497159537,0.303356229926,1.0,-0.00866,-0.0113817142857,0.434
0.463583857727,0.536895371062,-0.124030420358,-1.37282462879,0.0786245299998,1.90031188879,0.15706743802,-0.0045760543469,-0.047852394357,0.00110920149356,-0.0790241074916,-0.00286499571903,0.0298482364604,-0.0107386599387,0.574054431227,0.818802685324,0.00210223608841,0.0,0.818760141438,-0.573993831164,-0.011985803229,0.0,-0.00860750304438,0.00860189618565,-0.999925956395,0.0,0.659741254145,0.258296054818,0.303365376379,1.0,-0.009,-0.0118285714286,0.451
0.46346118154,0.536039665232,-0.124035540605,-1.37415882242,0.0785475142856,1.90081010114,0.156903719034,-0.00374394147325,-0.052679771514,0.00011618848067,-0.0852073164524,-0.00842102356165,0.025016914741,-0.0153259393209,0.574075130341,0.818788130718,0.00211863648675,0.0,0.818745761161,-0.574014419788,-0.0119821265894,0.0,-0.00859486061614,0.00861343136175,-0.999925965845,0.0,0.659579891654,0.258077962102,0.303377300287,1.0,-0.00936,-0.0123017142857,0.469
0.463353226052,0.535257247512,-0.124045000685,-1.37540815965,0.0784813268168,1.90125760863,0.156744966036,-0.0112017406713,-0.0515807727814,-0.00255225710758,-0.0827899697563,-0.00287954005871,0.0288191068483,-0.0118495813159,0.574091012616,0.818777031056,0.00210464980186,0.0,0.818734403499,-0.574030282772,-0.011998245248,0.0,-0.00861592078432,0.00861139976028,-0.999925802099,0.0,0.659433299938,0.257882895263,0.303373902974,1.0,-0.00966,-0.012696,0.484
0.463220581198,0.534304191632,-0.124042907608,-1.37696884153,0.07839780382,1.90181637231,0.156557976616,-0.00458267017492,-0.0534256970012,4.55387569712e-05,-0.0867417178093,-0.000703326177207,0.027375371243,-0.0132359343661,0.574108192187,0.818765077697,0.00206835893994,0.0,0.818721814367,-0.574047451669,-0.0120358137853,0.0,-0.00866733470353,0.00860343552067,-0.999925426323,0.0,0.659245389733,0.257648300252,0.303351827113,1.0,-0.01002,-0.0131691428571,0.502
0.463099064236,0.533380992801,-0.124052058592,-1.37844619818,0.0783019909926,1.90236657925,0.156375277718,-0.0043340212953,-0.0557497494556,0.00052809085929,-0.0881246529615,-0.00531402080717,0.03610631911,-0.00731890131708,0.574117375635,0.818758670256,0.00205566906477,0.0,0.818715305546,-0.574056751651,-0.0120350009886,0.0,-0.00867385769884,0.00859267634547,-0.999925462275,0.0,0.659062687127,0.257408623491,0.303345912676,1.0,-0.01038,-0.0136422857143,0.52
0.462976959717,0.532485227221,-0.124052885335,-1.37988786114,0.0782378978959,1.90291411638,0.156197465838,-0.00683826377718,-0.0587618688809,-0.00146229792947,-0.0971123542695,-0.000293355490572,0.0303361967411,-0.00812888166126,0.574136481988,0.818745236593,0.00206990540004,0.0,0.81870187517,-0.574075613896,-0.0120489013628,0.0,-0.0086768654403,0.00861251509032,-0.999925265502,0.0,0.658906504535,0.257207907906,0.30334067489,1.0,-0.01068,-0.0140365714286,0.535
0.462844056552,0.531463097563,-0.124047596012,-1.38155632131,0.0781384021315,1.90351782978,0.155972811101,-0.00639586900013,-0.0493348598905,-8.99795608525e-05,-0.0929973227438,-0.00640580126348,0.0360014743255,-0.0122128216272,0.574121883945,0.818755561575,0.00203461716577,0.0,0.818711646586,-0.574061077466,-0.0120774990838,0.0,-0.00872069292273,0.00859988687178,-0.999924992917,0.0,0.658703234321,0.256963656296,0.303319172494,1.0,-0.01104,-0.0145097142857,0.553
0.4627099228,0.530435850446,-0.124047722689,-1.38320216617,0.0780354608672,1.90408309629,0.155761338963,-0.00425927399808,-0.0666093243188,-6.30324181338e-05,-0.0952933992187,-0.00662730269541,0.0225295796916,-0.0215898713418,0.574120280453,0.818756800464,0.00198800570354,0.0,0.81871221336,-0.57405961503,-0.0121085501904,0.0,-0.00877289292869,0.00857953396353,-0.999924711139,0.0,0.658498965242,0.256715081744,0.303308626958,1.0,-0.01138,-0.0149565714286,0.57
0.462576699968,0.529468520268,-0.124051766704,-1.38474280137,0.077940417377,1.90466444873,0.155554100653,-0.00784888959878,-0.0607095131885,0.00410748239782,-0.0965432413285,-0.00663853193324,0.0350778702128,-0.014954675675,0.57412076357,0.81875645306,0.00199155990307,0.0,0.818711941183,-0.574060110679,-0.0121034537406,0.0,-0.00876667454169,0.00857952316001,-0.99992476577,0.0,0.658320703873,0.256478901106,0.303307252597,1.0,-0.0117,-0.0153771428571,0.586
0.462433974349,0.528377258596,-0.124052560747,-1.38644568657,0.0778309382743,1.90531214624,0.155320693022,-0.00870775375013,-0.0646348190376,-0.00102421681589,-0.101743416135,-0.00835672215053,0.0323235570862,-0.0134566893262,0.574110023975,0.81876392007,0.00201753923834,0.0,0.818719812791,-0.574049323235,-0.0120826130374,0.0,-0.00873480875299,0.00858871396748,-0.999924965739,0.0,0.65812303996,0.25622292034,0.303321321517,1.0,-0.01204,-0.015824,0.603
0.46228653176,0.527243044244,-0.124053275862,-1.38819825313,0.0777223773234,1.90598920791,0.155078814535,-0.0104526672789,-0.0698395839482,0.000234002557777,-0.106567831379,-0.00261453454896,0.0469660312546,-0.0182276167534,0.574098946265,0.818771569613,0.00206484665702,0.0,0.818728126637,-0.574038089153,-0.0120529563232,0.0,-0.00868348452183,0.00861030333485,-0.999925227091,0.0,0.657921361795,0.25596071052,0.303344249252,1.0,-0.01238,-0.0162708571429,0.62
0.46215493127,0.526223243962,-0.124055667616,-1.38978079904,0.0776287119941,1.90658289539,0.154856065316,-0.00940543382123,-0.0653559232412,-0.000123173661493,-0.107306295902,-0.00845377750767,0.043663856336,-0.0181076279292,0.57408708197,0.818779811866,0.00209496944003,0.0,0.818736718599,-0.574026054707,-0.012042468048,0.0,-0.00865772936846,0.0086288198778,-0.999925290804,0.0,0.65772056134,0.2557060862,0.303364101061,1.0,-0.0127,-0.0166914285714,0.636
0.461989103267,0.524974149799,-0.124058863864,-1.391734567,0.0774930067765,1.90728215593,0.154604871856,-0.00924835523692,-0.0715889229405,0.00017540955642,-0.111418809502,-0.0125805006974,0.0415459053991,-0.0077366310672,0.574087021101,0.81877990017,0.00207706085362,0.0,0.818736706396,-0.574026202551,-0.0120362488427,0.0,-0.00866291805963,0.0086105859861,-0.999925403047,0.0,0.657499117591,0.255422530333,0.303369537044,1.0,-0.01304,-0.0171382857143,0.653
0.461829318222,0.523795800397,-0.124065591854,-1.39361637069,0.0773829672413,1.90796649274,0.154336600084,-0.00621894765439,-0.0700121679284,0.00164482242969,-0.108444282207,-0.00961942299874,0.0412246607609,-0.0115808533875,0.574074380739,0.818788803174,0.0020610864898,0.0,0.818745342856,-0.574013574288,-0.0120510159847,0.0,-0.00868431253215,0.00860585019274,-0.999925258236,0.0,0.657272613089,0.255134320943,0.303361973031,1.0,-0.01338,-0.0175851428571,0.67
0.461675225851,0.522626074597,-0.124064150459,-1.39543400353,0.077267849214,1.90867340872,0.154102154622,-0.0126908272599,-0.0713626061423,0.000801317006803,-0.116747349376,-0.00843284803161,0.0453932806596,-0.00865327963157,0.574074137109,0.818788856578,0.00210721324924,0.0,0.818746061952,-0.574013198249,-0.0120200322582,0.0,-0.00863246645388,0.0086258282701,-0.999925535032,0.0,0.657061877769,0.254862842936,0.303380235589,1.0,-0.0137,-0.0180057142857,0.686
0.461507945351,0.521387456969,-0.124070931937,-1.39741823932,0.0771509439388,1.90944769061,0.153823099227,-0.00866269814021,-0.0725777632455,0.000184738537017,-0.119113238338,-0.00421199851023,0.0451925441238,-0.0175878003308,0.57406233662,0.818797073375,0.00212913314603,0.0,0.818754587617,-0.574001330114,-0.0120060478497,0.0,-0.00860855732577,0.00863562367567,-0.999925656609,0.0,0.65683185272,0.254563340823,0.303373444577,1.0,-0.01404,-0.0184525714286,0.703
0.461327921583,0.520022349083,-0.124080127669,-1.39956816965,0.0770164043399,1.91022811158,0.153528963456,-0.0147915028224,-0.0748779434584,-0.000554492900411,-0.12178370773,-0.0130276363563,0.0374957877702,-0.0256654137936,0.574053646895,0.818803186605,0.00212108323424,0.0,0.818760615782,-0.573992695204,-0.0120077806974,0.0,-0.00861468867616,0.00862993586844,-0.999925652909,0.0,0.656571294526,0.25423372954,0.303376827271,1.0,-0.0144,-0.0189257142857,0.721
0.461174422316,0.518830726678,-0.124078701593,-1.40141393719,0.0768981775863,1.91088154098,0.153289804877,-0.0105615901312,-0.0806361210312,0.00216891322406,-0.12937640428,-0.0117999002061,0.0415207796662,-0.0243465348618,0.574048469027,0.818806823028,0.00211864855062,0.0,0.818764195992,-0.573987503717,-0.012011820804,0.0,-0.00861944898956,0.00863020707811,-0.999925609545,0.0,0.656341925401,0.253955636807,0.303391418096,1.0,-0.0147,-0.01932,0.736
0.460989898054,0.517395390472,-0.124085379149,-1.40366479776,0.0767554947543,1.91168218709,0.152988540174,-0.0129715476555,-0.0833567719679,0.000729422617408,-0.124145632225,-0.00468217209026,0.0455378983895,-0.0142058477738,0.574038215138,0.81881405434,0.00210211262089,0.0,0.818771208098,-0.573977317248,-0.0120206063133,0.0,-0.00863624270278,0.0086216026757,-0.999925538867,0.0,0.656062859434,0.253613668834,0.303396902254,1.0,-0.01506,-0.0197931428571,0.754
0.46080683367,0.516042482562,-0.124090444668,-1.40580889597,0.0766209713987,1.91249553329,0.152687354119,-0.0121406282543,-0.0779369314866,0.001604577634,-0.128497681412,-0.00979910652119,0.0541224431259,-0.0181040292016,0.574022287562,0.818825184692,0.00211593902968,0.0,0.818782568517,-0.573961383194,-0.012007622398,0.0,-0.0086178422557,0.00862530293444,-0.999925665709,0.0,0.655807447573,0.253287370559,0.303396011719,1.0,-0.0154,-0.02024,0.771
0.460639062397,0.514743996403,-0.124096181806,-1.40789936146,0.0764918999445,1.91326765381,0.152389871212,-0.0123856307023,-0.0865659134799,0.000623116459816,-0.136789997661,-0.00713614762421,0.0477188325206,-0.0192636939585,0.573995573456,0.81884396384,0.00209557577708,0.0,0.818801076111,-0.573934752238,-0.0120185204514,0.0,-0.00863873548396,0.00861460309776,-0.999925577662,0.0,0.655550290617,0.252974516515,0.303378562562,1.0,-0.01572,-0.0206605714286,0.787
0.460440239282,0.513346213151,-0.12409502223,-1.41016223003,0.076355406905,1.91404656649,0.152092780541,-0.0122848696915,-0.0830060200904,0.000762096197314,-0.132222578301,-0.00450597487172,0.0376471713117,-0.0214950003762,0.573996073873,0.818843792789,0.0020241268475,0.0,0.818799812779,-0.573935399607,-0.0120735484478,0.0,-0.00872480013179,0.00858768943016,-0.999925061919,0.0,0.65526199466,0.2526255612,0.303348631928,1.0,-0.01606,-0.0211074285714,0.804
0.460229787633,0.511826616667,-0.12410253382,-1.41258628336,0.0762145869642,1.91491619787,0.151745080273,-0.0163280200059,-0.0895844098774,0.000692330129678,-0.138655803525,-0.00163561573287,0.0461216303689,-0.0187069728404,0.573977976589,0.818856545237,0.00199690119255,0.0,0.818812086109,-0.573917301767,-0.0121014575723,0.0,-0.0087634703196,0.00858122217746,-0.999924779278,0.0,0.65496086568,0.252251885024,0.303334982867,1.0,-0.01642,-0.0215805714286,0.822
0.460053252398,0.510539562821,-0.12410638115,-1.41464204341,0.076082502931,1.91571051472,0.151451564553,-0.0137121403989,-0.0919283835629,-0.000832058729499,-0.133346575197,-0.00631735381185,0.0455582831344,-0.0152253192095,0.573956865175,0.818871306519,0.002011760481,0.0,0.818827126951,-0.573896212059,-0.0120839089336,0.0,-0.00874079286405,0.00858309179648,-0.999924961722,0.0,0.654715632757,0.251939532091,0.30332666519,1.0,-0.01672,-0.0219748571429,0.837
0.459832200219,0.508863294457,-0.124115273699,-1.41729024658,0.0759135654754,1.91667137436,0.151080071364,-0.01119977462,-0.0908939650604,-0.000116954543387,-0.139133840766,-0.00677255606965,0.0536780159744,-0.0221063465645,0.573932098525,0.818888702626,0.00199647090831,0.0,0.818844346252,-0.573871537524,-0.0120889177464,0.0,-0.00875392887999,0.00857318190714,-0.999924931823,0.0,0.654385877279,0.251535394397,0.303322887834,1.0,-0.0171,-0.0224742857143,0.856
0.459637388143,0.507441460167,-0.12411163491,-1.41953615988,0.0757763172753,1.91747882865,0.150762950289,-0.0116662071153,-0.095222084535,0.000525217903049,-0.145640206045,-0.0051428557564,0.0466140714391,-0.0314590559964,0.573908672303,0.818905151733,0.0019837392815,0.0,0.818860526028,-0.573848069194,-0.0121069937218,0.0,-0.00877628354497,0.00857287953851,-0.99992473846,0.0,0.65410277521,0.251194928193,0.303318342172,1.0,-0.01742,-0.0228948571429,0.872
0.459421723253,0.505876818477,-0.124116389687,-1.42197383154,0.0756242494213,1.91838517449,0.150438570253,-0.01096282511,-0.101673505324,0.00101015571829,-0.141868380868,-0.00467520850287,0.0542553761665,-0.0205378349199,0.573908031644,0.818905539352,0.00200891365076,0.0,0.818861254534,-0.573847330291,-0.0120927350835,0.0,-0.00875016647832,0.00858530463497,-0.999924860743,0.0,0.653804268234,0.250819407991,0.303330687249,1.0,-0.01776,-0.0233417142857,0.889
0.459208190042,0.504316359216,-0.124122419851,-1.42430887491,0.0754764334091,1.91928698276,0.150114683238,-0.0143933714394,-0.0989957335214,0.00122069402304,-0.148431716689,-0.00542212766451,0.0605085696634,-0.0229007514099,0.573902488399,0.818909162442,0.00211290769195,0.0,0.818866340429,-0.57384144564,-0.0120274136741,0.0,-0.00863705154373,0.00863291783634,-0.999925434255,0.0,0.653527917596,0.250457074471,0.303387938707,1.0,-0.01808,-0.0237622857143,0.905
0.458947623889,0.502450602607,-0.124125853396,-1.42707425066,0.0752976111704,1.92032796115,0.149728790606,-0.0121257403302,-0.102471407285,0.00119243046308,-0.145802451498,-0.00452936606158,0.0550667677853,-0.0222977468549,0.573895833926,0.818913518962,0.00222871382629,0.0,0.818872307768,-0.573834412954,-0.0119564619003,0.0,-0.00851255949211,0.00868696295832,-0.999926033767,0.0,0.653195745379,0.250023067257,0.303464879823,1.0,-0.01846,-0.0242617142857,0.924
0.45876483435,0.501142879361,-0.124134444139,-1.42904214777,0.0751698905093,1.92101650846,0.149448361463,-0.0144879812491,-0.102974472753,0.000544867582248,-0.158390149723,-0.0150440786456,0.0510876006023,-0.0248882813822,0.573884427442,0.81892143046,0.00225866649266,0.0,0.818880575558,-0.573822851375,-0.0119450875133,0.0,-0.00848617709146,0.00870484542108,-0.999926102502,0.0,0.652926548808,0.249688956681,0.303508391051,1.0,-0.01874,-0.0246297142857,0.938
0.458477558652,0.49913049076,-0.124126661941,-1.43210486865,0.0749814844655,1.92213249158,0.149010511798,-0.0139831669603,-0.0981958226007,0.001284100386,-0.151935497841,-0.00504479750647,0.0577932335548,-0.0272515320231,0.573863949186,0.818935639125,0.00230947950201,0.0,0.81889539149,-0.573802114798,-0.0119255084133,0.0,-0.00844120215134,0.00873500965107,-0.999926220135,0.0,0.652565523741,0.249234227671,0.303543431573,1.0,-0.01912,-0.0251291428571,0.957
0.458252534155,0.497660266618,-0.124132344852,-1.43443270931,0.074837797459,1.92299752292,0.148674402797,-0.0130065772992,-0.0933169600324,0.000454039206791,-0.153939606237,-0.00739755284379,0.0538522545193,-0.0186640173849,0.573852709947,0.818943525923,0.00230554467179,0.0,0.818903190058,-0.573790854512,-0.0119317849307,0.0,-0.0084487202384,0.00873527318461,-0.999926154338,0.0,0.652258554308,0.248839060386,0.303529670735,1.0,-0.01944,-0.0255497142857,0.973
0.457989014888,0.495975768581,-0.124129998179,-1.43712316496,0.074670382394,1.92393689881,0.148270173598,-0.014920290521,-0.0991832817086,5.17954299816e-05,-0.158599222639,-0.0110523433201,0.0520770075716,-0.0186005431736,0.573830241127,0.818959402448,0.00225796619868,0.0,0.818918321871,-0.573768452788,-0.011970446508,0.0,-0.00850792375085,0.0087182619499,-0.999925800818,0.0,0.65193436255,0.248432405166,0.303510480596,1.0,-0.01976,-0.0259702857143,0.989
0.457731480757,0.494406240163,-0.124134474866,-1.43970418646,0.0745083479519,1.92483428322,0.147916674856,-0.014960764818,-0.0991942636446,-0.00145787169748,-0.156340012909,-0.00418975451456,0.0599091207354,-0.0317726806746,0.573840946345,0.8189521698,0.00215842054857,0.0,0.818909671528,-0.573779448432,-0.012035004618,0.0,-0.00861780171302,0.00867389690111,-0.999925245709,0.0,0.651602752234,0.2480114688,0.303453271262,1.0,-0.0224691428571,-0.0295308734694,1.005
0.457403594039,0.491957986116,-0.12421581862,-1.44339522466,0.0742998211015,1.9262118673,0.147383250826,-0.0201291656489,-0.154858713228,-0.00502414146678,-0.235126936792,-0.0112106893679,0.0896247838593,-0.0320211667632,0.573860496859,0.818938177817,0.00226670680977,0.0,0.818897264759,-0.57379872401,-0.0119599747608,0.0,-0.00849400999818,0.00871972494688,-0.999925906351,0.0,0.651156347225,0.247404627155,0.303522326889,1.0,-0.0336702857143,-0.0442523755102,1.023
0.456982005851,0.488859243159,-0.124246928616,-1.4483584691,0.074031886741,1.92808186529,0.146626833573,-0.0294485756283,-0.201038046914,-0.00419694330844,-0.318347178154,-0.0170546086213,0.110863099224,-0.0526361237881,0.573785214762,0.818990881751,0.00228250540136,0.0,0.818949895359,-0.57372310015,-0.0119841623743,0.0,-0.0085055573933,0.00874576112426,-0.999925580809,0.0,0.650527787067,0.246648010884,0.303478176835,1.0,-0.0442491428571,-0.0581560163265,1.04
0.456378922602,0.484772741173,-0.124334373915,-1.45475960028,0.0736572128675,1.9304972209,0.145670840344,-0.039805082833,-0.262429809645,-0.00875013011656,-0.398622080137,-0.0253130134551,0.145164836063,-0.0610836013844,0.573775923729,0.818997176568,0.00235818229294,0.0,0.81895731293,-0.573713645953,-0.0119297505095,0.0,-0.0084176726896,0.00877642322579,-0.999926055857,0.0,0.64974068763,0.245603212687,0.303481964013,1.0,-0.054828,-0.0720596571429,1.057
0.455614819734,0.479815819121,-0.124471498107,-1.46263075855,0.0731828838648,1.93322286272,0.144475899456,-0.0459104202733,-0.317800160985,-0.00606021508164,-0.49379823756,-0.0297175227963,0.170157069785,-0.0764876250092,0.573779334784,0.818995272992,0.00218281762929,0.0,0.818953096091,-0.573717745321,-0.012021730694,0.0,-0.00859358485597,0.00868561312123,-0.999925352426,0.0,0.648724980646,0.244268496231,0.303413992075,1.0,-0.0654068571429,-0.0859632979592,1.074
0.454808100046,0.474648067447,-0.124587687442,-1.47066633949,0.0726977110145,1.93607270022,0.143322558066,-0.0556943920172,-0.356761393989,-0.0106782916361,-0.5657399262,-0.039458320078,0.202790599232,-0.0784059688081,0.573847979877,0.818947256174,0.00215278827573,0.0,0.818904768097,-0.573786588987,-0.012028216324,0.0,-0.00861539958681,0.00866546305977,-0.999925339533,0.0,0.647626400079,0.242803072155,0.303414874534,1.0,-0.0753634285714,-0.099049077551,1.09
0.453656178906,0.467590848055,-0.124701148884,-1.48145337526,0.0720633663379,1.94006339791,0.141640269917,-0.0643364271129,-0.40962906633,-0.00584275325395,-0.620085937443,-0.0433131911188,0.235694599811,-0.108827093066,0.573830881728,0.818958602044,0.00238206072921,0.0,0.818918943551,-0.573768391187,-0.0119308033918,0.0,-0.00840424472242,0.00879714745821,-0.999925986695,0.0,0.646335503843,0.241082899939,0.303508344205,1.0,-0.0859422857143,-0.112952718367,1.107
0.45230044144,0.45962704803,-0.12475116529,-1.4937682008,0.0712837306859,1.94443282036,0.139732387243,-0.0841398144265,-0.459986339438,-0.00672284004749,-0.704466544798,-0.0419368313217,0.251656144442,-0.105139714483,0.573780978432,0.818993522219,0.00239713463103,0.0,0.818953724542,-0.573718082572,-0.011962679025,0.0,-0.00842223929989,0.00882726996225,-0.999925569825,0.0,0.644714127906,0.238999841325,0.303515139864,1.0,-0.0971434285714,-0.127674220408,1.125
0.451092270906,0.452794696146,-0.124864305175,-1.50438366491,0.0705881893659,1.94802345243,0.138072793326,-0.0900148037403,-0.510866933174,-0.00319536905327,-0.741929286019,-0.0466234785082,0.262852007096,-0.126795871001,0.573792906982,0.81898565949,0.00222178925383,0.0,0.818943533942,-0.573730688766,-0.0120553673778,0.0,-0.00859862987365,0.00873697244942,-0.999924861615,0.0,0.643184652008,0.236987251884,0.303477850774,1.0,-0.106477714286,-0.139942138775,1.14
0.44930499953,0.442522369283,-0.124994721133,-1.51982617653,0.0695500957805,1.95363490648,0.135689398497,-0.0958602816216,-0.539818919115,-0.000663753342599,-0.844247002917,-0.0476604138874,0.301178277916,-0.125518950811,0.573812628602,0.818970891055,0.002548286241,0.0,0.81893349321,-0.573749598855,-0.0118354727326,0.0,-0.00823098791337,0.00887839160904,-0.999926709814,0.0,0.641256724724,0.234431545223,0.303652389924,1.0,-0.117678857143,-0.154663640816,1.158
0.44758415084,0.43313609798,-0.125065692827,-1.53399516061,0.068604223612,1.95855027479,0.133368074673,-0.109702086937,-0.611452559708,-0.00778040592002,-0.884970153963,-0.0660549842351,0.333247046235,-0.153664590711,0.57373636959,0.819023985636,0.00265255803099,0.0,0.818987732629,-0.57367273011,-0.0118084475282,0.0,-0.00814985846132,0.00894752057028,-0.999926758159,0.0,0.639318633256,0.231929221559,0.303746094279,1.0,-0.127635428571,-0.167749420408,1.174
0.445462411585,0.421859870561,-0.125177751334,-1.55106159275,0.0673997666881,1.96453239989,0.130530295744,-0.124485275439,-0.635468643292,-0.00793433699042,-0.976546016837,-0.0696630062163,0.341346503196,-0.162217997278,0.573629936612,0.819098161996,0.00276473118687,0.0,0.8190637475,-0.573566329653,-0.0117042693336,0.0,-0.00800134283,0.00897858322825,-0.999927679163,0.0,0.636968257395,0.228871557978,0.303816809285,1.0,-0.138836571429,-0.182470922449,1.192
0.443486392721,0.411816061114,-0.125295979431,-1.56604634831,0.0663174186503,1.96982799549,0.128070678344,-0.13175389781,-0.690589223427,-0.00805643790436,-1.02267677517,-0.0734033315903,0.372171197311,-0.175756838162,0.573643682329,0.819087678969,0.00300778782818,0.0,0.819057065898,-0.57358001558,-0.0114993665894,0.0,-0.00769393063198,0.00906026330633,-0.999929355035,0.0,0.634904970854,0.226113438648,0.303953537951,1.0,-0.148170857143,-0.194738840816,1.207
0.440843935301,0.399133241876,-0.125414230343,-1.58520129779,0.0650462442607,1.97626162544,0.124847458083,-0.151101424788,-0.728419691874,-0.00753173648744,-1.06593496747,-0.0762931906771,0.374896492865,-0.18347322972,0.573677023963,0.81906438016,0.0029933644865,0.0,0.819032668903,-0.573612330194,-0.0116244922432,0.0,-0.00780432701311,0.00912054301825,-0.999927951492,0.0,0.632150288497,0.222542259593,0.303958141314,1.0,-0.159372,-0.209460342857,1.225
0.438429827668,0.387990768146,-0.125535730806,-1.60197519017,0.0637978292339,1.98197831208,0.121969799147,-0.161580523105,-0.756787184665,-0.0101978689417,-1.14444471892,-0.0869733524066,0.378762345538,-0.190328338111,0.573689617823,0.819055515541,0.00300528956071,0.0,0.819024322336,-0.573625309097,-0.0115719958377,0.0,-0.0077543461587,0.00910031432471,-0.999928524643,0.0,0.629733014172,0.21934078486,0.303961072035,1.0,-0.168706285714,-0.221728261224,1.24
0.435302444777,0.373876037392,-0.125688022148,-1.62299575981,0.0622265759277,1.98898427431,0.118164113739,-0.18290549942,-0.79599449148,-0.011087268271,-1.18734890348,-0.0847274672943,0.396731850801,-0.209611177106,0.573590628737,0.819124736898,0.00303363290632,0.0,0.819094057888,-0.573526415291,-0.0115378592992,0.0,-0.00771122582177,0.00910301391833,-0.999928833535,0.0,0.626625524417,0.215276895634,0.304007139224,1.0,-0.179907428571,-0.236449763265,1.258
0.431985430739,0.359916080926,-0.125866849247,-1.64365981435,0.0606439695943,1.99580691873,0.114499732445,-0.203531996157,-0.857479392729,-0.00700634926771,-1.23292874263,-0.0930381597819,0.415624571268,-0.222201092696,0.573729463322,0.819027380579,0.00306588957669,0.0,0.81899743235,-0.573665502382,-0.0114823378074,0.0,-0.00764570117652,0.00909888638087,-0.999929374266,0.0,0.623539939054,0.211129256056,0.30405405113,1.0,-0.190486285714,-0.250353404082,1.275
0.428556632199,0.346305114489,-0.126054256367,-1.66388463671,0.0591141271099,2.00226586308,0.110652795859,-0.221427218038,-0.875676800122,-0.00817871683104,-1.26683341556,-0.0985708829344,0.416185755719,-0.244191876522,0.573783259576,0.818990288626,0.00290259667398,0.0,0.818957823314,-0.573719343921,-0.0116165805682,0.0,-0.00784874192553,0.0090426778172,-0.999928311044,0.0,0.620436631859,0.206964867279,0.303999350676,1.0,-0.200442857143,-0.263439183673,1.291
0.424717195128,0.331243323536,-0.126188771227,-1.68605157178,0.0574166639273,2.00942943631,0.106455233333,-0.22318938887,-0.905830223557,-0.00791621571224,-1.32064071262,-0.0980418269474,0.413376033007,-0.254157049147,0.573824823556,0.81896108643,0.00292535232372,0.0,0.818928465917,-0.573760306719,-0.011662977576,0.0,-0.00787322532415,0.00908833531906,-0.999927704629,0.0,0.616971351044,0.202428496304,0.30398360049,1.0,-0.211021714286,-0.27734282449,1.308
0.419908781742,0.312749276781,-0.126342823798,-1.71286770908,0.055172241366,2.01794766305,0.101122976959,-0.24581047524,-0.906631934503,-0.00431467281395,-1.3649093547,-0.10736234103,0.41508535757,-0.277802532368,0.573670525846,0.819068963672,0.00298453115104,0.0,0.819037644379,-0.573606453975,-0.0115637342144,0.0,-0.00775969886712,0.00907839163822,-0.999928682396,0.0,0.612672659074,0.196860630631,0.304047833226,1.0,-0.223467428571,-0.29370004898,1.328
0.416524266139,0.300230687813,-0.126449501167,-1.73082044417,0.0536605008863,2.02361094644,0.0974063619713,-0.265078988247,-0.960379617628,-0.00836939784804,-1.39588199311,-0.117636178742,0.429773153895,-0.289880094763,0.573547047829,0.819154942803,0.00311616904168,0.0,0.819125621206,-0.573482928687,-0.0114583633095,0.0,-0.00759925150224,0.00912462002837,-0.999929493857,0.0,0.60974831046,0.193059996785,0.30412479439,1.0,-0.231557142857,-0.304332244898,1.341
0.411733198687,0.283488034276,-0.126614031513,-1.75477402285,0.0517087847057,2.03092540872,0.0924297301417,-0.289228773525,-0.976635588646,-0.0131879734619,-1.42728544053,-0.117690874776,0.433333544965,-0.29880599029,0.573590258104,0.819124422992,0.00318470832293,0.0,0.819095351323,-0.573525155964,-0.0115085976094,0.0,-0.00760060937389,0.00920997657638,-0.999928700993,0.0,0.605757126339,0.187848639031,0.304167426177,1.0,-0.242136,-0.318235885714,1.358
0.406542341491,0.266204449432,-0.126799774182,-1.77935796188,0.0495965222151,2.03826475293,0.087070489127,-0.313893325869,-1.01498762666,-0.00332783606137,-1.45362449687,-0.129449984514,0.425458423716,-0.315023659974,0.573573688502,0.819136098329,0.00316593967947,0.0,0.819106481013,-0.573508281307,-0.0115572892884,0.0,-0.00765144754474,0.00922237631551,-0.999928198985,0.0,0.60157288674,0.182357578832,0.304181678524,1.0,-0.252714857143,-0.332139526531,1.375
0.401234409118,0.24946107698,-0.127034055084,-1.80297165198,0.0474576720901,2.04523706587,0.0818318526977,-0.336575523778,-1.05475037841,-0.00988854236441,-1.49931964856,-0.133845743282,0.432333508911,-0.330159828803,0.573699743559,0.819047856513,0.00315592825432,0.0,0.819018486156,-0.573634805063,-0.0115141936858,0.0,-0.00762047208661,0.00919063049423,-0.999928727818,0.0,0.597502775699,0.176897715677,0.304201536289,1.0,-0.262671428571,-0.345225306122,1.391
0.395290644643,0.231164526172,-0.127220711568,-1.82844060936,0.0451615795873,2.05262838564,0.0758896155409,-0.353370525275,-1.10504582932,-0.00865455592954,-1.51133983128,-0.137469577334,0.456119367227,-0.357652134834,0.573670868524,0.819067578604,0.00328377632605,0.0,0.819039723866,-0.57360537594,-0.0114695389742,0.0,-0.00751088036906,0.00926946210612,-0.999928829342,0.0,0.592995606415,0.170984439292,0.304270743377,1.0,-0.273250285714,-0.359128946939,1.408
0.388627093137,0.211280875272,-0.127423189215,-1.85591637884,0.0425605366263,2.06035812091,0.0692318554129,-0.38181924072,-1.13604869943,-0.00773537704038,-1.52519014529,-0.147109556535,0.430626436177,-0.380063401512,0.57352930016,0.819166604133,0.00331110747249,0.0,0.819139178751,-0.573463839225,-0.0114445549791,0.0,-0.00747634077755,0.00927622405966,-0.999929025479,0.0,0.587990505641,0.164514314768,0.304308743086,1.0,-0.284451428571,-0.37385044898,1.426
0.382197982218,0.193203979758,-0.127634227621,-1.88071055134,0.0401717636192,2.06709336243,0.0629927242333,-0.407591892986,-1.16641362424,-0.0181990153358,-1.57912510311,-0.164552574582,0.439112276926,-0.408965648629,0.573498605558,0.819188291079,0.00326191417413,0.0,0.819160000473,-0.57343301339,-0.0114986816903,0.0,-0.00754924147555,0.00926668594399,-0.999928566191,0.0,0.58337262232,0.158482378887,0.304308371789,1.0,-0.294408,-0.386936228571,1.442
0.374799638983,0.173508270193,-0.127996655163,-1.9073106404,0.0376289426502,2.07418965568,0.0559824081139,-0.440157778751,-1.19582112869,-0.0201280072857,-1.57645701797,-0.161328615167,0.423241066475,-0.416127834514,0.573670035387,0.819067737195,0.00338810945932,0.0,0.819040662053,-0.57360352149,-0.0114952572244,0.0,-0.00747210666743,0.00936966442847,-0.999928185927,0.0,0.578358595172,0.151737385831,0.304375592744,1.0,-0.304986857143,-0.400839869388,1.459
0.367041454763,0.153387667836,-0.12823974921,-1.9342704412,0.0348492081534,2.08111909732,0.0486016476721,-0.45964354813,-1.20282925677,-0.0139896628992,-1.5739034737,-0.1728901115,0.416219327532,-0.438456070767,0.573580997772,0.819130150443,0.00337380065189,0.0,0.819102955455,-0.573514620528,-0.0114924020929,0.0,-0.00747899304853,0.00935549366659,-0.999928267128,0.0,0.573103051335,0.144894243865,0.304399139941,1.0,-0.315565714286,-0.414743510204,1.476
0.359241086794,0.134052879509,-0.128516506951,-1.95988483375,0.0321588227288,2.08749726421,0.0413023328477,-0.498794303507,-1.23616834223,-0.0195960710892,-1.62137087339,-0.170825431366,0.398798893379,-0.472645181472,0.573564531331,0.819141647928,0.00338170511671,0.0,0.819114520774,-0.573498089511,-0.0114930450923,0.0,-0.00747517439314,0.0093621870391,-0.999928233036,0.0,0.568002008709,0.13821687088,0.304422828164,1.0,-0.325522285714,-0.427829289796,1.492
0.350344414019,0.113090452343,-0.128921106823,-1.98733715886,0.0291635102071,2.09411684073,0.0330951644601,-0.539234572046,-1.2564257685,-0.0264035031264,-1.63097325387,-0.184814853741,0.385609003054,-0.499043575971,0.573646885409,0.819083862571,0.00340937507082,0.0,0.819057418112,-0.573580759262,-0.0114370162771,0.0,-0.00741246623978,0.00935346279178,-0.999928781503,0.0,0.562100994373,0.130360872567,0.304465206627,1.0,-0.336723428571,-0.442550791837,1.51
0.340350113596,0.0904726752404,-0.129273361371,-2.01656385993,0.0259093980264,2.10081689076,0.0238648687382,-0.563666570678,-1.26554248731,-0.0118642347042,-1.65832654589,-0.178833059177,0.359286306322,-0.514957759189,0.573574807319,0.819134436858,0.00338550795245,0.0,0.819107546245,-0.573508587672,-0.01146623094,0.0,-0.00745091019263,0.00935001633057,-0.999928528012,0.0,0.556315348392,0.12279672149,0.304469844947,1.0,-0.347302285714,-0.456454432653,1.527
0.331488887396,0.0713274317952,-0.129637592854,-2.04099827968,0.0231685349255,2.10620400853,0.0157199736225,-0.597895841601,-1.26038655672,-0.0138794736333,-1.63312084599,-0.189714493121,0.348181062876,-0.547242938772,0.573562548371,0.819142965557,0.00339882127113,0.0,0.819115564795,-0.573495434662,-0.0115509667525,0.0,-0.00751282932372,0.00940941049216,-0.999927507567,0.0,0.550725683243,0.115464411735,0.304460605917,1.0,-0.34998,-0.459973714286,1.543
0.320235261055,0.0485963054653,-0.130089681638,-2.06977473613,0.019762522387,2.11210420422,0.00579132585177,-0.636788610803,-1.24924641986,-0.0128279680373,-1.60912696021,-0.193622484108,0.310292581232,-0.55757520847,0.573810797248,0.818969674965,0.00325382080439,0.0,0.818940154662,-0.57374381328,-0.0116536134408,0.0,-0.00767724426652,0.00935183378388,-0.999926798883,0.0,0.544770334206,0.107471219269,0.304426195093,1.0,-0.34998,-0.459973714286,1.56
0.30931529236,0.0272241069745,-0.130401909442,-2.09622561135,0.0166536303575,2.11726929834,-0.00384174388931,-0.648303086378,-1.24916901666,-0.0148801130614,-1.52485896454,-0.177551127018,0.279100955242,-0.561472013811,0.573942017402,0.818877381866,0.00333781817999,0.0,0.818848022455,-0.573873598943,-0.0117369271334,0.0,-0.00769576659795,0.00946966377342,-0.999925547551,0.0,0.538799149419,0.099632414458,0.30447080181,1.0,-0.34998,-0.459973714286,1.577
0.298672385627,0.00740085769848,-0.130744692654,-2.12045479049,0.0135320499254,2.12182683935,-0.0132356755893,-0.6674039013,-1.2391557663,-0.0292357173807,-1.51892543643,-0.189998507502,0.274438027397,-0.586054535952,0.573983548278,0.818848214347,0.00335187536204,0.0,0.818819743296,-0.573915949458,-0.011638635985,0.0,-0.00760672801599,0.00942514876663,-0.99992664944,0.0,0.533227112443,0.0921968727227,0.304506109384,1.0,-0.34998,-0.459973714286,1.593
0.287059222354,-0.0135268586117,-0.13098387369,-2.14552383706,0.0104436958055,2.12625884291,-0.0235267855452,-0.680848879298,-1.23075808236,-0.00649605464904,-1.45968445089,-0.174762605843,0.253717393028,-0.602283959102,0.573950515465,0.818870268,0.00361066246589,0.0,0.818844679555,-0.573881510271,-0.0115823069627,0.0,-0.00741245709037,0.00960442771638,-0.999926402516,0.0,0.527302804596,0.084430309424,0.304612160293,1.0,-0.34998,-0.459973714286,1.61
0.275083254434,-0.0341548887704,-0.131291406861,-2.17000868126,0.00714345413118,2.1302134639,-0.0340482443009,-0.709655603641,-1.19465045422,-0.0262932573869,-1.43561140243,-0.193870700358,0.231667079736,-0.604415639602,0.573922333767,0.818890046684,0.00360460074707,0.0,0.818864813556,-0.573853913481,-0.0115260575848,0.0,-0.00737020148771,0.0095669267799,-0.999927074362,0.0,0.521355451906,0.0766060857695,0.304650187989,1.0,-0.34998,-0.459973714286,1.627
0.263405464566,-0.0534367579721,-0.131586825915,-2.19248592934,0.00420136235028,2.13356972808,-0.0442758258223,-0.7297946599,-1.22971438747,-0.0109415679408,-1.40061874882,-0.200400850582,0.23004649327,-0.653672342478,0.573960006641,0.818862907161,0.00376788460629,0.0,0.81883946282,-0.57389067301,-0.0114968022476,0.0,-0.00725209070417,0.00968418375189,-0.999926809204,0.0,0.515410953957,0.0687919195644,0.304728964061,1.0,-0.34998,-0.459973714286,1.644
0.249977511258,-0.0747819889441,-0.131855017958,-2.21712932731,0.000823390185309,2.13694668415,-0.0561464070056,-0.757803765543,-1.20949971726,-0.028568131704,-1.35236606958,-0.190196109552,0.200963497011,-0.665433358305,0.573841738098,0.818945604209,0.00380839407919,0.0,0.818922385286,-0.573771902941,-0.0115185577743,0.0,-0.00724806228574,0.00972879568646,-0.999926405356,0.0,0.509457100395,0.0610356111429,0.304746817767,1.0,-0.34998,-0.459973714286,1.661
0.236816113894,-0.0945562363897,-0.13217064648,-2.23976011593,-0.00232165224836,2.1396511359,-0.0676969791403,-0.773416499229,-1.16425339208,-0.0107840394818,-1.30120693051,-0.182613071592,0.148484930165,-0.692864762991,0.573838995489,0.81894791105,0.00372466704835,0.0,0.818922608287,-0.573768092893,-0.0116911982603,0.0,-0.00743753047946,0.00975926741612,-0.999924717086,0.0,0.503496635296,0.0532299076551,0.304694221882,1.0,-0.34998,-0.459973714286,1.678
0.224140887951,-0.113021869086,-0.132418486502,-2.26064119702,-0.00539374054642,2.14191340625,-0.0788328522729,-0.805623810596,-1.13991148683,-0.0176986494774,-1.31069616994,-0.19103596825,0.124357675783,-0.699433441884,0.573717154015,0.819033949791,0.0035725594029,0.0,0.819006400401,-0.573646421399,-0.0117917861028,0.0,-0.00760863371991,0.00969128556771,-0.999924090957,0.0,0.49785273443,0.0459351983053,0.304625189042,1.0,-0.34998,-0.459973714286,1.694
0.210156659759,-0.132510536094,-0.132823393926,-2.28213249737,-0.00855021434327,2.14397364066,-0.0910828165963,-0.823145599753,-1.13367884527,-0.0199421164361,-1.26383280669,-0.189620894127,0.114828058672,-0.7250368027,0.573785583174,0.818985713377,0.00364042956855,0.0,0.818958792114,-0.573714284965,-0.0117967346464,0.0,-0.00757293649549,0.00975034579522,-0.999923787791,0.0,0.491914584266,0.0380776195103,0.304653297868,1.0,-0.34998,-0.459973714286,1.711
0.195808559873,-0.151726918167,-0.133191718127,-2.3031057595,-0.0116714761098,2.14568532793,-0.103739491185,-0.855417603322,-1.12955755652,-0.0306217158872,-1.22748876724,-0.191094116007,0.0874772487062,-0.744667130878,0.573759615201,0.819003837816,0.00365574996304,0.0,0.818976456959,-0.573687420283,-0.0118766012653,0.0,-0.0076298711497,0.00980847616772,-0.99992278645,0.0,0.485948783264,0.0302711663238,0.304633515118,1.0,-0.34998,-0.459973714286,1.728
0.181886302067,-0.169639417209,-0.133554884496,-2.3222661247,-0.0145849023468,2.14692655964,-0.115933106185,-0.87468576282,-1.1243890081,-0.0156303207078,-1.17930934444,-0.175525716975,0.0911158518306,-0.769665162489,0.573833855752,0.818951586396,0.00370837324898,0.0,0.818924356489,-0.573760774736,-0.0119255450309,0.0,-0.00763887198528,0.00988034889089,-0.999922010129,0.0,0.480341614088,0.0229074008396,0.304654240439,1.0,-0.34998,-0.459973714286,1.744
0.166643258734,-0.188333297861,-0.134009626846,-2.34211777878,-0.0177235026074,2.1478475021,-0.129362689971,-0.915029474019,-1.09007203175,-0.0375087852571,-1.13516489111,-0.193951624226,0.0546666643151,-0.799382219464,0.573892065768,0.818911327221,0.00358913634176,0.0,0.818881429005,-0.573818000691,-0.0121183420469,0.0,-0.00786448794528,0.00989388793543,-0.999920127216,0.0,0.474347189497,0.015032209167,0.304598125799,1.0,-0.34998,-0.459973714286,1.761
0.150111351361,-0.207955931835,-0.134406842753,-2.36247677521,-0.0209111948217,2.1486318587,-0.144069861259,-0.929417757253,-1.08398352402,-0.0243723854509,-1.13184607399,-0.162844798685,0.0351937289969,-0.825932257989,0.573832242736,0.818952648165,0.00372346101346,0.0,0.818923991474,-0.573757013709,-0.0121298107908,0.0,-0.00779752892369,0.0100099008069,-0.999919496974,0.0,0.468043968114,0.00679503608809,0.304620281828,1.0,-0.34998,-0.459973714286,1.779
0.133997315747,-0.226226351323,-0.134887304283,-2.38098470837,-0.0239899694234,2.14904507368,-0.158281830555,-0.946747503089,-1.04780961267,-0.0219384381348,-1.09642819097,-0.1859521129,0.0121283222299,-0.854059632221,0.573946234819,0.818872034972,0.00388030663227,0.0,0.818846038416,-0.573871198009,-0.0119900111237,0.0,-0.00759163475495,0.0100591891241,-0.999920586745,0.0,0.462134751586,-0.0010616362462,0.304703005839,1.0,-0.34998,-0.459973714286,1.796
0.118506426793,-0.243093821075,-0.13523554608,-2.39783207083,-0.0267997753869,2.149125122,-0.172146747392,-0.991216354459,-1.05424574081,-0.0275488995868,-1.02577580147,-0.177644730684,0.015738422458,-0.880759431227,0.573852271274,0.818937281505,0.00400582265446,0.0,0.8189131724,-0.573777138053,-0.0119062512752,0.0,-0.00745216707136,0.0101130449821,-0.99992109265,0.0,0.456578646742,-0.00836156880778,0.304767448549,1.0,-0.34998,-0.459973714286,1.812
0.101586256035,-0.260694870658,-0.135675007456,-2.41537353112,-0.0297634395741,2.14902892164,-0.187331405248,-0.998143547882,-1.02968533373,-0.0214311008393,-1.03292271467,-0.178421031645,-0.0179156820773,-0.897211809546,0.573796963447,0.818975759635,0.00406162172818,0.0,0.818952062399,-0.573721213547,-0.0119262533618,0.0,-0.00743721704917,0.0101697172538,-0.999920629177,0.0,0.450621918226,-0.0161529945844,0.304737829033,1.0,-0.34998,-0.459973714286,1.829
0.0851900959347,-0.277005966767,-0.1361533025,-2.43115726963,-0.0325476987919,2.14876211228,-0.201988125879,-1.04046467064,-0.997509426859,-0.0274949841146,-0.98872440196,-0.169009194594,-0.0400646835115,-0.921044994609,0.573871150026,0.818922712197,0.00427100887258,0.0,0.818902898978,-0.573796315118,-0.0116866463885,0.0,-0.00711990808434,0.0102043672159,-0.999922585903,0.0,0.445097245011,-0.023544096627,0.304818049685,1.0,-0.34998,-0.459973714286,1.845
0.0663426220015,-0.294915349557,-0.136593059101,-2.44839768311,-0.0355498315192,2.1479704186,-0.219059929066,-1.06649605213,-0.977495868483,-0.0263928125272,-0.916281282917,-0.173629582243,-0.0460573867229,-0.96047064034,0.573766469065,0.818995856963,0.00430954245963,0.0,0.818975856127,-0.573690540205,-0.0117668203876,0.0,-0.00716477134938,0.0102810161527,-0.999921480297,0.0,0.438800311936,-0.0317615114768,0.304806630535,1.0,-0.34998,-0.459973714286,1.863
0.0480216731417,-0.311563305072,-0.137115389382,-2.46414682123,-0.0383886725246,2.14704003602,-0.235607623935,-1.07562855664,-0.968236167165,-0.0244593866901,-0.901125157339,-0.160263499699,-0.0712772107865,-0.988153091676,0.573818688814,0.818958765941,0.00440442478704,0.0,0.818939759481,-0.573742096493,-0.0117653709894,0.0,-0.00710848665554,0.0103583477606,-0.999921083911,0.0,0.432488625063,-0.0400373047518,0.304812954041,1.0,-0.34998,-0.459973714286,1.881
0.0314294775497,-0.3259710077,-0.137610758247,-2.47743397741,-0.0408024417618,2.14606609667,-0.250604392866,-1.11063287883,-0.976868233238,-0.0271414655094,-0.880121033334,-0.155846185121,-0.0683581780239,-1.00682702154,0.573940154375,0.818872580059,0.00459823064611,0.0,0.818856552579,-0.573863618708,-0.0116292873443,0.0,-0.00688427979733,0.010440007271,-0.999921803413,0.0,0.427622133,-0.0465181084597,0.304880370815,1.0,-0.34998,-0.459973714286,1.895
0.0111198592366,-0.342757589872,-0.13812767573,-2.49286559818,-0.0436788047206,2.1446260555,-0.269177714183,-1.14786497501,-0.927564268998,-0.0453874117867,-0.831025672217,-0.153429563834,-0.087198832722,-1.04500837165,0.573886095402,0.818910107484,0.00466178787225,0.0,0.818894637908,-0.573808967818,-0.0116441985104,0.0,-0.00686070825644,0.0105001588694,-0.999921335579,0.0,0.421316754375,-0.0547668041252,0.304875722312,1.0,-0.34998,-0.459973714286,1.913
-0.00850099792334,-0.358120740858,-0.138583024249,-2.50658574352,-0.0463431961758,2.14303620039,-0.287217377075,-1.14886869663,-0.885637104258,-0.024709047846,-0.7858378476,-0.146082559097,-0.0974908945414,-1.07270552434,0.573789636708,0.818977129295,0.00476039898938,0.0,0.818963565536,-0.573713204103,-0.0115145413838,0.0,-0.00669917127044,0.0105057201148,-0.999922372462,0.0,0.415436581189,-0.0625424703508,0.304951615953,1.0,-0.34998,-0.459973714286,1.93
-0.0274629205297,-0.372202008954,-0.139081121515,-2.51922364635,-0.0488472741793,2.14143330079,-0.304714620367,-1.1856048607,-0.837676425025,-0.0301630619373,-0.799981706268,-0.161493843832,-0.0999085866007,-1.10371587538,0.573724674106,0.819022743931,0.0047423776836,0.0,0.81900865067,-0.573647841747,-0.0115641985479,0.0,-0.00675101688112,0.0105189169125,-0.999921885028,0.0,0.409804910136,-0.0699044934829,0.304912613343,1.0,-0.34998,-0.459973714286,1.946
-0.0480098321505,-0.386714692085,-0.139615470249,-2.53178279272,-0.0513839292794,2.13953847176,-0.323639067256,-1.20898646402,-0.856675456054,-0.0197610693977,-0.733400326094,-0.161020452377,-0.107560170895,-1.12383301452,0.573781769401,0.818982022676,0.00486564881235,0.0,0.818970139334,-0.573705548493,-0.0114280973082,0.0,-0.00656808298411,0.0105422579513,-0.999922857566,0.0,0.403906651508,-0.0777201044539,0.304995879215,1.0,-0.34998,-0.459973714286,1.963
-0.0690475231833,-0.400620265784,-0.140144175335,-2.54393704749,-0.0537139763801,2.13754747938,-0.343201068729,-1.26162233737,-0.802371077436,-0.0456672707334,-0.708724262996,-0.144894297422,-0.125664189794,-1.1552099434,0.573804865649,0.81896530578,0.00495489535057,0.0,0.818953269267,-0.573726280047,-0.0115950525002,0.0,-0.0066533201359,0.0107113315146,-0.999920497194,0.0,0.397936052474,-0.0855120777324,0.304943254867,1.0,-0.34998,-0.459973714286,1.98
-0.0891603081236,-0.413253344563,-0.140558848826,-2.55463343446,-0.0559584521263,2.13555374126,-0.36202557822,-1.27444294252,-0.780481871125,-0.0224320310548,-0.642969455316,-0.135289490881,-0.111771317362,-1.19689529224,0.57367399861,0.819056757549,0.00499180661775,0.0,0.819045526873,-0.573595855243,-0.0115311169709,0.0,-0.00658148640497,0.0107038249442,-0.999921052968,0.0,0.392381261983,-0.092808088928,0.30498437188,1.0,-0.34998,-0.459973714286,1.996
-0.112357308929,-0.426814804512,-0.141154657945,-2.56610506812,-0.0584199460327,2.13325307602,-0.38378464125,-1.29393893609,-0.733789622475,-0.0304259596907,-0.627678022177,-0.119713091194,-0.138358719081,-1.21610652377,0.573652084893,0.819072045531,0.00500166262979,0.0,0.819060442116,-0.573573103306,-0.0116031989646,0.0,-0.00663516450184,0.0107530703122,-0.999920169849,0.0,0.386076413751,-0.10109528941,0.304960240098,1.0,-0.34998,-0.459973714286,2.014
-0.134671161975,-0.439004248678,-0.141664804433,-2.57638549652,-0.0605849562542,2.13095748423,-0.404750769243,-1.32199362055,-0.723055997675,-0.0376028349041,-0.586563764723,-0.121496971009,-0.12353336182,-1.24734422132,0.573665528432,0.819062731055,0.00498507643199,0.0,0.819049251126,-0.57358393356,-0.0118550534858,0.0,-0.00685080463516,0.010884068193,-0.999917298348,0.0,0.380081499934,-0.108864457142,0.304884265454,1.0,-0.34998,-0.459973714286,2.031
-0.1560622922,-0.449996089385,-0.142148520658,-2.58519289735,-0.0626230374757,2.12895045523,-0.424989579838,-1.34602089469,-0.663867267171,-0.0164696571106,-0.55136967212,-0.130903050982,-0.12657773485,-1.29105801873,0.573597183032,0.819109819746,0.00511094074719,0.0,0.819099750395,-0.57351807445,-0.0115483367858,0.0,-0.00652826485633,0.0108106718783,-0.999920252386,0.0,0.374217182626,-0.116683963271,0.304994997223,1.0,-0.34998,-0.459973714286,2.048
-0.180573006795,-0.461596039011,-0.142700348821,-2.59468791792,-0.0647718927425,2.12642491221,-0.448278082584,-1.35965787454,-0.624597518391,-0.0154358377031,-0.506829814394,-0.121494736515,-0.135204180868,-1.31842349247,0.573527853576,0.819158614602,0.00507071960064,0.0,0.819146486169,-0.573446370144,-0.011791593063,0.0,-0.00675152927625,0.0109166793828,-0.999917618088,0.0,0.367866874091,-0.124925096011,0.304946420402,1.0,-0.347245714286,-0.456380081633,2.066
-0.203918222289,-0.471640444469,-0.143071867963,-2.60279184213,-0.0664628927507,2.1243504857,-0.470484598917,-1.37882733107,-0.569337903447,-0.0223578618857,-0.454656529843,-0.102298207988,-0.118499632857,-1.30073130442,0.573601704841,0.819105858394,0.00523677856034,0.0,0.819095219526,-0.573518540139,-0.0118428192486,0.0,-0.00669726197455,0.0110826949718,-0.999916156762,0.0,0.362367329844,-0.13216098876,0.304919208477,1.0,-0.337289142857,-0.443294302041,2.082
-0.225821635908,-0.48031686706,-0.143284631596,-2.60948304654,-0.0678631599351,2.12241962288,-0.491172404462,-1.36831849061,-0.524230502074,-0.0203626954435,-0.404628776105,-0.0735711959766,-0.129579008003,-1.30375222603,0.573769053882,0.818987329645,0.00543816044641,0.0,0.818979995374,-0.57368633688,-0.0116833623949,0.0,-0.00644885158356,0.0111575112214,-0.99991695768,0.0,0.357045578048,-0.139244754322,0.305011656195,1.0,-0.327332571429,-0.430208522449,2.098
-0.247433428886,-0.488120703963,-0.143302431886,-2.61565363975,-0.0691761416226,2.12054150601,-0.511695104105,-1.34996856242,-0.464522680579,0.00264937570893,-0.366714698133,-0.0787020061069,-0.117624461827,-1.28621272284,0.573755089189,0.818997095316,0.005440808291,0.0,0.818989248988,-0.573671423185,-0.011766697269,0.0,-0.00651578009818,0.011207381714,-0.999915966072,0.0,0.351812885113,-0.146064941262,0.304998360401,1.0,-0.317376,-0.417122742857,2.114
-0.272708234251,-0.496289301091,-0.143254308027,-2.62202877888,-0.0704372723686,2.11860557783,-0.535720452428,-1.32786089784,-0.406330083059,0.0123200998087,-0.312449846537,-0.0685878994815,-0.0927412560429,-1.25331095711,0.573831773926,0.818942552867,0.0055621253893,0.0,0.8189362191,-0.573747564969,-0.0117451112829,0.0,-0.00642743926765,0.0112949614419,-0.99991555237,0.0,0.345842303806,-0.153932513174,0.305007161888,1.0,-0.305552571429,-0.401583379592,2.133
-0.292210236298,-0.501939260581,-0.143114176488,-2.62640405783,-0.0712800869434,2.1171740353,-0.554286755073,-1.28752166987,-0.35557322556,0.00506043018195,-0.284396228309,-0.045582258241,-0.0959713889286,-1.21584115611,0.573879115455,0.818908935406,0.00562701148737,0.0,0.818903218694,-0.573794272946,-0.0117642529723,0.0,-0.00640522823261,0.0113594556131,-0.999914964294,0.0,0.341300058946,-0.159907561661,0.305011885158,1.0,-0.296218285714,-0.389315461225,2.148
-0.315122802637,-0.507829063676,-0.142847169208,-2.63088771121,-0.0720917322454,2.11571412601,-0.576164062956,-1.26257448159,-0.311099127249,0.0259351134847,-0.234165710195,-0.0458414041843,-0.0683535884498,-1.19328812603,0.573922705886,0.81887758941,0.00574178822138,0.0,0.818873861569,-0.573838356745,-0.0116570179722,0.0,-0.00625093280885,0.0113922469264,-0.99991556771,0.0,0.336079451801,-0.166853914246,0.305047793114,1.0,-0.285017142857,-0.374593959184,2.166
-0.336232232621,-0.512638729059,-0.142594341241,-2.63459059479,-0.0727026896582,2.11441274363,-0.596346443953,-1.22306410491,-0.260628816205,0.0278601739383,-0.207699599982,-0.0328764134132,-0.0846993584432,-1.17857374363,0.57401984406,0.818808687375,0.00585653523551,0.0,0.818805972067,-0.573934206005,-0.0117070143947,0.0,-0.00622465903324,0.0115156463156,-0.999914318084,0.0,0.331274750244,-0.173175219542,0.305042184237,1.0,-0.274438285714,-0.360690318367,2.183
-0.354275222752,-0.516237272934,-0.14221360128,-2.63751321164,-0.0731399960856,2.11335838535,-0.613752664848,-1.20459378077,-0.231903046213,0.0171914013858,-0.186980567789,-0.0248628159426,-0.0663373650827,-1.14849184357,0.573909975103,0.818885668841,0.00586078028392,0.0,0.818881526383,-0.573821625851,-0.0119387753201,0.0,-0.00641357302304,0.0116512912749,-0.999911552835,0.0,0.327173759306,-0.178468248212,0.304962539176,1.0,-0.265104,-0.3484224,2.198
-0.374179665904,-0.519671110101,-0.141781901689,-2.6402878787,-0.0735556081512,2.11238011859,-0.632852912387,-1.15659921087,-0.196946030676,0.0294328370215,-0.151644255012,-0.0163938193221,-0.0508080093654,-1.11789535636,0.573919345874,0.818878997184,0.00587531310553,0.0,0.818873992839,-0.573829035315,-0.0120983049062,0.0,-0.00653574837109,0.0117548186565,-0.999909550025,0.0,0.322709303326,-0.184289835179,0.30489360067,1.0,-0.254525142857,-0.334518759184,2.215
-0.393488722516,-0.522548337655,-0.141294972299,-2.64251563629,-0.0738900749636,2.11151665883,-0.651410154841,-1.11662237124,-0.167755060025,0.0339455786042,-0.124257237302,-0.0120426809928,-0.0482078931661,-1.08642477152,0.573913679822,0.818882961278,0.00587628650336,0.0,0.818877600808,-0.57382270429,-0.0121542518084,0.0,-0.00658108980684,0.0117876777237,-0.999908865803,0.0,0.318431502512,-0.189905436072,0.304876881259,1.0,-0.243946285714,-0.320615118367,2.232
-0.411054938358,-0.524798747928,-0.140886831259,-2.64417662004,-0.0740481178579,2.11085204315,-0.66832025931,-1.08544766142,-0.126912382901,0.0196326613314,-0.0958155379071,-0.00828051064497,-0.0372372035711,-1.03842118279,0.573994648967,0.818825393711,0.00598869541144,0.0,0.818821707205,-0.573903548242,-0.0121027280694,0.0,-0.00647321215984,0.0118508031152,-0.999908823838,0.0,0.314574588002,-0.19500518499,0.304900858084,1.0,-0.233989714286,-0.307529338776,2.248
-0.428960563348,-0.52669953306,-0.140315575689,-2.64559646513,-0.0741809115569,2.11028504675,-0.685646742156,-1.04234413775,-0.0961299456707,0.0384736313675,-0.0766972809895,-0.00322363058964,-0.027930930102,-0.998676989495,0.57393071372,0.818870086029,0.00600541063954,0.0,0.818866897066,-0.573840068606,-0.012055183654,0.0,-0.00642560773529,0.0118367000277,-0.999909297935,0.0,0.310443346879,-0.20044410397,0.304911383245,1.0,-0.222788571429,-0.292807836735,2.266
-0.447225058216,-0.528188846199,-0.139795941892,-2.64672494924,-0.0742249342522,2.10979182574,-0.703248530856,-0.99293509281,-0.0745511270425,0.0335226300155,-0.0511414417363,0.00633010652939,-0.0250817406986,-0.970571044693,0.574012481824,0.818812248825,0.0060760831431,0.0,0.818810033927,-0.573921619407,-0.0120353653623,0.0,-0.0063676316972,0.0118838365865,-0.999909109717,0.0,0.306693776875,-0.205386840496,0.30492080686,1.0,-0.212209714286,-0.278904195918,2.283
-0.462783874908,-0.529144013663,-0.139276291465,-2.64745691156,-0.0742444771058,2.10946193626,-0.718207433715,-0.965220017348,-0.0544131366061,0.0279268251354,-0.0420328404843,-0.000824677018765,-0.0259581905261,-0.944556689794,0.574085010222,0.818761380764,0.00607859433582,0.0,0.818759317599,-0.573994344359,-0.0120174619058,0.0,-0.00635047719924,0.0118761791447,-0.999909309792,0.0,0.303319022353,-0.209824418063,0.3049224282,1.0,-0.202253142857,-0.265818416327,2.299
-0.478475954185,-0.529790635155,-0.138607139492,-2.6479492805,-0.0742247105469,2.10919011508,-0.733432088632,-0.908779228772,-0.0334973942952,0.0376049426134,-0.0240438567575,-1.33704691822e-05,-0.0123663593941,-0.8804542305,0.573974906912,0.818839090874,0.00600802747085,0.0,0.818836282893,-0.573884882252,-0.0120012766528,0.0,-0.00637932114775,0.0118082498768,-0.999909930692,0.0,0.299947260772,-0.214260815016,0.304929034282,1.0,-0.191674285714,-0.25191477551,2.316
-0.493487653552,-0.530137604005,-0.138010969063,-2.64822829917,-0.0741869758739,2.10899631255,-0.747910835643,-0.85093270691,-0.0140129075636,0.0441958729468,-0.0149688067194,0.00428400664098,-0.0141885664928,-0.846282363786,0.573990596871,0.818828530391,0.00594806045397,0.0,0.818824985226,-0.573900896645,-0.0120063025262,0.0,-0.00641762938442,0.0117621517245,-0.999910228881,0.0,0.296709640987,-0.218509851536,0.304927916982,1.0,-0.181095428572,-0.238011134694,2.333
-0.506704528201,-0.53024430951,-0.13733264875,-2.64832909561,-0.0740662118945,2.10888565134,-0.760846414472,-0.808318853757,-0.00230831972074,0.0435688024511,-0.00482434886792,0.00944540539134,-0.00266202523667,-0.78903561226,0.573788292548,0.818970837299,0.00587451190539,0.0,0.818966444744,-0.573699135014,-0.0120004903506,0.0,-0.00645797356769,0.0116969942012,-0.999910733468,0.0,0.293887359929,-0.22220072793,0.304929421663,1.0,-0.171138857143,-0.224925355102,2.349
-0.520298658374,-0.530187751217,-0.136712702242,-2.64832792271,-0.0738875271472,2.10882591231,-0.773849897175,-0.770478706936,0.00697966726272,0.0484504457809,0.00194827179903,0.00860637748259,-0.00108865556336,-0.742771179095,0.573896457216,0.818895147554,0.00586008607892,0.0,0.818890505962,-0.573807225839,-0.0120147293527,0.0,-0.00647636852011,0.0116942046137,-0.999910647123,0.0,0.29079889477,-0.226205716082,0.304918016342,1.0,-0.159937714286,-0.210203853061,2.367
-0.533569901807,-0.529934061853,-0.135952624702,-2.64818232178,-0.0735443215168,2.1088386068,-0.786743266119,-0.724035306261,0.0178239973058,0.0414928616702,0.0103401698439,0.00649385686136,0.00190936549614,-0.698328935418,0.573839636839,0.818934660062,0.00590259627447,0.0,0.818930598588,-0.573750291789,-0.0120010111986,0.0,-0.00644155171133,0.0117206982679,-0.999910561822,0.0,0.288138426663,-0.229655062489,0.304915235638,1.0,-0.149358857143,-0.196300212245,2.384
-0.544845178336,-0.529595877637,-0.135371892729,-2.64795940612,-0.0732594789105,2.10883859106,-0.797506870396,-0.682200917123,0.0262923395397,0.0482369376204,0.016671797654,0.0187988603081,-1.94726762023e-05,-0.648707456949,0.573983463172,0.81883353394,0.00594765510029,0.0,0.818829827743,-0.573893480906,-0.012030489336,0.0,-0.00643777155631,0.0117756460516,-0.999909940573,0.0,0.285713469888,-0.232769249771,0.304908366088,1.0,-0.139402285714,-0.183214432653,2.4
-0.556403777901,-0.529036581828,-0.134555902948,-2.64760421127,-0.0728289324114,2.1089271664,-0.808769089167,-0.63683949688,0.0321797024438,0.0464724215761,0.0218183609478,0.0229797967577,0.00358681594144,-0.610920031703,0.573854733974,0.81892349302,0.00598362566719,0.0,0.818920077851,-0.573764302499,-0.0120489904606,0.0,-0.00643413442508,0.0118147088824,-0.999909503189,0.0,0.283288573636,-0.235906706276,0.304894494167,1.0,-0.128201142857,-0.168492930612,2.418
-0.566736110059,-0.528435478858,-0.133919583583,-2.64718493127,-0.0724739525642,2.10903449818,-0.818566876383,-0.591365933014,0.0373755104955,0.0316437815112,0.0291069972914,0.022092591794,0.00950641816222,-0.551201443717,0.574018813976,0.818808202914,0.00602286837821,0.0,0.818805312576,-0.573928208192,-0.0120423768369,0.0,-0.00640382617367,0.0118443355346,-0.999909347254,0.0,0.281098361474,-0.238741054789,0.304891210247,1.0,-0.117622285714,-0.154589289796,2.435
-0.575509475176,-0.527746076601,-0.133187205992,-2.64671482065,-0.0720864908153,2.10916691406,-0.827125117689,-0.52945904878,0.0492172871977,0.0451877585861,0.027798254124,0.0232194644854,0.00436223713955,-0.514056657618,0.573870077956,0.818912479234,0.00601929259036,0.0,0.818909458228,-0.573779362883,-0.0120535826846,0.0,-0.00641720696348,0.0118466741541,-0.999909233764,0.0,0.279292639928,-0.241108601238,0.304883150899,1.0,-0.107665714286,-0.141503510204,2.451
-0.584130954618,-0.527017355082,-0.132460951448,-2.64621946673,-0.0717055893329,2.10927466726,-0.835374842277,-0.496960693828,0.0435701359003,0.0427347365225,0.0268378326576,0.0192428523061,0.00839617774927,-0.46133152969,0.573852254959,0.818925045482,0.00600884862489,0.0,0.818921555184,-0.573760975047,-0.012106893461,0.0,-0.00646711994435,0.0118685722807,-0.999908652504,0.0,0.277503422992,-0.243424717873,0.304869652819,1.0,-0.097086857143,-0.127599869388,2.468
-0.592491361485,-0.526252498993,-0.131746626627,-2.64567771447,-0.071268931601,2.10939974393,-0.843242486661,-0.446720492901,0.0441177705638,0.0362369110279,0.0318416160992,0.0275002365557,0.00347396574861,-0.428294342651,0.573967795886,0.818843816694,0.00604318212476,0.0,0.818840573139,-0.573875972711,-0.0121338628567,0.0,-0.0064678260784,0.0119130785977,-0.999908118671,0.0,0.275774770223,-0.245665388213,0.304864957082,1.0,-0.0858857142858,-0.112878367347,2.486
-0.598620460908,-0.525602027352,-0.13110015137,-2.64522828394,-0.070876504875,2.10953354543,-0.849147769689,-0.390824631941,0.0411383789974,0.0456144026708,0.0262735570012,0.02326080795,0.0060291541797,-0.388733515833,0.573886735872,0.818900491713,0.00606184496194,0.0,0.818897393951,-0.573794667603,-0.0121443201185,0.0,-0.00646685990861,0.0119337230352,-0.999907878746,0.0,0.274544900056,-0.247281903006,0.304858919855,1.0,-0.0765514285715,-0.10061044898,2.501
-0.605187967479,-0.524918413662,-0.130301386265,-2.64474829678,-0.0704168526395,2.10964883859,-0.855390669796,-0.353120128018,0.0327333766764,0.0393691070518,0.0303266846,0.0269157794514,0.00610656869374,-0.327020210403,0.573810564188,0.818953850051,0.00606422415151,0.0,0.818950605714,-0.573718174003,-0.012170009045,0.0,-0.00648764506289,0.0119498098692,-0.999907551979,0.0,0.273237369014,-0.24897529556,0.304856634009,1.0,-0.0653502857144,-0.0858889469389,2.519
-0.610104898624,-0.524419401298,-0.129673723665,-2.64436444965,-0.0700410886591,2.10976781762,-0.859833548297,-0.312037802676,0.0301813883341,0.0406389228471,0.0256660859702,0.0258818353346,0.0126503461402,-0.279826278628,0.573937841629,0.818864593903,0.00607270114309,0.0,0.81886188772,-0.573846177442,-0.0121045601671,0.0,-0.00642732315383,0.0119201981585,-0.999908294992,0.0,0.272217274098,-0.250314991798,0.304878791167,1.0,-0.0553937142858,-0.0728031673471,2.535
-0.614540221565,-0.523887430487,-0.129000149091,-2.64396066944,-0.0695978310543,2.10989011688,-0.864010066279,-0.262103426501,0.0318698773171,0.0437171554186,0.0296750658947,0.0275889741537,0.00241038574399,-0.249340879454,0.573882544926,0.818903095984,0.0061066290463,0.0,0.818900968976,-0.573790999964,-0.0120763517127,0.0,-0.00638555596057,0.0119313616132,-0.99990842945,0.0,0.271442095431,-0.251356367883,0.304889811,1.0,-0.0460594285715,-0.0605352489797,2.55
-0.618761674398,-0.523403805,-0.128257610581,-2.64359438479,-0.0691321694494,2.10998498335,-0.867743594423,-0.217061639436,0.0228672852338,0.0417662151187,0.0225160695487,0.024249039895,0.00537534203154,-0.194226854677,0.573975085097,0.818838076134,0.00612810424439,0.0,0.818836377923,-0.573883707056,-0.0120508865579,0.0,-0.00635102786078,0.0119350531074,-0.9999086053,0.0,0.270665906133,-0.252382793349,0.304905388239,1.0,-0.0348582857144,-0.0458137469389,2.568
-0.622028195138,-0.523039102874,-0.127423823936,-2.64333997264,-0.0686777032602,2.11005251293,-0.870688818426,-0.157847033658,0.0161222568423,0.0477003334593,0.0147981047754,0.0225710549299,0.00524197955559,-0.152552941971,0.573855703855,0.8189219545,0.00610004030899,0.0,0.818919908887,-0.573764505571,-0.0120508040186,0.0,-0.0063688039876,0.0119110964017,-0.999908777898,0.0,0.270118055249,-0.253099976551,0.304913441814,1.0,-0.0236571428573,-0.0310922448981,2.586
-0.624062316824,-0.522829726956,-0.126756451488,-2.64318565785,-0.0683331238017,2.11012690936,-0.872341264282,-0.127672931624,0.0145129234182,0.0386378663033,0.0107629302629,0.0156829912738,0.00509043536633,-0.105262875562,0.573851045588,0.818925542729,0.00605638869741,0.0,0.818923283717,-0.573760695863,-0.0120027567864,0.0,-0.00635456866726,0.0118477403571,-0.999909621169,0.0,0.269817340394,-0.253510294208,0.304929362702,1.0,-0.0197981818182,-0.0260204675325,2.601
-0.625952262285,-0.522624543168,-0.126265592922,-2.6430029752,-0.068045325079,2.11014626274,-0.874077398226,-0.100345763754,0.0128466085746,0.0269813498627,0.0136252065702,0.00841946509552,0.000307705154008,-0.0955105512581,0.573761780697,0.818988096613,0.00605504080717,0.0,0.818985957185,-0.573671711002,-0.0119798510391,0.0,-0.00633787180382,0.011832801874,-0.999909904032,0.0,0.269508187977,-0.253926157645,0.304950657775,1.0,-0.0194581818182,-0.0255736103896,2.618
-0.627702519588,-0.522398950797,-0.125957616624,-2.64280581306,-0.0678611768762,2.11020192726,-0.875759890432,-0.0926248898507,0.0101361831777,0.00844257620872,0.00790608571198,0.0094790670953,0.00110058718453,-0.0951959882436,0.57368803376,0.819039781405,0.00605171860952,0.0,0.81903788798,-0.573598533753,-0.0119334416635,0.0,-0.00630282787934,0.0118028867547,-0.999910479105,0.0,0.269194894145,-0.254363607317,0.304969648943,1.0,-0.0190981818182,-0.0251004675325,2.636
-0.62947156003,-0.522117058049,-0.125799531527,-2.64260046655,-0.0677411752962,2.11026776635,-0.877427074474,-0.0904741697718,0.0148663509925,0.00593090273741,0.00996577003382,0.00363891429358,-0.000814624091882,-0.0786320568421,0.573721612394,0.819016143146,0.00606758928051,0.0,0.819014470574,-0.573632068221,-0.0119287132729,0.0,-0.00628936603917,0.0118134314801,-0.999910439345,0.0,0.268840930519,-0.254848102297,0.304968901305,1.0,-0.0187181818182,-0.024601038961,2.655
-0.630743410188,-0.52192943963,-0.125715800477,-2.64246007302,-0.0677213119708,2.11027746358,-0.878565600735,-0.0891119636069,0.010909898831,0.00258527917503,0.00991449269097,-0.0002741289839,-0.00013686845594,-0.0818298348886,0.573787453169,0.818970213847,0.00604105284552,0.0,0.818968037233,-0.573697705987,-0.0119600600763,0.0,-0.00632931665801,0.0118101889853,-0.999910225564,0.0,0.268566323091,-0.255202863142,0.304966614017,1.0,-0.0184381818182,-0.024233038961,2.669
-0.632174774883,-0.52171460978,-0.125664698704,-2.64229985474,-0.0676810679687,2.11031487595,-0.880055849809,-0.078330535671,0.0109642856528,0.00503622109969,0.0105984038047,0.00145155682145,0.00482780783151,-0.0797764884585,0.573728700565,0.819011324478,0.00604776201488,0.0,0.819009174023,-0.573638823965,-0.0119674310882,0.0,-0.0063323524137,0.011819458821,-0.999910096812,0.0,0.268253788185,-0.255613607874,0.30496492893,1.0,-0.0180981818182,-0.0237861818182,2.686
-0.633459851818,-0.521483419267,-0.125590119789,-2.6421510538,-0.0676461409063,2.11036283989,-0.881311147286,-0.0774086326474,0.0135182152025,-0.000252697825357,0.00860159696539,0.00403066404961,0.0014945048643,-0.0774365553369,0.573723196973,0.819015263936,0.00603635617281,0.0,0.819012808999,-0.573633077916,-0.0119940617029,0.0,-0.00636078850533,0.0118253521248,-0.999909846645,0.0,0.267981294635,-0.255978426937,0.304953482676,1.0,-0.0177781818182,-0.0233656103896,2.702
-0.634862750877,-0.521250506857,-0.125576075882,-2.64199291726,-0.0676124921058,2.11038527746,-0.882792452765,-0.0814409482728,0.0119883941887,-0.00128719865248,0.00881829025674,-7.99182110979e-06,0.0025005083951,-0.0790096716692,0.573671874462,0.819051052553,0.00605810722716,0.0,0.81904857823,-0.573581112414,-0.0120366474812,0.0,-0.0063839358168,0.0118671987143,-0.999909203357,0.0,0.267663086209,-0.256386814474,0.304942011839,1.0,-0.0174181818182,-0.0228924675325,2.72
-0.636178047825,-0.521038501721,-0.125578145253,-2.64184047851,-0.0675870288445,2.11040989912,-0.884063885646,-0.0797755943909,0.0124246984755,-0.000153702515859,0.0102653107792,0.000668692531068,-0.000491745011178,-0.0682304050105,0.573728250353,0.819011411829,0.00607856411901,0.0,0.819009015326,-0.573637038335,-0.0120634972714,0.0,-0.00639337550556,0.0118997971043,-0.999908755626,0.0,0.267362076913,-0.256774993006,0.304935420505,1.0,-0.0170781818182,-0.0224456103896,2.737
-0.637402867118,-0.520868752891,-0.125575045119,-2.64168726044,-0.0675612901903,2.11044955135,-0.885259045504,-0.0676963014583,0.0105537981083,0.00123339959077,0.00538435596692,0.000970599837317,0.000486926275393,-0.0736190450951,0.573769262988,0.818982572243,0.00609312017545,0.0,0.818980548843,-0.573678322546,-0.0120328615889,0.0,-0.00635933541109,0.0118944620362,-0.999909036176,0.0,0.267088451104,-0.257140475371,0.304946112042,1.0,-0.0167581818182,-0.022025038961,2.753
-0.638675673075,-0.520687848546,-0.125566631396,-2.64151995718,-0.0675350359885,2.11049839801,-0.886586321502,-0.0720828720079,0.00867555805276,0.000786899494755,0.0141749879032,0.000811146440573,0.00356555538696,-0.0843392722416,0.573738530125,0.819004018054,0.00610445435513,0.0,0.819002400793,-0.573648033257,-0.0119895094394,0.0,-0.00631776980706,0.0118786349956,-0.999909487811,0.0,0.266807653331,-0.257521918792,0.304960004384,1.0,-0.0164181818182,-0.0215781818182,2.77
-0.639926637502,-0.520507862008,-0.125547078768,-2.64136271875,-0.0675089009808,2.11053285956,-0.887816145801,-0.0677496200433,0.00831369959961,0.00114655869757,0.0123893897532,9.71188100472e-05,0.0024724450306,-0.0718723228638,0.573761308362,0.818988006608,0.00611170679717,0.0,0.818986599464,-0.573670994406,-0.0119702538646,0.0,-0.00629750668181,0.0118737030911,-0.999909674213,0.0,0.266529733074,-0.257890263923,0.304968687092,1.0,-0.0160781818182,-0.0211313246753,2.787
-0.64105226475,-0.520334616794,-0.125512217896,-2.64122917521,-0.0674873433671,2.11054694128,-0.888960507385,-0.0693562662462,0.00643757510662,-2.41218492822e-05,0.00459069121087,0.00034910229584,0.000222079527764,-0.0727742399263,0.573737500922,0.819004685748,0.00611160046216,0.0,0.819003155928,-0.573646963901,-0.0119890903778,0.0,-0.00631334169901,0.0118842396264,-0.999909449183,0.0,0.266277990215,-0.258213294242,0.304967692687,1.0,-0.0157581818182,-0.0207107532468,2.803
-0.642212329121,-0.520131550525,-0.1254449463,-2.64108202423,-0.0674611004071,2.11058336722,-0.890195363824,-0.0695369342034,0.0118402995372,0.00532168151755,0.00624317274408,0.00375387147841,0.00224661108319,-0.0697611352051,0.573647558379,0.819067793153,0.00609720314237,0.0,0.81906600305,-0.573556963635,-0.0120016254738,0.0,-0.00633317350326,0.0118789436637,-0.9999093867,0.0,0.266030415076,-0.258543718781,0.304964579766,1.0,-0.0154181818182,-0.0202638961039,2.82
-0.643352200176,-0.519933799004,-0.125397690609,-2.64092882288,-0.067438090587,2.11063860872,-0.891296803739,-0.0641314442508,0.00737518477788,0.00514600724972,0.00519076430124,0.00049607486346,0.00138161745003,-0.0700345581821,0.573663392778,0.81905679043,0.00608545295953,0.0,0.819054967922,-0.573573069875,-0.011984988049,0.0,-0.00632605570532,0.0118598977249,-0.999909657842,0.0,0.265787563826,-0.258877517888,0.304967287618,1.0,-0.0150781818182,-0.019817038961,2.837
-0.644433490223,-0.519749548649,-0.125352333273,-2.64080111773,-0.0674117576422,2.11067103803,-0.892402451587,-0.0678728740911,0.0113272757813,0.00282584799107,0.00596072828667,-0.000136092161146,0.000626096981844,-0.0704228668716,0.573629318254,0.819080672569,0.0060830884089,0.0,0.819078707864,-0.573538803662,-0.0120024130654,0.0,-0.00634217942406,0.0118676927078,-0.999909463217,0.0,0.265550162451,-0.259186152979,0.304961376245,1.0,-0.0147581818182,-0.0193964675325,2.853
-0.645620540357,-0.519556672371,-0.125320086436,-2.64065975812,-0.0673867070014,2.11069154963,-0.89358606607,-0.0636492996944,0.00931949869819,0.00193006710359,0.00888610992006,-0.000323960726634,0.00118872904389,-0.061607852078,0.573627435702,0.819081963604,0.00608677338105,0.0,0.819079891042,-0.573536614573,-0.0120262519414,0.0,-0.0063596210987,0.0118843705509,-0.999909154352,0.0,0.265283069053,-0.259527314997,0.304957155566,1.0,-0.0143981818182,-0.0189233246753,2.871
-0.646650763832,-0.519397486303,-0.125313371478,-2.64053932395,-0.0673638229729,2.11072427184,-0.894588668315,-0.0627443029965,0.0114255714023,0.00129629396569,0.00463195796147,0.00028729398551,0.00391877300496,-0.0665509391181,0.573661397686,0.819058082124,0.00609965679851,0.0,0.819056169349,-0.57357049989,-0.0120258058977,0.0,-0.0063513725991,0.0118949311656,-0.999909081206,0.0,0.2650484295,-0.25982937516,0.304956253063,1.0,-0.0140781818182,-0.0185027532468,2.887
-0.647740885841,-0.519232777744,-0.125296073078,-2.64039435474,-0.0673412374461,2.11076906271,-0.895664098334,-0.0651453743686,0.0125003373687,0.00123707805601,0.0059266836943,0.00058910661645,0.00449248051785,-0.0557576120993,0.57367828945,0.819046224316,0.00610324080974,0.0,0.819044554947,-0.573587742047,-0.0119944189478,0.0,-0.0063233611811,0.0118799926243,-0.999909436338,0.0,0.264807579645,-0.26015268197,0.304965738023,1.0,-0.0137381818182,-0.0180558961039,2.904
-0.648780455817,-0.519058359205,-0.12528602493,-2.64024382289,-0.0673245890775,2.11082423967,-0.896712025863,-0.0548815646504,0.0106786264227,-0.00038515561128,0.00752928872367,0.00187511576452,0.00300326090469,-0.0596275928828,0.573679206531,0.819045580712,0.00610340989353,0.0,0.819044146325,-0.573589096235,-0.0119575061034,0.0,-0.00629301432556,0.0118589630812,-0.999909877422,0.0,0.264580108341,-0.260467300884,0.304974878141,1.0,-0.0133981818182,-0.017609038961,2.921
-0.649830499699,-0.518869051256,-0.125273264666,-2.64008991913,-0.0673031437423,2.11084982229,-0.897754106979,-0.0555794565093,0.00974374836811,-0.000721298093962,0.0115328669663,0.0047873172756,1.85530794365e-05,-0.0664096072998,0.573693858068,0.819035272419,0.00610955390843,0.0,0.819033889281,-0.573603665251,-0.0119612006815,0.0,-0.00629230389004,0.0118662275271,-0.99990979571,0.0,0.264346320008,-0.260779878709,0.304977599375,1.0,-0.0130381818182,-0.0171358961039,2.939
-0.650766606751,-0.518699371583,-0.125246245908,-2.63997271087,-0.0672936765111,2.11086787306,-0.898708316235,-0.0541476738776,0.00774323262114,0.00131470847536,0.0083244458278,-0.000107020597661,-3.33201603198e-05,-0.0587505805611,0.573670142959,0.819051932309,0.00610296316062,0.0,0.819050280821,-0.573579638814,-0.0119909268368,0.0,-0.00632077808506,0.0118776990857,-0.999909479917,0.0,0.264134786346,-0.261050111904,0.304970552106,1.0,-0.0127181818182,-0.0167153246753,2.955
-0.651642133021,-0.518548537828,-0.125235924051,-2.6398676715,-0.0672851321439,2.110896218,-0.899593383093,-0.0594639706542,0.01017720371,0.00269745385943,0.0128830945777,5.53925688508e-05,0.000936595470302,-0.0526126793126,0.573664226386,0.819056076255,0.00610296773994,0.0,0.819054342711,-0.573573569238,-0.012003801846,0.0,-0.00633140774979,0.0118850427544,-0.999909325406,0.0,0.263934338908,-0.261306563556,0.304965392082,1.0,-0.0124181818182,-0.016321038961,2.97
-0.652663897359,-0.518374730613,-0.125234765713,-2.63973822185,-0.0672694578891,2.11094064524,-0.900580910742,-0.058958674495,0.0100275848728,0.000707797659551,0.00609468336996,0.000135233734843,0.00353993764798,-0.0530226998624,0.573713144229,0.819021747811,0.00611159985068,0.0,0.819020149999,-0.573622484408,-0.0119994241152,0.0,-0.0063221599427,0.0118899796835,-0.999909325227,0.0,0.263687774754,-0.261628582304,0.304962673962,1.0,-0.0120381818182,-0.0158216103896,2.989
-0.653532608513,-0.518218842059,-0.125235337894,-2.63961839061,-0.0672607132042,2.11096835337,-0.901436287505,-0.0498633426802,0.00706668155768,0.000395899381969,0.00648929690759,-0.000127105457228,0.000199269859608,-0.0538941948456,0.573727964962,0.819011373494,0.00611058178364,0.0,0.819009776597,-0.573637332951,-0.0119976240897,0.0,-0.00632105444709,0.0118882275601,-0.99990935305,0.0,0.263491545961,-0.261888898102,0.30496531628,1.0,-0.0117181818182,-0.015401038961,3.005
-0.654478868139,-0.518046398364,-0.125216486974,-2.63949656815,-0.0672491012793,2.11100036284,-0.902406487681,-0.0529594832898,0.00893058926118,0.0014457655326,0.00599712500428,-0.000136570614115,0.00486672856133,-0.0522470999454,0.573704693125,0.819027672151,0.00611099324055,0.0,0.819025963515,-0.573613844206,-0.0120156450364,0.0,-0.00633591744495,0.0118987231625,-0.99990913414,0.0,0.263289554003,-0.262148076527,0.304958382607,1.0,-0.0113781818182,-0.0149541818182,3.022
-0.655345721436,-0.517886546023,-0.125192976427,-2.63937944529,-0.0672367533965,2.11102567982,-0.90323587998,-0.0509302479101,0.00541167863415,0.00224545879458,0.00708454218991,4.47474009854e-05,0.00219377398001,-0.0542836794273,0.573730128391,0.819009891946,0.0061060275473,0.0,0.819008042915,-0.57363915308,-0.0120289066657,0.0,-0.00634925932047,0.0119024609965,-0.999909005024,0.0,0.263095654462,-0.262400890484,0.304955414995,1.0,-0.0110381818182,-0.0145073246753,3.039
-0.656140675429,-0.517749014371,-0.12515539353,-2.63927396245,-0.0672243043031,2.11105607423,-0.903983353586,-0.0471784747,0.00620671005306,0.0046204175847,0.0050256121282,0.00128620876802,0.00423044694153,-0.0459650483973,0.57375316933,0.818993844873,0.00609341000121,0.0,0.818991859572,-0.573662295256,-0.0120271300272,0.0,-0.00635470824437,0.0118912861032,-0.999909103368,0.0,0.262922143124,-0.26262968623,0.304956142983,1.0,-0.0107181818182,-0.0140867532468,3.055
-0.6569601923,-0.517602518892,-0.125143588697,-2.63915740838,-0.0672151707621,2.11108845009,-0.90479994414,-0.0463743942858,0.00928733251334,0.00198449503071,0.00771818496863,0.00374885865856,0.00172903011823,-0.0457560442738,0.573757152939,0.818991079153,0.00609004271823,0.0,0.818989094669,-0.573666375862,-0.0120207703194,0.0,-0.00635137320476,0.0118849103483,-0.99990920036,0.0,0.262738648609,-0.26287374409,0.304958149415,1.0,-0.0103781818182,-0.0136398961039,3.072
-0.657794999615,-0.517438682586,-0.125144181462,-2.63903630206,-0.0671994938844,2.11112706048,-0.905662835269,-0.0426596801087,0.00560988982667,0.000779215629995,0.00702414898235,5.74086747647e-05,0.000154212527437,-0.0454895520063,0.573747619285,0.818997697028,0.00609823982398,0.0,0.818995814807,-0.573656801176,-0.0120198458756,0.0,-0.0063460515217,0.0118910197878,-0.999909161513,0.0,0.262550402246,-0.263125487617,0.304956068508,1.0,-0.0100181818182,-0.0131667532468,3.09
-0.658481402353,-0.517298795493,-0.12513756238,-2.63894224582,-0.0671857241049,2.11115720113,-0.906341719617,-0.0466657434874,0.0125425919644,0.00116031703977,0.00611082937933,0.000343954978096,-3.85726198693e-05,-0.0454795219375,0.573761847034,0.81898767129,0.006106067769,0.0,0.818985827157,-0.573670873074,-0.0120287657115,0.0,-0.00634865982182,0.0119026589577,-0.999909006474,0.0,0.262386271313,-0.263342129969,0.304951405846,1.0,-0.00969818181819,-0.0127461818182,3.106
-0.659281429497,-0.517144584796,-0.12511215751,-2.63884029095,-0.0671653743444,2.11118109596,-0.907103760703,-0.0465666566434,0.00814514355683,0.000144745212918,0.00488432093647,0.00577723834039,9.16551953885e-05,-0.0496300551874,0.573787139209,0.818969955438,0.00610556053779,0.0,0.818967939607,-0.573695852901,-0.0120552544814,0.0,-0.00637027911287,0.0119176377666,-0.999908690558,0.0,0.262215667439,-0.263558405979,0.304942079542,1.0,-0.00935818181819,-0.0122993246753,3.123
-0.660008106117,-0.516996329786,-0.125092180666,-2.63876590477,-0.0671497629274,2.11120553361,-0.907820307703,-0.0479923616773,0.00601200142701,0.00493567029421,0.0047034422668,0.000876439531686,-5.05315818488e-05,-0.0425171017301,0.573792042625,0.818966486009,0.00611011584989,0.0,0.81896423752,-0.573700189997,-0.0121002711604,0.0,-0.00640446523382,0.0119472356949,-0.999908118971,0.0,0.262047346371,-0.263763158648,0.304923773271,1.0,-0.00901818181819,-0.0118524675325,3.14
-0.660641174755,-0.516871766513,-0.125052514064,-2.63870134987,-0.067130356083,2.11122806695,-0.908463955552,-0.0387920770067,0.00882738062235,-0.000695534529606,0.0039835063429,3.01614640052e-05,0.00147381210875,-0.0364580327581,0.573767055408,0.818984008351,0.00610795334809,0.0,0.818981516307,-0.573674816483,-0.0121337455336,0.0,-0.00643348840198,0.0119644746937,-0.999907726529,0.0,0.261906263787,-0.263936232233,0.304910035705,1.0,-0.00869818181819,-0.0114318961039,3.156
-0.66129246261,-0.516742367961,-0.125018917919,-2.63862725864,-0.0671178214785,2.11124670759,-0.909139165136,-0.0366287251149,0.00190198950381,-0.000595101290732,0.00198750887971,0.000476668893806,0.000132857845809,-0.0366345652299,0.573732980386,0.819007919362,0.00610263393021,0.0,0.819005146066,-0.573640379121,-0.0121668837588,0.0,-0.0064641813666,0.0119788617046,-0.999907356324,0.0,0.261759739441,-0.264117838698,0.304898362953,1.0,-0.00835818181819,-0.010985038961,3.173
-0.661913561953,-0.516628994297,-0.124994937311,-2.63855400384,-0.0670950091411,2.11126762881,-0.909765131546,-0.0390273461438,0.0072464736055,-0.000326251057195,0.00414496484465,0.00070943583992,0.000531029314535,-0.0376676195139,0.573725607067,0.819013035345,0.00610922520849,0.0,0.819010245079,-0.573632786898,-0.0121815907057,0.0,-0.00647255431382,0.0119926394534,-0.999907137008,0.0,0.26162039728,-0.264292902606,0.30489218986,1.0,-0.00801818181819,-0.0105381818182,3.19
-0.662476947266,-0.516525311801,-0.124986955215,-2.63846568115,-0.067076298756,2.11128667088,-0.910319294356,-0.0339365367668,0.00861108587385,-0.000636173551689,0.00444041544298,0.00111497471815,0.000309483417073,-0.0313692783648,0.573742917667,0.81900084491,0.00611779090018,0.0,0.818998248379,-0.573650207264,-0.0121678165675,0.0,-0.0064561043316,0.0119918894913,-0.999907252351,0.0,0.261486387942,-0.264471282886,0.304897281645,1.0,-0.00767818181819,-0.0100913246753,3.207
-0.663077397901,-0.516442433522,-0.124985192477,-2.6383794871,-0.0670563982105,2.11131212637,-0.910887001703,-0.037684315222,-0.00100939983438,0.00178121808363,0.00931596170318,0.00505181616519,0.00635187612162,-0.0322328539509,0.573778441311,0.818975889785,0.0061269191521,0.0,0.81897357829,-0.573685991283,-0.0121411848377,0.0,-0.00642853373738,0.0119843657499,-0.99990752019,0.0,0.261360651964,-0.264639646276,0.304906699836,1.0,-0.00735818181819,-0.00967075324676,3.223
-0.663650069414,-0.516381241098,-0.124985127377,-2.63829728574,-0.0670318832838,2.11132564275,-0.911457473433,-0.0332112686795,0.00519629825284,-0.000742951331062,0.0058046026637,8.68923902731e-05,0.000695157278987,-0.0322871703952,0.573798767727,0.818961493734,0.00614758787291,0.0,0.818959651199,-0.573706594658,-0.0121070167958,0.0,-0.00638839185213,0.0119818484261,-0.999907807629,0.0,0.261221821255,-0.264817409225,0.304919716469,1.0,-0.00699818181819,-0.00919761038962,3.241
-0.664155553389,-0.516318512245,-0.124975757236,-2.63822783529,-0.0670100706177,2.1113457738,-0.911976614283,-0.0315558393422,0.00271708587435,-0.000853138469436,0.00333974706494,0.00404924065974,0.00155729287018,-0.0325141408843,0.573789685113,0.818967820165,0.00615253549111,0.0,0.818966266204,-0.573697913366,-0.0120708707751,0.0,-0.00635608032728,0.011965090525,-0.999908214213,0.0,0.261118309467,-0.264956663095,0.30493299452,1.0,-0.00669818181819,-0.00880332467533,3.256
-0.664697340174,-0.516249193681,-0.124933855157,-2.63814247635,-0.0669839015915,2.11137114246,-0.912521782901,-0.0312228672691,0.00783482349239,0.000689378855586,0.00195981560298,0.000340608820793,7.356999946e-05,-0.0294887713647,0.573772562316,0.818979856064,0.00614727553074,0.0,0.818978522787,-0.573681362048,-0.0120258452115,0.0,-0.00632246930809,0.0119348164365,-0.99990878911,0.0,0.26100813478,-0.265111031611,0.304949362335,1.0,-0.00633818181819,-0.00833018181819,3.274
-0.665177729521,-0.516156827124,-0.124878016859,-2.63807853989,-0.0669604206656,2.11139629077,-0.912982891067,-0.0308977396828,0.00918800238943,0.00218801933358,0.000798340745671,-0.000201945908499,0.00141215775301,-0.0254448723427,0.573762075253,0.818987283438,0.00613656825666,0.0,0.81898581818,-0.573670936959,-0.0120263298676,0.0,-0.00632916222245,0.0119262439742,-0.999908849051,0.0,0.260911624963,-0.265240593743,0.304947799568,1.0,-0.00599818181819,-0.00788332467533,3.291
-0.665592598927,-0.516073985392,-0.124826584706,-2.63801890687,-0.0669346378413,2.11141224436,-0.91340879297,-0.0274273897307,0.00425595826287,0.0018092174348,-7.08430864781e-05,-5.91646262503e-05,0.0012346409675,-0.0265421661699,0.573730634001,0.819009351843,0.00613091377379,0.0,0.819007789079,-0.573639481535,-0.0120305259038,0.0,-0.00633630101767,0.0119237769587,-0.999908833261,0.0,0.26082947327,-0.265351486616,0.304946906718,1.0,-0.00567818181819,-0.00746275324676,3.307
-0.666004103558,-0.515964281672,-0.124795073861,-2.63795427368,-0.0669132523911,2.11143502871,-0.913831847939,-0.0222512673339,0.00598028480456,-4.09829060833e-05,0.00408396392695,2.1436809422e-05,0.00161113216407,-0.0241462346147,0.573711395388,0.819022826907,0.00613112613271,0.0,0.819021142264,-0.573620011707,-0.0120497964317,0.0,-0.00635224399351,0.0119348572365,-0.999908599913,0.0,0.260744942391,-0.265468027801,0.304938481253,1.0,-0.00533818181819,-0.0070158961039,3.324
-0.666402902721,-0.515874342465,-0.124772676453,-2.6379238399,-0.0668895737775,2.11144637709,-0.914250444935,-0.0255825317765,0.00614345642168,0.000448520078004,0.000360906371824,0.00090083291678,0.000536011792746,-0.0230084540949,0.573691198295,0.819036880179,0.006143680232,0.0,0.81903506262,-0.573599207731,-0.0120938823937,0.0,-0.00638144845399,0.0119702738708,-0.999907990597,0.0,0.26065284842,-0.265572776867,0.304920623002,1.0,-0.00499818181819,-0.00656903896105,3.341
-0.666758868722,-0.515815019484,-0.12476449344,-2.63790811415,-0.066867659102,2.1114482954,-0.914618572316,-0.0251979604084,0.000590201172989,0.00254860714941,-3.89655317515e-05,-0.000166503937472,0.000430075065593,-0.0163854470295,0.573687380913,0.819039454915,0.00615688025898,0.0,0.819037592578,-0.573594926139,-0.0121255743166,0.0,-0.00639989171919,0.0119992363794,-0.99990752558,0.0,0.260560046533,-0.265670825766,0.304907509389,1.0,-0.00465818181819,-0.00612218181819,3.358
-0.667150851365,-0.515753882916,-0.124745655351,-2.63789154604,-0.0668488317333,2.11145613446,-0.914993652099,-0.0197928566827,0.00328730728242,-0.00126359570809,0.000360003081896,0.00101909884415,-6.65194413402e-05,-0.0225610506338,0.573695335442,0.819033754707,0.00617394883941,0.0,0.819031849029,-0.573602303764,-0.0121644685438,0.0,-0.00642184270821,0.0120355913179,-0.99990694791,0.0,0.260470017797,-0.26576547959,0.304892327218,1.0,-0.00431818181819,-0.00567532467533,3.375
-0.667474040135,-0.515719860128,-0.124719598094,-2.63785551623,-0.0668350321164,2.11146378324,-0.915314521574,-0.0216830339729,1.83667302205e-05,0.0087927781188,0.00225987380585,0.00103545307635,-0.000495354397495,-0.0215808613924,0.573684049626,0.819041679772,0.00617129668144,0.0,0.819039837426,-0.573591215954,-0.0121494276069,0.0,-0.00641120946355,0.0120247021736,-0.999907147155,0.0,0.260395636634,-0.265857799474,0.304898775012,1.0,-0.00397818181819,-0.00522846753247,3.392
-0.667775391598,-0.515672991506,-0.124704022208,-2.63782292617,-0.0668191302372,2.11146964379,-0.915601891394,-0.0146971835093,0.00773145620633,0.000414919428889,0.000439065201221,-0.000102208575734,0.00034791223108,-0.0158955463465,0.573695312313,0.819033744373,0.00617746785775,0.0,0.819031919512,-0.573602330173,-0.0121584761767,0.0,-0.00641491581807,0.0120350358564,-0.999906999059,0.0,0.260331760593,-0.265934574243,0.304895788425,1.0,-0.00367818181819,-0.00483418181819,3.407
-0.668083623967,-0.515633533576,-0.124678799941,-2.63776014642,-0.0668003742038,2.11147711338,-0.91588813028,-0.0201003886677,-0.000176302484343,0.00189457649449,-0.00135173138986,0.00171964844964,-0.000190380232524,-0.0179771710268,0.573706473397,0.819025942772,0.00617530154621,0.0,0.819024303797,-0.573613900807,-0.0121255718236,0.0,-0.00638904209474,0.0120144724143,-0.999907412011,0.0,0.260271554602,-0.266024245297,0.304910981163,1.0,-0.00331818181819,-0.00436103896105,3.425
-0.668341954307,-0.515589942342,-0.12465329171,-2.63771273551,-0.0667810166703,2.11148817446,-0.916122582207,-0.0135262767357,0.0078023061742,0.00208461423999,0.000680125922188,0.000572889840675,0.000185987517156,-0.0160469225916,0.573718543101,0.819017489186,0.00617516070494,0.0,0.819015958044,-0.573626174923,-0.012108625576,0.0,-0.0063750650418,0.0120047293135,-0.999907618243,0.0,0.260221721717,-0.266097231923,0.304917980168,1.0,-0.00297818181819,-0.00391418181819,3.442
-0.668562760025,-0.515572669297,-0.124631212407,-2.63768203832,-0.066768493855,2.11149275999,-0.916346458081,-0.014021547999,0.0021462471668,0.00256486934458,0.00159828494092,0.000293485832128,0.00288680693485,-0.00713754500147,0.57370717102,0.819025472224,0.00617289796112,0.0,0.819024037701,-0.573615052889,-0.0120889895576,0.0,-0.00636044564897,0.011991522686,-0.999907869813,0.0,0.26017627498,-0.266157038904,0.304926464721,1.0,-0.00265818181819,-0.00349361038962,3.458
-0.668785682793,-0.515558491562,-0.124616991201,-2.63765626615,-0.0667524696886,2.11150547559,-0.916548525411,-0.011319280379,0.00081746563581,0.000599291085623,0.0003959096281,-1.93551879501e-05,0.000289905808541,-0.00804236999683,0.573721628985,0.819015329362,0.00617491740431,0.0,0.81901407049,-0.573629780791,-0.0120653980875,0.0,-0.00633975153131,0.0119797547307,-0.999908142295,0.0,0.260126567963,-0.266220885862,0.304933603503,1.0,-0.00229818181819,-0.00302046753247,3.476
-0.668988757982,-0.515539729734,-0.124593336335,-2.63763468622,-0.0667401410698,2.11151806945,-0.916728000161,-0.0119171595588,0.00475524322857,-0.000253253929118,0.00170241252553,-1.98753514585e-05,-0.00020990160152,-0.00953611856645,0.573732217048,0.819007916984,0.00617429680318,0.0,0.819006821479,-0.573640693609,-0.0120386007509,0.0,-0.00631800306478,0.0119639546418,-0.999908469124,0.0,0.260085701858,-0.26627579667,0.304941435057,1.0,-0.00195818181819,-0.00257361038962,3.493
-0.669172004803,-0.515523409052,-0.124569565042,-2.63761342923,-0.0667303939855,2.11153034278,-0.916895687164,-0.00883885994487,0.00103752149147,0.00401171567697,0.00349293093595,0.00491389048205,0.000202283613553,-0.0143156511889,0.573732130915,0.819008025419,0.00616791351238,0.0,0.819006923078,-0.573640779409,-0.0120275953652,0.0,-0.00631265195411,0.0119524119072,-0.999908640964,0.0,0.260051515878,-0.26632085561,0.304944120799,1.0,-0.00165818181819,-0.00217932467533,3.508
-0.669356379954,-0.515492896222,-0.124540084587,-2.63759425627,-0.0667174781588,2.1115424926,-0.91704616892,-0.00639332927124,0.00393818165572,0.002766599803,0.0011547982898,-0.000101677193938,0.000968845691788,-0.00553985092782,0.573745468368,0.818998718204,0.00616311683221,0.0,0.818997572329,-0.573654170413,-0.012025647111,0.0,-0.00631361345254,0.0119474682835,-0.999908693975,0.0,0.260015702012,-0.266367375495,0.304943301151,1.0,-0.00129818181819,-0.00170618181819,3.526
-0.66951578313,-0.515472976589,-0.124515818691,-2.63757827925,-0.0667091794757,2.11154859084,-0.917151398056,-0.010094446032,-0.00141501134972,-0.000531558727206,0.00154320296799,-0.000242324230581,9.21584089168e-05,-0.0118551922149,0.573776956668,0.818976703177,0.00615715447703,0.0,0.818975506913,-0.573685729083,-0.0120229041255,0.0,-0.00631432829844,0.0119412539545,-0.999908763694,0.0,0.259983519738,-0.26640746379,0.304944298875,1.0,-0.000958181818187,-0.00125932467533,3.543
-0.669643012096,-0.515446259965,-0.124493399805,-2.637571629,-0.0666997411171,2.11155406852,-0.917196276081,-0.00103905582381,0.00367227173709,0.000747932002461,-0.000518393321004,-0.000113198711182,-4.10195953739e-05,-0.00585143654053,0.573832924782,0.818937509925,0.00615436227712,0.0,0.81893619786,-0.573741547159,-0.0120369347828,0.0,-0.00632660587023,0.0119474495607,-0.999908612078,0.0,0.259957250776,-0.266436827824,0.304938454647,1.0,-0.000638181818187,-0.000838753246761,3.559
-0.669715310427,-0.515432872025,-0.124488357612,-2.63756286739,-0.0666911058725,2.11155502303,-0.917254228992,-0.000172413715221,0.00172976234703,0.00105869454352,0.00200982996424,0.000505978579379,0.000306409403646,-0.00216861817185,0.57384524103,0.818928844367,0.00615906746093,0.0,0.818927573217,-0.573753802092,-0.0120395727185,0.0,-0.00632588679287,0.0119529118082,-0.999908551346,0.0,0.259941727661,-0.266455866765,0.30493769668,1.0,-0.000298181818187,-0.000391896103904,3.576
