nelsonifechukwu/NELSON_IML_WORK/CNN-GradCAM/train2dof/data_sample_2022-07-06-11-31-44/robot_state.csv
position_joint1,position_joint2,position_joint3,position_joint4,position_joint5,position_joint6,position_joint7,velocity_joint1,velocity_joint2,velocity_joint3,velocity_joint4,velocity_joint5,velocity_joint6,velocity_joint7,ee_T_00,ee_T_10,ee_T_20,ee_T_30,ee_T_01,ee_T_11,ee_T_21,ee_T_31,ee_T_02,ee_T_12,ee_T_22,ee_T_32,ee_T_03,ee_T_13,ee_T_23,ee_T_33,v_x,v_y,w_z,time
0.46509186660067925,0.5472988824881582,-0.12398312541001107,-1.3555691990266785,0.07946051696934069,1.894175392306597,0.15912414136970207,-0.0016791793073105098,0.0014513489768228887,-0.0006121197333665736,0.00127038626749143,0.00022357558021887184,-3.5594912140140964e-05,-0.000625865908667253,0.573732974371402,0.8190264481002013,0.002626467688986253,0.0,0.8189927796195146,-0.5736726484167186,-0.01145715020664663,0.0,-0.007877128023102642,0.008724570914088778,-0.9999309139717968,0.0,0.6617614586110205,0.26094207180176304,0.303687907028227,1.0,5e-324,6.9191916756004e-310,6.9189794760214e-310,0.0
0.46509736922558587,0.5472963758882707,-0.1239824398761238,-1.3555769943940013,0.07945990724278984,1.8941762062648468,0.15912317496664882,0.00028612665585861426,7.962268509106461e-05,0.00432415326213869,-0.0017580350691350926,0.00010768824097541236,0.00029086153837822954,-0.0019411433353065729,0.5737274649953394,0.819030319306549,0.0026227595852624727,0.0,0.8189965978032154,-0.573667146044813,-0.011459722368607258,0.0,-0.007881420806459039,0.008722956585222125,-0.999930894229438,0.0,0.6617583418227195,0.2609451735876697,0.30368601822064795,1.0,-4e-05,-5.2571428571428585e-05,-2e-05,0.003
0.4650941893302012,0.5473013602892328,-0.12398217673410676,-1.3555660845147393,0.07945990726682874,1.8941713982987487,0.15912849598093054,0.00021717072049779384,0.0019122426346053695,-0.0002247534438510417,0.0022817773058989143,1.9480001175906303e-05,-0.0003407011707239711,0.00046673773318292176,0.5737336226500002,0.8190260036067138,0.0026234630034894556,0.0,0.8189922952711047,-0.5736733051835823,-0.01145888770869748,0.0,-0.007880268033172988,0.008723113090395251,-0.9999309019495985,0.0,0.6617605206068885,0.2609441244582764,0.3036872543631942,1.0,-0.00032000000000000013,-0.00042057142857142884,-0.00016000000000000007,0.017000000000000008
0.4650961718497402,0.5472915137990316,-0.12398072740167346,-1.355577956244768,0.07945990726660616,1.8941737648643573,0.15912943302584093,2.5475815123586883e-05,0.0009020059862343639,0.0003932134405367039,0.00042557397257314414,5.013589913055694e-05,-0.0003045243789364607,0.0004607601150697846,0.5737324004154055,0.8190268560812903,0.002624620426372541,0.0,0.8189931475026243,-0.5736720625304972,-0.011460188347415669,0.0,-0.007880682346482148,0.008724795493119594,-0.9999308840061681,0.0,0.6617576809495654,0.26094515567807625,0.30368873590569456,1.0,-0.0006600000000000004,-0.0008674285714285722,-0.0003300000000000002,0.03400000000000002
0.4650882268795295,0.5472444558736739,-0.12398072708269565,-1.3556191403099405,0.07945990726682875,1.8941787176125187,0.15912274704672563,-0.0012521059722774468,-0.005054252017903187,4.38908346811816e-05,-0.0022638132600421527,6.090340811512462e-05,-0.0002718491720521469,-0.0017316691902780816,0.5737356242916954,0.8190245604696984,0.0026362221537570953,0.0,0.8189909693989924,-0.5736752126210605,-0.01145815728151691,0.0,-0.00787232849343239,0.008733163298855873,-0.9999308767624325,0.0,0.6617525402733867,0.2609359622736597,0.3037028974761794,1.0,-0.0010000000000000007,-0.0013142857142857153,-0.0005000000000000003,0.05100000000000004
0.46509364993552565,0.5471305808149431,-0.12398037887740354,-1.355750206739657,0.07946014749730869,1.894202819119005,0.15912158549907582,0.00021775720809831122,-0.009809376420357865,-0.003263226474574915,-0.007250196473118424,-0.00016735362227687125,0.0001171782952135949,-0.0008438524058378179,0.5737371666749038,0.8190234410292684,0.0026483054277265314,0.0,0.8189899078162599,-0.5736766066829905,-0.011464237480621383,0.0,-0.007870359887733325,0.008746562946783526,-0.9999307751398872,0.0,0.6617287959156851,0.26092736135916117,0.3037232545059736,1.0,-0.0013200000000000009,-0.0017348571428571443,-0.0006600000000000004,0.06700000000000005
0.4650783489703661,0.546991085354091,-0.12398885695613075,-1.3559387246385683,0.07945501582813277,1.894242746639429,0.15912309408007036,-0.0014917156827592654,-0.005123828388519841,-0.0020078332088569323,-0.008928118089211725,-0.00025941240410377604,0.006490228408054266,-0.00050867962431618,0.5737658239822754,0.8190033816536233,0.002643287929595471,0.0,0.8189697367159712,-0.573705224630163,-0.011473119742922786,0.0,-0.007880207490573332,0.008747825245454366,-0.9999306865395123,0.0,0.6617034491822955,0.260893658273691,0.30373606259363484,1.0,-0.0016600000000000013,-0.0021817142857142877,-0.0008300000000000007,0.08400000000000006
0.4650581734388553,0.5468218102507013,-0.12398596405923935,-1.356154089948765,0.07944807553300323,1.8943514063828246,0.15912691477382623,-0.0017694443215769485,-0.008469600679926846,0.00025750740643027965,-0.008119525129114312,0.00015905591320540966,0.01252671168960515,0.0015638982791431246,0.5737937862709838,0.8189836070222509,0.0026998457067023704,0.0,0.818950668486654,-0.5737329745049817,-0.011446547607759129,0.0,-0.007825695008622735,0.008779167364078452,-0.9999308399674577,0.0,0.6616851966220221,0.2608649001101631,0.303762781265529,1.0,-0.0020000000000000013,-0.0026285714285714306,-0.0010000000000000007,0.10100000000000008
0.4650353575039334,0.5466103001288557,-0.12398757284161933,-1.3563901023147082,0.07944375891015798,1.894474547042664,0.1591166893301075,-0.0008115553645973228,-0.00926938791315355,-0.0013808027193598753,-0.012240093483667223,0.00021860046347966922,0.0062150811188277115,-0.0005281236206903945,0.5738173695742181,0.8189667855410795,0.002788809180412001,0.0,0.8189349707972666,-0.573756247849858,-0.011403006609692904,0.0,-0.007738735971969557,0.008827266574966713,-0.9999310932911178,0.0,0.6616677704287327,0.2608313011468576,0.303810995102549,1.0,-0.002340000000000002,-0.0030754285714285744,-0.001170000000000001,0.11800000000000009
0.4650059215597026,0.5463951667303192,-0.12398567233373162,-1.3566684647683271,0.07943324584414672,1.8945923109533522,0.15911246344968188,-0.000359512255918985,-0.009138218338342418,0.00048700870725436535,-0.01575921376246678,-0.0002576477085475234,0.007299649678975808,-0.0010778039124778398,0.5738494819071001,0.8189441119037553,0.0028391185834135023,0.0,0.8189129092438281,-0.573788159700479,-0.011381641470169776,0.0,-0.007692023733939846,0.008856510435011025,-0.9999311951298404,0.0,0.6616409168987831,0.2607890010011815,0.30384100435316447,1.0,-0.002680000000000002,-0.0035222857142857174,-0.001340000000000001,0.1350000000000001
0.46497110429476735,0.5461635072497754,-0.1239842530681255,-1.3570204055235722,0.07942482009767135,1.894718085410611,0.15910154763995815,-0.0036440858032210487,-0.011466449236902657,-0.00025563635288722585,-0.025178897529707096,-3.934584807279986e-05,0.0066679888081195605,-0.0006937308116626259,0.5738854791699858,0.8189188454875567,0.0028510005912229224,0.0,0.8188876819067284,-0.5738239847434374,-0.011390603838072229,0.0,-0.00769215572255294,0.008871722215053085,-0.9999310592662269,0.0,0.6616006088899578,0.260735226167774,0.30384838859781893,1.0,-0.0030000000000000022,-0.003942857142857146,-0.0015000000000000011,0.1510000000000001
0.4649358886009566,0.5458827457369968,-0.12398921418516569,-1.3574530764511252,0.07940700930468761,1.8948790117684549,0.1590991536378767,-0.005755361405892916,-0.019114736192811677,-0.001095870354081143,-0.02035779580340758,-0.004604478478205192,0.007306392672385467,0.0009729085101428435,0.5739353009978999,0.8188838930585165,0.002861268772156667,0.0,0.8188528206581326,-0.5738737214426133,-0.011391085946232914,0.0,-0.007686117829076189,0.008880875330355725,-0.9999310244442284,0.0,0.6615521558502818,0.26066942425149414,0.3038553472295899,1.0,-0.0033400000000000027,-0.00438971428571429,-0.0016700000000000013,0.16800000000000012
0.4648943040879097,0.545581548497159,-0.12398395262482954,-1.3579428137465563,0.07937436509278838,1.895051912764065,0.15908357409080687,-0.0028151407257813936,-0.022758098381398383,0.0003024413092062841,-0.030030324511186597,-0.00034006678966476823,0.005693130926057769,-0.00014674097632666277,0.573971620764126,0.8188584869143993,0.002846729153090458,0.0,0.8188272174969172,-0.5739100701530824,-0.011400270362944286,0.0,-0.007701589891329574,0.008874581831961562,-0.9999309612720537,0.0,0.6614936470899249,0.2605972332763849,0.30385026319253955,1.0,-0.0036800000000000027,-0.004836571428571433,-0.0018400000000000014,0.18500000000000014
0.4648355528578692,0.5452518077524601,-0.12398673777381382,-1.3584921596887916,0.07930526786283013,1.8952348635624683,0.1590332521198846,-0.002680743944033146,-0.021047559553125237,-0.00012888588818078578,-0.03201999957584494,-0.0015801031110124026,0.012273677909584802,-0.0058370682035134135,0.5739927646424281,0.818843845188843,0.002794679892280054,0.0,0.8188121816206939,-0.5739316892220695,-0.011391849607059256,0.0,-0.007724339302113803,0.008827327143277594,-0.9999312040724857,0.0,0.6614325284289133,0.26049710827974365,0.30383805875213893,1.0,-0.004020000000000003,-0.005283428571428576,-0.0020100000000000014,0.20200000000000015
0.4647814379232071,0.5448645844688191,-0.12398148606524487,-1.3591198265382467,0.0792848850273263,1.8954388371588449,0.15893049407257268,-0.004149008409528042,-0.027636451099693957,0.0012898076367359244,-0.0376264234402326,-0.0009204028056128741,0.009304576236544168,-0.0018940154777639174,0.5739787563425282,0.8188537306219748,0.002775250469223019,0.0,0.818821606810536,-0.573917504036418,-0.011428984295561065,0.0,-0.0077660511258172416,0.008832599295642132,-0.9999308344278587,0.0,0.6613532858736921,0.26040548150654425,0.3038308887118438,1.0,-0.004360000000000004,-0.00573028571428572,-0.002180000000000002,0.21900000000000017
0.46471408965227146,0.5444723080801824,-0.12399449189364826,-1.359819573134042,0.07926259827920482,1.8956665210992347,0.15893266571623124,-0.003340762243379238,-0.021959418976935187,-0.0013279828113589103,-0.045150213765325256,-0.0012560806687532424,0.01190811912771951,0.0012639557577981408,0.5740778476308004,0.8187844705350116,0.00271340588494108,0.0,0.8187514025436631,-0.5740166151519994,-0.011480995751000977,0.0,-0.007843071969029947,0.008812759876295304,-0.9999304083212248,0.0,0.6612700208236566,0.2602873472422686,0.3037956072605078,1.0,-0.004700000000000004,-0.006177142857142863,-0.002350000000000002,0.23600000000000018
0.46464890155986344,0.5440267265132875,-0.12399271946543833,-1.3605612015696433,0.07922284822864659,1.8959104452170557,0.15888998734342336,-0.007955736127994197,-0.02663744607716195,0.001624945326965745,-0.04344736757165727,-0.0013712618076420864,0.01984887191118037,-8.092276010795616e-05,0.5741257062988989,0.8187510503379012,0.0026716733674386033,0.0,0.8187173506925458,-0.5740645006299019,-0.011515020309515405,0.0,-0.007894374126718284,0.008798583909557067,-0.9999301294482198,0.0,0.661178697750568,0.2601732079823148,0.3037789714295729,1.0,-0.005040000000000004,-0.006624000000000006,-0.002520000000000002,0.25300000000000017
0.46458809889617314,0.5435830687308223,-0.12399538178798823,-1.361280535047365,0.07919092284577592,1.8961684051600984,0.15883325325633968,-0.0036105828356684014,-0.02609394184797947,-0.0004938704915892305,-0.04534089191334045,-0.004947850876966434,0.009336366748489082,-0.0038794422826867346,0.5741624840299944,0.8187252933439062,0.0026613666882331615,0.0,0.8186913626578163,-0.5741011990128042,-0.011533121986558191,0.0,-0.007914717257721748,0.008800893333413731,-0.9999299483100125,0.0,0.6610945943494612,0.26006424636158315,0.30377292786905996,1.0,-0.005360000000000004,-0.007044571428571435,-0.002680000000000002,0.2690000000000002
0.46451328799798586,0.5430820311420249,-0.12399641286415933,-1.3621039393734367,0.07914977675164804,1.8964591487698335,0.1587599987797417,-0.0032673550282958466,-0.034659186200589207,6.803313238821723e-05,-0.04672849988078121,-0.00025269522657879223,0.015153847973441166,-0.004502334508877104,0.574199353260757,0.818699511889958,0.0026379627141020594,0.0,0.8186651877583675,-0.5741380412324641,-0.01155711311334855,0.0,-0.007947401131335796,0.008795864463533615,-0.9999297333230955,0.0,0.6609982780468484,0.2599361068753886,0.303760671594116,1.0,-0.005700000000000004,-0.007491428571428578,-0.002850000000000002,0.2860000000000002
0.46444460781503627,0.5425762621699607,-0.12399954604237257,-1.3629362075726907,0.07909012339127794,1.8967435332765008,0.1587172865922012,-0.0009585877860114992,-0.02879344674574644,-0.0013686796005705141,-0.054812752064545375,-0.0060779293393997,0.012146024606987812,0.00031942979144321455,0.5742523945081931,0.8186624609950103,0.0025902240073367834,0.0,0.8186275889631706,-0.5741913144127525,-0.011573760949250767,0.0,-0.007987873285598857,0.008766857561748082,-0.9999296655709667,0.0,0.6608932319058084,0.2597964359592381,0.30374540833006475,1.0,-0.006040000000000005,-0.007938285714285722,-0.0030200000000000023,0.3030000000000002
0.4643629759166241,0.5420056445378685,-0.12400277745089539,-1.3638370576048418,0.07902975881520484,1.8970691893754825,0.1586575516876279,-0.0017503996466216461,-0.027016498047052237,0.0005701595142005802,-0.054627009741374695,-0.0014832503537316648,0.023804692834667546,-0.0016323806581636938,0.574307266831774,0.8186239803886911,0.002586290393961992,0.0,0.818589099794044,-0.5742462397647473,-0.011571029151864622,0.0,-0.007987308188254438,0.008762603959317175,-0.999929707369352,0.0,0.6607963120593866,0.2596634648868354,0.3037500137591269,1.0,-0.0063600000000000045,-0.00835885714285715,-0.0031800000000000023,0.31900000000000023
0.46427789752730836,0.5413960202910284,-0.12400902856727639,-1.3647806766549255,0.07898009781853066,1.8974049580491765,0.15857435506860393,-0.002347418539910098,-0.03677208354951739,-0.00027142332330342875,-0.05547257304021177,-0.002369446622064893,0.012417841741501557,-0.0026403754537802733,0.5743522409347275,0.8185924146844779,0.002590145845425367,0.0,0.8185575311729336,-0.5742911371832531,-0.01157604483603474,0.0,-0.007988718499372105,0.008769079513300804,-0.9999296393353021,0.0,0.6606880687674215,0.25951437044936576,0.3037612036205522,1.0,-0.0067000000000000046,-0.008805714285714293,-0.0033500000000000023,0.33600000000000024
0.46419753339506314,0.5407529197701125,-0.12401226881969325,-1.3657716562680033,0.07892015596440394,1.8977639288227424,0.15852007115033756,-0.0024406688434044834,-0.039714140813222915,-0.00032368503473886076,-0.06101574900486165,-0.0008250071744260629,0.0237955670732346,-0.0034182627159777094,0.5744147595533731,0.8185485209906022,0.002598017041305146,0.0,0.8185137445577599,-0.5743536269513544,-0.011571865842078984,0.0,-0.007980106801365072,0.008773732113696364,-0.9999296672867727,0.0,0.6605729073689897,0.2593648733695872,0.3037753289420073,1.0,-0.0070400000000000055,-0.009252571428571438,-0.0035200000000000027,0.35300000000000026
0.4641006531352774,0.5400580861866145,-0.12401515890365268,-1.3668130753312848,0.07886241610529833,1.8981607637521503,0.15844111621783422,-0.0010429879509150789,-0.037542032278816646,-0.00026393039268614397,-0.06183267162060489,-9.158411879698936e-05,0.024304517440814674,-0.007227447717243733,0.5744737475948105,0.8185069817514993,0.0026421676012110245,0.0,0.8184727621184089,-0.5744124426922973,-0.011551201311491916,0.0,-0.007937197790912509,0.008798573520983025,-0.9999297905329272,0.0,0.6604589168156128,0.25920229307569204,0.3038051968630319,1.0,-0.0073800000000000055,-0.009699428571428581,-0.0036900000000000027,0.3700000000000003
0.4640004998168696,0.5393516066457699,-0.12402016080826068,-1.3679414594239943,0.07879662052379677,1.8985799512547035,0.15833669887173277,-0.0006017754326878936,-0.04870393381141762,-0.00046204389566413453,-0.07302355756597181,-0.00019884673089519156,0.02131220132944249,-0.001094404789359212,0.574518674743947,0.8184754595402464,0.0026384469010993323,0.0,0.818441189786234,-0.5744573745055794,-0.01155381489633188,0.0,-0.007940991565835165,0.008797465421871917,-0.999929770161436,0.0,0.6603311861361861,0.25902638452889665,0.3038037904297847,1.0,-0.0077200000000000055,-0.010146285714285724,-0.0038600000000000028,0.3870000000000003
0.46390573452926065,0.5386485864464339,-0.12402189560426462,-1.3690237230575637,0.07873830927070692,1.898990319220293,0.15829241021755439,-0.003942244218417102,-0.04413480815994948,0.00017366965322426777,-0.07026588103286042,-9.08682285044194e-05,0.029064794800438783,-0.009282869902880962,0.5746054682972761,0.8184144373127958,0.00266673996787742,0.0,0.818380496124884,-0.5745440210680207,-0.01154462292961472,0.0,-0.007916278987543324,0.00881618118154158,-0.9999298012742524,0.0,0.6602094852529516,0.2588619777294091,0.3038209200455789,1.0,-0.008040000000000005,-0.010566857142857152,-0.004020000000000003,0.4030000000000003
0.46380633528605514,0.5378780628018396,-0.12403010451344788,-1.370218296812491,0.07866533303888619,1.8994508946072535,0.15816599575395987,-0.0064689568887280465,-0.04578164184359508,-0.001938708209830811,-0.06946536275665947,-0.0017699524201917982,0.026847047481420926,-0.01080991644469904,0.574635636111764,0.8183931666063584,0.0026939680127928013,0.0,0.8183596388797388,-0.5745741635120405,-0.011522976103026437,0.0,-0.007882592248533993,0.008826317326925431,-0.9999299779794024,0.0,0.6600768692084884,0.2586793563319772,0.303836703031232,1.0,-0.008380000000000007,-0.011013714285714297,-0.004190000000000004,0.4200000000000003
0.4636982391061093,0.5370761644427664,-0.12403714381111129,-1.3714710478555578,0.07859010392429346,1.8999249954367192,0.15810263127378302,-0.006928299562251562,-0.04692491543614293,-0.0012159190651181114,-0.06952938895947298,-0.004843382879008876,0.0271725825154661,-0.005619999115512613,0.5747261600058847,0.8183295440148848,0.00271022111444339,0.0,0.8182962658986593,-0.5746646671339626,-0.011510363388303833,0.0,-0.007861953475372274,0.008833240835399367,-0.9999300793274972,0.0,0.6599361530477066,0.2584857453435588,0.30384794593613196,1.0,-0.008720000000000007,-0.01146057142857144,-0.004360000000000004,0.43700000000000033
0.46359264391380384,0.5362513796681655,-0.12404010358768704,-1.3727891281118882,0.0785125783562173,1.9004117954573236,0.15799528576175395,-0.00874239344554836,-0.04464476073720719,-0.0020343897505174643,-0.07491659894327532,-0.010186035025896026,0.028746868538135614,-0.003826496733976083,0.574778619700434,0.8182927207877779,0.002703394571214957,0.0,0.8182593393572622,-0.5747171256609063,-0.011516333092214826,0.0,-0.007870195907690059,0.008831589930091435,-0.999930029069875,0.0,0.6597816971045822,0.2582892055146948,0.303845071792454,1.0,-0.009060000000000007,-0.011907428571428583,-0.004530000000000004,0.45400000000000035
0.46348658150182626,0.5354386207603166,-0.12404425932608314,-1.3740629640421176,0.07843672422366627,1.900871892601691,0.15789772030824908,-0.006974265543977175,-0.04590172953309572,0.0008731415545688904,-0.08596286028330222,-0.0001219198889868302,0.033363142474321136,-0.002510473071358277,0.5748380932355871,0.8182509495127291,0.0027013122737121805,0.0,0.8182175290704868,-0.5747765850088361,-0.011519520327510578,0.0,-0.007873358988748302,0.00883229020285517,-0.9999299979838623,0.0,0.6596318614720955,0.25809523216847463,0.30385233618219937,1.0,-0.009380000000000008,-0.012328000000000013,-0.004690000000000004,0.47000000000000036
0.46336969883113754,0.5345445499136183,-0.12404505769125694,-1.3754849027385267,0.07836624227256615,1.9013860189567748,0.15778831960496154,-0.010556042349250868,-0.048891914435044107,0.0008142609470481059,-0.08778451442379523,-0.0020521485957647146,0.03034906738264877,-0.00884958291037536,0.5749038699162198,0.8182047516094466,0.0026966090347250943,0.0,0.8181711198224978,-0.574842200203326,-0.011541683369759803,0.0,-0.007893487478193906,0.008841816300649757,-0.9999297551027957,0.0,0.6594619805234503,0.2578841037014363,0.30385092118464657,1.0,-0.009720000000000008,-0.012774857142857155,-0.004860000000000004,0.4870000000000004
0.4632410903370328,0.5336326358377274,-0.12405065226402337,-1.3769517288910254,0.0782744546734325,1.9019223829625136,0.1577273025875259,-0.005089936400796872,-0.05282952489652491,0.0008168780951454687,-0.08625060603344524,-0.001274570864011359,0.03270464739438272,0.0006753433366311321,0.5750188254534612,0.8181240372951291,0.002675233681115361,0.0,0.8180901643977465,-0.5749572518204387,-0.011549389419575425,0.0,-0.007910840403157038,0.008829868703069371,-0.9999297235420108,0.0,0.6592915138199719,0.2576554557963721,0.30384260024897325,1.0,-0.010060000000000006,-0.013221714285714297,-0.005030000000000003,0.5040000000000003
0.46311896845700834,0.5327103466655309,-0.12405136789809305,-1.3784330294795124,0.07819091598328587,1.9024823326958549,0.1575924127788013,-0.003922330819717474,-0.052079465817086064,0.0003806919127653988,-0.09033752658507753,-0.0011765770612546015,0.03521047199024988,-0.006146494991003019,0.5750675839487664,0.8180897601442438,0.002676777852254759,0.0,0.8180558612049835,-0.5750059476852774,-0.011554868062293621,0.0,-0.00791390842316203,0.008834753967001605,-0.9999296561137749,0.0,0.6591190403337047,0.25743528066489246,0.3038364279443958,1.0,-0.010400000000000006,-0.01366857142857144,-0.005200000000000003,0.5210000000000004
0.4629970782367902,0.5317980209618018,-0.1240538522845397,-1.3798666620812636,0.07811965524265121,1.9030255060653873,0.15748234809613418,-0.007297195225207344,-0.05349341094634076,-0.0033921218773988533,-0.09182025489261654,-0.001848877761147519,0.03096263317185261,-0.007428865865316345,0.5751382314584228,0.8180400141539264,0.002701269910553897,0.0,0.818006322466917,-0.5750763821294809,-0.011556730602789039,0.0,-0.007900583649279647,0.008856543981768494,-0.9999295687230674,0.0,0.6589533482910348,0.2572206160273667,0.30384434757256407,1.0,-0.010720000000000007,-0.01408914285714287,-0.005360000000000004,0.5370000000000004
0.46285891380978517,0.5307493585193233,-0.12405695785822231,-1.3815542824093172,0.07800888786314569,1.9036360193749788,0.15736759215118745,-0.00905419539063164,-0.059503942255407456,-0.0002960639227976864,-0.09028012695163043,-0.005915420344482198,0.03362592817529509,-0.0012189994543075808,0.5752216798701664,0.8179814422777365,0.0026694564589123384,0.0,0.8179473913162763,-0.5751599848094597,-0.011567359858172248,0.0,-0.007926673776809223,0.00883744126421003,-0.9999295312544467,0.0,0.6587515682522581,0.2569647417821065,0.3038330613062714,1.0,-0.011080000000000008,-0.014562285714285727,-0.005540000000000004,0.5550000000000004
0.46273237212039237,0.5298041866570025,-0.12405415917388944,-1.3830931182165709,0.07791611342611063,1.9041826464252851,0.15725679883993393,-0.008041549532002442,-0.0568935649123597,0.0004153302767336878,-0.09136929297244391,0.0009608690215812622,0.03276403014946139,-0.006432894013310475,0.5752978042144216,0.8179280617317931,0.002620915669262384,0.0,0.817893326617534,-0.5752362019254907,-0.011600222844762406,0.0,-0.007980655864275543,0.008817381928432191,-0.9999292789532188,0.0,0.658549605265616,0.25671697813779365,0.3038099454556816,1.0,-0.011420000000000008,-0.01500914285714287,-0.005710000000000004,0.5720000000000004
0.4625876183884391,0.5287495339763661,-0.1240651142501021,-1.3847771625753074,0.07780306041040028,1.9047912765476513,0.157132237663244,-0.007974224060154337,-0.05715741313602909,5.3195270229363295e-05,-0.09829414030071047,-0.011808878006837543,0.03417934605494093,-0.010650992728998594,0.5753763346823951,0.8178728860686403,0.0026005042614165334,0.0,0.8178379879641379,-0.5753149040845696,-0.011598856932533364,0.0,-0.007990435575425503,0.008800668401333783,-0.9999293480916562,0.0,0.658364745091661,0.2564701499516467,0.30380799696311483,1.0,-0.011740000000000009,-0.0154297142857143,-0.0058700000000000046,0.5880000000000004
0.4624512639622373,0.527647424767972,-0.12406909663898925,-1.3865047234830505,0.07770088802919564,1.9054563175024777,0.15702498259452674,-0.008198725881514282,-0.06232267190233067,-0.0002945569780822537,-0.1003765805499519,-0.005462077703615193,0.04612185688531557,-0.0028693732171724573,0.5754691324172967,0.8178074954139718,0.002631535828857983,0.0,0.8177730191701282,-0.5754076067956815,-0.01158110790243433,0.0,-0.007957064312473783,0.008816738866408977,-0.9999294726345896,0.0,0.6581637236401626,0.2562160605790514,0.30381938278214005,1.0,-0.01208000000000001,-0.015876571428571445,-0.006040000000000005,0.6050000000000004
0.4623178782420454,0.5266416487225292,-0.124069825300932,-1.3880473322881544,0.07761505943750233,1.9060455216928602,0.15690799898275326,-0.011339870272002324,-0.06786764661497004,0.00024976493880844367,-0.10420629400858944,-0.011061997716743429,0.039718832301487546,-0.010500022902442058,0.5755433755645494,0.8177550950586138,0.00267847916733132,0.0,0.817721181949191,-0.5754816334019589,-0.011563092572475075,0.0,-0.007914514678459939,0.008845480784579529,-0.9999295564824023,0.0,0.6579854635946328,0.2559840270147521,0.3038440615559279,1.0,-0.012380000000000009,-0.016270857142857156,-0.0061900000000000045,0.6200000000000004
0.4621702064557702,0.5254979149824794,-0.12407023780503416,-1.3898605443862853,0.07749245019240762,1.906715626386522,0.1567804703114751,-0.008900572373032494,-0.06394205305708613,0.0010989227809918148,-0.11027070539061191,-0.002734287411445124,0.03770016524289352,-0.00804840951029199,0.575624814288374,0.8176978004453657,0.002669686029074727,0.0,0.8176638631930915,-0.575563191344276,-0.011557097341011555,0.0,-0.007913792429524003,0.008835627915895483,-0.9999296493097473,0.0,0.6577686703827299,0.2557120783247881,0.30384372866661896,1.0,-0.012720000000000009,-0.0167177142857143,-0.0063600000000000045,0.6370000000000005
0.4620093146583919,0.5243161965752461,-0.1240811788684206,-1.3917099528391876,0.0773675021763034,1.907377828379601,0.1566417205220704,-0.008598714830727671,-0.0706790727393148,-0.00035950565437292486,-0.11421763614370976,-0.0073703983282357435,0.03818962271650802,-0.0030595351020096815,0.5757162183520917,0.817633497516288,0.002654537032561832,0.0,0.8175994751401813,-0.5756547580760978,-0.011551824793416874,0.0,-0.007917214466165667,0.008821090803027287,-0.9999297505685795,0.0,0.6575481167944146,0.2554206454103121,0.3038522195523391,1.0,-0.013060000000000009,-0.017164571428571442,-0.0065300000000000046,0.6540000000000005
0.46185067641639604,0.5231449475786912,-0.12408534546859208,-1.3936026927946392,0.07725618013055191,1.9080656510164267,0.15649785865643037,-0.009245243711109456,-0.07006307742267052,0.0006413381091358026,-0.10990130096982045,-0.005400770154828154,0.04996548602995538,-0.015784423993506824,0.5758027822434395,0.8175726358168082,0.0026245048064632414,0.0,0.8175381753839737,-0.5757413568734909,-0.011574483855567936,0.0,-0.007952098418158138,0.008810422505765123,-0.9999295678126624,0.0,0.6573187552533599,0.25513331932760885,0.3038344744909809,1.0,-0.013400000000000009,-0.017611428571428587,-0.0067000000000000046,0.6710000000000005
0.4616915527428664,0.521910361755982,-0.12408793867818256,-1.3955522285094304,0.07713966315350479,1.9088187217021193,0.15635658523515678,-0.007877613081314998,-0.06856375777960076,0.0010092184474857489,-0.11669657226268913,-0.010289087488793128,0.041672041630649095,-0.006224087219397244,0.575892330544459,0.8175094665624018,0.0026537901456957997,0.0,0.8174754047779975,-0.5758308175260131,-0.011557641263728394,0.0,-0.007920499489250832,0.008825535055412212,-0.9999296853373374,0.0,0.6570901377156383,0.2548442717723655,0.30383948549025686,1.0,-0.013740000000000011,-0.01805828571428573,-0.0068700000000000054,0.6880000000000005
0.46154057294839557,0.5207561489139837,-0.12409459678723235,-1.397432190036584,0.07701780137445315,1.9095466909187422,0.15622626308166498,-0.007583791897149403,-0.07220303502793379,7.180123744661066e-05,-0.1186892577861364,-0.004083335942040609,0.038155829267861575,-0.010608284656934633,0.5759921201008964,0.8174391775492715,0.002648677113826093,0.0,0.81740516800848,-0.5759307435086278,-0.011546293597341101,0.0,-0.007913090513986087,0.008815786220870245,-0.9999298299939977,0.0,0.6568572119752877,0.2545429152397245,0.30381940532714063,1.0,-0.014080000000000011,-0.018505142857142876,-0.0070400000000000055,0.7050000000000005
0.46135563156849735,0.519366194850095,-0.12410417955253239,-1.399594666904041,0.07688331262505868,1.9103402005890802,0.15605513721400321,-0.009360055294629407,-0.0833140893853021,0.00017432858714507015,-0.1195356025843666,-0.005932079837547695,0.044271263524334414,-0.007765701365837334,0.576078455856043,0.8173783064015714,0.002657785511310017,0.0,0.8173444484037722,-0.5760170758659096,-0.011538105374317355,0.0,-0.007900219295141397,0.00881934996007433,-0.9999299003437042,0.0,0.6566103712353041,0.25422954431217026,0.30383454575150926,1.0,-0.014420000000000011,-0.018952000000000017,-0.0072100000000000055,0.7220000000000005
0.46119580590712067,0.5181136218098897,-0.12411060458999436,-1.4015590020404696,0.07675191475079719,1.911042556741602,0.15592511246952467,-0.008738683786246948,-0.07753436586767756,-0.00040883009858277356,-0.12171003158887822,-0.010147058950878246,0.0509604350510966,-0.010398935612596746,0.5761759209635209,0.8173096610309094,0.0026406416998450803,0.0,0.8172756577644766,-0.5761146707827705,-0.011538294315471726,0.0,-0.007909199268886502,0.008806389086005381,-0.9999299435851448,0.0,0.6563684207919358,0.2539306358732802,0.3038397589073473,1.0,-0.014740000000000012,-0.019372571428571447,-0.007370000000000006,0.7380000000000005
0.4610135386218062,0.5167498182623391,-0.12411851429079078,-1.403674580015118,0.07661086825974589,1.9118062074353903,0.1557539553451823,-0.00620177649973707,-0.07812309639367043,-0.0014367908302323916,-0.12761882305256633,-0.0044010842131038475,0.04162997329801599,-0.011198104819864834,0.5762642559830368,0.8172473779914617,0.0026414661849107094,0.0,0.8172134762342634,-0.5762030932294797,-0.011527207601962925,0.0,-0.007898711276529413,0.00880152893233932,-0.9999300692791587,0.0,0.6561116916968109,0.2536022879052638,0.3038559957830295,1.0,-0.015080000000000012,-0.01981942857142859,-0.007540000000000006,0.7550000000000006
0.4608265928430207,0.515393739265703,-0.12413122250571804,-1.4058262877242778,0.07647554097861116,1.91262855336917,0.1555965337200559,-0.012609195216997628,-0.08306048285116453,-0.0015190653586490209,-0.12438919467791097,-0.017157426660530783,0.04971161230486203,-0.0019357577510726548,0.5763745848479715,0.81716952641724,0.002655171851349662,0.0,0.8171359037068182,-0.5763134770341962,-0.011508169411544488,0.0,-0.007874065626349958,0.008802822098792087,-0.9999302522744321,0.0,0.6558591088111011,0.2532685907316908,0.3038544996002579,1.0,-0.015420000000000012,-0.020266285714285733,-0.007710000000000006,0.7720000000000006
0.46064299185457197,0.5140034165842445,-0.12413057877633811,-1.4080504755076677,0.07635062496826618,1.9134381507127807,0.15542625239751848,-0.014036371477206912,-0.08272974599443567,0.0005525511676155704,-0.1309152497517486,-0.007817432269192192,0.04976727883543158,-0.014117386607834244,0.5764683695988138,0.8171034240177479,0.0026382213263058674,0.0,0.8170694453233265,-0.5764071530902455,-0.011535262746840122,0.0,-0.007904965238546224,0.008805493677329385,-0.9999299849517845,0.0,0.6555824098798253,0.2529376213094339,0.3038405830055929,1.0,-0.015760000000000014,-0.020713142857142878,-0.007880000000000007,0.7890000000000006
0.46045126156869337,0.512596284519487,-0.12413303568290077,-1.4103351243519682,0.07621781603816902,1.9142270279082758,0.15525596055052895,-0.011175006386262218,-0.0852420657252499,0.00023081731209330942,-0.13342976265630344,-0.013686360416974555,0.047820277085065206,-0.013186928540822611,0.5765714070118129,0.8170309554445914,0.002564636996653498,0.0,0.8169958733877511,-0.576510257825501,-0.011593635778663354,0.0,-0.007993973689913558,0.00878002577899363,-0.9999295012809479,0.0,0.6552899497462584,0.2525900056672922,0.3038075357406798,1.0,-0.016100000000000014,-0.021160000000000023,-0.008050000000000007,0.8060000000000006
0.46026600191046674,0.5112633765956099,-0.12413306195387076,-1.4125002498730348,0.07608847658673179,1.9150282384571535,0.15508584264065106,-0.009138880581259525,-0.08659959254587589,0.0001476783836553225,-0.14007053962015734,-0.016619582801557474,0.046272743991630894,-0.011781249983791398,0.5766622091319884,0.8169669576161097,0.0025364588900630104,0.0,0.8169314548775728,-0.576601084357503,-0.01161612889788206,0.0,-0.00802762309516114,0.008770864469431067,-0.9999293121035613,0.0,0.6550232256904529,0.2522626627724441,0.3037799679086993,1.0,-0.01642000000000001,-0.021580571428571445,-0.008210000000000005,0.8220000000000006
0.4600737287480729,0.5097994073542736,-0.12413624208967651,-1.4148283422042889,0.0759438935554866,1.9159134926764418,0.15490541123428844,-0.008764734027524217,-0.0892065084793721,-4.3708585283436085e-05,-0.13809154251116498,-0.014049669835423962,0.053333382458619176,-0.00905387345141652,0.5767566172460856,0.8169002728867067,0.002548631335501931,0.0,0.8168649627648807,-0.5766954769198054,-0.011606308998817459,0.0,-0.008011567072313708,0.0087760721244306,-0.9999293951830363,0.0,0.6547403368364887,0.25191454936721525,0.3037735053252785,1.0,-0.016760000000000014,-0.022027428571428594,-0.008380000000000007,0.8390000000000006
0.4598699832841203,0.5083074192091483,-0.12413876623596119,-1.4171994230252478,0.07579679753750942,1.91676519248988,0.15471683381846232,-0.009915078403709872,-0.07715910950672553,-0.00026717945073990903,-0.14088456468004437,-0.01011779310214981,0.056242250193209296,-0.011059306202372799,0.5768541035587821,0.8168315185978288,0.0025219702153585835,0.0,0.8167958251798481,-0.5767930017255176,-0.01162583461291634,0.0,-0.008041848201554624,0.008766513929448078,-0.9999292359517387,0.0,0.6544431303337241,0.25155203308670315,0.30376275140181946,1.0,-0.017100000000000014,-0.02247428571428574,-0.008550000000000007,0.8560000000000006
0.45966876926031225,0.50686512890825,-0.1241404068556581,-1.4194506050240476,0.07564702818442717,1.9175770226035986,0.15453302471287939,-0.017805717998589092,-0.0871059405088551,0.0008939116111021245,-0.14015348183361137,-0.012019230520047476,0.048909507506597207,-0.012278423548985763,0.576945298690319,0.8167671246296336,0.0025166137143830406,0.0,0.8167314137623987,-0.5768842606608763,-0.01162301495464408,0.0,-0.008041656488847915,0.008761409995823297,-0.9999292822273986,0.0,0.6541636890095918,0.25120222060414704,0.30377027578246996,1.0,-0.017420000000000015,-0.022894857142857168,-0.008710000000000008,0.8720000000000007
0.4594386597054189,0.505187670627913,-0.12414833223639349,-1.4220406364514964,0.07548725738028128,1.9185607305199837,0.15433485408713357,-0.009749552690519922,-0.09140676462996779,-0.0002174285862388505,-0.14810817091753053,-0.010141550299559522,0.059812022134297906,-0.015216197729650193,0.5770676063521283,0.8166805433941927,0.0025718945544939906,0.0,0.8166455989114865,-0.5770064182503251,-0.011589045587920512,0.0,-0.00798070203640161,0.008788158365400131,-0.999929535851177,0.0,0.653851849605577,0.25080275927308565,0.30379548274770196,1.0,-0.017780000000000015,-0.023368000000000024,-0.008890000000000007,0.8900000000000007
0.45921496844927706,0.5035303142750682,-0.1241536635656854,-1.4245191217825268,0.07532594911667743,1.919516969954143,0.15413412718613065,-0.014966495882560747,-0.08914840272748996,-0.0001777653281048991,-0.1467613234209532,-0.002855594927606264,0.0550029253488571,-0.013081745311202713,0.5771739519741326,0.8166050454984124,0.0026787553650442714,0.0,0.8165716162448293,-0.5771125423339136,-0.011517635408456982,0.0,-0.007859567188769345,0.008835244849896964,-0.9999300803816473,0.0,0.6535575083533612,0.25041995155529073,0.30385654526084677,1.0,-0.018120000000000015,-0.023814857142857165,-0.009060000000000007,0.9070000000000007
0.45899987768718764,0.5019448650825641,-0.12415212166198006,-1.426858398534577,0.07517503358371865,1.9203903936345263,0.15395314702195254,-0.018538824845131873,-0.10005512176941611,0.0011613438591006955,-0.14697876002774712,-0.01792609517694182,0.056718918365158334,-0.010820805926436087,0.5772849518467148,0.8165262387324204,0.0027807793927481592,0.0,0.8164941802237696,-0.5772232617242559,-0.01145891296476524,0.0,-0.0077515217926790725,0.008885719287376595,-0.9999304765345656,0.0,0.6532564484065242,0.25003510748332586,0.3039281029980149,1.0,-0.018460000000000015,-0.02426171428571431,-0.009230000000000007,0.9240000000000007
0.45876895429555353,0.5002302006062074,-0.12415788492103105,-1.4294332088606025,0.0750116368625791,1.9213033641481119,0.15375255459002238,-0.01161225756942909,-0.09741470060985065,-0.00021353855340408006,-0.15059152133821402,-0.006984595203464267,0.053826610160477045,-0.011572932683375876,0.5773951432040585,0.8164481907801209,0.0028190915984766312,0.0,0.8164166167767062,-0.577333308202792,-0.011441415633795828,0.0,-0.007713916132290111,0.00890794254904255,-0.9999305696184345,0.0,0.652948086886264,0.2496571246646541,0.3039758101936417,1.0,-0.018780000000000015,-0.02468228571428574,-0.009390000000000008,0.9400000000000007
0.4585105917369311,0.49846310064238647,-0.12415539924597394,-1.4321858937336402,0.07483227945911149,1.9223267513827462,0.15353678538557233,-0.013785988031009907,-0.09120289177436408,0.0007253754826523918,-0.14787207164875485,-0.004001690820726561,0.06059309083731612,-0.015301383868094723,0.5775194765425373,0.8163601618291012,0.0028438167321025824,0.0,0.8163289520210415,-0.577457601982148,-0.011423961942482618,0.0,-0.007684031770920696,0.008919222176387395,-0.9999306991644529,0.0,0.6526085037359913,0.2492272045745223,0.3039866498947985,1.0,-0.019140000000000015,-0.025155428571428596,-0.009570000000000007,0.9580000000000007
0.4582738984878512,0.4968925945474993,-0.12415854599763891,-1.4346941929327524,0.07468561143845394,1.9232442828474774,0.15333283193167016,-0.013599947495819434,-0.09387904148267567,-0.002556123594265333,-0.15503629427693014,-0.010765855336090252,0.047636911598342685,-0.01378918920442894,0.5776359881610109,0.8162777819863072,0.002827493231683383,0.0,0.8162462623633522,-0.5775740342420432,-0.011446442610557307,0.0,-0.007710538564924541,0.008919979707747328,-0.9999304883625921,0.0,0.6522945243964485,0.24883273184066929,0.30396719707423614,1.0,-0.019460000000000015,-0.025576000000000026,-0.009730000000000008,0.9740000000000008
0.4580035693219783,0.49521197451248766,-0.12415941316759772,-1.4374101618895012,0.07451782912820218,1.9241753133184714,0.15311563101688017,-0.015625856253732487,-0.09779442349523312,0.0007095097852911544,-0.16130195197483316,-0.008336652293289695,0.055278795345319015,-0.010537260328996979,0.5777713209602756,0.816182303805651,0.0027376142033497053,0.0,0.8161494879109515,-0.5777094786548416,-0.011511670437040735,0.0,-0.007814226471854258,0.008885586540105475,-0.9999299896575184,0.0,0.651943675454443,0.2483922685724648,0.30392613830592374,1.0,-0.019800000000000016,-0.026022857142857167,-0.009900000000000008,0.9910000000000008
0.45773473784212837,0.4936446148217299,-0.1241676117497485,-1.4400053112357796,0.0743589125056593,1.9250910259934184,0.15291760340241356,-0.017994411064740798,-0.09879853030716033,-0.007306813987072758,-0.15618852602019775,-0.0026354670502048948,0.05514664285166605,-0.0007907580201315911,0.5779224130696203,0.8160756534234015,0.0026380414257316295,0.0,0.8160414667327007,-0.5778607851843374,-0.011575163933684261,0.0,-0.007921941302960755,0.00884246811149908,-0.9999295243184338,0.0,0.6516156264057119,0.24796180888087752,0.3038620919677646,1.0,-0.02574342857142859,-0.0338342204081633,-0.03585620691257146,1.007
0.457444619653546,0.49080269964719114,-0.12434205524650238,-1.444128001947423,0.07415866399767564,1.9266408813758098,0.15298372893733264,-0.02171476026786342,-0.18771361238345224,-0.007182104031486607,-0.2764436230844634,-0.007240546608295438,0.11283367588702134,0.013024625406191717,0.5784911010561695,0.8156718984141993,0.002854301561745697,0.0,0.8156408391618761,-0.5784290893752333,-0.011426152329498928,0.0,-0.007669127963487732,0.008938184450718922,-0.9999306442623932,0.0,0.6511198243373904,0.247291792485685,0.3040166521790855,1.0,-0.042073142857141074,-0.05529613061224257,-0.10914379316484911,1.023999999999998
0.4570460752299411,0.4868420382087246,-0.12450779243567264,-1.45048031470047,0.07393078994430688,1.9291353374064149,0.15404238209330107,-0.03130957774960997,-0.2605474595174904,-0.010934210522939067,-0.4180699683150992,-0.024802836869099957,0.1605820525056123,0.08796903215854826,0.5800562686654488,0.8145592009192494,0.0029631538803478576,0.0,0.8145291242631344,-0.5799932298855913,-0.011441412291285522,0.0,-0.007601244811183627,0.00905041230564492,-0.9999301531179157,0.0,0.650321385648442,0.24636594035423426,0.30396774276033367,1.0,-0.058402857142853565,-0.07675804081632184,-0.18243137941712673,1.0409999999999962
0.45635530512615696,0.4810771916012353,-0.12481968445742632,-1.4596490492480698,0.07348587921256501,1.9325309622592084,0.1563541509616861,-0.044007556098313125,-0.3445424464584806,-0.014515688082450183,-0.55570722248006,-0.02146897952839521,0.19640982692827183,0.14841105038471833,0.5830562137107125,0.8124147513364384,0.0029103892332901114,0.0,0.8123843649658851,-0.582993387897498,-0.011449896417930316,0.0,-0.007605473500917281,0.009040462018816628,-0.9999302109744026,0.0,0.6491679365851688,0.24488122762117123,0.30390819052879825,1.0,-0.07569314285713738,-0.09948241632652342,-0.26003000015483246,1.0589999999999942
0.45552286893143806,0.47459303223800486,-0.12512654782179658,-1.4699827045864329,0.07296868197234634,1.936170571626171,0.1591928797970524,-0.05474307005145703,-0.43120809761020157,-0.022897955183156397,-0.6769106148631667,-0.03509044457092739,0.24559693116102652,0.20112093220076185,0.5866174576893638,0.8098478105834416,0.002688666673647729,0.0,0.8098146392984099,-0.5865549587898352,-0.011587803857901154,0.0,-0.007807457131574047,0.008975102470373211,-0.9999292430711211,0.0,0.647816744416824,0.24318543386775954,0.30380501378836644,1.0,-0.09106228571427853,-0.1196818612244804,-0.32900655192168204,1.0749999999999924
0.45440789856017355,0.46637114343266023,-0.12545754299793477,-1.482691490089184,0.07231570074803388,1.9408354637804184,0.16324456997834544,-0.0664996236891083,-0.5236257364607184,-0.01775557964080606,-0.7857285808172126,-0.035622356488726595,0.2944189349108323,0.2501770771734818,0.5914617524908042,0.8063163058738041,0.002785161348444967,0.0,0.8062847073592491,-0.5913986928616806,-0.01154572047617646,0.0,-0.007662509429173958,0.009074659784708838,-0.9999294657619805,0.0,0.6461867255198401,0.24108311246950395,0.303849447148225,1.0,-0.10739199999999102,-0.14114377142855966,-0.40229413817395965,1.0919999999999905
0.4530227673761948,0.456953871151791,-0.1257516432043692,-1.4974439313457917,0.07147983851554475,1.9461402359750015,0.16809297222851388,-0.08431855084619497,-0.5884858070088741,-0.01796865142739694,-0.9148542166852577,-0.06045586463552251,0.31308476976438615,0.29336085024130915,0.59714811054284,0.8021145327683152,0.0026753127277900192,0.0,0.8020819078184176,-0.5970851074862149,-0.011607517811765375,0.0,-0.007713317843822731,0.009077402034222873,-0.9999290502331399,0.0,0.6442398709525193,0.2386200906333001,0.30378178182451265,1.0,-0.12372171428570351,-0.16260568163263894,-0.4755817244262373,1.1089999999999887
0.4514195613531415,0.4467475075962933,-0.12611282057393805,-1.512952218695525,0.07053354642852874,1.9517314960794496,0.17356822914227907,-0.10767154286078963,-0.6618831849331244,-0.021180705436075215,-0.9983650940056666,-0.0669083899882698,0.36109631379326695,0.3570943344919976,0.603514858536303,0.7973347646603444,0.002799194731989212,0.0,0.7973048541387824,-0.6034519703191561,-0.011464553452782255,0.0,-0.007452050927956977,0.009151016088149277,-0.9999303604959305,0.0,0.6422129189544554,0.23590534866845997,0.3038993974326568,1.0,-0.13909085714284466,-0.18280512653059589,-0.5445582761930869,1.124999999999987
0.4494711734724612,0.4348787293207716,-0.1264400595780398,-1.5312745080063208,0.06941191102293656,1.9581695760889322,0.1802729868404408,-0.11968534946883522,-0.7289679115085871,-0.02087734117468123,-1.1092393864089367,-0.06731332791516309,0.38269823802915237,0.39330499662541474,0.6111251954189866,0.7915173118902998,0.0026622177348273905,0.0,0.7914862592777324,-0.6110624390601238,-0.011530127737502782,0.0,-0.007499658841859935,0.009153636558977593,-0.999929980576141,0.0,0.6397158861155373,0.23271692118086204,0.3038600068903786,1.0,-0.15542057142855717,-0.20426703673467517,-0.6178458624453645,1.141999999999985
0.4473165410889294,0.4224312039129792,-0.12676056233346458,-1.5499943872046684,0.0682245572734428,1.964815483400324,0.187469593210266,-0.14096507451312898,-0.8103646444590136,-0.02320787102301471,-1.2073407884117933,-0.06966204509310438,0.4217796276277461,0.45964703103473087,0.6191984074178947,0.785217136940638,0.002850790609361717,0.0,0.7851893758320423,-0.6191351024688947,-0.011406834465677307,0.0,-0.0071919558320865384,0.009301683320247417,-0.9999308748402156,0.0,0.6371624152129056,0.22937572207381374,0.3040065067234141,1.0,-0.17078971428569834,-0.22446648163263214,-0.6868224142122141,1.1579999999999833
0.4445712974874727,0.407351134449243,-0.12712745962938318,-1.57257593517165,0.06665097532960335,1.9729360124335102,0.19652526299192843,-0.16141613803768243,-0.8465218293789529,-0.01979139487648195,-1.3028451863991475,-0.09234329264920935,0.44773093210848947,0.5211961712092051,0.6291676269984964,0.7772508209662864,0.0031631227486527465,0.0,0.7772289172324661,-0.6291047249542577,-0.01109964679997417,0.0,-0.006637401911482654,0.009442190698100261,-0.9999333927470799,0.0,0.634057322875709,0.22526666862772987,0.3041841828372611,1.0,-0.18807999999998215,-0.2471908571428337,-0.7644210349499199,1.1759999999999813
0.4415357615345524,0.3919790162288611,-0.12747456327134005,-1.5955177899640671,0.06514683506038246,1.9809585215012633,0.20593431718826138,-0.18095308287673828,-0.9163030982679824,-0.020904463698673204,-1.3642395993950294,-0.09084301757311748,0.47336110684548144,0.5727792951990558,0.6395149846588266,0.7687585779549031,0.0034029573585763776,0.0,0.7687404222089294,-0.6394511655245012,-0.011005320195363315,0.0,-0.0062845302508357515,0.009654243926606285,-0.9999336479255672,0.0,0.6308095457872812,0.22097395781794965,0.3043207684878407,1.0,-0.20440971428569463,-0.26865276734691296,-0.8377086212021975,1.1929999999999794
0.4383143022552084,0.376632669463541,-0.12782475531407084,-1.618504074410847,0.06348822753148739,1.9888248003559412,0.2155672937679909,-0.20705942337037989,-0.9878008001155822,-0.019871718632315263,-1.4502966739449068,-0.11685798207186009,0.5190575388940997,0.6306051129768057,0.6499792198919495,0.7599317783553136,0.0033842067890754537,0.0,0.7599147164329317,-0.649915907403415,-0.010940016172785715,0.0,-0.006114333839131736,0.00968267814162202,-0.9999344281830231,0.0,0.6274704879201449,0.21654951011960902,0.30434643787029414,1.0,-0.2197788571428358,-0.28885221224486995,-0.906685172969047,1.2089999999999776
0.4345363693375115,0.35931652612707565,-0.1281671705117216,-1.6441448477001699,0.06157611145693027,1.9975085799123506,0.2267909526441269,-0.23370562456454733,-1.0494380055852375,-0.020769473302200574,-1.5431097645553258,-0.12269270523985519,0.5389876300080241,0.6861835234343172,0.6619075063199997,0.7495647196870412,0.003454124915986251,0.0,0.7495499540432653,-0.6618445308282659,-0.010836526549576385,0.0,-0.005836696675568909,0.009762005386491926,-0.9999353160193669,0.0,0.6236510710471099,0.21154869729503892,0.30442515224103794,1.0,-0.23610857142854827,-0.3103141224489492,-0.9799727592213247,1.2259999999999758
0.4302244147431757,0.3410835706391997,-0.12857600830156724,-1.6710148583352347,0.05952648157782039,2.0064033154243446,0.23887596242803535,-0.2655259033102946,-1.1155898488067004,-0.03528392263144823,-1.5912644213450595,-0.1241560089762049,0.555044305867377,0.7288789639449003,0.6746989022716563,0.7380721226971775,0.0034175827587546695,0.0,0.7380583575859108,-0.674636366044184,-0.010788016939818137,0.0,-0.005656817860716312,0.00980122740882329,-0.9999359661263171,0.0,0.6195652411438168,0.2060839451262253,0.30446495019345654,1.0,-0.25243828571426075,-0.33177603265302846,-1.0532603454736023,1.242999999999974
0.425752332979321,0.3231755310723464,-0.128915141724754,-1.6973321475024614,0.05750506092953312,2.0151240500760395,0.25093291954795927,-0.28419880665842534,-1.1456270453990185,-0.021717779918815558,-1.640429550640011,-0.13777837319628286,0.5665444346991738,0.7686563957041075,0.6872792659173493,0.7263718392089251,0.0034509050350808447,0.0,0.7263596289755606,-0.6872165894011977,-0.010760833958386644,0.0,-0.005444952397425928,0.009902486818046646,-0.9999361445853471,0.0,0.6154751310430652,0.2006610512782228,0.3044523319541875,1.0,-0.26780742857140194,-0.35197547755098546,-1.1222368972404517,1.2589999999999721
0.4212380272379368,0.3056123249632289,-0.12916908530429705,-1.7228015697098507,0.055357021975914335,2.0233227027309044,0.26301307849242594,-0.3061536576020344,-1.1941853620644751,-0.022231620389098306,-1.7292237744185146,-0.15491762879218976,0.5629833658221384,0.8066332502609245,0.699529579763394,0.7145819743850966,0.0034228381723953047,0.0,0.7145709975249985,-0.699467695785556,-0.010676092439715578,0.0,-0.005234879272445425,0.009914294225970705,-0.9999371494294048,0.0,0.6113811291094801,0.1953530331908111,0.3044856632697204,1.0,-0.28221599999997177,-0.3709124571428201,-1.1869024145218732,1.2739999999999705
0.4148976716094327,0.2824112502716822,-0.12947610396047557,-1.7561919695985766,0.05247203756258395,2.033773217066072,0.2792592438475104,-0.3545713785871746,-1.232994259544042,-0.01613950212731883,-1.7553164392021368,-0.15662194007671296,0.5456706067874496,0.8569784191946918,0.715751176583797,0.6983338990268144,0.00328109587266709,0.0,0.6983230708841096,-0.7156900461667663,-0.010648633245961416,0.0,-0.005088151880062841,0.009913227580822248,-0.9999379173875628,0.0,0.6058525510850253,0.18820957461959573,0.30449024633696964,1.0,-0.3004668571428271,-0.39489929795914425,-1.268812069745008,1.2929999999999686
0.40859964758637984,0.26075040946661737,-0.12977475934175248,-1.787007349559709,0.04984371098003837,2.0432511004766085,0.29456277797697394,-0.3783567419727815,-1.2806332037000956,-0.016252857416950754,-1.8222618844513243,-0.16645845100559864,0.543712894171302,0.9111781720972415,0.7308516698739633,0.6825144023553532,0.003267127356365099,0.0,0.6825045921117365,-0.7307900132624005,-0.01068574581116564,0.0,-0.00490568582159473,0.01003971788935254,-0.9999375672067342,0.0,0.6006196765976894,0.18142813232579652,0.30450804193281783,1.0,-0.31679657142853956,-0.41636120816322353,-1.3420996559972855,1.3099999999999667
0.4015252437570339,0.2383763766712952,-0.13015904766236197,-1.818426402614292,0.04692683954084528,2.052765738080965,0.31075221684062215,-0.43620417800712474,-1.3153726239298715,-0.01561436520354868,-1.8302417339789756,-0.16837796850362824,0.5377847663310443,0.9683744194267947,0.7466205046395596,0.6652275187671841,0.0033041228538481355,0.0,0.6652201876375013,-0.7465599125477933,-0.010542572616159245,0.0,-0.0045465712896404775,0.010069463980075036,-0.9999389654297217,0.0,0.5952120009723307,0.1741388337350203,0.30456133272572633,1.0,-0.33312628571425207,-0.4378231183673028,-1.4153872422495632,1.3269999999999649
0.39439728180448097,0.21661097653831676,-0.13043455895154696,-1.8486012935406513,0.0441330082373348,2.061727481343475,0.32662497580966526,-0.46306383221643166,-1.3711660365752556,-0.01467718231708454,-1.874692694831705,-0.17587995591145086,0.5582547725657346,0.9987164098443326,0.7616823790742399,0.6479264043017446,0.003474898218179247,0.0,0.6479224922454639,-0.7616216011253899,-0.010475096316151854,0.0,-0.0041406136658052595,0.010230357963032913,-0.999939095692542,0.0,0.5898471029379934,0.16709677224135214,0.3046349340422721,1.0,-0.3484954285713932,-0.45802256326525975,-1.4843637940164127,1.3429999999999631
0.3861260783114268,0.1927022546227182,-0.1307068563003233,-1.881437703397199,0.04083160612046412,2.071070910640585,0.3442054938167198,-0.5111370160208986,-1.4082397665374045,-0.015339996651622556,-1.9482118772998531,-0.20371587783028797,0.5636095009543062,1.0601961225789944,0.7779635826504742,0.6282846932115573,0.003428592554759713,0.0,0.628282276539237,-0.7779040195702582,-0.010366495276493637,0.0,-0.0038460684233899145,0.010219076489349332,-0.9999403873398592,0.0,0.5838153684651444,0.15922223523481852,0.30466302811136653,1.0,-0.3648251428571057,-0.47948447346933903,-1.5576513802686904,1.3599999999999612
0.376999214329724,0.1680953352429005,-0.13107500640264613,-1.9148136834319194,0.037530742904891834,2.0802365011162416,0.3625030167612713,-0.5544922830063775,-1.4252395567733052,-0.021760049896677985,-1.9595006661532088,-0.1868342639049944,0.5334309489682684,1.085660525926514,0.7946820790196243,0.6070004293999925,0.003408649949840691,0.0,0.606999329983843,-0.7946222853607666,-0.010391530609423771,0.0,-0.003599143623573997,0.01032721021539422,-0.9999401956588925,0.0,0.5775267064979102,0.15089460160157037,0.30467985662971664,1.0,-0.3811548571428182,-0.5009463836734183,-1.6309389665209681,1.3769999999999594
0.3670876028337996,0.1428124955536535,-0.13139972810104344,-1.948586906854121,0.03386398448160058,2.0891764620122335,0.38133998902940597,-0.6010841293670154,-1.473040901551012,-0.00940965901485985,-1.9821861934828173,-0.2140360043196816,0.5018415907063776,1.1168737066241325,0.8113895839397515,0.5844795957349519,0.003360378668020379,0.0,0.5844801238625795,-0.8113313600593156,-0.010254554846168577,0.0,-0.00326726038077807,0.010284711542797198,-0.9999417731638605,0.0,0.5709734107778814,0.1422239794056021,0.30471426582695493,1.0,-0.39748457142853066,-0.5224082938774975,-1.7042265527732456,1.3939999999999575
0.35631826580383935,0.11681955230852047,-0.13170982528986316,-1.9825906738724843,0.030127576005156823,2.098018516803376,0.40090778608068667,-0.6528380764217283,-1.522786758624197,-0.02011687755049112,-1.9846591596908982,-0.2174393729950022,0.515427672084876,1.1378391094516616,0.8282458149414558,0.560335588680675,0.003693912702466381,0.0,0.5603418004839511,-0.8281885895941387,-0.010073410429623529,0.0,-0.0025852837866897627,0.01041331421362117,-0.99994243794072,0.0,0.5642232265369661,0.13324091035887956,0.3048572985190993,1.0,-0.41381428571424317,-0.5438702040815768,-1.7775141390255234,1.4109999999999556
0.3445532881940337,0.09017641682485246,-0.13209471353685287,-2.017190396351476,0.02605886347496122,2.1063337881763418,0.4208911059747188,-0.6996842950149536,-1.5608829768130845,-0.009250091443711191,-2.0279650984502737,-0.23334277180206442,0.48813988746711506,1.2025690873179473,0.8450157141730114,0.5347118015090375,0.003532566891569472,0.0,0.5347183942421906,-0.844960467416449,-0.009939530352963138,0.0,-0.002329949668057385,0.010288185915026435,-0.9999443607346972,0.0,0.5570852089380806,0.12376556721512702,0.3048498163155968,1.0,-0.42998,-0.5651165714285715,-1.850065695,1.4279999999999538
0.33277079158306855,0.06491320657816263,-0.1322743625152787,-2.0496074210963338,0.02232500599360984,2.1137516549449087,0.4400477243087567,-0.7459457324326492,-1.5506363208546394,-0.011209327573581023,-2.0133545616030832,-0.24205545241132054,0.4518419187994802,1.164557857981712,0.860475608687771,0.5094615865003738,0.003371295765844353,0.0,0.5094680041738313,-0.8604202351664982,-0.010005925263022753,0.0,-0.0021969457612539545,0.010327620795191686,-0.9999442552852799,0.0,0.5501577101921744,0.11478637499664687,0.30478612407664674,1.0,-0.42998,-0.5651165714285715,-1.850065695,1.443999999999952
0.31928444477057794,0.03829968943690694,-0.13258082632339246,-2.0830454485586576,0.01819822975095188,2.120838000365108,0.45991927473169036,-0.809528896556151,-1.5084768424488477,-0.012718063624788162,-1.8997326826819851,-0.22610036877315853,0.39169933758224995,1.1502566219768124,0.8762487585342063,0.4818287101912587,0.0031550125036713126,0.0,0.4818347342443725,-0.8761944649712402,-0.009964704241727719,0.0,-0.0020369153165289977,0.010251951714057767,-0.999945372738954,0.0,0.5428309068974336,0.10492129535753954,0.30477532467277163,1.0,-0.42998,-0.5651165714285715,-1.850065695,1.4609999999999501
0.3053446003618688,0.011811117953319737,-0.13270635224231928,-2.1154090613814427,0.014098929132014503,2.1274447911994856,0.4795035078117761,-0.8342700458733642,-1.5174884836846654,-0.010894333321424438,-1.8647128644803048,-0.2522089414035697,0.396300264954543,1.1164423776027708,0.8910656279346201,0.4538404127275947,0.0034166342994526515,0.0,0.45385105051892527,-0.8910124546429877,-0.009837505535145973,0.0,-0.0014204212060177634,0.010316704741566332,-0.9999457725331274,0.0,0.5355306408646435,0.09523427978736063,0.30493219613343436,1.0,-0.42998,-0.5651165714285715,-1.850065695,1.4779999999999482
0.2907544157728824,-0.014226249419893292,-0.13288036510022647,-2.146669597261342,0.010087864607655914,2.1334557401128436,0.49850381123656456,-0.8629270497591801,-1.4881702534315018,0.0002662660234475072,-1.8193737945285133,-0.24128863261416517,0.3420718710362696,1.119211578630012,0.9049983239969063,0.4253758124664909,0.00376810727975597,0.0,0.425391859201811,-0.9049460573222253,-0.009754299718297771,0.0,-0.0007393235756001371,0.0104307478824497,-0.9999453249549513,0.0,0.5282842733427757,0.0855011000724054,0.30508712463892185,1.0,-0.42998,-0.5651165714285715,-1.850065695,1.4949999999999464
0.27570337247444354,-0.03987393753962592,-0.13289738831590445,-2.17695091187309,0.005995991209873108,2.1387136147211616,0.5171499204642173,-0.9011149697632785,-1.4961216788462355,-0.001733377008911368,-1.7602031099167574,-0.234332768221009,0.29034561142701865,1.0646739289847054,0.9179341960595999,0.39668868121068385,0.003955857043941757,0.0,0.3967083586200643,-0.9178836279666924,-0.009636940016667254,0.0,-0.00019185230465873504,0.010415598874065908,-0.9999457377741994,0.0,0.5209936181435875,0.07590249960541218,0.30521050040740544,1.0,-0.42998,-0.5651165714285715,-1.850065695,1.5119999999999445
0.26092806992661977,-0.06358275009772808,-0.13302273661896868,-2.2046959152310297,0.002254073894762049,2.1430351450521847,0.5341377182421136,-0.9264454679936379,-1.4463337860372183,0.0026714922199285937,-1.7049311364515691,-0.25018422880521846,0.2585339717006755,1.0469661119190319,0.9293194308976382,0.36923045610018035,0.0038746026055362813,0.0,0.36925078363059655,-0.9292691828855896,-0.009663924076027057,0.0,3.233432548027659e-05,0.010411772929815703,-0.9999457955004109,0.0,0.5140900281465144,0.06678449559821739,0.30520790527842123,1.0,-0.42998,-0.5651165714285715,-1.850065695,1.5279999999999427
0.24469530065943199,-0.08837837489082465,-0.13313495051020266,-2.2332772995083645,-0.001714488749040459,2.147142474570698,0.5518022617928243,-0.9824611818413094,-1.4231378075472731,-0.022924130375184384,-1.6629027059963573,-0.22384690837004825,0.24020438512834968,1.0042203966044232,0.9405253738070651,0.3396736927525465,0.0038145220063756646,0.0,0.3396949714883219,-0.9404758490142275,-0.00965663853130278,0.0,0.00030736567076722343,0.010378287322761741,-0.9999460968865226,0.0,0.5067672872620694,0.057140759192526876,0.30517938412528445,1.0,-0.42998,-0.5651165714285715,-1.850065695,1.5449999999999409
0.22801636426432584,-0.11277559775213923,-0.13314541688723222,-2.2609628982836214,-0.005744369674067841,2.1505637013473615,0.5687828614132795,-0.9934795332945828,-1.3907809471762806,-0.005004091530334306,-1.5989429033424538,-0.24268154673343798,0.18751957031405964,0.9764600417706333,0.9506452981423238,0.3102281765473063,0.003569663462231943,0.0,0.310248429811805,-0.9505970531654004,-0.009586512075533177,0.0,0.0004193134804322818,0.010221051901226276,-0.999947675768206,0.0,0.4994037559504151,0.04762387100983258,0.30510740216118787,1.0,-0.42998,-0.5651165714285715,-1.850065695,1.5619999999999392
0.19695105273009617,-0.15510610881428916,-0.13328149693275534,-2.3077296234231763,-0.012604538308611765,2.1552945977776905,0.5975849993890486,-1.0703721610619987,-1.3657776478708108,-0.02041715027592287,-1.5014562706370111,-0.22662394893993631,0.13068058043261163,0.9189689891353852,0.9649350306706873,0.26243078646423273,0.003349000079450067,0.0,0.262451160288106,-0.9648879381432391,-0.00956044927417049,0.0,0.0007224674692676292,0.010104355910416443,-0.999948688699771,0.0,0.48772620523283583,0.03245250268206378,0.3050337060964605,1.0,-0.42998,-0.5651165714285715,-1.850065695,1.5889999999999362
0.17845626150600152,-0.17853356382967459,-0.13342925237401923,-2.3329857097189883,-0.016371832730356597,2.1571827213955586,0.6129550084224525,-1.1170295857470012,-1.3418757247474566,-0.008910055434768905,-1.4647600181971296,-0.20745290803187974,0.08866392740454083,0.8962504954154584,0.9739733001422326,0.22660015464374833,0.0030211631346517475,0.0,0.22661899765864696,-0.9739262627390184,-0.009602684447947731,0.0,0.0007664350962067745,0.010037604478320826,-0.9999493282529771,0.0,0.4790400544916847,0.021180125896115655,0.3049255190902964,1.0,-0.42998,-0.5651165714285715,-1.850065695,1.608999999999934
0.16950545541077386,-0.18939234049123319,-0.1335338453597371,-2.344492964261651,-0.018157848971732223,2.157857198639519,0.6200369751661249,-1.1159990623653473,-1.3293632117935503,-0.012041568657695505,-1.4155443578323124,-0.21707319885559456,0.0790864733682978,0.8778378496673189,0.9772364349544057,0.21208786943235935,0.0029039177767514438,0.0,0.2121062259009293,-0.9771897090945958,-0.00959000911841429,0.0,0.0008037694407894147,0.009987837658837949,-0.9999497972666362,0.0,0.47559247112570735,0.016646340856658354,0.3049007559579944,1.0,-0.42998,-0.5651165714285715,-1.850065695,1.6169999999999332
0.1557861560634555,-0.20573356024421097,-0.13368345782388813,-2.361625256864835,-0.02084630043853317,2.158811772235758,0.6303273829290148,-1.1460584707981563,-1.3579825889212545,-0.004787828863792067,-1.3998191918755887,-0.22166757995508174,0.06162001443939494,0.8539206991924523,0.9817094466782803,0.19031327459857494,0.0028577465598485065,0.0,0.1903321608321868,-0.9816635414041983,-0.009544995124510562,0.0,0.0009888253681560322,0.009914523845383933,-0.9999503609886397,0.0,0.4703747967659323,0.00984282970897272,0.304871023928519,1.0,-0.42998,-0.5651165714285715,-1.850065695,1.6289999999999318
0.13582355935164253,-0.2283882957181544,-0.13397348398884934,-2.384830453603471,-0.024498749351266735,2.159572095790728,0.6442811778453431,-1.1844266928732756,-1.3186009550600772,-0.01135391601634566,-1.363300856493207,-0.2199411005475542,0.021540338105589245,0.7956492746049454,0.9872191494848578,0.15928362913295502,0.0027970130206981763,0.0,0.1593033670722871,-0.9871736718667666,-0.00955644880306563,0.0,0.00123897562104619,0.009880073073423243,-0.9999504233188135,0.0,0.4630519315829468,0.0002092953850901969,0.3048853531127651,1.0,-0.42998,-0.5651165714285715,-1.850065695,1.64599999999993
0.11647287165456602,-0.2494529396560905,-0.13418125409261944,-2.405909706127277,-0.02790017910334643,2.1600060218405863,0.6568627605829424,-1.2254149761394515,-1.321615848792987,-0.02312911778095442,-1.2889623720983947,-0.20694464263738033,0.011251368079325936,0.7664241147702097,0.9914984570040275,0.1300104657745742,0.0029724483039162693,0.0,0.1300331881431998,-0.9914543299450451,-0.009509390923991654,0.0,0.0017107593356134876,0.009815252331757724,-0.9999503658303044,0.0,0.45617827660263494,-0.00879648418198961,0.3049532653380764,1.0,-0.42998,-0.5651165714285715,-1.850065695,1.6619999999999282
0.09525445518362746,-0.2713038371941787,-0.13442084878246377,-2.4274584300951814,-0.03144808704234197,2.160079339573402,0.669565426286421,-1.2694559502898728,-1.3032159562222907,-0.006671246900147693,-1.226614588307616,-0.22035400923983306,0.010516443834010116,0.7191193714220787,0.9952750860127748,0.09694556684974942,0.0031316340228414075,0.0,0.09697114050308864,-0.995232776876732,-0.009437406474634136,0.0,0.0022018324965378255,0.009696680354757039,-0.9999505619398165,0.0,0.4484483884684638,-0.01892980760564521,0.30499212391944747,1.0,-0.42998,-0.5651165714285715,-1.850065695,1.6799999999999262
0.07337604174575248,-0.2926503832306458,-0.13473581658307626,-2.448127866073873,-0.03482632140471073,2.159685212331212,0.6814647147247238,-1.2894268157314308,-1.2456299283161139,-0.017910665762426413,-1.1700930489572081,-0.19634416206062288,-0.01990281805186054,0.6729497553892594,0.997707808018546,0.06745233651678162,0.003171595570506878,0.0,0.0674796578060281,-0.9976659076945655,-0.009485742330916737,0.0,0.002524405892509296,0.009678203707616706,-0.9999499786228727,0.0,0.4415648993307948,-0.027931315772797137,0.30499645553215504,1.0,-0.42998,-0.5651165714285715,-1.850065695,1.6959999999999245
0.05079072062006412,-0.3135034822354728,-0.13506942120994692,-2.4679607328498467,-0.03828016045618432,2.1589833197067114,0.6926565553595291,-1.3365187432671652,-1.2182298370917288,-0.019825295815977896,-1.1542712513603155,-0.18668095702836343,-0.05425896765279444,0.6434235708055509,0.9993326295420496,0.036115165231749735,0.003276778000524129,0.0,0.036144496267070836,-0.9992928888048758,-0.00938321239309908,0.0,0.002935641208324846,0.009495570623714516,-0.9999506068547716,0.0,0.43424694476331543,-0.0375213122393552,0.3050021300079927,1.0,-0.42998,-0.5651165714285715,-1.850065695,1.7129999999999228
0.02756231627037248,-0.3336926102417555,-0.13546081014543712,-2.4867254503024756,-0.04147299704590676,2.157869444501052,0.703133333661627,-1.3724618125126355,-1.1693661557288746,-0.013766890721839202,-1.1098029076713236,-0.19621365918384617,-0.07845832290680307,0.5941300229649888,0.9999738872612773,0.00462636547456452,0.0034012408433006427,0.0,0.0046582120579175545,-0.999935195028277,-0.009415609666599682,0.0,0.003357525017261387,0.009431389083818464,-0.9999498867071828,0.0,0.4269740624866287,-0.0470893462067594,0.30503378855657465,1.0,-0.42998,-0.5651165714285715,-1.850065695,1.729999999999921
0.00500472977200847,-0.3522636270524862,-0.1358929051652303,-2.503569564051939,-0.044498850974016166,2.156469766891089,0.7122311392562278,-1.4104290359722833,-1.151805810843062,-0.027694892985543642,-1.0295925260760188,-0.19452039398664647,-0.07733539381566995,0.5534835807091779,0.9996718486848923,-0.024985241337678044,0.0035608374626990426,0.0,-0.02495092032606605,-0.9996350665677227,-0.009377215164163793,0.0,0.0037939030224036774,0.009285470620932934,-0.9999496919021498,0.0,0.4201078550351363,-0.0561498780106877,0.3051024900865507,1.0,-0.42998,-0.5651165714285715,-1.850065695,1.7459999999999192
-0.019589161204577137,-0.37119008013358884,-0.13636899620292942,-2.5207493286958305,-0.04753880678827812,2.1546860226165676,0.7211196238882077,-1.4603206747814466,-1.0872496402927108,-0.03715137405817513,-0.9899187393316863,-0.18164975966096372,-0.10192366977652206,0.49645096884397205,0.9983945387002968,-0.0563716593123067,0.0033657125556686832,0.0,-0.05633787214133584,-0.9983577995564725,-0.009407184943063326,0.0,0.0038905589110303507,0.009202642167451147,-0.9999500862185561,0.0,0.4127443691716106,-0.06573234232541171,0.30502127681224267,1.0,-0.42998,-0.5651165714285715,-1.850065695,1.7629999999999173
-0.04483147736146145,-0.3895463055616428,-0.1368222624833655,-2.536788723251597,-0.05046696691122929,2.15263841543958,0.7293270037853107,-1.490233934360294,-1.0668373534976194,-0.04381077477386185,-0.9351862151769722,-0.16327905672894188,-0.13462086569449383,0.46876810129029606,0.9961291219710304,-0.08772310296133184,0.0034894797990355315,0.0,-0.08768706232928686,-0.9960940027362648,-0.009405515090314457,0.0,0.004301013677001975,0.009063299752570933,-0.9999496776733043,0.0,0.4054581482855512,-0.07529584250252119,0.3050889234027936,1.0,-0.42998,-0.5651165714285715,-1.850065695,1.7799999999999154
-0.07076632701617773,-0.40702311400456487,-0.13729940508909788,-2.55194376358181,-0.053227719757313614,2.1504200899671937,0.7367571381527439,-1.524332791929444,-1.0147549593468044,-0.034839256290598766,-0.8855770663914575,-0.14642934005891461,-0.14132241012373356,0.4194417513024534,0.9928755061719209,-0.1190251314272669,0.003463269233293102,0.0,-0.11898807436065495,-0.9928410986985167,-0.0094412814953331,0.0,0.004562313640170512,0.0089621019547627,-0.9999494317328257,0.0,0.398155345993218,-0.08485680002742124,0.3050824203749994,1.0,-0.42998,-0.5651165714285715,-1.850065695,1.7969999999999136
-0.09733508187336705,-0.4237248959947516,-0.13779746134124912,-2.566094719973632,-0.05588784508683619,2.1481036549514605,0.7433561516317015,-1.5720339234070004,-0.9521290585791956,-0.030422526858664936,-0.8221371797015571,-0.15001409166270532,-0.13708528614873386,0.3759146498365772,0.9886533230198187,-0.15010841573004757,0.003580127105746507,0.0,-0.1500692269317087,-0.9886205931883498,-0.009449695933891791,0.0,0.004957961724866955,0.008805375910264632,-0.9999489406817799,0.0,0.3908858191957779,-0.09441661980231142,0.3051190507558993,1.0,-0.42998,-0.5651165714285715,-1.850065695,1.8139999999999117
-0.12460282504552726,-0.4395405627271173,-0.1383203068452334,-2.5793879472853387,-0.058486139844808,2.145511371420986,0.7492304728994686,-1.5976533884620783,-0.9028203880322997,-0.04028245257662449,-0.7361504580896409,-0.1414742034672127,-0.1375563636865169,0.3305157252367129,0.983450691351986,-0.18109086520105078,0.0034033984843840556,0.0,-0.18105238198622037,-0.9834186140318841,-0.009413365706904207,0.0,0.00505173722242408,0.008641553986650605,-0.9999499004928853,0.0,0.3835395570368734,-0.1039889512276651,0.30508526339274866,1.0,-0.42998,-0.5651165714285715,-1.850065695,1.8309999999999098
-0.15084275818784762,-0.4536599243453338,-0.13882274152783478,-2.590976268879889,-0.06066545862309663,2.1431828835146804,0.7540703092645108,-1.6423427770895835,-0.8530676654743767,-0.03845836539627957,-0.7164517357008457,-0.12435725677762588,-0.1561821107514227,0.29263911707297713,0.9776510404083586,-0.2101589992427178,0.003519250909107824,0.0,-0.21011818948131833,-0.9776200955381635,-0.009489054233867493,0.0,0.005434805188375469,0.008537689491858902,-0.9999487840638164,0.0,0.3766777328532052,-0.11299024326644748,0.3051143541199777,1.0,-0.42998,-0.5651165714285715,-1.850065695,1.846999999999908
-0.17924332152694009,-0.4676231098351215,-0.139300452524675,-2.60235604078937,-0.06296875801666209,2.1405575921425837,0.7584203567328509,-1.6620902552047216,-0.7940774682651546,-0.019073683673152625,-0.6471412444607458,-0.13202435417991953,-0.14111499758521232,0.2416680469182131,0.9706166178552617,-0.24056723382943923,0.003396181984740357,0.0,-0.240526843392581,-0.9705867690733064,-0.009429114945180036,0.0,0.005564732537921002,0.00833534320626901,-0.9999497766415146,0.0,0.369361513790725,-0.12251245200309832,0.3050905948231858,1.0,-0.4210068571429471,-0.553323297959302,-1.8097943240755467,1.8639999999999062
-0.22901987054712364,-0.48863910800966304,-0.13981151511951326,-2.6191255003956173,-0.0660308425463464,2.136409568553182,0.7638791079192235,-1.6620274105008566,-0.6605463061107217,-0.016819000092093236,-0.5234480425428539,-0.08517072269463223,-0.14621380847170784,0.16313994461497983,0.9580044166196338,-0.28669903738873453,0.003456385229759136,0.0,-0.2866562117772986,-0.9579761293503453,-0.009523588904781735,0.0,0.006041654636008642,0.008133002521945959,-0.999948675022492,0.0,0.35829661159099063,-0.13711267859925425,0.30510558033516366,1.0,-0.3950714285715214,-0.5192367346939997,-1.6933963929689881,1.8909999999999032
-0.23877383616328224,-0.4923523562121696,-0.1397844863986685,-2.6220531593939502,-0.06658980261458988,2.1356111031430096,0.7646451592720733,-1.6211226817103916,-0.6036099552453578,-0.010714020213365556,-0.48048485752839853,-0.08732999208854904,-0.13066296750311118,0.12336473627699049,0.9520335171037662,-0.3059433240268206,0.0034075938227832794,0.0,-0.30590013018001133,-0.9520055383669621,-0.009555740457522183,0.0,0.006167681937896352,0.008055156889046955,-0.9999485357492184,0.0,0.35356963638119326,-0.14326459201388694,0.3050924100252673,1.0,-0.38354457142866555,-0.5040871510205319,-1.641663979143851,1.9029999999999019
-0.26451376013768874,-0.5013828671296822,-0.13976836832964545,-2.6290069069008184,-0.0678302876216552,2.133719280682381,0.7662273464055301,-1.597517109892765,-0.539267957792122,0.007540637206328344,-0.4122303639315582,-0.07552608611227951,-0.12420692381975162,0.08162696439795143,0.9453582246239671,-0.32598473991825005,0.003538838433632413,0.0,-0.32594043642864867,-0.9453326231663446,-0.009476833825085688,0.0,0.006434806519112268,0.00780570254039295,-0.9999488308273141,0.0,0.3486375513528605,-0.14978555905997043,0.3051536243748377,1.0,-0.37105714285723834,-0.48767510204094194,-1.5856205308332858,1.9159999999999004
-0.28954925292974515,-0.5092548159943802,-0.139625538946637,-2.634899192338093,-0.06881189342350005,2.132112102880869,0.7672565245239901,-1.5436122884412864,-0.46650164354752377,0.02669779547623151,-0.35723961009979993,-0.06241703661149397,-0.1148834115042861,0.058800869541905866,0.9369103819445515,-0.3495203431454997,0.003900363210681293,0.0,-0.3494727697734283,-0.936888457736855,-0.009462972448129828,0.0,0.0069618406873220295,0.007503030852943154,-0.9999476172791573,0.0,0.34286207967661436,-0.15750363855988156,0.30527113994337285,1.0,-0.35568800000009715,-0.467475657142985,-1.5166439790664363,1.9319999999998987
-0.3153340305597303,-0.5163356073084225,-0.1394076810242465,-2.6404792692590253,-0.06963204112516048,2.1303944542614413,0.7678468677209092,-1.4891751737201862,-0.39698907743031403,0.02948874748925325,-0.317657429597077,-0.051056204547828624,-0.11127692892604026,0.02842006658048012,0.927748952850252,-0.3731609140366814,0.0036823391719956935,0.0,-0.37311434194258797,-0.9277266368398842,-0.00947217164727529,0.0,0.006950982193495936,0.0074140065126086785,-0.9999483568434805,0.0,0.3368689186934772,-0.16527876819462653,0.3052112886840057,1.0,-0.3393582857143847,-0.4460137469389057,-1.4433563928141586,1.9489999999998968
-0.3388645700286108,-0.5220401040540179,-0.13921770010612855,-2.6447902002321357,-0.07022691241797022,2.12907285492812,0.7679710663054422,-1.4307471783609385,-0.3343128984280728,0.028825686011855946,-0.24256874740792272,-0.037538484933332485,-0.07757998879496092,0.001075081743357213,0.9189739629833087,-0.39427589525970685,0.003757748942816364,0.0,-0.394228003212241,-0.9189529793101382,-0.009510531084964035,0.0,0.007203106426539541,0.0072586603306303565,-0.9999477121869984,0.0,0.33151515368186835,-0.17233763650395648,0.3052424646668407,1.0,-0.3239891428572435,-0.4258143020409487,-1.3743798410473091,1.964999999999895
-0.3629919012698471,-0.5270895426462091,-0.13890347491416535,-2.648480927030922,-0.07067347462493083,2.1279815489558582,0.7679179678921946,-1.3862041284160396,-0.26797463497939733,0.02571758089311707,-0.1999158287251458,-0.028773914668533143,-0.0638815724593482,-0.004986979977036413,0.9095374431863027,-0.41557923783102485,0.004035272867572767,0.0,-0.41552879794883457,-0.9095195510965093,-0.009526339780278538,0.0,0.007629255479083608,0.006987925181834359,-0.9999464802490621,0.0,0.32614342946773156,-0.1795121277860715,0.30533011241536523,1.0,-0.30765942857153106,-0.40435239183686944,-1.3010922547950314,1.9819999999998932
-0.38611545821817317,-0.5311158850614486,-0.138519629666567,-2.651487649974367,-0.07092418615639945,2.1270325035965665,0.7674424833971026,-1.3314052894927608,-0.2182434204307755,0.016299897035123426,-0.1694170788479253,-0.018424953963877774,-0.05053621693582776,-0.03779056145573907,0.900189698176856,-0.4354563661135434,0.004124003959319394,0.0,-0.4354046715396298,-0.900173378584139,-0.009560721264198884,0.0,0.007875747149025392,0.006810983332371595,-0.9999457900870881,0.0,0.3210237659795818,-0.18630176124719292,0.30536204025198016,1.0,-0.2913297142858181,-0.3828904816327896,-1.227804668542752,1.9989999999998918
-0.4067943047841162,-0.5341432146666649,-0.13800613383641067,-2.6536445380896163,-0.07102930690545105,2.1263923633667847,0.7665848912416056,-1.2723634918088778,-0.18104451856585524,0.03274352472442388,-0.12289218499531716,-0.004613037003104491,-0.03885757704041376,-0.06555843296554656,0.8916776805375235,-0.4526284032105443,0.0043805866619539184,0.0,-0.452574953353706,-0.891664629748377,-0.009531345854020174,0.0,0.008220330305196144,0.0065164700215589455,-0.9999449793804314,0.0,0.31653481294446906,-0.19231826013882183,0.3054429210382522,1.0,-0.27596057142867697,-0.36269103673483266,-1.1588281167759025,2.01499999999989
-0.4278086949922521,-0.5367526471927255,-0.1374801080639849,-2.6552730837441154,-0.07109111468254323,2.1259269086790153,0.7655589023718607,-1.1992638170272223,-0.14230065275426362,0.03511323812495918,-0.08561767992107937,-0.0036978322539725802,-0.025760682262361435,-0.06296337763019279,0.8827343353575225,-0.4698261384572106,0.004923383441000648,0.0,-0.4697696159826002,-0.882727362786691,-0.00946877966908869,0.0,0.008794854796900453,0.006045677377449737,-0.9999430485353398,0.0,0.31203926597004494,-0.19844799980935693,0.3056259821214293,1.0,-0.25963085714296447,-0.34122912653075343,-1.0855405305236248,2.031999999999888
-0.4477071421867239,-0.5387817801539656,-0.13693559666377894,-2.656362702789822,-0.07108704268154865,2.1255590309181445,0.7643514237076996,-1.1331500771685703,-0.1039591257614946,0.03554655955139089,-0.052417301968160475,0.0026391712538610798,-0.01896112697271162,-0.07645192681156264,0.8740616539461099,-0.48576378598704256,0.005524149322180963,0.0,-0.48570453209749775,-0.8740617068905088,-0.009380135863067338,0.0,0.0093851583889617,0.005515818901551478,-0.9999407455163827,0.0,0.3078102532585525,-0.2042359271283177,0.30585109039983593,1.0,-0.243301142857252,-0.31976721632667415,-1.012252944271347,2.0489999999998862
-0.46653551630051,-0.5402501916448426,-0.13637610521650492,-2.65710812783055,-0.07099520420537721,2.125257779571251,0.7628755485673056,-1.080995388198485,-0.07436773238734347,0.034640133990205574,-0.043889274682162534,0.004467620212888241,-0.0199353707374957,-0.09266615198990401,0.8657430674832295,-0.5004337584503937,0.0059784119254156914,0.0,-0.5003729285151312,-0.8657489259792284,-0.009299272886240814,0.0,0.009829663036280911,0.005059442960862887,-0.9999388880134221,0.0,0.30379721169324064,-0.20967054896517576,0.30603437288747704,1.0,-0.2269714285715395,-0.29830530612259487,-0.9389653580190694,2.0659999999998844
-0.4840869404267847,-0.5412216317217883,-0.13572250681116127,-2.657621215016721,-0.0707709956254385,2.1250455851737993,0.7613496640169405,-1.015210832920447,-0.044310652393950434,0.036073228967435034,-0.02758638822804303,0.014134269467390517,-0.015668645482944953,-0.09053543141808915,0.8578585806530572,-0.5138289528399147,0.006261766888598723,0.0,-0.5137674930407194,-0.8578685251900693,-0.009235988527388597,0.0,0.010117685836080748,0.00470617034103521,-0.999937740258884,0.0,0.3000536155279034,-0.21466078409847342,0.30615257896110076,1.0,-0.210641714285827,-0.2768433959185156,-0.8656777717667917,2.0829999999998825
-0.5004901622646024,-0.5416898298620906,-0.13505306449229412,-2.657840601185132,-0.07041848623403399,2.124834927922632,0.7597468405694717,-0.9301525757967021,-0.016868068097557094,0.04477890464425966,6.083546145341061e-05,0.027744714760358252,-0.01524531011882799,-0.09761270194586066,0.8503739292640187,-0.5261223592374142,0.006339593026310422,0.0,-0.5260607933925883,-0.8503855956172452,-0.009226446936507371,0.0,0.010245535879578604,0.0045110054481703465,-0.9999373379489271,0.0,0.29655667737198915,-0.21928523532702526,0.3062220323872564,1.0,-0.19431200000011453,-0.2553814857144363,-0.7923901855145141,2.0999999999998806
-0.5156960529767256,-0.5417340039904921,-0.13441535492528228,-2.6580440547799533,-0.07003967609790386,2.1248151026112487,0.7581109062159094,-0.8601072607909075,0.03387827449220783,0.04358192103533057,-0.004652845844956232,0.020151879147104174,-0.0003488858598269338,-0.08502917410094561,0.8433523568687495,-0.5373072717368333,0.006200387395487894,0.0,-0.5372464764823952,-0.843363407633514,-0.00922675854494511,0.0,0.010186980434206239,0.004450357967268143,-0.9999382079626702,0.0,0.29327968971729557,-0.22352714391700468,0.3061599989934721,1.0,-0.17798228571440206,-0.23391957551035703,-0.7191025992622364,2.1169999999998788
-0.5295404517373776,-0.5416542066757489,-0.13364008792003926,-2.6579958271197714,-0.06956181008086973,2.1248345569231604,0.756376404868526,-0.7844575827884083,-0.009410109870790264,0.04785795261737172,0.006426228085523718,0.03226780746930662,0.004238416441899433,-0.1116374873838591,0.8370091229831572,-0.5471358324729683,0.006233439522930717,0.0,-0.5470751293238835,-0.8370212656513947,-0.009216866267978234,0.0,0.010260596785450937,0.004304524293905043,-0.9999380936959095,0.0,0.29035264781290787,-0.22734264263949963,0.30617514877116697,1.0,-0.16165257142868955,-0.2124576653062778,-0.6458150130099589,2.133999999999877
-0.5415690878863524,-0.5412938032403332,-0.13309196208928384,-2.6579824338152527,-0.06916190986950642,2.1248884030431365,0.754781015662952,-0.725737177612882,0.049966098777524254,0.04621123857077679,0.009922581548584677,0.024595613908435718,0.010907392079939265,-0.10295648272298988,0.8310679535486242,-0.5561218098139619,0.005944420489321249,0.0,-0.5560623444842102,-0.8310777482817914,-0.009229965265348174,0.0,0.01007345452820596,0.004365343996905191,-0.9999397328267624,0.0,0.2875844228220632,-0.23085185134003214,0.30605825710424106,1.0,-0.14532285714297705,-0.19099575510219852,-0.5725274267576812,2.150999999999875
-0.5537021828240566,-0.5408291013273325,-0.13223752643851783,-2.6577462496362445,-0.0686285891930902,2.125004557081828,0.7529029048972901,-0.6524368111781088,0.010263691923357502,0.04170001756537026,0.009242411841714825,0.03325013136575754,0.003764413268544038,-0.10419813798046094,0.8259062030721526,-0.5637594512588264,0.005913691274915625,0.0,-0.5637004187439872,-0.825916323689589,-0.009209292705524983,0.0,0.010076233958090097,0.004272543983119048,-0.9999401056449002,0.0,0.285191346104682,-0.23393333376938535,0.3060399434580849,1.0,-0.1289931428572646,-0.16953384489811923,-0.4992398405054035,2.167999999999873
-0.5639583484791821,-0.5401518839111646,-0.13146780775444075,-2.657489147079164,-0.06813548508565705,2.1250805568753752,0.7511577976546253,-0.5809724579560128,0.04684667063587294,0.04171999822200707,0.02409865722674625,0.03642411402899144,0.0018123878423020132,-0.10425113023466528,0.8212991331912767,-0.5704532953784398,0.005614135048683633,0.0,-0.5703959760975095,-0.8213068948475277,-0.00917397563163291,0.0,0.009844441990889685,0.00433238160491195,-0.999942157042855,0.0,0.283027238550152,-0.2366767499541689,0.30593692936499434,1.0,-0.1126634285715521,-0.14807193469403995,-0.425952254253126,2.1849999999998713
-0.5724546190027583,-0.5397713784831073,-0.1307877479450685,-2.657191685719002,-0.06763408472856093,2.12526276562312,0.749412437293084,-0.4906331220757627,0.026861028103968225,0.04686591772114271,0.01965080094616823,0.031088794154356048,0.02028562789297324,-0.11550505934445346,0.8176013061130096,-0.5757392870357895,0.005755389389903883,0.0,-0.5756811720894988,-0.817610735190578,-0.00919895124411193,0.0,0.010002058351766874,0.00420788625709434,-0.999941124527827,0.0,0.2812749655483208,-0.23895273335387257,0.30596795992780784,1.0,-0.09729428571441096,-0.127872489796083,-0.3569757024862763,2.2009999999998695
-0.5801754265378162,-0.5390799064409022,-0.12995714849527873,-2.6568037414916525,-0.06707418241475699,2.125344911345646,0.7476667203914933,-0.4317325149497264,0.028534392304468484,0.04117976248014568,0.020522699824348515,0.027779363581909286,0.0005577223250928681,-0.10570401999002564,0.8145553106523904,-0.5800424604738283,0.005580039127430071,0.0,-0.5799852688687759,-0.8145633589926033,-0.00918525901155123,0.0,0.009873325744215233,0.004245642755735468,-0.9999422443103098,0.0,0.279809388415594,-0.24084902217317739,0.30591882746838633,1.0,-0.08192514285726976,-0.10767304489812601,-0.28799915071942683,2.2169999999998677
-0.5871705016091017,-0.5385981078246471,-0.12918163475460118,-2.6563920767890954,-0.06652114090866634,2.12551338184753,0.7457975427655881,-0.3601016959876047,0.02856627552651386,0.04601842554155099,0.02302992727992607,0.03233356985663654,0.005079701712315379,-0.09677146060965745,0.8115933651474763,-0.5841782116945999,0.005724817123969521,0.0,-0.5841204142198628,-0.8116031263983607,-0.009189875582981115,0.0,0.01001499737936834,0.00411453871751255,-0.9999413834813686,0.0,0.2783491046119132,-0.2427939260012205,0.30596850452968904,1.0,-0.06367428571441464,-0.08368620408180216,-0.20608949549629307,2.2359999999998657
-0.5922106935357755,-0.5381155233937017,-0.12853442972005458,-2.6560559118443194,-0.06602325153164622,2.1256557203406152,0.7441877686229295,-0.2931175714224257,0.022853781219647394,0.03519678181257678,0.022442987961959933,0.024951073768846053,0.005577313467750233,-0.10243850204703048,0.8097440085111809,-0.5867386154409283,0.005760619056641396,0.0,-0.5866803473781048,-0.8097541677085324,-0.009225225210075006,0.0,0.010077675183062573,0.004090507606708427,-0.9999408523559902,0.0,0.27738666130575346,-0.24408846393668632,0.3059749948974938,1.0,-0.0483051428572735,-0.06348675918384517,-0.13711294372944338,2.251999999999864
-0.5963257659559636,-0.5376919488904128,-0.1277676746836999,-2.655775549947411,-0.06555166115670495,2.1257129697093706,0.7423593833278765,-0.20739625607833528,0.012360976805080066,0.04732308790085978,0.015278124726417982,0.02819945884582905,0.0008277968300944375,-0.10506763788938939,0.8086318899148247,-0.5882707853682123,0.005718093760524607,0.0,-0.5882131046253375,-0.8086418915187361,-0.009185952821061655,0.0,0.010027910903152581,0.004064674964535275,-0.9999414579965926,0.0,0.2766412686443216,-0.24507516537447827,0.3059726584565331,1.0,-0.03197542857156099,-0.04202484897976588,-0.06382535747716589,2.268999999999862
-0.5988793828141568,-0.5375042475569143,-0.127086055825226,-2.6556415527470008,-0.06512543888605093,2.125766993924343,0.7408434571830546,-0.15238560004001825,0.019061878034628773,0.04486481458489009,0.0032492347815862937,0.02382055404233316,0.000985657759222013,-0.10348671790839688,0.808229090241227,-0.588823697661839,0.005756532019003103,0.0,-0.5887659998352615,-0.8082395701970316,-0.00917286797631571,0.0,0.010054052576510153,0.00402460589578324,-0.9999413575676188,0.0,0.27622500249033866,-0.24561982027398274,0.3059871285092516,1.0,-0.019929756097563783,-0.02619339372822669,-0.009964878048781892,2.2839999999998604
-0.6010130119695961,-0.5373417072931163,-0.12646527078157085,-2.6554697780823893,-0.06474854285365865,2.1257934520886934,0.7391384785459482,-0.10536177596763086,-0.0029146438431409518,0.03969287105261709,0.007499023508189286,0.020999641479373995,-0.00017241768869860396,-0.09304764122141464,0.8081677677047734,-0.5889071464542908,0.005829150826317014,0.0,-0.5888494218639926,-0.8081790891682588,-0.009146863003986814,0.0,0.010097845210935041,0.0039597839995110795,-0.9999411750862012,0.0,0.2758996817100356,-0.2460726972201165,0.3060240575489385,1.0,-0.019589756097563818,-0.025746536585369593,-0.009794878048781909,2.3009999999998585
-0.6026201023668869,-0.5371147799763264,-0.12599373704029876,-2.65530458579089,-0.06455007851441585,2.125859126459825,0.7378018960857654,-0.08991661782505146,0.024118654499714672,0.02650133645302973,0.01257409690140358,0.006576881066976932,0.0014063560414747898,-0.07827668606098169,0.8081817739038536,-0.5888876841122874,0.005853437596492417,0.0,-0.5888309468272487,-0.8081937587192547,-0.009039431783993393,0.0,0.010054115354380888,0.0038588931077838673,-0.9999420101728017,0.0,0.2756459328827067,-0.2464577913671552,0.30603187289177025,1.0,-0.019249756097563856,-0.0252996794425125,-0.009624878048781928,2.3179999999998566
-0.6043852734934622,-0.5368878757079946,-0.12571344117727917,-2.655110322278971,-0.06436443437418182,2.125895356563922,0.7362128964404643,-0.08957661250748734,0.01110984933623038,0.009405254533866671,0.010478231859479829,0.005009191004348599,-0.0005735823403225104,-0.07715685738668376,0.8081528363791731,-0.5889270759315354,0.005885506625317938,0.0,-0.5888703497754854,-0.8081651978006602,-0.009026135403698381,0.0,0.01007239108100999,0.0038287702986771754,-0.9999419420425921,0.0,0.27534603062451085,-0.2468875133541027,0.30604995747354596,1.0,-0.018889756097563895,-0.024826536585369693,-0.009444878048781948,2.3359999999998546
-0.6059115327303026,-0.5366373019536451,-0.1255872705530509,-2.6550036415344658,-0.06425847437491387,2.1258982783893896,0.7348927406768092,-0.08736419957511785,0.007388495240534111,0.004265439342715293,0.003019052222286505,0.005863065768353551,0.0008474829628674028,-0.0809359592055048,0.8080591868513399,-0.5890567904702055,0.005761514323513359,0.0,-0.5890005166826581,-0.808070303343732,-0.009029014494344434,0.0,0.009974502966359322,0.003902518332515925,-0.9999426381754297,0.0,0.2750238641542623,-0.24729088504689736,0.30601033385050325,1.0,-0.018549756097563933,-0.0243796794425126,-0.009274878048781967,2.3529999999998528
-0.6072443452058406,-0.5365038095852883,-0.12554272098131958,-2.6549110589219524,-0.06422624134944198,2.1259005651726426,0.7337287706227635,-0.08510336246033441,0.011867321613793048,0.0006801714196617142,0.0033237056447270354,0.003358654930256296,-0.001422386250342341,-0.08209064146204856,0.8079689785611753,-0.589180778680523,0.005734685469318332,0.0,-0.5891247413729869,-0.8079798874169692,-0.009015959909038015,0.0,0.00994573228579737,0.003906246031826932,-0.9999429101959962,0.0,0.27472527890484244,-0.24766487590352773,0.3060050992762773,1.0,-0.018249756097563966,-0.02398539372822693,-0.009124878048781983,2.367999999999851
-0.6086047716915174,-0.5363684685617212,-0.12555720958428077,-2.654796767693461,-0.06418259151977941,2.1259169882275897,0.73259122980565,-0.08251339060610859,0.0070094872186740945,-0.0005977719163684335,0.005110637137089752,0.0007444861110580789,0.0016154481010182409,-0.06259838565785909,0.8078123033486263,-0.5893955102575337,0.00574124969471659,0.0,-0.5893392071487923,-0.8078231969837697,-0.00904036688211333,0.0,0.009966458219671237,0.003919451512616412,-0.9999426521608106,0.0,0.27441558049484055,-0.24806536139520066,0.30600899863407627,1.0,-0.017929756097564004,-0.023564822299655553,-0.008964878048782002,2.3839999999998494
-0.6100241208716276,-0.5362029546668241,-0.12559930970018746,-2.654632977934297,-0.06412981054603974,2.1259433235245653,0.7313676099999038,-0.08016975885792306,0.005272928498734505,-0.008126123472258977,0.011060738557708887,0.00321373320382616,-0.0023914309599543278,-0.06931352438158038,0.80765265473889,-0.5896139029988061,0.0057776798930070615,0.0,-0.5895570570866198,-0.8076637695921667,-0.009080673364009625,0.0,0.010020706915554178,0.0039278336177178685,-0.9999420771004607,0.0,0.2740984225817715,-0.24849991727716184,0.30602474514105615,1.0,-0.017589756097564038,-0.023117965156798453,-0.008794878048782019,2.4009999999998475
-0.611416465502879,-0.5360172695178327,-0.12559830696998295,-2.654469542764658,-0.0640847813447969,2.1260177431742298,0.7300727897395578,-0.07796147000867623,0.011739680010426454,0.00033726282630431063,0.012822184359089658,0.004677721369103474,0.003529110604627398,-0.07107441767090687,0.8075748260789991,-0.5897198597214922,0.005842451090601121,0.0,-0.589662679760884,-0.807586567365333,-0.0090888508349609,0.0,0.010078354900243669,0.003894926755255379,-0.9999416264503025,0.0,0.2738027926523973,-0.2489238461796553,0.30603821905573336,1.0,-0.017249756097564076,-0.02267110801394136,-0.008624878048782038,2.4179999999998456
-0.612749601799249,-0.5358886730721956,-0.12558636264270043,-2.6543231905765463,-0.06404973132451919,2.1260431157043604,0.7289126178666308,-0.07629039991099042,0.01263081581251414,0.0018191783319342417,0.006407467965552045,-0.00040802005982851306,0.002387745550660176,-0.07140262313610306,0.8074621062713921,-0.5898736485070322,0.005896832537694141,0.0,-0.5898162592142498,-0.8074744075001976,-0.00908892182395854,0.0,0.010123051736911137,0.0038609865870701254,-0.9999413065805942,0.0,0.2735119860799537,-0.24931991470739776,0.30606068874116854,1.0,-0.016909756097564115,-0.022224250871084268,-0.008454878048782057,2.4349999999998437
-0.6139312933333183,-0.5357239548954997,-0.12554843716463937,-2.654181196098278,-0.0640163733578252,2.1260380455643877,0.7278029234268818,-0.07715758533662768,0.007323414692004485,-0.00028248792374945843,0.008186827096621508,0.00622468554638871,1.5706380930484437e-05,-0.07338440271570305,0.8074233478076729,-0.5899268674905997,0.005880078994862115,0.0,-0.589869674224681,-0.807435533217536,-0.009076013937304311,0.0,0.010102163687868204,0.0038597795896104237,-0.9999415224853616,0.0,0.2732569146094979,-0.24966291096149948,0.30606579603931117,1.0,-0.01658975609756415,-0.021803679442512883,-0.008294878048782074,2.450999999999842
-0.6151398751545488,-0.5355496523183184,-0.12552085452825393,-2.6540531846665885,-0.06396915657695051,2.126075945124255,0.7266282011646412,-0.07160658151871763,0.010001013970075218,0.004033990410357719,0.0034785942187686965,0.007469026695550409,0.0010975692237587778,-0.06124344149854326,0.8073977056011175,-0.5899619243621479,0.005883850284542518,0.0,-0.589904692279291,-0.807409922134442,-0.009078467213011717,0.0,0.010106823675015086,0.0038590970062160612,-0.9999414780303388,0.0,0.2729971489328416,-0.25001604585528014,0.30606456547558997,1.0,-0.016249756097564187,-0.02135682229965579,-0.008124878048782093,2.46799999999984
-0.616364833599081,-0.5353508743254023,-0.12544953731831426,-2.653937787937417,-0.0639349826341502,2.1260862419747846,0.7255747089558856,-0.06822985128460327,0.00782080215707175,0.0034209713056193125,0.008763269783073036,-0.00028137529967554506,-0.0001388257200626477,-0.06730294982761871,0.8073181369293538,-0.5900714197481558,0.005821707869757468,0.0,-0.5900147093278263,-0.8073298425279158,-0.009050692893887964,0.0,0.010040787019600261,0.0038719697958639054,-0.9999420935463849,0.0,0.2727328405948516,-0.2503577277244308,0.30604711838092336,1.0,-0.015909756097564225,-0.020909965156798698,-0.007954878048782112,2.4849999999998382
-0.6175705399885657,-0.5351654180547054,-0.12541386819485975,-2.6538354662429384,-0.06389642576518663,2.126113217890781,0.7244516975678157,-0.06797860608483333,0.01143729173022254,0.0008676151883247263,0.005453714777759437,0.0023983211165585685,0.00020610921811852707,-0.07353557363884052,0.8072717378114571,-0.5901353350190888,0.005777074864191707,0.0,-0.5900788560454202,-0.8072830227747745,-0.00904498142393497,0.0,0.010001690165544919,0.0038929030958693156,-0.9999424040910151,0.0,0.27246580538933196,-0.250700603670312,0.30602920344810053,1.0,-0.015569756097564263,-0.020463108013941606,-0.007784878048782131,2.5019999999998364
-0.6187436583633288,-0.5349812384250848,-0.1254049366702267,-2.6537286564248483,-0.06386076979754252,2.126144474515259,0.7233697782031073,-0.0734710743422074,0.013622654103862725,-0.0008224947368539501,0.005823894496525616,0.0003941928086134474,-0.0010555305481475146,-0.06349273283550629,0.8072073638004597,-0.5902237295303273,0.0057417616488124115,0.0,-0.5901673384613332,-0.8072182821636903,-0.009050108031148143,0.0,0.00997663557069467,0.003916789065900317,-0.9999425611034382,0.0,0.2722024896466532,-0.25104229423038643,0.30601354717554696,1.0,-0.0152297560975643,-0.02001625087108451,-0.00761487804878215,2.5189999999998345
-0.6199182585353948,-0.5348105049946751,-0.12540011437032514,-2.653599406988764,-0.06382521536741974,2.126173502300447,0.7223401668857972,-0.07123747322863802,0.010567101319154617,-0.0017790650865090873,0.008475479643195163,-0.000611453077842111,0.002565476952445049,-0.05953723749004108,0.807108185341375,-0.5903593672492701,0.005739473599782689,0.0,-0.5903029305379871,-0.8071190681861568,-0.009055764450509495,0.0,0.009978786077251056,0.003921029018791544,-0.9999425230281278,0.0,0.2719427195908915,-0.25139052808569223,0.306012809980572,1.0,-0.014889756097564336,-0.019569393728227417,-0.007444878048782168,2.5359999999998326
-0.6210116363208231,-0.5346459473762459,-0.12539425411912286,-2.653475503834925,-0.06378459893545121,2.1262045202762634,0.7213779875238676,-0.06876020090471224,0.011684611296687355,-0.000324961076755994,0.006274660104094548,0.0008474474054377286,-0.0002955704357065001,-0.06073587279321707,0.8070162575790916,-0.5904850233022955,0.0057397003347807556,0.0,-0.5904284846565193,-0.8070271110929482,-0.009066055833962305,0.0,0.009985656224920314,0.003927647498465359,-0.9999424284702021,0.0,0.271702801814682,-0.2517147214896825,0.3060120911483536,1.0,-0.014569756097564373,-0.019148822299656035,-0.0072848780487821865,2.551999999999831
-0.6222000559487222,-0.5344716883020053,-0.1253712991257276,-2.6533465191052663,-0.06374970624865271,2.1262250031304397,0.7202740419455655,-0.064466060985537,0.012072112116780767,-0.00024791572025449973,0.005240755734925552,0.0010292653717949355,-0.0003193984560248625,-0.05373664598686623,0.8069623372096483,-0.5905588435317727,0.005725866988090062,0.0,-0.5905024001449121,-0.8069730735580395,-0.00906205697384955,0.0,0.009972490370001474,0.003931676173116683,-0.9999425440285504,0.0,0.27144091932083225,-0.2520609563031017,0.3060095885568536,1.0,-0.014209756097564412,-0.01867567944251323,-0.007104878048782206,2.569999999999829
-0.6232648179536155,-0.534336470868788,-0.12536088214410662,-2.653248775417266,-0.06370982384303646,2.126251530478548,0.7193334917158776,-0.0601351607122184,0.004157644706126307,-0.0010255060580111153,0.0050941457251782825,-0.00026856732805934607,0.0004536743864368815,-0.049077825344667876,0.8068780652455981,-0.5906739890930554,0.005724800051173476,0.0,-0.5906174452868805,-0.8068887571341633,-0.009072697200518521,0.0,0.009978475161964762,0.003939469429705356,-0.9999424536512362,0.0,0.27120212374467395,-0.2523693123670157,0.3060073540678995,1.0,-0.01386975609756445,-0.01822882229965614,-0.006934878048782225,2.586999999999827
-0.6243176731729427,-0.534161214387556,-0.12532870348212152,-2.6531238690313264,-0.06367071271002266,2.126285044398204,0.718385567907435,-0.05759396589535414,0.0096028110763231,-0.00014297472778360522,0.0046493425994869044,0.005075623362537231,0.0008661278091984721,-0.05659147621884049,0.8068154897237353,-0.5907595276384842,0.005717774690608526,0.0,-0.5907030586989345,-0.8068261357164191,-0.009068079721863985,0.0,0.009970496514551785,0.003938836017754577,-0.9999425357339682,0.0,0.2709770764586967,-0.252676561101843,0.30600398417475394,1.0,-0.013529756097564486,-0.017781965156799043,-0.006764878048782243,2.603999999999825
-0.6252164499575092,-0.5340231780377815,-0.1253094545350128,-2.652996896089584,-0.06364199696995092,2.1263100312929097,0.7175200676095983,-0.057646392952581414,0.010155423433819621,-0.000774490914746131,0.0023078781900871936,0.005949928560392611,0.00014979341823986552,-0.05336512214952056,0.8067895166005117,-0.5907947548511655,0.005742860356310207,0.0,-0.590738237131132,-0.8068004348235468,-0.009063137478092642,0.0,0.009987988616885712,0.003919592566160313,-0.99994243678199,0.0,0.2707736124990199,-0.2529634803509702,0.30601569770240666,1.0,-0.013209756097564522,-0.01736139372822766,-0.006604878048782261,2.6199999999998234
-0.6262309744125205,-0.5338470198558822,-0.12530654035838953,-2.652871479156355,-0.06360541567902857,2.126340111806226,0.7166336795932479,-0.06284330677789647,0.010264987511687635,0.0005414695970333743,0.008348585049250163,0.0041208296436515655,0.0010700710506025227,-0.05225578874235611,0.8067013015323194,-0.5909153415777632,0.005728533434093812,0.0,-0.5908588032539295,-0.8067120542892469,-0.009070996801124042,0.0,0.009981660325761865,0.003932906237025802,-0.999942447696702,0.0,0.27056420803650927,-0.2532486694045941,0.30600966731224005,1.0,-0.012889756097564556,-0.016940822299656277,-0.006444878048782278,2.6359999999998216
-0.6272074493593687,-0.5337288861312484,-0.12529989765259886,-2.652771738889283,-0.06357040147252288,2.126352056819913,0.7157839435508292,-0.05544041252093748,0.00482897998477867,0.00023283994152038906,0.007750760377976765,0.004824636750626845,-0.0005717550842203381,-0.04480958873326181,0.8066150699753883,-0.5910330210369703,0.005730953997326426,0.0,-0.5909763761793273,-0.8066258163114834,-0.0090808677444271,0.0,0.009990020481814244,0.003937982164077425,-0.9999423442315303,0.0,0.27034376284105494,-0.2535324552446069,0.3060132092813425,1.0,-0.012549756097564594,-0.016493965156799184,-0.006274878048782297,2.6529999999998197
