nelsonifechukwu/NELSON_IML_WORK/CNN-GradCAM/train2dof/data_sample_2022-02-22-08-55-29/robot_state.csv
position_joint1,position_joint2,position_joint3,position_joint4,position_joint5,position_joint6,position_joint7,velocity_joint1,velocity_joint2,velocity_joint3,velocity_joint4,velocity_joint5,velocity_joint6,velocity_joint7,ee_T_00,ee_T_10,ee_T_20,ee_T_30,ee_T_01,ee_T_11,ee_T_21,ee_T_31,ee_T_02,ee_T_12,ee_T_22,ee_T_32,ee_T_03,ee_T_13,ee_T_23,ee_T_33,v_x,v_y,time
0.465069458569,0.547798125421,-0.123991757978,-1.35583520397,0.0795728290074,1.89410976007,0.15914603789,0.000842468616773,0.000777410414589,0.00162000804442,-0.000310304476319,-0.000251367232226,0.000109731688667,0.000900198555047,0.573820216852,0.818967158679,0.00197449702818,0.0,0.818923685674,-0.573760909648,-0.0119650533989,0.0,-0.00866626342701,0.0084829152421,-0.99992646531,0.0,0.661675718752,0.260897748873,0.303202373385,1.0,0.0,0.0,0.0
0.465071533995,0.547798125409,-0.123996693351,-1.35583269832,0.0795727895524,1.89410597758,0.159139018847,0.00119753124529,0.000173462528619,0.000677118007974,0.000494584954428,-0.000138266601263,-0.000243757843253,-0.00134169696545,0.573816043462,0.818970088008,0.00197233772065,0.0,0.818926609408,-0.573756767938,-0.0119635508725,0.0,-0.00866631504848,0.00848024054051,-0.99992648755,0.0,0.66167613301,0.260896299865,0.303203400722,1.0,-0.00018,-0.000236571428571,0.01
0.465060989236,0.547788452331,-0.123994625804,-1.35583086567,0.0795697077257,1.89410931509,0.159138200668,-0.00169199378563,-0.0014823874351,0.000707738775995,0.00111953406447,-0.000287052952281,-3.57663902578e-05,-0.000674426155985,0.573821654315,0.818966128813,0.00198388436395,0.0,0.818922826536,-0.573762354886,-0.0119545470277,0.0,-0.00865225751928,0.00848458949751,-0.999926572395,0.0,0.661679926262,0.260890594149,0.303211341147,1.0,-0.00054,-0.000709714285714,0.028
0.465065456104,0.547780770666,-0.123997650525,-1.35585389185,0.0795701996219,1.89411279907,0.159142205862,-0.000165963423611,0.000160395227152,0.00231785340329,-0.00148768774281,3.70876565851e-05,-0.000334999561951,0.000193906171385,0.573824787755,0.818963957226,0.00197398661005,0.0,0.818920516702,-0.573765520441,-0.0119608435295,0.0,-0.00866306108481,0.00848012990314,-0.999926516685,0.0,0.661675045284,0.260889480666,0.303206227414,1.0,-0.00084,-0.001104,0.043
0.465065155976,0.547691878116,-0.123997966209,-1.3559401802,0.0795670057883,1.89413099461,0.159145306459,-0.000952227915062,-0.00762857482572,-0.000975602564607,-0.00254452369848,-0.000347617534623,0.00110944185213,0.00147230820499,0.573831628251,0.818959115638,0.00199404972923,0.0,0.81891590464,-0.57377224456,-0.0119540538124,0.0,-0.00864591741026,0.00849273671276,-0.999926558071,0.0,0.661661576768,0.260880747021,0.303229715134,1.0,-0.00118,-0.00155085714286,0.06
0.465057750257,0.54755364078,-0.123992440707,-1.3561265427,0.0795692597389,1.89416909475,0.15913778423,-0.00185129191437,-0.0113575239216,0.000410011951986,-0.0125226366128,0.000168908016515,-4.14865818695e-05,0.000398347140816,0.573838465656,0.818954320332,0.0019958570247,0.0,0.818910939968,-0.573778884045,-0.011975455116,0.0,-0.00866233686565,0.00850656971926,-0.99992629838,0.0,0.661630637345,0.26086168931,0.303242070997,1.0,-0.00154,-0.002024,0.078
0.465044640569,0.547403323211,-0.123997729446,-1.35634440798,0.079564487029,1.89426103944,0.159128711212,-0.00101881802498,-0.00943767641417,0.000173377524154,-0.0153810379849,-5.74420297685e-05,0.0120219499909,-0.00105594094425,0.573856472382,0.818941644941,0.00201945231989,0.0,0.818898540181,-0.573796757902,-0.01196697171,0.0,-0.00864166268207,0.00852121478712,-0.99992635257,0.0,0.661607896243,0.260831541947,0.303253007347,1.0,-0.00188,-0.00247085714286,0.095
0.465026303327,0.54723818826,-0.123995765249,-1.35652558521,0.0795619355921,1.89436804027,0.159127610009,-0.0054785675213,-0.00965493613901,0.00110009952955,-0.0141989260761,3.98503941293e-05,0.000832483888968,-0.000317945588688,0.573883839275,0.818922231304,0.00211305360737,0.0,0.818880316763,-0.573823704743,-0.0119218117199,0.0,-0.00855068103266,0.00857223813043,-0.999926698607,0.0,0.661596557604,0.260803741189,0.303300063023,1.0,-0.0022,-0.00289142857143,0.111
0.465000182626,0.547019944467,-0.123992554103,-1.3567940642,0.079558869861,1.89449848437,0.159110851399,-0.00157219437185,-0.0190244152989,0.000644100028033,-0.0180109574632,0.000202098529889,0.00260982559655,-0.00280757232972,0.573902754569,0.818908773307,0.0021900229383,0.0,0.818867751652,-0.57384219546,-0.0118948272824,0.0,-0.00848421419489,0.00861997926333,-0.999926854358,0.0,0.661571939657,0.260768806841,0.303337950956,1.0,-0.00256,-0.00336457142857,0.129
0.464960782389,0.546792518891,-0.124000136523,-1.35713412727,0.0795576382103,1.89463427713,0.159093465587,-0.00298958839886,-0.0160369143105,-0.000455156580917,-0.020138393103,0.000281277116433,2.37850882131e-05,-0.00302093634356,0.573940752685,0.818882101315,0.00220532402485,0.0,0.818841194101,-0.573880041181,-0.0118972298256,0.0,-0.00847700032571,0.00863428143551,-0.999926792145,0.0,0.661540158664,0.26071321481,0.303342237936,1.0,-0.00288,-0.00378514285714,0.145
0.464927873147,0.546535968313,-0.123998378887,-1.35750790959,0.0795500970897,1.8947733968,0.159051624461,-0.000860345268353,-0.0194176078281,-0.000609455809728,-0.0283571843383,0.000306620757217,0.0106265994551,-0.00681070223675,0.573951111124,0.818874766481,0.00223288178291,0.0,0.818834077919,-0.573890144869,-0.0118996370457,0.0,-0.00846304659697,0.00865833629994,-0.999926702341,0.0,0.661497510761,0.260659687527,0.303358028027,1.0,-0.0032,-0.00420571428571,0.161
0.464884102053,0.546228165817,-0.123998854936,-1.3579964801,0.0795418131567,1.89494568831,0.158913000437,-0.000775539921044,-0.0199818829891,-0.00039093132137,-0.0290864948465,-0.000118855527493,0.0105553429087,0.00143629466036,0.573898875477,0.818911361787,0.00223811619978,0.0,0.818870531977,-0.573837680544,-0.0119212058793,0.0,-0.00847825876462,0.00867446106184,-0.999926433721,0.0,0.661439838672,0.260586857013,0.3033584131,1.0,-0.00356,-0.00467885714286,0.179
0.464834874121,0.545917857042,-0.123993843407,-1.35852914573,0.0795307873584,1.89512433696,0.158889435519,-4.32012872367e-05,-0.0225762329054,0.0013309577936,-0.0296496720315,0.000141323529237,0.00983965854934,-0.000626252573641,0.573943197,0.818880367749,0.00221287920672,0.0,0.818838963561,-0.57388184836,-0.011963393261,0.0,-0.0085268208315,0.00867846697871,-0.99992598603,0.0,0.66137364409,0.260508377003,0.303339930483,1.0,-0.0039,-0.00512571428571,0.196
0.464782398082,0.54561680804,-0.12400131903,-1.35905399359,0.0795024110504,1.89530061025,0.158828587824,-0.00380458719803,-0.0208374946285,-0.000777910670759,-0.0340647351617,-0.00575783499413,0.010128907703,-0.0113721615998,0.573970222823,0.818861564933,0.00216048348222,0.0,0.818819447944,-0.573909056848,-0.011993874992,0.0,-0.00858156742971,0.00865333959748,-0.99992573545,0.0,0.661308869506,0.260408329075,0.30331227769,1.0,-0.00422,-0.00554628571429,0.212
0.464719805331,0.545212482828,-0.123999181945,-1.35978106921,0.0793873503245,1.89552275586,0.158715289753,-0.00308396177086,-0.0184274814674,-8.6085334502e-05,-0.0393720025666,-0.002418229167,0.0162072991388,-0.0131939745555,0.573930138727,0.818889950254,0.00204747032054,0.0,0.818846907034,-0.573869997314,-0.0119881576546,0.0,-0.00864216642654,0.00855709447557,-0.999926041812,0.0,0.661223291257,0.260293635094,0.303277945202,1.0,-0.00456,-0.00599314285714,0.229
0.464654604874,0.544785025528,-0.124002028471,-1.36049022615,0.0793716879194,1.89576221486,0.15864796427,-0.0046935252747,-0.0247249130985,0.000812429947707,-0.0422806584373,0.000257691911932,0.0167509348354,0.000351099194457,0.573965711844,0.81886507218,0.00202536221476,0.0,0.818821467231,-0.573905389619,-0.0120314366896,0.0,-0.00868992429023,0.00856420707194,-0.999925567016,0.0,0.661137779914,0.260184020498,0.303263841901,1.0,-0.0049,-0.00644,0.246
0.46459265425,0.544369373637,-0.124002028734,-1.36119703888,0.0793496736107,1.89601212147,0.158551797792,-0.00203044425601,-0.0233210313781,0.000342493736818,-0.0504005099703,0.00025440606325,0.0153273180523,-0.00142718448674,0.573971265114,0.818861240077,0.00200080582744,0.0,0.818817095777,-0.57391083268,-0.0120692458973,0.0,-0.00873492169809,0.00856585927281,-0.999925160798,0.0,0.661053348325,0.260078010184,0.30324326382,1.0,-0.00522,-0.00686057142857,0.262
0.464523604806,0.543856438525,-0.124007721699,-1.36200576153,0.0793168698903,1.8963016627,0.158463726923,-0.00628904697856,-0.0317011086909,0.000400921593682,-0.0531452455537,-0.00178563509407,0.0132367751777,-0.00448784704012,0.57399597925,0.818843911949,0.00200264067977,0.0,0.818799653836,-0.573935400625,-0.0120842743888,0.0,-0.00874591651873,0.0085762515261,-0.999924975613,0.0,0.660959603351,0.259954143885,0.303246582973,1.0,-0.00556,-0.00730742857143,0.279
0.464448877758,0.543327448354,-0.124008519828,-1.36285360887,0.0792756493876,1.89659758767,0.158334452784,-0.00270628778586,-0.0308171429033,-0.00150641065467,-0.0523061417867,-0.000262260478908,0.0150705710505,-0.00849810540564,0.573988030658,0.818849517842,0.00198864093132,0.0,0.818804951219,-0.573927391142,-0.0121057200532,0.0,-0.00877159640751,0.0085770125879,-0.999924744144,0.0,0.66085924808,0.259824001772,0.303242959344,1.0,-0.0059,-0.00775428571429,0.296
0.464366867691,0.54276688475,-0.124010929804,-1.36373615557,0.0792235138457,1.89690638309,0.158249752155,-0.00585698179404,-0.035055580003,-0.000845382859883,-0.0572773057195,-0.00386340382915,0.0144976645433,-0.00284894128121,0.574022623524,0.818825295591,0.00197734249676,0.0,0.818780551369,-0.573961999962,-0.0121152053234,0.0,-0.00878548627385,0.00857357659193,-0.999924651669,0.0,0.660757040817,0.259683525342,0.303246239522,1.0,-0.00624,-0.00820114285714,0.313
0.464292303131,0.542170319532,-0.124011617513,-1.36466087639,0.0791724193936,1.89724708069,0.158108813227,-0.0052898428796,-0.0360064007371,-0.000125259498356,-0.054028233513,-0.00435156124621,0.018882338593,-0.011446098199,0.57400653459,0.818836542241,0.00199053747117,0.0,0.81879191908,-0.573945804883,-0.0121141738618,0.0,-0.00877723659505,0.00858361621505,-0.999924637985,0.0,0.66064990102,0.259546775855,0.303257550268,1.0,-0.00658,-0.008648,0.33
0.464190757367,0.541545502865,-0.124011515051,-1.36561904595,0.0791135757491,1.89759425787,0.157976783896,-0.0100986214777,-0.03715539231,0.00122861393511,-0.0587374540923,-0.000608197088702,0.0214761806,-0.00443680230727,0.574018950632,0.818827810155,0.00200213230449,0.0,0.818783330607,-0.573958160759,-0.0121092575916,0.0,-0.00876642548207,0.00859042128446,-0.999924674386,0.0,0.660544180551,0.259388257076,0.303273357026,1.0,-0.00692,-0.00909485714286,0.347
0.464114505622,0.540902756595,-0.124022609193,-1.36658639273,0.0790536611347,1.89796249249,0.157863074536,-0.00771072010523,-0.04012152201,-0.00161198455891,-0.0595798446824,-0.00705422142951,0.0221770768694,-0.00139640922261,0.574033767883,0.818817340536,0.00203545306924,0.0,0.818773379862,-0.573972913159,-0.0120828096913,0.0,-0.00872548716256,0.00860268119104,-0.999924927057,0.0,0.660436919737,0.259240367077,0.30329957403,1.0,-0.00724,-0.00951542857143,0.363
0.464017959102,0.540190763461,-0.124020507198,-1.36769380919,0.0789929538959,1.89836172323,0.157714575086,-0.00136560184406,-0.0443792074592,-0.000444825607824,-0.0652000777201,-0.00561674164652,0.0227597246867,-0.0115888317486,0.574034838761,0.818816571546,0.00204278033777,0.0,0.818772613819,-0.573973860654,-0.0120897083349,0.0,-0.00872691903309,0.00861265219157,-0.999924828728,0.0,0.66030740474,0.259072987247,0.303310234317,1.0,-0.00758,-0.00996228571429,0.38
0.463914159532,0.539401137592,-0.124022875956,-1.3689175574,0.0789184867955,1.89882621577,0.157567590833,-0.00388928546551,-0.0457299739175,-0.000175301159436,-0.0726888289449,-0.00323730460986,0.0235226511007,-0.00452680472437,0.574049039749,0.81880655533,0.0020668365972,0.0,0.818762937877,-0.573987981705,-0.012074573207,0.0,-0.00870056784062,0.00862381239438,-0.999924962174,0.0,0.660169503791,0.258887650008,0.303326053829,1.0,-0.00794,-0.0104354285714,0.398
0.463817940878,0.538733792948,-0.124024680251,-1.36994870026,0.078859019812,1.89922401475,0.157436001977,-0.00593385833817,-0.0445141394961,-0.00116959409365,-0.0672867884875,-0.00119259991635,0.0230793637981,-0.0132737666058,0.574062544404,0.818797013144,0.00209601543351,0.0,0.818753777592,-0.574001360415,-0.0120597189412,0.0,-0.00867151309165,0.00863931982797,-0.9999250807,0.0,0.660056476115,0.2587268149,0.303341242661,1.0,-0.00824,-0.0108297142857,0.413
0.46370516642,0.537902804325,-0.12403279958,-1.37125584523,0.0787850803105,1.89972414614,0.157276698931,-0.00301299642356,-0.0450372839003,-0.000169462109657,-0.0747435820487,-0.00598614519324,0.029880692063,-0.0102759680012,0.574082657785,0.818782860374,0.00211577160896,0.0,0.818739890129,-0.574021394457,-0.0120489799839,0.0,-0.00865116668826,0.00864954359794,-0.999925168555,0.0,0.659910574322,0.258525384937,0.303349612585,1.0,-0.0086,-0.0113028571429,0.431
0.463594639181,0.537089552515,-0.124041454384,-1.37252606431,0.0787151254439,1.90019056627,0.157116598044,-0.00308674409688,-0.0491541331748,-0.000952319514593,-0.0753974997074,-0.00458951397127,0.0256206725286,-0.0138447934283,0.574099425224,0.818771079562,0.00212511939823,0.0,0.818728195864,-0.57403808458,-0.0120484708284,0.0,-0.00864520644542,0.00865708202399,-0.999925154867,0.0,0.659765059549,0.258327652598,0.303359974762,1.0,-0.00894,-0.0117497142857,0.448
0.463490941116,0.536345872037,-0.124045054755,-1.37368808664,0.0786481538523,1.9006367556,0.156974483986,-0.00630855372093,-0.0471331520591,-0.00119648701919,-0.0807130466963,-0.000366014846358,0.0294158482382,-0.0131455088278,0.574116646696,0.818758942914,0.00214855447977,0.0,0.818716367734,-0.574055207385,-0.0120364022635,0.0,-0.00862168910048,0.00866952254051,-0.999925250134,0.0,0.659635422592,0.258148410281,0.303370660622,1.0,-0.00924,-0.012144,0.463
0.463377362949,0.535417558575,-0.124049569659,-1.37516707679,0.0785608031526,1.90116912422,0.15679554115,-0.0046428261657,-0.046613900142,-0.000382085762448,-0.0829410260668,-0.00316462496262,0.0298949286982,-0.0129242014648,0.574124114464,0.818753748498,0.00213246640596,0.0,0.818710925087,-0.574062703821,-0.0120490716069,0.0,-0.00864121948353,0.0086637029135,-0.999925131986,0.0,0.659457854002,0.257929489501,0.303368138979,1.0,-0.0096,-0.0126171428571,0.481
0.46325353078,0.534469940131,-0.124046770343,-1.37671026754,0.078484896757,1.90171996409,0.156608272324,-0.00512982851552,-0.051861144573,0.000686476087549,-0.0906573163502,-0.00239892998676,0.0253177525298,-0.0115500054022,0.574134490831,0.818746546622,0.0021037429107,0.0,0.818703119445,-0.574072972982,-0.0120901118072,0.0,-0.00869120267589,0.00866385787616,-0.999924697446,0.0,0.659269504521,0.257703801466,0.303349886335,1.0,-0.00996,-0.0130902857143,0.499
0.463143670641,0.533657648206,-0.124050313264,-1.37801070275,0.0784037526771,1.90219629936,0.156448879216,-0.0093485110505,-0.0583490947351,-0.000208649345052,-0.0889234651564,-0.00357687848567,0.0327520117483,-0.0120393221956,0.57414588222,0.818738592189,0.002090572122,0.0,0.818695006924,-0.574084433621,-0.012095272345,0.0,-0.00870286889649,0.00865615842698,-0.999924662659,0.0,0.659116970917,0.257504808252,0.303345250587,1.0,-0.01026,-0.0134845714286,0.514
0.463007894658,0.532713882184,-0.124049723743,-1.37953728228,0.0783284022899,1.90277482408,0.156258195858,-0.00528571942808,-0.0605264556653,0.000669078994602,-0.0913166770636,-0.0098150211546,0.0292387581177,-0.00979060848324,0.574163966585,0.818725900401,0.00209437063347,0.0,0.818682203622,-0.574102338931,-0.0121120109016,0.0,-0.00871420172722,0.00866907109449,-0.999924452094,0.0,0.658940711365,0.257273884743,0.303334293713,1.0,-0.0106,-0.0139314285714,0.531
0.462864799329,0.531679556874,-0.124050051853,-1.38118726136,0.0782339098467,1.90337025266,0.156052646633,-0.00848781657974,-0.0559927391535,-0.00274174936535,-0.0899066521543,-0.00298520387529,0.0311066954059,-0.00903977531529,0.574177686723,0.818716316426,0.00207946824373,0.0,0.818672329843,-0.574116027786,-0.0121305354879,0.0,-0.00873777951231,0.00866765279628,-0.999924258634,0.0,0.658744157628,0.257022244739,0.303329692793,1.0,-0.01096,-0.0144045714286,0.549
0.462735146417,0.530733118243,-0.124055271578,-1.38272923157,0.0781373463116,1.90391813364,0.155847903033,-0.00847997916705,-0.0610649159559,-0.000893739548609,-0.0940524447178,-0.00612674758333,0.0339067276449,-0.00789919551674,0.574177835326,0.818716323169,0.00203531284302,0.0,0.81867174834,-0.5741163596,-0.0121540532853,0.0,-0.00878238450539,0.0086450075726,-0.9999240639,0.0,0.65855831981,0.256784759572,0.303310373289,1.0,-0.01128,-0.0148251428571,0.565
0.462590256611,0.529698778366,-0.124050542201,-1.38436575966,0.0780330323209,1.90452297445,0.155636274135,-0.0089811475823,-0.0627584765378,0.00178594781645,-0.0962719667697,-0.00172870969965,0.0385702695214,-0.0183629026564,0.574180774322,0.818714262728,0.00203502006492,0.0,0.818669683398,-0.574119298853,-0.01215430255,0.0,-0.00878272565308,0.0086449425237,-0.999924061466,0.0,0.658365720178,0.256535589321,0.303312357903,1.0,-0.01162,-0.015272,0.582
0.462451694593,0.528543959717,-0.124059162073,-1.38614989687,0.0779231023105,1.90519816531,0.155385799596,-0.0101805859188,-0.0677784325487,0.000785303966182,-0.104498409919,-0.00880316188317,0.0352007246456,-0.00973033871515,0.574165067938,0.818725182594,0.00207293211834,0.0,0.818681120824,-0.574103449363,-0.012132548631,0.0,-0.00874331394974,0.00866332279484,-0.99992424778,0.0,0.658168140419,0.256286126209,0.303337573327,1.0,-0.01196,-0.0157188571429,0.599
0.462322390943,0.527490989221,-0.12406156027,-1.38776594075,0.0778185756823,1.90583113434,0.155155514596,-0.00850064877262,-0.0714421949729,-0.000103318505931,-0.100102172862,-0.0133841293083,0.0429526571764,-0.0101950752591,0.574141072632,0.818741877578,0.00212450420146,0.0,0.818698639558,-0.574079382726,-0.0120891197712,0.0,-0.00867840164527,0.00868035601581,-0.999924665545,0.0,0.657972043416,0.256032302858,0.303362184083,1.0,-0.0123,-0.0161657142857,0.616
0.4621683937,0.526347161592,-0.124064984189,-1.38956010255,0.0777101379688,1.90650837927,0.154915172014,-0.0101185368276,-0.0626980856386,-0.000345793419937,-0.105318950787,-0.00634280083324,0.0365379260517,-0.012971877491,0.574140619336,0.818742140246,0.00214567379036,0.0,0.818699188516,-0.574078848632,-0.0120773000957,0.0,-0.00865657525555,0.00869089727456,-0.999924763174,0.0,0.657762775703,0.255759447555,0.303371968756,1.0,-0.01264,-0.0166125714286,0.633
0.462005802802,0.525083753182,-0.124063405125,-1.39151150059,0.0775920398827,1.90720012718,0.154651356762,-0.0136366010508,-0.0703050761889,0.00027747513336,-0.107910452211,-0.005248075694,0.0370310286611,-0.0163387211706,0.57412973063,0.818749762551,0.0021507278556,0.0,0.818706796109,-0.574067858656,-0.0120839796587,0.0,-0.0086592584592,0.00869875497635,-0.999924671615,0.0,0.657523626353,0.255466250704,0.303391794317,1.0,-0.013,-0.0170857142857,0.651
0.461870794365,0.524050845534,-0.124074424264,-1.39318086376,0.0774821091373,1.90779642911,0.154419685345,-0.00908894215776,-0.0669695459159,0.000248871167074,-0.110837260467,-0.00747088990229,0.0448370129654,-0.0207019549046,0.574118385577,0.818757826827,0.0021088510499,0.0,0.818714376581,-0.57405675823,-0.0120977192937,0.0,-0.00869466956048,0.0086722367101,-0.999924594673,0.0,0.657320411355,0.25520919037,0.303375609411,1.0,-0.0133,-0.01748,0.666
0.461707185757,0.522748766944,-0.124080475193,-1.39521399555,0.0773635746079,1.90858411695,0.154150589012,-0.0110293407275,-0.0755029782684,0.000226899062549,-0.111689124412,-0.0143147830173,0.0466152059837,-0.0158265976537,0.574113678199,0.818761003949,0.00215634377529,0.0,0.818718186486,-0.574051860341,-0.01207226813,0.0,-0.00864661569245,0.00869645955926,-0.999924800987,0.0,0.657082990739,0.254908148369,0.30339164941,1.0,-0.01366,-0.0179531428571,0.684
0.461539224312,0.52152912669,-0.124083677926,-1.39718823043,0.0772367339834,1.90935158581,0.153888483558,-0.0124384884919,-0.0687165011091,-0.00196098340542,-0.1161972495,-0.00598518118348,0.0444263426443,-0.0193791617464,0.574110576169,0.818763170866,0.00215945946921,0.0,0.81872048893,-0.574048840897,-0.0120596920536,0.0,-0.00863456274226,0.00869175780902,-0.99992494602,0.0,0.656853446719,0.254609152654,0.303375605873,1.0,-0.014,-0.0184,0.701
0.461385465791,0.52031756045,-0.124084158081,-1.39910564811,0.0771248638707,1.91005289068,0.153627971256,-0.00886380284141,-0.0755905326217,-0.00103171019389,-0.1227869093,-0.0103343457422,0.0468930891179,-0.0182282939311,0.574095657477,0.818773636288,0.0021576575348,0.0,0.818730844474,-0.574033844879,-0.0120704656305,0.0,-0.00864457702025,0.00869631010868,-0.999924819913,0.0,0.656618166139,0.254325708826,0.303374765577,1.0,-0.01432,-0.0188205714286,0.717
0.461211994085,0.518999901258,-0.12409282101,-1.40116940164,0.0769928404274,1.91078147948,0.153352732847,-0.0137326957054,-0.0825421993518,-0.00103514936936,-0.124209348345,-0.0145609006269,0.0437186928256,-0.0193194459996,0.574092412735,0.818775962534,0.0021381578086,0.0,0.818732928986,-0.574030696721,-0.012078787907,0.0,-0.00866261976047,0.00868508791254,-0.999924761303,0.0,0.656363843416,0.254007258385,0.303381003294,1.0,-0.01466,-0.0192674285714,0.734
0.461033233889,0.517639688811,-0.124090780321,-1.4032944654,0.076855156317,1.91154615273,0.153071556332,-0.0111823249496,-0.0863093708207,0.000361558553023,-0.120033642226,-0.0104366713137,0.0468349503075,-0.0156937791649,0.57408196933,0.818783307772,0.00212939092231,0.0,0.818740203038,-0.574020335551,-0.0120781291464,0.0,-0.00866722371338,0.00867742118953,-0.999924787969,0.0,0.656087672545,0.253662870823,0.303389815107,1.0,-0.01502,-0.0197405714286,0.752
0.460869986166,0.516457171704,-0.124099292316,-1.40518195607,0.0767326685816,1.91224772094,0.152795584526,-0.0115521485348,-0.0840620451265,-0.00118309772772,-0.129321941408,-0.0078267993275,0.0485737502726,-0.0194291815087,0.574063112154,0.818796541931,0.00212440296562,0.0,0.818753401958,-0.574001532064,-0.0120770390469,0.0,-0.0086693941641,0.00867251174883,-0.999924811746,0.0,0.655875693876,0.253393709622,0.303382542026,1.0,-0.0153,-0.0201085714286,0.766
0.460683099606,0.515080232414,-0.124098238023,-1.40738026499,0.0766083546054,1.91306815858,0.152494778011,-0.00918765342371,-0.0777537682176,0.000942549884634,-0.130189052642,-0.00269579443193,0.0483450988342,-0.0217557022786,0.574051755288,0.818804495526,0.00212773564019,0.0,0.818761273652,-0.573990036877,-0.0120897160701,0.0,-0.00867798188732,0.00868239743681,-0.999924651464,0.0,0.65560792059,0.253064508486,0.303372866214,1.0,-0.01564,-0.0205554285714,0.783
0.460478305957,0.513586570162,-0.1241032219,-1.40977464626,0.0764636904177,1.91390162691,0.152178614187,-0.00977840633993,-0.0791427699265,-0.00112486131189,-0.131805260944,-0.00436583818458,0.0498200254182,-0.0151747151405,0.57405076796,0.81880533345,0.00207089843772,0.0,0.818761245794,-0.573989173648,-0.0121325109828,0.0,-0.0087456597989,0.00866041537154,-0.999924252451,0.0,0.655305320885,0.252696056046,0.303352539263,1.0,-0.016,-0.0210285714286,0.801
0.460293038299,0.512251977169,-0.124106460367,-1.41192078659,0.0763285116653,1.91466080187,0.151869839269,-0.00974195082337,-0.0890487495742,-0.00288662887498,-0.131749303185,-0.00357399486408,0.0485713871658,-0.0240233563574,0.574027809115,0.818821547164,0.00202365129538,0.0,0.818776788881,-0.573966373867,-0.012162177466,0.0,-0.00879731454914,0.00863851311244,-0.999923988785,0.0,0.655036008116,0.252365344901,0.303331953697,1.0,-0.01632,-0.0214491428571,0.817
0.460095463502,0.51081655415,-0.124107040638,-1.41421917951,0.0761890852214,1.91554418058,0.151537054003,-0.0143592028442,-0.0825564858679,0.0001681373495,-0.142006517227,-0.00934444442889,0.057549232342,-0.0205005439556,0.574000367842,0.818840746198,0.00203886820498,0.0,0.818796182076,-0.573938863952,-0.0121548165172,0.0,-0.00878284242249,0.00864645312495,-0.999924047379,0.0,0.654759789435,0.252019095625,0.303319787233,1.0,-0.01666,-0.021896,0.834
0.459893520161,0.509319259962,-0.124114912518,-1.41656730097,0.0760406600482,1.91641812159,0.151211480443,-0.0114755416252,-0.082891447644,-0.000228688173709,-0.134085152843,-0.00734365242173,0.0488752294171,-0.0133243584899,0.573987067385,0.81885003339,0.0020533369785,0.0,0.818805706114,-0.573925548378,-0.0121419708679,0.0,-0.00876415943644,0.00865078483972,-0.999924173841,0.0,0.654473747494,0.251658667083,0.303326133202,1.0,-0.017,-0.0223428571429,0.851
0.459695766216,0.507887391977,-0.12411848326,-1.41881068956,0.0758884457694,1.91721973525,0.150903086811,-0.0116660187492,-0.0949495174729,-0.000638485664032,-0.137821169718,-0.0118564589655,0.0538213779231,-0.0179298242718,0.573974101389,0.818859163551,0.00203668958732,0.0,0.818814684382,-0.573912722157,-0.0121427710067,0.0,-0.00877450618093,0.0086374737167,-0.999924198172,0.0,0.654193807724,0.251309688664,0.303329627523,1.0,-0.01732,-0.0227634285714,0.867
0.459475279567,0.506327792857,-0.124119912676,-1.42124995463,0.0757390709039,1.91811939307,0.150569048604,-0.010967025838,-0.100229427211,-0.000713534511387,-0.143576014087,-0.00641670021193,0.0541089041585,-0.0228297310055,0.573968107196,0.818863324093,0.00205311418656,0.0,0.818819018035,-0.573906615419,-0.0121391673468,0.0,-0.00876219181075,0.00864879036312,-0.999924208338,0.0,0.653894070775,0.250932655122,0.303337176192,1.0,-0.01766,-0.0232102857143,0.884
0.459236282869,0.504598932631,-0.124130542921,-1.42385047487,0.0755710874235,1.91913079301,0.150212391634,-0.0145052930154,-0.103284864387,-0.00151209014172,-0.14608269655,-0.0127733259125,0.0568120167458,-0.0181981092001,0.573968302329,0.818862902093,0.00216388506934,0.0,0.818820225464,-0.57390651367,-0.0120622899911,0.0,-0.00863566031507,0.0086953723816,-0.999924905115,0.0,0.653589105166,0.250525846511,0.303395530731,1.0,-0.01802,-0.0236834285714,0.902
0.459024444116,0.50303993928,-0.12413339187,-1.42618360543,0.075431174667,1.92000843286,0.149884376596,-0.00925723348096,-0.100691153508,-0.000284280599891,-0.148516503236,-0.00752949168009,0.0629771649246,-0.0198703148783,0.57395741624,0.81887028957,0.00225390850952,0.0,0.818828774925,-0.573895238109,-0.012018316475,0.0,-0.00854809950868,0.00874373535919,-0.999925235749,0.0,0.653306005902,0.250166400364,0.303450023472,1.0,-0.01834,-0.024104,0.918
0.458791035961,0.501317763362,-0.124138371004,-1.42871961126,0.0752645762682,1.92092439132,0.14952202054,-0.0170222813931,-0.104572500813,-0.000860768430301,-0.153624882381,-0.0136034743635,0.0548720795816,-0.01979554139,0.573939832526,0.818882380833,0.00233707139676,0.0,0.818842020157,-0.573877387599,-0.0119681631383,0.0,-0.00845948836845,0.00878286690842,-0.999925646388,0.0,0.652992319032,0.249768177432,0.303524575086,1.0,-0.01868,-0.0245508571429,0.935
0.458551345717,0.499611432857,-0.124143283111,-1.43131628035,0.0750989271577,1.92184482071,0.149157517213,-0.0188501808337,-0.106713528779,-0.0023547653038,-0.152637130549,-0.0106596433919,0.0595696603352,-0.0279614685382,0.573928518153,0.818890242322,0.00236092837259,0.0,0.818850171647,-0.573865956655,-0.0119585570884,0.0,-0.00843805175143,0.00879677291725,-0.999925705275,0.0,0.652664829361,0.249359080985,0.303559003063,1.0,-0.01902,-0.0249977142857,0.952
0.458316749002,0.498045939186,-0.12413306199,-1.43380156451,0.0749522337986,1.92278196812,0.148801284685,-0.0134317188757,-0.0989258740763,0.00139892875218,-0.157034347904,-0.0124810188018,0.0546151594938,-0.0185908820996,0.573908639071,0.818904119856,0.00237978641068,0.0,0.818864169219,-0.573845873015,-0.0119638327569,0.0,-0.00843176366108,0.00881503851452,-0.999925597461,0.0,0.652357057944,0.248977708105,0.303548739166,1.0,-0.01934,-0.0254182857143,0.968
0.45805323195,0.496372446836,-0.124135330881,-1.43649042002,0.0747866146614,1.92372222156,0.148408135152,-0.0158423857533,-0.099537913251,0.00356148918261,-0.1573889597,-0.0190515700992,0.0521702820766,-0.0221708202308,0.573895370809,0.818913599831,0.0023165224028,0.0,0.8188726797,-0.573832713509,-0.0120124206138,0.0,-0.00850800207666,0.00879097874364,-0.999925163496,0.0,0.652013353999,0.248544871815,0.303516955181,1.0,-0.01968,-0.0258651428571,0.985
0.45780147133,0.494781575766,-0.124138352148,-1.43908292773,0.0746227987478,1.92460678583,0.148040791761,-0.0171073612745,-0.100377276401,-0.000856158454412,-0.16282841924,-0.00674933961972,0.0616381610841,-0.0330029992339,0.573889076901,0.818918290158,0.00221548161538,0.0,0.818875904198,-0.573826692189,-0.0120800561207,0.0,-0.00862144240591,0.00874698517363,-0.999924577646,0.0,0.651675583128,0.248126304056,0.30346808961,1.0,-0.01998,-0.0262594285714,1.001
0.457506016173,0.492768563449,-0.124196586773,-1.44222219451,0.0744402938613,1.92575066351,0.147600439333,-0.0187284043913,-0.141458113703,-0.00750671572095,-0.216034009446,-0.0122873116329,0.0781411719596,-0.0303610034626,0.57392101344,0.818895885353,0.00222400219241,0.0,0.818853691888,-0.573858671012,-0.0120666436034,0.0,-0.00860522753166,0.00874660113086,-0.99992472068,0.0,0.651290942378,0.247602194379,0.303476290044,1.0,-0.0299274285714,-0.0393331918367,1.018
0.457126172386,0.489768121281,-0.124240761869,-1.44693632138,0.0741915485179,1.92754732335,0.146903169381,-0.0284197101223,-0.179773493469,-0.00128319712314,-0.289744395475,-0.0114643883758,0.109099785468,-0.0452876208109,0.573862755967,0.818936487363,0.00230518576398,0.0,0.818895162273,-0.573799884624,-0.0120479256375,0.0,-0.0085439350734,0.00880173074087,-0.999924762524,0.0,0.650698517971,0.246891263465,0.303476865337,1.0,-0.04046,-0.053176,1.036
0.456566186268,0.486045263385,-0.124288880751,-1.4528145936,0.0738565338252,1.92974806645,0.146031361925,-0.0360037927143,-0.241896107982,-0.00649011251744,-0.374160152998,-0.0280080031224,0.137564285652,-0.0563168988408,0.573844362993,0.818949257893,0.00234669084515,0.0,0.818908345637,-0.573781188459,-0.0120422638419,0.0,-0.00851567992782,0.00883227998982,-0.99992473418,0.0,0.649967052854,0.245946396771,0.303458148772,1.0,-0.0504074285714,-0.0662497632653,1.053
0.455916183062,0.481783354481,-0.124420363094,-1.45954188904,0.0734423649298,1.93212697214,0.144998203329,-0.0466572863403,-0.275723983903,-0.00715973956852,-0.442691473461,-0.0268240296082,0.152696549555,-0.0642864018248,0.573844341623,0.81894954341,0.00225029735506,0.0,0.8189075815,-0.573781784324,-0.0120658128882,0.0,-0.00859027771349,0.00876685280676,-0.999924671873,0.0,0.649115437499,0.244801068289,0.303423879434,1.0,-0.0597697142857,-0.0785544816326,1.069
0.455225673005,0.477388422829,-0.124523796539,-1.46644009311,0.0730344073352,1.93454639814,0.14397955445,-0.052751875684,-0.330126271664,-0.00937051555017,-0.514592136317,-0.0269684042279,0.183821518174,-0.0725840955894,0.57387627447,0.818927372772,0.00217408051883,0.0,0.818884299314,-0.573813920402,-0.0121175901596,0.0,-0.00867607564927,0.00873448606457,-0.999924214361,0.0,0.648228516432,0.243632113893,0.30339876186,1.0,-0.0679617142857,-0.0893211102041,1.083
0.454064704435,0.470187021226,-0.124658185972,-1.47758245332,0.0723653782661,1.93857371164,0.142344852144,-0.0653126669966,-0.380403333893,-0.00497865170185,-0.581059981854,-0.038861321042,0.213134574044,-0.0879884859004,0.573941159234,0.818881722632,0.00223986101972,0.0,0.81883946754,-0.573878473613,-0.0120901126668,0.0,-0.00861513013222,0.00877326879659,-0.999924401786,0.0,0.646809100076,0.24174335677,0.30342845865,1.0,-0.0796645714286,-0.104702008163,1.103
0.452964118619,0.46359002338,-0.124706876661,-1.48758713484,0.0717476439997,1.94230299418,0.140703862618,-0.0692348084498,-0.423877260284,-0.000526927400114,-0.663781046551,-0.0432944880974,0.234114733261,-0.105065419737,0.573840750568,0.818951292368,0.00251408379027,0.0,0.818912617373,-0.573776956347,-0.0119530905229,0.0,-0.00834663628493,0.00891815707639,-0.999925397286,0.0,0.645541018774,0.240061147245,0.303542108482,1.0,-0.0890268571429,-0.117006726531,1.119
0.451542907865,0.455432897387,-0.124813772308,-1.5003917384,0.0709173247897,1.94662742241,0.138794550569,-0.0825373319251,-0.463642423839,-0.00875959727318,-0.725804693812,-0.0504838285309,0.24675067299,-0.114552192332,0.573886628846,0.818919979969,0.00222498123343,0.0,0.818877117686,-0.573823594654,-0.0121447622204,0.0,-0.00866900861013,0.00879187213892,-0.999923772732,0.0,0.643809254493,0.237839058388,0.303439339993,1.0,-0.0995594285714,-0.130849534694,1.137
0.44995790488,0.446196770326,-0.124951679943,-1.51413064899,0.0699606105117,1.95164863903,0.136616967062,-0.0977454377646,-0.523534502693,-0.00976643863422,-0.771510249825,-0.0507167772787,0.280824343323,-0.11934764242,0.573864653902,0.818934258309,0.00260508561683,0.0,0.818897379699,-0.573801165652,-0.0118343026582,0.0,-0.00819687252162,0.00892475761386,-0.999926577296,0.0,0.642030602741,0.235428341082,0.303674581129,1.0,-0.110092,-0.144692342857,1.155
0.448789746676,0.439698748921,-0.124986370596,-1.52410927596,0.0693280857155,1.95509171828,0.135056214566,-0.101105163699,-0.553787085751,-0.00315972436964,-0.823732174426,-0.0536063213778,0.279025348527,-0.131818780877,0.573823405531,0.81896338598,0.00253349370402,0.0,0.818924954429,-0.57375952691,-0.0119445048112,0.0,-0.00832865630742,0.00892894955418,-0.999925450893,0.0,0.640296146332,0.233245067313,0.30365538238,1.0,-0.118284,-0.155458971429,1.17
0.446625053411,0.428008201623,-0.125089328894,-1.54168448931,0.0681321402485,1.96130550597,0.132166324661,-0.112652592269,-0.594985942006,-0.00878303707269,-0.914888119392,-0.0643306964531,0.31750222584,-0.149702301641,0.57375925939,0.819007338428,0.00283527200795,0.0,0.818973105612,-0.573694558006,-0.0117623679666,0.0,-0.00800703972086,0.00907095369878,-0.999926799878,0.0,0.638270985065,0.23057927371,0.3038183359,1.0,-0.128816571429,-0.169301779592,1.187
0.444556036717,0.417403120897,-0.125188783325,-1.55772187519,0.0669873377809,1.96682527238,0.129510355451,-0.128609442146,-0.646480124347,-0.0119298428897,-0.950847998931,-0.0663464105211,0.336188556607,-0.155426996699,0.573711792018,0.819040492134,0.00286336255686,0.0,0.819006863388,-0.57364726959,-0.0117181362286,0.0,-0.00795522111363,0.00906812111068,-0.999927239171,0.0,0.636038023011,0.227657813138,0.303869327804,1.0,-0.138764,-0.182375542857,1.204
0.442431023251,0.406813146111,-0.125288183871,-1.57372451744,0.0658584273488,1.97240056184,0.1268455287,-0.142979484218,-0.6618435313,-0.00477002071232,-1.02933741168,-0.0607839364732,0.343950616837,-0.172081653259,0.573687055349,0.81905746078,0.00296401179444,0.0,0.819025299953,-0.57362237778,-0.0116478602001,0.0,-0.00784019425375,0.0091100026641,-0.999927766994,0.0,0.633790472117,0.224721322655,0.303904031353,1.0,-0.148126285714,-0.194680261224,1.22
0.439905677747,0.394813116913,-0.125415928334,-1.59162342335,0.0646433435841,1.97849460797,0.123806771495,-0.151517931925,-0.715598349813,-0.0119583882083,-1.07655618934,-0.0745322806471,0.367874474878,-0.176657924397,0.573736896372,0.819021935138,0.00312896225934,0.0,0.818991517848,-0.573671201025,-0.011618679341,0.0,-0.00772110635557,0.00922883625882,-0.999927603928,0.0,0.631231489875,0.221347304013,0.304001671981,1.0,-0.158073714286,-0.20775402449,1.237
0.437154340307,0.382378412634,-0.125546525225,-1.61040925109,0.0631903793876,1.98471793642,0.120480568743,-0.163675018419,-0.758043998649,-0.00710676141446,-1.10349333819,-0.0805575484181,0.373148887812,-0.205893259321,0.5736711127,0.819068724101,0.0029370997286,0.0,0.819036232232,-0.573606548763,-0.0116586623893,0.0,-0.00786465750829,0.00909400400864,-0.999927720515,0.0,0.62847327012,0.217722657053,0.303944425484,1.0,-0.168021142857,-0.220827787755,1.254
0.434339445789,0.369999988243,-0.125672716722,-1.62886135829,0.0618231682219,1.99085776455,0.117199635703,-0.189518647532,-0.799386560858,-0.00410415720688,-1.16630924658,-0.0825686878679,0.379403988861,-0.202276299615,0.573677988984,0.819063846483,0.00295419043983,0.0,0.819031526144,-0.573613308352,-0.0116566961555,0.0,-0.00785316663649,0.00910694044996,-0.999927693091,0.0,0.625731803896,0.214124676229,0.30396147011,1.0,-0.177383428571,-0.233132506122,1.27
0.430836142912,0.355509504384,-0.12588981482,-1.65030862282,0.0601262465844,1.99793379135,0.113297718789,-0.202425456677,-0.786584228147,-0.00744679130546,-1.2126527626,-0.0861435767445,0.387069431691,-0.227174664548,0.573785598353,0.818988470396,0.00295286007405,0.0,0.818956918788,-0.573721821458,-0.0115578394425,0.0,-0.00777176661653,0.00905016125171,-0.999928844581,0.0,0.622524734943,0.209763515056,0.303996221908,1.0,-0.187916,-0.246975314286,1.288
0.427229193255,0.341156176599,-0.126073899617,-1.67130289773,0.0585891746435,2.00473920629,0.109342309851,-0.213132268534,-0.868459367911,-0.0114179077327,-1.24690456702,-0.0973062781193,0.403200805926,-0.230024441959,0.573909274455,0.818901305787,0.00308917072361,0.0,0.818870945042,-0.573844367235,-0.0115656586248,0.0,-0.00769857795243,0.00916744740156,-0.999928342335,0.0,0.619307366961,0.205443606632,0.304077008956,1.0,-0.197863428571,-0.260049077551,1.305
0.423889683169,0.328157931474,-0.126179330002,-1.69039453006,0.0570869748436,2.01085620852,0.10562349027,-0.225503032886,-0.895097650864,-0.00504893337595,-1.2627485713,-0.102682674592,0.417882395057,-0.253963720694,0.573855332753,0.818939169715,0.00307250385086,0.0,0.818908365009,-0.573790215415,-0.0116028149049,0.0,-0.00773917596121,0.00917461295281,-0.999927963222,0.0,0.616298027307,0.201522035878,0.304061591277,1.0,-0.206640571429,-0.27158475102,1.32
0.419654070106,0.312013102049,-0.126296726334,-1.71394186264,0.0551068387053,2.018295355,0.100951719663,-0.241145201916,-0.882211347429,-0.00241627282112,-1.31386507291,-0.100351236432,0.411470530236,-0.273692314578,0.57371672723,0.819036509776,0.00300989231063,0.0,0.819005223843,-0.573652221227,-0.0115896204054,0.0,-0.00776584035335,0.00911445209591,-0.999928306673,0.0,0.612500088262,0.196635515355,0.30404506963,1.0,-0.217173142857,-0.285427559184,1.338
0.415275296286,0.296146727798,-0.126425506543,-1.7368947357,0.0531521029946,2.02538162643,0.0962260057018,-0.259420709983,-0.930604489933,-0.0114237000073,-1.37427970223,-0.103998016771,0.403617982064,-0.284365068377,0.573600896765,0.819117923017,0.00293024294872,0.0,0.81908571617,-0.573536797461,-0.0116137171304,0.0,-0.00783255249867,0.00906193317526,-0.999928263671,0.0,0.608720034714,0.191743082793,0.304031365602,1.0,-0.227120571429,-0.298501322449,1.355
0.410817676011,0.280663532762,-0.12658732838,-1.75890246955,0.0513427837326,2.03214291082,0.091598987733,-0.2891664192,-0.972675942084,-0.00500270058979,-1.4118660985,-0.117425095334,0.422874353291,-0.301556868523,0.57363414193,0.819094003305,0.0031035243986,0.0,0.819063707278,-0.573569080618,-0.0115715201957,0.0,-0.00769822538013,0.00917998000089,-0.999928230071,0.0,0.605055615413,0.186926560813,0.30412389138,1.0,-0.236482857143,-0.310806040816,1.371
0.405733831034,0.263792177237,-0.126780522405,-1.78275525281,0.0492656042963,2.03927127013,0.086375473013,-0.308019682857,-1.01094538654,-0.0147815045274,-1.43172715154,-0.128644765921,0.42228301625,-0.31352706441,0.573629100191,0.819097308828,0.00316243347733,0.0,0.819067782839,-0.573563861526,-0.0115416969454,0.0,-0.00764006244507,0.0092110779519,-0.99992839018,0.0,0.600994540347,0.18156938321,0.304190638831,1.0,-0.246430285714,-0.323879804082,1.388
0.400862212436,0.248566207568,-0.126970537398,-1.80423160398,0.0473521039603,2.04555852721,0.0816002163617,-0.329139589839,-1.01483196379,-0.00949187766566,-1.44117655631,-0.122784618073,0.419415457992,-0.323242736955,0.573759802902,0.819005873607,0.00313280597888,0.0,0.818975896905,-0.573694559936,-0.0115662911143,0.0,-0.00767573439275,0.00920214266622,-0.999928199258,0.0,0.597274390471,0.17659804829,0.304195678309,1.0,-0.255207428571,-0.335415477551,1.403
0.394753942624,0.229783467223,-0.127158234506,-1.83040782852,0.0450050025628,2.05314332281,0.0754918107536,-0.341008243382,-1.0474469234,-0.00420589458964,-1.45846861218,-0.121275751868,0.414508677438,-0.342757989881,0.57372636675,0.819028858407,0.00324531863495,0.0,0.819000045588,-0.573660418899,-0.0115497193042,0.0,-0.00759798885391,0.00928447335825,-0.99992803197,0.0,0.592629371844,0.170529390966,0.30424648558,1.0,-0.26574,-0.349258285714,1.421
0.388623340039,0.211496267521,-0.127336634741,-1.85560835578,0.042579357238,2.06023966619,0.0693705991074,-0.372831358769,-1.07805052732,-0.00840437027875,-1.49952630458,-0.136178541086,0.40328985261,-0.362628081634,0.573571939114,0.819136879515,0.00327874680388,0.0,0.819108715246,-0.57350617355,-0.0115034085667,0.0,-0.00754262988257,0.00928386118326,-0.999928456769,0.0,0.587760586046,0.164236963558,0.304298902627,1.0,-0.276272571429,-0.363101093878,1.439
0.381998206069,0.192856198173,-0.127554496164,-1.88114613123,0.0401013946592,2.06719998953,0.0629250293454,-0.40431447704,-1.13337977804,-0.0135821286535,-1.510848104,-0.161632909632,0.420127999088,-0.388556377919,0.573524598766,0.819170062269,0.00326964730527,0.0,0.819141942311,-0.573459066452,-0.0114858326983,0.0,-0.00753398644796,0.00926589123122,-0.999928688611,0.0,0.583290355498,0.158370509519,0.304323491689,1.0,-0.285634857143,-0.375405812245,1.455
0.375233867604,0.174917936085,-0.127882280097,-1.90543432069,0.0377782060689,2.07367136271,0.0565315981572,-0.436509188161,-1.15083708023,-0.0245788454591,-1.54642351011,-0.157184292235,0.41916244098,-0.409108163805,0.57369295561,0.819051886404,0.00333870687317,0.0,0.819024233405,-0.5736266643,-0.0115109513335,0.0,-0.0075130397666,0.00933841332318,-0.999928171555,0.0,0.57871378907,0.152204789791,0.304359697587,1.0,-0.294997142857,-0.387710530612,1.471
0.367268632662,0.15425366852,-0.128126504408,-1.93312044269,0.0349368671729,2.08079872063,0.0489630658085,-0.45095661319,-1.1823490698,-0.014075060948,-1.5590811507,-0.168753836108,0.410702338467,-0.434007706803,0.573613485299,0.819107541237,0.00333950197918,0.0,0.819079925226,-0.573547235439,-0.011506159835,0.0,-0.00750956474602,0.00933558721575,-0.999928224048,0.0,0.573326108569,0.145177556144,0.30439265198,1.0,-0.305529714286,-0.401553338775,1.489
0.358760196661,0.133185537913,-0.12841912338,-1.96107656819,0.0320047207264,2.08773869025,0.0410137025089,-0.48365902605,-1.2075216205,-0.0186201611085,-1.55798597754,-0.168950515342,0.394436860379,-0.454886001109,0.573609546009,0.819110330285,0.00333203370675,0.0,0.819082632937,-0.573543338328,-0.0115076662597,0.0,-0.00751512726468,0.00933029779753,-0.999928231627,0.0,0.568078717827,0.138300986806,0.30440721076,1.0,-0.315477142857,-0.414627102041,1.506
0.351146688577,0.115272020826,-0.128767875237,-1.98451329558,0.0294603637688,2.09341666294,0.0339997014545,-0.518305005985,-1.21467578873,-0.0333379489294,-1.59440043836,-0.18258476887,0.390737323841,-0.476011442958,0.573683748662,0.819058291513,0.00334940689692,0.0,0.819030942852,-0.57361763286,-0.0114835893653,0.0,-0.00748459433192,0.00933139614225,-0.999928450387,0.0,0.563008150404,0.131554754039,0.304433474271,1.0,-0.324839428571,-0.426931820408,1.522
0.342014429885,0.0945753397268,-0.129129785233,-2.01125075587,0.0264605398784,2.0996448079,0.025592644872,-0.541146043575,-1.24983131678,-0.0229497328407,-1.58023359201,-0.187117740823,0.376852856227,-0.51278428455,0.573677469965,0.819062464548,0.00340389838127,0.0,0.819036209553,-0.573611684012,-0.0114048369695,0.0,-0.00738890025255,0.00933079369262,-0.999929167712,0.0,0.557461107199,0.124195116358,0.304485497503,1.0,-0.334786857143,-0.440005583673,1.539
0.331772132322,0.0723295989119,-0.129496452795,-2.03973283257,0.0232942830361,2.10591621096,0.0162066351473,-0.581168186334,-1.24651094863,-0.0171599515865,-1.58429210804,-0.187152999012,0.357936181219,-0.522796207983,0.573656612797,0.819077036223,0.00341265702354,0.0,0.819050120956,-0.573589828879,-0.0115045412843,0.0,-0.00746578395957,0.00939497421523,-0.999927995672,0.0,0.551367120263,0.116231924748,0.304480404739,1.0,-0.33998,-0.446830857143,1.557
0.322127442647,0.0526433387251,-0.129909859915,-2.06465029765,0.0203456791573,2.11111986871,0.00761875716949,-0.61205413271,-1.24886827246,-0.0262900952259,-1.56124002296,-0.194998894625,0.322582797415,-0.544538103626,0.573822410609,0.818961271981,0.00332008708088,0.0,0.81893304003,-0.573755740314,-0.0115660410148,0.0,-0.00756736633556,0.00935596267393,-0.999927597844,0.0,0.545925450572,0.1089522873,0.304454083054,1.0,-0.33998,-0.446830857143,1.573
0.311560679212,0.031870903427,-0.13017915419,-2.09053619165,0.0173101978093,2.1162261969,-0.0016737568014,-0.632387189771,-1.24819163036,-0.015928788563,-1.5101185248,-0.185815919421,0.307969022748,-0.562071705573,0.57395102389,0.818871140153,0.0033203766123,0.0,0.818841930054,-0.573883124599,-0.0116961441324,0.0,-0.00767227449105,0.00943205909045,-0.999926083501,0.0,0.540105217325,0.101332224009,0.304451345665,1.0,-0.33998,-0.446830857143,1.59
0.300675904614,0.0113547332956,-0.13048740279,-2.1156420365,0.01411994705,2.12097973025,-0.011322215619,-0.654812101526,-1.2165382468,-0.0218198769409,-1.48786826679,-0.19656231989,0.279918588529,-0.569647838836,0.573941116501,0.81887793658,0.00335658643777,0.0,0.818849742043,-0.573873775658,-0.0116076039809,0.0,-0.0075790997853,0.0094108023145,-0.999926994358,0.0,0.534350390724,0.0937007510603,0.304504787722,1.0,-0.33998,-0.446830857143,1.607
0.290095386297,-0.00777748513082,-0.13075577464,-2.13867251585,0.0112799141016,2.12504456715,-0.0206533444813,-0.662158456331,-1.21011934673,-0.0134978969438,-1.42913238216,-0.190438653655,0.274348347024,-0.589953553545,0.573992051855,0.818841606741,0.00350633401883,0.0,0.818814801752,-0.573923538611,-0.0116120265872,0.0,-0.00749618720541,0.00953643276738,-0.999926429107,0.0,0.528933926042,0.0865467556006,0.304580546221,1.0,-0.33998,-0.446830857143,1.623
0.279314949763,-0.0266789166848,-0.130940529694,-2.16121871672,0.00834245538944,2.12871882015,-0.0302035657002,-0.687815479663,-1.18347959105,-0.012855457596,-1.37259612768,-0.178942647776,0.217342732268,-0.585032318192,0.573859703209,0.818934382661,0.00350211791889,0.0,0.818907264504,-0.573790893357,-0.01164687703,0.0,-0.0075286896318,0.00955176710181,-0.999926038554,0.0,0.523476736852,0.079482869571,0.304608651772,1.0,-0.33998,-0.446830857143,1.639
0.266622842896,-0.0477470803413,-0.13132590677,-2.18604603334,0.00509634810841,2.13253065925,-0.0412743458808,-0.71124822663,-1.16937556708,-0.0181293448491,-1.35006617896,-0.171900476796,0.190731955341,-0.630189706424,0.574012110954,0.818827321587,0.00355820193127,0.0,0.818800313072,-0.573942311767,-0.011705425135,0.0,-0.00754266448885,0.00963269810596,-0.999925156869,0.0,0.517353006893,0.0713583029019,0.304622274206,1.0,-0.33998,-0.446830857143,1.657
0.254434429099,-0.0674152761146,-0.131522238403,-2.20889466804,0.00198304766493,2.13578380145,-0.0520564568153,-0.725347461849,-1.14358882234,-0.0101869299685,-1.33998840525,-0.176701011476,0.173619435409,-0.643261269397,0.573836873162,0.818949977343,0.00359506757263,0.0,0.818923350628,-0.573766854806,-0.0116999582708,0.0,-0.00751909471268,0.00965813820164,-0.999925088985,0.0,0.511554381723,0.0638616952322,0.304633205632,1.0,-0.33998,-0.446830857143,1.674
0.242462069289,-0.0857430769055,-0.131888251419,-2.22976572953,-0.00093083638094,2.1385224635,-0.0625079077085,-0.758877561218,-1.13149942724,-0.023768908431,-1.31274657094,-0.182244983202,0.16423376001,-0.665169571219,0.57393440913,0.818881154592,0.0037007528471,0.0,0.818856030032,-0.573864209373,-0.0116369318321,0.0,-0.00740567715016,0.00970940631583,-0.999925438908,0.0,0.505815159154,0.0561881036832,0.304672533971,1.0,-0.33998,-0.446830857143,1.691
0.229583932535,-0.104948367555,-0.132077926728,-2.25140614487,-0.00400259885238,2.1409754545,-0.0738910121609,-0.773364370817,-1.11906831657,-0.0141789198993,-1.27856668601,-0.185480407306,0.131531056063,-0.671204757317,0.573750385765,0.819009866047,0.00375247292572,0.0,0.818985232896,-0.573679814555,-0.0116363899756,0.0,-0.00737774226746,0.00974979086413,-0.999925252455,0.0,0.500376476665,0.0491785079075,0.304722580364,1.0,-0.33998,-0.446830857143,1.707
0.216148492791,-0.123922137096,-0.13247862129,-2.27261759461,-0.00709979742918,2.1431375681,-0.0855969236218,-0.801460675401,-1.11492405902,-0.0217291531111,-1.23580453695,-0.183136860256,0.130574144446,-0.69517007771,0.573865533823,0.818929400394,0.00370582796766,0.0,0.818903683703,-0.573794466681,-0.0117223600171,0.0,-0.00747354556661,0.0097619625108,-0.999924422246,0.0,0.494579284286,0.0415217017652,0.304683410689,1.0,-0.33998,-0.446830857143,1.724
0.202426607855,-0.142647636801,-0.132755109855,-2.29324500653,-0.0101457938932,2.14487944319,-0.0977291241013,-0.827301450729,-1.12359406612,-0.0212526241362,-1.19682805139,-0.184564042433,0.116575105445,-0.729565979404,0.573744283687,0.81901471749,0.00362441334109,0.0,0.818987049625,-0.573672355928,-0.0118738153712,0.0,-0.00764575100592,0.00978106959952,-0.999922933615,0.0,0.488764683383,0.0339868791844,0.304638296505,1.0,-0.33998,-0.446830857143,1.741
0.188186114059,-0.16115485257,-0.13318879449,-2.3134118921,-0.0132352442017,2.1463128615,-0.110174360254,-0.840699619184,-1.07536183914,-0.020150828798,-1.16033155349,-0.175433397649,0.0691367496986,-0.734133070182,0.573857535037,0.818935964293,0.00348751626833,0.0,0.81890554295,-0.573784870024,-0.0120574275427,0.0,-0.00787332856883,0.00977538025816,-0.999921223216,0.0,0.482932287977,0.0263150704253,0.304556816623,1.0,-0.33998,-0.446830857143,1.758
0.17455173279,-0.178457184707,-0.133466506904,-2.3317523242,-0.0160084897648,2.14739984597,-0.12226072546,-0.863280609277,-1.05717282388,-0.0155931641554,-1.1440664082,-0.185095267575,0.0595184135286,-0.768649081042,0.57377087174,0.818996205786,0.00359840972,0.0,0.818966743139,-0.57369718544,-0.0120731085951,0.0,-0.0078235832312,0.00987436604421,-0.999920641071,0.0,0.477493236147,0.0192449724416,0.304593328421,1.0,-0.33998,-0.446830857143,1.774
0.159493008906,-0.196691147502,-0.133923114721,-2.35064403087,-0.0190282725722,2.14830293677,-0.135470742526,-0.889684559402,-1.05558234663,-0.0203023144134,-1.10457858984,-0.168625377061,0.0488837485762,-0.789822596613,0.573911066538,0.818897049179,0.00380229562617,0.0,0.818870929199,-0.573837493209,-0.0119029240445,0.0,-0.00756551524567,0.00994500065786,-0.999921926923,0.0,0.471756354596,0.0115675191572,0.30470207008,1.0,-0.33998,-0.446830857143,1.791
0.144181623833,-0.21450017827,-0.134278237489,-2.36903355084,-0.0218901438003,2.14878874488,-0.149140473045,-0.917320122477,-1.03846821541,-0.0217274386917,-1.03783564515,-0.173992688772,0.0260807531439,-0.810266724912,0.573840173775,0.818946447892,0.00386229844512,0.0,0.818919941471,-0.573764856038,-0.0120318883757,0.0,-0.00763756818223,0.0100674879633,-0.999920153431,0.0,0.465969984701,0.00403292649961,0.304700019707,1.0,-0.33998,-0.446830857143,1.808
0.128389909254,-0.232061082986,-0.134688387393,-2.38687649924,-0.0249293123201,2.14906746601,-0.163090138072,-0.934837251319,-1.01200588701,-0.0193198381636,-1.04356293208,-0.17101201126,0.00529743832115,-0.830926221042,0.573870049385,0.818925563679,0.00385155466788,0.0,0.818899312299,-0.57379528765,-0.0119846188074,0.0,-0.00760465320692,0.0100318423997,-0.999920762555,0.0,0.460202717297,-0.00357669140222,0.304710910182,1.0,-0.33998,-0.446830857143,1.825
0.112189334322,-0.249474971841,-0.135124830947,-2.40410240139,-0.027749098417,2.1491529277,-0.17757661654,-0.964466561155,-1.02728868319,-0.0283887326188,-1.00797848316,-0.158719438728,-0.00236116597581,-0.848821388025,0.573892368313,0.818908490175,0.00414502276014,0.0,0.818886547263,-0.573817241119,-0.0118043808852,0.0,-0.00728836252708,0.0101689432627,-0.999921733119,0.0,0.454480479242,-0.0111637000904,0.304818245786,1.0,-0.33998,-0.446830857143,1.842
0.0956407848522,-0.266395826269,-0.135473380241,-2.42090614765,-0.0306407411306,2.14897616787,-0.192418267334,-0.983170733611,-0.991336029261,-0.020711401378,-0.9562919598,-0.169988815024,-0.00846706362415,-0.872580752929,0.573783315543,0.818984926729,0.00414047043625,0.0,0.818962923035,-0.573708218194,-0.0118049977453,0.0,-0.00729283370666,0.0101645982175,-0.999921744698,0.0,0.448710620682,-0.0186852873709,0.304777985794,1.0,-0.33998,-0.446830857143,1.859
0.0795856408068,-0.282085791578,-0.135937418987,-2.43616899099,-0.0333034772903,2.14855891428,-0.206884272775,-0.994157617765,-0.967304693534,-0.0232765143536,-0.942080189918,-0.155722540568,-0.0383121109281,-0.906057434671,0.573784838886,0.818983441426,0.0042223495596,0.0,0.818962467548,-0.573709421333,-0.0117780950197,0.0,-0.00722380215077,0.0102162348616,-0.99992171955,0.0,0.443290199478,-0.0258559188142,0.304778094647,1.0,-0.33998,-0.446830857143,1.875
0.0620729518916,-0.298573372738,-0.136399303532,-2.45180981279,-0.0360454417749,2.14787360144,-0.222672544961,-1.05297927024,-0.963183417202,-0.0384983430414,-0.889658352784,-0.164398977362,-0.0322023316215,-0.937873041384,0.573816307155,0.818960306491,0.00442819787176,0.0,0.818942465114,-0.573740895338,-0.0116348937246,0.0,-0.00698801245989,0.0103029293956,-0.999922505661,0.0,0.437544292488,-0.0334671910699,0.304851798199,1.0,-0.33998,-0.446830857143,1.892
0.0442461561739,-0.314668879127,-0.136813042828,-2.46705359468,-0.0387570001269,2.14685182307,-0.238809654337,-1.05702926239,-0.939305824248,-0.0223378342854,-0.904765928611,-0.158106662148,-0.068169145002,-0.958505584767,0.57377842412,0.818986822875,0.00443293041544,0.0,0.818968267823,-0.573701864033,-0.0117428448906,0.0,-0.00707419098613,0.010368420004,-0.999921222741,0.0,0.431721851187,-0.0409953820972,0.30482108508,1.0,-0.33998,-0.446830857143,1.909
0.0269864384386,-0.329456249295,-0.13732678909,-2.48060462628,-0.0412371399791,2.14580868493,-0.254479986237,-1.057423464,-0.915175528062,-0.0263239215317,-0.845186067118,-0.155855149457,-0.0677128996484,-0.988417124789,0.573871978908,0.818919990812,0.00466340798877,0.0,0.818905100562,-0.57379570563,-0.0115616337526,0.0,-0.00679234030249,0.0104539875007,-0.99992228611,0.0,0.426354580183,-0.0481753969954,0.304913209757,1.0,-0.33998,-0.446830857143,1.925
0.00710561448115,-0.34564205138,-0.137864121419,-2.49548391794,-0.0440574305508,2.14433451682,-0.272616243321,-1.11515002724,-0.882799734045,-0.0345316111271,-0.838590159013,-0.164902995162,-0.0991055668127,-1.01254086022,0.573882408063,0.818912720957,0.00465661595098,0.0,0.818897272893,-0.573805432539,-0.0116330967002,0.0,-0.00685463131486,0.0104895216065,-0.999921488901,0.0,0.420211309841,-0.0562295092892,0.304884335009,1.0,-0.33998,-0.446830857143,1.943
-0.0120601775355,-0.360547585967,-0.13826981153,-2.50872414629,-0.0465918411912,2.14283652472,-0.290269477498,-1.14242762049,-0.859608968609,-0.0272879497317,-0.772827915523,-0.151984578963,-0.0837933217918,-1.04179265245,0.57376626023,0.818993101363,0.00482964204912,0.0,0.818980928436,-0.573690421574,-0.0114142872954,0.0,-0.00657762980845,0.0105047199125,-0.999923189873,0.0,0.414512471024,-0.0637767712915,0.304982460867,1.0,-0.33998,-0.446830857143,1.96
-0.0293690906811,-0.373253509703,-0.138696704066,-2.52019009326,-0.0488400332824,2.14129513545,-0.30623257945,-1.15789468193,-0.845511765873,-0.0257029556611,-0.755654561007,-0.14818694105,-0.103989423875,-1.06429828306,0.573711878262,0.819031717515,0.00474060610499,0.0,0.819017395154,-0.573634732466,-0.0115951302017,0.0,-0.00677753357765,0.0105351056237,-0.999921535216,0.0,0.409364135523,-0.070463193564,0.304904536214,1.0,-0.33998,-0.446830857143,1.975
-0.0505578659693,-0.388128726614,-0.139210632242,-2.53305941137,-0.051469315424,2.1393734222,-0.325778304749,-1.18254548497,-0.850794024809,-0.0229679602158,-0.719276564275,-0.157345104102,-0.104558277905,-1.08420355441,0.573715426342,0.819028638056,0.00484216085074,0.0,0.819016603163,-0.573639524008,-0.0114125869069,0.0,-0.00656970715271,0.0105135897141,-0.999923148737,0.0,0.403303832634,-0.0784994984297,0.304988422643,1.0,-0.33998,-0.446830857143,1.993
-0.0710669616456,-0.401557248678,-0.139765154273,-2.5448315757,-0.0537010284532,2.13740391747,-0.344839213622,-1.22208828778,-0.753240288648,-0.0423827837028,-0.68785700849,-0.13568346492,-0.12699795458,-1.14056634052,0.573796590531,0.818971311495,0.00492042106013,0.0,0.818958466686,-0.573717534023,-0.0116605274194,0.0,-0.00672683510881,0.0107205977686,-0.999919906029,0.0,0.397485657244,-0.0860918146046,0.304912084438,1.0,-0.33998,-0.446830857143,2.01
-0.0906173386788,-0.413837439029,-0.140143238893,-2.55517727446,-0.0558584179353,2.13547912226,-0.363172930456,-1.23414009715,-0.762489024403,-0.0282917665957,-0.637668531315,-0.137084190994,-0.106244096331,-1.16653676624,0.573634873409,0.819084176028,0.00498913732593,0.0,0.819072852113,-0.573556649131,-0.0115403670433,0.0,-0.00659110604323,0.0107066300629,-0.999920959573,0.0,0.392101026089,-0.0931657661865,0.304974546721,1.0,-0.33998,-0.446830857143,2.026
-0.11192198446,-0.426281786881,-0.140664337082,-2.56571509399,-0.0581040088907,2.13337214948,-0.383152690425,-1.25634903396,-0.71636497522,-0.0307411170738,-0.617077993275,-0.119198004874,-0.127573099127,-1.19686979937,0.573606884719,0.819103755218,0.00499268381904,0.0,0.819092003798,-0.57352788714,-0.0116102923165,0.0,-0.00664671860368,0.0107494179596,-0.999920132383,0.0,0.386313070084,-0.100766037131,0.304948453897,1.0,-0.33998,-0.446830857143,2.043
-0.133613769157,-0.438164439926,-0.141119891369,-2.5757555234,-0.0602212731342,2.131110875,-0.403497679148,-1.2816585455,-0.700289665885,-0.0274729149898,-0.585084696353,-0.122117478875,-0.127175559075,-1.21736664045,0.573614516094,0.819098762185,0.00493473543142,0.0,0.819084534669,-0.573532959712,-0.0118834376881,0.0,-0.00690360859932,0.0108586868969,-0.999917211127,0.0,0.380475954686,-0.108312511446,0.30486764562,1.0,-0.33998,-0.446830857143,2.06
-0.154390951536,-0.448942408238,-0.141601334287,-2.58430880554,-0.0621401678566,2.12916380359,-0.423146633777,-1.30417423635,-0.660996744701,-0.0159916345313,-0.535070722468,-0.123424609339,-0.130224601991,-1.24292720427,0.573610102856,0.819100527644,0.00514999182264,0.0,0.819091054374,-0.573531026594,-0.0115218522423,0.0,-0.0064839999912,0.0108275715461,-0.999920357548,0.0,0.375133448362,-0.11548423854,0.305014387023,1.0,-0.33998,-0.446830857143,2.076
-0.178181183029,-0.46030518992,-0.142147480937,-2.59359912587,-0.0642244927889,2.12673399331,-0.44574074907,-1.32695656411,-0.626180188511,-0.025709624909,-0.50108161744,-0.120931980648,-0.127989767155,-1.29370634863,0.57358813065,0.819115961056,0.00514253062644,0.0,0.819105044531,-0.573506851264,-0.0117287884301,0.0,-0.00665808944868,0.0109399772366,-0.999917990009,0.0,0.368962490743,-0.12350947241,0.30497285303,1.0,-0.33998,-0.446830857143,2.094
-0.200885317234,-0.47018874515,-0.142545027434,-2.60163948916,-0.0659072871118,2.12465874623,-0.467361371886,-1.34706227836,-0.560267023579,-0.0326509815041,-0.442992765032,-0.0955304592098,-0.11594678722,-1.2682751319,0.573597000841,0.819108976219,0.00526427632472,0.0,0.819098611453,-0.573513601581,-0.0118473802241,0.0,-0.00668529012411,0.0111077970518,-0.999915958339,0.0,0.363237778571,-0.130998720917,0.304927929999,1.0,-0.330471428571,-0.434333877551,2.111
-0.222264354669,-0.478786336642,-0.142734866672,-2.60825951944,-0.0673790265399,2.12280387614,-0.487558278992,-1.33729084766,-0.511170462551,-0.0102819472279,-0.406151073904,-0.0798400883449,-0.11346751119,-1.28650748698,0.573695299593,0.819039243,0.00540079188382,0.0,0.819032029066,-0.573613763238,-0.0115988313731,0.0,-0.00640205276991,0.0110778298572,-0.999918144353,0.0,0.358045028387,-0.137940080493,0.305033783984,1.0,-0.321109142857,-0.422029159184,2.127
-0.244689751122,-0.487005965588,-0.142849266776,-2.61474897434,-0.0687351400437,2.12084777593,-0.508847146144,-1.31211850742,-0.455160727298,-0.000160984418642,-0.364068365038,-0.0688604624324,-0.111956380155,-1.22488436173,0.573755296091,0.818996778063,0.0054666837053,0.0,0.81898978705,-0.573672440787,-0.011679310394,0.0,-0.00642935558346,0.0111784395365,-0.999916849481,0.0,0.352600406966,-0.145061183352,0.305027168394,1.0,-0.311161714286,-0.408955395918,2.144
-0.266875894317,-0.494267931735,-0.142843935485,-2.62051256464,-0.0698796034301,2.11906759432,-0.52991147345,-1.29466596071,-0.417414037368,-0.00158572189082,-0.31411675098,-0.0583584978585,-0.0926104834776,-1.22892192917,0.573846071239,0.818932756952,0.00552928711859,0.0,0.818925619929,-0.573761316392,-0.0118121859152,0.0,-0.0065010200861,0.01130666905,-0.999914944369,0.0,0.34731571371,-0.151985744856,0.304988860514,1.0,-0.301214285714,-0.395881632653,2.161
-0.28729298494,-0.500380914226,-0.142702074471,-2.62525633137,-0.0708647749572,2.11756844928,-0.549350386186,-1.24897799695,-0.367255488703,0.0183729393662,-0.290446113311,-0.0627090932876,-0.0978357561262,-1.2021659165,0.573845465497,0.818933071955,0.00554547449589,0.0,0.818926298623,-0.573760920768,-0.011784316896,0.0,-0.00646891483032,0.0113039293534,-0.999915183564,0.0,0.342541710374,-0.158267007908,0.304996746825,1.0,-0.291852,-0.383576914286,2.177
-0.309789503875,-0.506330409093,-0.142525944151,-2.62981753858,-0.0716133816171,2.11607478634,-0.570821530155,-1.24506282284,-0.318442397869,0.0150143160273,-0.238609514091,-0.0490969299974,-0.0833685946194,-1.19875397532,0.573969824952,0.81884453055,0.00574645408499,0.0,0.818840229607,-0.57388429982,-0.0117573678333,0.0,-0.0063297784328,0.011454022665,-0.999914365968,0.0,0.337384409111,-0.165111844426,0.305017182175,1.0,-0.281319428572,-0.369734106123,2.195
-0.330574208539,-0.511255361563,-0.142270990654,-2.63356254318,-0.0722628925775,2.11484173473,-0.590691958712,-1.22694238836,-0.27780662533,-0.000465879567882,-0.209970572886,-0.0320257104731,-0.0636298252108,-1.1563947279,0.574036350112,0.818797062394,0.00586398039057,0.0,0.818794692347,-0.573951143972,-0.0116654626911,0.0,-0.00618612743163,0.0114980170178,-0.999914760083,0.0,0.332669269885,-0.171363346936,0.305043180992,1.0,-0.271372,-0.356660342857,2.212
-0.348336452231,-0.514972779093,-0.141903735794,-2.6365309714,-0.0727267257704,2.11371537839,-0.607801315086,-1.16237384493,-0.235217405246,0.0348611895998,-0.190511685949,-0.0192459798861,-0.0700615028867,-1.12365622705,0.573899291362,0.818893251793,0.00584743047174,0.0,0.818889163515,-0.573811410471,-0.0119058805292,0.0,-0.0063944460083,0.0116213975944,-0.999912023219,0.0,0.328358706774,-0.176920816436,0.304976586996,1.0,-0.262009714286,-0.34435562449,2.228
-0.369178292412,-0.518746050993,-0.141510831162,-2.6395816124,-0.0732442472628,2.11263930732,-0.627810676369,-1.13923028791,-0.192878162894,0.0213633581373,-0.156346110752,-0.0220297953639,-0.0550225452181,-1.09176836509,0.573935723682,0.818867716466,0.00584764155076,0.0,0.818862502907,-0.573845798309,-0.0120808939268,0.0,-0.00653713534892,0.0117222966855,-0.999909922754,0.0,0.32391483445,-0.182712321878,0.304903916851,1.0,-0.252062285714,-0.331281861225,2.245
-0.38823582764,-0.521734063923,-0.141091210844,-2.64189499818,-0.0735823698046,2.11177550978,-0.646109314768,-1.10811579908,-0.16040803745,0.0295076749178,-0.12516130995,-0.024954654854,-0.0509357726304,-1.0507295439,0.573977121375,0.81883839715,0.00588985502652,0.0,0.818833414782,-0.573886435503,-0.0121220824728,0.0,-0.00654604470702,0.0117808349243,-0.999909176489,0.0,0.319679131463,-0.188277045576,0.304887926601,1.0,-0.242114857143,-0.318208097959,2.262
-0.405547611826,-0.524101740407,-0.140625170357,-2.64365141503,-0.0737788866424,2.11106049447,-0.662844193021,-1.08567725512,-0.137642812724,0.0267911943555,-0.0980891274364,-0.0144817445991,-0.0409575242805,-1.02472430076,0.573930232236,0.818870839431,0.00594842471473,0.0,0.818866745466,-0.573839531806,-0.0120909804364,0.0,-0.00648763495325,0.0118105737868,-0.999909206348,0.0,0.315871068864,-0.19328771451,0.304909228686,1.0,-0.232752571429,-0.305903379592,2.278
-0.423378304766,-0.526094687857,-0.140176731117,-2.64513483021,-0.0739369769316,2.11046649977,-0.680086191548,-1.02397397862,-0.112831528177,0.0301826241789,-0.0773851421468,-0.00157256185123,-0.0329087324284,-1.0036681784,0.573938783764,0.818864371128,0.00601340920269,0.0,0.818861380059,-0.57384827604,-0.0120392372593,0.0,-0.00640784131395,0.0118341615929,-0.999909441994,0.0,0.31197011663,-0.198449946039,0.304925778086,1.0,-0.222805142857,-0.292829616327,2.295
-0.441575999703,-0.527751790384,-0.139696223251,-2.64637920933,-0.0740485018315,2.10995554179,-0.697584936633,-0.993643041475,-0.085944167912,0.0322413773868,-0.0603998529124,-0.00575420245062,-0.0210116509021,-0.955687844389,0.574049669915,0.818786256914,0.00606538219691,0.0,0.818784155718,-0.573959317286,-0.0119981392633,0.0,-0.00634275103009,0.011853994951,-0.999909622072,0.0,0.307991063021,-0.203689728046,0.304935074928,1.0,-0.212272571429,-0.278986808163,2.313
-0.455999720752,-0.528758732393,-0.139187664444,-2.64714779398,-0.0740616570938,2.10960881769,-0.711604611364,-0.952890421917,-0.0626360553919,0.0286448989797,-0.0497989330908,-0.000683370819678,-0.0227003272025,-0.928100398155,0.57397010757,0.818841981091,0.00607227470247,0.0,0.818840013563,-0.573879825061,-0.0119885561225,0.0,-0.00633209901429,0.011853522564,-0.999909695185,0.0,0.304863780152,-0.207795520385,0.304937340039,1.0,-0.203495428572,-0.267451134694,2.328
-0.47277014079,-0.529592236644,-0.138593756514,-2.64778370356,-0.0740566862056,2.10927295623,-0.727719749052,-0.901041298339,-0.0384731520587,0.0336154843794,-0.0288661859921,-0.00094475373861,-0.0158903802011,-0.880881024595,0.574051996862,0.81878469414,0.00605610779721,0.0,0.818782522554,-0.573961776363,-0.01199195295,0.0,-0.00634297526107,0.0118428677682,-0.999909752502,0.0,0.301233215006,-0.212565945408,0.304939490605,1.0,-0.192962857143,-0.253608326531,2.346
-0.487803516138,-0.530036987591,-0.138039058538,-2.64813285342,-0.0740400014723,2.10907008828,-0.742261658163,-0.880265718921,-0.0218018093013,0.0291893988855,-0.0189798636367,-0.000931950562894,-0.00697603180078,-0.834640927369,0.574049773195,0.818786588619,0.00601058183895,0.0,0.818783965431,-0.573960003384,-0.0119782874238,0.0,-0.00635794993488,0.0117977283544,-0.999910191006,0.0,0.297988258832,-0.216838091219,0.304940299312,1.0,-0.183015428572,-0.240534563265,2.363
-0.50118148625,-0.530205120293,-0.137421223914,-2.64827752184,-0.0739482812552,2.1089288138,-0.755358064246,-0.825296191468,-0.00485413701587,0.0415239424378,-0.00622709818608,0.00898480292182,-0.00272850322184,-0.806026714037,0.573875347466,0.818909292062,0.00595011316491,0.0,0.818905893505,-0.573785882353,-0.0119852282766,0.0,-0.00640084710693,0.0117508360195,-0.999910469497,0.0,0.295122686934,-0.22059835695,0.304940046801,1.0,-0.173653142857,-0.228229844898,2.379
-0.514876102038,-0.530241138916,-0.136852360321,-2.64832233397,-0.0738631720128,2.10886143433,-0.768526192723,-0.80573858063,-0.00114982039304,0.0248924358259,-0.00150257867259,0.00229247722448,-0.00350865466784,-0.761508953741,0.573939151969,0.818864960093,0.00589693732452,0.0,0.818861133698,-0.573850372148,-0.0119557937945,0.0,-0.00640634427221,0.0116908960204,-0.999911136903,0.0,0.292164357262,-0.224455521345,0.304941964138,1.0,-0.163705714286,-0.215156081633,2.396
-0.52838731775,-0.530053453169,-0.136111178185,-2.64824045752,-0.0736017890837,2.10883975981,-0.781679085074,-0.735119959079,0.00777411614984,0.0447235751153,0.0103596315739,0.0228954093093,-0.00758724290244,-0.714257907221,0.573826411059,0.818944057464,0.00588452348421,0.0,0.818939951418,-0.573737488735,-0.0119748441588,0.0,-0.0064306795472,0.0116907783066,-0.999910982069,0.0,0.289278535077,-0.228191119493,0.304928319221,1.0,-0.153173142857,-0.20131327347,2.414
-0.539145585598,-0.529787698964,-0.13559794856,-2.64807851414,-0.0733716468237,2.10884443332,-0.792018032367,-0.709090618591,0.0154559307151,0.0360173504769,0.0131811774355,0.0200224583397,-0.000545709820919,-0.680214371242,0.573915493255,0.818881383006,0.00591895845774,0.0,0.81887757308,-0.573826136282,-0.0119930199317,0.0,-0.00642453137763,0.0117301081277,-0.99991056098,0.0,0.286958851118,-0.231178337195,0.304918813573,1.0,-0.144396,-0.1897776,2.429
-0.551140729773,-0.529293325448,-0.134850752531,-2.64777101433,-0.0730185975238,2.1088866262,-0.80364366914,-0.645686145049,0.0288216343722,0.0393670558411,0.0146694214963,0.0248468905165,0.00321932880933,-0.622635331423,0.573859543603,0.818920482016,0.00593424402268,0.0,0.818916535123,-0.573769522042,-0.0120412199529,0.0,-0.00645603759005,0.0117698461462,-0.99990989109,0.0,0.284411201754,-0.23446143381,0.304901249007,1.0,-0.133863428572,-0.175934791837,2.447
-0.561132967448,-0.528744749682,-0.134221918216,-2.64742590956,-0.0727041769898,2.10897990951,-0.81331433527,-0.611733430452,0.0272180726545,0.0368046372359,0.0216669897048,0.0200049423198,0.00846100122881,-0.585875606313,0.573836282923,0.818936650579,0.00595228032224,0.0,0.818932807727,-0.573745951769,-0.0120576182908,0.0,-0.00645945316287,0.0117938435656,-0.999909586272,0.0,0.282161896097,-0.237368561263,0.304885412652,1.0,-0.123916,-0.162861028572,2.464
-0.571129756448,-0.528104751016,-0.133597521652,-2.64695243013,-0.0723561295237,2.10908870592,-0.822840202503,-0.561652295937,0.0394665171004,0.0412778576597,0.0284404303356,0.0155435521626,0.0110347743779,-0.541524366209,0.57395359564,0.818854236894,0.00597960478365,0.0,0.818850768672,-0.573863159401,-0.012051548837,0.0,-0.0064371108675,0.011813661211,-0.999909496411,0.0,0.280178970641,-0.239944893017,0.304888956664,1.0,-0.114553714286,-0.150556310204,2.48
-0.58009731959,-0.52734982564,-0.132873468673,-2.6464476339,-0.0719475382696,2.10921853401,-0.831651190929,-0.517295212698,0.0427530617373,0.0320363157477,0.0342247217692,0.0207944501633,0.00463761476652,-0.500059061167,0.573773670723,0.818980192662,0.00599714215391,0.0,0.818976631237,-0.573682607104,-0.0120950690701,0.0,-0.00646529032817,0.0118515796359,-0.999908865888,0.0,0.278322672668,-0.242366221303,0.304872166478,1.0,-0.104606285714,-0.137482546939,2.497
-0.589520201737,-0.52655368881,-0.132150969335,-2.64587721324,-0.0715413682065,2.10934326422,-0.840539223135,-0.480171306097,0.0434649862314,0.0383562698734,0.0292432371494,0.0260791824997,0.0125387858692,-0.447457160027,0.573906703315,0.81888688245,0.00600970406709,0.0,0.818883323061,-0.573815261105,-0.0121200757774,0.0,-0.0064766358553,0.0118772678446,-0.999908487661,0.0,0.27634767052,-0.24491434344,0.30486935334,1.0,-0.0934885714287,-0.122870693878,2.516
-0.595830722624,-0.52592475952,-0.131638125566,-2.64541146691,-0.0712075547497,2.10945617732,-0.846561952944,-0.438245838311,0.0440547294707,0.0374452022841,0.0362186493321,0.0272764545428,0.0103978719209,-0.430032598762,0.57394834584,0.818857425477,0.00604648244457,0.0,0.818854328901,-0.573856703937,-0.0121168596443,0.0,-0.0064522902337,0.0119058690988,-0.999908304912,0.0,0.275045982556,-0.246621681042,0.30487357349,1.0,-0.0852965714287,-0.112104065306,2.53
-0.602954844657,-0.525142171018,-0.13087967346,-2.64488108481,-0.0707565570411,2.10959443605,-0.853480376008,-0.385127737176,0.0429307235629,0.040631259264,0.0277784542183,0.023009184059,0.00597053928592,-0.373449187929,0.573802755366,0.818959341766,0.00606146590154,0.0,0.818956096331,-0.573710443401,-0.0121649626612,0.0,-0.00648520838392,0.0119445935171,-0.999907630113,0.0,0.273608609216,-0.248494019092,0.304859052867,1.0,-0.0747640000001,-0.098261257143,2.548
-0.608815232511,-0.52453784681,-0.130238830619,-2.64442027584,-0.0703861003621,2.10972558845,-0.85891965528,-0.352893592151,0.0335977132461,0.0415454850625,0.0244649095713,0.0221313478179,0.0134828571515,-0.329287908013,0.573894397599,0.818895124194,0.00606159037605,0.0,0.818892165422,-0.573802591671,-0.0121224627563,0.0,-0.00644899354007,0.0119210318467,-0.999908145522,0.0,0.272361752958,-0.250122462503,0.304875961365,1.0,-0.0648165714287,-0.0851874938777,2.565
-0.613912696907,-0.523932120466,-0.129592652829,-2.6439615912,-0.0699869218887,2.10986763987,-0.863694138878,-0.304649672613,0.0412332153031,0.0331315801537,0.0290025033296,0.0223217722865,0.0136804709784,-0.290424685357,0.573880506904,0.818904792741,0.006070512557,0.0,0.81890220559,-0.573789138137,-0.0120809576041,0.0,-0.00641008332877,0.0119044113925,-0.999908593733,0.0,0.271439304976,-0.251356578683,0.304889074293,1.0,-0.0560394285715,-0.0736518204083,2.58
-0.618868989308,-0.523317875403,-0.128911631791,-2.6435069963,-0.0695259576963,2.10999300971,-0.868256961293,-0.261175003901,0.0280959765166,0.0415688343493,0.0242181344697,0.0252348568007,0.0031670374226,-0.243656969193,0.573942198748,0.818861214143,0.00611648341623,0.0,0.818859294891,-0.573850747039,-0.0120632580322,0.0,-0.00636830815079,0.0119323818718,-0.999908527273,0.0,0.270486958295,-0.252620173197,0.304898060579,1.0,-0.045506857143,-0.059809012245,2.598
-0.622740184773,-0.522843125206,-0.12816414761,-2.64316339625,-0.0691009975821,2.110073661,-0.87179822625,-0.209478352663,0.0286160567359,0.0444448849989,0.0166971836757,0.0233628228679,0.00671948349319,-0.186174264713,0.573883232078,0.818902642796,0.00610282405464,0.0,0.818900513005,-0.573791790865,-0.0120696908565,0.0,-0.00638227427502,0.0119244285302,-0.999908533107,0.0,0.269784992433,-0.253544797493,0.304905359831,1.0,-0.0355594285715,-0.0467352489797,2.615
-0.625675505465,-0.52251667149,-0.127434909813,-2.64292462798,-0.0687183131597,2.11017768146,-0.874419991469,-0.172690623271,0.0170112533472,0.0414216713423,0.013574094121,0.0215949896699,0.00607386208144,-0.1547585115,0.573799800459,0.818961417099,0.00606079182774,0.0,0.818959112185,-0.573709250584,-0.0120172902357,0.0,-0.00636468724362,0.0118592877617,-0.999909419923,0.0,0.269293008338,-0.254203174733,0.304920806087,1.0,-0.0261971428572,-0.0344305306124,2.631
-0.62810169097,-0.522254062182,-0.126718809166,-2.64272880121,-0.0683310444773,2.11021603484,-0.876538864123,-0.126661226822,0.0161011708155,0.0384600709167,0.0101208216909,0.0255658421891,-0.000152037352767,-0.105447882499,0.573720041431,0.819017494389,0.00603364282689,0.0,0.819014893078,-0.57362972806,-0.012011948376,0.0,-0.00637704174546,0.0118333666837,-0.999909648304,0.0,0.268907628006,-0.254707365963,0.304934124335,1.0,-0.0198525,-0.0260918571429,2.648
-0.630062482893,-0.522010028225,-0.126300916235,-2.64256108269,-0.0680368550257,2.11025683316,-0.878205544592,-0.104793308012,0.0104822524099,0.0218730471495,0.00981220542119,0.0177148406344,0.00416324640292,-0.0944403428947,0.573799438817,0.818961571807,0.00607411041617,0.0,0.818959403201,-0.573708763743,-0.0120206993974,0.0,-0.00635984294167,0.0118721489855,-0.999909298125,0.0,0.268562704789,-0.255155164282,0.30493439362,1.0,-0.0195125,-0.025645,2.665
-0.631503106186,-0.521835433973,-0.12607137328,-2.64240533702,-0.067888521376,2.11029065079,-0.879556234376,-0.101501607417,0.0113562417633,0.0148966121724,0.00951718832928,0.0132820321355,0.00298081126321,-0.104149779699,0.573781893744,0.818973806192,0.00608194733647,0.0,0.818971922956,-0.573691532373,-0.0119900790043,0.0,-0.00633052083358,0.0118608627011,-0.999909618137,0.0,0.268294684135,-0.255516818841,0.304949496721,1.0,-0.0192325,-0.025277,2.679
-0.633402542376,-0.521533272007,-0.125858012767,-2.64217242706,-0.0677412411158,2.1103798776,-0.881317813735,-0.0969389847145,0.0134607931254,0.0118615215764,0.0134888020748,0.00701774583431,0.00530103329903,-0.0836702360468,0.573818776113,0.81894791019,0.00608929193977,0.0,0.818946352785,-0.573728808994,-0.0119529030643,0.0,-0.00629532397745,0.0118458317014,-0.999910018535,0.0,0.26792923192,-0.256029846907,0.304957111749,1.0,-0.0188325,-0.0247512857143,2.699
-0.634881816621,-0.52126880028,-0.125723081664,-2.6420001673,-0.0676913636839,2.11041503543,-0.882811176494,-0.0822064887712,0.0173344551486,0.00706461798409,0.011799992772,0.00394358649153,-0.000435398669099,-0.0867430676179,0.573742238059,0.819001733677,0.00606229346908,0.0,0.818999547668,-0.573651879166,-0.0120003895838,0.0,-0.00635081610624,0.0118503741428,-0.999909613799,0.0,0.26762327943,-0.256435059504,0.304944436147,1.0,-0.0184925,-0.0243044285714,2.716
-0.63620133804,-0.521051713622,-0.125655167664,-2.64187521032,-0.0676655946403,2.11041172632,-0.884100333339,-0.0819193643173,0.0113998272364,0.00410886238641,0.00867942818784,0.000680333453561,-0.000287041053658,-0.0792307792463,0.573736870844,0.819005548447,0.00605487807099,0.0,0.819002713823,-0.573645518743,-0.0120880303594,0.0,-0.00642693400062,0.0118945392919,-0.99990860305,0.0,0.267325161157,-0.256797944395,0.304922770101,1.0,-0.0181725,-0.0238838571429,2.732
-0.637561150714,-0.520826555773,-0.125564616124,-2.64169434208,-0.0676290463482,2.11044227111,-0.88548961758,-0.0793318615388,0.0156228012315,0.00634389777494,0.01292384214,0.00229262434639,-0.000106938506795,-0.0848801623503,0.573673663668,0.819049961863,0.00603609863431,0.0,0.819046860989,-0.573582366255,-0.0120936151084,0.0,-0.00644319930727,0.011881864888,-0.999908649062,0.0,0.267040241478,-0.257183884567,0.30492696158,1.0,-0.0178325,-0.023437,2.749
-0.638658959218,-0.520645844579,-0.125545549183,-2.64155113599,-0.067598500907,2.11050833985,-0.886634296303,-0.0768808836615,0.0148477542206,0.00181563861117,0.0130000295431,0.0029585496291,-5.92501471276e-05,-0.0772015867515,0.573642296585,0.819071863942,0.00604517731559,0.0,0.819069098013,-0.573551367113,-0.0120577304617,0.0,-0.00640905144444,0.0118684706297,-0.999909027594,0.0,0.266804283852,-0.257512068708,0.30493169779,1.0,-0.0175525,-0.023069,2.763
-0.640172639805,-0.520429663417,-0.125560777347,-2.6413677383,-0.0675696822479,2.1105570723,-0.888109306199,-0.0782507797517,0.0146303686617,-0.00116291827618,0.00688810878486,0.00148607828887,0.00100789858179,-0.0728835668888,0.573706616015,0.81902662247,0.00607102360427,0.0,0.819024332076,-0.573615821241,-0.0120324557286,0.0,-0.00637258907698,0.0118756441539,-0.999909175468,0.0,0.266458890977,-0.257965824371,0.304939347296,1.0,-0.0171725,-0.0225695714286,2.782
-0.641510840477,-0.520238414715,-0.125562185462,-2.64120500914,-0.067545100757,2.11056559094,-0.889427444841,-0.076793434404,0.00865333004573,0.00013623928651,0.00941099261192,0.000571395767643,0.000939426857106,-0.0819865635528,0.573743030522,0.819000967422,0.00609074628871,0.0,0.818998840941,-0.573651970823,-0.0120441608226,0.0,-0.00637033340187,0.0118987965701,-0.999908914598,0.0,0.266150051715,-0.258359387627,0.304943655626,1.0,-0.0168325,-0.0221227142857,2.799
-0.642855952122,-0.520040337885,-0.125561150426,-2.64102903151,-0.0675169479591,2.11060833741,-0.890764649596,-0.0787045356593,0.0173611550207,-0.000497170196456,0.0103187713968,4.01299699786e-05,0.00568975526334,-0.0660763693774,0.573769904422,0.818982017179,0.00610730862223,0.0,0.818980275107,-0.573679084669,-0.0120151445992,0.0,-0.00633667414093,0.0118959226972,-0.999909162666,0.0,0.2658480554,-0.258761552582,0.304954441988,1.0,-0.0164725,-0.0216495714286,2.817
-0.644017604298,-0.519866748538,-0.12553630893,-2.64087350253,-0.0674915452533,2.11065475522,-0.891898077112,-0.0746250601815,0.0114924535875,0.00151127214953,0.0105355689156,-4.29120619891e-05,0.0054292993689,-0.0697554454542,0.573794290652,0.81896492001,0.00610890403627,0.0,0.818963421391,-0.573703877794,-0.0119800638311,0.0,-0.00630667150545,0.0118772898531,-0.999909573852,0.0,0.265594324345,-0.259105414446,0.304965811331,1.0,-0.0161525,-0.021229,2.833
-0.645232403827,-0.51967061984,-0.125482316736,-2.64071618397,-0.067466254461,2.11069333716,-0.893172013148,-0.0686130536644,0.0125981567767,0.00189191301939,0.0107591242306,0.00237106376614,-0.00033378454386,-0.0751167112121,0.573726605492,0.819012412844,0.00609890639081,0.0,0.819010831451,-0.573636337466,-0.01197318698,0.0,-0.0063077558772,0.011864634748,-0.999909717254,0.0,0.265331342709,-0.259455741481,0.304969711666,1.0,-0.0158125,-0.0207821428571,2.85
-0.646415022203,-0.519453686266,-0.125415422972,-2.64055628651,-0.067443464393,2.110728224,-0.894339961909,-0.0697411366128,0.0062366979283,0.0033231829743,0.0101529128144,-6.17252516145e-06,0.000256325681364,-0.0706207710945,0.573710673415,0.819023711606,0.00608029101744,0.0,0.819021813813,-0.573620346943,-0.0119880345254,0.0,-0.00633082777694,0.0118577826372,-0.999909652724,0.0,0.265063683765,-0.259812656086,0.3049680062,1.0,-0.0154525,-0.020309,2.868
-0.647501160737,-0.519271515868,-0.125374843695,-2.64042095135,-0.0674187883539,2.11075636092,-0.895458005895,-0.0701705458721,0.00910156501727,0.000722380707938,0.00587971330263,0.00475253083502,0.000947221034405,-0.0726370608078,0.573672124909,0.819050729546,0.00607802873636,0.0,0.819048715409,-0.573581653302,-0.0120014867444,0.0,-0.0063437028382,0.0118633484377,-0.999909505104,0.0,0.264838618523,-0.260106377437,0.304964916098,1.0,-0.0151525,-0.0199147142857,2.883
-0.648633422512,-0.519079018592,-0.125346108131,-2.64028464581,-0.067395059364,2.11079323295,-0.896610510067,-0.0640728440236,0.010568031378,0.00225306131717,0.00541996812365,-7.72501584949e-05,0.008390170075,-0.068353853899,0.573652517556,0.819064440602,0.00608096581565,0.0,0.819062379962,-0.573561879296,-0.0120139606339,0.0,-0.00635252007059,0.0118727576843,-0.999909337447,0.0,0.264585187592,-0.260434227725,0.304959823,1.0,-0.0148125,-0.0194678571429,2.9
-0.649803199392,-0.518876403704,-0.125342175876,-2.64011600645,-0.0673709710066,2.11084103668,-0.89776200875,-0.0693061005556,0.0151039659669,0.000633638838765,0.00702058959913,0.00019290219213,0.00163990755017,-0.0713566503645,0.573683744753,0.819042494815,0.006090943748,0.0,0.819040687301,-0.573593288808,-0.0119932681559,0.0,-0.00632939367546,0.011869302262,-0.999909525127,0.0,0.264325127548,-0.26078679128,0.304966030403,1.0,-0.0144525,-0.0189947142857,2.918
-0.650776268622,-0.5187169631,-0.125341985541,-2.6399832541,-0.0673518750836,2.11088256265,-0.898746536746,-0.066152147593,0.00937094387042,2.00856218612e-06,0.0073897677156,-0.000459517629184,0.00594240929801,-0.063237711402,0.573689269062,0.819038551924,0.0061008134972,0.0,0.819036993371,-0.573598997218,-0.0119725010428,0.0,-0.00630664083517,0.0118655157639,-0.999909713833,0.0,0.264106446372,-0.261079113541,0.304971192868,1.0,-0.0141525,-0.0186004285714,2.933
-0.651943666859,-0.518538883955,-0.125340132198,-2.63982169956,-0.0673295438417,2.11090882176,-0.899917533042,-0.0643600622494,0.0145623071806,0.00188958589466,0.0078135744509,3.66589425888e-05,-0.000105060173478,-0.0662970199371,0.573702865811,0.819028937145,0.0061130010221,0.0,0.819027630637,-0.573612716835,-0.0119556781011,0.0,-0.00628567222233,0.0118659519889,-0.99990984069,0.0,0.263841075445,-0.261426784219,0.304981307468,1.0,-0.0137925,-0.0181272857143,2.951
-0.652999728865,-0.518355643863,-0.12533604866,-2.63966655275,-0.0673100945574,2.11095426828,-0.900946907618,-0.0612081419684,0.0127992608834,0.000332366619294,0.00820578376418,-0.000401710622547,0.00145509696982,-0.0658569176127,0.573738166314,0.819004165195,0.0061188895271,0.0,0.819003078152,-0.573648255856,-0.0119324528621,0.0,-0.00626275886754,0.0118577212801,-0.999910082106,0.0,0.2636060751,-0.261745615188,0.304988288107,1.0,-0.0134525,-0.0176804285714,2.968
-0.653948929813,-0.518174890685,-0.125335268457,-2.63953108639,-0.0672905562135,2.11099636839,-0.901910824054,-0.060428046626,0.0174817181534,0.000626513313296,0.0048223882768,0.000599734903939,0.00447875188573,-0.05673090397,0.573741015534,0.819002094219,0.00612891994692,0.0,0.819001143047,-0.573651073715,-0.0119298036418,0.0,-0.00625479308217,0.011864438526,-0.999910052286,0.0,0.263393014813,-0.26203130959,0.304986869038,1.0,-0.0131325,-0.0172598571429,2.984
-0.654949850598,-0.517990664409,-0.12532255254,-2.63940080744,-0.0672762885768,2.1110076546,-0.902926612346,-0.060987315034,0.014501432077,0.000351595678409,0.00920557910975,0.00244198297819,0.00329578813858,-0.0584584939938,0.573732818735,0.819007800078,0.00613376056513,0.0,0.819006673656,-0.573642407315,-0.0119667848036,0.0,-0.00628242587568,0.0118895569248,-0.999909580693,0.0,0.263162113618,-0.262322636805,0.304979452424,1.0,-0.0127925,-0.016813,3.001
-0.655931251283,-0.51781415837,-0.125302697034,-2.63927967241,-0.0672628722456,2.11104625666,-0.903826484194,-0.0583863857057,0.00809125791413,0.00048144948704,0.00508585616269,0.000219710423916,0.00488307635811,-0.0520497382643,0.573797654691,0.818962398912,0.00613086790146,0.0,0.818961169031,-0.573707117212,-0.011978905635,0.0,-0.00629307190652,0.0118946397115,-0.999909453297,0.0,0.262939899281,-0.262608796189,0.304973215901,1.0,-0.0124525,-0.0163661428571,3.018
-0.656826994895,-0.517647998982,-0.125263088075,-2.63916223651,-0.0672512392451,2.11108038605,-0.904710361347,-0.0538583632493,0.00969896391459,0.00221309237699,0.00363017712554,0.00449925946373,0.000450178714599,-0.0602274369562,0.573790433684,0.818967560611,0.00611717099313,0.0,0.818966100181,-0.573699856353,-0.0119895152871,0.0,-0.00630972544929,0.0118894537574,-0.999909410024,0.0,0.262742765256,-0.262866742158,0.304969186844,1.0,-0.0121325,-0.0159455714286,3.034
-0.657784765473,-0.517465250718,-0.125239608289,-2.63902693801,-0.0672373593802,2.11111877744,-0.905722651832,-0.0497235939575,0.0124485381503,0.00432929788282,0.00537775251122,0.00246851745551,0.00318215714719,-0.0549112236902,0.573742147914,0.819001424289,0.00611241526492,0.0,0.818999876793,-0.57365155327,-0.0119935042803,0.0,-0.0063164221875,0.0118874751264,-0.999909391268,0.0,0.262530083351,-0.263149038297,0.304967133505,1.0,-0.0117725,-0.0154724285714,3.052
-0.65866472953,-0.517295712765,-0.125198035971,-2.63890072264,-0.0672235731803,2.11115648363,-0.906614130601,-0.0520068663159,0.00856461456589,0.0031367275679,0.00500489825958,0.00119083851678,0.00167943840895,-0.0455140932318,0.573715708187,0.819020052556,0.00609808105353,0.0,0.819018321546,-0.57362518492,-0.011995128085,0.0,-0.00632635936463,0.0118764621719,-0.999909459313,0.0,0.262339701185,-0.263404618743,0.304966182249,1.0,-0.0114325,-0.0150255714286,3.069
-0.659445186996,-0.517145594205,-0.125164689781,-2.63879098627,-0.0672144011508,2.11118894011,-0.907369095325,-0.0526487865305,0.00870355309585,-0.000994182896268,0.00808837019171,0.00177643239716,0.00335816223202,-0.0440455404926,0.573722592127,0.81901533089,0.00608456662791,0.0,0.819013409685,-0.573632097237,-0.0119999448451,0.0,-0.00633795810775,0.0118682096221,-0.999909483847,0.0,0.262168941027,-0.263631550071,0.304964250649,1.0,-0.0111325,-0.0146312857143,3.084
-0.66035067728,-0.516978617236,-0.125151390451,-2.63868074417,-0.0671986460682,2.11121773485,-0.908261946626,-0.0477292599985,0.0112256950957,0.000776086039411,0.0070585667737,5.04871214654e-05,-0.000146834235759,-0.0499404165143,0.573736096121,0.819005835348,0.00608938205963,0.0,0.819003828018,-0.573645299606,-0.0120227631305,0.0,-0.00635369009308,0.01188534923,-0.999909180424,0.0,0.261960332328,-0.263894135399,0.304955543628,1.0,-0.0107725,-0.0141581428571,3.102
-0.661175366333,-0.516818787279,-0.125147755061,-2.63857595597,-0.067187095466,2.11124255659,-0.909104759829,-0.0502858554122,0.00627976937721,0.000100837491217,0.00693198818206,0.00240180177054,0.00106576498182,-0.0538030167129,0.573729187935,0.819010626537,0.00609585370297,0.0,0.819008533201,-0.57363804696,-0.0120482581592,0.0,-0.00637096051164,0.011905222782,-0.999908834111,0.0,0.261768588964,-0.264136068017,0.304946417075,1.0,-0.0104325,-0.0137112857143,3.119
-0.661933085212,-0.516666035978,-0.125149671502,-2.63846544082,-0.0671688156763,2.11127829651,-0.909827085672,-0.0512053271612,0.00920452867323,0.000588221337455,0.00969609742389,0.00637231144595,5.03420854645e-05,-0.0380911605392,0.573773145339,0.818979751044,0.00610671503269,0.0,0.818977780193,-0.573681913057,-0.0120501071307,0.0,-0.00636560433315,0.0119155212025,-0.999908745554,0.0,0.261596876565,-0.264364033452,0.304943300347,1.0,-0.0101125,-0.0132907142857,3.135
-0.662703465821,-0.516503992222,-0.125144260579,-2.63834628104,-0.0671517160474,2.1113088824,-0.910561606261,-0.0499177175052,0.0103086532513,0.000496537145722,0.00627409748188,0.000607060252742,0.000394399356262,-0.0446661391813,0.573812222187,0.818952326769,0.00611285942804,0.0,0.818950382899,-0.573720855909,-0.0120580573402,0.0,-0.00636802177614,0.0119254188481,-0.999908612166,0.0,0.261424082433,-0.264595083513,0.304940408227,1.0,-0.0097725,-0.0128438571429,3.152
-0.663441123528,-0.516342562708,-0.125124568868,-2.63824167752,-0.0671310788877,2.11132875712,-0.911297057041,-0.0429083763493,0.0129065489256,0.00133016713834,0.00844879083998,0.000127972563101,-0.000353475227952,-0.0375667972495,0.573814436983,0.818950731911,0.00611862028422,0.0,0.818948651032,-0.573722648442,-0.0120903489753,0.0,-0.00639113215722,0.0119486826673,-0.999908186991,0.0,0.261258287157,-0.264808737319,0.304930547499,1.0,-0.0094325,-0.012397,3.169
-0.664150710071,-0.516209079177,-0.125096401049,-2.63813477771,-0.0671130914175,2.1113534948,-0.912047284844,-0.0366300422517,0.0105695457792,0.000518996297198,0.0047523409698,0.000273678524264,9.60485785524e-05,-0.0458329594158,0.573778114163,0.818976183771,0.00611825341173,0.0,0.818974070148,-0.573686282662,-0.0120941478159,0.0,-0.00639498409133,0.0119502783049,-0.999908143295,0.0,0.261112512517,-0.265001164669,0.304929811199,1.0,-0.0091125,-0.0119764285714,3.185
-0.664833649014,-0.51607669449,-0.125067966829,-2.63805632785,-0.0670899685985,2.11138558045,-0.912731147828,-0.038230730225,0.00666227323527,0.000508928946541,0.00383638536244,0.00190428429508,-0.000164681180077,-0.0440256557733,0.573767512821,0.818983598999,0.00611986133927,0.0,0.818981432149,-0.573675537939,-0.0121052826368,0.0,-0.00640333647891,0.0119579009413,-0.999907998711,0.0,0.260950485253,-0.265207651891,0.304922857014,1.0,-0.0087525,-0.0115032857143,3.203
-0.665499037418,-0.515958324564,-0.12503224168,-2.6379835037,-0.0670695952901,2.11141633553,-0.913382664887,-0.0377017939388,0.00636808381897,0.00036108282117,0.00429348043343,0.00185770144065,0.000208283755631,-0.0397250021257,0.573766088051,0.818984610815,0.00611803505376,0.0,0.818982352898,-0.57367399598,-0.0121160587396,0.0,-0.00641323150923,0.0119625766857,-0.999907879367,0.0,0.260802392592,-0.265392763009,0.304915735508,1.0,-0.0084125,-0.0110564285714,3.22
-0.666103245384,-0.515844306419,-0.125015480087,-2.63790139688,-0.067050994486,2.11143287088,-0.913977549403,-0.0378791063643,0.00404521849956,0.0014777943432,0.00664312840147,0.000886654903066,0.000150470978573,-0.0356152815053,0.573774070855,0.818978977597,0.00612346063338,0.0,0.818976712233,-0.573681807257,-0.0121274789042,0.0,-0.00641935590345,0.0119736351267,-0.999907707707,0.0,0.260666013316,-0.265566575578,0.304912771652,1.0,-0.0080925,-0.0106358571429,3.236
-0.666723461546,-0.515735949404,-0.124999917896,-2.63782516338,-0.0670276525923,2.11145211639,-0.914610974214,-0.0349165219083,0.0057309225809,0.00845532631687,0.00588210616767,0.00140485194776,0.00224031096959,-0.034423008193,0.573763876676,0.818986027404,0.00613576731856,0.0,0.818983856645,-0.573671437615,-0.0121355313031,0.0,-0.00641903970027,0.0119882546791,-0.999907534565,0.0,0.260517566969,-0.265752830571,0.304909807278,1.0,-0.0077325,-0.0101627142857,3.254
-0.667343964479,-0.515634665085,-0.124990529961,-2.6377454066,-0.067000332238,2.11146753004,-0.915235703983,-0.0335670969317,0.00925520472886,-0.000498806516891,0.00691603328324,0.00102674342066,0.00474914501115,-0.0327250982935,0.573771852353,0.818980326367,0.00615088395052,0.0,0.818978332524,-0.573679306359,-0.0121363591288,0.0,-0.0064109279522,0.0120011729993,-0.99990743164,0.0,0.260382442021,-0.265921317214,0.304909828326,1.0,-0.0073925,-0.00971585714286,3.271
-0.667850043739,-0.515573990724,-0.124971941614,-2.63768355,-0.0669821235817,2.11148234627,-0.915728333678,-0.0336812986076,0.00870440597328,0.00403886892477,0.00440647789097,0.000309867044251,0.000681628593217,-0.0310511735855,0.573780557112,0.818974201291,0.00615441310646,0.0,0.818972375551,-0.57368822234,-0.0121168698127,0.0,-0.00639281254386,0.0119929495349,-0.99990764629,0.0,0.260268544823,-0.266064427485,0.304917241766,1.0,-0.0070925,-0.00932157142858,3.286
-0.668394215323,-0.515495790721,-0.124948878325,-2.63760247998,-0.0669579319398,2.11150245828,-0.916244397083,-0.0305350578056,0.0017774882072,0.0100344018825,0.00169559241313,0.00516464686197,0.000340031726069,-0.0295689103765,0.573795421864,0.818963785752,0.0061545410554,0.0,0.818962140467,-0.573703419144,-0.012089096164,0.0,-0.00636977335191,0.0119772347486,-0.999907981684,0.0,0.260147016403,-0.266230198043,0.304928885762,1.0,-0.00673250000001,-0.00884842857144,3.304
-0.668932902526,-0.515390058778,-0.124902762135,-2.63750736281,-0.0669308302921,2.11152470089,-0.916764822045,-0.0341196767975,0.0118115548828,0.0041196293711,0.00437973783294,0.00595111202326,0.00189207383113,-0.027187252025,0.573800217404,0.818960444093,0.00615210690558,0.0,0.818958859425,-0.573708398001,-0.0120750790473,0.0,-0.0063596191443,0.0119672358434,-0.999908166039,0.0,0.260042601786,-0.266374939074,0.30493464305,1.0,-0.00639250000001,-0.00840157142858,3.321
-0.669390410774,-0.515308050868,-0.124858267303,-2.63740999012,-0.0669116342168,2.11155094956,-0.917213993079,-0.0288883327356,0.0063277826059,0.00174398276899,0.00903832904565,0.00115798009185,0.00231195000736,-0.0264281644287,0.573788462026,0.818968793667,0.00613699820344,0.0,0.8189673037,-0.573697259212,-0.0120315063547,0.0,-0.00633277112167,0.0119297700836,-0.999908784138,0.0,0.259956581351,-0.266510141034,0.30495189267,1.0,-0.00607250000001,-0.00798100000001,3.337
-0.669841116189,-0.515214543691,-0.124823109772,-2.63733996202,-0.0668922055237,2.11157216326,-0.917686423171,-0.0240584484256,0.00715180805592,-5.1487095265e-06,0.0019579530793,0.000155834829281,0.00257421692221,-0.0308029179938,0.573757623223,0.818990430518,0.00613281451061,0.0,0.818988891128,-0.573666454338,-0.0120308885025,0.0,-0.00633511456932,0.0119257505556,-0.999908817241,0.0,0.259863058883,-0.266637474412,0.304951823737,1.0,-0.00573250000001,-0.00753414285715,3.354
-0.670283001575,-0.515131590588,-0.124791481576,-2.637279422,-0.0668689540468,2.1116009554,-0.918148459539,-0.0221783669359,0.00401334463559,7.69552537662e-05,0.00247500865343,0.000837505393013,-0.000441380687164,-0.0291332592106,0.573731718711,0.819008573168,0.00613342676668,0.0,0.819007100132,-0.57364066264,-0.012021106458,0.0,-0.00632712807021,0.0119204396444,-0.999908931138,0.0,0.259770666741,-0.266761657486,0.304951905273,1.0,-0.00539250000001,-0.00708728571429,3.371
-0.670663364961,-0.515063132811,-0.124774313103,-2.63724674644,-0.0668516628914,2.11161446963,-0.918544678645,-0.0208609309684,0.00102099327811,0.000174224376076,0.00489255587273,3.32845290404e-06,0.0012647386162,-0.0294945287772,0.573715728947,0.819019716201,0.00614115086816,0.0,0.819018213529,-0.573624397944,-0.0120400536952,0.0,-0.00633844942586,0.0119375124295,-0.999908655756,0.0,0.259682540533,-0.266864316525,0.304943033822,1.0,-0.00507250000001,-0.00666671428572,3.387
-0.67106144008,-0.515007867473,-0.124766874434,-2.63722265548,-0.0668271449114,2.11162738431,-0.918931738523,-0.0210366946246,0.00111673995094,9.94486241968e-05,0.00139103879809,0.00292674618335,-0.000414647363605,-0.0257431521761,0.573731293133,0.819008668945,0.00616038752699,0.0,0.819007310519,-0.573639675454,-0.0120538360126,0.0,-0.00633847552203,0.011961295635,-0.999908371369,0.0,0.259586398568,-0.266970819946,0.304934858533,1.0,-0.00473250000001,-0.00621985714286,3.404
-0.671468082839,-0.514950723867,-0.124760150067,-2.63718552149,-0.0668090342739,2.11163240448,-0.919302207358,-0.0194114910024,0.00530651101009,3.66508351688e-05,0.00495905020251,0.00281737603932,-4.6298453208e-05,-0.0258695867517,0.573765846913,0.818984364592,0.00617335981194,0.0,0.818983092859,-0.573674010113,-0.0120652655731,0.0,-0.00633988984232,0.0119787452598,-0.999908153512,0.0,0.25948884013,-0.2670825448,0.30493121918,1.0,-0.00437250000001,-0.00574671428572,3.422
-0.671787110452,-0.514909569862,-0.124739516376,-2.63715586297,-0.0667949053295,2.11163317465,-0.919591744306,-0.0234326932788,0.00856156289535,0.000546569284857,0.00385904972704,0.000542510460705,0.000325344695963,-0.0193614191658,0.573782921686,0.818972381938,0.00617602670162,0.0,0.818971090869,-0.573690967423,-0.0120736539024,0.0,-0.00634498052241,0.0119858745019,-0.999908035789,0.0,0.259415407109,-0.267166625518,0.304930050294,1.0,-0.00407250000001,-0.00535242857144,3.437
-0.672136415287,-0.51486038107,-0.12471645179,-2.63709869598,-0.066780523732,2.11163989971,-0.919916169077,-0.0191922166816,0.00343139016443,-4.04008739325e-05,0.00498934954079,0.000333857098827,9.49979954581e-05,-0.0143632634745,0.573789880244,0.818967515213,0.00617488912397,0.0,0.818966303454,-0.573698107363,-0.0120591175402,0.0,-0.00633362526586,0.0119766563171,-0.999908218235,0.0,0.259347392303,-0.267257520089,0.304937379574,1.0,-0.00373250000001,-0.00490557142858,3.454
-0.672411779326,-0.514811562482,-0.124704912857,-2.63705673166,-0.0667670541948,2.11165424313,-0.920183202346,-0.0218190237052,0.00273005115613,0.00202871640727,0.00242050524683,0.00201877262498,0.00215980915143,-0.0126669117354,0.573794073122,0.818964590284,0.00617320117144,0.0,0.818963404005,-0.57370239645,-0.0120519753037,0.0,-0.00632868255762,0.0119712083265,-0.999908314771,0.0,0.259280812359,-0.267347401164,0.30494081675,1.0,-0.00337250000001,-0.00443242857144,3.472
-0.672672488055,-0.514759603649,-0.124678819597,-2.63702282311,-0.0667538001801,2.1116602497,-0.920450272768,-0.0105238496353,0.00757197736537,0.000348168938218,-0.000192165112895,0.000200678899218,0.000287886099668,-0.0148976737727,0.573786107016,0.818970163242,0.00617430290399,0.0,0.818968953916,-0.57369435653,-0.0120575581538,0.0,-0.00633273956285,0.0119752523043,-0.999908240661,0.0,0.259226874448,-0.267415176365,0.304938848439,1.0,-0.00305250000001,-0.00401185714286,3.488
-0.672910823506,-0.514711586889,-0.124649337504,-2.63698941243,-0.0667395210202,2.1116735417,-0.920688596062,-0.00795945347751,0.000664216735772,0.000411578014375,-0.000115836620566,0.000250870980213,0.00058366792194,-0.0137196430534,0.573773003931,0.818979373935,0.00617024558418,0.0,0.818978116398,-0.573681282641,-0.0120572679401,0.0,-0.00633502131683,0.011971661443,-0.999908269206,0.0,0.259179549784,-0.267479021282,0.304938121696,1.0,-0.00271250000001,-0.00356500000001,3.505
-0.67313990786,-0.514682984702,-0.124615292375,-2.63696961135,-0.0667277827507,2.11168823818,-0.920889958682,-0.0111177157071,0.00302965477459,0.00144124380675,-0.00201301131535,-0.000106115632811,0.00204727451171,-0.00778722444007,0.573777546496,0.818976251432,0.00616227461872,0.0,0.818974943461,-0.573685959654,-0.0120502522682,0.0,-0.00633378194804,0.0119611429776,-0.999908402937,0.0,0.259133068285,-0.267536711685,0.304938609283,1.0,-0.00237250000001,-0.00311814285715,3.522
-0.673331010437,-0.514670855981,-0.124592601053,-2.63694925316,-0.0667181968468,2.11170195423,-0.921082159985,-0.00893206973962,0.000459989330208,0.0010528106867,0.000139572312604,0.000141221804006,7.27498283381e-05,-0.00805975937645,0.573765585287,0.818984671267,0.0061569693394,0.0,0.818983444547,-0.57367430788,-0.0120271749191,0.0,-0.00631809841591,0.011943464963,-0.999908713472,0.0,0.259094327936,-0.267587497533,0.304945083901,1.0,-0.00205250000001,-0.00269757142858,3.538
-0.67353452615,-0.514648776721,-0.124567652097,-2.63692620489,-0.0667070261832,2.11171048579,-0.921253533792,-0.00880123895332,0.00229319985093,0.00373659852249,0.000132535057422,0.00016775067685,0.000138069031151,-0.0144678213008,0.573780094026,0.818974540117,0.00615249872282,0.0,0.818973328806,-0.573688971816,-0.0120165395224,0.0,-0.00631174078335,0.0119338132994,-0.999908868862,0.0,0.259052488964,-0.267640635481,0.304948716035,1.0,-0.00171250000001,-0.00225071428572,3.555
-0.673720296969,-0.514629513783,-0.124549921831,-2.6368999955,-0.0666959040889,2.11171722435,-0.921424402518,-0.00620517103111,0.000294922656266,8.37169186961e-06,0.00167409447172,0.000295864467969,0.00049208678199,-0.00585374665495,0.573785727512,0.818970604073,0.00615105431466,0.0,0.818969470695,-0.57369479324,-0.0120015490625,0.0,-0.00630020935086,0.0119240728318,-0.999909057789,0.0,0.259014257443,-0.267691344094,0.304954502116,1.0,-0.00135250000001,-0.00177757142858,3.573
-0.673876939625,-0.51461610636,-0.124534177082,-2.63687586305,-0.0666884439165,2.11172274485,-0.92154484219,-0.00947339747176,0.000848055417954,0.000309470039233,0.00106575685857,-7.84753354366e-05,0.000478831591856,-0.010876338607,0.573808530933,0.818954657241,0.00614704093983,0.0,0.818953585074,-0.573717823567,-0.0119846283571,0.0,-0.00628832132864,0.0119112525352,-0.999909285424,0.0,0.258982507699,-0.2677346757,0.30496135526,1.0,-0.00103250000001,-0.00135700000001,3.589
