nelsonifechukwu/NELSON_IML_WORK/CNN-GradCAM/train2dof/data_sample_2022-02-22-09-03-22/robot_state.csv
position_joint1,position_joint2,position_joint3,position_joint4,position_joint5,position_joint6,position_joint7,velocity_joint1,velocity_joint2,velocity_joint3,velocity_joint4,velocity_joint5,velocity_joint6,velocity_joint7,ee_T_00,ee_T_10,ee_T_20,ee_T_30,ee_T_01,ee_T_11,ee_T_21,ee_T_31,ee_T_02,ee_T_12,ee_T_22,ee_T_32,ee_T_03,ee_T_13,ee_T_23,ee_T_33,v_x,v_y,time
0.465082217159,0.547802650518,-0.123993842393,-1.35584073309,0.0795272909679,1.89410707759,0.159164364204,0.000786834962257,-0.000697010134476,-0.000243131605787,-0.00156090589361,-0.00016725167832,0.000651976872761,0.000241948362827,0.573814455663,0.818971282665,0.00193792230098,0.0,0.818927751938,-0.573755711813,-0.0119359612053,0.0,-0.00866348226776,0.00843620785833,-0.999926884563,0.0,0.661673500489,0.260896702737,0.30319628769,1.0,0.0,0.0,0.0
0.465081504962,0.547804523102,-0.123991345617,-1.35583285574,0.0795280161339,1.89410803285,0.159160923004,0.000343621755016,0.00052168777668,-0.00144706413771,0.00143243583925,6.0751540891e-05,-0.000170731819132,-0.000335761072906,0.573810248676,0.818974214477,0.00194459195123,0.0,0.818930760668,-0.573751467688,-0.0119335434182,0.0,-0.00865771854865,0.0084402381829,-0.999926900473,0.0,0.66167502011,0.260898770856,0.303198711914,1.0,-0.00026,-0.000341714285714,0.014
0.465076193893,0.547804251315,-0.12399005719,-1.35583936472,0.0795266805682,1.89410970336,0.159162884102,-0.000382596441741,0.000524240831822,-0.000109423329016,-0.0025303989958,-0.000192497339544,0.000524227542868,0.00167973796689,0.573815316596,0.818970673621,0.00194038370717,0.0,0.818927166216,-0.573756553806,-0.0119356733915,0.0,-0.00866182537562,0.00843806759554,-0.999926883225,0.0,0.661675032126,0.260895129157,0.303195906532,1.0,-0.0006,-0.000788571428571,0.031
0.465080423969,0.547766248078,-0.123994450178,-1.35587130061,0.0795280029906,1.89411093147,0.159164380961,0.00068221450104,-0.000562459557213,0.000295437900777,-0.00148594545256,-3.9317825638e-05,-0.000644022154497,0.00133657148763,0.573818183042,0.818968646762,0.00194816121343,0.0,0.818925220297,-0.573759367461,-0.0119339311543,0.0,-0.00865590635545,0.00844346760529,-0.999926888897,0.0,0.661668793775,0.260892393636,0.303207883159,1.0,-0.00096,-0.00126171428571,0.049
0.465077966939,0.547666604198,-0.123996739194,-1.35598690894,0.0795292024851,1.89414171707,0.159163566619,1.56496852804e-06,-0.0102308962766,-0.00104132111564,-0.0107761755644,0.000288911397169,0.00392529780088,0.000519936012548,0.573827796182,0.818961869153,0.00196573212751,0.0,0.818918594215,-0.573768830384,-0.011933659537,0.0,-0.00864550274937,0.00845780298192,-0.999926857751,0.0,0.661652166375,0.260879317218,0.303226198945,1.0,-0.00126,-0.001656,0.064
0.465066693128,0.54752782565,-0.123994451157,-1.35616830391,0.0795209809035,1.89417715729,0.159152919862,-0.000925356487577,-0.00967022555804,-0.00086002523413,-0.00974469412209,-0.00460725132759,0.00972735245468,-0.00463870445868,0.573834435827,0.818957222445,0.00196340661806,0.0,0.81891383869,-0.573775402146,-0.0119440191852,0.0,-0.0086552529953,0.00846191327918,-0.999926738626,0.0,0.661624189527,0.260854545294,0.303241158208,1.0,-0.0016,-0.00210285714286,0.081
0.465047016392,0.547369882561,-0.123994532821,-1.35638381163,0.0795220267465,1.89428085332,0.159151883021,6.41707383148e-05,-0.00968599685498,-0.000331539348524,-0.0154733001114,0.000200590209662,0.0115659905049,0.000574620471649,0.573862241943,0.818937626301,0.00200957748945,0.0,0.818894752055,-0.573802922005,-0.0119305765373,0.0,-0.00861746250725,0.00849230336245,-0.999926807383,0.0,0.661604726264,0.260825192453,0.303259476165,1.0,-0.00194,-0.00254971428571,0.098
0.465025131792,0.547168037556,-0.123986737888,-1.35660205807,0.0795196267876,1.8944061551,0.159139620216,6.63475405344e-05,-0.0185390518905,0.00105219863952,-0.0139344222363,-3.66989257535e-06,0.00746374461591,-0.000354355615441,0.573876458801,0.818927411684,0.00210981684466,0.0,0.818885773652,-0.573816657879,-0.0118861159416,0.0,-0.00852338221405,0.00854902571983,-0.999927130402,0.0,0.66158906395,0.260800109454,0.303309190644,1.0,-0.00228,-0.00299657142857,0.115
0.46499498599,0.546962531936,-0.123989313585,-1.35687035441,0.0795125952388,1.89452769369,0.159127150563,-0.000913704679896,-0.0133895861993,-0.000595581279614,-0.0159768939647,-0.000183109785268,0.00442991968412,-0.00160352379598,0.573905984605,0.818906579064,0.00216390875338,0.0,0.81886561109,-0.573845928754,-0.0118620372915,0.0,-0.00847231326905,0.00857980984279,-0.999927300743,0.0,0.661566045839,0.260756648925,0.303337675204,1.0,-0.00262,-0.00344342857143,0.132
0.464962572144,0.546720796943,-0.123989559117,-1.35723447517,0.079504336685,1.89465517375,0.159095614873,-0.00276942648928,-0.0122270703054,-0.000238969274181,-0.0221929782391,-0.00375425314925,0.00448927303198,-0.00161592333244,0.573925005987,0.818893216302,0.00217593635024,0.0,0.818852273647,-0.573864766836,-0.0118714038577,0.0,-0.00847288201,0.00859523144265,-0.999927163481,0.0,0.661523288415,0.260702333151,0.303346634767,1.0,-0.00296,-0.00389028571429,0.149
0.464925723083,0.546459176358,-0.123994223039,-1.35760911833,0.0794978495441,1.8948114634,0.158954347586,-0.00237612907202,-0.0155653035362,-0.000181687942427,-0.0210831252353,-0.00440587292156,0.0143214370287,-0.0137259638338,0.57386208942,0.818937186177,0.0022213337904,0.0,0.818896730583,-0.573801572208,-0.0118594803051,0.0,-0.00843772706164,0.00862491518216,-0.999927205151,0.0,0.661486439243,0.260643787603,0.303367307533,1.0,-0.00328,-0.00431085714286,0.165
0.464888019947,0.546161281681,-0.123994945025,-1.35811339348,0.0794820090514,1.8949849217,0.158929329474,-0.00579491149185,-0.0156539090712,-0.00066278060647,-0.0280448670515,-0.00488158360862,0.00647155595517,0.000933711217678,0.573896954131,0.818912810803,0.00220028260645,0.0,0.818871932835,-0.57383636492,-0.0118882636257,0.0,-0.00847301234036,0.00862455400482,-0.999926909894,0.0,0.661424019982,0.260571686379,0.303353292367,1.0,-0.00364,-0.004784,0.183
0.464842340431,0.545846955468,-0.123997076212,-1.35863616614,0.0794565897454,1.89515876299,0.158880548322,-0.000645398086855,-0.0227721756117,-0.0042475735906,-0.0334219664583,-0.00602187918102,0.0143421760023,-0.00459948786779,0.573918298067,0.818897924197,0.00217342849568,0.0,0.818856619821,-0.573857736274,-0.0119114060951,0.0,-0.00850715075807,0.00861606611105,-0.999926693208,0.0,0.661360756234,0.260489989558,0.303342149256,1.0,-0.00396,-0.00520457142857,0.199
0.464785811784,0.54552947614,-0.123989960061,-1.35920976583,0.0793522894228,1.89534346921,0.158778577581,-0.00403748005295,-0.0194148056836,0.00091069149385,-0.0371403525901,-0.00950102311412,0.0154224575269,-0.00135120280763,0.573880352884,0.818924770035,0.00207569204732,0.0,0.818882732017,-0.573820734248,-0.0118988676914,0.0,-0.00855336703199,0.00852843896305,-0.99992705016,0.0,0.661293130831,0.260388441325,0.303309518397,1.0,-0.00428,-0.00562514285714,0.215
0.464718419378,0.545106368989,-0.123999950925,-1.35994501221,0.0793252523636,1.89557029573,0.15870974223,-0.00543500783983,-0.0247395690095,-0.000676904999817,-0.0367671672879,-0.00376757438061,0.00913278842764,0.000501096302562,0.573919807877,0.818897283447,0.00201002263589,0.0,0.818854212231,-0.573860279168,-0.0119543300255,0.0,-0.00863606250328,0.00850690607788,-0.999926522787,0.0,0.661201899478,0.260267377192,0.303279066058,1.0,-0.00464,-0.00609828571429,0.233
0.464647485606,0.544685076557,-0.123993130376,-1.36066211197,0.0793060077983,1.89582023714,0.158619039434,-0.00231012685467,-0.0231356629254,0.000557289646152,-0.0399195267511,-0.00384827911083,0.0134700814858,-0.0038988687168,0.573933711778,0.818887599529,0.00198512545363,0.0,0.818843917578,-0.573874005144,-0.0120004902855,0.0,-0.00868800805939,0.00851315774075,-0.999926019594,0.0,0.661115941859,0.260158679592,0.303257395421,1.0,-0.00498,-0.00654514285714,0.25
0.464583813776,0.5442607471,-0.123998882928,-1.36138455683,0.0792806017864,1.89607865029,0.158507419274,-0.00550696042678,-0.0245267483487,-0.000123431502092,-0.0497924273107,-0.00167040402368,0.0198628325621,-0.00213278358636,0.57393201528,0.818888851159,0.00195912863595,0.0,0.818844666725,-0.573872260414,-0.0120327637824,0.0,-0.00872937459876,0.00851037425305,-0.999925683013,0.0,0.661031773733,0.260046488647,0.303236431416,1.0,-0.0053,-0.00696571428571,0.266
0.46450510737,0.543753860464,-0.124001345435,-1.36220861462,0.0792447634742,1.89636609876,0.158426006923,-0.00608696075393,-0.0291190264588,-0.000748656490517,-0.0524024097,-0.000529424323007,0.0164518984092,-0.00612110506766,0.573967821733,0.818863799111,0.00194036659376,0.0,0.818819221909,-0.573907999643,-0.0120597131073,0.0,-0.0087618392734,0.00851086058789,-0.999925394929,0.0,0.660935827191,0.259915577644,0.303227869242,1.0,-0.00564,-0.00741257142857,0.283
0.464426532935,0.543187375397,-0.124005243438,-1.3631124596,0.0791916938416,1.89667256412,0.158293076665,-0.00475202303925,-0.0318272315153,0.000785269467794,-0.0540628482271,-0.00288276790043,0.0193647832256,-0.00362907915987,0.573962051769,0.818867904181,0.00191455807772,0.0,0.818822944087,-0.5739022986,-0.012078278001,0.0,-0.00879191418276,0.00850032096262,-0.999925220598,0.0,0.660828000655,0.259773744735,0.30322510177,1.0,-0.006,-0.00788571428571,0.301
0.46435403782,0.542679160964,-0.124007727641,-1.36391082932,0.0791461066612,1.89696480162,0.158211096778,-0.00226596111083,-0.0319492191992,-0.000528217768483,-0.0555163016437,-0.00455637886018,0.00857910373771,-0.00461754699363,0.573988268022,0.818849523191,0.00191662311207,0.0,0.818804568867,-0.57392848201,-0.012079836141,0.0,-0.00879173273911,0.00850318769825,-0.99992519782,0.0,0.660737655649,0.259648759149,0.303229979477,1.0,-0.0063,-0.00828,0.316
0.464272596659,0.542079449412,-0.124016823572,-1.36483828075,0.0790917410785,1.89730425641,0.158067156276,-0.00976016718097,-0.0361840564123,-0.000852776437617,-0.054733699184,-3.73917436613e-05,0.0227436251013,-0.01521183948,0.573980475235,0.818854964807,0.00192550283926,0.0,0.81881014318,-0.57392066752,-0.0120732646785,0.0,-0.00878133591656,0.0085066032318,-0.999925260127,0.0,0.660633584818,0.259501701645,0.303242366675,1.0,-0.00664,-0.00872685714286,0.333
0.46418611189,0.541403552382,-0.124020103527,-1.36586183127,0.0790275932056,1.89768930233,0.15793302007,-0.00438463970933,-0.0340601237971,-0.000873041421122,-0.0593972238759,-0.000729777982532,0.0234854386463,-0.0105472161,0.573983467944,0.818852796735,0.00195517456115,0.0,0.818808403914,-0.57392357094,-0.0120531863383,0.0,-0.00874783299963,0.008519407081,-0.999925444781,0.0,0.660518809256,0.259345798017,0.303266544842,1.0,-0.007,-0.0092,0.351
0.46410407016,0.540753270463,-0.124017267742,-1.36685570241,0.0789777110996,1.8980594847,0.157801731619,-0.00587499126878,-0.0434659838555,0.000329358819575,-0.0643199705549,-0.00526822012641,0.0313064367538,-0.00928179959462,0.573982949663,0.81885309059,0.00198404345129,0.0,0.818808963205,-0.573922819156,-0.0120509887207,0.0,-0.00872946961704,0.00854177906927,-0.999925414404,0.0,0.660403715095,0.259200866419,0.303285176711,1.0,-0.00732,-0.00962057142857,0.367
0.464015026566,0.540017420354,-0.124021218507,-1.36796534494,0.0788997376925,1.89845849625,0.157679592863,-0.00421487186687,-0.0404390743681,0.000805255845276,-0.0670979156622,-0.00555531073084,0.0284354963388,-0.0131292918118,0.573999110454,0.818841725861,0.00199902196011,0.0,0.818797892945,-0.573939010516,-0.0120320246468,0.0,-0.0087051747432,0.00854333089871,-0.999925612948,0.0,0.660274625753,0.259032183465,0.303311754613,1.0,-0.00766,-0.0100674285714,0.384
0.463913912571,0.539262484234,-0.124023703635,-1.36911316239,0.0788400668793,1.8989006786,0.157530384326,-0.00576599072286,-0.0434419828683,-0.000367160323498,-0.0677208023172,-0.00024116732402,0.0233904867823,-0.00331085310029,0.574009111471,0.818834601303,0.00204513047209,0.0,0.818791312552,-0.573948757223,-0.0120148854656,0.0,-0.00866457067694,0.00857135381923,-0.999925725796,0.0,0.660147380361,0.258857992775,0.30333726304,1.0,-0.008,-0.0105142857143,0.401
0.463809915568,0.538557109022,-0.12402945185,-1.37022913371,0.0787763280623,1.89933309339,0.157387164108,-0.0047221046126,-0.0446534488016,-0.00101497992268,-0.0687975953161,-0.000216469503727,0.0243106126495,-0.0106956791115,0.574025792601,0.818822863066,0.00206282575786,0.0,0.818779817195,-0.573965373391,-0.0120044993201,0.0,-0.0086457344038,0.00858005752663,-0.999925814193,0.0,0.660025735736,0.258681822926,0.303342053855,1.0,-0.00832,-0.0109348571429,0.417
0.46370714734,0.537779822423,-0.124027589886,-1.37145251122,0.0787115258757,1.89980401035,0.157237559894,-0.00572771229219,-0.0425229300824,0.000734577728681,-0.0714581835988,-0.000942408283163,0.0265043534281,-0.00112938916461,0.574036439074,0.818815335681,0.00208795842523,0.0,0.818772539704,-0.573975835285,-0.0120006515173,0.0,-0.00862804593596,0.00859853983469,-0.999925808216,0.0,0.659886559436,0.25850152527,0.303349489307,1.0,-0.00866,-0.0113817142857,0.434
0.46360148328,0.536938649153,-0.124038210458,-1.37275424918,0.0786347305148,1.90028479953,0.157075489713,-0.00774429566241,-0.0503188563016,-0.00244206637324,-0.0800132961421,3.24880441613e-05,0.0218230515861,-0.00976321623145,0.574048851783,0.818806594154,0.00210333955131,0.0,0.818764022122,-0.573988205306,-0.0119901271769,0.0,-0.00861046888118,0.00860522316674,-0.999925902235,0.0,0.659736868826,0.25830235975,0.303365837185,1.0,-0.009,-0.0118285714286,0.451
0.463486779104,0.536151788177,-0.124040220935,-1.37398929204,0.0785568249138,1.90075165023,0.156919228471,-0.000727662836391,-0.0525113701781,-0.00070687262609,-0.0784136125557,-0.00524776479212,0.0231223123062,-0.0151588797104,0.574063374861,0.818796379644,0.00211594565607,0.0,0.818754012931,-0.574002714983,-0.0119789983656,0.0,-0.00859396740266,0.00860930898212,-0.999926009024,0.0,0.659598578582,0.258108319988,0.303373945562,1.0,-0.00932,-0.0122491428571,0.467
0.46336707538,0.535200762429,-0.124045666443,-1.37549762146,0.0784765354056,1.90128579373,0.156744288357,-0.00891690036591,-0.0511097125838,0.00120988632316,-0.0844932115715,-0.005006319218,0.0278897620765,-0.0134349344778,0.574083179474,0.818782533206,0.00210077655944,0.0,0.818739844172,-0.574022455899,-0.0120014411648,0.0,-0.00862084345702,0.00860998074387,-0.99992577189,0.0,0.659416468796,0.257882901404,0.303373641794,1.0,-0.00968,-0.0127222857143,0.485
0.463241771112,0.534302107413,-0.124046315117,-1.37696765307,0.0783966445099,1.90182202331,0.156560298031,-0.00940803919785,-0.0560676855252,-0.000715653565816,-0.0886575646899,-0.0075401600699,0.0343321370857,-0.01325633873,0.574094800676,0.818774452611,0.00207424437571,0.0,0.818731303004,-0.574034073523,-0.0120284170853,0.0,-0.00865804036039,0.00860386616057,-0.999925503137,0.0,0.659242233599,0.257660653653,0.303354461384,1.0,-0.01002,-0.0131691428571,0.502
0.463123641769,0.533433888632,-0.124049923829,-1.37835714958,0.0783094679998,1.90233902078,0.156387449459,-0.00773781309085,-0.0620642956376,-0.000377596513493,-0.0910012288132,-0.00278891334389,0.0291623128044,-0.0118412733628,0.574105246755,0.818767147063,0.00206674628344,0.0,0.818723930434,-0.574044580706,-0.012028798698,0.0,-0.00866254746974,0.00859805662431,-0.999925514073,0.0,0.659080970391,0.257448120744,0.303350370816,1.0,-0.01034,-0.0135897142857,0.518
0.462990696312,0.532494391964,-0.124046477674,-1.37988590789,0.078239494278,1.90291154218,0.156194013176,-0.00602985084025,-0.0536439992511,-0.00113588839157,-0.0901260092551,-0.00240674957633,0.0367542835731,-0.014193465909,0.574118219983,0.818758057632,0.00206384283334,0.0,0.818714565822,-0.574057329299,-0.0120577481328,0.0,-0.00868778160233,0.00861243690032,-0.999925171391,0.0,0.65890111831,0.257220876641,0.303334718756,1.0,-0.01068,-0.0140365714286,0.535
0.462855720971,0.531514758011,-0.124044272506,-1.38145576499,0.078143437534,1.90348061717,0.155994600726,-0.00828864623781,-0.0595855409376,0.000972321452427,-0.0911282655394,-0.00378348044916,0.0332240251605,-0.0132491012102,0.574123677101,0.818754278159,0.00204506489609,0.0,0.818710497363,-0.574062823074,-0.0120724303234,0.0,-0.00871052595204,0.00860554987051,-0.999925032814,0.0,0.65871388,0.256982822056,0.303327283591,1.0,-0.01102,-0.0144834285714,0.552
0.462719802246,0.530559629109,-0.124051516664,-1.38299775059,0.078045527417,1.90402116797,0.1558000225,-0.00709819495416,-0.0584436690003,0.000373478496134,-0.09508440624,-0.00263596020388,0.0322173199017,-0.00832808110856,0.574129800934,0.818750072584,0.00200928456208,0.0,0.818705799371,-0.57406907647,-0.0120936519518,0.0,-0.00874837871383,0.00858850426653,-0.999924848908,0.0,0.658515780689,0.256730942116,0.303317973226,1.0,-0.01136,-0.0149302857143,0.569
0.462573888357,0.529520213413,-0.124049973114,-1.3846404,0.0779458058182,1.90462644754,0.155577354863,-0.0101540402722,-0.0622938973404,0.00155814569818,-0.0972455773573,-0.00701669834977,0.0327615400736,-0.0171706218799,0.574136701357,0.818745250011,0.00200265830902,0.0,0.81870088765,-0.574076002368,-0.0120973951036,0.0,-0.00875517526667,0.0085853019487,-0.999924816922,0.0,0.65833572359,0.25648786553,0.303316221866,1.0,-0.01168,-0.0153508571429,0.585
0.462430482597,0.528420895488,-0.124053134704,-1.38634042092,0.0778393217035,1.9052716219,0.155330649892,-0.0035310314172,-0.0647183940723,0.000469802349325,-0.100160736096,-0.00962602207064,0.0385286791122,-0.0172829152811,0.574119523184,0.81875718573,0.00204714808495,0.0,0.818713464342,-0.574058692534,-0.0120676316121,0.0,-0.00870544455088,0.0086044562702,-0.999925086478,0.0,0.658128710535,0.256215599615,0.303342170288,1.0,-0.01204,-0.015824,0.603
0.462286230298,0.527302986745,-0.124056248963,-1.38807696762,0.0777249994399,1.90594811308,0.155095278085,-0.00904098500943,-0.0692880631933,0.00125012985329,-0.107093144157,-0.0102255383275,0.0386560641946,-0.00547438946094,0.574108898468,0.818764555239,0.00207910701169,0.0,0.818721368177,-0.574048048578,-0.0120376956184,0.0,-0.00866269796003,0.00861332334194,-0.999925381379,0.0,0.657940625763,0.255970031902,0.303356302561,1.0,-0.01236,-0.0162445714286,0.619
0.462137291943,0.52612956307,-0.124059199417,-1.38989048798,0.0776142723868,1.90662808156,0.154858025236,-0.0100891174263,-0.0697864511085,0.000834441434315,-0.111191129116,-0.00904705330566,0.0408401614716,-0.0167411071239,0.574106774691,0.818765961753,0.00211140474009,0.0,0.818723209106,-0.574045801335,-0.0120196398448,0.0,-0.00862939509411,0.00862937887107,-0.999925530907,0.0,0.65772675923,0.255698706063,0.303377851742,1.0,-0.0127,-0.0166914285714,0.636
0.461983135392,0.524955054454,-0.124065227121,-1.39173068863,0.0775025397457,1.90728001963,0.154596351524,-0.0106746536785,-0.068281219384,0.00113605735925,-0.107342431318,-0.00853669430067,0.0389521526564,-0.0217950395889,0.57409180488,0.818776489667,0.0020991520896,0.0,0.818733535083,-0.574030843139,-0.0120306507202,0.0,-0.00864560237589,0.00862551026465,-0.999925424285,0.0,0.657502560576,0.255416999706,0.303384831313,1.0,-0.01304,-0.0171382857143,0.653
0.461837429485,0.523766217232,-0.124073365649,-1.39362203191,0.0773832248622,1.90796643547,0.154346257172,-0.0012362937969,-0.0766066838649,0.000230228422703,-0.108493336933,-0.00263959884991,0.0421605231373,-0.0113836087923,0.574081467828,0.81878378493,0.00208056076357,0.0,0.81874061484,-0.574020613243,-0.0120369466336,0.0,-0.00866153871971,0.00861379343257,-0.999925387371,0.0,0.657271738292,0.255134881606,0.303380298547,1.0,-0.01338,-0.0175851428571,0.67
0.461684421628,0.522620396032,-0.124074426047,-1.39543248621,0.077271766928,1.90867272295,0.15410195945,-0.00957761731358,-0.0737771018703,-0.0017594804756,-0.111668645612,-0.00628331224952,0.0411971052159,-0.0190764169717,0.574074720385,0.818788433709,0.002112614512,0.0,0.818745726179,-0.574013775333,-0.0120153440484,0.0,-0.00862552097,0.00862756548503,-0.999925579982,0.0,0.657062028605,0.254863735463,0.303385220586,1.0,-0.0137,-0.0180057142857,0.686
0.461500271127,0.521236298011,-0.124081074679,-1.39765764474,0.0771367548935,1.9095304126,0.153794629026,-0.00827637195122,-0.0703487796622,-0.00140969432359,-0.11909952807,-0.0053408383471,0.0431656761647,-0.016480956575,0.574061424448,0.818797730569,0.00212232814361,0.0,0.81875518871,-0.574000479304,-0.0120057328028,0.0,-0.00861221521287,0.00862986140558,-0.999925674859,0.0,0.656800899716,0.254529281752,0.30337317542,1.0,-0.01408,-0.0185051428571,0.705
0.461359641741,0.520170449993,-0.124085779155,-1.39933019804,0.0770376162199,1.91013683028,0.153570981538,-0.0122805665792,-0.0757201597105,-0.00125852610238,-0.117664997267,-0.00469708789291,0.0455417707193,-0.0215413976579,0.574059162837,0.818799315866,0.00212245204178,0.0,0.818756729858,-0.573998171605,-0.0120109619508,0.0,-0.00861644973025,0.0086329408662,-0.999925611796,0.0,0.656597447613,0.254274790418,0.303378377532,1.0,-0.01436,-0.0188731428571,0.719
0.4611798986,0.518747595476,-0.124084433173,-1.40153945844,0.0768922658156,1.91092820324,0.153268456505,-0.0122498918972,-0.0892116540925,-0.000240293134076,-0.127340050868,-0.00333985936489,0.0434624490378,-0.0159059107939,0.574035658247,0.81881579563,0.00212197759262,0.0,0.81877322194,-0.573974690522,-0.0120088540697,0.0,-0.00861524383781,0.00863109505641,-0.999925638121,0.0,0.656323972811,0.253944290412,0.303394250883,1.0,-0.01472,-0.0193462857143,0.737
0.461004808158,0.517410503348,-0.124087544259,-1.40366374035,0.0767462014888,1.91168817098,0.152984914198,-0.00882396828714,-0.0793295563735,0.000726877290702,-0.126622186251,-0.0105864986787,0.0462713742271,-0.0130566039317,0.57402200371,0.818825453045,0.0020889240798,0.0,0.818782534601,-0.573961263097,-0.0120156730519,0.0,-0.00863994377268,0.00860780100066,-0.999925625801,0.0,0.656061120107,0.25362102775,0.303387391583,1.0,-0.01506,-0.0197931428571,0.754
0.460834693027,0.516125500761,-0.124093511442,-1.40568787545,0.076626126843,1.91244429533,0.152700771122,-0.00923504260735,-0.085478425853,-0.000194509461845,-0.126271139953,-0.013308482881,0.0468738030692,-0.0159896104834,0.574007591718,0.818835520289,0.00210291812878,0.0,0.818792758443,-0.573946768081,-0.0120113709702,0.0,-0.00862854026032,0.00861663815623,-0.999925648156,0.0,0.655817095383,0.253314491454,0.303391053638,1.0,-0.01538,-0.0202137142857,0.77
0.46064408423,0.514753862483,-0.124096799694,-1.40789770724,0.0764882176249,1.91326626005,0.152402260701,-0.00884360526756,-0.0828005285049,-0.00243580408097,-0.133625041001,-0.00622456667827,0.0433424530158,-0.0219985310613,0.574000938712,0.818840230333,0.00208481314532,0.0,0.81879723683,-0.573940196781,-0.0120200823706,0.0,-0.00864613541498,0.00860674351329,-0.999925581385,0.0,0.655549212146,0.252976832744,0.303372337305,1.0,-0.01572,-0.0206605714286,0.787
0.460457713463,0.513346871662,-0.124095077134,-1.41015880295,0.0763627237665,1.91405160069,0.152088600685,-0.0106250888845,-0.0829060251062,0.00035355470684,-0.133561725577,-0.00565778383367,0.0490755813775,-0.0177066253395,0.573980293173,0.818854828866,0.00203450056981,0.0,0.818810928875,-0.573919521444,-0.0120744590484,0.0,-0.00871975738664,0.00859653835584,-0.999925029869,0.0,0.655259003687,0.252638879758,0.30335025178,1.0,-0.01606,-0.0211074285714,0.804
0.460262123398,0.511988040715,-0.124105352126,-1.41231757272,0.0762282465229,1.91481601796,0.151783156387,-0.0131210742487,-0.0845478944965,-0.00130219284412,-0.137486836799,-0.00457495354284,0.0489954959207,-0.0247730015394,0.573974262377,0.818859138435,0.00200110764509,0.0,0.818814778911,-0.573913613394,-0.0120941762766,0.0,-0.00875513241001,0.00858044762164,-0.999924858964,0.0,0.654992386474,0.25229660051,0.303341216241,1.0,-0.01638,-0.021528,0.82
0.460056070347,0.510451571583,-0.124103561735,-1.41477214211,0.076079482193,1.91576054063,0.151434021412,-0.0105611580553,-0.0831007565246,0.000800137536973,-0.137396286639,-0.00500938278019,0.0504646703917,-0.0184870167226,0.573944211141,0.818880150751,0.00202190614594,0.0,0.81883604626,-0.573883459128,-0.012085180406,0.0,-0.00873614405752,0.0085919943916,-0.999924925892,0.0,0.654695709332,0.251931636315,0.303330585961,1.0,-0.01674,-0.0220011428571,0.838
0.459851632172,0.508947394865,-0.12410645377,-1.4171494697,0.0759285560073,1.9166241518,0.151110399725,-0.00768506139401,-0.0922264527925,0.000690697195453,-0.137847235267,-0.0129902805778,0.0533284601103,-0.0219272689097,0.57393155169,0.818889052959,0.00200993009712,0.0,0.818844784083,-0.573870845543,-0.0120921096861,0.0,-0.00874882440678,0.00858602935941,-0.999924866263,0.0,0.654400200111,0.251568060026,0.303326682776,1.0,-0.01708,-0.022448,0.855
0.459653479218,0.50753191049,-0.124115543371,-1.41939446995,0.0757874701667,1.91742558444,0.150795538913,-0.0147881741334,-0.0931902881717,-0.0015913209701,-0.140191534223,-0.00581895508384,0.0526748275668,-0.0139777155274,0.573920674153,0.81889674366,0.00198239861191,0.0,0.818852099214,-0.573860074211,-0.0121079205646,0.0,-0.008777686306,0.00857244224397,-0.999924729896,0.0,0.654119922982,0.251216974878,0.303318040236,1.0,-0.0174,-0.0228685714286,0.871
0.459429892776,0.505969249817,-0.124119192104,-1.42183256537,0.0756367045442,1.91833400879,0.150468709705,-0.0153680275542,-0.0909183830241,-0.000851830614598,-0.143438649769,-0.0026383627307,0.058867023079,-0.0135153494393,0.573924161833,0.818894236536,0.00200816696416,0.0,0.818849926086,-0.573863446113,-0.0120950677938,0.0,-0.00875233620204,0.00858620432709,-0.999924834028,0.0,0.653823406183,0.250837183814,0.303328982773,1.0,-0.01774,-0.0233154285714,0.888
0.459203962675,0.50432404627,-0.124125578586,-1.42431452855,0.0754817993204,1.91927814967,0.150122558163,-0.0143464643496,-0.093801296344,-0.00182256804984,-0.150749717265,-0.0012151326904,0.0529555455656,-0.0224207162571,0.573916429374,0.818899434238,0.00209656867319,0.0,0.818856343408,-0.573855398599,-0.0120423112571,0.0,-0.00865848132629,0.00862823495577,-0.99992528934,0.0,0.65352607039,0.250451962335,0.303379239986,1.0,-0.01808,-0.0237622857143,0.905
0.458989265251,0.502754253495,-0.124128754881,-1.42663344796,0.0753208048177,1.92016783381,0.14978949466,-0.01268857577,-0.0986759293395,0.000272329054229,-0.14819181666,-0.00671752372257,0.0581904894876,-0.0237953474591,0.573897196416,0.818912626403,0.00220571195629,0.0,0.818871169894,-0.573835924758,-0.0119618341449,0.0,-0.00853014448772,0.00867122395778,-0.999926020519,0.0,0.653250814873,0.250089750646,0.303448920904,1.0,-0.0184,-0.0241828571429,0.921
0.45874196984,0.500944251288,-0.12413728625,-1.4293481403,0.0751525981266,1.92112245794,0.149417606437,-0.0157909541343,-0.102695512781,4.52824722881e-05,-0.151939026638,-0.00800875802781,0.0568456318782,-0.0230430307393,0.573894294373,0.818914541856,0.00224920538908,0.0,0.818873597422,-0.573832789984,-0.0119460238595,0.0,-0.00849226835476,0.00869773730013,-0.999926112642,0.0,0.652908241368,0.249662759214,0.303503121766,1.0,-0.01876,-0.024656,0.939
0.458514765923,0.49933831665,-0.124138351375,-1.43179459883,0.0749977546817,1.92201918483,0.149063464066,-0.0135391549759,-0.0949379718193,-0.000600170424046,-0.150135798806,-0.0166156090066,0.0613678136787,-0.0262494282854,0.573873829227,0.818928754673,0.00229560433462,0.0,0.818888410303,-0.573812135945,-0.0119227100301,0.0,-0.00844676707721,0.0087221429723,-0.999926285457,0.0,0.652604804428,0.249280669971,0.303536723132,1.0,-0.01908,-0.0250765714286,0.955
0.458272352731,0.497760404465,-0.124136276277,-1.43428653447,0.0748467618438,1.92294428141,0.14870182683,-0.0155654964176,-0.100603810278,0.00118869875275,-0.15241638847,-0.00304220767811,0.0568465478713,-0.0307869207418,0.573860634853,0.818937971286,0.00230604731983,0.0,0.818897686068,-0.573798821996,-0.0119263795709,0.0,-0.0084439204266,0.00873266469706,-0.999926217666,0.0,0.65229713328,0.248887355516,0.30353103873,1.0,-0.0194,-0.0254971428571,0.971
0.458002798356,0.496073417458,-0.12413564602,-1.43695840144,0.0746845846147,1.92388695817,0.148300584745,-0.016739232447,-0.0931367732984,0.00259076772148,-0.157412941864,-0.0100195569893,0.0568093450733,-0.0244220712431,0.57384356756,0.8189500227,0.00227314561424,0.0,0.818909154152,-0.573781730216,-0.0119611963278,0.0,-0.0084914960682,0.0087255233186,-0.999925877122,0.0,0.651958818977,0.248455200612,0.303516711382,1.0,-0.01974,-0.025944,0.988
0.457721363038,0.494305323986,-0.124137993904,-1.4398650475,0.0745030037044,1.92489910049,0.14789755383,-0.0145718682493,-0.101257427051,0.00282714734266,-0.157596099666,-0.0147791154618,0.0523396107,-0.020719312185,0.573842884594,0.818950797107,0.00216393623054,0.0,0.818908351154,-0.573781343405,-0.0120345033783,0.0,-0.00861420574715,0.00867814666501,-0.99992523982,0.0,0.651582913283,0.247988583413,0.303452717742,1.0,-0.0230914285714,-0.0303487346939,1.006
0.457424134807,0.492111809669,-0.124219083611,-1.44314703876,0.074311007153,1.92611971532,0.147426753868,-0.0214310015155,-0.150668834289,-0.0100175621741,-0.225504613766,-0.00735664576786,0.0833351852714,-0.034982543667,0.57387215475,0.818930011594,0.00226561575381,0.0,0.818889142483,-0.573810444563,-0.0119537833169,0.0,-0.00848944137544,0.00871539932976,-0.999925982861,0.0,0.651189300321,0.247439046351,0.30352552286,1.0,-0.033048,-0.0434345142857,1.022
0.456993620209,0.488856262967,-0.124248639717,-1.4483567472,0.0740326906822,1.92808647316,0.146626096409,-0.0256584272603,-0.200910717739,0.000460425413585,-0.323039377166,-0.0156683336772,0.112477452093,-0.046710382042,0.573776509041,0.818996959181,0.00229028971565,0.0,0.818956085038,-0.573714374802,-0.0119788908511,0.0,-0.00849686664012,0.00874902131965,-0.999925626176,0.0,0.6505266863,0.246655233155,0.303481512331,1.0,-0.0442491428571,-0.0581560163265,1.04
0.456388518657,0.484778307102,-0.124332338443,-1.45475611578,0.0736585358432,1.93049327763,0.145675802487,-0.0412494567807,-0.261718762098,-0.0107503075571,-0.394967829424,-0.0210901561781,0.147078438397,-0.0619326239574,0.57377085447,0.819000739672,0.00235411966671,0.0,0.818960798958,-0.573708568385,-0.011934623305,0.0,-0.00842404887979,0.0087758396967,-0.999926007282,0.0,0.649737723943,0.245610931071,0.303479365106,1.0,-0.054828,-0.0720596571429,1.057
0.455676269998,0.480144007896,-0.124462271942,-1.46211020607,0.0732167588936,1.9330451207,0.144544131291,-0.0467560599321,-0.307004909408,-0.00603941744595,-0.482625568401,-0.0232668410521,0.168677601956,-0.0817675496474,0.573762094975,0.81900731117,0.00219761700974,0.0,0.818965309565,-0.573700427872,-0.0120161428605,0.0,-0.00858070024107,0.00869434678895,-0.999925387175,0.0,0.648790154658,0.244364456542,0.303418627922,1.0,-0.0647845714286,-0.0851454367347,1.073
0.454752759904,0.474298423714,-0.124601636735,-1.47123587809,0.0726648254579,1.93629130971,0.143237198664,-0.0590415276668,-0.359139208063,-0.00984262281128,-0.566513468345,-0.0371114452696,0.200829286303,-0.0844124440309,0.573841926769,0.818951495213,0.00215371130691,0.0,0.818908967305,-0.573780480588,-0.0120337136895,0.0,-0.00861943626114,0.00866930986308,-0.9999252714,0.0,0.647624483763,0.242812226158,0.303407913487,1.0,-0.0753634285714,-0.099049077551,1.09
0.453600829576,0.467185435433,-0.124707772386,-1.48209138038,0.0720214717706,1.94029758131,0.141546575137,-0.0658452057822,-0.418634309498,-0.00551806521679,-0.625889289116,-0.0487406737093,0.240282170054,-0.10019281924,0.573823154374,0.818964019573,0.00238097662645,0.0,0.818924370968,-0.573760694266,-0.0119284220218,0.0,-0.0084029994277,0.00879481386479,-0.999926017688,0.0,0.646250923372,0.240982301459,0.303504933592,1.0,-0.0865645714286,-0.113770579592,1.108
0.452394896675,0.4601149523,-0.124753269723,-1.49303353185,0.071328321671,1.94417603024,0.139841364003,-0.0747803795257,-0.446470185047,-0.00414510359087,-0.702942322437,-0.0440105016174,0.249709978482,-0.103972753504,0.573772385102,0.818999575198,0.00238596315672,0.0,0.818959691525,-0.573709597624,-0.0119611100611,0.0,-0.008427456351,0.00881713205617,-0.999925615314,0.0,0.644810018605,0.239129530156,0.303506872129,1.0,-0.0965211428571,-0.126856359184,1.124
0.450925395856,0.451763152029,-0.124898288073,-1.50592394665,0.0704756332333,1.94859848834,0.137820530104,-0.0922369313945,-0.515998459921,-0.00850615127083,-0.741626839663,-0.0569491516143,0.283443761931,-0.119198740735,0.57378670929,0.818989903426,0.00225770454159,0.0,0.818948390345,-0.573724488265,-0.0120204998573,0.0,-0.00854953223944,0.00874631495099,-0.999925200939,0.0,0.643089868757,0.236851227838,0.303499216752,1.0,-0.1071,-0.14076,1.141
0.449412370472,0.44307959052,-0.125006355028,-1.51896544396,0.0696134999785,1.95332601299,0.135831790719,-0.0977293849518,-0.547829515138,-0.00779909107797,-0.842892179572,-0.0479767860263,0.289028391209,-0.128063690173,0.573829120454,0.818959345568,0.00254513789163,0.0,0.818921919531,-0.57376611424,-0.0118356564144,0.0,-0.00823276605949,0.0088760844101,-0.999926715659,0.0,0.641374077869,0.234576614411,0.303654406163,1.0,-0.117056571429,-0.153845779592,1.157
0.447714546714,0.433735348787,-0.125086217329,-1.53308084676,0.0686703359303,1.95821233173,0.133517912401,-0.111601191875,-0.619021105293,-0.00668930738309,-0.87695833642,-0.0593421759811,0.325885764817,-0.152221249947,0.57374602222,0.819017288491,0.00263249706795,0.0,0.818980811784,-0.573682496555,-0.0118139738084,0.0,-0.00816578852152,0.00893435707899,-0.999926745898,0.0,0.639441456233,0.232087560812,0.303743965034,1.0,-0.127013142857,-0.166931559184,1.173
0.445720639391,0.423164991516,-0.1251859514,-1.54907432136,0.0675430143619,1.96384735807,0.130871218773,-0.120945892292,-0.642211990729,-0.0132700736883,-0.977713040759,-0.0695828077139,0.343109609419,-0.157137006086,0.573659784723,0.819077258046,0.00276471426198,0.0,0.819042883194,-0.573596218708,-0.0116995843901,0.0,-0.00799718782669,0.00897617342207,-0.999927734038,0.0,0.637249011567,0.229222840842,0.303817099725,1.0,-0.137592,-0.1808352,1.19
0.443354945899,0.411130192176,-0.125315837299,-1.56708755102,0.0662472204308,1.97018577702,0.127888035361,-0.130987448252,-0.683139665429,-0.014942137188,-1.03461291715,-0.0746218159961,0.374919330738,-0.174962583844,0.57363990474,0.819090327667,0.0030069441176,0.0,0.819059723753,-0.573576264752,-0.0114971448253,0.0,-0.00769263645399,0.00905826228029,-0.999929383121,0.0,0.634758633309,0.225918951709,0.303953503199,1.0,-0.148793142857,-0.195556702041,1.208
0.441158287956,0.400638125157,-0.125399662006,-1.58305072632,0.0651893324011,1.97550590984,0.125220907163,-0.151147675052,-0.706039993093,-0.00612426700388,-1.07004585636,-0.0734649196274,0.35684163334,-0.180258109973,0.573668805232,0.819070478668,0.00289823734305,0.0,0.819037535389,-0.573604434403,-0.0116711335416,0.0,-0.00789719119002,0.00906930501719,-0.999927688424,0.0,0.632449791558,0.222951293622,0.303902652122,1.0,-0.158127428571,-0.207824620408,1.223
0.438260515231,0.38722760497,-0.125542794084,-1.60313201981,0.0637130062621,1.98235436932,0.12176688784,-0.163928067496,-0.76655383949,-0.0120537940427,-1.15409570991,-0.0832116907267,0.384883354533,-0.196191120264,0.573687662564,0.819056946811,0.00298841177765,0.0,0.819025507042,-0.573623376141,-0.0115839570053,0.0,-0.00777384727419,0.00909333376389,-0.999928436729,0.0,0.629560875896,0.219118552904,0.303955017178,1.0,-0.169328571429,-0.222546122449,1.241
0.435298913495,0.37388024587,-0.125688790077,-1.62298351185,0.062222029219,1.98897396595,0.118164536376,-0.176804401385,-0.798437083158,-0.00860756132924,-1.18378873725,-0.077059270183,0.391507620001,-0.221082153129,0.573592375034,0.819123531199,0.00302899975222,0.0,0.819092828266,-0.573528218617,-0.0115355118903,0.0,-0.00771194088042,0.00909788879878,-0.999928874664,0.0,0.626627780387,0.215274251227,0.304009243752,1.0,-0.179907428571,-0.236449763265,1.258
0.431983495205,0.359925909619,-0.125864076087,-1.64364918547,0.0606425900791,1.99581091949,0.114500040735,-0.205024034087,-0.858086129576,-0.00958165648604,-1.24521097434,-0.0929677539232,0.415216517796,-0.229924875403,0.57372834019,0.819028156709,0.00306872634986,0.0,0.818998265297,-0.573664394624,-0.0114782700057,0.0,-0.00764075438938,0.00909886553717,-0.999929412268,0.0,0.623543321461,0.21113078671,0.30405289023,1.0,-0.190486285714,-0.250353404082,1.275
0.428557175296,0.346301696991,-0.12605899124,-1.66387112183,0.0591189235553,2.00227434475,0.110659349368,-0.220423170503,-0.870379776448,-0.0149190437046,-1.26583229187,-0.0952717501841,0.406727708967,-0.248937228083,0.573793024592,0.81898336846,0.00292472509187,0.0,0.818951207242,-0.573729054175,-0.0116034241948,0.0,-0.00782516233068,0.00905334531416,-0.999928399323,0.0,0.620442818405,0.206965132639,0.304008774379,1.0,-0.200442857143,-0.263439183673,1.291
0.424719356053,0.331244065828,-0.126200347714,-1.68602961784,0.0574188445135,2.00943679202,0.106454280567,-0.225842763935,-0.897741150227,-0.0109803169044,-1.31827240615,-0.092998514825,0.413393556014,-0.25080540501,0.573831252098,0.818956503878,0.00294716360222,0.0,0.818924233806,-0.573766739002,-0.0116436850378,0.0,-0.00784483817893,0.00909518916972,-0.999927865422,0.0,0.616980732721,0.202426099861,0.303994318706,1.0,-0.211021714286,-0.27734282449,1.308
0.420881122893,0.31642721171,-0.126328550195,-1.70746084625,0.0556044538988,2.01628330809,0.102238157394,-0.246430464471,-0.936833156479,-0.00456116547269,-1.37354940954,-0.11071932347,0.421557293693,-0.259728226099,0.573743023934,0.819017971545,0.00304165639629,0.0,0.818987643422,-0.573679057556,-0.0115032928111,0.0,-0.00767661676805,0.00909118804027,-0.999929207422,0.0,0.613565898069,0.197971202378,0.304079677106,1.0,-0.220978285714,-0.290428604082,1.324
0.416518195619,0.30023279022,-0.126445415999,-1.73080828098,0.0536615020965,2.02361124721,0.0974019120072,-0.267459227041,-0.96096379756,-0.00688984342845,-1.39744048146,-0.124809514666,0.431300548086,-0.286557378239,0.573545143293,0.819156241076,0.00312541416278,0.0,0.819127040775,-0.573480998546,-0.0114534832558,0.0,-0.00758997278656,0.00912937671827,-0.999929520913,0.0,0.609752183797,0.193060133363,0.304129088184,1.0,-0.231557142857,-0.304332244898,1.341
0.411432128244,0.282485402006,-0.126619038699,-1.75620142921,0.0515821355522,2.03135893325,0.0921170480129,-0.291489660547,-0.984427783775,-0.011636421128,-1.43326084563,-0.106343327167,0.423383837858,-0.29812506799,0.573583243524,0.819129327263,0.00318667027503,0.0,0.819100299471,-0.57351815868,-0.011505128123,0.0,-0.00759672085139,0.00920952859448,-0.999928734668,0.0,0.605517920265,0.187531592262,0.304170401714,1.0,-0.242758285714,-0.319053746939,1.359
0.406543049712,0.266209625764,-0.126790495475,-1.77934310957,0.0495931880229,2.03826956824,0.0870727076317,-0.313016828464,-1.01875180075,-0.00464213510113,-1.45754051442,-0.124448198513,0.416220018906,-0.314128286167,0.57356594383,0.819141481641,0.00317616657729,0.0,0.819112033422,-0.57350054969,-0.0115474287078,0.0,-0.00763759163015,0.00922502571951,-0.999928280475,0.0,0.601576454612,0.182364697419,0.304185610259,1.0,-0.252714857143,-0.332139526531,1.375
0.400904396119,0.248411954422,-0.127039047767,-1.80443068359,0.0473324374119,2.04566313916,0.0814927077545,-0.335239737778,-1.04560804623,-0.00687725654188,-1.48505101489,-0.132360611406,0.424265344742,-0.326633288598,0.573695221399,0.819050987551,0.00316538117815,0.0,0.81902182201,-0.573630353949,-0.0114986521276,0.0,-0.00760237002418,0.00918941496272,-0.999928876782,0.0,0.597505733935,0.176899657913,0.304208929539,1.0,-0.262671428571,-0.345225306122,1.391
0.394950358076,0.230103676011,-0.127224623853,-1.82995048866,0.0450486521228,2.05304476961,0.0755343030128,-0.351407953541,-1.083145862,-0.00820153532437,-1.50926289254,-0.13237989747,0.436855812624,-0.357003501918,0.573658124745,0.819076561572,0.00326941867196,0.0,0.819048256114,-0.573592350969,-0.0115115579738,0.0,-0.00755367921286,0.00928168912318,-0.999928393525,0.0,0.592715194622,0.170649472369,0.304255382374,1.0,-0.273872571429,-0.359946808163,1.409
0.389022881929,0.212375158688,-0.12740942127,-1.85436948485,0.0426951862855,2.05994817442,0.0696187275578,-0.382072161296,-1.1473000396,-0.0157744219048,-1.53350778914,-0.151886124529,0.446128415026,-0.372940185776,0.573525634009,0.819169043056,0.00334259400473,0.0,0.81914218467,-0.573460281109,-0.0114076371628,0.0,-0.00742808133416,0.00928081077619,-0.999929342583,0.0,0.588278727948,0.164889478397,0.304326937929,1.0,-0.283829142857,-0.373032587755,1.425
0.382203384616,0.1931977828,-0.127621811232,-1.88069819887,0.0401726931254,2.06709597207,0.0629878390279,-0.40374112333,-1.16680112302,-0.0139237335043,-1.58221502136,-0.159698389744,0.441754689926,-0.404971128553,0.573480275091,0.819201049874,0.00328037617228,0.0,0.819173008131,-0.573414641695,-0.0114881826188,0.0,-0.0075302605159,0.00927562032983,-0.999928626475,0.0,0.583374302325,0.158494174578,0.304317873836,1.0,-0.294408,-0.386936228571,1.442
0.374818432818,0.173490176376,-0.127992760929,-1.90730332087,0.037628335055,2.07419931357,0.0559873401255,-0.443909058642,-1.19735910695,-0.0227894302404,-1.57604829365,-0.165112239646,0.429624409889,-0.416802415102,0.573655137927,0.819078055649,0.00341590166054,0.0,0.819051396605,-0.573588614412,-0.0114742336024,0.0,-0.00743911387468,0.00938023268407,-0.999928332842,0.0,0.578359932661,0.151751712756,0.304390511823,1.0,-0.304986857143,-0.400839869388,1.459
0.367518763079,0.154597661104,-0.128216287868,-1.93264703373,0.0350216397269,2.08071697022,0.0490333966245,-0.453319873246,-1.20694694833,-0.00858663330772,-1.57203165338,-0.173246623074,0.42822407874,-0.439651739808,0.573564580435,0.819141577715,0.0033903731888,0.0,0.8191145911,-0.573498148291,-0.0114850970673,0.0,-0.0074636914853,0.00936472932893,-0.999928295006,0.0,0.573424032731,0.145315306068,0.30440316865,1.0,-0.314943428571,-0.41392564898,1.475
0.358755276733,0.132823414819,-0.128530484774,-1.96149518114,0.031987365918,2.08787367105,0.0408349390099,-0.498934691472,-1.22989916465,-0.0176106695296,-1.61120912153,-0.17557013874,0.396878152122,-0.468077853167,0.573546786135,0.819154099124,0.00337533752874,0.0,0.819126847045,-0.573480312602,-0.0115015828837,0.0,-0.00748602327365,0.0093617057279,-0.99992815638,0.0,0.567670944201,0.137804110256,0.304426585893,1.0,-0.326144571429,-0.42864715102,1.493
0.349819393318,0.111833439607,-0.128949530791,-1.98894136488,0.0289883127032,2.09449895276,0.032585018351,-0.539469340737,-1.25437701254,-0.0373383350841,-1.63484771935,-0.186159111745,0.388620131517,-0.503349054669,0.573627141351,0.819097688422,0.00340975478115,0.0,0.819071282666,-0.573561059401,-0.0114320580679,0.0,-0.00740841240764,0.00935075104236,-0.999928836908,0.0,0.56210237333,0.130367450184,0.304462523927,1.0,-0.336723428571,-0.442550791837,1.51
0.341484920598,0.0929795805399,-0.129254296367,-2.01330900864,0.0262610839569,2.10010647151,0.0248902718419,-0.556114778649,-1.28055321185,-0.0168611668297,-1.66862816738,-0.188243267734,0.37842053326,-0.516827891705,0.573578629989,0.819131649043,0.00341228039689,0.0,0.81910533044,-0.573512616067,-0.0114229487084,0.0,-0.00740005542923,0.00934715629434,-0.999928932399,0.0,0.557013610329,0.12368080278,0.304484796545,1.0,-0.346057714286,-0.454818710204,1.525
0.330296600925,0.0688070338854,-0.129655033794,-2.04420681058,0.0228287525312,2.10686978415,0.0146408621472,-0.601485983358,-1.26498431789,-0.0202144929653,-1.61471497307,-0.178695531858,0.345556481809,-0.540649374881,0.573557716483,0.819146206853,0.00343286505255,0.0,0.819119193286,-0.573490431616,-0.0115420508175,0.0,-0.00748605601561,0.00943213956085,-0.999927494226,0.0,0.550383168395,0.115017883924,0.304479682128,1.0,-0.34998,-0.459973714286,1.544
0.320242390385,0.0485794652449,-0.130089063204,-2.06976661376,0.019755311723,2.11211580591,0.00579047578263,-0.631779329952,-1.24680805515,-0.0180725428803,-1.60609917882,-0.191635115768,0.302327560636,-0.558993309324,0.573800623586,0.818976710039,0.00327714611213,0.0,0.818947623375,-0.573733725475,-0.0116253740434,0.0,-0.00764084844923,0.00935463800129,-0.999927051431,0.0,0.544775250507,0.107475607752,0.304440183791,1.0,-0.34998,-0.459973714286,1.56
0.309969449365,0.0284683042163,-0.130393162117,-2.09469699055,0.0168231940987,2.11699769917,-0.00327896205133,-0.648092748012,-1.2549255107,-0.0250496052623,-1.51941613907,-0.189096248483,0.291821663395,-0.563007292545,0.573925877941,0.818888694126,0.00333768835876,0.0,0.818859526257,-0.57385770005,-0.0117116716443,0.0,-0.00767534510794,0.00945491137519,-0.999925844115,0.0,0.539152930036,0.100087571595,0.304469410525,1.0,-0.34998,-0.459973714286,1.576
0.298668480857,0.00738971724325,-0.130741729656,-2.1204441521,0.0135222843814,2.12183181249,-0.0132383680358,-0.669951103895,-1.2450829023,-0.0254415502213,-1.51555634116,-0.183096793194,0.260720885257,-0.585972644145,0.573977830025,0.818852165653,0.00336576082008,0.0,0.818824005567,-0.573910350091,-0.0116148554797,0.0,-0.0075793505187,0.00942281671918,-0.999926879312,0.0,0.533232352777,0.0921959602279,0.304517359745,1.0,-0.34998,-0.459973714286,1.593
0.286382537405,-0.0147234129389,-0.130990344531,-2.14697068225,0.0102654545398,2.12649273445,-0.0241452257805,-0.675465053716,-1.22551292776,-0.00804206159194,-1.45482866999,-0.170736243137,0.244835814469,-0.602219449216,0.573925758473,0.818887655878,0.0036024594244,0.0,0.818861839879,-0.573856625146,-0.0116020630493,0.0,-0.00743363412674,0.0096088243874,-0.999926203066,0.0,0.526951205718,0.0839873154187,0.304606290088,1.0,-0.34998,-0.459973714286,1.611
0.275783765058,-0.0329656220896,-0.131255918307,-2.16857550552,0.00732367206306,2.13000080177,-0.0334146076448,-0.719676666026,-1.22132984173,-0.0193185346364,-1.44682333862,-0.205823556903,0.236559357635,-0.609625772844,0.57392073048,0.818891089935,0.00362282379599,0.0,0.818866253583,-0.573852465842,-0.0114957857916,0.0,-0.00733497140882,0.0095644620737,-0.999927356991,0.0,0.521711157145,0.0770667584254,0.30466275872,1.0,-0.34998,-0.459973714286,1.626
0.262663699188,-0.0546235354185,-0.131587119666,-2.19387624004,0.00399600478436,2.13378714764,-0.0449128224798,-0.732324735461,-1.21370241795,-0.0108692355286,-1.39120988888,-0.197284977076,0.22742054341,-0.649982934523,0.573970330193,0.818855732023,0.00375460955717,0.0,0.818832137943,-0.573901063114,-0.011499849145,0.0,-0.00726208279091,0.00967515345843,-0.999926824102,0.0,0.515413611812,0.0687821835653,0.304721397156,1.0,-0.34998,-0.459973714286,1.644
0.249968633289,-0.0747842760264,-0.131849168321,-2.21714108324,0.000818926815246,2.13694748014,-0.0561561759558,-0.756241910648,-1.2110031069,-0.0232305291908,-1.35686084083,-0.190032813444,0.190752524021,-0.663020321837,0.573834195385,0.818950928993,0.00379986967358,0.0,0.818927599022,-0.573764385392,-0.011522348601,0.0,-0.00725614790644,0.0097239230024,-0.999926394111,0.0,0.509453501137,0.0610330716824,0.304742733751,1.0,-0.34998,-0.459973714286,1.661
0.237568191053,-0.093384836221,-0.132167613147,-2.23847782443,-0.00213473061694,2.13949168074,-0.0670069365928,-0.774521759946,-1.16431414174,-0.0121248308875,-1.30657047612,-0.183969420801,0.156641263641,-0.673129830933,0.573880728133,0.818918813021,0.00369248694381,0.0,0.818892944195,-0.573809729918,-0.0117254722939,0.0,-0.00748356899897,0.00975296185728,-0.99992443511,0.0,0.503835838421,0.0536633524078,0.304674282329,1.0,-0.34998,-0.459973714286,1.677
0.224131294733,-0.1130400415,-0.132425385492,-2.26062875399,-0.00539637471156,2.14191340081,-0.0788357703099,-0.810164044166,-1.13779686238,-0.0174509508974,-1.29985387971,-0.188437875881,0.120757987671,-0.698650718536,0.573727101174,0.819026892644,0.0035929662418,0.0,0.818999713196,-0.573656431894,-0.0117692324143,0.0,-0.00757833556537,0.0096951525794,-0.999924283557,0.0,0.497858383038,0.0459271267732,0.304639780287,1.0,-0.34998,-0.459973714286,1.694
0.210151438784,-0.132509967091,-0.132821606764,-2.28213301376,-0.00855949964178,2.14396921609,-0.0910827003829,-0.827326760773,-1.13242335382,-0.0180104680424,-1.26487222129,-0.196643701964,0.126858702463,-0.718208737295,0.573784309058,0.81898664897,0.00363075609528,0.0,0.818959640862,-0.573713093883,-0.0117957385051,0.0,-0.00757768593182,0.00974183993646,-0.999923834715,0.0,0.491913688391,0.0380746348782,0.30465240571,1.0,-0.34998,-0.459973714286,1.711
0.196673689617,-0.150609106353,-0.133144143844,-2.30186298598,-0.011494802584,2.14559395624,-0.102991996218,-0.857007395552,-1.11476637532,-0.0205294785737,-1.2213456577,-0.181689457072,0.0882197244397,-0.752701212742,0.573723659546,0.819028971639,0.00366783252123,0.0,0.819001967397,-0.573651710375,-0.0118422753238,0.0,-0.00759525441329,0.00979834423556,-0.999923149327,0.0,0.486307700204,0.0307467070722,0.304649158319,1.0,-0.34998,-0.459973714286,1.727
0.181887263015,-0.169637907415,-0.133554941635,-2.32225835294,-0.0145906534463,2.14692942543,-0.115943449973,-0.874829240011,-1.12525753395,-0.0250197703537,-1.18624998697,-0.18027398108,0.0850825238594,-0.780121546213,0.573814500984,0.818965115318,0.00371554225589,0.0,0.818938050532,-0.573741490195,-0.0119129644129,0.0,-0.00762468832228,0.00987882085944,-0.999922133482,0.0,0.479996475401,0.0224521450981,0.30466134477,1.0,-0.34998,-0.459973714286,1.745
0.165737080446,-0.189445261121,-0.134053649519,-2.34324611785,-0.017906397477,2.14790424081,-0.130177471987,-0.90556009116,-1.10703908497,-0.0397662555394,-1.13615179242,-0.182659815772,0.0516487679975,-0.80290807278,0.573896882786,0.818907813997,0.00362035985705,0.0,0.818878441624,-0.573822845591,-0.0120907659932,0.0,-0.00782392818866,0.00990367822834,-0.99992034848,0.0,0.474005505015,0.0145635120032,0.304614948545,1.0,-0.34998,-0.459973714286,1.762
0.151975263638,-0.205811655542,-0.13436626367,-2.36024185021,-0.0205745053316,2.1485883664,-0.142415925568,-0.9250876936,-1.08942269287,-0.0312454271405,-1.1314878863,-0.169900407992,0.0360961432903,-0.822695377149,0.573837923627,0.818948610368,0.00373602532838,0.0,0.818920354378,-0.57376294965,-0.0120945316156,0.0,-0.00776135637742,0.0100000006264,-0.999919877458,0.0,0.468400058145,0.00725249578829,0.304630879369,1.0,-0.34998,-0.459973714286,1.778
0.13493643092,-0.225177849043,-0.13486622531,-2.3799011818,-0.0238144609639,2.14902476461,-0.157445255025,-0.946213486937,-1.05910588765,-0.0187843048885,-1.08854123659,-0.180905834769,0.0131511850836,-0.837466061131,0.57395130924,0.81886845373,0.00388548691601,0.0,0.818842598467,-0.57387635062,-0.0119783152556,0.0,-0.00757902135953,0.0100567655499,-0.999920706807,0.0,0.462485831872,-0.000613253544111,0.30471103444,1.0,-0.34998,-0.459973714286,1.795
0.118509043252,-0.243099612188,-0.135241500311,-2.3978216003,-0.0268065165402,2.14912566392,-0.172151049774,-0.984699740127,-1.05387831606,-0.0286610299515,-1.02351220431,-0.175417026507,0.0123939683837,-0.880846453709,0.573848502359,0.818939890093,0.00401243773201,0.0,0.818915964635,-0.573773479073,-0.011890520558,0.0,-0.00743553439895,0.0101094013676,-0.999921253316,0.0,0.456582605483,-0.00836401804482,0.304774746804,1.0,-0.34998,-0.459973714286,1.812
0.102578120299,-0.25965880933,-0.135661079284,-2.41433012238,-0.0295970679477,2.14905154083,-0.186439560492,-0.992858008459,-1.02929059797,-0.0201666441308,-1.02504820864,-0.17264976201,-0.0172356511918,-0.904536055729,0.573809106589,0.81896720787,0.00407044593377,0.0,0.818943794982,-0.573733555821,-0.011900188524,0.0,-0.00741065542732,0.0101620986373,-0.999920903841,0.0,0.450983361535,-0.0157088052926,0.304748501274,1.0,-0.34998,-0.459973714286,1.828
0.0851945443755,-0.277020992883,-0.136166715229,-2.43114339495,-0.0325563886332,2.14876815178,-0.201979746838,-1.03795077393,-0.993587574589,-0.0309745907131,-0.987863997257,-0.176806210146,-0.0293347831165,-0.927159799579,0.573881326473,0.818915491502,0.00428810035455,0.0,0.818896066084,-0.573806675153,-0.0116567321253,0.0,-0.00708547432787,0.0102012858121,-0.999922861936,0.0,0.445103605706,-0.0235493318235,0.304831236178,1.0,-0.34998,-0.459973714286,1.845
0.0674111022154,-0.293938494594,-0.136570740371,-2.44749344598,-0.0353875205289,2.14800938804,-0.218100175528,-1.06144226103,-0.983671158626,-0.0288192602345,-0.934138350503,-0.177648080187,-0.0426684335738,-0.964572825251,0.573762993891,0.818998419215,0.00428521475788,0.0,0.818977953712,-0.573686933309,-0.0117966429314,0.0,-0.00720319888376,0.0102781714665,-0.999921233456,0.0,0.43913513216,-0.0313013051691,0.304793195216,1.0,-0.34998,-0.459973714286,1.862
0.0491116884939,-0.310582516188,-0.137096140466,-2.46321727712,-0.0382516619548,2.14711317125,-0.234628432284,-1.07611246144,-0.961197983029,-0.0316605671757,-0.905860421402,-0.162144991173,-0.0600740769127,-0.986232197942,0.573807962832,0.818966355093,0.00439066262007,0.0,0.818947272375,-0.573731566411,-0.0117559208276,0.0,-0.00710877875436,0.010341561265,-0.999921255587,0.0,0.43283943636,-0.0395920987475,0.304812318447,1.0,-0.34998,-0.459973714286,1.88
0.0303179261426,-0.32693519123,-0.137641161637,-2.47829620952,-0.0409543435123,2.14600962916,-0.25163389338,-1.112111262,-0.965775383762,-0.0278404717717,-0.878581148827,-0.161927908751,-0.0562461124357,-1.01494164877,0.573930767172,0.818878945386,0.00463618360734,0.0,0.818863564952,-0.573854354388,-0.0115926202546,0.0,-0.00683259004603,0.0104499644669,-0.99992205394,0.0,0.427280735077,-0.0469755723289,0.304895712478,1.0,-0.34998,-0.459973714286,1.896
0.00995696181571,-0.343672607029,-0.138170609775,-2.49370467866,-0.0438645447769,2.14454410682,-0.270220258134,-1.15577618964,-0.921526953394,-0.0436475186164,-0.830290438581,-0.171086162937,-0.0835554716031,-1.03715264856,0.573901779347,0.818899194052,0.00464806896682,0.0,0.818883632707,-0.57382482314,-0.0116368094078,0.0,-0.00686232861367,0.0104848150909,-0.999921485467,0.0,0.420964559638,-0.0552421654605,0.304873191429,1.0,-0.34998,-0.459973714286,1.914
-0.00849128340231,-0.358139824698,-0.138584142383,-2.5065805626,-0.0463452020333,2.14303818058,-0.287221747233,-1.16125949102,-0.880187904583,-0.0228633060618,-0.782228146077,-0.145362765471,-0.0996291410977,-1.07354349797,0.573778156205,0.818985096812,0.00477342256949,0.0,0.818971820429,-0.573701874939,-0.011491863886,0.0,-0.00667327226037,0.010503281264,-0.999922571262,0.0,0.415439838894,-0.0625395340432,0.304962041285,1.0,-0.34998,-0.459973714286,1.93
-0.0286431028426,-0.373059630794,-0.139111949375,-2.52001258415,-0.0490084505515,2.14131240002,-0.305816028972,-1.17799593984,-0.846816557993,-0.0266672468131,-0.798357152216,-0.163212025836,-0.109055574507,-1.11176056494,0.573707239867,0.819035106146,0.00471643149857,0.0,0.819020484196,-0.573630188973,-0.0116017097059,0.0,-0.00679685090909,0.0105190413869,-0.999921573218,0.0,0.409444558477,-0.0703558593493,0.304897479668,1.0,-0.34998,-0.459973714286,1.947
-0.0480011930948,-0.386725435646,-0.139610586221,-2.53177950826,-0.0513899068964,2.13954713461,-0.323649723097,-1.20917222995,-0.856812641722,-0.0209583033164,-0.730817734239,-0.162982393108,-0.0990013160054,-1.12840400265,0.573759695402,0.818997457252,0.00487071331187,0.0,0.818985776778,-0.573683685142,-0.0114049874492,0.0,-0.00654653299993,0.0105329698424,-0.999923096769,0.0,0.403910787207,-0.0777161815332,0.30500258692,1.0,-0.34998,-0.459973714286,1.963
-0.0677672981264,-0.39982893713,-0.140088490145,-2.54324482949,-0.0535626514484,2.13768242132,-0.342031005327,-1.25139435253,-0.803856439934,-0.0405526691602,-0.705921559939,-0.133572041687,-0.122117185339,-1.16321442905,0.57377173455,0.818988462545,0.00496404575204,0.0,0.818976703613,-0.573693383421,-0.0115675260683,0.0,-0.0066259577574,0.0107027633846,-0.999920770631,0.0,0.398293699828,-0.0850309620608,0.304950604912,1.0,-0.34998,-0.459973714286,1.979
-0.0904133965147,-0.414052989049,-0.140598511418,-2.55527224047,-0.0561136382628,2.13544751956,-0.363212678759,-1.27333747058,-0.785836745481,-0.0257932664688,-0.650171585527,-0.145496032595,-0.114959709649,-1.1935491329,0.573658369964,0.819067584005,0.00501141735633,0.0,0.819056951281,-0.57358073446,-0.0114716396746,0.0,-0.00652172130823,0.0106856440698,-0.999921639011,0.0,0.392042906919,-0.093266542316,0.305003998364,1.0,-0.34998,-0.459973714286,1.997
-0.112350350853,-0.426807863176,-0.14116011291,-2.56610777262,-0.0584181303647,2.13325442126,-0.383798905384,-1.29340462568,-0.736143807058,-0.02709198785,-0.628500633883,-0.118836545708,-0.145155709352,-1.22866231139,0.573639492908,0.819080865748,0.00500144404733,0.0,0.819069199088,-0.573560416269,-0.0116121874225,0.0,-0.00664281809233,0.0107579451985,-0.999920066597,0.0,0.386075854693,-0.101093967668,0.304956262851,1.0,-0.34998,-0.459973714286,2.014
-0.133327706487,-0.43828306668,-0.141619988783,-2.57581842136,-0.0604731541962,2.13108128606,-0.403516501872,-1.31594267294,-0.726089231178,-0.0320803431136,-0.586323305318,-0.124279008728,-0.120989717413,-1.25115246763,0.573660473929,0.819066262567,0.00498648945879,0.0,0.819052830122,-0.573578921283,-0.0118502924099,0.0,-0.00684616127958,0.0108824521846,-0.999917347739,0.0,0.380082161917,-0.108860412898,0.304888700295,1.0,-0.34998,-0.459973714286,2.031
-0.157422803945,-0.450669371494,-0.142176704455,-2.58573559809,-0.0627533865862,2.12883486184,-0.42626850553,-1.34661831707,-0.66567100679,-0.0170503600448,-0.547622916995,-0.122026962752,-0.129509149427,-1.28488372923,0.573617052655,0.819095891494,0.00511315387668,0.0,0.819085930894,-0.573538066788,-0.0115356255837,0.0,-0.00651632059118,0.0108053519873,-0.999920387798,0.0,0.374217098369,-0.116698431368,0.304994962178,1.0,-0.34998,-0.459973714286,2.048
-0.180569259118,-0.461600857158,-0.142701825852,-2.59468803816,-0.0647771516602,2.12641904699,-0.448282448313,-1.36451697156,-0.622935016333,-0.0134715781839,-0.507135556445,-0.122992408992,-0.142789606449,-1.3160517638,0.573546077599,0.819145916437,0.00506076637578,0.0,0.819133497985,-0.573464365617,-0.011818660969,0.0,-0.00677916921132,0.0109242002299,-0.999917348941,0.0,0.367855818864,-0.124933372119,0.304937392964,1.0,-0.347245714286,-0.456380081633,2.066
-0.202553658574,-0.471064284942,-0.143078444463,-2.60235580511,-0.066350034431,2.12447212847,-0.469193852286,-1.38617769836,-0.57591231567,-0.0273679435388,-0.452346372934,-0.10382795533,-0.115189583184,-1.30244778827,0.573619417346,0.819093406091,0.00524433433435,0.0,0.819082630204,-0.573535833462,-0.0118760066576,0.0,-0.00671987445891,0.0111080650442,-0.999915723538,0.0,0.362698555462,-0.131719574473,0.304907425314,1.0,-0.337911428572,-0.444112163265,2.081
-0.224468726091,-0.479798404698,-0.143262650247,-2.60908332969,-0.0677864867289,2.12254690453,-0.489902977243,-1.36648305033,-0.52363561474,-0.0178675780609,-0.405813709281,-0.0746457071348,-0.129898993644,-1.31733460309,0.573740569583,0.819007406383,0.00541977906068,0.0,0.818999895068,-0.573658024598,-0.0116785956021,0.0,-0.00645588084024,0.0111394970445,-0.999917113169,0.0,0.357376586439,-0.138809311318,0.305007977746,1.0,-0.327954857143,-0.431026383674,2.097
-0.248757816393,-0.488588206595,-0.143313163298,-2.61602735775,-0.0692419448104,2.12042687429,-0.512996891551,-1.35182942809,-0.468714767017,0.00158208403414,-0.372658846287,-0.072474916448,-0.123402613576,-1.28487080945,0.573731567909,0.819013478214,0.00545503340153,0.0,0.819005689743,-0.573647638491,-0.0117819320987,0.0,-0.00652041969786,0.0112275859354,-0.999915709168,0.0,0.351488776951,-0.146479369979,0.304994715813,1.0,-0.316753714286,-0.416304881633,2.115
-0.268753717697,-0.495086828834,-0.143293698014,-2.62109184326,-0.0702439398112,2.11885925952,-0.531957269384,-1.32653522232,-0.431438912574,-0.00188625055633,-0.318722294115,-0.0529289794044,-0.0951309887556,-1.2581732445,0.573841625816,0.818935644792,0.00556282935498,0.0,0.818929181408,-0.573757168892,-0.0117666428843,0.0,-0.00644453413303,0.0113079704866,-0.999915295304,0.0,0.346453473774,-0.153117189561,0.305007345415,1.0,-0.306797142857,-0.403219102041,2.131
-0.292224161776,-0.501947415816,-0.143112914201,-2.62639796586,-0.0712847902513,2.11718030565,-0.554289248801,-1.28482146739,-0.357872965573,0.0024148159847,-0.282302081419,-0.0478076676642,-0.08917816478,-1.2206471847,0.573885821842,0.818904230599,0.00562774347196,0.0,0.818898656901,-0.573801212474,-0.0117433041053,0.0,-0.00638755836564,0.011348085784,-0.999915206429,0.0,0.341301057993,-0.159914125344,0.305018259076,1.0,-0.296218285714,-0.389315461225,2.148
-0.31385047156,-0.507533859072,-0.142875797874,-2.63065043376,-0.0720512589701,2.11578453889,-0.574963599663,-1.25341892441,-0.313787533959,0.0229085842083,-0.238202344689,-0.0520267692327,-0.0727557992102,-1.19360231356,0.573915626714,0.818882538942,0.00574349465477,0.0,0.818878839182,-0.573831284018,-0.0116555190234,0.0,-0.00624882440728,0.0113927300861,-0.999915575384,0.0,0.336366079611,-0.166473966182,0.305051300391,1.0,-0.285639428572,-0.375411820408,2.165
-0.333794611098,-0.512136431358,-0.142665939097,-2.63417087092,-0.0726190061087,2.11459029117,-0.593999705632,-1.22522750887,-0.275620247532,0.0115987506455,-0.212515790185,-0.0410338846455,-0.0770570114289,-1.18600748386,0.574057072056,0.818782329193,0.00589256523024,0.0,0.81878045214,-0.573971991786,-0.0116391898341,0.0,-0.00614791392674,0.0115064979965,-0.999914898208,0.0,0.331834419852,-0.172463235022,0.305060485796,1.0,-0.275682857143,-0.362326040816,2.181
-0.354269317111,-0.51624820185,-0.142207592466,-2.63751348635,-0.0731413048539,2.11334728511,-0.613734171024,-1.20633574886,-0.229970228296,0.0173512451372,-0.19132535758,-0.0347581066875,-0.0720626097194,-1.14816771324,0.573915363061,0.818881916599,0.00585744060249,0.0,0.818877737113,-0.573827037563,-0.0119385729438,0.0,-0.0064152472184,0.0116484824007,-0.999911574821,0.0,0.327173730025,-0.178463893833,0.304965651436,1.0,-0.265104,-0.3484224,2.198
-0.374183883922,-0.519679598311,-0.141784721579,-2.64028724405,-0.0735628492131,2.11237937248,-0.63286112499,-1.16054149681,-0.191018955287,0.0286595880128,-0.152152243982,-0.0164984653209,-0.0643041281373,-1.10951218958,0.573914965473,0.818882086395,0.00587263895417,0.0,0.818877107806,-0.573824776136,-0.012089479109,0.0,-0.00653011786801,0.0117475287637,-0.999909672485,0.0,0.322707919195,-0.184292964221,0.304896864065,1.0,-0.254525142857,-0.334518759184,2.215
-0.392348232148,-0.522384469868,-0.141335174555,-2.64238916302,-0.073887074785,2.1115637129,-0.650341112631,-1.10809264707,-0.156818925306,0.0300678860852,-0.126524167705,-0.0150114539695,-0.0456064792608,-1.08343226024,0.573892496605,0.818897864566,0.00586827499322,0.0,0.818892415604,-0.573801588763,-0.0121529955269,0.0,-0.0065849633516,0.0117802256346,-0.999908928124,0.0,0.318681990359,-0.189580071807,0.30487718555,1.0,-0.244568571429,-0.321432979592,2.231
-0.411058090843,-0.524791802993,-0.140884078163,-2.64417119639,-0.0740556076394,2.1108447056,-0.668323244421,-1.08280089927,-0.127835094322,0.028998245325,-0.0920557687298,-0.0157735753663,-0.0456830279721,-1.04267348967,0.573959043703,0.818850493972,0.00596921891246,0.0,0.818846575973,-0.573868075051,-0.0121022458931,0.0,-0.0064845107078,0.011834295794,-0.999908946137,0.0,0.31434129051,-0.195313686003,0.304903750414,1.0,-0.233367428572,-0.306711477551,2.249
-0.430002882303,-0.526783529223,-0.140284412489,-2.6456628502,-0.0741925649291,2.11025281721,-0.686651506168,-1.04488001287,-0.103948450701,0.0315212022439,-0.0679103104046,-0.00296493822103,-0.029716085632,-1.00588767654,0.573922938719,0.818875570854,0.00600056425962,0.0,0.818872371804,-0.573832413405,-0.0120476936889,0.0,-0.00642236742652,0.0118283717869,-0.999909417306,0.0,0.31044674573,-0.200446572054,0.304916397663,1.0,-0.222788571429,-0.292807836735,2.266
-0.446260476399,-0.528108914358,-0.139828455147,-2.64666371434,-0.0742251292138,2.10981248525,-0.702298440028,-1.00265247972,-0.0698470593627,0.0405850170291,-0.0571598101048,0.00322562853268,-0.0288010823964,-0.966805565074,0.574027140004,0.818802003726,0.00607191367056,0.0,0.818799704722,-0.573936236624,-0.0120410438723,0.0,-0.00637446229656,0.0118837958971,-0.999909066678,0.0,0.306904539844,-0.205113299492,0.304920343904,1.0,-0.212832,-0.279722057143,2.282
-0.462771614702,-0.529141181275,-0.139287021922,-2.64743926059,-0.0742444805134,2.10946210276,-0.718201431609,-0.967684498992,-0.0522304223924,0.035632593011,-0.0405901853001,-0.000929588737383,-0.0157924415638,-0.928533402966,0.574088393233,0.818758968816,0.00608396573664,0.0,0.81875705942,-0.573997861036,-0.0120033360919,0.0,-0.00633577774487,0.0118724944089,-0.999909446798,0.0,0.303324409649,-0.209827153306,0.304929148636,1.0,-0.202253142857,-0.265818416327,2.299
-0.479365761164,-0.529804711102,-0.13857498498,-2.64795752601,-0.074223496586,2.10917818553,-0.734321516926,-0.900552056251,-0.0329079970839,0.038044938579,-0.0254397594335,0.00397311466789,-0.00926134394129,-0.879466182005,0.573952551233,0.818854784804,0.00600476798078,0.0,0.818851943821,-0.57386256214,-0.0120000322954,0.0,-0.00638049516871,0.011804692361,-0.999909965207,0.0,0.299758356256,-0.21451660197,0.304930249524,1.0,-0.191052,-0.251096914286,2.317
-0.492636993569,-0.530109359983,-0.138072669438,-2.64819756633,-0.0741885080052,2.1090043514,-0.747072867665,-0.866841157946,-0.0180750316573,0.040478560712,-0.0113540159644,0.00627664092957,-0.0084014419512,-0.837706342879,0.574024800695,0.818804432358,0.00596461553291,0.0,0.818801098768,-0.573935018012,-0.0120042766455,0.0,-0.00640597653617,0.0117748129626,-0.999910154586,0.0,0.296892868421,-0.218279968801,0.304930651043,1.0,-0.181717714286,-0.238828995918,2.332
-0.506710127737,-0.530233910278,-0.13733114656,-2.64832253387,-0.0740620280497,2.10888566518,-0.760844698096,-0.813597498215,-0.00480403664048,0.0453574481015,-0.00595588799193,0.0113292156827,-0.00392273505206,-0.79119423264,0.573795398422,0.81896584716,0.00587612433638,0.0,0.8189614496,-0.573706185801,-0.0120043052645,0.0,-0.00646007152655,0.0117005596986,-0.9999106782,0.0,0.2938881534,-0.222202881017,0.304928654958,1.0,-0.171138857143,-0.224925355102,2.349
-0.521056208243,-0.530177789307,-0.136661316347,-2.64831637182,-0.0738672038664,2.10882900899,-0.774588691446,-0.759200399942,0.00894470408417,0.0403912196684,0.00269996197021,0.0129505861522,0.000393769613056,-0.740058717888,0.573899717228,0.818892838953,0.00586342716775,0.0,0.818888327999,-0.573810629063,-0.0120006309363,0.0,-0.00646285833512,0.0116888758177,-0.999910796844,0.0,0.290801591843,-0.226208301502,0.304923759821,1.0,-0.159937714286,-0.210203853061,2.367
-0.532840903161,-0.529969102855,-0.135985644899,-2.64818689249,-0.0735599133288,2.10883432405,-0.786070498892,-0.733412153792,0.0187125160256,0.0400832973944,0.0122110072917,0.0199338811012,0.00175286830673,-0.698989381481,0.5738098234,0.818955562973,0.00590079208334,0.0,0.818951611321,-0.573720734449,-0.0119801535359,0.0,-0.00642593033469,0.0117070183658,-0.999910822594,0.0,0.288297204233,-0.22945340705,0.304924711068,1.0,-0.149981142857,-0.19711807347,2.383
-0.544840733578,-0.52961364151,-0.135367195767,-2.64795861025,-0.0732613168173,2.10884295721,-0.79750410205,-0.68188150343,0.0198526701104,0.0424879133057,0.0152851972198,0.0161962387063,0.000289300907129,-0.651604636382,0.573977947283,0.818837421333,0.00594477573596,0.0,0.81883382859,-0.573888254347,-0.0120074801898,0.0,-0.00642066076339,0.0117600387246,-0.999910234273,0.0,0.285716642603,-0.232768067257,0.304915704047,1.0,-0.139402285714,-0.183214432653,2.4
-0.555759143108,-0.529086638164,-0.134599992789,-2.6476342793,-0.0728486476055,2.10892572576,-0.80816166087,-0.62874456459,0.0352767228047,0.0437020626518,0.0211969768199,0.0211954844519,0.00327183210041,-0.604762691078,0.573845197164,0.818930155836,0.00598635570546,0.0,0.818926858043,-0.573754906543,-0.012035584483,0.0,-0.00642172575608,0.0118091771829,-0.999909648305,0.0,0.283423837397,-0.235729876753,0.30489783771,1.0,-0.128823428572,-0.169310791837,2.417
-0.566159749106,-0.528493707091,-0.133955070717,-2.64722012446,-0.0725025209987,2.1090201289,-0.818023737954,-0.602307620609,0.0312303679799,0.0351482897498,0.0246972436887,0.0171591254367,0.00680573761968,-0.552593046709,0.574002427781,0.818819744667,0.00601544227313,0.0,0.818816790156,-0.573911916888,-0.012038384995,0.0,-0.0064050566391,0.0118358352237,-0.999909440026,0.0,0.281216832051,-0.238580907097,0.304894332966,1.0,-0.118244571429,-0.155407151021,2.434
-0.57498645348,-0.52779790888,-0.13323878436,-2.64674426811,-0.0721146111538,2.10916130901,-0.826634488465,-0.525676067425,0.0463215369674,0.0461719681299,0.0269295157299,0.0225786988545,0.0129304092299,-0.52771914236,0.573866256774,0.818915153133,0.00601981783647,0.0,0.818912215569,-0.573775681757,-0.0120414748704,0.0,-0.00640704450975,0.0118401264308,-0.999909376487,0.0,0.279399131786,-0.240970316489,0.304886907147,1.0,-0.108288,-0.142321371429,2.45
-0.584125620874,-0.527018528432,-0.132459363529,-2.64621468972,-0.0717086954583,2.1092724266,-0.835376306491,-0.498260873855,0.0428123802305,0.0426356264205,0.0309766237645,0.0241220342698,0.00100142836139,-0.461850879816,0.573844477723,0.818930522357,0.00600515116987,0.0,0.818927010533,-0.573753264356,-0.0121033037624,0.0,-0.00646641428427,0.0118634229293,-0.999908718175,0.0,0.277505598458,-0.243424097347,0.304872099364,1.0,-0.097086857143,-0.127599869388,2.468
-0.591606709978,-0.526344796476,-0.131824302383,-2.64574412055,-0.0713252097239,2.10939327306,-0.842406296794,-0.456622627388,0.0448833955695,0.0363548749155,0.0299222985942,0.02164556472,0.0114891322329,-0.431003732045,0.573955281676,0.818852666392,0.0060326014773,0.0,0.818849369563,-0.5738636634,-0.0121224047421,0.0,-0.006464697128,0.0118977392132,-0.999908321544,0.0,0.27595645778,-0.245429259805,0.304866017711,1.0,-0.0871302857144,-0.114514089796,2.484
-0.598628117604,-0.525607007533,-0.131095646983,-2.64522686743,-0.0708844962209,2.10953015249,-0.849145430634,-0.392856153629,0.0486006021342,0.0470011339327,0.0275823202933,0.0277192889416,0.00679975989443,-0.372791292325,0.573888382694,0.818899403792,0.00605289843507,0.0,0.818896216318,-0.573796403336,-0.0121417181904,0.0,-0.00646983899974,0.0119249162332,-0.999907964543,0.0,0.274543154208,-0.247283811525,0.304861203769,1.0,-0.0765514285715,-0.10061044898,2.501
-0.604836812803,-0.524951562776,-0.130349169805,-2.64478422971,-0.0704490895176,2.10963185476,-0.855063688146,-0.35879692549,0.0337527728513,0.0416107477375,0.0285233907904,0.0249422558156,0.000410772101709,-0.320965624225,0.573808910493,0.818955025197,0.00606200004807,0.0,0.818951602002,-0.573716254953,-0.0121934113917,0.0,-0.00650811286975,0.0119614030506,-0.999907280354,0.0,0.273301531241,-0.248882832947,0.304849796421,1.0,-0.0659725714287,-0.0867068081634,2.518
-0.610108673047,-0.524407989052,-0.129679427183,-2.64436847307,-0.0700426729505,2.10976329113,-0.859833711624,-0.310854577812,0.0288583457023,0.0367521028838,0.0283923216646,0.0211457069784,0.00631270832451,-0.276153359509,0.57394228482,0.818861475387,0.00607327940921,0.0,0.818858551887,-0.573850200688,-0.0121394428813,0.0,-0.00645549378861,0.0119407262619,-0.999907868584,0.0,0.272267852603,-0.250239947708,0.304867553336,1.0,-0.0560160000001,-0.0736210285716,2.534
-0.615047880387,-0.523808971631,-0.128925605079,-2.64392621688,-0.0695482379411,2.10990413889,-0.86446849522,-0.262921489224,0.0322453660171,0.0417082361132,0.0211259276778,0.0219670634375,0.0035640265555,-0.240185748593,0.573893295899,0.818895519988,0.00611221460235,0.0,0.818893304456,-0.573801423063,-0.0121008144536,0.0,-0.00640222857014,0.0119500579788,-0.999908099569,0.0,0.271342995525,-0.251481523711,0.304879747903,1.0,-0.044814857143,-0.0588995265308,2.552
-0.618766746622,-0.523391594689,-0.128261620193,-2.64359856067,-0.0691356423904,2.10998692925,-0.867751149309,-0.216309004602,0.019006989794,0.0421320711511,0.0212378767646,0.0303746614845,0.00274897978973,-0.202881886329,0.573974270141,0.818838650604,0.00612767445511,0.0,0.818836854473,-0.57388272074,-0.0120654670126,0.0,-0.00636322675126,0.0119430632395,-0.999908432101,0.0,0.270662532357,-0.252384441368,0.304899077254,1.0,-0.0348582857144,-0.0458137469389,2.568
-0.621719917369,-0.523069966984,-0.127525363962,-2.64336781853,-0.0687279422818,2.11004155802,-0.870397612102,-0.172852574945,0.017133058576,0.0471644260154,0.0114809204398,0.0247287701682,0.00574824953751,-0.151177837252,0.573890708842,0.818897360204,0.00610857237343,0.0,0.818895341297,-0.573799308535,-0.0120631848512,0.0,-0.00637353833662,0.0119254607658,-0.999908576518,0.0,0.270162648725,-0.253036552783,0.304908694277,1.0,-0.0249017142858,-0.0327279673471,2.584
-0.624192350831,-0.52281326013,-0.126725020087,-2.64317236501,-0.0683195185087,2.11013029014,-0.872437510163,-0.123882756042,0.0114493399137,0.0434329918802,0.0111165799763,0.0176567098427,0.00190736851473,-0.109222393078,0.573862972102,0.81891722,0.0060516889313,0.0,0.818914915653,-0.573772669033,-0.0120013371193,0.0,-0.00635593029114,0.011843169337,-0.999909666665,0.0,0.26979550296,-0.253540504806,0.304930410834,1.0,-0.0197781818182,-0.0259941818182,2.602
-0.626056672897,-0.522609739428,-0.12623930342,-2.6429926297,-0.0680347647892,2.11014169017,-0.874176205251,-0.103720424825,0.00985478321553,0.027496312183,0.00910413569953,0.0088915636265,0.000507186461778,-0.0983770406208,0.573752820323,0.818994400794,0.00605140812918,0.0,0.818992167037,-0.573662679737,-0.0119877900789,0.0,-0.00634658814044,0.0118343120717,-0.999909830873,0.0,0.26948951988,-0.253949093656,0.304950168938,1.0,-0.0194381818182,-0.0255473246753,2.619
-0.627619548199,-0.522412699646,-0.125968319651,-2.64280676507,-0.067873972961,2.110208135,-0.875663636614,-0.0904145529281,0.0163032992005,0.015285511901,0.00853874440029,0.0178340788412,0.011626519301,-0.0969681662877,0.573700922968,0.819030807285,0.00604438623815,0.0,0.819028939262,-0.573611676035,-0.0119158998747,0.0,-0.006292479723,0.0117869169399,-0.99991073266,0.0,0.269213699379,-0.254345805747,0.304974531992,1.0,-0.0191181818182,-0.0251267532468,2.635
-0.629202981855,-0.522167688925,-0.125820497973,-2.64262505908,-0.0677540251719,2.11027297197,-0.877183722213,-0.0929635533841,0.0168139116569,0.00719204805589,0.0108462734039,0.00919159724437,0.00399388831279,-0.0811126175902,0.57370892117,0.819025045262,0.00606596286439,0.0,0.819023535453,-0.573619731977,-0.0118995110165,0.0,-0.00626656220715,0.0117952490739,-0.99991079717,0.0,0.268900008263,-0.25477721973,0.304976260129,1.0,-0.0187781818182,-0.0246798961039,2.652
-0.63074457986,-0.521922688036,-0.125725081471,-2.64245940194,-0.0677196279035,2.11027697807,-0.878568849729,-0.0910848621853,0.015083824697,0.00327267972677,0.00645453520036,0.000274547975248,-0.000478323564631,-0.0772146492077,0.573793104845,0.818966208493,0.00604723736879,0.0,0.818964065501,-0.573703243714,-0.011966389185,0.0,-0.00633087057506,0.0118189292558,-0.999910112455,0.0,0.268564121521,-0.255205050527,0.304964177385,1.0,-0.0184381818182,-0.024233038961,2.669
-0.63210180024,-0.521724534788,-0.125673228789,-2.64230756752,-0.0676875981067,2.11030577854,-0.879969046116,-0.0881401716792,0.0143000123269,0.00234690987146,0.00785392566806,0.000554243309612,0.00243482405471,-0.0838446043434,0.573742882005,0.819001394997,0.00604708554523,0.0,0.81899918925,-0.573652918504,-0.0119751409238,0.0,-0.00633885089295,0.0118234376627,-0.999910008596,0.0,0.268267007758,-0.255593558198,0.30496408705,1.0,-0.0181181818182,-0.0238124675325,2.685
-0.633464593978,-0.521488198041,-0.125599474143,-2.64215334925,-0.0676482177034,2.1103736055,-0.88130837647,-0.0813002151933,0.0145086364904,0.00220658674322,0.0115327891887,-0.000513754529705,0.00382069666695,-0.0751105574437,0.57373495442,0.819007012731,0.00603838350621,0.0,0.819004666596,-0.573644977865,-0.0119809167018,0.0,-0.00634868865687,0.0118195625313,-0.999909991996,0.0,0.267979199691,-0.255982960923,0.304954891134,1.0,-0.0177781818182,-0.0233656103896,2.702
-0.634871027916,-0.521241981508,-0.125579742793,-2.64200005618,-0.0676124922681,2.11039209755,-0.882776965458,-0.0735818404493,0.0143277777173,0.000253185864127,0.00949297530222,0.00460354564487,4.96291889779e-05,-0.0829040778839,0.573693640783,0.819035791059,0.00606023033944,0.0,0.819033287844,-0.57360276008,-0.0120454943224,0.0,-0.00638964914217,0.0118741824877,-0.999909083954,0.0,0.2676594158,-0.25638883144,0.304936129143,1.0,-0.0174181818182,-0.0228924675325,2.72
-0.636020951526,-0.521063685804,-0.125581427886,-2.6418651114,-0.0675918276791,2.11040201078,-0.88392432424,-0.0751880504351,0.0123260110654,0.00039248601113,0.0116065767117,0.00053922920894,0.00122705421106,-0.0764078634505,0.573712902685,0.81902216794,0.00607787934656,0.0,0.819019708893,-0.573621597077,-0.0120717319344,0.0,-0.0064007364361,0.0119038405275,-0.999908660405,0.0,0.267394854664,-0.256727293348,0.304932730769,1.0,-0.0171181818182,-0.0224981818182,2.735
-0.637402100513,-0.520863266387,-0.125580063803,-2.64169934118,-0.0675636808287,2.11043993816,-0.885263826162,-0.0751922688395,0.00868650740642,0.00131022628081,0.00821417261266,0.00113612495478,0.000176966008214,-0.0816683390622,0.573766727213,0.818984324526,0.00609637802558,0.0,0.818982167018,-0.573675443453,-0.0120599579564,0.0,-0.00637969698239,0.0119126568489,-0.999908689868,0.0,0.267082888973,-0.257137135349,0.304937664122,1.0,-0.0167581818182,-0.022025038961,2.753
-0.638677960719,-0.520685471301,-0.125568682259,-2.6415350808,-0.0675395981638,2.11050328757,-0.886591806063,-0.0737684325178,0.00706697353157,0.000544657495723,0.00949811071072,0.00359737063868,0.00602244533401,-0.0701462094432,0.573734724871,0.819006692324,0.00610330289488,0.0,0.819004980119,-0.573644083388,-0.0120022929479,0.0,-0.00632895650482,0.0118849965314,-0.999909341474,0.0,0.266803436009,-0.257520243809,0.304952623428,1.0,-0.0164181818182,-0.0215781818182,2.77
-0.639856982819,-0.520508673511,-0.12555210804,-2.64138708518,-0.0675115371742,2.11054158687,-0.887740279742,-0.0713058448938,0.0140951065024,-0.00319651620134,0.00842612299412,0.00287075843156,-0.000446397412144,-0.0754107319074,0.57376769239,0.818983520771,0.00611349127619,0.0,0.818982039657,-0.573677186495,-0.0119854627039,0.0,-0.00630884743322,0.0118839396353,-0.999909481115,0.0,0.266542139663,-0.257868102669,0.304958536879,1.0,-0.0160981818182,-0.0211576103896,2.786
-0.641052017472,-0.52033465794,-0.125513248676,-2.64123672285,-0.0674876612026,2.11054855891,-0.888951237885,-0.0711196194602,0.00615722335297,0.00548047156244,0.0058112608047,0.000882582265434,-0.000101760016087,-0.0693506398086,0.573737673634,0.819004558781,0.00611240137525,0.0,0.819002997823,-0.573647054997,-0.0119955304765,0.0,-0.00631815474144,0.0118885916921,-0.999909367047,0.0,0.266262408718,-0.258230861821,0.304964955197,1.0,-0.0157381818182,-0.0206844675325,2.804
-0.642211849895,-0.52013218161,-0.125453505735,-2.64108789885,-0.0674545134565,2.11058007191,-0.890189953632,-0.0679905943988,0.013779221025,0.00600448545984,0.00873956448907,0.000202040371957,0.00143798644855,-0.0742713158182,0.57366019963,0.819058858216,0.00610811265471,0.0,0.819057149902,-0.573569443272,-0.0120094063542,0.0,-0.00633310581344,0.0118924407552,-0.999909226692,0.0,0.266027404607,-0.25854285475,0.30496166267,1.0,-0.0154181818182,-0.0202638961039,2.82
-0.643282727369,-0.519947287711,-0.125396257355,-2.64093937322,-0.0674298722011,2.11062406294,-0.891223841088,-0.0588900901928,0.00743270614796,0.00239301458169,0.00805808465532,0.00145567287765,-0.000521045886916,-0.066884116726,0.573668192926,0.819053369258,0.00609340896078,0.0,0.819051571095,-0.573577687281,-0.0119961427499,0.0,-0.00633055960094,0.0118728503052,-0.999909475623,0.0,0.265802137034,-0.258853410065,0.304966254486,1.0,-0.0150981818182,-0.0198433246753,2.836
-0.644425348972,-0.519755144889,-0.12534818457,-2.64079737032,-0.0674095517525,2.11067911226,-0.892402796867,-0.0670184928062,0.0109446118566,0.00655806755821,0.00916500851732,0.000368268650407,0.000473929754955,-0.0679849653628,0.57362050722,0.819086856286,0.0060813203186,0.0,0.819084980201,-0.573530210861,-0.0119849630939,0.0,-0.00632902667205,0.0118561670097,-0.999909683284,0.0,0.265555641963,-0.25918503312,0.30496592721,1.0,-0.0147581818182,-0.0193964675325,2.853
-0.645617150677,-0.519542378284,-0.125324031874,-2.64064271009,-0.0673858973617,2.11069458475,-0.893573824135,-0.0655428071299,0.0128735238718,0.00066124388219,0.0081864673553,0.0049567073875,0.00424595292847,-0.056661864466,0.573638688173,0.819074081349,0.0060870021347,0.0,0.819072048593,-0.573547932555,-0.0120206146985,0.0,-0.00635470879941,0.0118814117089,-0.999909220746,0.0,0.265287258547,-0.259531737762,0.304959807102,1.0,-0.0143981818182,-0.0189233246753,2.871
-0.646648981668,-0.519389271307,-0.125321863623,-2.64052747282,-0.0673618507865,2.11072502128,-0.894585078598,-0.0599324428832,0.00792413623099,0.00126985520678,0.00436472037185,0.000576571117735,0.00160831859572,-0.0607290807843,0.573670331132,0.819051792769,0.00610400211536,0.0,0.81904996154,-0.573579459815,-0.0120212594968,0.0,-0.00634502606758,0.0118959516479,-0.999909109359,0.0,0.265049889267,-0.259833559704,0.304958478315,1.0,-0.0140781818182,-0.0185027532468,2.887
-0.647735442769,-0.519227396478,-0.125304888282,-2.64038170006,-0.0673405387293,2.11076744695,-0.895664517283,-0.0640098281226,0.0135194851265,3.15965575956e-05,0.00841973610738,0.0037795038946,-9.26210324562e-05,-0.0589594798471,0.57368065252,0.819044543003,0.0061067505416,0.0,0.819042951869,-0.573590151122,-0.0119886792568,0.0,-0.00631661197141,0.0118795930478,-0.999909483745,0.0,0.264809676297,-0.260156021786,0.304969160954,1.0,-0.0137381818182,-0.0180558961039,2.904
-0.648778978097,-0.519058013508,-0.125280688162,-2.64024454383,-0.0673253159533,2.11082484615,-0.896715953365,-0.0567795953896,0.0122447209268,0.000129183542247,0.0166266036679,-9.7989917821e-05,0.00590284734196,-0.0637363244919,0.573670651655,0.819051596247,0.00610024726805,0.0,0.819050119653,-0.573580554195,-0.0119581037867,0.0,-0.00629544199263,0.011856649724,-0.999909889574,0.0,0.264581513042,-0.26046571109,0.3049746008,1.0,-0.0133981818182,-0.017609038961,2.921
-0.649772207447,-0.518886464798,-0.125261973128,-2.64009901279,-0.0673024162386,2.11084502572,-0.897697438789,-0.0620520591174,0.0126628130452,0.00494134837187,0.0106090458576,0.00403368214233,0.000140852917394,-0.062441160928,0.573684325327,0.819041982803,0.00610509464594,0.0,0.819040565601,-0.573594198088,-0.0119580400162,0.0,-0.00629241108603,0.0118606886458,-0.999909860751,0.0,0.26436158944,-0.26075921757,0.304979738101,1.0,-0.0130581818182,-0.0171621818182,2.938
-0.650823389478,-0.518693133168,-0.125242471896,-2.63996654972,-0.0672875143165,2.11087760378,-0.898772958962,-0.0555787618452,0.0134358922275,-0.000445721224587,0.00760989531805,0.00179609294302,0.00674706676446,-0.064138613327,0.573663964743,0.819056241994,0.00610531794351,0.0,0.819054683566,-0.573573569416,-0.0119805132206,0.0,-0.00631098663638,0.0118736065738,-0.99990959037,0.0,0.264124151485,-0.26106650456,0.304971977505,1.0,-0.0126981818182,-0.016689038961,2.956
-0.651805682112,-0.518531051233,-0.125223602021,-2.63984829494,-0.0672763002023,2.11090723489,-0.899756333646,-0.0584915765694,0.00595739869697,0.0011162663598,0.00546630803607,-0.00024392260072,0.000859313770601,-0.0563417397982,0.573660715049,0.819058536347,0.00610286388111,0.0,0.819056890862,-0.573570227006,-0.0119896257274,0.0,-0.0063199059557,0.0118767986489,-0.999909496126,0.0,0.263900874925,-0.261352375982,0.304968991997,1.0,-0.0123581818182,-0.0162421818182,2.973
-0.652716470476,-0.518369560629,-0.125224913511,-2.63972396217,-0.0672675155486,2.11094489554,-0.900625216196,-0.060866192538,0.0103914563735,9.66539756236e-05,0.00758038293575,0.000583618928364,0.00105565683507,-0.0465513634358,0.573706227269,0.819026641171,0.00610514095124,0.0,0.819025058852,-0.573615783212,-0.0119847037368,0.0,-0.00631390800093,0.0118761912462,-0.999909541232,0.0,0.263694040244,-0.261626553733,0.304969184706,1.0,-0.0120381818182,-0.0158216103896,2.989
-0.653640761452,-0.518208757706,-0.125229894556,-2.63959665678,-0.067256490496,2.11097983128,-0.901540394978,-0.0541194474461,0.0157522048376,-0.000674992463454,0.00524587646588,-0.000120062076094,0.00283602661417,-0.0504936790776,0.573732963728,0.819007840052,0.00611483162718,0.0,0.819006394712,-0.573642494059,-0.0119817082353,0.0,-0.00630550711709,0.0118826159588,-0.999909517915,0.0,0.263520771654,-0.261856328291,0.304969581643,1.0,-0.0117581818182,-0.0154536103896,3.003
-0.654482853099,-0.518061869633,-0.125210390504,-2.63948807701,-0.0672433566449,2.11100002487,-0.902402371056,-0.059435319989,0.0085681935372,0.00169281457909,0.005248011339,0.000187257916765,-0.000258035478942,-0.0463626639141,0.573709770461,0.819024116551,0.0061108662944,0.0,0.819022558151,-0.573619206531,-0.0119917488011,0.0,-0.00631634280189,0.0118849496192,-0.999909421791,0.0,0.263292594076,-0.262149622579,0.304968059927,1.0,-0.0113781818182,-0.0149541818182,3.022
-0.655291526492,-0.517903288061,-0.125187750458,-2.63938833664,-0.0672369449923,2.11103114925,-0.903174462863,-0.0525556846326,0.012385343306,0.00151076333557,0.00669907146977,9.59089971419e-05,0.00338211544633,-0.0475775218637,0.573731756216,0.819008777818,0.00610251322321,0.0,0.81900696887,-0.573640956421,-0.0120160293305,0.0,-0.00634070405248,0.0118922074298,-0.999909181313,0.0,0.263110208503,-0.262384279667,0.304958134948,1.0,-0.0110581818182,-0.0145336103896,3.038
-0.656188754757,-0.517750603396,-0.125151460008,-2.63927929129,-0.0672248784889,2.11105994282,-0.904025333453,-0.0462175332187,0.0109442602118,0.00206778571408,0.00190516583138,0.000418184707868,0.00469026573009,-0.0466295865341,0.57375487095,0.818992664978,0.00609177104262,0.0,0.818990662186,-0.573664010672,-0.0120268455224,0.0,-0.00635539081824,0.0118897937161,-0.999909116777,0.0,0.262909757002,-0.262640728445,0.304954730185,1.0,-0.0106981818182,-0.0140604675325,3.056
-0.656955170321,-0.517612465365,-0.125156967711,-2.63916632961,-0.0672109899899,2.11108229003,-0.904795388952,-0.0486205495496,0.00523264802091,0.00199164077878,0.00740769558884,1.46195214376e-05,0.00594551837832,-0.0464125766396,0.573761325796,0.818988111242,0.00609602876067,0.0,0.8189862223,-0.573670555503,-0.0120170018713,0.0,-0.00634479161679,0.0118876833662,-0.99990920918,0.0,0.262725059549,-0.262886031619,0.304959160291,1.0,-0.0103581818182,-0.0136136103896,3.073
-0.657705148653,-0.517471660386,-0.125149643176,-2.63905164837,-0.0671992360532,2.11112517123,-0.905568133125,-0.0476267059199,0.00611409229503,-0.000526602390184,0.00903937455856,-0.000189572502046,0.00046535917788,-0.044006505287,0.573754713147,0.818992706231,0.00610108050525,0.0,0.818990956873,-0.573664061377,-0.0120043386298,0.0,-0.00633161706279,0.0118845044416,-0.999909330479,0.0,0.262569803948,-0.263099389646,0.304960963146,1.0,-0.0100581818182,-0.0132193246753,3.088
-0.658476492386,-0.517305008056,-0.125140376059,-2.63893965304,-0.0671857284901,2.1111572982,-0.906337207159,-0.0428698067184,0.00689470040829,0.00480824603488,0.00462342544746,-2.42314714086e-05,0.00510518454074,-0.0488377741803,0.573761709659,0.818987784697,0.00610376493584,0.0,0.818985951911,-0.573670823001,-0.0120226582395,0.0,-0.00634498054412,0.0118972677416,-0.999909093989,0.0,0.262396881732,-0.26332911963,0.304953376404,1.0,-0.00971818181819,-0.0127724675325,3.105
-0.659278767098,-0.517153150891,-0.125118129385,-2.63883893947,-0.067166546148,2.11118378169,-0.907097593879,-0.0471659039991,0.00821665930658,-0.000217451533787,0.00262840103122,-4.72514848605e-05,0.00189527652938,-0.0413744195976,0.57379376826,0.818965303974,0.00610649610481,0.0,0.818963379848,-0.573702625396,-0.0120427149442,0.0,-0.00635937529531,0.0119112608056,-0.99990883595,0.0,0.262215864582,-0.263559998902,0.304945939457,1.0,-0.00935818181819,-0.0122993246753,3.123
-0.659960164004,-0.517019819178,-0.125084058588,-2.63876490409,-0.0671517730495,2.11120858094,-0.907776195057,-0.0435137196945,0.00719302549777,0.00390851491574,0.00360688258906,0.000529024132659,-1.15767287522e-06,-0.0436511190925,0.57378221153,0.818973432901,0.00610219919534,0.0,0.818971260238,-0.573690729489,-0.0120734710434,0.0,-0.00638719989296,0.0119252982803,-0.999908491282,0.0,0.262062828984,-0.263750131471,0.304933339436,1.0,-0.00903818181819,-0.0118787532468,3.139
-0.660643547562,-0.516890729664,-0.125045643844,-2.63868966656,-0.0671297471967,2.11123559498,-0.908471763259,-0.0449100190933,0.00763818822674,0.00248889429978,0.00420274233981,0.00112751726979,0.000673458846526,-0.0376360404934,0.573758426621,0.818990101804,0.00610146943441,0.0,0.818987774406,-0.573666681905,-0.0120958813789,0.0,-0.00640632073825,0.0119373725727,-0.999908224884,0.0,0.261911464376,-0.263939725748,0.304923140424,1.0,-0.00869818181819,-0.0114318961039,3.156
-0.661321873194,-0.516744818425,-0.125007934647,-2.63862212752,-0.0671098824273,2.11126663357,-0.909170056378,-0.0354951976806,0.00686866004306,0.00210290839293,0.00300321280267,0.00549908989864,-0.000443459985441,-0.025405535055,0.573727565149,0.819011725734,0.00610090152103,0.0,0.819009111835,-0.573635310347,-0.0121388778335,0.0,-0.00644231477998,0.0119613330519,-0.999907707287,0.0,0.261759459945,-0.264126565604,0.304903560721,1.0,-0.00833818181819,-0.0109587532468,3.174
-0.661866693963,-0.516634007903,-0.124995172126,-2.63854988238,-0.0670954765495,2.11127704891,-0.909728377708,-0.0408055469886,0.0040942578388,0.000443955303975,0.00493601228229,-5.4218252451e-05,-2.27653311227e-06,-0.0442846172697,0.573717448685,0.819018771205,0.00610642205291,0.0,0.819016063766,-0.573624864208,-0.0121634434985,0.0,-0.00645941739067,0.0119798681742,-0.999907375053,0.0,0.261635210705,-0.264283233159,0.304896708727,1.0,-0.00803818181819,-0.0105644675325,3.189
-0.662473191338,-0.516536615992,-0.124992335056,-2.63846512504,-0.067075476308,2.11128786371,-0.910310224865,-0.0368599818503,0.00247838502949,-0.000726753523065,0.00829103311977,-0.000250243485455,-0.000559388916567,-0.0289797710405,0.573748526516,0.818996905519,0.00611914804826,0.0,0.818994370485,-0.57365589019,-0.0121609072684,0.0,-0.0064495842748,0.011989081257,-0.999907328103,0.0,0.261496065369,-0.264461094949,0.304900289876,1.0,-0.00769818181819,-0.0101176103896,3.206
-0.663111993085,-0.516433255593,-0.124989954812,-2.6383815366,-0.0670556885814,2.11130927284,-0.910918296028,-0.0358553718712,0.00753895639623,-0.00165936669486,0.00528373201613,-0.000145044306869,5.12914041363e-05,-0.0271992037526,0.573784782632,0.818971413393,0.00613140811243,0.0,0.818969068775,-0.573692140308,-0.0121548113886,0.0,-0.00643702635203,0.0119959103611,-0.999907327119,0.0,0.261349391867,-0.26464855008,0.304902028259,1.0,-0.00733818181819,-0.00964446753247,3.224
-0.663651706267,-0.516383621668,-0.124985159546,-2.63831463754,-0.0670356284856,2.11132476602,-0.911444481347,-0.032439165457,0.00620485610876,-1.29865557198e-05,0.00278989731955,-9.4952076489e-05,0.000747353362895,-0.038348282944,0.573804326192,0.818957638834,0.00614230739989,0.0,0.818955664032,-0.573712056422,-0.0121179027376,0.0,-0.00640025642877,0.0119838131761,-0.999907708211,0.0,0.261225873323,-0.26480524525,0.304915554506,1.0,-0.00701818181819,-0.0092238961039,3.24
-0.664122818644,-0.516318860072,-0.124974235182,-2.6382465845,-0.0670156603863,2.11133837637,-0.911939698861,-0.0264742736951,0.00448520146849,0.00313894456,0.00471060974943,0.000114301489024,0.00422685212007,-0.0318951476134,0.573788783437,0.818968466816,0.00615054990393,0.0,0.818966721428,-0.573696709306,-0.0120971825893,0.0,-0.00637878364898,0.011978553995,-0.999907908441,0.0,0.261121421953,-0.264942425448,0.304924007131,1.0,-0.00671818181819,-0.00882961038962,3.255
-0.664691781714,-0.516239327626,-0.124942402887,-2.63815516634,-0.0669863041228,2.11136956627,-0.912505619358,-0.0233312962989,0.00525459507749,0.00291052165613,0.0024183867684,0.000216810214894,0.000380840896735,-0.0352689778504,0.573785759626,0.818970574161,0.00615204112522,0.0,0.818969147074,-0.573694242018,-0.012049884545,0.0,-0.00633923234406,0.011952614155,-0.999908470385,0.0,0.26100415871,-0.265107974036,0.304939620277,1.0,-0.00633818181819,-0.00833018181819,3.274
-0.665149213907,-0.516154924039,-0.124885544813,-2.6380767601,-0.0669609142201,2.11139116814,-0.912956896091,-0.0279110662865,0.00813324172975,0.00138513023376,0.00390830978491,0.00492978925216,2.75924836229e-05,-0.031872076978,0.573765243306,0.818985038134,0.00614001530294,0.0,0.818983581185,-0.573674020684,-0.0120315686014,0.0,-0.00633142930354,0.0119320973371,-0.999908764866,0.0,0.260917031782,-0.265234528022,0.304947291431,1.0,-0.00601818181819,-0.00790961038962,3.29
-0.665613038369,-0.516057179075,-0.124827415354,-2.63800545757,-0.0669334679082,2.11141689047,-0.913437441992,-0.0239515628207,0.00431651277941,0.00155823871446,0.00236113831816,0.00416612691888,0.000637602090213,-0.0298891842084,0.573725695107,0.819012812481,0.00613079656519,0.0,0.819011256605,-0.573634560019,-0.0120291316169,0.0,-0.00633529810111,0.0119228428489,-0.999908850754,0.0,0.260827364312,-0.265360750582,0.304947192084,1.0,-0.00565818181819,-0.00743646753247,3.308
-0.666008336079,-0.515974137463,-0.124794941708,-2.6379517498,-0.0669125554996,2.11143585431,-0.913826768867,-0.0276681955543,0.00624875929332,0.00189786968197,0.00544379603862,0.000397128710229,0.000442751859929,-0.0222713727121,0.573719293113,0.819017299088,0.00613053065802,0.0,0.819015691904,-0.573628070502,-0.0120366128211,0.0,-0.00634167174722,0.011926867437,-0.999908762354,0.0,0.260744827897,-0.265469978758,0.304943338942,1.0,-0.00533818181819,-0.0070158961039,3.324
-0.666378197077,-0.515880814414,-0.124769351375,-2.63792418497,-0.0668891181109,2.11144726438,-0.914222668034,-0.0238440430695,0.00552622759208,0.0021940275896,0.00398093480484,0.000510599699246,0.000994703968716,-0.0159035872274,0.573691497743,0.819036685468,0.00614167539052,0.0,0.819034887259,-0.573599601222,-0.0120870936016,0.0,-0.00637703330325,0.0119647396011,-0.999908085002,0.0,0.260660393936,-0.265565723295,0.304923008838,1.0,-0.00501818181819,-0.00659532467533,3.34
-0.666753149356,-0.515825420657,-0.124761186644,-2.63790570097,-0.0668675232611,2.11145531957,-0.914606049287,-0.0204708263764,0.000361436999394,-0.000458167294364,-0.000245248593147,0.00242769479516,0.000300290811653,-0.0257561859165,0.573689123094,0.819038214619,0.00615954041768,0.0,0.819036472704,-0.573596817009,-0.0121117628081,0.0,-0.00638702677847,0.0119935057538,-0.999907676593,0.0,0.260568790846,-0.265664525988,0.304911853778,1.0,-0.00467818181819,-0.00614846753247,3.357
-0.66714769748,-0.515770577362,-0.124745081526,-2.63788101166,-0.0668496546968,2.11146090769,-0.914998297491,-0.0258434830309,-0.00113978663156,0.00365641407353,0.00182109507375,0.00190767283249,-5.04360896363e-05,-0.0287880392405,0.573688586616,0.819038513544,0.00616975035961,0.0,0.819036759799,-0.573595963025,-0.0121327737979,0.0,-0.00639838830621,0.0120139175003,-0.999907358916,0.0,0.260474398007,-0.26576833301,0.304903693636,1.0,-0.00431818181819,-0.00567532467533,3.375
-0.667471680878,-0.515714513521,-0.124724359882,-2.63785262181,-0.0668331989575,2.11147042498,-0.915303962469,-0.0229649743609,0.00781497925144,0.000210066828663,0.00286536632174,0.00108688561295,-0.000711151072622,-0.0250206400787,0.573696663939,0.819032795345,0.00617776945028,0.0,0.819031000747,-0.573603729552,-0.0121543473642,0.0,-0.00641134093844,0.0120329249015,-0.999907047393,0.0,0.260403007953,-0.265849278685,0.304894747573,1.0,-0.00401818181819,-0.00528103896105,3.39
-0.667788475146,-0.515682524205,-0.124701307546,-2.63781387941,-0.0668147464666,2.11147428151,-0.915607927902,-0.0209116462365,0.00505964226775,0.00167414891095,0.00652377980103,0.000109396652805,-0.000178937656637,-0.0187810386269,0.57370139143,0.819029487658,0.00617727441753,0.0,0.819027811412,-0.573608692671,-0.0121350207055,0.0,-0.00639572462572,0.012021469261,-0.999907285194,0.0,0.260332258397,-0.265940145202,0.304903878085,1.0,-0.00365818181819,-0.0048078961039,3.408
-0.668089327552,-0.515637010786,-0.124682018468,-2.63775745491,-0.0667967044025,2.11148163446,-0.915908302881,-0.0131739180916,0.00220836207565,-0.000368273975313,-0.000951584394044,0.000277883281286,-6.26106421364e-06,-0.019873685407,0.573698579856,0.819031444063,0.00617899729841,0.0,0.819029920196,-0.573606118432,-0.0121143560498,0.0,-0.00637785066664,0.0120110037749,-0.999907525129,0.0,0.26027104222,-0.266027467158,0.304913799557,1.0,-0.00329818181819,-0.00433475324676,3.426
-0.668320504215,-0.515606182711,-0.124654713169,-2.63770956012,-0.0667803868473,2.11148817018,-0.916123378105,-0.0163697598997,-0.000574010453503,0.000441419128927,0.00171627144603,0.00210179972806,0.000161608876777,-0.0181403384897,0.573701668989,0.819029310773,0.00617494893675,0.0,0.819027899027,-0.573609535558,-0.0120891784045,0.0,-0.0063595043049,0.0119932681892,-0.999907854866,0.0,0.260228242891,-0.266093003443,0.304925384067,1.0,-0.00299818181819,-0.00394046753247,3.441
-0.668573844948,-0.515577279947,-0.124625674346,-2.63766826591,-0.0667638610115,2.11149428441,-0.91635761725,-0.0134655541283,0.00161809834418,0.00149813331392,0.000938519342055,0.000200047406433,0.000278657709257,-0.0137530827336,0.573705759832,0.819026471419,0.00617147894316,0.0,0.819025147336,-0.573613891469,-0.0120689040642,0.0,-0.0063448280145,0.0119788268567,-0.999908121211,0.0,0.260178424082,-0.266162157495,0.304934685565,1.0,-0.00263818181819,-0.00346732467533,3.459
-0.668795731033,-0.515563451256,-0.124606402536,-2.63764559098,-0.0667491256927,2.11150418532,-0.916556635622,-0.0166817281544,-0.000654331902892,0.0047510932432,0.002874637951,0.00152133326739,-0.000142534803843,-0.0124369519612,0.573718182058,0.819017761516,0.00617258444008,0.0,0.819016582679,-0.573626553505,-0.0120482908361,0.0,-0.00632712766889,0.0119680029509,-0.999908362982,0.0,0.260131347168,-0.266221352143,0.304941186491,1.0,-0.00229818181819,-0.00302046753247,3.476
-0.668981169756,-0.515546123587,-0.124586528764,-2.63763774886,-0.0667380310885,2.11151652432,-0.916724334417,-0.010290992643,0.000217327530942,0.00120205570687,0.00177137489791,-0.000111682183402,0.00359965685971,-0.00685653615599,0.573723757554,0.819013858217,0.00617227407501,0.0,0.819012703685,-0.573632182784,-0.0120439602662,0.0,-0.00632367706583,0.0119653073871,-0.99990841707,0.0,0.260090725942,-0.2662677118,0.304939877646,1.0,-0.00199818181819,-0.00262618181819,3.491
-0.669180098662,-0.515531503205,-0.124566251397,-2.63762265756,-0.0667246619801,2.11153280964,-0.916905416796,-0.00609480191441,0.00142177103418,-0.00186360957713,0.000723602253071,0.000123002304961,0.00304926837292,-0.00946571376974,0.573730419955,0.819009193422,0.00617196966737,0.0,0.819008152212,-0.573639067165,-0.0120255616881,0.0,-0.00630868411775,0.0119545541925,-0.999908640396,0.0,0.260049107328,-0.266319763549,0.304943208592,1.0,-0.00163818181819,-0.00215303896105,3.509
-0.669364056265,-0.515502084834,-0.124530753438,-2.63760088866,-0.0667124459596,2.11153987712,-0.917040010322,-0.0082678494763,0.00160213020737,0.00239393206332,0.000860872127649,0.00264265347769,0.00015026116145,-0.0113578785887,0.573751970411,0.818994159532,0.00616360305727,0.0,0.818993022062,-0.573660672917,-0.0120253508208,0.0,-0.0063129969559,0.0119477466541,-0.999908694541,0.0,0.26001450174,-0.266364915961,0.304943679328,1.0,-0.00129818181819,-0.00170618181819,3.526
-0.669512207768,-0.515479646216,-0.124509884181,-2.63758402886,-0.0667020296799,2.11154823181,-0.91714693506,-0.0131452127852,0.000281885969631,-6.06583761135e-06,0.00027664685979,0.000233612724404,-0.000361288645735,-0.00711057713477,0.573776223774,0.818977189054,0.00616082323748,0.0,0.818976044272,-0.573684987687,-0.0120216767873,0.0,-0.00631122877059,0.0119435489053,-0.999908755853,0.0,0.25998524683,-0.266403109543,0.304944262282,1.0,-0.000978181818187,-0.00128561038962,3.542
-0.669647309433,-0.515451106053,-0.124492712876,-2.6375653849,-0.066693464128,2.11155120534,-0.917203413158,-0.00629376508816,0.000978810795978,0.000389713477453,-0.00152782575168,0.000170358854529,-0.000158879964986,0.000833906333895,0.573833055651,0.818937387396,0.00615846326579,0.0,0.818936180331,-0.573741757907,-0.0120280788368,0.0,-0.00631699753962,0.0119457276084,-0.999908693399,0.0,0.259957899463,-0.266438475708,0.30494285589,1.0,-0.000618181818187,-0.000812467532475,3.56
-0.669704552244,-0.515432902908,-0.124493498237,-2.63756398716,-0.0666859148033,2.11155337286,-0.917248796775,0.000537355112184,0.0045892972574,0.00145448308803,0.0027618930911,0.000613283012645,0.000215411472015,-0.00737559589298,0.573846698925,0.818927768266,0.00616631151475,0.0,0.818926571096,-0.573755189969,-0.0120415961864,0.0,-0.00632336600112,0.0119600168338,-0.999908482332,0.0,0.259943413058,-0.266453132565,0.304936941367,1.0,-0.000298181818187,-0.000391896103904,3.576
