nelsonifechukwu/NELSON_IML_WORK/CNN-GradCAM/train2dof/data_sample_2022-02-22-08-46-03/robot_state.csv
position_joint1,position_joint2,position_joint3,position_joint4,position_joint5,position_joint6,position_joint7,velocity_joint1,velocity_joint2,velocity_joint3,velocity_joint4,velocity_joint5,velocity_joint6,velocity_joint7,ee_T_00,ee_T_10,ee_T_20,ee_T_30,ee_T_01,ee_T_11,ee_T_21,ee_T_31,ee_T_02,ee_T_12,ee_T_22,ee_T_32,ee_T_03,ee_T_13,ee_T_23,ee_T_33,v_x,v_y,time
0.465067149087,0.547783436425,-0.124005805684,-1.35583198565,0.0795040540506,1.89411012637,0.159155602137,-0.00172894199506,-0.000332836083374,0.000740211579533,-0.000232367986471,-0.000254340779048,-0.000708934791225,-3.22694707208e-05,0.57382133221,0.818966438671,0.00194882844864,0.0,0.818923339284,-0.573762824213,-0.0118967570188,0.0,-0.00862504547167,0.00842271622575,-0.999927330581,0.0,0.6616846104,0.260877547321,0.303214680234,1.0,0.0,0.0,0.0
0.465070171561,0.547781223323,-0.124006631119,-1.35582947967,0.0795076195691,1.89411247063,0.159160373643,-4.45518675252e-05,0.00060609850819,0.00124752298563,-0.000558404731968,6.78439247854e-05,0.000662188812636,0.000374174695742,0.573824161622,0.818964438032,0.00195644581271,0.0,0.818921415661,-0.573765600141,-0.011895291827,0.0,-0.00861944563151,0.00842814350238,-0.999927333137,0.0,0.661684912994,0.260880134719,0.303217678273,1.0,-0.00018,-0.000236571428571,0.01
0.465072282359,0.547770386894,-0.12400481077,-1.35582738207,0.0795053765873,1.89411008974,0.159159346875,0.001478401313,-0.00325226444716,0.00165627154754,0.000807216040511,0.000465981064693,2.2772791658e-05,0.000861180248821,0.573819575835,0.818967630643,0.00196500598798,0.0,0.818924730272,-0.57376098994,-0.0118894690177,0.0,-0.00860981225571,0.00843176440492,-0.999927385605,0.0,0.661684364618,0.260882453322,0.303226082004,1.0,-0.00052,-0.000683428571429,0.027
0.465069117267,0.547755919519,-0.12400899726,-1.35584829707,0.0795067910552,1.89411167607,0.15915176866,0.000110435174625,-0.00409924649886,0.000159247346397,-0.000541734506809,0.000144925278884,0.000286554990063,-3.75386127456e-05,0.573820389178,0.818967068829,0.00196164171504,0.0,0.818924113005,-0.57376180564,-0.0118926207324,0.0,-0.00861431550172,0.00843082627806,-0.99992735473,0.0,0.661681976012,0.260875979538,0.303226655357,1.0,-0.00084,-0.001104,0.043
0.465069194411,0.547675080479,-0.12400629172,-1.35593302319,0.0795041463406,1.89412972009,0.15915409104,0.000626562896233,-0.00827768246607,-0.0015563110128,-0.00436492412292,-1.24837879183e-06,0.000292359514861,-0.000295534797329,0.573824245437,0.818964330331,0.00197683961773,0.0,0.81892151982,-0.573765547336,-0.0118906672367,0.0,-0.00860395551824,0.0084421921974,-0.999927348031,0.0,0.661667797764,0.260869400744,0.303245068953,1.0,-0.00118,-0.00155085714286,0.06
0.465062706707,0.547531449947,-0.124006518822,-1.35612156828,0.0794997491536,1.89417008486,0.159149336812,-0.000256020068883,-0.00937176543171,-0.000299745182334,-0.0121200761467,-0.000281671240316,0.000510917825057,-0.00059909419332,0.573834978467,0.818956806364,0.00197830738534,0.0,0.818913914296,-0.573776174228,-0.0119016705859,0.0,-0.00861201429837,0.00844982101422,-0.999927214218,0.0,0.661638407609,0.260846509673,0.303260580206,1.0,-0.00154,-0.002024,0.078
0.465043864132,0.547402136575,-0.124009140838,-1.35631981368,0.0794984438391,1.89425871315,0.159144967441,-0.00131733030211,-0.00470486336453,-0.000721613941464,-0.0134965702492,2.60107571045e-05,0.00239932254853,-0.000894381608611,0.573859527024,0.818939553659,0.00199939937561,0.0,0.818896873882,-0.573800571608,-0.0118979355564,0.0,-0.00859659904063,0.0084652085508,-0.999927216716,0.0,0.66161963598,0.260816501896,0.303265606156,1.0,-0.00186,-0.00244457142857,0.094
0.465027410129,0.547208148663,-0.124002408368,-1.35653443406,0.0794960424835,1.89437754632,0.159133801412,-3.13111545177e-05,-0.0140762601167,9.85567771994e-05,-0.011789332221,-0.00183914790957,0.00155011451124,-0.00127786796204,0.5738707086,0.818931491522,0.00209019246062,0.0,0.818889921145,-0.573811311081,-0.0118584663501,0.0,-0.00851205934254,0.00851702800569,-0.999927499912,0.0,0.661602135546,0.260794282535,0.303310955938,1.0,-0.0022,-0.00289142857143,0.111
0.465007749789,0.546998340217,-0.124007070465,-1.35679314301,0.0794978025109,1.89450451544,0.159120843595,0.000137309677076,-0.012854083693,-0.000898112598572,-0.0173787327796,0.000313061062713,0.00985822737483,-0.00108880513164,0.573894542529,0.818914595666,0.00216470813395,0.0,0.81887390844,-0.573834758856,-0.0118295606993,0.0,-0.00844537774666,0.00856170817556,-0.999927683759,0.0,0.661579769617,0.260759542375,0.303347610441,1.0,-0.00254,-0.00333828571429,0.128
0.464975086764,0.546789380185,-0.124004455438,-1.35711421242,0.0794902498254,1.89462294226,0.159102182638,-0.00191861556327,-0.0137426246869,0.000472367288063,-0.0209192565403,0.000326015409374,0.00988029666341,-8.35061319398e-05,0.5739201469,0.818896619123,0.00217694109502,0.0,0.81885597245,-0.573860191529,-0.0118373925455,0.0,-0.00844450348387,0.00857648440987,-0.999927564515,0.0,0.661543592027,0.260710896718,0.303352971701,1.0,-0.00286,-0.00375885714286,0.144
0.46494065713,0.546517948053,-0.124007616445,-1.35750752745,0.079479953729,1.89476593674,0.15899176712,-0.000836889792161,-0.0154317578692,-0.00108157249821,-0.0218967304433,-0.00511356252531,0.00820668400401,-0.0105855064015,0.573879364192,0.818925131022,0.00220273374331,0.0,0.818884706421,-0.573819196871,-0.0118369671853,0.0,-0.00842978129504,0.00859694169475,-0.999927513063,0.0,0.661499307683,0.260651209917,0.303370496721,1.0,-0.0032,-0.00420571428571,0.161
0.464901989472,0.54623617787,-0.124007318343,-1.35796502377,0.079468745415,1.89493374077,0.158923659734,-0.000228197580234,-0.0204320899903,0.00380654456009,-0.0305945262936,2.95380958557e-05,0.0179569032162,-0.000294992147532,0.573877686976,0.818926300968,0.0022047391618,0.0,0.818885747532,-0.573817353976,-0.0118542678546,0.0,-0.00844281668317,0.008608495034,-0.999927303687,0.0,0.66144584281,0.260584772185,0.303366816691,1.0,-0.00354,-0.00465257142857,0.178
0.464851928761,0.545895543079,-0.124007571692,-1.35852496944,0.0794543542313,1.89512206371,0.158883648197,-0.00315936564569,-0.0236390265379,-0.000707400861227,-0.0287259730232,0.000439018592251,0.0188199659285,-0.0111256305045,0.573913499507,0.818901246759,0.0021886160943,0.0,0.818860282246,-0.573853021361,-0.0118867546691,0.0,-0.0084782974936,0.00861430561469,-0.999926953437,0.0,0.661377731178,0.260499966582,0.303357828466,1.0,-0.0039,-0.00512571428571,0.196
0.464784529552,0.545552465353,-0.12400211051,-1.35913005669,0.0793876703677,1.89531467479,0.158788557108,-0.00521454250585,-0.020959567818,0.000401974615003,-0.0365712792886,-0.0119486743033,0.014066523848,-0.00478930338189,0.57390298001,0.818908814671,0.00211416427504,0.0,0.818867068749,-0.57384299317,-0.0119033528555,0.0,-0.00853472654182,0.0085627540382,-0.999926916172,0.0,0.661306239857,0.260393497022,0.303329146197,1.0,-0.00424,-0.00557257142857,0.213
0.464729247915,0.54519078725,-0.124007463613,-1.35978395676,0.0793051212846,1.89551945472,0.158705426349,-0.00276857065135,-0.0221832151157,-8.14777143066e-05,-0.0456240939102,-0.000762084751409,0.0154380802923,-0.00282227539907,0.573898342111,0.818912316919,0.00201420512051,0.0,0.818869623413,-0.573839117357,-0.0119144510845,0.0,-0.00860122665417,0.00848721851833,-0.999926990346,0.0,0.66122658922,0.260281489445,0.303291759661,1.0,-0.00456,-0.00599314285714,0.229
0.464660323707,0.54478153699,-0.124010593559,-1.36044029818,0.0792950511692,1.89574436377,0.158633704071,-0.00218531768183,-0.0302128276277,0.000684001330199,-0.0386008749627,0.000324291598715,0.00989862772584,-0.00827469581262,0.573932096293,0.81888866905,0.00201083242806,0.0,0.818845649269,-0.573872602954,-0.0119492741934,0.0,-0.00863132978057,0.0085047971158,-0.999926581591,0.0,0.661150563718,0.260175201283,0.303288659247,1.0,-0.00488,-0.00641371428571,0.245
0.464590623336,0.544342693739,-0.124015396694,-1.36118915921,0.079266866466,1.89601492688,0.158528320818,-0.00927240850838,-0.0256909164024,-0.000864349155218,-0.0419825248189,-0.00576309567194,0.0154863860423,-0.00460755291176,0.573940541833,0.818882814436,0.00198432951296,0.0,0.818839297578,-0.573881009697,-0.0119807492568,0.0,-0.00867222761323,0.00850124837993,-0.999926257903,0.0,0.661064656478,0.260057003467,0.303266419725,1.0,-0.00522,-0.00686057142857,0.262
0.464517785468,0.543845367545,-0.124010564147,-1.36200251301,0.0792329542521,1.89629901685,0.158444210194,-0.00461343326346,-0.02869365268,0.000761323627203,-0.0451720723158,-3.10646798034e-05,0.00938984926841,-0.000273818018802,0.573964159798,0.818866304407,0.0019661320858,0.0,0.818822354533,-0.573904510586,-0.0120129657746,0.0,-0.00870880848793,0.00850508846064,-0.999925907318,0.0,0.66096697152,0.259935424944,0.303255667138,1.0,-0.00556,-0.00730742857143,0.279
0.464450646881,0.543338777862,-0.124022234081,-1.36280305451,0.0791847245073,1.8965740204,0.158339695836,-0.00072607591746,-0.0338202446967,-0.00281819953766,-0.0541617713455,-0.00270685037734,0.0164289696226,-0.00803462506994,0.573973323717,0.818859925466,0.00194756992072,0.0,0.818815754056,-0.573913773001,-0.0120203565104,0.0,-0.00872541902612,0.00849422845195,-0.999925854824,0.0,0.66087365907,0.259806770385,0.303257236808,1.0,-0.00588,-0.007728,0.295
0.464365236445,0.542751327505,-0.124023292374,-1.36375114299,0.0791259535776,1.89690479843,0.158210657107,-0.00507613284336,-0.0325596697137,-0.000217075655428,-0.0539199080202,-0.000877415569644,0.016674786847,-0.00697567690525,0.573975317338,0.81885859081,0.00192100094715,0.0,0.818814051817,-0.573915860607,-0.0120366270898,0.0,-0.00875397112609,0.00848183272416,-0.999925710492,0.0,0.660762382643,0.259657820825,0.303250195894,1.0,-0.00624,-0.00820114285714,0.313
0.464290861605,0.54219490174,-0.12402648723,-1.36461294958,0.0790844031072,1.89722438762,0.158094660885,-0.00356646084417,-0.0357975474999,-0.000402731785343,-0.0535233387624,-0.00011841741609,0.0211162432721,-0.013646259791,0.573980300356,0.818855058127,0.00193790708265,0.0,0.818810652898,-0.573920685615,-0.0120377832783,0.0,-0.00874516313607,0.00849639300722,-0.999925663951,0.0,0.660664470437,0.259526799148,0.303261329502,1.0,-0.00656,-0.00862171428571,0.329
0.464218904855,0.541596055989,-0.124024021035,-1.36551711822,0.0790250240525,1.89755501271,0.157975934445,-0.00177154435587,-0.0378000267883,-0.000706061983011,-0.0586126114635,-0.00618749362775,0.0230623662569,-0.00883139859159,0.573974982366,0.818858739458,0.00195737875288,0.0,0.81881465468,-0.573915349074,-0.0120199949635,0.0,-0.00871947609085,0.00850207049606,-0.999925840017,0.0,0.660553445375,0.259384778109,0.303282910232,1.0,-0.0069,-0.00906857142857,0.346
0.46412235746,0.540897040858,-0.124026878933,-1.366595665,0.0789650286225,1.8979615385,0.157833789319,-0.00942555371599,-0.0430896050605,-0.0015148493926,-0.0617447079339,-0.00544032563664,0.02312825279,-0.0139176986634,0.573983088193,0.818852997331,0.00198245580887,0.0,0.81880916219,-0.573923270821,-0.0120159071329,0.0,-0.00870165158309,0.00852034450656,-0.999925839745,0.0,0.660438616492,0.259227661584,0.303299093165,1.0,-0.00724,-0.00951542857143,0.363
0.464037114623,0.540167142969,-0.124026899587,-1.36770904555,0.0789028500638,1.89835659062,0.157696985007,-0.0047812498156,-0.0458729580295,0.000980322233571,-0.0671234477222,-0.0004027821398,0.027092436283,-0.00586437905234,0.573985807787,0.818851058646,0.00199577450807,0.0,0.81880731843,-0.57392585595,-0.0120180721372,0.0,-0.0086957519198,0.00853252189436,-0.999925787231,0.0,0.660304997913,0.25906552604,0.303319267393,1.0,-0.00758,-0.00996228571429,0.38
0.463937279366,0.539468992755,-0.124029986326,-1.3687868865,0.0788401977033,1.89876412607,0.157561644506,-0.00468476264691,-0.0480014307669,0.000236020262488,-0.0663800532556,-0.00281794942088,0.0250848981914,-0.00562619567369,0.574001842609,0.818839760433,0.00201948408959,0.0,0.818796326941,-0.573941785393,-0.0120062012786,0.0,-0.00867225564252,0.00854529233488,-0.999925882234,0.0,0.660185548383,0.258896556897,0.303334991991,1.0,-0.0079,-0.0103828571429,0.396
0.463836200246,0.538718467832,-0.124032888736,-1.36995299977,0.0787704363769,1.89921829826,0.157427704896,-0.00256526799597,-0.0455993739949,-0.000974011582446,-0.0729244961698,-0.00147159153534,0.0250394257905,-0.00546328137911,0.574022907858,0.818824916283,0.00205051917871,0.0,0.818781919491,-0.573962748621,-0.0119865929687,0.0,-0.00863816567165,0.0085596717805,-0.999926054322,0.0,0.660056820803,0.258719106881,0.30334962474,1.0,-0.00824,-0.0108297142857,0.413
0.463725124678,0.537933430422,-0.124044194253,-1.37117497042,0.0787044704972,1.89969560281,0.157266270415,-0.0110548836634,-0.0492174115104,-0.000511794458341,-0.0729699331048,-0.0095894292951,0.0267039105236,-0.00698544915716,0.574033835545,0.818817173804,0.00208289070124,0.0,0.818774594974,-0.573973535533,-0.0119703815063,0.0,-0.00860619551039,0.00857698713288,-0.999926181621,0.0,0.659915195472,0.258519725761,0.303362272283,1.0,-0.0086,-0.0113028571429,0.431
0.463619545916,0.537176140508,-0.124037443416,-1.37236227153,0.0786274019864,1.90013208993,0.157106022571,-0.00973807250239,-0.0475442407861,0.00158199272691,-0.0737469200949,-0.00570971632292,0.019788645327,-0.00758054144722,0.574034844387,0.818816451001,0.00208899515383,0.0,0.81877396254,-0.573974529629,-0.0119659728024,0.0,-0.00859907093079,0.00857946535669,-0.999926221655,0.0,0.659786607269,0.258346603583,0.303371415553,1.0,-0.0089,-0.0116971428571,0.446
0.463498573531,0.53628409912,-0.124050676448,-1.37377006825,0.0785499771632,1.90066331239,0.156951669772,-0.0111928698222,-0.0467803586753,-0.000934484842253,-0.0774656647568,-0.00150259526496,0.0342668948269,-0.00495746426354,0.574073641391,0.818789218433,0.00210165144833,0.0,0.818746892793,-0.574013267141,-0.0119599995362,0.0,-0.00858650817532,0.00858680640046,-0.999926266598,0.0,0.6596280767,0.258127226568,0.303377547743,1.0,-0.00926,-0.0121702857143,0.464
0.463383571635,0.535387600214,-0.124056699211,-1.37516883389,0.0784715978381,1.90116657216,0.15678223056,-0.00639335542848,-0.0532544442302,0.000743141740503,-0.0867054024537,-0.00513628529474,0.0342569316387,-0.0129425819819,0.574089050718,0.818778407112,0.00210446995844,0.0,0.818736057192,-0.574028601829,-0.0119657777724,0.0,-0.00858945989022,0.00859259287275,-0.999926191539,0.0,0.659462694745,0.257915076759,0.303388274506,1.0,-0.0096,-0.0126171428571,0.481
0.463267104885,0.53456045623,-0.124060921887,-1.37651221325,0.0783973052088,1.90165944921,0.156615244918,-0.00954075985328,-0.0526680077588,-0.000710840527454,-0.0881384486668,-0.00074371273361,0.0310688670149,-0.0078657463881,0.574104465776,0.818767645544,0.00208611800002,0.0,0.818724988134,-0.574044023174,-0.0119833286132,0.0,-0.00861420403501,0.00858780474838,-0.999926019813,0.0,0.659305689574,0.257708637604,0.303375318667,1.0,-0.00992,-0.0130377142857,0.497
0.463130014349,0.533643323597,-0.12406058254,-1.37798527165,0.0783103686908,1.90218455562,0.156431624482,-0.00784442551398,-0.0495615791961,0.000840704267957,-0.0830561662228,0.000924498027083,0.0292152960834,-0.00708530523656,0.574123376101,0.818754449971,0.00206072057207,0.0,0.818711389978,-0.574062966727,-0.0120048763035,0.0,-0.0086462289963,0.00857958070044,-0.999925814008,0.0,0.659131949218,0.257477211709,0.303366581027,1.0,-0.01026,-0.0134845714286,0.514
0.462999391364,0.532694965181,-0.124061402445,-1.37950429665,0.0782262156193,1.90276578079,0.156243397555,-0.00462761934072,-0.0533445094262,0.000192280531251,-0.0896680071714,-0.00860321880493,0.0314273704275,-0.0105056856139,0.574137425768,0.818744570195,0.00207171659791,0.0,0.818701593916,-0.574076908969,-0.0120062321068,0.0,-0.00864087904888,0.00858951025052,-0.999925775007,0.0,0.658957591359,0.257248594395,0.303362711453,1.0,-0.0106,-0.0139314285714,0.531
0.462881371136,0.531769459337,-0.124062056278,-1.3809780247,0.0781384911767,1.90331363146,0.156050489364,-0.00538778520403,-0.0593486458198,0.000772993532056,-0.0954265504233,-0.0032304377752,0.0399039848683,-0.0175625321841,0.574139338875,0.818743219448,0.00207534710983,0.0,0.818700256744,-0.574078772948,-0.012008287122,0.0,-0.00864045729167,0.00859368269595,-0.999925742801,0.0,0.658774177688,0.25701299664,0.303364144819,1.0,-0.01094,-0.0143782857143,0.548
0.462733403037,0.530700954673,-0.124064853045,-1.38271128362,0.0780331472947,1.90392059981,0.155834602351,-0.0096481515025,-0.061120829554,-0.000375591264759,-0.0974754281645,-0.00900924827407,0.030293515157,-0.00858085148469,0.574145737909,0.818738869008,0.00202062312812,0.0,0.818695134713,-0.574085346781,-0.0120431685865,0.0,-0.00870036760759,0.00856897321822,-0.999925435371,0.0,0.658572231568,0.256763997493,0.303341879699,1.0,-0.01128,-0.0148251428571,0.565
0.462596916898,0.529669597469,-0.124065817634,-1.38434024354,0.0779331248914,1.90452103446,0.15561002805,-0.00880657887096,-0.0606988210907,0.000539241423764,-0.0979429120148,-0.00435860320588,0.0277434382804,-0.0129839564921,0.57413592002,0.818745751571,0.00202151632904,0.0,0.818702017854,-0.574075515389,-0.0120438986354,0.0,-0.00870055532426,0.0085700193208,-0.999925424772,0.0,0.658379347023,0.256518306552,0.303345164694,1.0,-0.01162,-0.015272,0.582
0.462483662198,0.528722068371,-0.124072782321,-1.38582398623,0.0778358016531,1.90507911881,0.155402439674,-0.00839811243452,-0.064458182232,-0.000551234483427,-0.101498465324,-0.00407282612261,0.0461933370351,-0.0157010802087,0.574117930396,0.81875833622,0.00203365904339,0.0,0.818714854489,-0.574057568385,-0.012026725209,0.0,-0.00867971126827,0.00856991045157,-0.999925606856,0.0,0.658204597508,0.256298145333,0.303354814114,1.0,-0.01192,-0.0156662857143,0.597
0.462338826019,0.527535430705,-0.124065920853,-1.38764540637,0.0777208691454,1.90579001893,0.155149057054,-0.00707689376406,-0.0708943371542,0.000633999587535,-0.104101568046,-0.00964858284308,0.041786863715,-0.0116357188201,0.574092052647,0.818776323347,0.00209626196295,0.0,0.818733697857,-0.574031469101,-0.0119896362088,0.0,-0.00861367575901,0.00859960073914,-0.999925922985,0.0,0.657993063304,0.256035825608,0.303384632686,1.0,-0.01228,-0.0161394285714,0.615
0.462181493649,0.526386149057,-0.124068452814,-1.38943615345,0.0776119326706,1.9064660855,0.154911720831,-0.0171150718142,-0.0662870534784,0.000404918007082,-0.103577163033,-0.00584590480383,0.0396187808257,-0.00645688659468,0.574095787532,0.818773633178,0.00212397099786,0.0,0.818731380762,-0.574035099941,-0.0119740173943,0.0,-0.00858494110836,0.00861336048756,-0.999926051669,0.0,0.657785214812,0.255761617276,0.303399751824,1.0,-0.01262,-0.0165862857143,0.632
0.462042380296,0.52526880926,-0.124076892116,-1.39116600882,0.0774932802862,1.90708020061,0.154668018287,-0.0103246819365,-0.0703575927477,-0.000223771476869,-0.107475462125,-0.00409036609491,0.0402430064233,-0.0167765609622,0.574077088982,0.818786761948,0.0021169000109,0.0,0.81874451894,-0.574016534914,-0.0119656697561,0.0,-0.00858236162218,0.00860258276875,-0.999926166594,0.0,0.657575111864,0.2554970653,0.303415872817,1.0,-0.01294,-0.0170068571429,0.648
0.461881543847,0.524093496737,-0.124079831321,-1.39305539184,0.0773842435873,1.90774757359,0.154408548361,-0.010017474648,-0.0671343718646,-0.00259795914424,-0.116926138653,-0.002076440843,0.0388105379476,-0.0152144163133,0.574070462115,0.818791503603,0.0020796770189,0.0,0.818748656423,-0.574009945399,-0.0119986286643,0.0,-0.00863078608252,0.00859095646961,-0.99992584975,0.0,0.65734288676,0.255208441304,0.303401052862,1.0,-0.01328,-0.0174537142857,0.665
0.461723846468,0.522888807235,-0.124086515516,-1.39499292448,0.077270855502,1.90849016493,0.154161692631,-0.0105926552534,-0.0710643218407,-0.00084268664726,-0.117590135921,-0.00313003111287,0.0481825554722,-0.0139788715234,0.574075795975,0.818787747633,0.00208607352699,0.0,0.818744981013,-0.574015248892,-0.0119957078364,0.0,-0.0086246666374,0.00859457322689,-0.999925871471,0.0,0.657114795497,0.254918768704,0.303390303296,1.0,-0.01362,-0.0179005714286,0.682
0.461569837186,0.521736472383,-0.124089407852,-1.39681994347,0.077161611367,1.9092109915,0.153906544942,-0.00887727720965,-0.0698349877156,-0.000938536454144,-0.11200575235,-0.00569199835908,0.0455258721652,-0.014250904931,0.574063664576,0.818796158433,0.00212293437641,0.0,0.818753905455,-0.574002998323,-0.011972765722,0.0,-0.00858484916667,0.00861145637443,-0.999926068859,0.0,0.656904373129,0.254645376474,0.303393021319,1.0,-0.01394,-0.0183211428571,0.698
0.461391522667,0.520384762827,-0.124092832676,-1.39898594972,0.0770175833783,1.90999903921,0.15361845622,-0.0114730958951,-0.0760152630577,-0.000525020514904,-0.118723199418,-0.00564542422605,0.0441192850375,-0.0123417064148,0.574052806398,0.818803850384,0.00209211953038,0.0,0.818761262274,-0.573992336309,-0.0119808246131,0.0,-0.00860925050164,0.00859073781795,-0.99992603728,0.0,0.656640177643,0.254317142554,0.30337993315,1.0,-0.0143,-0.0187942857143,0.716
0.46122119889,0.519056391757,-0.124099301047,-1.40104315452,0.076881843244,1.91073682431,0.153357108178,-0.00830745701418,-0.0764017936069,-0.000507574626874,-0.126570714176,-0.0147685019619,0.0414337985619,-0.00932711137174,0.574055424072,0.818802012615,0.00209311539567,0.0,0.818759499971,-0.573995011866,-0.0119730723493,0.0,-0.00860230356145,0.00858713056855,-0.999926128052,0.0,0.656388463444,0.254002982477,0.303397531149,1.0,-0.01464,-0.0192411428571,0.733
0.461055932957,0.517782882643,-0.124102389942,-1.40303947652,0.0767541091135,1.91144799675,0.153070430089,-0.014170491569,-0.0809087987978,0.000638123136978,-0.126618975697,-0.00970579895109,0.0400116148465,-0.0153086275624,0.574029418519,0.818820277751,0.00207998052608,0.0,0.81877758829,-0.573969058779,-0.0119802913232,0.0,-0.0086160268892,0.00858024629712,-0.999926068994,0.0,0.656141182893,0.253700155164,0.303402823457,1.0,-0.01496,-0.0196617142857,0.749
0.460857549101,0.516365522186,-0.124113606386,-1.40529943543,0.0766031106569,1.91229090306,0.152750937508,-0.00773237936145,-0.0776507613008,-0.00187343565663,-0.128146615381,-0.0115815758919,0.0430044682789,-0.0219025442711,0.574017018091,0.818828998974,0.00206888438988,0.0,0.818786304762,-0.573956845428,-0.0119696959272,0.0,-0.00861384961942,0.00856494826995,-0.999926218906,0.0,0.655872289194,0.253346670971,0.303394858084,1.0,-0.01532,-0.0201348571429,0.767
0.460687796063,0.515051771099,-0.124109642107,-1.4073669564,0.0764816608149,1.91306856791,0.152472018535,-0.0108599306136,-0.0826478187206,0.00079501542968,-0.129589221578,-0.00580675004369,0.0525609480186,-0.0161221321969,0.574001228232,0.818840010369,0.00209148472728,0.0,0.818797531993,-0.573940885028,-0.0119669961141,0.0,-0.0085988321809,0.00858173822567,-0.999926204204,0.0,0.65562017016,0.253042671001,0.303399270931,1.0,-0.01564,-0.0205554285714,0.783
0.460492804525,0.513648375446,-0.124110717272,-1.40963300812,0.0763505243808,1.91384751277,0.15216101149,-0.011929170318,-0.0781942332132,0.000803494672325,-0.130862739712,-0.00558725914155,0.0476163274497,-0.0240417652215,0.573990514434,0.818847687752,0.00202497020278,0.0,0.818804144154,-0.573930256272,-0.0120241986729,0.0,-0.00868396280618,0.00855999478219,-0.999925654876,0.0,0.655330726269,0.252695460081,0.3033719305,1.0,-0.01598,-0.0210022857143,0.8
0.460292561027,0.512149647306,-0.124120617486,-1.41204325911,0.0762035206458,1.91470632051,0.151824709269,-0.0103748056731,-0.0877646267138,-0.00133166084106,-0.134019267148,-0.00656023593247,0.0458956793423,-0.01823390305,0.573980585216,0.818854771699,0.00197422416945,0.0,0.818810518238,-0.573920499487,-0.0120558032684,0.0,-0.00873907256575,0.00853647688416,-0.999925375802,0.0,0.655044936699,0.252344205478,0.30334793928,1.0,-0.01632,-0.0214491428571,0.817
0.460093065837,0.510695436183,-0.124119173893,-1.41436031874,0.076060693909,1.91559453053,0.151495268539,-0.0103632592949,-0.0834108568852,-0.000170235219613,-0.142894332081,-0.0147871936945,0.0512928570843,-0.0196476573863,0.573948017613,0.818877544582,0.0019967372049,0.0,0.818833577846,-0.573887831877,-0.0120447132369,0.0,-0.00871740985245,0.00854819933389,-0.999925464749,0.0,0.654749626969,0.251978213385,0.303341882522,1.0,-0.01668,-0.0219222857143,0.835
0.459914351077,0.509370676255,-0.12412232675,-1.41643441636,0.0759286879656,1.9163657511,0.151206467213,-0.00802942917041,-0.0918720005597,0.000901971115205,-0.134721974296,-0.0109557863584,0.0473921544132,-0.0173628178407,0.573932501228,0.818888384202,0.00201125693269,0.0,0.818844636068,-0.573872283722,-0.0120337383476,0.0,-0.00870025144905,0.00855362518382,-0.99992556779,0.0,0.654496142107,0.251661689938,0.303348825116,1.0,-0.01698,-0.0223165714286,0.85
0.459702050507,0.507852655649,-0.124130875499,-1.41881005653,0.07577743495,1.91721820747,0.150863341073,-0.01612254197,-0.0947281076981,-0.000201153343887,-0.13832678469,-0.00695065909091,0.0535391913071,-0.0224587146443,0.573913760866,0.81890153956,0.00200262210573,0.0,0.818857686612,-0.573853590445,-0.0120371388093,0.0,-0.00870818727674,0.00854830669016,-0.999925544192,0.0,0.654201752473,0.251289311296,0.303354221796,1.0,-0.01732,-0.0227634285714,0.867
0.459484611122,0.506305734631,-0.124134060153,-1.42123919517,0.0756274958449,1.9181154459,0.150542015762,-0.0117213472602,-0.0884809356794,-0.00221429659483,-0.143809834737,-0.00823753660852,0.0533896193949,-0.022692477999,0.573916197229,0.81889980567,0.00201338834717,0.0,0.818856070772,-0.573855958316,-0.0120341749658,0.0,-0.00869955613485,0.00855544792293,-0.999925558246,0.0,0.653903276491,0.25091403242,0.303357566522,1.0,-0.01766,-0.0232102857143,0.884
0.459274291592,0.504785343412,-0.124135263556,-1.42356085774,0.0754754780278,1.91901745265,0.150229945327,-0.0148875865222,-0.0974493518851,1.88988329673e-05,-0.148652743177,-0.0118880614602,0.0577345033091,-0.0127658682155,0.573912547176,0.81890216676,0.00209197766869,0.0,0.818859581133,-0.573852099628,-0.0119791919918,0.0,-0.00860946625945,0.00858820989629,-0.999926057137,0.0,0.653627737917,0.250556998299,0.303393253999,1.0,-0.01798,-0.0236308571429,0.9
0.459052342196,0.50311211375,-0.1241383527,-1.42604263189,0.0753166167353,1.91994984379,0.149879785236,-0.0124556105393,-0.105360399721,-4.04435208347e-05,-0.147996401375,-0.0115616708585,0.0604016248777,-0.026934399852,0.573894285923,0.818914696689,0.00219431836621,0.0,0.818873511524,-0.573833487616,-0.0119183688211,0.0,-0.00850111769999,0.00863691923734,-0.999926564616,0.0,0.653326551488,0.250175354327,0.303461539918,1.0,-0.01832,-0.0240777142857,0.917
0.458817966316,0.501401309108,-0.124149771056,-1.42857327992,0.0751535472392,1.92086524201,0.149530068021,-0.0111043959392,-0.111230922618,-0.00167987981631,-0.148856855848,-0.0132883059691,0.0537034436271,-0.0237537044245,0.57389316703,0.818915269682,0.00227174377613,0.0,0.818875155522,-0.57383212402,-0.0118709734994,0.0,-0.0084178839787,0.00867311209956,-0.99992695551,0.0,0.653015302288,0.249773740164,0.303530906928,1.0,-0.01866,-0.0245245714286,0.934
0.45858928962,0.499805525608,-0.124145800973,-1.4310012751,0.0750096138967,1.92172603342,0.149182484641,-0.0186427305715,-0.102178589797,0.000212645653751,-0.147796089187,-0.00419144885576,0.0510059369463,-0.0180081456904,0.573877740191,0.818925994541,0.00230253777069,0.0,0.81888612399,-0.57381641547,-0.0118736756841,0.0,-0.00840258947428,0.00869972189633,-0.999926852989,0.0,0.652707839011,0.24939500675,0.303563116813,1.0,-0.01898,-0.0249451428571,0.95
0.458317423731,0.498038702687,-0.124148012072,-1.43379986646,0.0748255339353,1.92277621009,0.148764827664,-0.0139855944023,-0.102154680694,0.000608145547657,-0.159314606738,-0.00726550245104,0.0555417534264,-0.0251372068758,0.573852476313,0.818943677875,0.00230971843363,0.0,0.818903976593,-0.573791205158,-0.0118607294753,0.0,-0.0083881347928,0.00869791405221,-0.999926990078,0.0,0.6523664223,0.248949222714,0.303554309939,1.0,-0.01934,-0.0254182857143,0.968
0.458061057144,0.496349247483,-0.124151152353,-1.43649085438,0.0746633680207,1.92372290382,0.148373859862,-0.0140431655588,-0.103555483072,-0.00129220710097,-0.167738742034,-0.012300267654,0.0564930712091,-0.022274622637,0.573836791392,0.818954791748,0.00226557263757,0.0,0.818914363508,-0.573775539387,-0.0119013672706,0.0,-0.00844691422171,0.00868491959381,-0.999926608213,0.0,0.652022134108,0.24852147854,0.303533192011,1.0,-0.01968,-0.0258651428571,0.985
0.457800439967,0.494778188861,-0.124153733673,-1.43907020683,0.0745019517796,1.92460275912,0.148018738568,-0.0136355827608,-0.102242267641,-0.00175667839772,-0.163909105908,-0.0132987216933,0.0577085755036,-0.016628800194,0.573847401011,0.818947654878,0.00215541738806,0.0,0.818905639127,-0.573786440232,-0.0119758971501,0.0,-0.0085710486351,0.00863758720846,-0.999925961865,0.0,0.651688050061,0.248098768042,0.303476384547,1.0,-0.01998,-0.0262594285714,1.001
0.457506751375,0.492767710295,-0.124204858092,-1.44218678601,0.0743218059567,1.92574268545,0.147575520387,-0.0164158436079,-0.135761255028,-0.00445445698829,-0.213421772234,-0.00873695711364,0.0750489314258,-0.0210176097792,0.573869852541,0.818931857149,0.00218004383646,0.0,0.818890210239,-0.573808835781,-0.0119578616882,0.0,-0.00854190992234,0.00864763937315,-0.999926124325,0.0,0.65130590013,0.247582746347,0.303493029182,1.0,-0.0293154285714,-0.0385288489796,1.018
0.457134182587,0.489844511549,-0.124255366555,-1.44678220982,0.0740662896409,1.92748783112,0.146881185177,-0.0245272258027,-0.173208303581,0.00176443737791,-0.279300381803,-0.00907205020564,0.105077067808,-0.0397262419489,0.57380438619,0.818977556579,0.0022439049718,0.0,0.818936683969,-0.573743058892,-0.011931342105,0.0,-0.00848423984936,0.00868403972439,-0.999926299848,0.0,0.650730057086,0.24688138586,0.303492100162,1.0,-0.0392,-0.05152,1.036
0.456661751217,0.486723406399,-0.124286114833,-1.45175102241,0.0737929470023,1.92933164175,0.146148794658,-0.0368103134366,-0.220054596103,-0.00124176379792,-0.349693791232,-0.0186537831527,0.133020830502,-0.0474451418009,0.573787467358,0.81898939132,0.00225080193434,0.0,0.818948331243,-0.573725830332,-0.0119603204868,0.0,-0.00850419611892,0.00870614010917,-0.999925938144,0.0,0.650105312436,0.246089241919,0.303456989884,1.0,-0.0474371428571,-0.0623459591837,1.051
0.455999529661,0.482408881301,-0.124407576681,-1.45851231565,0.0733800846507,1.93177061873,0.145116738933,-0.0470317997562,-0.268029085976,-0.0164369376209,-0.424358884605,-0.0140447815352,0.148678233712,-0.0658582557836,0.573793701148,0.818985097841,0.00222372165644,0.0,0.818943915343,-0.573732409091,-0.0119470993425,0.0,-0.00850883896233,0.00867644071802,-0.999926156792,0.0,0.649260678503,0.244942590244,0.303448531586,1.0,-0.0567725714286,-0.0746153795918,1.068
0.455148493511,0.47694963985,-0.124547499851,-1.46706814434,0.0728643889026,1.93477108013,0.143845552519,-0.0511705372202,-0.323730770151,-0.00454994820473,-0.497008763105,-0.0263960653848,0.182694232787,-0.074185738425,0.573827926703,0.818961371744,0.00212815122932,0.0,0.818918949166,-0.573767030165,-0.0119956947766,0.0,-0.00860311327524,0.00862641411658,-0.999925782957,0.0,0.648162785887,0.243487988559,0.303423461695,1.0,-0.0666571428571,-0.0876065306122,1.086
0.454313738344,0.471775449049,-0.12463497521,-1.47512416193,0.0723856362001,1.93768499186,0.142669717032,-0.0539310254551,-0.354976274107,-0.0045907199502,-0.551092999887,-0.0273150821232,0.199378982079,-0.0841752445094,0.573870743806,0.818931302414,0.00215365562822,0.0,0.818889085202,-0.573809607593,-0.0119978027963,0.0,-0.00858975335854,0.00864895962126,-0.999925703057,0.0,0.64713381228,0.242131477387,0.303423167371,1.0,-0.0748942857143,-0.0984324897959,1.101
0.453144650262,0.464706718995,-0.124695597101,-1.4857812998,0.0717401683857,1.94165421662,0.140964427456,-0.066224203036,-0.402441378299,-0.00726940961271,-0.620642880876,-0.0452420170111,0.228851930902,-0.0998203503901,0.573807384356,0.818974764142,0.00248359786809,0.0,0.818936762286,-0.573744855435,-0.0118392203571,0.0,-0.00827123044665,0.00882751161981,-0.999926828216,0.0,0.645787932684,0.240338307293,0.303574972151,1.0,-0.0847788571429,-0.111423640816,1.119
0.451873768752,0.457368629343,-0.124766376352,-1.49723403324,0.0709920532193,1.94555957839,0.139235484557,-0.0822316611343,-0.447194165862,-0.00298918534899,-0.693321057018,-0.048567229716,0.233862166689,-0.0968197547477,0.573812774599,0.818971541346,0.00229370292633,0.0,0.818930757297,-0.573750668776,-0.0119721231455,0.0,-0.0084889779968,0.00874830950649,-0.999925699406,0.0,0.644247389073,0.238367006536,0.303517025929,1.0,-0.0941142857143,-0.123693061224,1.136
0.450545013609,0.449657806833,-0.124896184033,-1.50887209534,0.0701853727026,1.94973551958,0.137377202188,-0.0880733839713,-0.505388980749,-0.00938305610506,-0.74808602402,-0.059329461772,0.281044123808,-0.117134575027,0.573785166418,0.818990420573,0.00245371346495,0.0,0.818952420415,-0.573723169514,-0.0118069792917,0.0,-0.00826220974274,0.00878431328417,-0.999927283221,0.0,0.642730196464,0.236318971866,0.303637885206,1.0,-0.102900571429,-0.13524075102,1.152
0.4489927958,0.440905648673,-0.124963391936,-1.52219122726,0.0693414380681,1.95446750657,0.135334010875,-0.0971732330584,-0.529695274589,-0.00172425237521,-0.823235986189,-0.0522971756943,0.286562678236,-0.128873518818,0.57379987306,0.818979668457,0.00259908276902,0.0,0.81894319702,-0.573736943999,-0.0117773531499,0.0,-0.00815437996997,0.00888651598753,-0.999927265315,0.0,0.640938467833,0.234016440292,0.30370317134,1.0,-0.112236,-0.147510171429,1.169
0.447246225819,0.431400224913,-0.125027699959,-1.53646165825,0.0683751965903,1.95949185351,0.132972291311,-0.103242797125,-0.577571308676,-0.00306407368013,-0.848414542812,-0.0534659648935,0.312265193125,-0.149358807874,0.573702373791,0.819047299665,0.00280252028051,0.0,0.819013477853,-0.573638741125,-0.0116732462225,0.0,-0.00795345971988,0.00899244408177,-0.999927936617,0.0,0.63899872783,0.231496419941,0.303835100904,1.0,-0.121571428571,-0.159779591837,1.186
0.445435378281,0.421970391399,-0.125091855553,-1.55081983515,0.067353081715,1.96445268032,0.130601762315,-0.117323820294,-0.602282750708,-0.00275287526331,-0.934239309921,-0.0602452231935,0.312803155056,-0.154835416465,0.573620609877,0.81910460454,0.002790993857,0.0,0.819070763946,-0.573557175187,-0.011661789814,0.0,-0.0079515842739,0.00897563726482,-0.999928102537,0.0,0.637002325549,0.228919499474,0.303847147847,1.0,-0.130357714286,-0.171327281633,1.202
0.443193411891,0.410622155888,-0.125229327427,-1.56783954966,0.0661254467744,1.97041058832,0.12779018681,-0.131487267268,-0.6376248005,-0.00696918534601,-0.982445570862,-0.0647841222664,0.335606553328,-0.161600102153,0.573620693907,0.819103914081,0.00297058252745,0.0,0.819073011423,-0.573557371709,-0.0114930508523,0.0,-0.00771035187912,0.00902594955894,-0.999929538872,0.0,0.634643415726,0.225783241407,0.303956106648,1.0,-0.140242285714,-0.184318432653,1.22
0.440830200971,0.399338487821,-0.125318543461,-1.5849272486,0.0650021434821,1.97613585104,0.124928566552,-0.139782304609,-0.702731172028,-0.00593127660437,-1.01524001442,-0.0628564692519,0.34726843942,-0.168456714745,0.573656194338,0.819079201236,0.00292911274585,0.0,0.819046769247,-0.573591848233,-0.0116416634466,0.0,-0.00785548044564,0.00907756745107,-0.999927942002,0.0,0.632177396714,0.222604552289,0.303936946752,1.0,-0.149577714286,-0.196587853061,1.237
0.438398161915,0.388191766863,-0.125445604597,-1.6017110465,0.0637435470546,1.98186904608,0.122060635817,-0.156009161044,-0.705067312575,-0.00976507226104,-1.06745280922,-0.0800536163942,0.360404409322,-0.193252884892,0.573692540591,0.819053696454,0.00294246450321,0.0,0.819021926313,-0.57362871188,-0.0115729005675,0.0,-0.00779109486848,0.00904940390316,-0.999928701023,0.0,0.629767290839,0.219386868904,0.303940230315,1.0,-0.158364,-0.208135542857,1.253
0.435636475846,0.375698183483,-0.125585764134,-1.62033755075,0.0623470625934,1.98806254408,0.118703995812,-0.167053341073,-0.75598384359,-0.00897866284393,-1.11433699059,-0.0739825567315,0.372636293806,-0.209977262771,0.573613806246,0.819108848152,0.00293990884689,0.0,0.819077209449,-0.57355018712,-0.0115522602994,0.0,-0.0077765230803,0.00903472228182,-0.999928947217,0.0,0.627014530094,0.215785799043,0.303974170579,1.0,-0.167699428571,-0.220404963265,1.27
0.432543529296,0.362686826131,-0.125765715252,-1.63960573805,0.0608898987769,1.99444986363,0.115292585093,-0.190587331252,-0.795230884074,-0.0145896743132,-1.14944477213,-0.0944212506733,0.390075416505,-0.201048205727,0.573768776498,0.819000115797,0.00299137781331,0.0,0.818969407229,-0.573705282342,-0.0114937347222,0.0,-0.00769734901327,0.00904476716331,-0.999929469015,0.0,0.624156143932,0.211911099868,0.304024456972,1.0,-0.177034857143,-0.232674383673,1.287
0.429395312694,0.350045689365,-0.125925858391,-1.65856570278,0.0594480333839,2.00051443135,0.111759426363,-0.20564472475,-0.789713144461,-0.00723690386139,-1.20541621394,-0.0870606808099,0.370112962075,-0.223837014071,0.573817250745,0.818967038652,0.00273847597181,0.0,0.818932686233,-0.573754162745,-0.0116688925559,0.0,-0.00798538013575,0.0089386114254,-0.999928164885,0.0,0.621245638193,0.208049878938,0.303906817179,1.0,-0.185821142857,-0.244222073469,1.303
0.425809057697,0.335924934169,-0.126083574491,-1.67908018877,0.0578685786031,2.00725416704,0.107835900432,-0.213800574057,-0.81291414888,-0.00578236077507,-1.23085670111,-0.102090255708,0.400668872797,-0.237514692051,0.573883336664,0.818919855876,0.00298872076688,0.0,0.818888854275,-0.573819532443,-0.0115297628794,0.0,-0.00772711417329,0.0090643434334,-0.999929062176,0.0,0.618103004799,0.203810212991,0.304035750925,1.0,-0.195156571429,-0.256491493878,1.32
0.421859843836,0.320480756291,-0.126197323003,-1.70154542286,0.0560322389277,2.01443094769,0.103427048715,-0.22302494336,-0.877442239928,-0.00269403787583,-1.26394229642,-0.109158270903,0.397630942667,-0.247951258832,0.573757679967,0.819007678327,0.00304867522337,0.0,0.818977647518,-0.573693934842,-0.0114729635117,0.0,-0.00764758596404,0.00907967260114,-0.999929534504,0.0,0.614526287534,0.199196249892,0.304086095537,1.0,-0.205041142857,-0.269482644898,1.338
0.418294835144,0.30718885946,-0.12628710688,-1.72073323115,0.0544591466162,2.02050471086,0.0995411885779,-0.240692182161,-0.899809686416,-0.0069532085556,-1.29058061581,-0.113746955826,0.419169317269,-0.266995783841,0.573667326174,0.819070578728,0.00315164149533,0.0,0.819041877973,-0.573603280837,-0.0114203870838,0.0,-0.00754645644891,0.00913300512989,-0.999929817143,0.0,0.611424598843,0.195170277139,0.304139286876,1.0,-0.213278285714,-0.280308604082,1.353
0.413937684562,0.291692676676,-0.126422528091,-1.74308867172,0.0525822519943,2.02728603317,0.0949364300429,-0.265778612355,-0.949131187259,-0.0143647702426,-1.31238911583,-0.10361155396,0.415711321633,-0.267623678263,0.573645260606,0.819086296254,0.00308239748521,0.0,0.819056466174,-0.573581146075,-0.0114856862129,0.0,-0.00763991018974,0.00911354251633,-0.999929285057,0.0,0.607496279647,0.190057380278,0.304148633016,1.0,-0.223162857143,-0.293299755102,1.371
0.408988413873,0.274820681877,-0.126589177943,-1.76727909608,0.0505643796371,2.03455089572,0.0897718821676,-0.279921150966,-0.957651966811,-0.0119521032119,-1.33470398667,-0.112781889717,0.396643131342,-0.288355785126,0.573609424861,0.819111840737,0.00296090784122,0.0,0.819079674198,-0.573544807996,-0.0116442019096,0.0,-0.00783984128203,0.00910461868235,-0.999927818799,0.0,0.603618577163,0.185037873626,0.304094971656,1.0,-0.232498285714,-0.30556917551,1.388
0.404186337804,0.259322102896,-0.126800294709,-1.78926886515,0.0486138487483,2.04110211589,0.0849541148988,-0.305476555397,-0.95678534133,-0.0157099079918,-1.39115376976,-0.12341531035,0.393999941922,-0.30605593613,0.573695557304,0.819051619239,0.00293248245571,0.0,0.819019283391,-0.573631255401,-0.0116337080149,0.0,-0.0078465948661,0.00907614102639,-0.999928024716,0.0,0.599865117934,0.18002059929,0.304099405225,1.0,-0.241284571429,-0.317116865306,1.404
0.398740364193,0.242398148929,-0.127005212056,-1.81303806666,0.0464500267907,2.04804532433,0.079594991899,-0.328276583452,-0.990743533155,-0.00826546604737,-1.43592936951,-0.129007183349,0.410458597592,-0.322817362368,0.573785477228,0.818988636737,0.0029301739659,0.0,0.818956471117,-0.573721402931,-0.0116102169014,0.0,-0.00782768290088,0.00906163324086,-0.999928304522,0.0,0.595720426676,0.174503349631,0.304124138637,1.0,-0.25062,-0.329386285714,1.421
0.392757288546,0.224000286258,-0.127151934971,-1.83852335853,0.0441786392687,2.05540466552,0.0735411709516,-0.334718505802,-1.03089914539,-0.00770382059533,-1.43832771935,-0.141993582449,0.408928472251,-0.341449935214,0.573651429642,0.819081781125,0.00313368785071,0.0,0.81905173237,-0.573586098139,-0.0115756047295,0.0,-0.0076840750946,0.00920719193183,-0.999928088718,0.0,0.591152470677,0.168621980819,0.304209022263,1.0,-0.260504571429,-0.342377436735,1.439
0.387410789443,0.208314408356,-0.127303948598,-1.86002243626,0.0421343099694,2.06137966394,0.0682801974171,-0.365610357177,-1.05288720024,-0.0123417945169,-1.43511575731,-0.135651550271,0.390991937235,-0.35247288538,0.573583163632,0.819129304541,0.00320682712008,0.0,0.81910023649,-0.573517651006,-0.0115348804769,0.0,-0.00760953317299,0.00924310404688,-0.999928327448,0.0,0.587215296599,0.16350079805,0.304288103612,1.0,-0.268741714286,-0.353203395918,1.454
0.380911788717,0.190190400839,-0.127514038729,-1.88484692446,0.0397447374722,2.06810618937,0.0619766972461,-0.391886083908,-1.06427488013,-0.0183384005842,-1.4664613555,-0.139942323431,0.386988000491,-0.37838558476,0.573552101606,0.819151217691,0.0031648380082,0.0,0.819121314255,-0.573486373424,-0.0115930553201,0.0,-0.00768162180542,0.00924178544455,-0.999927788437,0.0,0.582300287043,0.157068430528,0.304287623623,1.0,-0.278626285714,-0.366194546939,1.472
0.373862740488,0.17159105973,-0.127846471768,-1.9099192305,0.0373162904117,2.07477767938,0.0553646650775,-0.414830886879,-1.1053212663,-0.0168069808213,-1.47869740296,-0.147306469278,0.372169690344,-0.386686567607,0.573737919021,0.819020589245,0.00328961570135,0.0,0.818992099533,-0.573671524113,-0.011561584037,0.0,-0.00758216249757,0.00932766802238,-0.999927750101,0.0,0.577842358441,0.151052123486,0.304356044287,1.0,-0.287412571429,-0.377742236735,1.488
0.366513063921,0.152678890976,-0.128063214245,-1.93527447707,0.0346792163201,2.08129902603,0.0483762383363,-0.436436025035,-1.12377751685,-0.016112889458,-1.49420818016,-0.162916522855,0.381184721532,-0.418650015865,0.573635591372,0.819092384988,0.00325884464138,0.0,0.81906369954,-0.57356955504,-0.0115485292482,0.0,-0.0075902844306,0.00929402769179,-0.999928001724,0.0,0.572897122964,0.144597173406,0.304365105485,1.0,-0.296748,-0.390011657143,1.505
0.358681090919,0.133353805917,-0.128330285022,-1.96086079004,0.0320046780782,2.08767001402,0.0410695483919,-0.467721422431,-1.15370218386,-0.0147837955376,-1.5192058424,-0.154599116402,0.372093607195,-0.440034957041,0.573633937619,0.819093443123,0.0032838919311,0.0,0.819064971328,-0.57356768772,-0.0115510712899,0.0,-0.00757801835327,0.00931598671972,-0.999927890415,0.0,0.567800033237,0.137916380501,0.304391743951,1.0,-0.306083428571,-0.402281077551,1.522
0.350281496926,0.113644569014,-0.128700620593,-1.98663680857,0.0291962062776,2.09390758709,0.0333653611266,-0.508857442084,-1.17296104801,-0.0239383858349,-1.52182729616,-0.166294243768,0.374512399139,-0.45753571979,0.573738917607,0.819019737053,0.00332740774599,0.0,0.818992208848,-0.573672990965,-0.0114807745236,0.0,-0.00749428126582,0.00931226745809,-0.999928556159,0.0,0.56257869538,0.13093650203,0.304431772768,1.0,-0.315418857143,-0.414550497959,1.539
0.341938467745,0.0947850727501,-0.129011674859,-2.01101469404,0.0264719592615,2.09956620809,0.0256862499949,-0.523573816401,-1.21103438959,-0.0150956804373,-1.54871726764,-0.176879774597,0.366427203208,-0.487465425346,0.573721940731,0.819031490688,0.00336138165002,0.0,0.819004606009,-0.573656170694,-0.0114367854514,0.0,-0.00743895333429,0.0093147011357,-0.999928946634,0.0,0.557510712546,0.124232987967,0.304467452068,1.0,-0.324205142857,-0.426098187755,1.555
0.332598112444,0.0744235313593,-0.129337736412,-2.03709268516,0.0236100085386,2.1053121284,0.0170876885113,-0.561186606137,-1.22286701861,-0.0210239351576,-1.54684038736,-0.193309789111,0.360777776471,-0.517091980908,0.573679502448,0.819061111647,0.0033868509517,0.0,0.819033616055,-0.57361248501,-0.0115498794079,0.0,-0.00751746181092,0.00940005483427,-0.999927560745,0.0,0.55193328091,0.116965344538,0.304466666644,1.0,-0.32998,-0.433688,1.572
0.322121916173,0.0529376462019,-0.129758605513,-2.06432943306,0.0203777452753,2.11104283567,0.00774496516206,-0.591206648297,-1.20644986504,-0.0266895947285,-1.50585963981,-0.186737607188,0.313774461668,-0.523220595692,0.573817926019,0.818964567407,0.00328207438027,0.0,0.818935729203,-0.573751236001,-0.0115990311533,0.0,-0.00761624793486,0.00934371987169,-0.999927341194,0.0,0.545991590306,0.109052522086,0.304431209144,1.0,-0.32998,-0.433688,1.59
0.313104800452,0.0352123010088,-0.12997729215,-2.08651196468,0.0178228406823,2.1153982442,-0.000202107141268,-0.606818762533,-1.21124138287,-0.0169862349132,-1.45595488619,-0.16702919333,0.29835339279,-0.530506829226,0.573925051511,0.818889695154,0.00323254082211,0.0,0.818858886181,-0.573856896449,-0.0117955000588,0.0,-0.00780434786138,0.00941690906063,-0.999925204192,0.0,0.541002938125,0.102542442789,0.304395833477,1.0,-0.32998,-0.433688,1.605
0.301962452602,0.0140051734539,-0.13023854894,-2.11241531436,0.0145715409396,2.12035921819,-0.0100762386192,-0.625154905102,-1.20081974942,-0.0175468760152,-1.4291978464,-0.177288248556,0.280415332346,-0.556585986982,0.573889598237,0.81891402836,0.00336007309604,0.0,0.818885462183,-0.573821736197,-0.011660265613,0.0,-0.00762081883153,0.00944340197294,-0.999926369929,0.0,0.535086145145,0.094729051981,0.304496838072,1.0,-0.32998,-0.433688,1.623
0.291709369489,-0.00453352726049,-0.130523091991,-2.13487705374,0.0118210354052,2.12428870553,-0.0190892043242,-0.643820644751,-1.1822016772,-0.00981356115696,-1.37068121509,-0.170854652628,0.246612626119,-0.567945165309,0.57397675381,0.81885246465,0.00347478386116,0.0,0.818824698212,-0.573907644707,-0.0116993951327,0.0,-0.00758601957211,0.00956060375754,-0.999925520808,0.0,0.529492474788,0.0873223796312,0.304564423603,1.0,-0.32998,-0.433688,1.64
0.281293999431,-0.0229593631258,-0.13070245667,-2.15697478112,0.00893373829099,2.12801471464,-0.0283441959999,-0.664389189238,-1.13092517535,-0.0141398111363,-1.36147678675,-0.179439126239,0.210346148128,-0.582163256338,0.573831144123,0.818954878713,0.00338697022723,0.0,0.818925730198,-0.573762046903,-0.0117689785026,0.0,-0.00769509554627,0.00952726689523,-0.999925005533,0.0,0.524493562349,0.0808843419258,0.304526004999,1.0,-0.32998,-0.433688,1.655
0.26835126269,-0.0445818763709,-0.131075693409,-2.18244707086,0.00558992647976,2.13200819113,-0.0396276630685,-0.694296428171,-1.11915828022,-0.0137095979195,-1.33467989096,-0.164824820168,0.192099217559,-0.601455161771,0.573989952296,0.818843072706,0.00350768372848,0.0,0.81881510136,-0.573919934418,-0.0117679889332,0.0,-0.00762315337155,0.00962703716436,-0.999924601002,0.0,0.517915987673,0.0721390740249,0.304583760485,1.0,-0.32998,-0.433688,1.675
0.257275929793,-0.0626944812813,-0.131263385361,-2.20330826751,0.00279611238005,2.1350952215,-0.0493980894724,-0.695902830399,-1.11666131632,-0.0144673071626,-1.31513076588,-0.180460384709,0.196450432628,-0.612263605113,0.573867315233,0.818927965043,0.00374692933658,0.0,0.818903672835,-0.573797290461,-0.0115840829534,0.0,-0.00733669283313,0.00971628784815,-0.999925880598,0.0,0.513004135439,0.0657246136981,0.304697066389,1.0,-0.32998,-0.433688,1.69
0.245778271114,-0.080487009138,-0.131582434435,-2.22369776719,-2.91883839812e-05,2.13775071384,-0.059457270719,-0.724982501319,-1.10544279853,-0.0271802059103,-1.27659776423,-0.175645552847,0.160312050142,-0.639503762963,0.573920987853,0.818890168507,0.00378662466181,0.0,0.818866242718,-0.573850638022,-0.011587436339,0.0,-0.00731602157417,0.00975119976057,-0.999925692205,0.0,0.507745459512,0.0587487845159,0.304730555057,1.0,-0.32998,-0.433688,1.706
0.233316138179,-0.0991521941981,-0.131804891215,-2.24491046342,-0.00301013617964,2.14029069528,-0.070468292811,-0.731230537776,-1.10489170419,-0.012737116049,-1.23248017794,-0.176274384653,0.152453118436,-0.65642395278,0.573782420436,0.818987269285,0.00378598042041,0.0,0.818962993417,-0.573711637733,-0.0116326714268,0.0,-0.0073550903872,0.00977538843205,-0.999925169413,0.0,0.502131238519,0.0514497419324,0.304717883506,1.0,-0.32998,-0.433688,1.723
0.220442181042,-0.117588711486,-0.132113057215,-2.26566838348,-0.00605360484529,2.14240514638,-0.0816828545485,-0.766721534758,-1.08974705746,-0.0216450218583,-1.19662143877,-0.175986740246,0.125361718693,-0.673994789001,0.573830785612,0.81895405305,0.00363804573797,0.0,0.818927294561,-0.573759738482,-0.0117726641829,0.0,-0.00755405231552,0.00973499951943,-0.999924080157,0.0,0.496155662641,0.0436317395935,0.304657653577,1.0,-0.32998,-0.433688,1.741
0.207190864587,-0.135830545101,-0.13240561261,-2.28599428857,-0.00898311324222,2.14421600963,-0.0933333928165,-0.778449878992,-1.05271505278,-0.0138465081409,-1.19568490842,-0.170928307172,0.0955017219965,-0.694177454494,0.573785219073,0.818986661211,0.00348109648962,0.0,0.818956271182,-0.573712731935,-0.0120446672399,0.0,-0.00786742390329,0.00976210578244,-0.999921399377,0.0,0.490798406482,0.0367158758956,0.304550199981,1.0,-0.32998,-0.433688,1.757
0.193553542972,-0.153990035107,-0.132803726782,-2.30562508687,-0.0119415760388,2.14585822145,-0.105346916592,-0.814239539631,-1.05129813658,-0.0322537885804,-1.15626978271,-0.18134759226,0.0947109202018,-0.717456670794,0.573814532831,0.818965484063,0.0036283228437,0.0,0.818937269916,-0.573741817945,-0.0119507817555,0.0,-0.00770570557961,0.00982909029444,-0.999922002501,0.0,0.485217226356,0.0293076282533,0.304603035384,1.0,-0.32998,-0.433688,1.774
0.179566537312,-0.171931044861,-0.133118411138,-2.32472933954,-0.0148036366614,2.14702946756,-0.117638313247,-0.8297873946,-1.04324768599,-0.0206586371341,-1.12315389812,-0.161327210463,0.0646054681301,-0.737157993234,0.573841872476,0.818945924988,0.00371809634951,0.0,0.818918172303,-0.573767915875,-0.0120063602185,0.0,-0.00769938361836,0.00993476017129,-0.999921006896,0.0,0.479600180821,0.0219653417211,0.304644743393,1.0,-0.32998,-0.433688,1.791
0.165979633313,-0.188522388149,-0.133520960949,-2.34226836253,-0.0175817929734,2.14786266832,-0.129577682356,-0.863292073786,-1.02850554735,-0.0324733680344,-1.06670882855,-0.17766024658,0.0456414813402,-0.753128648562,0.573927223392,0.818886325,0.00367095061493,0.0,0.818857389496,-0.57385270331,-0.0120994823346,0.0,-0.00780166589552,0.00995039891428,-0.99992005859,0.0,0.474304695723,0.0149615790901,0.30462631027,1.0,-0.32998,-0.433688,1.807
0.151280919374,-0.205999999291,-0.133833458013,-2.36036614613,-0.0204067720465,2.14860913866,-0.142650113951,-0.875390540709,-1.02723085097,-0.0188217485397,-1.06629723396,-0.158334289277,0.0382983412974,-0.773869308278,0.573852441057,0.818937973995,0.0038363448692,0.0,0.818911166737,-0.573777267592,-0.012037237565,0.0,-0.00765669088243,0.0100494172955,-0.999920188963,0.0,0.468718884141,0.00764683959341,0.30467230254,1.0,-0.32998,-0.433688,1.824
0.136099557207,-0.223267509616,-0.134248930994,-2.37786974976,-0.0233216685062,2.14901182739,-0.156007967749,-0.900741638791,-1.00597741458,-0.022332542617,-1.03438777017,-0.182395582504,0.0160733298872,-0.79435261228,0.573954942324,0.818865524378,0.0039653585505,0.0,0.818841144523,-0.573880281345,-0.0118890546451,0.0,-0.00746003951458,0.0100709743045,-0.999921458559,0.0,0.463149826426,0.000231247065656,0.304760983378,1.0,-0.32998,-0.433688,1.841
0.121625663229,-0.239159933592,-0.134508403982,-2.39400279724,-0.025991073472,2.14910458027,-0.168989868167,-0.915520298676,-0.988227831898,-0.0202216860716,-0.993105439278,-0.164112180018,0.00715724098726,-0.812454677215,0.573770640767,0.818994780011,0.00394322329172,0.0,0.818969628905,-0.573695436902,-0.0119599126325,0.0,-0.00753304184062,0.0100918211494,-0.999920701069,0.0,0.457534161852,-0.00702976236233,0.304738146932,1.0,-0.32998,-0.433688,1.858
0.104737370316,-0.256783031204,-0.134950831658,-2.41152248085,-0.0288620669485,2.14908863023,-0.184089153175,-0.934848743982,-0.966844060647,-0.0188881432612,-0.980769088083,-0.162465887026,-0.00617104792598,-0.848020016927,0.573815497724,0.818962624986,0.00409149712199,0.0,0.818939128887,-0.57373938145,-0.0119403623568,0.0,-0.00743140054849,0.0102024484864,-0.999920338992,0.0,0.451949214333,-0.0144142295194,0.304745003154,1.0,-0.32998,-0.433688,1.875
0.088410665042,-0.273288381944,-0.135383960002,-2.42753981421,-0.0316584843104,2.14889539259,-0.198707988874,-0.979520892857,-0.978172449789,-0.039972840775,-0.937950758243,-0.164277465001,-0.0120831959309,-0.872431673776,0.573825581985,0.818954414308,0.00431458534875,0.0,0.818935174218,-0.573750628814,-0.011668044638,0.0,-0.00708023692225,0.010228985149,-0.99992261606,0.0,0.446393122517,-0.0217967975698,0.304833877759,1.0,-0.32998,-0.433688,1.892
0.0727542595112,-0.288420620529,-0.135732743643,-2.44227218251,-0.0341386202244,2.1482592505,-0.212880224595,-0.991366337072,-0.942734007883,-0.0293470407939,-0.917048724943,-0.155072569543,-0.0421506255021,-0.897351802034,0.573737974987,0.819015869782,0.00429976794515,0.0,0.818995055955,-0.5736611028,-0.011865258366,0.0,-0.00725136489084,0.0103292368662,-0.999920359115,0.0,0.441065723685,-0.0286600169262,0.304778165916,1.0,-0.32998,-0.433688,1.908
0.0555367850341,-0.304237558115,-0.136221705886,-2.45714462649,-0.0368618622845,2.14754641052,-0.228364549806,-1.01740871106,-0.9116193452,-0.0229618405431,-0.874315439571,-0.160105250833,-0.0485052631898,-0.922320902533,0.573821157575,0.818956612019,0.00448259409334,0.0,0.818939425808,-0.573745504833,-0.0116215077594,0.0,-0.00694577613787,0.0103398391421,-0.999922418951,0.0,0.435529547209,-0.0361074550692,0.304872658646,1.0,-0.32998,-0.433688,1.925
0.0380445393868,-0.319674066893,-0.136656598061,-2.47170863176,-0.0394324195159,2.14649347104,-0.244171963681,-1.04739170749,-0.879039992019,-0.0346024043835,-0.849523317604,-0.14707572808,-0.0607816167816,-0.940466403051,0.573874477448,0.818919102648,0.00450936279216,0.0,0.818901271321,-0.573797257236,-0.0117542468242,0.0,-0.00703845277158,0.0104383861487,-0.999920746998,0.0,0.429892471084,-0.0434445157204,0.304835215002,1.0,-0.32998,-0.433688,1.942
0.0212161367252,-0.33391357685,-0.137055330122,-2.48474731253,-0.0418141300101,2.14546724152,-0.259573055214,-1.0572150653,-0.887562993425,-0.0258226457538,-0.834602914429,-0.146047531759,-0.062722892769,-0.965166873951,0.573802872022,0.818968173778,0.00470545415304,0.0,0.818953675128,-0.573726249459,-0.0115678683158,0.0,-0.0067742038503,0.010491427027,-0.99992201702,0.0,0.424682401714,-0.0503512720698,0.304907210853,1.0,-0.32998,-0.433688,1.958
0.00177054524556,-0.349491253162,-0.137552833227,-2.49900027734,-0.0445749059115,2.14395281582,-0.277299438028,-1.08750469977,-0.858679570151,-0.024054121545,-0.762533310032,-0.153470466391,-0.083983078993,-0.998179167924,0.573806548708,0.818965948551,0.00464399340111,0.0,0.818950364539,-0.573729666568,-0.0116325845146,0.0,-0.00686242594852,0.0104782550005,-0.999921553564,0.0,0.4187213618,-0.0581763325854,0.304881531551,1.0,-0.32998,-0.433688,1.976
-0.0169725922241,-0.36385955573,-0.138045191436,-2.51174524621,-0.0469317350183,2.14248310127,-0.294538952301,-1.12070273103,-0.814426084862,-0.0350832199299,-0.764771721417,-0.136807332941,-0.088559243971,-1.02218202216,0.573845118265,0.818937448438,0.00489721244371,0.0,0.818925575493,-0.573768159955,-0.0114781238221,0.0,-0.00659012774337,0.0105973218722,-0.999922130461,0.0,0.413177280937,-0.0655422427933,0.304963959254,1.0,-0.32998,-0.433688,1.993
-0.0349197114601,-0.376901869455,-0.13839457938,-2.52349226118,-0.049254024347,2.1407814367,-0.311150263363,-1.12358976811,-0.800171941332,-0.0200693205302,-0.721227482583,-0.135167574266,-0.117400735641,-1.03111576381,0.573674664353,0.819057876777,0.00472449677032,0.0,0.81904250941,-0.573596282521,-0.0117226003007,0.0,-0.00689166701431,0.0105947264646,-0.999920125158,0.0,0.407839695952,-0.0723996682044,0.304871480467,1.0,-0.32998,-0.433688,2.009
-0.0545462300465,-0.390452165435,-0.13890286516,-2.53516303578,-0.0516415777982,2.13908541439,-0.329212365074,-1.15235260105,-0.794751219925,-0.0259048028526,-0.679287475026,-0.134264881452,-0.105089463586,-1.07339119316,0.573766762218,0.818992439554,0.00488194917903,0.0,0.818980470927,-0.573690023361,-0.0114670064481,0.0,-0.00659079293994,0.0105778118554,-0.999922332656,0.0,0.402293708746,-0.0798279592234,0.304962797151,1.0,-0.32998,-0.433688,2.026
-0.0756819417061,-0.404225577408,-0.139406729464,-2.54717475173,-0.0539398519522,2.13693531314,-0.348852554612,-1.17658618272,-0.765630696869,-0.0146232196694,-0.663920580762,-0.14243506666,-0.132189567188,-1.09180497525,0.573805357168,0.818965276032,0.00490261570536,0.0,0.818951555836,-0.573725334785,-0.0117616461987,0.0,-0.00681975629024,0.0107641075999,-0.99991880916,0.0,0.3962911841,-0.0875936476674,0.304892513323,1.0,-0.32998,-0.433688,2.044
-0.0948185885977,-0.416091708083,-0.139875480156,-2.55704138954,-0.055978005451,2.13516727613,-0.3667934008,-1.22401943989,-0.75387153393,-0.0485844175001,-0.603556925914,-0.12573526221,-0.113180637502,-1.13592882601,0.573768047635,0.818990039194,0.00512738875165,0.0,0.818980640851,-0.57368962347,-0.0114748741225,0.0,-0.00645640219074,0.0107833558608,-0.999921013934,0.0,0.391098111989,-0.0945369888535,0.305008439577,1.0,-0.32998,-0.433688,2.06
-0.116759669958,-0.428747499896,-0.140282836146,-2.56782151034,-0.0582594497512,2.13288124803,-0.387416034831,-1.22258275004,-0.697658352412,-0.0244737607758,-0.587698270106,-0.117065982108,-0.134302351237,-1.15153020182,0.573620937612,0.819093814374,0.00500900081765,0.0,0.819081588732,-0.573540779224,-0.011707795236,0.0,-0.00671704574959,0.0108188251242,-0.999918913872,0.0,0.385118208161,-0.102277701194,0.304934629888,1.0,-0.32998,-0.433688,2.078
-0.137823583456,-0.440208241476,-0.140749242393,-2.57737278862,-0.0602394524777,2.13074670187,-0.407251876954,-1.23862935833,-0.670735752862,-0.029191950835,-0.545576675897,-0.0975644867043,-0.122733918392,-1.18678473838,0.573622693373,0.819092177561,0.00507515589311,0.0,0.819079877731,-0.57354080795,-0.0118254984568,0.0,-0.00677549471957,0.010940542983,-0.999917195167,0.0,0.379501259538,-0.109592039319,0.304912330191,1.0,-0.32998,-0.433688,2.095
-0.156825310589,-0.44989530343,-0.141133455594,-2.58509798906,-0.0620272830985,2.12900363886,-0.425179497686,-1.26094103223,-0.632486676836,-0.0165312919245,-0.520952376676,-0.134090245977,-0.120988366337,-1.1676676911,0.573608107071,0.81910157967,0.00520466965016,0.0,0.819092888144,-0.57352899538,-0.0114925606963,0.0,-0.00642866943683,0.0108555428848,-0.999920411532,0.0,0.37496883382,-0.11569797443,0.305030223172,1.0,-0.32998,-0.433688,2.109
-0.178676756385,-0.460278878926,-0.141623569239,-2.59359956016,-0.0639153904855,2.12673054746,-0.445934904366,-1.28687938582,-0.604058668834,-0.0239478376968,-0.477476684695,-0.121445187129,-0.133371107421,-1.24290369435,0.573586132327,0.819117207446,0.00516683351534,0.0,0.819106441679,-0.57350450146,-0.0117461017557,0.0,-0.00665835998323,0.0109697988941,-0.999917661487,0.0,0.368967490696,-0.123485779517,0.304975632604,1.0,-0.32998,-0.433688,2.127
-0.20077028904,-0.469937240173,-0.142046426281,-2.60145052225,-0.0655451012402,2.12473523747,-0.466966597263,-1.3140592675,-0.553466228798,-0.03167019384,-0.433246757143,-0.0888473865703,-0.113615961842,-1.21472530467,0.573630724939,0.819085005019,0.0053191032675,0.0,0.819075344504,-0.573547111442,-0.0118337603544,0.0,-0.00664222722821,0.0111451694512,-0.999915829465,0.0,0.363392445809,-0.130785281934,0.304937104919,1.0,-0.322309714286,-0.423607053061,2.144
-0.221601691842,-0.478285819617,-0.142238474334,-2.60789792723,-0.0669828918218,2.12293445196,-0.486651838245,-1.30080508067,-0.503559027477,-0.014919980417,-0.394563934134,-0.0891845330809,-0.108528995734,-1.2023278214,0.573726972164,0.819016791964,0.00544084501855,0.0,0.819009972607,-0.573645087352,-0.0116071283544,0.0,-0.00638544195238,0.0111156429465,-0.999917830931,0.0,0.35833836069,-0.137559364873,0.305032146066,1.0,-0.313523428571,-0.412059363265,2.16
-0.243463932305,-0.486333229691,-0.142374477757,-2.61427887113,-0.0683106510767,2.12101693338,-0.507436683474,-1.27647759032,-0.45697747213,-0.00398097060432,-0.365090875239,-0.0675875015651,-0.116025691958,-1.19304744431,0.573774165558,0.818983301344,0.00550508488436,0.0,0.81897649779,-0.573690636736,-0.0117173499942,0.0,-0.00643822228442,0.0112318641023,-0.99991619375,0.0,0.353017482798,-0.144512525651,0.305013940541,1.0,-0.304188,-0.399789942857,2.177
-0.266394784525,-0.493893480249,-0.142389418552,-2.62028798959,-0.0695167463498,2.11916120807,-0.529181297256,-1.26425118706,-0.403573347739,-0.00859241125749,-0.312896702923,-0.0537791441053,-0.0962260918511,-1.22149548294,0.57389289401,0.818899730831,0.00556093076196,0.0,0.818892606819,-0.573807322576,-0.0118660000131,0.0,-0.00652628707645,0.0113638369649,-0.999914131707,0.0,0.347542183704,-0.151680097649,0.304970605023,1.0,-0.294303428572,-0.386798791837,2.195
-0.28636661877,-0.499888418008,-0.14224780845,-2.62494782642,-0.0704744884947,2.11770422148,-0.54817513406,-1.23025444431,-0.358315331487,0.0212545681353,-0.28276222648,-0.0678804522484,-0.0908852134987,-1.18423028817,0.573909936329,0.818887640205,0.0055825266741,0.0,0.818880972714,-0.573824589796,-0.0118338317208,0.0,-0.00648731235453,0.0113631972593,-0.999914392599,0.0,0.34287554735,-0.157828141965,0.304976900294,1.0,-0.285517142857,-0.375251102041,2.211
-0.307118142758,-0.505463496908,-0.142132214671,-2.62923019784,-0.0712091964887,2.11630387165,-0.567994213234,-1.21902062043,-0.310369511129,-0.00182680614561,-0.238139735955,-0.0457465681218,-0.0766392698772,-1.1700193667,0.57402472448,0.818805947976,0.00576039460952,0.0,0.81880142135,-0.573938403033,-0.0118190025331,0.0,-0.00637148056095,0.011501240401,-0.999913559116,0.0,0.338097422128,-0.164161267616,0.304992109535,1.0,-0.276181714286,-0.362981681633,2.228
-0.327425720944,-0.510411281487,-0.141820719568,-2.63295980733,-0.0718731718577,2.11506253449,-0.587463643073,-1.19405078769,-0.278824915882,0.0168935053268,-0.210598304327,-0.0395021808094,-0.0727346565572,-1.13792384202,0.573983668228,0.818834149801,0.00584214241503,0.0,0.818831373675,-0.573898320562,-0.011689569866,0.0,-0.00621914302007,0.0114935729775,-0.999914606374,0.0,0.333491541197,-0.170260791203,0.30503562759,1.0,-0.266846285714,-0.350712261225,2.245
-0.34604646064,-0.514403929883,-0.141527487181,-2.6361022107,-0.072368124614,2.11387863351,-0.60540710586,-1.14280114262,-0.23572513165,0.0197748921709,-0.180859919577,-0.0224097814962,-0.0729678938489,-1.10971377631,0.573931889516,0.818870091413,0.00589122112372,0.0,0.818866660684,-0.573843993414,-0.0118831874619,0.0,-0.00635026720982,0.0116444889949,-0.999912036122,0.0,0.329239609924,-0.175776187825,0.304990623726,1.0,-0.25806,-0.339164571429,2.261
-0.366480935589,-0.518237457723,-0.141135714145,-2.63918467308,-0.0729000272862,2.1127947826,-0.625047449135,-1.12006462667,-0.202440107395,0.0289991854065,-0.15848079336,-0.0271221442825,-0.0480211970646,-1.07919413846,0.573894105214,0.818896706811,0.00587251865087,0.0,0.818892001208,-0.573804415332,-0.0120469997844,0.0,-0.00649569638171,0.0117228864138,-0.999910185898,0.0,0.324614584526,-0.181779783735,0.304920668102,1.0,-0.248175428572,-0.326173420408,2.279
-0.380855657369,-0.520592018616,-0.140873040938,-2.64101749131,-0.0731530266713,2.11213932997,-0.638823901037,-1.11287154074,-0.170883262829,0.0137664033537,-0.134004313108,-0.0179405498316,-0.0440141905909,-1.05606350083,0.573980625244,0.818835552867,0.00594357690747,0.0,0.818831500444,-0.573890125694,-0.0120766060483,0.0,-0.00647791901179,0.0117987530501,-0.999909408892,0.0,0.321408943297,-0.185995301757,0.30490453378,1.0,-0.241036571429,-0.316790922449,2.292
-0.401171015669,-0.523494704892,-0.140363561517,-2.64321409871,-0.0734514118514,2.11126640631,-0.658498573425,-1.05005142171,-0.141086246399,0.0361227035081,-0.105832946557,-0.0193094672539,-0.0540179460371,-1.02104309343,0.57388573805,0.818901776301,0.00598225165862,0.0,0.818898142738,-0.573794938304,-0.0120808732543,0.0,-0.0064605872322,0.0118321234415,-0.999909126705,0.0,0.316922259584,-0.191896555145,0.304910322903,1.0,-0.230602857143,-0.303078040816,2.311
-0.419875188489,-0.525703341412,-0.139939561857,-2.64484751512,-0.0736574395499,2.11060825482,-0.676488653488,-1.021679366,-0.107302801168,0.0350940583512,-0.0843782293243,-0.00491072029995,-0.0264698718234,-0.984884370684,0.573984836773,0.818831815227,0.00605082047693,0.0,0.818829379688,-0.573894288709,-0.0120224476947,0.0,-0.00637195403547,0.0118555205109,-0.999909418315,0.0,0.31281652924,-0.197330221249,0.304931816165,1.0,-0.220718285714,-0.290086889796,2.329
-0.436859333392,-0.527338129713,-0.13953528097,-2.646059996,-0.0737661634396,2.11010058598,-0.692884508409,-0.989656797706,-0.092136535493,0.0210224680409,-0.0671791854228,-0.00816183964446,-0.0226091511288,-0.957773507062,0.57406197266,0.818777170614,0.00612726112645,0.0,0.818775915775,-0.573971436161,-0.0119806977434,0.0,-0.00629277008716,0.0118947458311,-0.999909453934,0.0,0.309097883652,-0.202237536639,0.304945900548,1.0,-0.211382857143,-0.277817469388,2.346
-0.452137994132,-0.52848718579,-0.139023783853,-2.6469592036,-0.0738156674455,2.1097254319,-0.707685877337,-0.940315942868,-0.0684576045629,0.0306118054852,-0.0515295768669,-0.00300304999893,-0.0208287206138,-0.907446200747,0.574017200403,0.818808569641,0.00612591428539,0.0,0.818807297079,-0.573926678586,-0.0119801818719,0.0,-0.00629377111805,0.0118930027537,-0.999909468367,0.0,0.305774462012,-0.20659610771,0.304938418281,1.0,-0.202596571429,-0.266269779592,2.362
-0.467930741615,-0.529372752069,-0.138545125447,-2.64763260701,-0.0738282817939,2.10938390211,-0.722878322041,-0.907552392205,-0.0415165247205,0.0381245581025,-0.0313174801002,-0.00126838065708,-0.0161278182682,-0.883682474281,0.574125602583,0.818732406313,0.00614704908,0.0,0.818731358234,-0.574034873652,-0.0119863996192,0.0,-0.00628515427002,0.0119147101417,-0.999909264143,0.0,0.30233791574,-0.21110938639,0.304939044377,1.0,-0.193261142857,-0.254000359184,2.379
-0.482858475971,-0.529910029906,-0.13795340211,-2.64806417632,-0.073824216974,2.10915283642,-0.737439124934,-0.867976100206,-0.0285760462654,0.0363730319737,-0.0222356683311,-0.000166006683392,-0.00372786890737,-0.83498843106,0.573985090797,0.818831407326,0.00608184345883,0.0,0.81882957178,-0.573894779308,-0.0119858901569,0.0,-0.0063242068562,0.0118599438657,-0.99990966899,0.0,0.299117597018,-0.215338960734,0.304934711587,1.0,-0.183925714286,-0.241730938776,2.396
-0.497177672392,-0.530157119705,-0.137409450574,-2.64825909355,-0.0737979702509,2.10897125011,-0.75132800618,-0.830053301647,-0.00517676649365,0.0444847707531,-0.00513215729735,0.00555037203778,-0.00604526779356,-0.809632075558,0.573953654342,0.818853901268,0.00601979624843,0.0,0.818851236949,-0.573863567635,-0.0120001828644,0.0,-0.00637197748321,0.0118170939277,-0.999909873036,0.0,0.296027953871,-0.219403432312,0.304934978713,1.0,-0.174590285714,-0.229461518367,2.413
-0.510805739579,-0.530229906707,-0.136835551543,-2.64833401398,-0.0737365751408,2.10889790162,-0.764552077755,-0.799470543319,0.00176155889543,0.0269916698406,-0.00175858816473,0.00256249161434,-0.000563962433335,-0.762469445233,0.57390175506,0.818890796089,0.00594865708428,0.0,0.818887497953,-0.573812509746,-0.0119672994613,0.0,-0.00638662049401,0.011739561103,-0.999910692904,0.0,0.29309132911,-0.223247657619,0.304936217585,1.0,-0.165254857143,-0.217192097959,2.43
-0.52305515216,-0.530127958048,-0.136267231444,-2.64828926772,-0.0736106174503,2.10886086306,-0.776413919317,-0.739692488928,0.00992649389882,0.0398854447971,0.00698294467764,0.0111716891384,0.00110753963772,-0.725617391386,0.573874899515,0.818909963899,0.00590064690446,0.0,0.818906109362,-0.573785978431,-0.0119658642691,0.0,-0.00641338049662,0.0116992102003,-0.999910994555,0.0,0.290454088691,-0.226675951475,0.304931066435,1.0,-0.156468571429,-0.205644408163,2.446
-0.535299453163,-0.529875233121,-0.135652471517,-2.64814939129,-0.0734092230272,2.10885985468,-0.788294568211,-0.716316990651,0.0173605861083,0.0372013812393,0.00637404968157,0.0170017700846,-0.00179118873002,-0.684474995937,0.573833412133,0.818939189942,0.00587921742918,0.0,0.818934957293,-0.573744405263,-0.011984992828,0.0,-0.00644193623792,0.0116923111164,-0.999910891689,0.0,0.287819347929,-0.230076647444,0.304918418781,1.0,-0.147133142857,-0.193374987755,2.463
-0.546945765073,-0.52947764137,-0.13507106179,-2.64790540226,-0.0731451797652,2.1088787131,-0.799511485034,-0.66107356117,0.0306186373481,0.0411417619489,0.019525592241,0.0169932824077,0.000558831730586,-0.653919477129,0.573901878931,0.818891014138,0.00590654079215,0.0,0.818886807059,-0.573812146881,-0.0120318002878,0.0,-0.00646361273156,0.0117420871937,-0.999910168515,0.0,0.285308874169,-0.233301885299,0.304901015024,1.0,-0.137797714286,-0.181105567347,2.48
-0.557715050824,-0.528945638712,-0.134395167237,-2.64757084059,-0.0728019715636,2.10895432658,-0.810056005317,-0.629033331672,0.0330538393866,0.03760589971,0.0184414246544,0.0175574519886,0.0137761808763,-0.599445657596,0.573774914792,0.818979784759,0.00593348236734,0.0,0.818975653522,-0.573684596201,-0.0120668935979,0.0,-0.00647871922098,0.0117832853102,-0.999909586105,0.0,0.283023467679,-0.236247696249,0.304882905895,1.0,-0.128462285714,-0.168836146939,2.497
-0.567430488076,-0.528383257572,-0.13387870558,-2.64715452589,-0.0725014691135,2.10902146639,-0.8192951269,-0.592366027826,0.0392827735257,0.027649875797,0.030965429428,0.0281071829613,0.00621216034081,-0.553526814209,0.573968611183,0.818843663848,0.0059861885557,0.0,0.818840177583,-0.573877953483,-0.0120666889932,0.0,-0.00644551428434,0.011827860146,-0.999909274419,0.0,0.28081842394,-0.239096495615,0.304885989125,1.0,-0.119126857143,-0.156566726531,2.514
-0.576790413084,-0.527641379894,-0.133185955168,-2.64665159325,-0.0721335812852,2.10916904203,-0.828490366911,-0.533649998958,0.0407368993221,0.0434174575624,0.0306677197732,0.0219711599757,0.0017464610029,-0.519691689639,0.573783816913,0.818973164012,0.00598623238015,0.0,0.818969529534,-0.57369292464,-0.0120865550489,0.0,-0.00646442952899,0.0118378395204,-0.999909034216,0.0,0.278993263123,-0.241484904139,0.304873795517,1.0,-0.110340571429,-0.145019036735,2.53
-0.586109932598,-0.52685869919,-0.132541487944,-2.64610474648,-0.071776198942,2.10929467123,-0.837422779275,-0.507186018916,0.0515032104861,0.0379680806405,0.0267306347561,0.0182663272618,0.0078986590699,-0.480553145649,0.573829119542,0.8189413308,0.00599876449571,0.0,0.818937613061,-0.573737712327,-0.0121231295187,0.0,-0.00648653928891,0.0118694471389,-0.999908516332,0.0,0.277026305527,-0.244027421147,0.304863390866,1.0,-0.100456,-0.132027885714,2.548
-0.593790379602,-0.526150756208,-0.132013324505,-2.64557672657,-0.0714278244607,2.10941226188,-0.844705291689,-0.466372510352,0.0503957838709,0.0310897194811,0.0306047969257,0.0230998227325,0.00233253178079,-0.440974887807,0.573959958989,0.818849278442,0.00604744354206,0.0,0.818846149364,-0.573868227358,-0.012123869103,0.0,-0.0064573100846,0.0119107705903,-0.999908214133,0.0,0.275411399802,-0.246125532108,0.304867893817,1.0,-0.0916697142858,-0.120480195918,2.564
-0.601403984794,-0.525296377107,-0.131291491134,-2.64497918548,-0.0709892113135,2.10956289716,-0.852123085318,-0.399124259271,0.0503590157166,0.0395852862743,0.0362811903435,0.0207483715824,0.00609195656747,-0.397439542046,0.573830692814,0.818939722856,0.00606738946381,0.0,0.818936568052,-0.573738373143,-0.0121623842774,0.0,-0.00647929019562,0.0119481865403,-0.999907625552,0.0,0.273863708828,-0.248160761426,0.304857854993,1.0,-0.0817851428572,-0.107489044898,2.582
-0.608041113855,-0.524588861674,-0.130642785634,-2.6444442149,-0.0706287062146,2.10970304536,-0.858431555853,-0.376372281496,0.0439642300441,0.0394616625467,0.0324374702817,0.024874046235,0.00324559212711,-0.357197107025,0.573824459061,0.818944190237,0.00605395421659,0.0,0.818941028866,-0.573732511264,-0.012138519719,0.0,-0.00646754436642,0.0119234405695,-0.999907996985,0.0,0.272510262391,-0.249930218564,0.304870097665,1.0,-0.0724497142858,-0.0952196244899,2.599
-0.612307548394,-0.52410261974,-0.130166466826,-2.64407651002,-0.0703509152366,2.10980948946,-0.862405238812,-0.348745199315,0.0436593972828,0.041768975032,0.0308942910457,0.0254369779092,0.00993575187762,-0.322090559711,0.573865967618,0.818915132066,0.00605017235176,0.0,0.818912096965,-0.573774351614,-0.0121127112928,0.0,-0.00644797299319,0.0119058613388,-0.999908332854,0.0,0.271658271028,-0.251053296875,0.304880023823,1.0,-0.0658600000001,-0.086558857143,2.611
-0.618596592697,-0.523293398553,-0.1294498897,-2.64348387373,-0.0698664444423,2.10998934505,-0.868322751978,-0.29374641966,0.0382496575988,0.0383110604996,0.0302500314462,0.0191409314094,0.0120918276722,-0.287866365878,0.573902314318,0.818889328328,0.00609495472423,0.0,0.818886982224,-0.573810690909,-0.0120891787437,0.0,-0.00640247254755,0.0119293164164,-0.999908345677,0.0,0.270417178992,-0.252706757403,0.304885871106,1.0,-0.0548771428572,-0.0721242448981,2.631
-0.623122264946,-0.522706566091,-0.128769533156,-2.64306792616,-0.069471225558,2.11010036802,-0.872557083705,-0.249153219086,0.0349556243184,0.0417869605414,0.0221097976585,0.0248753284777,0.00558781728004,-0.230934727622,0.5738506666,0.818925576518,0.00608764887604,0.0,0.818923047113,-0.573758922035,-0.0121032720176,0.0,-0.00641895974279,0.0119310163917,-0.99990821969,0.0,0.269551375506,-0.253846170018,0.304885923808,1.0,-0.0455417142858,-0.0598548244899,2.648
-0.626739337041,-0.522284891295,-0.128079629973,-2.64275415023,-0.0690903840659,2.11019694628,-0.875915171635,-0.213123110008,0.0220811172663,0.0387082906323,0.0155722886531,0.0281584967442,0.00814112811911,-0.199341454549,0.573753685593,0.818993692452,0.00606522000044,0.0,0.818991069001,-0.573662426947,-0.0120745893368,0.0,-0.00640974708785,0.0118954301698,-0.999908702774,0.0,0.268890755444,-0.25471271237,0.304898975111,1.0,-0.0367554285715,-0.048307134694,2.664
-0.629946551761,-0.521915383374,-0.127396228371,-2.64246804205,-0.0687216799321,2.11026871546,-0.878759733447,-0.178364023701,0.0175888724875,0.0439003264784,0.012761280907,0.018338050631,0.00298690898206,-0.148600448938,0.573739281202,0.819004008267,0.00603477834634,0.0,0.81900117808,-0.573648507534,-0.0120501871035,0.0,-0.00640743330939,0.0118563845343,-0.999909181348,0.0,0.268320455993,-0.255460707618,0.304916176245,1.0,-0.0274200000001,-0.0360377142858,2.681
-0.632617908429,-0.521560414712,-0.126770939727,-2.64222075803,-0.0683213997785,2.11037643921,-0.881080650724,-0.135005202196,0.0160602599843,0.0311050520249,0.0100347254422,0.0242945506282,0.00219489138287,-0.104974383337,0.573767390248,0.818984164008,0.00605540197397,0.0,0.818981810852,-0.573676910621,-0.0120142671318,0.0,-0.00636577278693,0.0118528869768,-0.999909488907,0.0,0.267872816139,-0.256068842858,0.304922632233,1.0,-0.0198909677419,-0.0261424147465,2.699
-0.634508617311,-0.521314563353,-0.126416109927,-2.64206416896,-0.0680463299549,2.11038319347,-0.882698606966,-0.106447575115,0.0180708186249,0.0200542906813,0.0100706261915,0.0111880519649,-0.000822254897624,-0.101270432027,0.573865232287,0.818915161455,0.00611558771267,0.0,0.818913175713,-0.573773698072,-0.0120706646381,0.0,-0.0063760096611,0.011935299913,-0.999908443367,0.0,0.26752037468,-0.256504829993,0.30491269825,1.0,-0.0195709677419,-0.025721843318,2.715
-0.6362197294,-0.521079358873,-0.126101063912,-2.64188822672,-0.0678701521722,2.11039449261,-0.884258401228,-0.0946391140397,0.0170211938165,0.00835442794251,0.00973366865799,0.010190816829,-0.000101156777686,-0.0876312023379,0.573850463027,0.818925567017,0.00610808232806,0.0,0.81892329904,-0.573758620007,-0.0121005437568,0.0,-0.00640500308596,0.0119461835697,-0.999908128097,0.0,0.267201606865,-0.256916970496,0.304914800312,1.0,-0.0192309677419,-0.0252749861751,2.732
-0.637767182895,-0.520803376545,-0.125883119089,-2.64167279695,-0.0677335365911,2.1104852448,-0.88577350026,-0.090276078844,0.0158431759274,0.0104686452092,0.0151637796056,0.00604399950148,0.0173914819524,-0.0951639441024,0.573792147006,0.818966467263,0.00610282179592,0.0,0.818964418281,-0.57370087613,-0.0120554227768,0.0,-0.00637191547082,0.011915530231,-0.999908705249,0.0,0.266920943264,-0.257330812271,0.304924258445,1.0,-0.0188909677419,-0.0248281290323,2.749
-0.639152201366,-0.520551465381,-0.125738765128,-2.6415040907,-0.0676792122043,2.11055567498,-0.887177383646,-0.0880899848356,0.0116555451209,0.0141588041619,0.0109847964906,0.00308610045182,-9.35949746244e-06,-0.0872185864763,0.573706621243,0.81902662017,0.00607083978152,0.0,0.819024156499,-0.57361550915,-0.0120592551146,0.0,-0.00639464622279,0.0118908678739,-0.999908853727,0.0,0.266644867106,-0.257711366759,0.304917767104,1.0,-0.0185709677419,-0.0244075576037,2.765
-0.640605461008,-0.520335848102,-0.125646930762,-2.64135200361,-0.0676504876716,2.11054526764,-0.88858771678,-0.0806895936727,0.015181147128,0.00565898770182,0.00604385590984,0.000377491492198,-0.000290048025687,-0.0793107829405,0.573697086824,0.819033430916,0.00605297558208,0.0,0.819030330192,-0.573605305534,-0.0121251222377,0.0,-0.00645898591396,0.0119139472752,-0.999908165464,0.0,0.266321131451,-0.258109123584,0.304908888006,1.0,-0.0182309677419,-0.0239607004608,2.782
-0.64206054547,-0.5201194283,-0.125600692596,-2.64115403476,-0.0676131421086,2.11056665831,-0.890098455259,-0.0816819738309,0.0147184385367,-0.000735098043387,0.0104716892337,0.00235956369307,0.00498129856632,-0.0801972356651,0.573644914833,0.819069944259,0.00605681430291,0.0,0.81906696264,-0.573553255191,-0.0121128473936,0.0,-0.00644748781411,0.0119096391033,-0.999908290993,0.0,0.266002925638,-0.25853219499,0.304922181741,1.0,-0.0178709677419,-0.0234875576037,2.8
-0.6432310544,-0.519943744079,-0.125591708874,-2.64099436635,-0.0675884896657,2.11063980638,-0.891243262132,-0.0793820211912,0.00563601055708,-0.000771732237385,0.0108709379616,0.00295200866033,0.00843294854518,-0.0731615122396,0.573678350986,0.819046483261,0.0060625710998,0.0,0.819043983841,-0.573587413912,-0.0120489849213,0.0,-0.00639138730191,0.0118779828746,-0.999909027708,0.0,0.265748859394,-0.258886856248,0.304936569601,1.0,-0.0175709677419,-0.0230932718894,2.815
-0.644676365403,-0.519735501968,-0.125593898769,-2.64081897188,-0.0675586186105,2.1107061368,-0.89268453156,-0.0799352810733,0.00861401381569,-0.00134860007438,0.00946770624327,0.00188280160214,-0.00046955612012,-0.0847314040591,0.573705084794,0.81902761882,0.00608129861188,0.0,0.819025615602,-0.573614533396,-0.0120064551782,0.0,-0.00634541929839,0.0118691322429,-0.999909425575,0.0,0.265422938274,-0.259318661366,0.304945269891,1.0,-0.0172109677419,-0.0226201290323,2.833
-0.646028745473,-0.5195533807,-0.125592401564,-2.6406355977,-0.0675296388836,2.11070816791,-0.893966454751,-0.0795185775835,0.00472076847255,-0.000368730538621,0.0123663892089,1.32834310413e-05,-0.000665215570139,-0.073692829993,0.573783501468,0.818972543055,0.00610033333658,0.0,0.818970847464,-0.573692966014,-0.0119949427499,0.0,-0.0063239321974,0.0118787241156,-0.999909447798,0.0,0.2651133994,-0.2597182123,0.304961795905,1.0,-0.0168709677419,-0.0221732718894,2.85
-0.647245102007,-0.519357454633,-0.125584300946,-2.64047723516,-0.0675072475612,2.1107502418,-0.895168610782,-0.0790988419768,0.016466435672,0.000559996679389,0.0105109129921,0.00514397372478,0.00797884357009,-0.0707388797142,0.573807224175,0.818955855511,0.00610926425891,0.0,0.81895434218,-0.573716770568,-0.0119833006584,0.0,-0.00630892834781,0.0118795416976,-0.999909532864,0.0,0.264839782468,-0.260079568342,0.304965435146,1.0,-0.0165509677419,-0.0217527004608,2.866
-0.648490608916,-0.519169529398,-0.125546048674,-2.64031111765,-0.0674761187003,2.11080745175,-0.896427492809,-0.0703646416663,0.0118949528835,0.00210033468525,0.0117969922763,0.00291475860013,0.00786626347817,-0.0687978436564,0.573791012279,0.818967222235,0.00610819391527,0.0,0.818965964544,-0.573701074914,-0.0119403711424,0.0,-0.00627461597776,0.0118539087907,-0.999910052975,0.0,0.264569794742,-0.260445120988,0.304977544254,1.0,-0.0162109677419,-0.021305843318,2.883
-0.649751621882,-0.518946934929,-0.125478885204,-2.64014151131,-0.0674492690911,2.11084587745,-0.897693715477,-0.0669542905846,0.011925966227,0.00257950176265,0.00817935826961,-0.000245072236836,0.00395277112154,-0.0724003516527,0.573759490372,0.81898942629,0.00609210432983,0.0,0.818987925094,-0.573669561014,-0.0119482307231,0.0,-0.00629074092476,0.011844998708,-0.999910057247,0.0,0.264298246501,-0.260806289302,0.304977540235,1.0,-0.0158509677419,-0.0208327004608,2.901
-0.65078024973,-0.518753907529,-0.125414124172,-2.63999450488,-0.0674239784686,2.11087824338,-0.898776392265,-0.0683655660832,0.0104833372526,0.00146815771977,0.0073694327604,-1.58351030576e-05,0.00119939333048,-0.0729554816757,0.573687804777,0.819039757593,0.00607659723869,0.0,0.819038015036,-0.573597879502,-0.0119561472963,0.0,-0.00630715812494,0.0118362879218,-0.999910056977,0.0,0.264080758032,-0.261100344643,0.304977565241,1.0,-0.0155509677419,-0.0204384147465,2.916
-0.652009535168,-0.518532582605,-0.125368896256,-2.63983419235,-0.0673973924461,2.11091948272,-0.900065372746,-0.0707094162662,0.0104557991427,0.000413864194633,0.00660070532207,0.00229431388525,0.0067425971272,-0.0636174001066,0.573619958416,0.819087305488,0.00607257744568,0.0,0.819085444887,-0.573529940526,-0.0119661270614,0.0,-0.00631861944357,0.011838197028,-0.999909962016,0.0,0.263826682392,-0.261433840103,0.304974476708,1.0,-0.0152109677419,-0.0199915576037,2.933
-0.652953661157,-0.518359945792,-0.125363645571,-2.63970304482,-0.0673819902661,2.11094710413,-0.900989503364,-0.0698748935216,0.0115295672486,0.00012738872511,0.00802355370845,0.00171659609879,0.000418959951041,-0.0617743111125,0.573652756466,0.819064292452,0.00607838215819,0.0,0.81906243342,-0.573562569165,-0.0119773250199,0.0,-0.00632398851229,0.0118496281366,-0.999909792672,0.0,0.263596250469,-0.261736425959,0.304971982603,1.0,-0.0149109677419,-0.0195972718894,2.948
-0.654140454356,-0.518153742932,-0.125365834855,-2.639537216,-0.0673589434596,2.11098484987,-0.902207864106,-0.064973356298,0.0107080400883,-0.00163262587968,0.00719792854936,0.00262112531617,0.00104792576137,-0.0707118227926,0.573650114971,0.819065999229,0.00609765545037,0.0,0.81906440346,-0.573559871714,-0.0119717770218,0.0,-0.0063084264878,0.0118622121733,-0.999909741766,0.0,0.263309517111,-0.262113098929,0.304973851304,1.0,-0.0145309677419,-0.019097843318,2.967
-0.655340031839,-0.5179424586,-0.125367996258,-2.63937661217,-0.0673335111352,2.11101883409,-0.903350347633,-0.0630518251389,0.0164078014849,0.00015848334955,0.0100982521693,6.21292368838e-05,0.000167327445116,-0.0626397844205,0.573714525642,0.819020791617,0.00611006287145,0.0,0.819019285922,-0.573624082959,-0.0119819713942,0.0,-0.00630872594749,0.0118787190668,-0.999909543914,0.0,0.263050821521,-0.262447947236,0.304972525061,1.0,-0.0141909677419,-0.0186509861751,2.984
-0.656430930621,-0.517761723328,-0.125361883929,-2.63921874764,-0.0673108685771,2.11105282811,-0.904367290918,-0.0690749845092,0.0146593983618,0.0009467256077,0.0111800603653,0.00647660567051,0.000148274297814,-0.0638311270797,0.573788575265,0.818968854335,0.00611828614458,0.0,0.818967562869,-0.57369828503,-0.0119647659415,0.0,-0.00628884146673,0.0118761525485,-0.99990969966,0.0,0.262805065336,-0.262773605972,0.304980702999,1.0,-0.0138509677419,-0.0182041290323,3.001
-0.657404559443,-0.517595387952,-0.125355634194,-2.63907103186,-0.067295590766,2.11109446618,-0.905398053241,-0.0636949785262,0.008868382854,0.000396903249561,0.00698431852034,-0.000148389609902,0.00149237728633,-0.0662785756186,0.573751476481,0.818994830013,0.00612033887686,0.0,0.818993737886,-0.573661511989,-0.0119362417925,0.0,-0.00626483808145,0.0118611839306,-0.999910028012,0.0,0.262588342011,-0.263067666759,0.30499021886,1.0,-0.0135309677419,-0.0177835576037,3.017
-0.658401872521,-0.517389289553,-0.125340289429,-2.63890906003,-0.0672727153083,2.11114715469,-0.906441594054,-0.0594838742895,0.0209825061933,0.00126614525451,0.0050438092543,0.000208105688511,0.00480787000125,-0.0617885873138,0.57372093337,0.819016208301,0.00612274899805,0.0,0.819015231849,-0.573631125203,-0.0119217909042,0.0,-0.00625206095701,0.0118546339337,-0.999910185661,0.0,0.262371848628,-0.26336960113,0.304992706945,1.0,-0.0131909677419,-0.0173367004608,3.034
-0.659410681817,-0.517189884229,-0.12530849058,-2.63877613537,-0.0672537742283,2.11118269124,-0.907424206075,-0.0597029621698,0.00645066511019,0.000445572807923,0.00597306304912,0.000553638538164,0.000841428969654,-0.0560278991227,0.573734978153,0.819006395748,0.00611927034982,0.0,0.819005218655,-0.573644887031,-0.0119474809374,0.0,-0.00627489596347,0.0118666305349,-0.999909900321,0.0,0.262146119685,-0.263661369532,0.304983375286,1.0,-0.0128509677419,-0.016889843318,3.051
-0.660341071405,-0.517008195447,-0.12527307084,-2.63865709905,-0.067240106118,2.11119666009,-0.908335393492,-0.0539206893133,0.0115060924388,0.00091417094326,0.00845140080197,0.000382329486835,-0.000258732830502,-0.0545680335758,0.573737755541,0.819004499056,0.00611271574335,0.0,0.819002966372,-0.573647181077,-0.0119916478485,0.0,-0.00631479296342,0.0118866223025,-0.999909411697,0.0,0.26193495269,-0.263925796959,0.304972497004,1.0,-0.0125309677419,-0.0164692718894,3.067
-0.66133875228,-0.516807110723,-0.125243373911,-2.63851591594,-0.0672223743789,2.11125241572,-0.909369392423,-0.0514053559608,0.010585794558,-0.00100217724447,0.00643780422176,0.00307869926707,0.00644604135424,-0.0567311006797,0.573701937175,0.819029637674,0.00610629142436,0.0,0.819028031234,-0.573611415687,-0.0119906107903,0.0,-0.00631814878651,0.011880489218,-0.999909463387,0.0,0.261715988184,-0.264219845896,0.304967949772,1.0,-0.0121709677419,-0.0159961290323,3.085
-0.662189884587,-0.516644521602,-0.125222761742,-2.63838917507,-0.067206784318,2.11129408816,-0.910209295848,-0.0584869612027,0.0115814809981,0.0012560978981,0.00404294073304,-0.000196384334693,0.000769449446774,-0.0533532629408,0.573709751395,0.819024193718,0.00610230769892,0.0,0.819022604471,-0.573619374734,-0.0119805340646,0.0,-0.00631206685272,0.0118715057279,-0.999909608497,0.0,0.261528632313,-0.264472487875,0.304969611327,1.0,-0.0118509677419,-0.0155755576037,3.101
-0.663073142449,-0.516472194601,-0.125200927275,-2.63824402319,-0.0671933406337,2.11131193826,-0.911076441193,-0.0493320316118,0.0103241500544,0.00204364043739,0.0119930299703,-9.21326429264e-05,0.000123517224891,-0.0588015552255,0.573720691954,0.819016571199,0.00609677183963,0.0,0.819014884303,-0.573630287952,-0.0119857805519,0.0,-0.00631938157247,0.0118700657302,-0.99990957939,0.0,0.261332838751,-0.26473456692,0.304974031093,1.0,-0.0115109677419,-0.0151287004608,3.118
-0.663938645403,-0.516302595182,-0.125183089093,-2.6381137898,-0.0671710054328,2.11134549291,-0.911971282149,-0.0501932310825,0.00769594505462,-0.000199831439986,0.0101015107074,0.00480906121834,0.00226987675145,-0.0553289267383,0.573700323092,0.819030805203,0.00610133711168,0.0,0.819029167416,-0.573609884941,-0.0119862305262,0.0,-0.00631742639063,0.0118739059897,-0.999909546149,0.0,0.261140556625,-0.264990252543,0.304973921822,1.0,-0.0111709677419,-0.014681843318,3.135
-0.664795772916,-0.516138846977,-0.125178388517,-2.63799444,-0.0671585571527,2.11139347011,-0.91282034041,-0.0501459195126,0.0107302101528,-0.000979317894031,0.0101286494538,0.000100913309021,4.14109290775e-05,-0.0484877130529,0.573715159901,0.81902039922,0.00610310267465,0.0,0.819018834548,-0.573624805565,-0.0119782301218,0.0,-0.00630964521144,0.0118708768005,-0.999909631247,0.0,0.260946356302,-0.265246772336,0.30497193332,1.0,-0.0108309677419,-0.0142349861751,3.152
-0.665589292307,-0.515993274324,-0.125166721535,-2.63788983817,-0.0671441246239,2.11141570657,-0.913570578371,-0.0508439042741,0.0056477594654,0.000133515320726,0.00533799173393,0.000735511550635,0.000461100428216,-0.045404389034,0.573753984021,0.818993175786,0.00610661427238,0.0,0.818991565627,-0.573663435365,-0.0119927169027,0.0,-0.00631893363954,0.0118823634581,-0.999909436157,0.0,0.260763581694,-0.265477667236,0.304967913718,1.0,-0.0105109677419,-0.0138144147466,3.168
-0.66641075926,-0.515830575271,-0.125169787723,-2.63778850848,-0.0671276917936,2.11143821921,-0.914366422989,-0.0513499265159,0.0120940103097,-0.000237497226551,0.00745734128801,3.81604608179e-05,0.00275762774318,-0.0467685064494,0.573789596255,0.818968118063,0.0061210887408,0.0,0.818966471175,-0.573698555639,-0.0120263564886,0.0,-0.00633766479075,0.0119137940573,-0.999908943612,0.0,0.260569011079,-0.265717591485,0.304955757817,1.0,-0.0101709677419,-0.0133675576037,3.185
-0.667232271324,-0.51566291656,-0.125166677361,-2.63766724309,-0.0671098560863,2.11147070831,-0.915208053233,-0.0466656341056,0.00970844532165,0.000288926976499,0.0079113452274,-2.47491888876e-05,0.000401610006625,-0.0391045574258,0.573784891463,0.818971347472,0.00613002857837,0.0,0.818969750857,-0.573693689308,-0.0120351539873,0.0,-0.00633980962827,0.0119261271168,-0.999908782993,0.0,0.260381653545,-0.265962451912,0.304951817222,1.0,-0.00981096774194,-0.0128944147466,3.203
-0.667941700479,-0.515511302062,-0.12515246338,-2.63755205733,-0.0670891275319,2.11149182198,-0.91590895308,-0.0409831055299,0.011976735084,0.00116219328208,0.0136390511984,0.00642621537135,-0.000138725322584,-0.0379058892705,0.573796642561,0.818963070825,0.0061358383225,0.0,0.818961475721,-0.573705273501,-0.0120460509184,0.0,-0.00634523021387,0.0119372286091,-0.999908616138,0.0,0.260223860055,-0.266172402812,0.304950322431,1.0,-0.00949096774194,-0.012473843318,3.219
-0.668659850627,-0.515375380948,-0.125115663441,-2.63744387794,-0.0670706841132,2.11153088232,-0.916566135577,-0.0445175075502,0.00260416910519,0.00367875101118,0.0056541324786,6.31281818835e-05,-0.000166130235934,-0.0375642363164,0.573833894765,0.818937042827,0.00612601056469,0.0,0.818935426658,-0.573742761065,-0.0120315415371,0.0,-0.00633844286601,0.0119211429347,-0.999908851093,0.0,0.260069972702,-0.266380908679,0.304953493698,1.0,-0.00915096774194,-0.0120269861751,3.236
-0.669352862111,-0.515228355056,-0.125061864211,-2.63732942172,-0.0670461068671,2.11155589465,-0.917264154498,-0.0385358533267,0.00820519884,0.000412486767183,0.00766781842184,0.000351159057425,0.000743775427336,-0.045373681034,0.573808002019,0.818955268245,0.00611492712949,0.0,0.818953492319,-0.573716892124,-0.0120354481025,0.0,-0.00634837886691,0.0119141067406,-0.999908871921,0.0,0.259925967208,-0.266577954321,0.304954615229,1.0,-0.00881096774194,-0.0115801290323,3.253
-0.669981367189,-0.515109879046,-0.125022227378,-2.63724095333,-0.0670261593457,2.11158450602,-0.917916428573,-0.0426377408651,0.0108480425502,0.00206052386892,0.00520359175923,0.00187023427152,0.00165710073561,-0.0405759733399,0.573773492196,0.81897949436,0.00610854905706,0.0,0.818977652518,-0.573682448938,-0.0120332604673,0.0,-0.00635074846209,0.0119073603015,-0.999908937236,0.0,0.259790782819,-0.266755900309,0.3049544386,1.0,-0.00849096774194,-0.0111595576037,3.269
-0.67062209567,-0.514989880421,-0.124995214951,-2.63715112052,-0.0670002216384,2.11161746516,-0.91859889508,-0.0341342392079,0.00762092102074,0.000694061784505,0.00726074159462,-6.61093333629e-05,0.00357586512964,-0.0413697241824,0.573735859719,0.819005824382,0.00611308449501,0.0,0.819004080119,-0.57364487735,-0.0120257365363,0.0,-0.00634253077372,0.0119064666703,-0.999909000037,0.0,0.259650889897,-0.266940027986,0.304954392256,1.0,-0.00815096774194,-0.0107127004608,3.286
-0.671245240576,-0.514875312061,-0.124984174202,-2.63707539825,-0.0669786444189,2.11164071144,-0.91920234407,-0.0403340108155,0.00594760320747,4.9319729855e-05,0.00778022771687,0.000234446083049,0.00169660860704,-0.0350507777025,0.573757365194,0.818990675907,0.00612417866394,0.0,0.81898899607,-0.573666180649,-0.0120367934794,0.0,-0.00634490960288,0.0119220633845,-0.999908799105,0.0,0.259507035671,-0.267118398933,0.30494873053,1.0,-0.00781096774194,-0.010265843318,3.303
-0.671844726333,-0.514749607639,-0.124968131848,-2.63701019861,-0.0669594577096,2.1116625042,-0.919782907689,-0.0330013599822,0.0113120272743,0.00146905155278,0.00374320199408,-0.000134420626111,0.00331792993044,-0.0346130274107,0.573773230266,0.818979493758,0.00613318313984,0.0,0.818977703789,-0.573681576499,-0.0120713041256,0.0,-0.00636777896862,0.0119493614687,-0.999908327874,0.0,0.259367455637,-0.26728656346,0.30493416413,1.0,-0.00747096774194,-0.00981898617512,3.32
-0.672401676035,-0.514662035287,-0.124956810778,-2.63695120117,-0.066933694549,2.11166491504,-0.920319988935,-0.0374163883476,0.006240383556,-0.000511281205241,-0.000229188046755,0.00108154601464,-0.000438933893754,-0.0388768600132,0.57379558339,0.818963700009,0.00615089027097,0.0,0.81896198969,-0.573703563854,-0.0120924424428,0.0,-0.00637460646671,0.0119761659791,-0.999907963685,0.0,0.259235129812,-0.267440246532,0.304929101719,1.0,-0.00715096774194,-0.00939841474655,3.336
-0.672974685463,-0.514546123462,-0.124939356814,-2.63686841668,-0.0669102055111,2.11168462925,-0.920899619991,-0.0293825901991,0.0103097217758,0.00329974793578,0.00191283574904,0.000866699649531,8.12385965246e-05,-0.0284628761884,0.573792122168,0.818966059683,0.0061595881572,0.0,0.818964395506,-0.573699938752,-0.0121014904284,0.0,-0.00637707736239,0.0119884540809,-0.999907800676,0.0,0.259106974152,-0.267605157791,0.304925990952,1.0,-0.00679096774194,-0.00892527188941,3.354
-0.673467727448,-0.514459085616,-0.124907942292,-2.63678825479,-0.0668892300278,2.11169880657,-0.921400527735,-0.0290824180673,0.00549736365052,0.000862843464924,0.00685527288938,-1.59463726388e-05,-0.000129162397933,-0.0386019476918,0.57377638504,0.818977099029,0.00615777047464,0.0,0.818975478296,-0.573684339228,-0.0120909791042,0.0,-0.0063697411426,0.0119808119695,-0.999907939034,0.0,0.259002219933,-0.267745571624,0.304932206456,1.0,-0.00647096774194,-0.00850470046084,3.37
-0.673936645684,-0.514370557162,-0.12487065421,-2.63671675766,-0.0668687327854,2.11171800726,-0.921878251651,-0.0295048608764,0.0048086533239,0.00284284573206,0.00620409591487,0.000243259201753,0.000455764906279,-0.0282840575485,0.573749663939,0.818995833752,0.00615583687203,0.0,0.818994231532,-0.573657714532,-0.0120839635563,0.0,-0.00636549505225,0.0119749954737,-0.999908035749,0.0,0.258898284447,-0.267882665485,0.304935346042,1.0,-0.00613096774194,-0.00805784331798,3.387
-0.674426797571,-0.51428722254,-0.124841866241,-2.63663968305,-0.0668402425701,2.11173517542,-0.922355375657,-0.0253203483656,0.00248730453084,0.00198322621261,0.00273588103845,8.39398249231e-05,0.00103827562189,-0.0240365509155,0.573762706175,0.818986690261,0.00615671004211,0.0,0.818985192516,-0.573670925432,-0.0120694098961,0.0,-0.00635288282945,0.0119674620538,-0.999908206153,0.0,0.258794752771,-0.268022313629,0.304940438664,1.0,-0.00577096774194,-0.00758470046084,3.405
-0.6748511156,-0.514201213576,-0.124822332429,-2.63658062304,-0.0668208277473,2.11176586349,-0.92277223987,-0.025390842178,0.00445209244446,0.00157419964179,0.00241157635995,0.00425568717837,0.000742262006701,-0.0264701829935,0.57376498232,0.818985058666,0.00616162683973,0.0,0.818983653371,-0.573673233213,-0.012064157949,0.0,-0.00634572688951,0.0119684934628,-0.999908239247,0.0,0.258708269953,-0.268138092914,0.304939005258,1.0,-0.00545096774194,-0.00716412903227,3.421
-0.675257125976,-0.514130764931,-0.124802724861,-2.63653061621,-0.0668050932133,2.1117882764,-0.923172197311,-0.0268316706927,0.0055431472707,0.000277717364424,0.00231680930192,0.00143702021314,0.00219122229265,-0.0228112254025,0.573765325199,0.818984808591,0.00616293742237,0.0,0.81898344892,-0.573673624187,-0.0120594447771,0.0,-0.00634110951176,0.0119668653991,-0.999908288026,0.0,0.258618342618,-0.268252465335,0.304938066712,1.0,-0.00511096774194,-0.00671727188941,3.438
-0.675645128903,-0.514074416272,-0.124783577272,-2.63648124953,-0.0667848489397,2.11180770504,-0.923553644822,-0.0215337873626,0.00546000986894,0.00477099439245,0.00267594064317,0.000201230333005,0.000392319104728,-0.0263679351452,0.573768237437,0.818982732757,0.00616766201258,0.0,0.818981528848,-0.573676693342,-0.0120438292506,0.0,-0.00632556603028,0.0119617982473,-0.999908447108,0.0,0.258533214097,-0.268361454176,0.304941784044,1.0,-0.00477096774194,-0.00627041474655,3.455
-0.676002852316,-0.514021012705,-0.124759114541,-2.63642804243,-0.0667654167493,2.11181744483,-0.923893967021,-0.0200180743838,0.00256959384109,0.00163088058477,0.00441969718821,0.0026310014075,-6.45601518742e-05,-0.0164668192534,0.573776073771,0.818977232033,0.00616907459797,0.0,0.818976123127,-0.573684666879,-0.0120316099229,0.0,-0.00631463266212,0.0119560048904,-0.999908585502,0.0,0.258456716763,-0.268461192843,0.304947630829,1.0,-0.00445096774194,-0.00584984331798,3.471
-0.676344866961,-0.513962627862,-0.124741038935,-2.63638074804,-0.0667530871384,2.11182902704,-0.924212548086,-0.0215489085072,0.00189160558042,0.00442316370463,0.00339010552081,0.00067649296786,0.0032543424962,-0.0205344403702,0.573790110042,0.818967402662,0.00616845976884,0.0,0.818966303835,-0.57369873705,-0.0120290977199,0.0,-0.00631272287662,0.0119541681565,-0.999908619522,0.0,0.258381163965,-0.268557547675,0.304948952975,1.0,-0.00413096774194,-0.00542927188941,3.487
-0.676652301157,-0.513906743621,-0.124724978078,-2.6363333237,-0.0667436780085,2.11183865704,-0.924524417792,-0.018715908914,-0.000459842600605,0.00245120200922,0.00193858550193,0.00278545579151,0.000129195255254,-0.0134276181604,0.57378150255,0.818973448917,0.00616637667342,0.0,0.818972342449,-0.573690177218,-0.0120262117177,0.0,-0.00631167988066,0.0119507398668,-0.999908667086,0.0,0.258313925691,-0.268645465128,0.304951041751,1.0,-0.00381096774194,-0.00500870046084,3.503
-0.676960739639,-0.513842955461,-0.12470725798,-2.63629464567,-0.0667262382088,2.11184818071,-0.924843401892,-0.0132743015799,0.0091682172575,0.00143877577779,-0.000276791482378,0.00249003713048,0.00111433401366,-0.014983954214,0.573769778449,0.818981617577,0.00617238286824,0.0,0.818980500883,-0.573678262342,-0.0120389945785,0.0,-0.00631887503346,0.0119629027881,-0.999908476199,0.0,0.258245360897,-0.268730025395,0.304946269912,1.0,-0.00345096774194,-0.00453555760369,3.521
-0.677270006501,-0.513784801643,-0.124675726051,-2.63626126985,-0.0667125188856,2.11186130837,-0.925126738981,-0.0175100009502,0.00304075324681,0.00105164380949,0.00384626552286,0.000595271787557,-1.38229939824e-05,-0.0128859343676,0.573776239412,0.818977123263,0.00616810825872,0.0,0.818975893516,-0.573684631843,-0.012048897373,0.0,-0.00632934425297,0.0119651333621,-0.999908383296,0.0,0.258178814251,-0.268811419398,0.304941800227,1.0,-0.00307096774194,-0.00403612903227,3.54
-0.677479355001,-0.513761749185,-0.124654766285,-2.63624012787,-0.0667003371203,2.11186689951,-0.925329713478,-0.0169072433697,0.000769893940929,0.00149329024301,0.00142970912357,0.00233560594839,-8.14341995067e-05,-0.00794164878437,0.573772826081,0.818979518372,0.00616761214743,0.0,0.818978315847,-0.573681285072,-0.012043597145,0.0,-0.00632533750905,0.0119616596784,-0.999908450211,0.0,0.258133457788,-0.26886573295,0.304943856871,1.0,-0.00279096774194,-0.00366812903227,3.554
-0.677717205991,-0.513725941297,-0.124629936883,-2.63622871418,-0.0666913194078,2.11187255982,-0.925552780637,-0.0109007324083,0.00181260804947,0.000243099241589,0.000947244014646,-0.000574902443237,0.000850747774749,-0.0120623333248,0.573771812235,0.818980245879,0.00616532606176,0.0,0.818978906376,-0.573680078801,-0.012060887175,0.0,-0.0063408256837,0.0119696995409,-0.999908255903,0.0,0.258078568573,-0.26892410759,0.304936874103,1.0,-0.00243096774194,-0.00319498617512,3.572
