nelsonifechukwu/NELSON_IML_WORK/CNN-GradCAM/train2dof/data_sample_2022-02-22-11-23-36/robot_state.csv
position_joint1,position_joint2,position_joint3,position_joint4,position_joint5,position_joint6,position_joint7,velocity_joint1,velocity_joint2,velocity_joint3,velocity_joint4,velocity_joint5,velocity_joint6,velocity_joint7,ee_T_00,ee_T_10,ee_T_20,ee_T_30,ee_T_01,ee_T_11,ee_T_21,ee_T_31,ee_T_02,ee_T_12,ee_T_22,ee_T_32,ee_T_03,ee_T_13,ee_T_23,ee_T_33,v_x,v_y,time
0.465051383986,0.547743062711,-0.124021681772,-1.35583269832,0.0794244326939,1.89409208587,0.159150803665,0.00108741648176,-0.00105306357832,0.00328443069982,0.000906520223823,5.47351304097e-06,-0.00703711250761,-0.00148516410929,0.573820153582,0.818967329424,0.0019213487558,0.0,0.81892465909,-0.57376252543,-0.0118200696584,0.0,-0.00857801812078,0.0083561949442,-0.999928293235,0.0,0.661694148436,0.260844247357,0.30324175402,1.0,0.0,0.0,0.0
0.465052039012,0.547743036699,-0.124021892237,-1.35583269832,0.0794240655745,1.89409314599,0.159150104711,-0.00121197705235,0.0022189898754,0.000341327673606,0.000224822676407,9.39800524908e-05,-0.000532512161512,0.000147117763139,0.573819101858,0.818968064836,0.00192198413563,0.0,0.818925408433,-0.573761476782,-0.0118190559697,0.0,-0.00857683407031,0.00835612260587,-0.999928303996,0.0,0.661694258767,0.260844572039,0.303241870831,1.0,-0.00018,-0.000236571428571,0.01
0.465051936835,0.547737816574,-0.124019386587,-1.35584068578,0.0794232301492,1.89409237145,0.159148463498,0.000931241504132,-0.00528711382637,0.00260321118375,-0.00167176310924,-0.000382812781565,0.00273694945778,0.00661681320384,0.573816290841,0.818970040101,0.00191955295445,0.0,0.818927337588,-0.573758661836,-0.0118220395857,0.0,-0.00858070130421,0.00835581417091,-0.999928273395,0.0,0.661691908893,0.260844886263,0.303241615329,1.0,-0.00044,-0.000578285714286,0.023
0.465050981906,0.547733162379,-0.124017144003,-1.35584471939,0.0794240787382,1.89409705484,0.159144153328,5.38010306074e-05,-0.00211971767065,0.00148690180024,0.000369736502738,3.16093143819e-05,0.000359654027016,-0.000679218630291,0.573812445681,0.818972720975,0.0019251965862,0.0,0.818930074001,-0.573754776879,-0.0118210323528,0.0,-0.0085766774206,0.00835981782006,-0.999928274453,0.0,0.661691728498,0.260845591344,0.303243326654,1.0,-0.00078,-0.00102514285714,0.04
0.465053484415,0.547667717895,-0.124020213796,-1.35590735454,0.0794249704965,1.89410631795,0.159146949228,-6.32170393916e-05,-0.0040565899744,-5.0138382338e-06,-0.00636850478821,0.000153935591032,0.000650487301434,-0.00168341425799,0.573818435639,0.818968492851,0.00193843740029,0.0,0.818925973213,-0.573760668791,-0.0118191474532,0.0,-0.00856747518781,0.00836964257831,-0.999928271153,0.0,0.661680950876,0.260839671576,0.303260783724,1.0,-0.0011,-0.00144571428571,0.056
0.465056294359,0.547527231017,-0.124019413233,-1.35606976031,0.0794216704905,1.89414043288,0.159144294726,0.000890465025026,-0.00823616478634,-0.00028846096784,-0.00591945001282,0.000376720009096,0.00388135095697,0.00029182140498,0.57382138051,0.818966391478,0.0019544309274,0.0,0.818923982575,-0.573763453599,-0.0118218855868,0.0,-0.00856051075712,0.00838434249097,-0.999928207651,0.0,0.661653503693,0.260826345825,0.30328593382,1.0,-0.00144,-0.00189257142857,0.073
0.465040827771,0.547376927016,-0.124019827332,-1.35627696647,0.0794164255313,1.89420758855,0.159145626359,-0.000525969868813,-0.0130436613988,0.00108905647514,-0.0173761601188,0.000204610078662,0.00312811437393,0.00021789477169,0.573845545138,0.818949428262,0.00196753028111,0.0,0.818907114406,-0.573787488627,-0.011823822201,0.0,-0.00855433286997,0.00839643389891,-0.999928159063,0.0,0.661627782258,0.260796963518,0.303299616952,1.0,-0.00178,-0.00233942857143,0.09
0.465024731566,0.547183240851,-0.12402256977,-1.35649590954,0.0794106610479,1.89434470498,0.159129815805,4.111352682e-05,-0.0160114412119,0.000116177633465,-0.0145777393783,0.00047863407402,0.00479860840794,-0.000748447423354,0.573858718594,0.818939956934,0.00206517120424,0.0,0.818898930027,-0.573800290328,-0.0117692871851,0.0,-0.00845350646014,0.00844523714927,-0.99992860555,0.0,0.66161520023,0.260769679347,0.303344590401,1.0,-0.00214,-0.00281257142857,0.108
0.4650045567,0.546986873196,-0.124021895969,-1.35672775375,0.0794029187501,1.8944688665,0.159115634714,-0.00311678115623,-0.0133372011462,-0.000436683344414,-0.0105633168907,-0.00275747810598,0.0061501905863,-0.00137457797627,0.573874255404,0.81892886752,0.00214378827646,0.0,0.818888851377,-0.573815511072,-0.0117283948486,0.0,-0.00837474338542,0.00848631156791,-0.999928920568,0.0,0.661597523152,0.260738971544,0.303384073312,1.0,-0.00248,-0.00325942857143,0.125
0.464972587886,0.54676775277,-0.124020103535,-1.357056886,0.0793921002954,1.894603083,0.15909306206,-0.000547518511681,-0.0131197079245,0.000719138799898,-0.0239681311911,-0.000175641446425,0.0110391282191,-0.00523458717213,0.573896318828,0.818913339052,0.00216916093002,0.0,0.818873578427,-0.573837400138,-0.0117238073541,0.0,-0.00835619744086,0.00850468219759,-0.999928919646,0.0,0.66156310735,0.260690032284,0.303394184857,1.0,-0.00282,-0.00370628571429,0.142
0.464941556154,0.546528161847,-0.124014813826,-1.35740945878,0.0793790900095,1.89472545812,0.159051057317,-0.0067096840246,-0.0161270356802,0.00261858568523,-0.0222784547529,-0.000159460527154,0.00574837215986,-0.00718862817446,0.573899830873,0.818910839573,0.00218354209474,0.0,0.818871153733,-0.573840743075,-0.0117295384279,0.0,-0.00835260155711,0.00851978378659,-0.999928821133,0.0,0.66152054578,0.260640062803,0.303406475714,1.0,-0.00312,-0.00410057142857,0.157
0.464905193928,0.546248090441,-0.124020103535,-1.35784991622,0.0793522400633,1.89488746243,0.158934144394,0.000292387904871,-0.015645060049,0.00084725194149,-0.0266490622335,-0.00500895199825,0.00287171195553,-0.00162187481913,0.573855076534,0.818942200921,0.00218393876671,0.0,0.81890253845,-0.573796011275,-0.0117267585664,0.0,-0.00835056289106,0.0085180569335,-0.999928852872,0.0,0.661471355089,0.26057099096,0.303409354432,1.0,-0.00346,-0.00454742857143,0.174
0.464855038233,0.545945637091,-0.124020103971,-1.35836207289,0.0793015467681,1.89505776003,0.158905371601,-0.00737594327858,-0.018843611326,-0.000294011694599,-0.0287379025756,-0.00284199771837,0.00753805666359,-0.00865761363605,0.573887680665,0.81891947237,0.00213884447898,0.0,0.818879374705,-0.573828936041,-0.0117332325589,0.0,-0.00838140313262,0.00848517661544,-0.9999288744,0.0,0.661411622582,0.260484337661,0.303394437157,1.0,-0.0038,-0.00499428571429,0.191
0.464803270042,0.545608702605,-0.124020211439,-1.35894406969,0.0792599541955,1.8952392862,0.15881846922,-0.00431477944678,-0.0143394366929,5.21063144872e-06,-0.0345964472001,-0.000834169428179,0.0131902980556,-0.00709865081228,0.573880290907,0.818924799008,0.00208138880895,0.0,0.818883963882,-0.573821777809,-0.011762988989,0.0,-0.0084388196403,0.00845512624857,-0.999928646036,0.0,0.661338879568,0.260390955593,0.303371665651,1.0,-0.00414,-0.00544114285714,0.208
0.464735829272,0.545198227613,-0.124022936168,-1.35965739575,0.0792342372892,1.89547242906,0.158743937118,-0.0104891383904,-0.0249735592145,-0.000536487976185,-0.045088441623,-0.00394235477211,0.0169896503678,-0.00159242114323,0.573909259589,0.81890462592,0.00203034642338,0.0,0.818862940288,-0.573850757465,-0.0118127084393,0.0,-0.00850852956815,0.00844216073394,-0.999928164843,0.0,0.661251918339,0.260277148752,0.303343019594,1.0,-0.0045,-0.00591428571429,0.226
0.464679430499,0.544831301823,-0.124025797725,-1.36026980649,0.0792129515277,1.89567635992,0.15867554089,-0.00761757273443,-0.0240319498441,-0.000301953735291,-0.0446832386475,-0.000615321329339,0.0219187258218,-0.00438683735009,0.573929842027,0.818890268846,0.00200272851275,0.0,0.818848061901,-0.573871287812,-0.011846663984,0.0,-0.00855197411603,0.00843924683171,-0.999927818821,0.0,0.661178009303,0.260180714268,0.303329020896,1.0,-0.0048,-0.00630857142857,0.241
0.464599093155,0.544344259259,-0.124024081638,-1.36109539811,0.0791677189751,1.89597078257,0.158574296052,-0.00126158196959,-0.0303341503049,0.000296892672677,-0.0444588090816,-0.0073158884424,0.0210182851437,-0.00628752368414,0.573945520647,0.818879366767,0.00196695536945,0.0,0.818836620984,-0.573887037947,-0.0118744563521,0.0,-0.00859510258995,0.0084260683497,-0.999927560168,0.0,0.661082724152,0.260049646115,0.303306198539,1.0,-0.00518,-0.006808,0.26
0.464524685438,0.543877339535,-0.124023624371,-1.36184662841,0.0791346403981,1.8962378394,0.158469447163,-0.00166178753648,-0.0289268623758,0.00162397166057,-0.042849701466,-0.000554669450167,0.015009076536,-0.00183369468809,0.573953276049,0.818873950176,0.00195896314025,0.0,0.8188309637,-0.573894691416,-0.0118946606157,0.0,-0.00861615506519,0.00843120143062,-0.999927335717,0.0,0.660996517426,0.259930453306,0.303302163024,1.0,-0.0055,-0.00722857142857,0.276
0.464450663166,0.543381085273,-0.124028601143,-1.36264048546,0.0790866272833,1.89651102224,0.158382758695,-0.00742169853254,-0.0372505549203,0.00251025829587,-0.0577783405598,-0.00559828526494,0.0169017815548,-0.0037261687696,0.573977673811,0.81885690164,0.00193688002322,0.0,0.818813619943,-0.57391917012,-0.0119075129618,0.0,-0.00863910292409,0.00842075245948,-0.999927225766,0.0,0.660904366598,0.259801697748,0.303299227126,1.0,-0.00582,-0.00764914285714,0.292
0.464379111224,0.542830149372,-0.124029692311,-1.36352764359,0.0790295898236,1.89682574392,0.158269330429,-0.00169830611185,-0.0312748177507,-0.000307431378006,-0.049396208561,-0.000238261367237,0.0202342777614,-0.000879162779886,0.573978224588,0.818856564522,0.00191607374396,0.0,0.81881302134,-0.573919816729,-0.0119175060941,0.0,-0.00865922212281,0.00840945702895,-0.999927146799,0.0,0.660799301478,0.259667835055,0.303293971759,1.0,-0.00616,-0.008096,0.309
0.464305915139,0.542280555537,-0.124035384536,-1.36438639194,0.0789765231364,1.89713268828,0.158140612628,-0.00991771637082,-0.0347742571137,0.000422194202945,-0.0575543813603,-0.00861392973503,0.0138095093413,-0.00795884005396,0.573970242396,0.818862168122,0.00191242314527,0.0,0.818818592734,-0.573911865662,-0.0119176149995,0.0,-0.00866148848256,0.00840644584868,-0.999927152489,0.0,0.660700326251,0.259533698469,0.30330070173,1.0,-0.00648,-0.00851657142857,0.325
0.46422336621,0.541655374145,-0.124030114094,-1.36534302984,0.078919771184,1.89749455786,0.158028465277,-0.00644265902538,-0.0385773037145,0.00156898827723,-0.0600130065611,-0.00138795757417,0.0249861547826,-0.00792900667943,0.573980306794,0.81885504944,0.00193967025398,0.0,0.818811795357,-0.573921782689,-0.0119070583798,0.0,-0.00863710215924,0.00842280406998,-0.999927225771,0.0,0.660591708934,0.259392250773,0.303318618492,1.0,-0.00682,-0.00896342857143,0.342
0.464143556252,0.540999928336,-0.124035365634,-1.36635347933,0.0788613617264,1.89786953335,0.157890285249,-0.00983832471105,-0.0481374949398,0.000707101538995,-0.0604526212411,-0.00345707445808,0.0245102128361,-0.00831748746111,0.573976624928,0.818857589712,0.00195670881188,0.0,0.818814550659,-0.57391802402,-0.0118987493303,0.0,-0.00862055671476,0.00843194796919,-0.999927291484,0.0,0.660475708679,0.25924115086,0.303333712837,1.0,-0.00716,-0.00941028571429,0.359
0.464050475797,0.540294555493,-0.124038590688,-1.36742178521,0.0788024222067,1.89825670492,0.157753612354,-0.000217531006436,-0.0389936162419,0.000108522204627,-0.063178686549,0.000342658304618,0.0190633953941,-0.00546474792299,0.573986528797,0.818850591179,0.00198014838566,0.0,0.818807802064,-0.573927775898,-0.0118927807079,0.0,-0.00860211397188,0.00844781951042,-0.999927316349,0.0,0.660352914494,0.259077001041,0.303357448317,1.0,-0.0075,-0.00985714285714,0.376
0.463957203165,0.53960076813,-0.124039247584,-1.36850289015,0.0787323311394,1.89866423955,0.15762383504,-0.00309417315039,-0.0456839875441,-0.00020869150688,-0.070480788413,-0.00902002271084,0.0264335045336,-0.00691416862772,0.57399821432,0.818842366897,0.00199374849564,0.0,0.818799801236,-0.573939449847,-0.0118802485731,0.0,-0.00858392521332,0.00845188506354,-0.999927438301,0.0,0.660230798293,0.258912129059,0.303368463499,1.0,-0.00782,-0.0102777142857,0.392
0.46385546383,0.538845584887,-0.124038620676,-1.36967034483,0.0786743525702,1.89911178992,0.157486807922,-0.00553371325148,-0.043025272204,0.00167454740929,-0.070346134714,-0.00277874933377,0.0230967246323,-0.0121898079078,0.574017981686,0.818828421242,0.00202981966245,0.0,0.818786218392,-0.573958962382,-0.0118737093824,0.0,-0.00855766228216,0.00847787428562,-0.9999274434,0.0,0.660099319561,0.258737650194,0.303385098972,1.0,-0.00816,-0.0107245714286,0.409
0.463746287513,0.538074339625,-0.124042469156,-1.37088198093,0.0786047287803,1.89957526544,0.15732824547,-0.01067464696,-0.0453677048528,0.000670484391981,-0.067671893316,-0.00182731115842,0.0268247436259,-0.0123357874245,0.574028584441,0.818820939796,0.00204931653545,0.0,0.818778984453,-0.573969478656,-0.0118641936699,0.0,-0.00853856946118,0.00848848703927,-0.999927516583,0.0,0.659964561044,0.258549842749,0.30339343518,1.0,-0.0085,-0.0111714285714,0.426
0.463636220245,0.537275587486,-0.124051013242,-1.37215299293,0.0785246809162,1.90004174762,0.157176483058,-0.00055084405603,-0.0511343569661,0.00036973546755,-0.0759433823339,-0.00360167270776,0.025211428651,-0.0114875231301,0.574049037939,0.818806624768,0.00203965149004,0.0,0.818764596048,-0.573990020758,-0.0118633565859,0.0,-0.0085432198469,0.00848030613539,-0.999927546276,0.0,0.65981897985,0.258350571992,0.303393199852,1.0,-0.00884,-0.0116182857143,0.443
0.463499588645,0.536332205007,-0.124060566014,-1.3736179282,0.078443149716,1.90060000466,0.156999492996,-0.00646264122524,-0.0511789195997,-0.00180091294903,-0.0764748581002,-0.00774559419868,0.0284709755285,-0.0132300399372,0.574081563586,0.818783741399,0.00207124920483,0.0,0.818742115293,-0.574022406719,-0.0118478745321,0.0,-0.00851206746725,0.00849762889753,-0.999927664889,0.0,0.659657410326,0.258118067498,0.303410609591,1.0,-0.00922,-0.0121177142857,0.462
0.463404332514,0.535562200098,-0.124057765065,-1.37482795155,0.0783712643409,1.90103108689,0.156844601501,-0.00453177619408,-0.0480624023673,0.000146968147946,-0.0834142224304,-0.00371222490421,0.0144155295762,-0.0115284316279,0.574077848417,0.818786361624,0.00206515807787,0.0,0.818744593129,-0.574018653481,-0.0118584813519,0.0,-0.00852428766039,0.00849869209637,-0.999927551752,0.0,0.659510692671,0.2579409683,0.303415369099,1.0,-0.00952,-0.012512,0.477
0.463274426284,0.534618290364,-0.124055983297,-1.37634751736,0.0782920571718,1.90158681802,0.156667883181,-0.0106599888354,-0.0487452142271,-0.00190925271525,-0.0834477798789,-0.012534669592,0.0200617609457,-0.0113032220877,0.574100380849,0.818770590143,0.00205434362573,0.0,0.818728529523,-0.574041076109,-0.0118821204521,0.0,-0.00854961775577,0.00850364333418,-0.9999272934,0.0,0.65933077799,0.257713246866,0.303406217236,1.0,-0.00988,-0.0129851428571,0.495
0.463156412494,0.53380284715,-0.124064153614,-1.37765906524,0.0782110973292,1.90206425501,0.156509697851,-0.00657682388159,-0.0524041115761,0.000139902926483,-0.0861348276665,-0.00544428890953,0.0269227627425,-0.00868475343793,0.574123300031,0.8187545685,0.00203465532898,0.0,0.818712278842,-0.574064099669,-0.0118895266906,0.0,-0.00856674665213,0.00849201509809,-0.999927245619,0.0,0.659179175593,0.257505025612,0.303398787884,1.0,-0.01018,-0.0133794285714,0.51
0.463028527738,0.532928713444,-0.124062086162,-1.37905145932,0.0781333355445,1.90260696558,0.156320458157,-0.00489114329471,-0.0576064809815,0.000457451552024,-0.0847654507384,-0.00537555351849,0.032976766421,-0.0157762750192,0.57412707042,0.818751867427,0.00205754619965,0.0,0.818709825207,-0.574067726212,-0.0118833805144,0.0,-0.00854853370487,0.00850726752215,-0.999927271841,0.0,0.659023041894,0.257292369067,0.303399453404,1.0,-0.0105,-0.0138,0.526
0.462892023406,0.53183764954,-0.124067721589,-1.38080095446,0.0780369705021,1.90324770234,0.156106157368,-0.00380923702784,-0.0631817930772,0.000772692752555,-0.0938985009842,-0.00234352855218,0.032239117612,-0.014818567146,0.57413693438,0.818744981566,0.00204515090231,0.0,0.818702685518,-0.57407754757,-0.0119007984623,0.0,-0.00856980879862,0.00850722227223,-0.999927090115,0.0,0.658813556458,0.257033692021,0.30339163427,1.0,-0.01088,-0.0142994285714,0.545
0.462776200072,0.530953586663,-0.124068040573,-1.38222663745,0.0779447703182,1.90375828746,0.155921790039,-0.00771858068005,-0.0567430297916,-0.000575838263999,-0.0991978945713,-0.00348898064587,0.0294717952884,-0.0113203428461,0.574133796357,0.818747257103,0.00201488690433,0.0,0.818704575617,-0.574074542802,-0.0119157069734,0.0,-0.00859942268807,0.00849097068635,-0.999926974007,0.0,0.658640965462,0.256819331262,0.303380338117,1.0,-0.01118,-0.0146937142857,0.56
0.462630941533,0.529864086196,-0.124074765734,-1.3839583659,0.0778357569338,1.90437537884,0.155698887252,-0.00644254957982,-0.0549771440668,0.000452112298707,-0.0974063919107,-0.0105894446218,0.0346826640407,-0.0156142944199,0.574139614142,0.818743239437,0.00198953535997,0.0,0.818700239691,-0.574080476543,-0.0119277358907,0.0,-0.008623765749,0.00847718197,-0.999926881352,0.0,0.658433099455,0.256552766175,0.303377346451,1.0,-0.01154,-0.0151668571429,0.578
0.462493632524,0.528810901496,-0.124074836873,-1.38561708152,0.0777352605024,1.90499668188,0.155463678703,-0.00882459209797,-0.0622127820291,0.00116565358575,-0.103499321674,-0.01165746627,0.0323492601365,-0.0164721957319,0.574122486336,0.818755219245,0.00200213507653,0.0,0.818712368121,-0.574063283364,-0.011922746354,0.0,-0.00861262438902,0.00848445288253,-0.99992691571,0.0,0.658237666085,0.256305170071,0.303383425058,1.0,-0.01188,-0.0156137142857,0.595
0.462361101552,0.527773058219,-0.12407298739,-1.38722857946,0.0776291544543,1.90562803459,0.155251153218,-0.0098345313909,-0.0650720386926,0.001320051231,-0.101542288324,-0.00914377214839,0.0325520431789,-0.0142878112697,0.574114522929,0.818760696625,0.00204526875124,0.0,0.818718500492,-0.574055236084,-0.0118890612925,0.0,-0.00856036368371,0.00850034577511,-0.9999272295,0.0,0.658053074502,0.256067035975,0.303401717971,1.0,-0.0122,-0.0160342857143,0.611
0.462221580095,0.526674501968,-0.124083060543,-1.38890755111,0.0775356750798,1.90626054266,0.155020595027,-0.00823238431789,-0.0620947317616,-0.000148127454738,-0.107430644107,-0.00900014317571,0.0485201843898,-0.0142599310267,0.574114626928,0.818760499548,0.00209438000879,0.0,0.818718894382,-0.574055093081,-0.0118688243161,0.0,-0.00851559896686,0.00852893833801,-0.999927368255,0.0,0.657844314555,0.255798193986,0.303430832412,1.0,-0.01254,-0.0164811428571,0.628
0.462050848517,0.525369590529,-0.124089002615,-1.39095401014,0.0774006641629,1.90700708333,0.15473737335,-0.0136343624091,-0.069432066604,-0.000974745797928,-0.108598704665,-0.0103628217083,0.0382779524589,-0.0120298449335,0.574098546277,0.818771790264,0.00208842821808,0.0,0.818730202351,-0.574039133158,-0.0118607024642,0.0,-0.00851253295909,0.00851923532179,-0.999927477076,0.0,0.657613323577,0.25549961109,0.303439724695,1.0,-0.0129,-0.0169542857143,0.646
0.461898539174,0.524183316354,-0.124092666449,-1.39282613332,0.0772788048134,1.90767973749,0.154489792654,-0.00769964449476,-0.073359739608,-0.000245778842096,-0.109020526641,-0.00886266790582,0.0379712361881,-0.0193704852212,0.574090739888,0.818777305911,0.00207185916643,0.0,0.818735535735,-0.57403142772,-0.0118654715382,0.0,-0.00852603069656,0.00850832587071,-0.999927454964,0.0,0.657385254506,0.255216662181,0.303441289724,1.0,-0.01324,-0.0174011428571,0.663
0.461740115947,0.522977706561,-0.124101802192,-1.39475137704,0.07716373784,1.90840203234,0.154218741092,-0.00959807360933,-0.0683035143095,-0.000717810241919,-0.115319657255,-0.00161101387874,0.044842439778,-0.0135606627935,0.574077314465,0.818786719896,0.00207153060438,0.0,0.818744952259,-0.574018012076,-0.0118647319353,0.0,-0.00852575321145,0.00850749246765,-0.999927464421,0.0,0.657156926832,0.254924926392,0.303435361192,1.0,-0.01358,-0.017848,0.68
0.461592739822,0.521885977774,-0.124099997083,-1.39648186058,0.0770566151902,1.90907464434,0.154002170325,-0.0140867310329,-0.0744542056142,-0.0012739662016,-0.122122173028,-0.00302204224715,0.04710273907,-0.0109596857859,0.574083278861,0.818782472506,0.00209727230152,0.0,0.818741065715,-0.57402389836,-0.0118481359155,0.0,-0.00849732519685,0.00851910369313,-0.999927607548,0.0,0.656955230104,0.254666382339,0.303437125849,1.0,-0.01388,-0.0182422857143,0.695
0.461426658488,0.520631637754,-0.124107823929,-1.39849155348,0.0769354501572,1.90982869467,0.153725707758,-0.00988252395153,-0.074287144632,-0.00318611181628,-0.118116481849,-0.00679650957543,0.0440768480198,-0.010252118698,0.574073128838,0.818789599502,0.00209317845987,0.0,0.818748145603,-0.574013772118,-0.0118494890553,0.0,-0.00850088880285,0.00851642320706,-0.999927600092,0.0,0.656715351434,0.254362241436,0.303427318558,1.0,-0.01422,-0.0186891428571,0.712
0.461228152127,0.519086973726,-0.124111365485,-1.40090874776,0.0767808722516,1.91070165491,0.153395000347,-0.00501641059554,-0.0769745168388,0.000987733361658,-0.118521660853,-0.00775686683104,0.0484017945761,-0.0172228767074,0.574054075581,0.818802968549,0.00208899606967,0.0,0.818761473295,-0.573994751018,-0.0118500022495,0.0,-0.00850390796692,0.00851309549016,-0.999927602757,0.0,0.656418891381,0.253997518183,0.303437118535,1.0,-0.01462,-0.0192148571429,0.732
0.461078350572,0.517970570162,-0.124120577575,-1.40264505384,0.0766599826649,1.91132968489,0.153157925593,-0.0148447802523,-0.0766264409785,1.66061456485e-05,-0.126622947264,-0.00949684692537,0.0516996463831,-0.0222255905833,0.574048412447,0.818806947021,0.00208580411154,0.0,0.818765541173,-0.573989232391,-0.0118362404297,0.0,-0.0084945303356,0.0085025232601,-0.999927772418,0.0,0.656209568067,0.253725534034,0.303448903197,1.0,-0.0149,-0.0195828571429,0.746
0.460876362713,0.516466766899,-0.124129331387,-1.4050379991,0.0765084013008,1.91219807316,0.152831080676,-0.00856392610032,-0.0828524123225,-0.00155615508432,-0.125619891425,-0.0117146677042,0.0403750379822,-0.0201967426544,0.574037958288,0.818814335279,0.00206244669469,0.0,0.818772651074,-0.573978898346,-0.0118455480262,0.0,-0.00851566760439,0.00848863258418,-0.999927710648,0.0,0.655917025063,0.253358120794,0.303440461254,1.0,-0.01528,-0.0200822857143,0.765
0.460721822584,0.515333935031,-0.124128052977,-1.40684033607,0.0764050922665,1.91288458378,0.152576024915,-0.00709301384867,-0.0789947702237,8.17355169342e-05,-0.130573055441,-0.00104284321718,0.0445827396896,-0.0197350096897,0.574022161601,0.818825367093,0.00207920603208,0.0,0.818783828316,-0.57396296401,-0.0118450552534,0.0,-0.00850580822229,0.00850190818371,-0.999927681777,0.0,0.655700760169,0.253088358655,0.303436484003,1.0,-0.01556,-0.0204502857143,0.779
0.460536468149,0.513944886376,-0.124134138215,-1.4090880436,0.0762648574004,1.91367716388,0.152280807865,-0.011323692006,-0.0857664097293,0.00399290371896,-0.13353052647,-0.00841157648882,0.0427763290058,-0.0153467957369,0.574016708539,0.818829338769,0.00201970060863,0.0,0.818786982667,-0.573957709261,-0.0118815779939,0.0,-0.00856992691516,0.00847409201205,-0.999927370421,0.0,0.655417413644,0.252745972009,0.303409234242,1.0,-0.0159,-0.0208971428571,0.796
0.460343738946,0.512539227116,-0.124134457297,-1.41136706884,0.0761393557645,1.91446387949,0.151959162981,-0.0124754487988,-0.0780200210365,-6.32548191102e-05,-0.133992722519,-0.0024406449928,0.0466280483786,-0.0177024391641,0.573996854729,0.818843415078,0.00195428922348,0.0,0.818799955074,-0.573937880796,-0.0119452693334,0.0,-0.00865983124822,0.00845688177586,-0.999926741553,0.0,0.655124754153,0.252400660556,0.303377623064,1.0,-0.01624,-0.021344,0.813
0.4601412817,0.511104012782,-0.124135154969,-1.41367040639,0.075998656245,1.91533341031,0.151633530266,-0.0137506230131,-0.0848201442294,0.000974125292794,-0.139488566375,-0.00442982347588,0.0512098614803,-0.0234151365942,0.573972936293,0.818860170949,0.00195850408272,0.0,0.818816770603,-0.573913952277,-0.0119422971729,0.0,-0.0086552253258,0.00845837421258,-0.999926768809,0.0,0.654863741409,0.252070925927,0.303366762993,1.0,-0.01656,-0.0217645714286,0.829
0.459949527448,0.509707165937,-0.124146855583,-1.41587405713,0.0758600308713,1.91616616703,0.15132134991,-0.0119735748428,-0.0894445525553,-0.00184267533221,-0.139784425354,-0.00467366393778,0.0457410092117,-0.0259105919596,0.573966368268,0.818864749294,0.00196910172937,0.0,0.818821533302,-0.573907386056,-0.0119312921208,0.0,-0.00864019885551,0.00846066619866,-0.999926879372,0.0,0.654581672211,0.251708030922,0.303363323812,1.0,-0.0169,-0.0222114285714,0.846
0.459760052445,0.50830758387,-0.124147230326,-1.41811440349,0.0757270370466,1.91695605422,0.151006715275,-0.0112078655639,-0.0872811656403,-2.2615902365e-06,-0.138921569543,-0.00659996020842,0.0506484977383,-0.0219915815541,0.573944474644,0.818880191138,0.00192859750965,0.0,0.818836306268,-0.573885527783,-0.0119687693099,0.0,-0.00869436129388,0.00844877733995,-0.999926510421,0.0,0.654295666692,0.251368547869,0.303344767473,1.0,-0.01722,-0.022632,0.862
0.459550417409,0.506764080933,-0.124149724239,-1.42051000747,0.0755665022091,1.91783285329,0.150683644593,-0.00893873083028,-0.0918004999575,0.000165405425579,-0.139300938627,-0.00823412176186,0.0518701056584,-0.0184306906405,0.573933815552,0.81888763098,0.00194167325587,0.0,0.818843995366,-0.573874891476,-0.0119527020593,0.0,-0.00867380934186,0.00845015007715,-0.999926677309,0.0,0.65399978704,0.250999637058,0.303359995694,1.0,-0.01756,-0.0230788571429,0.879
0.459327168156,0.505154521692,-0.124156128939,-1.42296999151,0.0754081300106,1.91877457035,0.150347017776,-0.0118477234355,-0.0908294344897,0.000104989119799,-0.140173816427,-0.00990667836226,0.0493037276223,-0.0252600292966,0.573929796997,0.81889027577,0.00201277681048,0.0,0.818847668032,-0.573870677236,-0.0119033300923,0.0,-0.00859261310491,0.00847999668719,-0.999927125673,0.0,0.653706368625,0.250617535892,0.30339592199,1.0,-0.0179,-0.0235257142857,0.896
0.459084862523,0.503400440544,-0.12415680365,-1.42559154996,0.0752435010217,1.91977722104,0.14996822534,-0.0120197787935,-0.0949737331339,-9.76727036294e-05,-0.140415235851,-0.00847056487574,0.0559961786419,-0.0207591625688,0.573912376395,0.818902191066,0.00212898766221,0.0,0.818861126232,-0.573852819704,-0.0118382500652,0.0,-0.00847280647146,0.00853762783787,-0.999927657614,0.0,0.653374278251,0.250187396442,0.303461632688,1.0,-0.01828,-0.0240251428571,0.915
0.458864479551,0.501795395698,-0.124168488517,-1.42795404418,0.0750847812645,1.92064324902,0.149647926066,-0.0145194754087,-0.0963829350208,-0.00371134420395,-0.147004275944,-0.00922339682926,0.0589357933974,-0.0197987199883,0.573913184406,0.818901409068,0.00221040578077,0.0,0.818861545262,-0.573853453971,-0.0117783682139,0.0,-0.00837703461878,0.00856994209998,-0.999928188113,0.0,0.65310596116,0.249835533101,0.303531731456,1.0,-0.01858,-0.0244194285714,0.93
0.458642231914,0.500170287648,-0.124168487016,-1.43039394314,0.0749276556355,1.92149885641,0.149303265496,-0.0138934085719,-0.0994242028186,-0.00195273333113,-0.150473875735,-0.00843575219395,0.0553887432454,-0.0212487007196,0.573894525239,0.818914392315,0.00224474088348,0.0,0.818874931317,-0.573834621025,-0.0117652655878,0.0,-0.00834679598679,0.00859034893645,-0.999928265878,0.0,0.652795597223,0.249455198292,0.303578486189,1.0,-0.0189,-0.02484,0.946
0.458388085124,0.498498239636,-0.124168676041,-1.4330138507,0.074770557326,1.92247642649,0.148936573904,-0.0136031462386,-0.095491539465,-0.00119871560854,-0.153245889773,-0.0152032145174,0.0585568192191,-0.0192694888178,0.573893479076,0.818915052032,0.00227137175835,0.0,0.81887586248,-0.573833396725,-0.0117601680261,0.0,-0.00832734996698,0.00860922100484,-0.999928265705,0.0,0.652474322839,0.249041474663,0.303582421916,1.0,-0.01924,-0.0252868571429,0.963
0.458100361993,0.496621213641,-0.124161048629,-1.43599747449,0.0745879826704,1.92354335783,0.148495218799,-0.0151296907327,-0.095071827396,0.00483339707352,-0.158684922769,-0.00580333902043,0.0575340135225,-0.02537321424,0.573863877463,0.818935880269,0.0022407703851,0.0,0.818896128888,-0.573803746732,-0.0117956444958,0.0,-0.00837427529672,0.00860421813947,-0.999927916874,0.0,0.652094989088,0.248572183227,0.30356298339,1.0,-0.01962,-0.0257862857143,0.982
0.457845298337,0.495060939812,-0.124161130586,-1.43855763439,0.0744267060272,1.92442786306,0.148134797232,-0.0181373764239,-0.0958561809326,0.000436232348943,-0.155079554191,-0.0152283887307,0.0599336207328,-0.0236249014773,0.573862953028,0.818936794268,0.00214126994819,0.0,0.818895623141,-0.573803085261,-0.011862741961,0.0,-0.00848633195828,0.00856122955146,-0.99992734112,0.0,0.651764473138,0.248156995836,0.303508213698,1.0,-0.01994,-0.0262068571429,0.998
0.457566016118,0.493261638632,-0.12420062915,-1.44137216584,0.0742572581591,1.9254492306,0.147721248232,-0.0140142800829,-0.134073525061,-0.00221279165901,-0.201045234189,-0.00442288111241,0.0747850739663,-0.0309590430684,0.5738771198,0.818926868617,0.00214059070717,0.0,0.818885743582,-0.573817308407,-0.011856746251,0.0,-0.00848166337963,0.00855737935774,-0.999927413688,0.0,0.651419962655,0.247683905192,0.30351115019,1.0,-0.02908,-0.0382194285714,1.014
0.457256665243,0.490616301451,-0.124273669973,-1.44543858799,0.0740343695432,1.92700783215,0.147119698891,-0.0277998221493,-0.177538886363,-0.00310403474308,-0.284280523523,-0.0158728074747,0.111723548436,-0.0444848171832,0.57382885961,0.818960394533,0.00224921452385,0.0,0.818920719633,-0.573768666435,-0.0117948834184,0.0,-0.00836917469249,0.0086103386534,-0.999927906893,0.0,0.65087751262,0.247020254688,0.303545069884,1.0,-0.04098,-0.0538594285714,1.031
0.45664382326,0.486401398889,-0.124303901741,-1.45216042532,0.0736667181039,1.92953818944,0.146118561066,-0.0373548286711,-0.253531306902,-0.00495623627363,-0.384828625802,-0.016527707947,0.146037844075,-0.0597295798676,0.573774430871,0.818998413847,0.00229074158375,0.0,0.818958927552,-0.573713721751,-0.0118147094043,0.0,-0.00836215938005,0.00865516807387,-0.999927578556,0.0,0.650069981244,0.246016761845,0.303503894273,1.0,-0.05358,-0.0704194285714,1.049
0.45601442948,0.482145128203,-0.124426041929,-1.4588825176,0.0732589298685,1.93194279214,0.145087711689,-0.04535186145,-0.299478228618,-0.00967130092155,-0.478088861972,-0.03144352656,0.171829551397,-0.0740188116167,0.573754356858,0.81901267253,0.002219712291,0.0,0.818972432191,-0.573694101088,-0.0118313392585,0.0,-0.00841674298661,0.00860633131928,-0.999927542124,0.0,0.649217907546,0.244893478758,0.303470491854,1.0,-0.06408,-0.0842194285714,1.064
0.455050087425,0.475970566314,-0.124585517703,-1.46861242448,0.0726811875761,1.93530744435,0.14365023278,-0.056308103294,-0.362706963979,-0.0101464456317,-0.566209777498,-0.0331382479959,0.195474872414,-0.0871666893815,0.573809983775,0.818974142429,0.00205023274631,0.0,0.818931518615,-0.573750225735,-0.0119412390164,0.0,-0.0086034101243,0.00853116663411,-0.999926597571,0.0,0.647882035558,0.243135038882,0.303413104648,1.0,-0.07738,-0.101699428571,1.083
0.453951873808,0.469137983497,-0.124708147893,-1.47914778633,0.0720774169085,1.93915180823,0.142082965069,-0.0664942664011,-0.430458427364,-0.00375488655382,-0.632860264354,-0.040419216462,0.246371960916,-0.0951245766331,0.573846620071,0.818948143136,0.00217770249313,0.0,0.818906934444,-0.573786090553,-0.0119038610929,0.0,-0.00849927317558,0.00861449198239,-0.999926773761,0.0,0.646616060736,0.241463389008,0.303458970547,1.0,-0.08858,-0.116419428571,1.099
0.452585186786,0.460878547355,-0.124784352449,-1.49184456987,0.0712754144975,1.9437918992,0.14004571598,-0.0853526648212,-0.474904429946,-0.00155445516757,-0.752239555041,-0.0426078748367,0.263352237465,-0.10645050211,0.573733192722,0.819027163876,0.00233993639951,0.0,0.818988030416,-0.573672000953,-0.0118232085039,0.0,-0.00834133352895,0.0086999145666,-0.999927364183,0.0,0.644975472407,0.239330145094,0.303514513347,1.0,-0.10118,-0.132979428571,1.117
0.451324217962,0.453758286687,-0.124885844769,-1.50296433669,0.0705484593736,1.94754067815,0.13834577887,-0.0960980727032,-0.531775899583,-0.00784117468878,-0.796611952626,-0.0605649354687,0.27904566789,-0.129650133647,0.573761909244,0.819007667423,0.00211165904427,0.0,0.818965315434,-0.573701375797,-0.0119703978829,0.0,-0.00859255138254,0.00859769939134,-0.999926121084,0.0,0.643473025247,0.237378283014,0.303446193219,1.0,-0.11098,-0.145859428571,1.131
0.449430870151,0.4429299261,-0.125039153168,-1.5192089744,0.0694648719998,1.95341297428,0.135814295032,-0.107402248702,-0.586030409315,-0.0064518530071,-0.870113757587,-0.0492757760703,0.313272157589,-0.142381699074,0.573789238093,0.818987554688,0.00245813276036,0.0,0.818950229808,-0.573727882214,-0.0117296704637,0.0,-0.008196312632,0.00874361540916,-0.999928182246,0.0,0.641343442383,0.234525261514,0.303649185066,1.0,-0.12428,-0.163339428571,1.15
0.447747293213,0.433655259446,-0.125148123745,-1.53326517182,0.0685394491768,1.95825146409,0.133534076966,-0.123496476526,-0.64831353604,-0.00705844475165,-0.943291934294,-0.0672206303618,0.34762759369,-0.157221523135,0.573745751707,0.819017898189,0.00249834856932,0.0,0.818980840322,-0.57368398059,-0.0117396976135,0.0,-0.00818191743989,0.00878187032101,-0.999927964896,0.0,0.639416111727,0.232033890761,0.303715989485,1.0,-0.13478,-0.177139428571,1.165
0.445760589204,0.423078631102,-0.125267795103,-1.54921144506,0.0674195330009,1.96385920436,0.130877417898,-0.127039467109,-0.679311237787,-0.00733875739898,-1.02701063381,-0.0665718382664,0.352598034697,-0.178279174291,0.573659908482,0.81907754069,0.002653043323,0.0,0.819042883124,-0.573598027963,-0.0116105478846,0.0,-0.00798831238899,0.00883363216403,-0.999929074389,0.0,0.637232324122,0.229166970095,0.303813623304,1.0,-0.14598,-0.191859428571,1.181
0.442936953309,0.408854279767,-0.125431836369,-1.57051138323,0.0659153850994,1.97134152189,0.127338180217,-0.146414307164,-0.712908736157,-0.00553228689531,-1.09556853759,-0.0685197245271,0.37344037399,-0.182710505887,0.573662038923,0.819075073039,0.00293883079508,0.0,0.81904458997,-0.573599780096,-0.0114017023662,0.0,-0.00765328485004,0.00894792956552,-0.999930678491,0.0,0.634284698959,0.225242331432,0.303965720814,1.0,-0.15998,-0.210259428571,1.201
0.440395885346,0.396674085434,-0.125570862358,-1.58872898554,0.0647178573689,1.97751956939,0.124237132077,-0.167624993436,-0.77639187123,-0.0131629986726,-1.15146861122,-0.0753878886784,0.405487714659,-0.19177417954,0.573705811603,0.819043902822,0.00307796758752,0.0,0.819014468172,-0.573642243262,-0.0114291106784,0.0,-0.0075954374199,0.00907802198442,-0.99992994697,0.0,0.631677758346,0.221822629567,0.304046633322,1.0,-0.17118,-0.224979428571,1.217
0.437636608583,0.383999063687,-0.12569771478,-1.60797084345,0.0632631960682,1.98391752866,0.120888970041,-0.179108801399,-0.829363553735,-0.0104620534642,-1.21832925746,-0.0954126976355,0.388854994647,-0.219242067454,0.573648733418,0.819084651114,0.00286563400693,0.0,0.819052651726,-0.573586042955,-0.0115131198426,0.0,-0.00778668199666,0.00895176409683,-0.999929614274,0.0,0.628849060081,0.218154002972,0.303954417265,1.0,-0.18238,-0.239699428571,1.233
0.434201705906,0.368805242637,-0.125855214087,-1.63056849026,0.0615668887056,1.99145729184,0.116842236932,-0.200955383111,-0.841764513172,-0.00659466865863,-1.28477622359,-0.0968023335529,0.413705212237,-0.219528213905,0.573619172965,0.819105158959,0.00292059487135,0.0,0.81907401319,-0.573556477636,-0.0114662452577,0.0,-0.00771708311521,0.00896961417678,-0.999929993874,0.0,0.625497079034,0.213751323856,0.304000440446,1.0,-0.19498,-0.256259428571,1.251
0.430807461189,0.354679461047,-0.126040295465,-1.65143626445,0.059957010241,1.9983217976,0.113035208528,-0.223093862239,-0.866842969636,-0.0113161787801,-1.318044797,-0.109392611094,0.421834401391,-0.245699705066,0.573695027325,0.819051906833,0.0029557465095,0.0,0.819021515003,-0.573632564325,-0.0114099083936,0.0,-0.00764994206195,0.00896680033053,-0.999930535026,0.0,0.622357588688,0.209539258524,0.304045697027,1.0,-0.20618,-0.270979428571,1.267
0.426839730263,0.338940074345,-0.126244655626,-1.67450399128,0.0582486071823,2.00577440718,0.108687118997,-0.23723030185,-0.941022587366,-0.0109144125424,-1.36647758618,-0.108728615382,0.436654124245,-0.256083261148,0.573823927509,0.818961261686,0.00304942240132,0.0,0.818931497765,-0.57376047724,-0.0114395641273,0.0,-0.0076190685092,0.00906173813748,-0.999929914893,0.0,0.618809542677,0.204786936299,0.304105464426,1.0,-0.21808,-0.286619428571,1.284
0.422655141933,0.322649850886,-0.126384145768,-1.69836108775,0.0563075147937,2.01344075352,0.104020553198,-0.240893368702,-0.972719482448,-0.00226547636871,-1.42312481192,-0.115227593508,0.444463926214,-0.278763609361,0.573722433741,0.819032350519,0.00305364143137,0.0,0.819002858805,-0.573659242972,-0.0114077659516,0.0,-0.00759172589392,0.00904600647101,-0.999930265301,0.0,0.61503656137,0.199876697164,0.30410248788,1.0,-0.22998,-0.302259428571,1.301
0.418690191227,0.307683004021,-0.126529176393,-1.71995701388,0.0545446311921,2.02027910431,0.0996636568193,-0.270992132148,-1.03474676658,-0.0151876651891,-1.44938197187,-0.12283065742,0.478314561666,-0.297739354875,0.573637000574,0.819091728859,0.00317461637499,0.0,0.819063850137,-0.573573530777,-0.0113384783606,0.0,-0.00746652167364,0.00910455951965,-0.999930676622,0.0,0.611553314476,0.195345801655,0.304172832335,1.0,-0.24048,-0.316059428571,1.316
0.413500645559,0.289082337137,-0.126707819742,-1.74662758713,0.0523235264699,2.02848683329,0.0941471163035,-0.297896727362,-1.06487702565,-0.0182799894221,-1.50041417289,-0.12036673258,0.483620391258,-0.311538816102,0.573587831018,0.819125935419,0.0032324810205,0.0,0.819098601458,-0.573523956863,-0.0113357353599,0.0,-0.00743163260697,0.00914993670587,-0.999930522334,0.0,0.607142945469,0.189607407941,0.304231532821,1.0,-0.25308,-0.332619428571,1.334
0.408182325968,0.271008380391,-0.126894925122,-1.772467898,0.0501519517027,2.0363077814,0.0885552948916,-0.321165400084,-1.09711938601,-0.0249623837406,-1.53043743864,-0.141398062854,0.480476519382,-0.343446630603,0.573520806708,0.819172838473,0.00323911746311,0.0,0.819145100766,-0.573456320328,-0.0113973448093,0.0,-0.00747904691178,0.00919009852792,-0.999929800509,0.0,0.602772774395,0.183916136988,0.304222292635,1.0,-0.26498,-0.348259428571,1.351
0.403059640942,0.254610048703,-0.12710826923,-1.7956773738,0.0481007198678,2.04318461935,0.0834416600209,-0.346561572931,-1.09360739202,-0.0154477020662,-1.53772342875,-0.125805156539,0.474630053941,-0.344215253257,0.573617125178,0.819105451896,0.00322479120139,0.0,0.819077540185,-0.573552681436,-0.0114040204719,0.0,-0.00749165193896,0.00918307228601,-0.999929770701,0.0,0.598786407691,0.178606100043,0.304229240231,1.0,-0.27548,-0.362059428571,1.366
0.396856120896,0.235367200197,-0.127333471585,-1.82261471574,0.0456902229812,2.05094588163,0.077259236916,-0.370237973195,-1.13913320997,-0.00946106880157,-1.58848962786,-0.130622410775,0.462558252152,-0.364652802552,0.573647596626,0.819084103283,0.00322700095559,0.0,0.819055843621,-0.57358268129,-0.0114533687877,0.0,-0.00753046542723,0.00921346885621,-0.999929199535,0.0,0.594029983985,0.172362684924,0.304255595905,1.0,-0.28738,-0.377699428571,1.383
0.390276031993,0.21558522111,-0.127530412934,-1.85004411315,0.0431486945588,2.05877266344,0.0706581748367,-0.400539021512,-1.17979839697,-0.0137842200683,-1.58200673819,-0.152482222163,0.472340811295,-0.386409710599,0.573517423982,0.819174928307,0.0033087948358,0.0,0.819147605179,-0.573452135399,-0.0114278710687,0.0,-0.00746413370689,0.00926465291595,-0.999929223953,0.0,0.589071304065,0.165941463757,0.304284700593,1.0,-0.29928,-0.393339428571,1.4
0.383147398003,0.195256494095,-0.127778544996,-1.87795254511,0.0404622577105,2.06637489436,0.0637021765996,-0.43499958808,-1.21488103768,-0.00820149048424,-1.62871930176,-0.157120812961,0.464160792789,-0.415852438201,0.573470396323,0.819208082969,0.00325088309841,0.0,0.819179805717,-0.573405032804,-0.0114830815756,0.0,-0.00754310574259,0.00924844318832,-0.999928781391,0.0,0.583886072116,0.159193515383,0.304292882053,1.0,-0.31118,-0.408979428571,1.417
0.375376198906,0.174364101066,-0.128197495639,-1.90620278075,0.0377582644634,2.07391317213,0.0562817438113,-0.466465193592,-1.24098370888,-0.0286109028649,-1.70181266519,-0.158490014829,0.451518886589,-0.441005171748,0.573634048054,0.819093058161,0.00335974511368,0.0,0.819065785046,-0.573567835389,-0.0114858554323,0.0,-0.00748108675341,0.00934070985367,-0.999928389676,0.0,0.578564505701,0.152051223898,0.304358232621,1.0,-0.32308,-0.424619428571,1.434
0.367636230865,0.154274824845,-0.128491301788,-1.93304882623,0.0349863572888,2.08085782664,0.048917389192,-0.492977199414,-1.26449714096,-0.0124726732262,-1.71054677869,-0.18445229518,0.444364632932,-0.469048181253,0.573575506344,0.819133891374,0.00339903308219,0.0,0.819107462572,-0.57350960801,-0.011421084919,0.0,-0.00740616219437,0.00933520766022,-0.999928998809,0.0,0.573018620172,0.144760157881,0.30441771325,1.0,-0.33498,-0.440259428571,1.451
0.35887367918,0.132448425269,-0.128816105918,-1.96192869772,0.0319509892972,2.0880259355,0.040696087197,-0.528204206794,-1.30439827054,-0.0138101199404,-1.73279374643,-0.178838467306,0.415972511972,-0.498426134694,0.573560135065,0.819144516268,0.00343217621579,0.0,0.819118403991,-0.573494002095,-0.0114200133768,0.0,-0.00738645107152,0.00936160335882,-0.999928897834,0.0,0.567597646969,0.137678950898,0.304460098083,1.0,-0.34618,-0.454979428571,1.467
0.349389310389,0.110166577848,-0.129258665265,-1.99103433378,0.0287570777796,2.09501001569,0.0319277573978,-0.576187381625,-1.33814273837,-0.027515156097,-1.71245267578,-0.194923511017,0.393578235015,-0.53143970156,0.573625751283,0.81909847913,0.00345338287458,0.0,0.819073016079,-0.573560026901,-0.0113594354283,0.0,-0.00732391491675,0.00934481732518,-0.999929514846,0.0,0.561677454541,0.129792324875,0.304500480654,1.0,-0.35808,-0.470619428571,1.484
0.33934782173,0.0874784944151,-0.129616385224,-2.02038087432,0.0255071636395,2.10168583343,0.0226206505436,-0.60026135578,-1.33678804261,-0.0229639241415,-1.73754960623,-0.183547314472,0.371688157804,-0.554177726933,0.573531662812,0.819164523936,0.00341487584215,0.0,0.819138065693,-0.573465428992,-0.0114445613855,0.0,-0.00741680823581,0.00936125334666,-0.999928676402,0.0,0.555501317913,0.121770315699,0.304485674929,1.0,-0.36998,-0.486259428571,1.501
0.328644934656,0.0646166966882,-0.130008250428,-2.0496050626,0.0221745153321,2.10803226483,0.012825823062,-0.641876300441,-1.31391815242,-0.025215841084,-1.73205880989,-0.199968819314,0.351217141386,-0.59160540495,0.573484595687,0.819197714567,0.00335706107129,0.0,0.819169916945,-0.573417801016,-0.0115507381123,0.0,-0.00753748480571,0.00937435430052,-0.999927651285,0.0,0.549197238388,0.113527972333,0.304442051318,1.0,-0.36998,-0.486259428571,1.518
0.317239758431,0.0419189507692,-0.130493877223,-2.07815888212,0.0187637370403,2.11375113392,0.00283693209458,-0.688202819889,-1.3275141508,-0.0210796799667,-1.69639169898,-0.196982450999,0.321239706043,-0.583246471375,0.573804029354,0.818974667533,0.003190100043,0.0,0.818944108608,-0.573737001638,-0.0117109704254,0.0,-0.00776085909765,0.0093324953333,-0.999926334085,0.0,0.542878616274,0.105052216665,0.304403883168,1.0,-0.36998,-0.486259428571,1.535
0.306261565099,0.020746787824,-0.13084488441,-2.10425513994,0.0155786262115,2.1187975703,-0.00689076688897,-0.695307732487,-1.30430447011,-0.0244779568143,-1.655033236,-0.207301133293,0.306738266109,-0.624506221638,0.573873597163,0.818925563963,0.00328055910818,0.0,0.818895901596,-0.573805919982,-0.0117053596405,0.0,-0.00770356232527,0.009404014308,-0.999926107091,0.0,0.536598136491,0.0967418257732,0.304463648609,1.0,-0.36998,-0.486259428571,1.552
0.294111646515,-0.00149090912035,-0.131298250096,-2.13115945594,0.0122127956722,2.12366917676,-0.0175466273639,-0.728943137284,-1.28174223672,-0.0241544273567,-1.58506741626,-0.198352598268,0.259296038418,-0.638813264943,0.574088986957,0.818774140988,0.00338939603478,0.0,0.818745737929,-0.574020732031,-0.0116774450451,0.0,-0.00761575306952,0.00947912865641,-0.99992607048,0.0,0.530709583578,0.0888280990982,0.304539778968,1.0,-0.36998,-0.486259428571,1.568
0.281719797769,-0.0234574544813,-0.131557081845,-2.15737685341,0.0088121403868,2.12814927672,-0.0285560857645,-0.737275584787,-1.28199241045,-0.0175854171425,-1.5336829182,-0.209583016082,0.240819078685,-0.654727511584,0.573954822085,0.818867599182,0.00353045558477,0.0,0.818841161093,-0.573886307939,-0.0115933325874,0.0,-0.00746746807342,0.00954511526586,-0.999926561151,0.0,0.524434324645,0.0806318379434,0.30461515799,1.0,-0.36998,-0.486259428571,1.585
0.267969729428,-0.0463506951252,-0.13200417248,-2.18440691941,0.00524450071501,2.13234956746,-0.0405086054862,-0.774450640714,-1.25361596675,-0.0242627706521,-1.49537625011,-0.199646177803,0.219030594794,-0.674762012704,0.574162695137,0.818721656815,0.00357702063418,0.0,0.818695334919,-0.574093381099,-0.0116398136209,0.0,-0.00747636756581,0.00961182192293,-0.999925855655,0.0,0.517791778513,0.0717821473113,0.30462664613,1.0,-0.36998,-0.486259428571,1.603
0.256317175851,-0.0653088572862,-0.132223134544,-2.20637487491,0.00224773556164,2.13549950344,-0.050816128066,-0.783786876187,-1.23841079914,-0.0178503984909,-1.47209777584,-0.20386539105,0.199229646548,-0.69449428659,0.574015657163,0.818824346585,0.00366901530031,0.0,0.818799225579,-0.573946087708,-0.0115958396201,0.0,-0.00738928108927,0.00966056638229,-0.999926033256,0.0,0.512230632417,0.0645795931902,0.304673183038,1.0,-0.36998,-0.486259428571,1.618
0.23933082875,-0.0913480010277,-0.132687690991,-2.23619067074,-0.00188072905721,2.13925140019,-0.065774775657,-0.825727579588,-1.22530062545,-0.0150586933915,-1.39711208597,-0.193762296135,0.152239344158,-0.716401217089,0.574004138015,0.818832348194,0.0036853757904,0.0,0.818806533274,-0.573933335738,-0.0117104269096,0.0,-0.0074738602389,0.00973963079687,-0.999924637663,0.0,0.504456791148,0.0543788907858,0.304664584562,1.0,-0.36998,-0.486259428571,1.639
0.227744753682,-0.108538561874,-0.132886268238,-2.25550126958,-0.00471428196258,2.14141483834,-0.0760162299124,-0.841327695961,-1.20997361041,-0.0245697621179,-1.39084338829,-0.205748026754,0.145000040063,-0.738356726113,0.573813494302,0.818965974036,0.00368157976604,0.0,0.818940325247,-0.573743012461,-0.0116810204054,0.0,-0.00745422110534,0.00971790836674,-0.99992499561,0.0,0.499270151385,0.0476867703412,0.304684202476,1.0,-0.36998,-0.486259428571,1.653
0.213961300822,-0.12797451912,-0.133267193211,-2.27706408128,-0.00787736868117,2.14351975958,-0.0880659648276,-0.863799270382,-1.20735875565,-0.019636745153,-1.33857957289,-0.189976721587,0.117940134157,-0.756885015453,0.573869795889,0.818926497879,0.0036871857874,0.0,0.818900454022,-0.573798678398,-0.011741804464,0.0,-0.00750011687713,0.00975789291615,-0.999924263018,0.0,0.493337730179,0.0398920112257,0.304685230224,1.0,-0.36998,-0.486259428571,1.669
0.198962746464,-0.148336131695,-0.1335709399,-2.29935684449,-0.0112575268335,2.14544785812,-0.101363042291,-0.888926246208,-1.19098847865,-0.0140213132591,-1.304716692,-0.209837733413,0.117622445876,-0.786212873367,0.573674431076,0.819063406604,0.00367831393044,0.0,0.819037199529,-0.573603308839,-0.0117497565051,0.0,-0.0075140472171,0.00975339860209,-0.999924202282,0.0,0.48703723476,0.031708691166,0.304668495248,1.0,-0.36998,-0.486259428571,1.686
0.184313259177,-0.167254436154,-0.134035702956,-2.31970716144,-0.0143397662427,2.14674737548,-0.114180272079,-0.920219731339,-1.20132961928,-0.0222053469628,-1.23967088471,-0.188700680151,0.0839409494501,-0.809367963691,0.573825804822,0.818957426786,0.00366411439574,0.0,0.818929862125,-0.573753194379,-0.0119121685931,0.0,-0.00765340895119,0.0098363518073,-0.999922332741,0.0,0.481094476076,0.0238859557504,0.304653878246,1.0,-0.36998,-0.486259428571,1.702
0.168321539731,-0.187065701696,-0.134489502425,-2.34079256017,-0.0176504285685,2.14778444164,-0.128336996457,-0.960288418062,-1.15596280475,-0.036037639537,-1.22183171125,-0.196703758412,0.0481868355113,-0.840360779864,0.573832388573,0.818953217306,0.00357275655634,0.0,0.818923298044,-0.573758638212,-0.0120997479232,0.0,-0.00785937887127,0.00986923084741,-0.999920411056,0.0,0.474387079654,0.0151082171489,0.30460068458,1.0,-0.36998,-0.486259428571,1.72
0.149837410724,-0.208965365319,-0.135030254215,-2.36348987169,-0.0212444988417,2.148650538,-0.1447176632,-0.979762729213,-1.13931477657,-0.0307231672398,-1.18474346565,-0.182854314125,0.0222243438194,-0.872695648567,0.573851892638,0.818938919812,0.00371454352455,0.0,0.818910239616,-0.573776814448,-0.0121216151869,0.0,-0.00779569358817,0.00999808203865,-0.999919629529,0.0,0.467723436615,0.00635300879513,0.304623511924,1.0,-0.36998,-0.486259428571,1.738
0.134792043666,-0.226003886953,-0.135518632286,-2.38072797226,-0.0241347867849,2.14900469791,-0.157963136446,-1.00620957306,-1.1138418037,-0.0319992363465,-1.15764532759,-0.202385267283,0.0135808042383,-0.888273752468,0.574000780808,0.818833913909,0.00385641875367,0.0,0.81880758996,-0.573925801925,-0.0120021418537,0.0,-0.00761460916843,0.0100470971787,-0.999920533625,0.0,0.462210995565,-0.000997482536994,0.304704541018,1.0,-0.36998,-0.486259428571,1.753
0.117360632902,-0.244951502391,-0.135979157599,-2.39965036421,-0.0273164291113,2.14914690514,-0.17354820374,-1.03867743424,-1.11236534505,-0.0370830828055,-1.09515387649,-0.180686441599,0.0171423929041,-0.933635151875,0.573951379546,0.8188676881,0.00403363416847,0.0,0.818844140765,-0.573876406335,-0.0118697215198,0.0,-0.00740506650868,0.0101157555056,-0.999921415152,0.0,0.45597387169,-0.0092329073294,0.304775925343,1.0,-0.36998,-0.486259428571,1.77
0.0994348150251,-0.26350846919,-0.136445878383,-2.41811646118,-0.0304934083817,2.14895951704,-0.189623031264,-1.05778154367,-1.08514171936,-0.0194880834357,-1.08752606616,-0.192793764423,-0.0144270486438,-0.945366942146,0.57388209254,0.818916239804,0.00403521354802,0.0,0.81889231702,-0.573806584274,-0.0119215716645,0.0,-0.00744747992428,0.0101461772105,-0.999920791928,0.0,0.449664618276,-0.0174625769097,0.304735182276,1.0,-0.36998,-0.486259428571,1.787
0.0798919305992,-0.282762659713,-0.137035058102,-2.43676458765,-0.0337488922483,2.14850933381,-0.207194130939,-1.09336578783,-1.05295164244,-0.0335948798274,-1.0333424706,-0.167731062919,-0.0389439540648,-0.989086611859,0.573923154517,0.818886426053,0.00424038161939,0.0,0.818865556703,-0.573847471962,-0.0117909231597,0.0,-0.00722223370403,0.0102395834136,-0.999921492054,0.0,0.443066370653,-0.0262128641294,0.304783133657,1.0,-0.36998,-0.486259428571,1.805
0.0620143817449,-0.299623814362,-0.137545866179,-2.452725651,-0.0366252044127,2.14778684615,-0.223382634107,-1.13726437202,-1.06216705917,-0.0434334762016,-0.98423153783,-0.185727585873,-0.036514904541,-1.02759356266,0.573887154872,0.818910653469,0.00442967359398,0.0,0.818892952557,-0.573811906426,-0.0116178827045,0.0,-0.00697234270691,0.0102949803495,-0.999922696921,0.0,0.437189798512,-0.0339950649451,0.304865688991,1.0,-0.36998,-0.486259428571,1.821
0.0414048339055,-0.318024286415,-0.138076455517,-2.4702057602,-0.0398219694106,2.14655929046,-0.242038475641,-1.15855876105,-1.00876279998,-0.0297064218878,-0.9638045682,-0.17458303681,-0.0736323871479,-1.0536814977,0.573852080333,0.818935702699,0.00434184799181,0.0,0.818915681773,-0.573775398755,-0.0118171414361,0.0,-0.00718637182298,0.0103370976262,-0.999920747096,0.0,0.430469729201,-0.0426965614777,0.304786167801,1.0,-0.36998,-0.486259428571,1.839
0.022541108742,-0.334009805168,-0.1386523145,-2.48489240796,-0.0425582311615,2.14538619986,-0.259201673428,-1.18775878978,-0.983065927717,-0.0261088681292,-0.926874363878,-0.169228757324,-0.0798487886874,-1.09802530345,0.573917237437,0.818888999213,0.00453414178286,0.0,0.818871927,-0.573840582535,-0.0116833175647,0.0,-0.00696559977545,0.0104183393452,-0.999921466229,0.0,0.424599644263,-0.0504999904534,0.304843204895,1.0,-0.36998,-0.486259428571,1.855
0.00198398905278,-0.350559137014,-0.139220928971,-2.49988625974,-0.0455014840912,2.14375485286,-0.277956581509,-1.21421188126,-0.975337154735,-0.0271212650108,-0.844814030376,-0.173607891916,-0.102542591432,-1.10383375291,0.573924862983,0.818883554346,0.00455224921914,0.0,0.818866825545,-0.573848312922,-0.0116611611954,0.0,-0.00693696615117,0.0104205168357,-0.999921642595,0.0,0.418310460134,-0.0587823176764,0.304875803851,1.0,-0.36998,-0.486259428571,1.872
-0.0190466025137,-0.3666527749,-0.139846411114,-2.51415963341,-0.0482019032804,2.14206359195,-0.297314013329,-1.24993441909,-0.931805559208,-0.0434922374899,-0.826903215011,-0.1643562503,-0.100298511258,-1.14887245999,0.573978788052,0.818844259593,0.00481417687201,0.0,0.818831175609,-0.573901828244,-0.01153014698,0.0,-0.00667865834335,0.0105602612151,-0.999921935156,0.0,0.412065231887,-0.0670486882387,0.30495242512,1.0,-0.36998,-0.486259428571,1.889
-0.0379405744698,-0.38031229481,-0.140237344353,-2.52624996002,-0.0506633478435,2.14029373885,-0.314818693424,-1.27187534148,-0.89974348743,-0.0348128022107,-0.766382660056,-0.157770849269,-0.124311321118,-1.14981658225,0.573796049033,0.818972770798,0.00473726792395,0.0,0.818958461472,-0.573718986986,-0.0115891870241,0.0,-0.00677349846485,0.0105296581051,-0.999921619938,0.0,0.406514991039,-0.0742540305056,0.304937761625,1.0,-0.36998,-0.486259428571,1.904
-0.0625388196348,-0.397027954534,-0.140851372836,-2.54074212247,-0.0535317697456,2.13806516718,-0.337652973839,-1.30450598738,-0.856031547568,-0.0169058083902,-0.739729107474,-0.143734173362,-0.130965947304,-1.23828282691,0.573778799504,0.818983832533,0.00491102731224,0.0,0.818971842845,-0.573701337603,-0.0115170639019,0.0,-0.00661495355426,0.0106304448566,-0.999921614944,0.0,0.399527625641,-0.0834525005523,0.304968410444,1.0,-0.36998,-0.486259428571,1.923
-0.083680609673,-0.410483424966,-0.141411177667,-2.55232059058,-0.0559692351555,2.13588163854,-0.357412252384,-1.32561116104,-0.82733196521,-0.0352182635382,-0.688393267596,-0.141390101797,-0.125838275928,-1.27214853831,0.573709079707,0.819032963007,0.00486253750083,0.0,0.819019300252,-0.573630114811,-0.0116886311383,0.0,-0.00678420686679,0.0106885916633,-0.999919861062,0.0,0.393583859261,-0.0911908983957,0.304933191221,1.0,-0.36998,-0.486259428571,1.939
-0.106679366146,-0.424272625311,-0.14198133235,-2.56383758784,-0.0584943861838,2.13371285541,-0.378994964861,-1.3535966672,-0.796962280361,-0.0283555773542,-0.66644176862,-0.153717481768,-0.13664262375,-1.28324607044,0.573619100898,0.819095335194,0.00497049784403,0.0,0.8190843113,-0.57354181323,-0.0114641336328,0.0,-0.00653955594127,0.0106475078279,-0.999921929345,0.0,0.387349749627,-0.0994488982879,0.305001787386,1.0,-0.36998,-0.486259428571,1.956
-0.12879767694,-0.436524791234,-0.142561803141,-2.57422985408,-0.0606379109263,2.13135593151,-0.399747402156,-1.38391795767,-0.74556253575,-0.0235740165632,-0.632744247672,-0.135612401895,-0.14985329532,-1.29128162142,0.57370352564,0.819036231736,0.00496615275886,0.0,0.819022598559,-0.573622137205,-0.0118479390506,0.0,-0.00685532818094,0.0108648049235,-0.99991747684,0.0,0.381352853908,-0.107194587358,0.304902039652,1.0,-0.36998,-0.486259428571,1.972
-0.151327820238,-0.448302859681,-0.143179495575,-2.58361860125,-0.0628023674209,2.12928025439,-0.421038587208,-1.42218309435,-0.700455434052,-0.041450478016,-0.574561959736,-0.133847659793,-0.121033146136,-1.35762460184,0.573736121191,0.819011945341,0.00520033949267,0.0,0.819003511065,-0.57365752953,-0.0114470335491,0.0,-0.00639216637838,0.0108268813819,-0.9999209563,0.0,0.375535825692,-0.115022618061,0.305049094827,1.0,-0.36998,-0.486259428571,1.988
-0.17569237933,-0.459923924663,-0.143753007606,-2.59319194233,-0.0649765223108,2.12677782814,-0.444167075121,-1.44631072165,-0.662143208574,-0.0424591242259,-0.538714929165,-0.113356505468,-0.145413744137,-1.37564101877,0.573708236625,0.819031795733,0.00515011730023,0.0,0.819020910106,-0.57362679978,-0.0117384106573,0.0,-0.00666001448017,0.0109526875105,-0.999917838046,0.0,0.369198873459,-0.123252335859,0.304973248066,1.0,-0.36718,-0.482579428572,2.005
-0.200248054112,-0.470555238034,-0.14409660774,-2.60186430755,-0.0668045217098,2.12452368621,-0.46752319924,-1.45385312429,-0.600623778403,-0.0250902045903,-0.478127255061,-0.0936641087032,-0.128166813893,-1.37196970113,0.573684674189,0.81904773629,0.00523900561578,0.0,0.819036722092,-0.573600818658,-0.0119035961221,0.0,-0.00674464540267,0.0111200627452,-0.999915423405,0.0,0.362661726336,-0.131801105817,0.304910109172,1.0,-0.35458,-0.466019428572,2.023
-0.224660835983,-0.480229964207,-0.144296691863,-2.60940728476,-0.0684802617726,2.12240394876,-0.490605716976,-1.43588017654,-0.553459894345,-0.0127701264777,-0.432319321514,-0.0888581511513,-0.119708782275,-1.34621600037,0.573753037421,0.8189991462,0.0053476607694,0.0,0.818990496559,-0.573670383533,-0.0117304946279,0.0,-0.00653959638769,0.01111030418,-0.999916893957,0.0,0.357077891066,-0.139225656431,0.304984856184,1.0,-0.34338,-0.451299428572,2.039
-0.247317141134,-0.488401367657,-0.144308220506,-2.61590883131,-0.0698342996057,2.12043996881,-0.512121803201,-1.42020938177,-0.485282747562,0.00105399429589,-0.38620726178,-0.0790352614497,-0.117172378101,-1.34723768739,0.573751540693,0.81900003927,0.00537141779598,0.0,0.818990706498,-0.573667124781,-0.0118743216894,0.0,-0.00664379204047,0.0112122674905,-0.999915068936,0.0,0.351241009912,-0.146809079529,0.304949833502,1.0,-0.33148,-0.435659428572,2.056
-0.273792666041,-0.496914776765,-0.144195198403,-2.62255562924,-0.0711286279937,2.1183993608,-0.537260416762,-1.38386842939,-0.423294333062,0.00714898309016,-0.327336803247,-0.062186137961,-0.0975493365045,-1.30998711061,0.573806553847,0.818960765707,0.00548177861862,0.0,0.818952765499,-0.573721552727,-0.0118614805044,0.0,-0.00656919909292,0.0112957304891,-0.999914622403,0.0,0.345333202197,-0.154570915584,0.304958918499,1.0,-0.31888,-0.419099428572,2.074
-0.296792376411,-0.503495453599,-0.143987172882,-2.62759646909,-0.0720143550598,2.11673296476,-0.559224777506,-1.33923057509,-0.374134187178,0.00745436931064,-0.281855907415,-0.0401642583022,-0.0937675644921,-1.26698602658,0.573827006359,0.818945377284,0.00563761466339,0.0,0.818939276699,-0.573741212683,-0.0118418263066,0.0,-0.00646340147927,0.0114122435351,-0.99991398887,0.0,0.340002924225,-0.161584914999,0.304988549238,1.0,-0.30698,-0.403459428572,2.091
-0.319371928414,-0.50921671567,-0.143746883305,-2.63185177529,-0.0727608241679,2.11535362802,-0.580771522894,-1.30731806051,-0.325666115765,0.0113035148875,-0.238722316256,-0.0293458086544,-0.0680987233513,-1.27527490867,0.573926681911,0.818874212601,0.00582534369187,0.0,0.818871727546,-0.573842344819,-0.0116105133456,0.0,-0.00616483978252,0.0114340127924,-0.999915625491,0.0,0.334884252936,-0.168426401366,0.305069123506,1.0,-0.29508,-0.387819428572,2.108
-0.338746776417,-0.513535279018,-0.143397199271,-2.63515655429,-0.0733843879159,2.11413890026,-0.59926508301,-1.27096345569,-0.265376557231,0.0410323014651,-0.213914497091,-0.0428337659752,-0.0837721295171,-1.24323844452,0.573934020813,0.818869188497,0.00580850965345,0.0,0.818866268033,-0.573849337371,-0.0116498917504,0.0,-0.00620664748519,0.011442882148,-0.999915265398,0.0,0.330487462033,-0.174193402361,0.305070884364,1.0,-0.28458,-0.374019428572,2.123
-0.360071571551,-0.517613017247,-0.143009167763,-2.63844727843,-0.0738540283836,2.11295612891,-0.619695216818,-1.24751647692,-0.216300051888,0.016127993606,-0.180035211903,-0.0289501802165,-0.0639147804187,-1.19266421662,0.573993293836,0.818827193925,0.00587128791991,0.0,0.818823514813,-0.573905482107,-0.0118868035335,0.0,-0.00636379618061,0.0116307180518,-0.999912110386,0.0,0.325661081051,-0.180464572636,0.304988714518,1.0,-0.27268,-0.358379428572,2.14
-0.380584884372,-0.520970197894,-0.142448239723,-2.64110947438,-0.0742212818859,2.11200620369,-0.639432350103,-1.20427742014,-0.181639570302,0.0252694413887,-0.143486928394,-0.0202651623471,-0.0561367210447,-1.15847634368,0.573914258863,0.818882586193,0.00587200178076,0.0,0.818878373364,-0.57382547114,-0.0119701799725,0.0,-0.00643279159585,0.011678537082,-0.999911111531,0.0,0.321106976245,-0.186429163849,0.304947263833,1.0,-0.26078,-0.342739428572,2.157
-0.400367145628,-0.523669971924,-0.141871451437,-2.64321684724,-0.074449583601,2.1111698814,-0.658509133013,-1.14350403434,-0.149587151155,0.0373481289156,-0.115847382538,-0.00982474008708,-0.0474157727829,-1.09177466634,0.57385921395,0.818920952915,0.00590104589158,0.0,0.818916532991,-0.573769257153,-0.0120539803238,0.0,-0.00648554320234,0.0117499779396,-0.999909933818,0.0,0.316757044435,-0.192147310745,0.304923960389,1.0,-0.24888,-0.327099428572,2.174
-0.420604386445,-0.525945497259,-0.141234583722,-2.64500059786,-0.0746385955551,2.11047406344,-0.677943522416,-1.10866818284,-0.114375381403,0.0353607015116,-0.0888557901842,-0.00883363534056,-0.0277850045503,-1.05697762485,0.573878484521,0.818907478879,0.00589685856434,0.0,0.818902769458,-0.57378811649,-0.0120912550854,0.0,-0.00651819734515,0.0117680915261,-0.999909508468,0.0,0.31233348778,-0.197965629649,0.304904020448,1.0,-0.23628,-0.310539428572,2.192
-0.437776096825,-0.527510017636,-0.14070424777,-2.64620465657,-0.0746815899066,2.10997476619,-0.69450087722,-1.06374310634,-0.0914559042704,0.0335417838678,-0.0694777436992,-0.00461636587693,-0.0294359796416,-1.02610244374,0.5739162271,0.81888056874,0.0059603114877,0.0,0.818876567524,-0.573825365509,-0.0120980973443,0.0,-0.00648684380787,0.0118242814494,-0.999909049477,0.0,0.308594815262,-0.202883816896,0.304900327046,1.0,-0.22508,-0.295819428572,2.208
-0.455131066387,-0.528763841391,-0.140012700281,-2.64719382377,-0.0746911793479,2.10955356548,-0.711287048547,-1.00323292294,-0.0663252154521,0.0379695370039,-0.0507497342445,-0.00236184481839,-0.0252843792121,-0.974235873363,0.573830638402,0.818940696403,0.00593979018846,0.0,0.818936371975,-0.573739781146,-0.0121090498117,0.0,-0.00650882507783,0.0118130814495,-0.999909039014,0.0,0.304835462091,-0.207794860369,0.304891127191,1.0,-0.21318,-0.280179428572,2.225
-0.469957538633,-0.529533408827,-0.139466857055,-2.64776373378,-0.0746803734251,2.10926252873,-0.72544592443,-0.968216749268,-0.0411842417147,0.0402658398815,-0.0342722748628,0.00052912739321,-0.0186904026553,-0.933246270693,0.573962650714,0.818848276505,0.00592642817685,0.0,0.81884398188,-0.573872193436,-0.0120824600799,0.0,-0.00649281428211,0.0117879278154,-0.99990943996,0.0,0.301633572525,-0.212008588793,0.304902593787,1.0,-0.20268,-0.266379428572,2.24
-0.485777551498,-0.530055591965,-0.138760982436,-2.6481477292,-0.0745619968053,2.10903990606,-0.740733509926,-0.928028841644,-0.0285305627156,0.0295206513486,-0.0162750399663,0.0111789366758,-0.0181183824868,-0.872273557914,0.573928273664,0.818872484641,0.005910794216,0.0,0.818868290383,-0.57383844124,-0.0120379924356,0.0,-0.00646586432438,0.0117493323825,-0.99991006885,0.0,0.298250183053,-0.216463914532,0.304918295492,1.0,-0.19078,-0.250739428572,2.257
-0.500711032873,-0.530263811262,-0.138011950509,-2.64828471536,-0.0743457539184,2.10890279065,-0.755210570808,-0.855143159413,-0.00801606593136,0.0470438201932,-0.00806340716114,0.0181437142244,-0.0075153360757,-0.838272701784,0.573857653982,0.818921964577,0.00591234302995,0.0,0.818918139427,-0.573768465075,-0.0119823329837,0.0,-0.00642040329459,0.0117181040588,-0.999910728245,0.0,0.295083476892,-0.22064374054,0.304940151053,1.0,-0.17888,-0.235099428572,2.274
-0.514869339123,-0.530285808758,-0.137315389093,-2.64831358507,-0.074081702568,2.10883656416,-0.768803900723,-0.830701329741,-0.0032287660122,0.0408732646339,-0.000543152250099,0.0214453038219,-0.00385470204935,-0.782067750475,0.573939934889,0.81886402194,0.00595076573614,0.0,0.818860897709,-0.573850942822,-0.0119445605226,0.0,-0.00636624091151,0.011728535472,-0.999910952251,0.0,0.292061822861,-0.2245887065,0.304947852478,1.0,-0.16698,-0.219459428572,2.291
-0.528725101915,-0.530066428965,-0.136422390032,-2.64820962727,-0.0737104831496,2.10881975266,-0.782220480284,-0.753226172085,0.010532549507,0.0514037758842,0.00761309798567,0.0213618322967,-0.00179862904898,-0.719373885763,0.573834398051,0.818937951066,0.00595506657919,0.0,0.818934765506,-0.57374519425,-0.011960301906,0.0,-0.00637817710545,0.0117402697339,-0.999910738478,0.0,0.289138627672,-0.22837963084,0.304937200993,1.0,-0.15438,-0.202899428572,2.309
-0.540345700121,-0.529741154154,-0.135746751872,-2.64805111366,-0.0733680726562,2.10881150306,-0.793335743919,-0.719159574183,0.0177510784989,0.0417918763949,0.00842293275253,0.0207365488934,-0.00341131958338,-0.673269210254,0.573949861249,0.818856633608,0.00600976448185,0.0,0.818853591068,-0.573859359185,-0.0120407297442,0.0,-0.00641099526161,0.0118321201984,-0.999909445936,0.0,0.286501285928,-0.231755288599,0.304908826031,1.0,-0.14248,-0.187259428572,2.326
-0.551682901834,-0.529257296721,-0.134898679333,-2.6477793862,-0.0729647396885,2.10886946899,-0.804294581716,-0.648001546212,0.0246864650871,0.0532137936371,0.0179423030158,0.0245366545397,0.00504682959346,-0.643728741553,0.573826959095,0.818942756388,0.00601079671266,0.0,0.818939333956,-0.573735754026,-0.0120995352191,0.0,-0.0064603421207,0.01186574581,-0.999908729863,0.0,0.284273116555,-0.2346162268,0.30488163721,1.0,-0.13128,-0.172539428572,2.342
-0.562833734786,-0.528648878507,-0.134107406574,-2.64741312616,-0.0725394610749,2.10894557719,-0.814934736992,-0.605233920574,0.0319279397301,0.0385562051861,0.0232440734935,0.0272722869081,0.00654596167239,-0.573839901565,0.573889574658,0.818898618042,0.00604618628222,0.0,0.81889514721,-0.573797264572,-0.0121730829161,0.0,-0.00649936076032,0.0119374278151,-0.999907623797,0.0,0.281919063233,-0.237630317025,0.304853013297,1.0,-0.11868,-0.155979428572,2.36
-0.571958240085,-0.528074121722,-0.133421064707,-2.64697100414,-0.0721515602957,2.10908942461,-0.823515498468,-0.546705481094,0.0381208677887,0.0494509146615,0.0270063914944,0.0273835510427,0.0100076580207,-0.529754531833,0.574040741328,0.818792457979,0.00607329841826,0.0,0.818789887615,-0.573949290529,-0.0120863039264,0.0,-0.00641053260405,0.0119110155191,-0.999908512206,0.0,0.280026944649,-0.240109432334,0.304874015528,1.0,-0.10748,-0.141259428572,2.376
-0.580521607686,-0.527371661614,-0.132585478994,-2.64647748909,-0.0716899294735,2.10920784315,-0.831812927813,-0.496885779854,0.0403699974393,0.0455377393978,0.0262630752285,0.0301745757067,0.00190979544094,-0.469456636429,0.57389336493,0.818895732113,0.00607721293106,0.0,0.818893112268,-0.573801741546,-0.0120987181126,0.0,-0.00642059687921,0.0119201913606,-0.999908338286,0.0,0.278290709045,-0.242382529633,0.304873121586,1.0,-0.0955800000001,-0.125619428572,2.393
-0.587978026255,-0.526754006551,-0.131841372114,-2.64601448153,-0.0712832196425,2.10933315247,-0.838747240019,-0.447406718056,0.0368446289473,0.039130173837,0.0332555332344,0.0248729658789,0.0116859399569,-0.413756411595,0.573994646695,0.81882479857,0.00606973745274,0.0,0.818822333691,-0.573903503308,-0.0120624061217,0.0,-0.00639367677267,0.0118940221228,-0.999908822411,0.0,0.27677939679,-0.244358193419,0.304887339566,1.0,-0.0843800000001,-0.110899428572,2.409
-0.594589512568,-0.526088794779,-0.131108776328,-2.6455337585,-0.0708465431403,2.10944754345,-0.84493094297,-0.391856435338,0.0415847725174,0.0521189340208,0.0310963972389,0.0247416709189,0.0136743801074,-0.374344957486,0.574040353884,0.818792656522,0.00608314385265,0.0,0.818790301636,-0.573949022866,-0.0120709568607,0.0,-0.00639231943652,0.0119102648476,-0.999908637748,0.0,0.275463768455,-0.246093321939,0.30489076324,1.0,-0.0731800000001,-0.0961794285716,2.425
-0.601175861414,-0.525353565221,-0.130118947167,-2.64507127494,-0.0702923378868,2.10958006769,-0.851192880711,-0.328819530279,0.0365416263874,0.0519438028868,0.0215732222942,0.0269037334077,0.00799536515689,-0.315144396266,0.57386878075,0.818913018073,0.00606944901948,0.0,0.818910024789,-0.573776692441,-0.0121418867124,0.0,-0.00646076509914,0.0119384122221,-0.999907862169,0.0,0.274203717653,-0.247740804581,0.30486798354,1.0,-0.0598800000001,-0.0786994285716,2.444
-0.605730406522,-0.52490419304,-0.129380150987,-2.64476236585,-0.0698890630665,2.10964370661,-0.855356466374,-0.294558351938,0.0243251611424,0.0490541922785,0.0183543479994,0.0261880096819,0.00629413836316,-0.257664890376,0.573855645395,0.818922348296,0.00605248798357,0.0,0.818918963268,-0.57376332095,-0.0121708682564,0.0,-0.00649442544571,0.0119410485452,-0.999907612631,0.0,0.273333872582,-0.248856428098,0.304867645779,1.0,-0.0493800000001,-0.0648994285716,2.459
-0.610292003631,-0.524404731259,-0.128511845485,-2.64441766325,-0.0693545936455,2.10978947693,-0.859369370784,-0.22645018196,0.0271250166184,0.0476222507902,0.010536185236,0.0297679488789,0.00730826230393,-0.204494614765,0.573937682213,0.818864717515,0.00607109929509,0.0,0.818861854556,-0.573845773291,-0.0121259445141,0.0,-0.00644575756023,0.0119311578288,-0.999908045613,0.0,0.272516835824,-0.24994717501,0.304875291043,1.0,-0.0367800000001,-0.0483394285716,2.477
-0.613428361543,-0.524037040141,-0.127752087646,-2.64419797937,-0.0688822178208,2.10984724167,-0.862160934035,-0.180961838029,0.0216475017445,0.0400731252281,0.0135436731136,0.0298820181962,0.000395926516477,-0.154569715988,0.573896231932,0.818893572579,0.00609743093194,0.0,0.818890719932,-0.573803598025,-0.0121723705116,0.0,-0.0064692727211,0.0119790378095,-0.999907321287,0.0,0.271984051707,-0.250637713995,0.304864024847,1.0,-0.0255800000001,-0.0336194285716,2.493
-0.615997984283,-0.523816996635,-0.126999800905,-2.64402730668,-0.0684507495236,2.10987363337,-0.86424849578,-0.138738212839,0.0100010741862,0.0406665565666,0.0134420810129,0.0222786583715,0.00209125497964,-0.0992260739951,0.573940855093,0.818862319361,0.00609456216575,0.0,0.818859504807,-0.573848364421,-0.0121619464244,0.0,-0.00646172953463,0.0119710585674,-0.999907465623,0.0,0.271596932802,-0.251136244738,0.304879135677,1.0,-0.01982,-0.0260491428571,2.509
-0.617880670261,-0.523660296773,-0.126508384639,-2.64385933371,-0.0681431900637,2.1099177576,-0.865831480193,-0.108631768864,0.0078536181815,0.0274182902422,0.0126467230072,0.0162702438692,0.00636784592988,-0.10706112668,0.573989346599,0.818828252537,0.00610489467365,0.0,0.818826119452,-0.573897817438,-0.0120759324112,0.0,-0.00638465182943,0.0119305334693,-0.999908445105,0.0,0.271273206451,-0.251579440504,0.304916225389,1.0,-0.01948,-0.0256022857143,2.526
-0.619573015912,-0.523495279342,-0.126099861755,-2.643659498,-0.0679547189225,2.10999763207,-0.867493500495,-0.0986272554854,0.00866786773498,0.0238862412718,0.010309736648,0.0070056310787,0.00887026184919,-0.093611246584,0.573815623591,0.818950394751,0.00605210391941,0.0,0.818948464825,-0.573726017873,-0.0119421638823,0.0,-0.00630791179101,0.0118091887924,-0.999910372638,0.0,0.27100565949,-0.251985398719,0.30496322435,1.0,-0.01914,-0.0251554285714,2.543
-0.621207609987,-0.523272599714,-0.125877833459,-2.64346216702,-0.0678030515946,2.11003823085,-0.86908352301,-0.0836821586219,0.0139097082516,0.00938859394575,0.00549789040366,0.0079015238929,0.00317086824802,-0.0898860238182,0.573769958509,0.818982299081,0.00606427289438,0.0,0.818980710731,-0.573680657034,-0.0119099159354,0.0,-0.00627517509269,0.0118003016896,-0.99991068354,0.0,0.270701398913,-0.252413966286,0.304980060172,1.0,-0.01878,-0.0246822857143,2.561
-0.622541382461,-0.523092044525,-0.12575235097,-2.64331931359,-0.067766101369,2.11004624875,-0.870403590335,-0.0886764236748,0.0139060206708,0.00806627447445,0.00977306552991,-3.20064885572e-05,0.000244325223848,-0.0892149058611,0.573715698101,0.819020542339,0.00603289986693,0.0,0.819018444981,-0.573626344804,-0.0119310614811,0.0,-0.00631127565734,0.0117863204577,-0.999910621231,0.0,0.270425048628,-0.252776880947,0.304982414183,1.0,-0.01848,-0.024288,2.576
-0.624175924727,-0.522874268523,-0.125644121478,-2.6431393007,-0.0677284295767,2.11007603161,-0.871906301588,-0.0794437973711,0.0158020399988,0.00565937451324,0.013642335842,0.000296968302643,0.00318832582715,-0.0812441631209,0.573772591833,0.818980875327,0.00600713009184,0.0,0.818978488815,-0.573683416314,-0.0119297781413,0.0,-0.00632419099158,0.01176491656,-0.999910791694,0.0,0.2700799246,-0.253236163572,0.304989427054,1.0,-0.0181,-0.0237885714286,2.595
-0.625466012173,-0.522660624559,-0.125593316131,-2.6429837345,-0.0676885755361,2.11014009451,-0.873259916001,-0.0855707787714,0.0134947337388,0.00211888982622,0.0116264629033,0.00033576428648,0.00375733894445,-0.0810909716912,0.573709863692,0.81902479705,0.00601007665146,0.0,0.819022532668,-0.573620845287,-0.0119148535543,0.0,-0.00631117677488,0.0117582835926,-0.999910951943,0.0,0.269809330075,-0.253613209342,0.304988391798,1.0,-0.01778,-0.023368,2.611
-0.626724503021,-0.522457099624,-0.125594213045,-2.6428528922,-0.0676525334397,2.11016377563,-0.874512061008,-0.0814361505186,0.0151425333492,-0.000568403824729,0.00852788958563,0.00359406906265,-0.000208117118381,-0.0828457912078,0.57373815032,0.819004755622,0.00604086390079,0.0,0.819002603347,-0.573648464126,-0.0119550080694,0.0,-0.00632599795872,0.0118067547946,-0.999910287121,0.0,0.26952285594,-0.253981782584,0.304975142135,1.0,-0.01746,-0.0229474285714,2.627
-0.628044008181,-0.522259366432,-0.125591103307,-2.64271199726,-0.0676341446866,2.11017077202,-0.875861114992,-0.0759760723182,0.00651924353623,-0.00212260040128,0.00655200071199,-5.76677091497e-05,-0.000236702342068,-0.0787954930935,0.573727131264,0.81901236223,0.00605609347524,0.0,0.819010124317,-0.573636855095,-0.0119967347627,0.0,-0.00635159794973,0.011843082106,-0.999909695227,0.0,0.269219472087,-0.254367740297,0.304967235957,1.0,-0.01712,-0.0225005714286,2.644
-0.62936390876,-0.522059013749,-0.12559311148,-2.64257182907,-0.0675988348805,2.11020784161,-0.877172898566,-0.0736891735402,0.0124831704626,-0.000235058159747,0.00950829701182,0.00711601629579,0.00427439184302,-0.0742679542605,0.573757754285,0.818990693251,0.00608528287872,0.0,0.818988715981,-0.573667126621,-0.0120107381805,0.0,-0.00634587822301,0.0118752608125,-0.999909349896,0.0,0.268920447345,-0.25475672896,0.304960482695,1.0,-0.01678,-0.0220537142857,2.661
-0.630659420785,-0.521877248686,-0.125575196339,-2.64243411983,-0.0675694579619,2.11025245658,-0.87838068232,-0.0716143764935,0.0131598360544,0.00246411816086,0.00441317943898,0.00135796194888,0.000470912185756,-0.071911255547,0.573832065708,0.818938543077,0.00609671467136,0.0,0.818936738053,-0.573741418257,-0.0120062877529,0.0,-0.00633459603851,0.0118826453063,-0.999909333707,0.0,0.268648612601,-0.255114854483,0.304959787424,1.0,-0.01646,-0.0216331428571,2.677
-0.63181536732,-0.521704905832,-0.125548015957,-2.64229836616,-0.0675456080317,2.11027695809,-0.879625502025,-0.0695204225722,0.0119278716076,0.00458719398205,0.0107448938096,0.00295451058702,0.00206122069767,-0.0789897467005,0.573762021889,0.818987572333,0.00610290944606,0.0,0.818985830555,-0.573671330423,-0.0120067024009,0.0,-0.00633239778792,0.0118874150768,-0.999909290936,0.0,0.268376439177,-0.255472395938,0.304961665513,1.0,-0.01612,-0.0211862857143,2.694
-0.633011490845,-0.521522094709,-0.125475636827,-2.64217115054,-0.0675179028728,2.11031169124,-0.880836666668,-0.0647465723135,0.00711638948153,0.0074972118287,0.00807868704685,-0.000499749037279,0.00409579431198,-0.074263659121,0.573717052203,0.819019178585,0.00608900843066,0.0,0.819017180812,-0.573626288244,-0.0120202275959,0.0,-0.00635210392449,0.011883440855,-0.999909213183,0.0,0.268119717462,-0.255808252583,0.304957000527,1.0,-0.01578,-0.0207394285714,2.711
-0.634180522054,-0.521342619582,-0.12542571701,-2.64205787862,-0.067495734347,2.11033859874,-0.882013042074,-0.0683045715789,0.0109773402439,0.00269421552085,0.0102911289986,0.00274739031606,0.00143087127857,-0.0715635325315,0.573691264198,0.819037281374,0.00608374907837,0.0,0.81903501306,-0.573600150692,-0.0120524441428,0.0,-0.00638188456758,0.0118974144849,-0.999908857385,0.0,0.26785980023,-0.256137579627,0.304946009668,1.0,-0.01544,-0.0202925714286,2.728
-0.635255092582,-0.521167589641,-0.125382917726,-2.64193238173,-0.0674605018953,2.11036392288,-0.883158122804,-0.0666593554716,0.0141124556191,0.00354387564768,0.00797141873495,0.00354438111894,0.00734515871164,-0.0672565948028,0.573624892908,0.81908371111,0.00609125052313,0.0,0.819081420363,-0.573533537174,-0.0120687801436,0.0,-0.00639192783465,0.0119124121985,-0.999908614671,0.0,0.267626031361,-0.25644454613,0.304941902751,1.0,-0.01512,-0.019872,2.744
-0.636420335745,-0.520964929506,-0.125361022358,-2.6417788294,-0.0674367868882,2.11040456203,-0.88430328395,-0.0658748540093,0.0152121582323,0.00339413666271,0.00906051693695,0.000912770007695,0.00713161000206,-0.0712542723091,0.573644049362,0.819070267957,0.00609488983451,0.0,0.819068012217,-0.573552650755,-0.0120704215226,0.0,-0.00639090621494,0.0119164842104,-0.999908572681,0.0,0.267371499631,-0.256790105605,0.304941180828,1.0,-0.01476,-0.0193988571429,2.762
-0.637533226468,-0.520775625094,-0.125345285104,-2.64164206786,-0.0674020532025,2.11045241037,-0.885435817741,-0.0638173375044,0.0113190302035,0.000444413565012,0.00947945587697,0.00285391246837,0.000898033583748,-0.0775415390994,0.573638873674,0.819073765431,0.00611197950209,0.0,0.819071733209,-0.573547403934,-0.0120672366045,0.0,-0.00637856975492,0.0119286153211,-0.999908506807,0.0,0.26712719198,-0.257118623156,0.304938203909,1.0,-0.01442,-0.018952,2.779
-0.638637449264,-0.52060717594,-0.125326945455,-2.64150718852,-0.0673821632056,2.11047172009,-0.886554779018,-0.0613482362508,0.00869009420017,0.00178993792904,0.00573930715316,-0.000338097633687,0.00229760304519,-0.0619424877983,0.573629367417,0.819080381118,0.00611759793742,0.0,0.819078366676,-0.573537771691,-0.0120747914303,0.0,-0.00638167414449,0.0119374769298,-0.999908381243,0.0,0.26687943804,-0.257441465683,0.304939646709,1.0,-0.01408,-0.0185051428571,2.796
-0.639580720857,-0.520462375739,-0.125301411602,-2.64139364,-0.0673547858394,2.11048987834,-0.887486689129,-0.0615835084515,0.0116151829235,0.00366544616601,0.00865825027556,0.0037786456331,0.000696984202017,-0.0528885076944,0.573643215551,0.819070597278,0.00612901534152,0.0,0.819068627486,-0.573551372304,-0.0120894043552,0.0,-0.00638689345343,0.011955319149,-0.999908134748,0.0,0.266651700234,-0.257734547544,0.304937482342,1.0,-0.01376,-0.0180845714286,2.812
-0.64068935809,-0.520284498108,-0.125291619235,-2.64126147106,-0.0673371628155,2.1105243644,-0.888576485631,-0.063927943652,0.010646724366,-0.000257181477644,0.00350287441929,0.00218219663467,0.00103654275527,-0.0627573577164,0.573659118492,0.819059437129,0.0061319752749,0.0,0.819057572642,-0.573567383952,-0.0120787278145,0.0,-0.00637621775006,0.0119517432428,-0.999908245631,0.0,0.266433360839,-0.258023938191,0.304940611295,1.0,-0.01344,-0.017664,2.828
-0.641742761528,-0.520111227154,-0.12525267358,-2.64112922561,-0.0673119921434,2.11055080448,-0.889696386916,-0.0603692992658,0.00917733076659,0.00416142260791,0.00634976984056,0.000717264784329,8.6289119487e-05,-0.0612102125619,0.573596841916,0.819103046985,0.00613255787651,0.0,0.819101084295,-0.573504919882,-0.0120941092372,0.0,-0.00638939262871,0.0119605579482,-0.999908056131,0.0,0.266189945205,-0.258344393991,0.304937527044,1.0,-0.01306,-0.0171645714286,2.847
-0.642651893686,-0.519960908312,-0.125216136816,-2.64100659758,-0.0672990112123,2.11058250081,-0.890610088521,-0.0555529903611,0.00984618818435,0.00517354799243,0.00962444035312,0.000385265759489,0.000581650067298,-0.0564509283945,0.573579134261,0.819115535248,0.00612074804989,0.0,0.819113484483,-0.573487390776,-0.0120854896222,0.0,-0.00638936348693,0.0119458019311,-0.999908232715,0.0,0.265994057598,-0.258610074268,0.304941521838,1.0,-0.01274,-0.016744,2.863
-0.643571603938,-0.519812795484,-0.125177086878,-2.64089989347,-0.06728035497,2.11060682032,-0.89148872551,-0.0540653511867,0.00907760680818,0.00517005913085,0.0112172824507,0.00163149461327,0.00343903085664,-0.0608828871679,0.57359870133,0.819101876007,0.006115018929,0.0,0.819099682025,-0.57350685068,-0.0120975217199,0.0,-0.00640222075058,0.0119481628473,-0.999908122266,0.0,0.265791415624,-0.258872238149,0.304938519342,1.0,-0.01242,-0.0163234285714,2.879
-0.644533527834,-0.51964851413,-0.125160369572,-2.64078671986,-0.0672733603761,2.11063801875,-0.892478626306,-0.0524001258306,0.00734970608825,-0.00137210743679,0.0049059477924,0.000112998249359,-0.000577269353484,-0.0652573644671,0.573572941367,0.819119946203,0.0061107744331,0.0,0.81911760272,-0.573480939227,-0.0121124794115,0.0,-0.00641728437522,0.0119530634812,-0.999907967132,0.0,0.265573932683,-0.25915388135,0.304932550859,1.0,-0.01208,-0.0158765714286,2.896
-0.645419405661,-0.519505065683,-0.125153521253,-2.64068401034,-0.0672658002901,2.11067453053,-0.893321635475,-0.0546533126011,0.0078442336413,-0.000389866495354,0.00652038574196,-0.000424341767511,0.00178261337463,-0.0501087747324,0.573619163981,0.819087557886,0.00611343862823,0.0,0.819085184961,-0.573527020762,-0.0121228352434,0.0,-0.00642356494466,0.0119615479238,-0.999907825344,0.0,0.265359008922,-0.259431017997,0.304926479359,1.0,-0.01174,-0.0154297142857,2.913
-0.646348110511,-0.519362349099,-0.12514679745,-2.64057675045,-0.0672533635553,2.11069905556,-0.894208560631,-0.0572934768494,0.00706417954021,3.54892437857e-05,0.00375514148618,0.000330096379138,-0.000263158210271,-0.0570064264921,0.573652263164,0.819064363152,0.00611529901902,0.0,0.819062045658,-0.573560162771,-0.0121182484727,0.0,-0.00641825713843,0.0119607002668,-0.999907869568,0.0,0.265159646741,-0.259687735235,0.304928172783,1.0,-0.01142,-0.0150091428571,2.929
-0.647236896143,-0.519208084316,-0.12513255622,-2.64046923498,-0.0672502322247,2.1107402946,-0.895080710006,-0.0511572609166,0.0112121436541,0.00480016491783,0.00336530127998,0.000259437209416,0.00200297956958,-0.0514265623489,0.573662826856,0.819057026264,0.00610702149221,0.0,0.819054600537,-0.573570760156,-0.012119873533,0.0,-0.00642418230049,0.0119549351304,-0.999907900463,0.0,0.264959958532,-0.259950538735,0.304924094294,1.0,-0.01108,-0.0145622857143,2.946
-0.648087144144,-0.519067568665,-0.125112739623,-2.64036303252,-0.0672341219734,2.11078216568,-0.895907019609,-0.0489427376971,0.00769220578234,-0.000202105798933,0.0099504231572,3.70769849809e-05,0.00153942436025,-0.0480060580382,0.573680821041,0.819044430355,0.00610602783549,0.0,0.819042073264,-0.573588906798,-0.0121076472474,0.0,-0.00641447471014,0.0119472487331,-0.999908054654,0.0,0.264772520644,-0.260200435904,0.304924667877,1.0,-0.01074,-0.0141154285714,2.963
-0.648871620927,-0.518946431013,-0.125107731981,-2.64026533119,-0.0672299825803,2.11079619687,-0.89668174889,-0.0511581510498,0.00529554944262,0.000801432975989,0.00823809159185,0.00324904419501,0.00328845091777,-0.0470530239328,0.573692119773,0.81903652243,0.00610520582692,0.0,0.819034120734,-0.573600143643,-0.0121132649062,0.0,-0.00641938301779,0.0119498865801,-0.999907991633,0.0,0.264591755532,-0.260431499934,0.304925775307,1.0,-0.01042,-0.0136948571429,2.979
-0.64971112533,-0.518808636149,-0.125106719921,-2.64017401448,-0.0672181436866,2.1108193699,-0.897491046784,-0.0453456793189,0.0044708141328,0.00299010936534,0.00538184150568,0.000668443779386,0.00379068572119,-0.0467844394686,0.573726071426,0.819012675429,0.00611386574073,0.0,0.819010262347,-0.573633818462,-0.0121317512702,0.0,-0.0064290616944,0.0119678511983,-0.999907714593,0.0,0.264395874278,-0.260676444361,0.304918534436,1.0,-0.01006,-0.0132217142857,2.997
-0.650501981881,-0.518696799938,-0.125100954238,-2.64009309816,-0.0672066147688,2.11084141147,-0.898260530447,-0.0505962276243,0.00641452943445,0.000899766869262,0.00629997775473,-0.000109179950204,0.000194489712993,-0.0429220779766,0.573748675504,0.818996794069,0.0061200950262,0.0,0.818994430468,-0.573656330946,-0.0121360507923,0.0,-0.0064286792058,0.0119755973757,-0.999907624309,0.0,0.264211485064,-0.260904997064,0.304916137916,1.0,-0.00972,-0.0127748571429,3.014
-0.651231631887,-0.518594077057,-0.125101112649,-2.64001735698,-0.0671943313663,2.11085863426,-0.899000456839,-0.0442422728741,0.00264666471501,0.00180664783877,0.0039964369642,-0.000141181007317,-0.000347833888083,-0.0470830509337,0.573749602327,0.818996067003,0.00613049463759,0.0,0.818993795465,-0.573657130059,-0.0121411294338,0.0,-0.00642685903261,0.0119870360434,-0.999907498947,0.0,0.264039912165,-0.261116625875,0.304914192326,1.0,-0.0094,-0.0123542857143,3.03
-0.652051566452,-0.518443212511,-0.125094918312,-2.6399077423,-0.0671775525697,2.11089659648,-0.899791753292,-0.0434812761894,0.0145833995969,-0.000768697985459,-0.00050066992054,-0.000204135625098,-9.39600078158e-05,-0.0462366099683,0.573781594285,0.818973607226,0.00613674410133,0.0,0.818971423701,-0.573689099458,-0.01213965506,0.0,-0.00642159753354,0.0119915595626,-0.999907478512,0.0,0.263856332666,-0.261360928654,0.304911823382,1.0,-0.00902,-0.0118548571429,3.049
-0.652662916391,-0.518327582971,-0.125075095262,-2.6398032463,-0.0671656574281,2.11092541382,-0.900383083287,-0.0417515251709,0.00883635478165,0.00210256688317,0.00730385230833,0.000468643064451,0.000482074944836,-0.0403566885055,0.57379437016,0.818964706345,0.00613004367842,0.0,0.818962575938,-0.573702164802,-0.0121190847833,0.0,-0.00640840676374,0.0119743695253,-0.999907769145,0.0,0.263727805659,-0.26154562204,0.304919639702,1.0,-0.00872,-0.0114605714286,3.064
-0.653316152324,-0.518180898858,-0.125043508465,-2.63969216985,-0.0671515369383,2.11095089622,-0.901042419052,-0.0376799666111,0.00848933128717,0.00343104453747,0.00348479222675,0.000226465864258,-7.29522263081e-05,-0.0417987831541,0.573778810957,0.818975675715,0.00612091372909,0.0,0.818973389971,-0.573686581562,-0.0121259868183,0.0,-0.00641952577069,0.0119707302383,-0.999907741397,0.0,0.263591253745,-0.261739200561,0.304918995287,1.0,-0.00838,-0.0110137142857,3.081
-0.653969244116,-0.518048890373,-0.124996385698,-2.63960643797,-0.0671372355054,2.11097329382,-0.901730094181,-0.0344676517136,0.00913834182946,0.00370367878927,0.00724345745232,-0.000367589672895,0.0012667556161,-0.0391442341818,0.573727731526,0.819011555065,0.0061081625231,0.0,0.81900897927,-0.573635339292,-0.0121464518384,0.0,-0.00644435060101,0.0119716267035,-0.999907570978,0.0,0.263452066505,-0.261922559879,0.304912340306,1.0,-0.00802,-0.0105405714286,3.099
-0.654548275689,-0.517941143439,-0.12495877881,-2.63955205924,-0.0671228541814,2.11099016432,-0.902313313376,-0.0386368662466,0.0045107610404,0.00177531629201,0.00435338250476,0.00126646722255,0.00158560139387,-0.0394484087898,0.573706767882,0.819026276289,0.00610328884915,0.0,0.81902342596,-0.573614010746,-0.0121795445914,0.0,-0.00647455971347,0.0119864544811,-0.999907198187,0.0,0.26332258868,-0.262079967296,0.304899680046,1.0,-0.0077,-0.01012,3.115
-0.655138846657,-0.517867740848,-0.124939435627,-2.63951969668,-0.0671073625995,2.11100690235,-0.902890013799,-0.0349228539754,0.00243307668087,-0.000594266982123,0.000675440787756,6.55655302941e-05,0.000581405776664,-0.0420704416507,0.573712847241,0.819021966306,0.00611019800151,0.0,0.819019068784,-0.573619803282,-0.0121997193349,0.0,-0.00648703243789,0.0120037355015,-0.999906910039,0.0,0.263181799295,-0.262239105916,0.304889228956,1.0,-0.00736,-0.00967314285715,3.132
-0.655681882166,-0.517800323591,-0.124935636231,-2.63947585239,-0.0670937987184,2.11102253893,-0.903385868261,-0.0348804190248,0.0038228056059,0.000490935651312,0.00426659624957,-9.35649270688e-05,0.000521558464341,-0.0302674654383,0.573756918644,0.818991017621,0.0061203157935,0.0,0.818988218725,-0.573663757253,-0.0122040200349,0.0,-0.00648410427285,0.0120148387829,-0.999906795677,0.0,0.263052383518,-0.262392148293,0.304885736335,1.0,-0.00704,-0.00925257142858,3.148
-0.656252462524,-0.517757564241,-0.124937520857,-2.63940841693,-0.0670811948921,2.11103174012,-0.903898420609,-0.0335113837151,-0.000284770423402,-0.00198911557992,0.00399142082554,-7.27000477486e-05,0.00324319414953,-0.0281966783997,0.573814468627,0.818950634481,0.0061286848524,0.0,0.818948184134,-0.573721701449,-0.0121666713548,0.0,-0.00644786786581,0.0120007184404,-0.999907199572,0.0,0.262919232784,-0.262559301953,0.304901362406,1.0,-0.0067,-0.00880571428572,3.165
-0.656853686328,-0.517700876328,-0.124940776861,-2.63930694125,-0.0670715834804,2.11105981228,-0.904461261262,-0.0317754906494,0.00328028344446,-0.0039967381231,0.00267470099524,0.00294857208984,0.000413096521617,-0.0319420112712,0.573857246491,0.818920657667,0.00612894748904,0.0,0.818918701631,-0.573765385496,-0.0120908819374,0.0,-0.00638501800058,0.0119577801606,-0.999908117298,0.0,0.262787776038,-0.262746256248,0.304928895124,1.0,-0.00632,-0.00830628571429,3.184
-0.657310974403,-0.517638289847,-0.124938639336,-2.63919575594,-0.0670537472559,2.11108233801,-0.90493630159,-0.025933259102,0.00119404722066,-0.000109620556861,0.00583831927138,0.000911671028733,0.00450900969031,-0.0360241573936,0.573854213303,0.818922761835,0.00613179621011,0.0,0.818921310436,-0.573763219068,-0.0120167657767,0.0,-0.00632272561804,0.0119175597089,-0.999908993315,0.0,0.262697169685,-0.262894960082,0.304958324433,1.0,-0.006,-0.00788571428572,3.2
-0.657734661253,-0.517590545441,-0.124925331519,-2.63909422838,-0.0670385410167,2.11110379224,-0.905384058337,-0.0270968121143,0.00239568946639,0.00144984373558,0.0112796185706,-0.000212353349254,0.00406824107392,-0.0303179803874,0.573836437874,0.818935250187,0.00612743585657,0.0,0.81893423372,-0.573746394932,-0.0119390973079,0.0,-0.00626187396848,0.011869284579,-0.999909950455,0.0,0.262615502315,-0.26303025716,0.304989007213,1.0,-0.00568,-0.00746514285715,3.216
-0.658166212145,-0.517498211346,-0.12489549873,-2.63900291528,-0.0670184129658,2.11112836149,-0.905812738737,-0.0216732851914,0.00144363094962,0.00592058653069,0.00364204405625,4.3928332588e-05,0.000612976158518,-0.0279143186723,0.573830835514,0.818939215877,0.00612207589518,0.0,0.818938298671,-0.573741136102,-0.0119129599959,0.0,-0.00624362354755,0.0118498543523,-0.999910295035,0.0,0.262532958153,-0.263160549312,0.304999269466,1.0,-0.00534,-0.00701828571429,3.233
-0.658560684078,-0.517423540909,-0.124857885256,-2.63897680459,-0.0669927741337,2.11114265336,-0.906192604703,-0.0232110702427,0.00158909865459,0.000522748421224,-0.00023400540805,4.81320242658e-05,-8.2160098913e-05,-0.0232154188641,0.573828587958,0.818940750576,0.00612744551843,0.0,0.818939705158,-0.573738491519,-0.0119435994036,0.0,-0.00626566954508,0.0118718157764,-0.999909896628,0.0,0.262446264421,-0.263260838876,0.304985725896,1.0,-0.00502,-0.00659771428572,3.249
-0.658928666816,-0.517334592688,-0.124821622182,-2.63896435768,-0.0669673631008,2.11115737858,-0.906547824815,-0.0167070989263,0.00374707103849,0.00198890508174,0.00372640262388,0.00264454115997,0.00338229055117,-0.022022363161,0.57382513162,0.818943110044,0.00613577488666,0.0,0.818941798114,-0.573734292075,-0.0120016790394,0.0,-0.0063085093557,0.0119119369146,-0.999909150107,0.0,0.262362832807,-0.263350749758,0.304960713971,1.0,-0.0047,-0.00617714285715,3.265
-0.659290572438,-0.517250193201,-0.124779660305,-2.63896825555,-0.0669468643215,2.11116011635,-0.906908029943,-0.0255700444308,0.00623015142924,0.000124242307051,-0.000139608675457,0.000105395658646,-2.36440531859e-06,-0.0139353199098,0.573805709382,0.818956679314,0.00614102502438,0.0,0.818954906998,-0.573713855907,-0.0120838216246,0.0,-0.00637305798624,0.0119632187461,-0.999908128544,0.0,0.262276283381,-0.263432447936,0.304929060538,1.0,-0.00436000000001,-0.00573028571429,3.282
-0.659612340966,-0.517158071658,-0.124751548415,-2.63896708965,-0.0669221443996,2.1111665123,-0.907245312367,-0.0192651059666,0.00618777856207,0.00213470045995,-0.00105444212057,0.00440774093208,0.000139838812007,-0.0104746550342,0.573784091554,0.81897171606,0.00615560517692,0.0,0.818969600025,-0.573691177965,-0.0121644342918,0.0,-0.00643103505913,0.0120212438352,-0.999907061424,0.0,0.262199164762,-0.263507868482,0.304896849163,1.0,-0.00402000000001,-0.00528342857144,3.299
-0.659906268024,-0.517105391025,-0.124720106203,-2.6389572974,-0.0668950839964,2.11116842212,-0.907553471061,-0.0139837019215,-0.00130580943578,0.0032118643634,0.000455746697864,0.00119756283717,0.000369214161562,-0.0179185556517,0.573762366712,0.818986846954,0.00616749249719,0.0,0.818984631923,-0.573668928942,-0.0122016204783,0.0,-0.00645499214673,0.0120521442572,-0.99990653508,0.0,0.262132441604,-0.263577285381,0.304882794013,1.0,-0.00368000000001,-0.00483657142858,3.316
-0.660192031168,-0.51706707822,-0.124685303048,-2.63894443242,-0.0668759080155,2.11117635958,-0.907822683945,-0.0131652036611,0.000694293148657,-0.000667012573387,0.00141917869716,0.000212320812551,-0.000276419213221,-0.0173233220088,0.573760166196,0.818988379584,0.00616868660689,0.0,0.818986082145,-0.573666540532,-0.0122165636476,0.0,-0.00646657906214,0.0120616782897,-0.99990634525,0.0,0.262069843757,-0.263646506764,0.304876019327,1.0,-0.00334000000001,-0.00438971428572,3.333
-0.660436224233,-0.517040979312,-0.124653314988,-2.63891565426,-0.066854339281,2.11117591845,-0.908077928988,-0.0167073000992,0.000991852924183,0.000628571594572,0.000725274374164,0.000253553507051,-0.00135148577239,-0.0148331149115,0.573739056973,0.819003149848,0.00617105702367,0.0,0.81900090994,-0.573645474542,-0.0122117139031,0.0,-0.00646155762188,0.0120606707417,-0.999906389866,0.0,0.262020360189,-0.263708332386,0.304880196538,1.0,-0.00302000000001,-0.00396914285715,3.349
-0.660693354764,-0.51701870386,-0.124636426093,-2.6388629085,-0.0668301279554,2.11118416859,-0.908336844663,-0.0111560074869,0.00126786994757,0.00103423614306,0.00428472598886,0.00522197945403,-3.86243152985e-05,-0.0094777645609,0.573738460338,0.819003514438,0.00617813629078,0.0,0.819001627672,-0.573645333424,-0.0121701361061,0.0,-0.00642344886091,0.0120426106873,-0.999906853078,0.0,0.261971249907,-0.26378405102,0.304897058813,1.0,-0.00264000000001,-0.00346971428572,3.368
-0.660905405064,-0.516997313528,-0.124621606204,-2.63881248616,-0.0668116535006,2.11119179677,-0.908561333534,-0.0109677475894,0.00333962244049,-0.000259219348883,0.00458145991948,0.000420275321588,0.000302097503706,-0.0120701676427,0.573728047308,0.819010784742,0.00618135174398,0.0,0.819009184152,-0.573635366846,-0.0121313263279,0.0,-0.00638996814722,0.0120228974922,-0.999907304825,0.0,0.261932430785,-0.263848302286,0.30491308703,1.0,-0.00230000000001,-0.00302285714286,3.385
-0.661067991476,-0.516984514577,-0.124605950761,-2.63878532182,-0.0667934674185,2.11119915509,-0.908712621042,-0.00945262270802,0.00340363974061,0.00159159173813,0.00291748023711,0.00216014778398,0.000107306211254,-0.00711551650038,0.573731067149,0.819008686797,0.00617903227715,0.0,0.819007258694,-0.573638778208,-0.0120999687351,0.0,-0.00636556953498,0.0120030313571,-0.999907699122,0.0,0.261900829416,-0.263898235062,0.304925414408,1.0,-0.00200000000001,-0.00262857142858,3.4
-0.661251348871,-0.516969579463,-0.124578896144,-2.63876367618,-0.0667740451613,2.1112019595,-0.908888520557,-0.0109994031971,0.00432281358497,-0.000455406764404,0.00136220540485,0.00214063335685,-0.000563039103886,-0.00561309954978,0.573731498657,0.819008313427,0.00618844786669,0.0,0.819007023527,-0.573639197204,-0.012096021932,0.0,-0.00635692864613,0.0120084822589,-0.999907688645,0.0,0.261866043307,-0.26393948207,0.304926926727,1.0,-0.00168000000001,-0.00220800000001,3.416
-0.66140869785,-0.516971329167,-0.124542218003,-2.63876052911,-0.066755108277,2.11120811696,-0.909022279995,-0.0116837895663,-0.000666488230823,0.00588152790892,-0.000727264501723,0.00189280345124,0.000673996714189,-0.00829180720122,0.573732986325,0.819007285152,0.00618661238489,0.0,0.819006054796,-0.573640850377,-0.0120832068055,0.0,-0.00634746302063,0.011999638357,-0.999907854951,0.0,0.261836047474,-0.263972557497,0.304930399652,1.0,-0.00136000000001,-0.00178742857144,3.432
-0.661561949995,-0.516961382935,-0.124515805379,-2.63876192216,-0.0667397212066,2.11120953564,-0.909133709757,-0.00871420693972,0.00360310437917,0.00123259276498,-0.000314129625859,0.00154009888871,0.00041183274233,-0.0051204402623,0.573755033799,0.818991825967,0.00618846433177,0.0,0.818990567686,-0.573662786564,-0.0120914951304,0.0,-0.00635286629473,0.0120060812677,-0.999907743296,0.0,0.261802506688,-0.264005085675,0.304926849468,1.0,-0.00100000000001,-0.00131428571429,3.45
-0.661660741004,-0.516951789585,-0.124496370237,-2.63875461496,-0.0667231842462,2.11120995317,-0.909198878116,-0.00546162040855,-0.00105518021238,-0.000535842859928,-0.000390852235112,-0.000572826006405,-0.000224183868254,0.00062603519224,0.573778047722,0.818975663854,0.00619361506857,0.0,0.818974480186,-0.573685786969,-0.012089893903,0.0,-0.00634826217409,0.0120095596233,-0.999907730766,0.0,0.261781570044,-0.264028535025,0.304927264431,1.0,-0.000660000000005,-0.000867428571436,3.467
-0.661726120055,-0.516939400446,-0.124489511188,-2.63875381139,-0.0667049797888,2.11121232464,-0.909261256795,-0.0065509972373,-6.64571865818e-05,-0.00121378162844,0.000611565803945,0.000509103329575,-0.000405904785052,-0.0016679400673,0.573778672336,0.818975152688,0.00620333407057,0.0,0.818974025849,-0.573686236258,-0.0120993476552,0.0,-0.00635041998341,0.0120229485902,-0.999907556164,0.0,0.261771784182,-0.264038458578,0.304922667897,1.0,-0.000320000000005,-0.000420571428579,3.484
-0.661734122074,-0.516927268066,-0.124472962226,-2.63875532489,-0.0666890624918,2.11121818999,-0.909272997391,-0.00185606233023,-0.000588661010536,0.00289538790577,-0.000439280797121,0.000448816982238,-0.000118650235155,0.000695401252121,0.573773625255,0.818978627521,0.00621140291915,0.0,0.818977558218,-0.573681064167,-0.0121054802897,0.0,-0.00635088767081,0.0120330365804,-0.999907431844,0.0,0.261773205948,-0.264038148543,0.304919041202,1.0,0.0,0.0,3.502
-0.661722489526,-0.516914490165,-0.124438740549,-2.63875047344,-0.0666755083933,2.11121836595,-0.909288978478,0.000869042268855,0.00199891418309,0.00134452491178,-8.80794400362e-05,0.000466292084243,-0.00723842910606,-0.00092639403439,0.573732778231,0.819007284154,0.00620601228461,0.0,0.819006099791,-0.573640165178,-0.0121126504482,0.0,-0.00636045349386,0.0120324181712,-0.999907378483,0.0,0.261785914789,-0.264027392582,0.304917358981,1.0,0.0,0.0,3.518
-0.661725195696,-0.516908894894,-0.124402649262,-2.6387562025,-0.0666655649116,2.11122004316,-0.909295782599,-0.00126538716672,-0.000397565252442,0.00133867840361,-0.0022601636137,7.22331678449e-05,-0.000297375021014,-0.00046735910959,0.573707800139,0.819024844528,0.00619766138476,0.0,0.819023496947,-0.573615127077,-0.0121220599758,0.0,-0.00637331867036,0.0120307822919,-0.999907316248,0.0,0.261792915439,-0.264017943074,0.304913688385,1.0,0.0,0.0,3.535
-0.661722374032,-0.516903403553,-0.124374889815,-2.63875272303,-0.0666636083922,2.11122666207,-0.909302821717,0.000414460954151,-0.00075583662622,0.00254199911019,-0.000339075427305,0.000121444057864,0.00786548418242,-0.00104111478619,0.573681026464,0.819043696872,0.00618460925765,0.0,0.819042215211,-0.573588485505,-0.0121179989499,0.0,-0.00637787279492,0.012017553518,-0.99990744629,0.0,0.261801677594,-0.264012741555,0.304914460348,1.0,0.0,0.0,3.553
-0.661729076111,-0.516899221291,-0.124365597678,-2.63875315063,-0.0666607559436,2.11122360527,-0.909297851216,-0.00175454121358,-0.001347421014,0.000837564219835,-0.000363983356103,-0.000198651718031,7.52619685743e-05,0.00152489757973,0.573685208632,0.819040779476,0.00618302940656,0.0,0.819039230787,-0.573592586376,-0.0121256005478,0.0,-0.00638494442534,0.012020652764,-0.999907363905,0.0,0.261801551493,-0.264011579705,0.304912682572,1.0,0.0,0.0,3.567
-0.661727749445,-0.516900917606,-0.124370519066,-2.63874988062,-0.0666588176688,2.11122819233,-0.909300191897,-0.000246981746788,-0.0010257881228,6.14013560356e-05,-0.000332561704852,0.000289883468808,0.000320441211683,9.33294974277e-05,0.57368666501,0.819039737291,0.00618595426672,0.0,0.819038286483,-0.573594141945,-0.0121157955916,0.0,-0.00637521365126,0.0120174351226,-0.999907464671,0.0,0.261802488493,-0.264013632515,0.30491507079,1.0,0.0,0.0,3.586
