nelsonifechukwu/NELSON_IML_WORK/CNN-GradCAM/train2dof/data_sample_2022-02-21-17-18-57/robot_state.csv
position_joint1,position_joint2,position_joint3,position_joint4,position_joint5,position_joint6,position_joint7,velocity_joint1,velocity_joint2,velocity_joint3,velocity_joint4,velocity_joint5,velocity_joint6,velocity_joint7,ee_T_00,ee_T_10,ee_T_20,ee_T_30,ee_T_01,ee_T_11,ee_T_21,ee_T_31,ee_T_02,ee_T_12,ee_T_22,ee_T_32,ee_T_03,ee_T_13,ee_T_23,ee_T_33,v_x,v_y,time
0.465059537286,0.547852152382,-0.123997038802,-1.35587252267,0.0794721410208,1.89410431035,0.15916133103,-0.0014613182921,-0.00093544329986,0.000511288108225,-0.00153667404314,0.000223169788215,0.000383397771588,-0.000654961701262,0.573819960939,0.818967662995,0.00183474712232,0.0,0.818923273825,-0.573762120628,-0.0119351338883,0.0,-0.00872194823282,0.00835129596995,-0.999927089079,0.0,0.661674081142,0.260866275541,0.303145854709,1.0,0.0,0.0,0.0
0.465066687542,0.547859471748,-0.124001684089,-1.35587025162,0.0794704660641,1.89410268275,0.159159716409,0.000841813361979,0.00135573405759,-0.000618475639468,0.000996666348098,0.000142667415821,-0.000313770632549,0.000689283761602,0.573815461282,0.818970833478,0.00182680242721,0.0,0.818926380049,-0.573757692805,-0.0119348610363,0.0,-0.00872632915333,0.00834458514876,-0.999927106882,0.0,0.661673377701,0.260868108041,0.303141759977,1.0,-0.0001,-0.000131428571429,0.006
0.465064106357,0.547850934189,-0.123997492665,-1.35587251648,0.079472140534,1.8941026779,0.159161330849,5.15848444795e-05,-0.0020306387112,0.00104455737815,0.000556302968563,0.000111458737214,-0.000427407681293,-0.000718889110037,0.57381652197,0.818970073343,0.00183438939225,0.0,0.81892567949,-0.573758683574,-0.0119353004804,0.0,-0.00872232499872,0.00835106197364,-0.999927087747,0.0,0.661672701608,0.260868941865,0.303146593891,1.0,-0.0004,-0.000525714285714,0.021
0.46506057862,0.547841679659,-0.123997729771,-1.35588200934,0.0794697534462,1.89410349655,0.159159703245,-0.000541956938035,-0.00195736820019,0.000735474005169,0.000473490087623,-0.000332525636567,0.000386441858863,0.00764225645351,0.573818118919,0.818968955242,0.00183402611032,0.0,0.818924571254,-0.573760295848,-0.0119338344921,0.0,-0.00872131651472,0.00834994026803,-0.999927105911,0.0,0.661672042406,0.260865134124,0.303148706466,1.0,-0.00074,-0.000972571428571,0.038
0.465065838685,0.547794732022,-0.123995185072,-1.35591848348,0.0794675262693,1.89410889235,0.159160228363,0.000361437695077,-0.0064094341267,0.000891118044541,0.00106395896744,2.02353855298e-05,-0.000605511330205,-0.000181054737588,0.573813820639,0.818971932995,0.00184908396803,0.0,0.818927721758,-0.573755911872,-0.0119284126708,0.0,-0.00870827998569,0.00835911510892,-0.999927142873,0.0,0.661664170695,0.260866384088,0.303164985081,1.0,-0.00106,-0.00139314285714,0.054
0.465067974885,0.547666213986,-0.123992685302,-1.35606531846,0.0794693848775,1.89413573082,0.159162752817,0.00112621481378,-0.00609359277765,0.000778338702364,-0.00749151383065,0.000244356832178,0.00060343711984,-0.000535578384012,0.573820860082,0.818966965415,0.00186467004042,0.0,0.818922809747,-0.573762742801,-0.0119370662818,0.0,-0.0087063523762,0.00837691975108,-0.999927010658,0.0,0.661638024331,0.260855629397,0.303188392975,1.0,-0.0014,-0.00184,0.071
0.465050968419,0.547518562666,-0.123998679541,-1.35628334172,0.0794645868699,1.89419113871,0.15915896119,-0.00320696440535,-0.00437150009871,-0.000949472463369,-0.010914298731,-8.57529611609e-05,0.00779437864866,0.000640125632542,0.573846621291,0.818948934692,0.00185593683472,0.0,0.818904586091,-0.573788461827,-0.0119510189955,0.0,-0.00872252706889,0.0083780483604,-0.999926860239,0.0,0.66160906599,0.260819949838,0.303194219613,1.0,-0.00176,-0.00231314285714,0.089
0.465035792768,0.547347004685,-0.123997185381,-1.35648390799,0.0794594802377,1.89430746447,0.159147720585,0.00137019153917,-0.00725872019691,0.000167947023184,-0.0144041800979,-0.00524175670123,0.00670131130551,0.000714369862278,0.573858903194,0.818940148467,0.00193374119505,0.0,0.818896799463,-0.573800401351,-0.0119112610564,0.0,-0.00864519487096,0.00841907977451,-0.9999271872,0.0,0.661594720462,0.260796310176,0.303230324073,1.0,-0.00208,-0.00273371428571,0.105
0.465013322162,0.547165130119,-0.123990013433,-1.35669273282,0.079457687417,1.89443284529,0.159137901349,-0.00294666618246,-0.0167170955228,0.000590205817772,-0.0101413218591,0.000114491862324,0.00901506385717,-0.00291103839932,0.573875720417,0.818928144783,0.00202437638788,0.0,0.818885907835,-0.573816777092,-0.0118711068727,0.0,-0.00856012720221,0.00847043638704,-0.999927485336,0.0,0.661580964907,0.260771438714,0.30327040448,1.0,-0.0024,-0.00315428571429,0.121
0.464976885594,0.546936376136,-0.123998026227,-1.35699956551,0.0794527558378,1.89455776653,0.159113550629,-0.000575451145256,-0.0128149422043,-0.000552668878168,-0.0198183986521,0.000159742783976,0.0180060429965,-0.00190282111277,0.573900886256,0.818910418439,0.00206063774381,0.0,0.818868572753,-0.573841713006,-0.0118615291037,0.0,-0.00853121412114,0.00849489710628,-0.999927524928,0.0,0.661548055716,0.260717847563,0.303290010336,1.0,-0.00276,-0.00362742857143,0.139
0.464946443877,0.546686428205,-0.12399489018,-1.35739302842,0.0794431523399,1.89469497638,0.159052208211,-0.00152579076941,-0.0172803644917,0.000248453408624,-0.0243046672959,-0.000439252912448,0.00397094614048,-0.00132021000166,0.573899034168,0.818911684352,0.00207333405928,0.0,0.818869860405,-0.573839666895,-0.0118716182251,0.0,-0.00853220982221,0.00851106486945,-0.999927378948,0.0,0.661504600816,0.260662983151,0.303299029179,1.0,-0.00308,-0.004048,0.155
0.464904126636,0.546401708162,-0.123997193655,-1.35782186995,0.0794265421869,1.89486104004,0.158937394488,-0.000108089998998,-0.0195421466932,-0.000409660468154,-0.026461103327,-0.00333221935737,0.0150915224906,-0.00467559187329,0.573860897664,0.818938348981,0.00209704609541,0.0,0.818896764137,-0.573801370058,-0.0118669417366,0.0,-0.00851516969402,0.00852740227821,-0.999927385011,0.0,0.661459307366,0.26059507911,0.303311012583,1.0,-0.00342,-0.00449485714286,0.172
0.464848353177,0.54607226695,-0.123997904922,-1.35838304119,0.0794029076391,1.89505329391,0.158916422697,-0.00157088866283,-0.014109461815,0.000329448447401,-0.0298139184461,-0.00183058230685,0.00697082494985,-0.00679949160526,0.573914952876,0.81890054216,0.00206780479259,0.0,0.818858465186,-0.573855425607,-0.0118958562609,0.0,-0.00855506685375,0.00852061329238,-0.999927102333,0.0,0.66139352419,0.26050470737,0.303293869641,1.0,-0.0038,-0.00499428571429,0.191
0.464800737125,0.545796014946,-0.12399658529,-1.35885599014,0.0793543993084,1.89521113662,0.158849523144,-0.00206365725492,-0.0187736268181,-0.000217258310362,-0.0301173129661,-0.00429988909751,0.00719050548461,-0.00560572244428,0.573911717747,0.818902919324,0.00202382253629,0.0,0.818860414062,-0.573852513997,-0.0119021579266,0.0,-0.00858550151949,0.00848817948434,-0.99992711733,0.0,0.661338485656,0.26042431957,0.30327793444,1.0,-0.00408,-0.00536228571429,0.205
0.464720649783,0.545358071061,-0.123999121593,-1.35962715989,0.0792818721226,1.89545954653,0.158733478642,-0.0030753100524,-0.0178737742571,-0.000193325369855,-0.0426976281319,-0.000529200687011,0.0230582413823,-0.000299955393097,0.573907682718,0.818905958542,0.00193640985784,0.0,0.818862503295,-0.573849026437,-0.0119265441391,0.0,-0.00865567779722,0.00843055104753,-0.999926999861,0.0,0.661247876587,0.260289205871,0.303242458207,1.0,-0.00448,-0.005888,0.225
0.464661584135,0.544975771241,-0.124001581645,-1.36024401322,0.0792697748479,1.89566484221,0.158671066342,-0.00200189574883,-0.0290750414867,-0.00152018067118,-0.0453634754465,-0.00257059031198,0.0232350374378,-0.00338182183923,0.573937740539,0.818884919734,0.00192486863892,0.0,0.818841060427,-0.573878882354,-0.0119621506655,0.0,-0.00869115065598,0.00844185373427,-0.999926596809,0.0,0.66117371606,0.26019249893,0.303237364265,1.0,-0.00478,-0.00628228571429,0.24
0.464599953489,0.544573475705,-0.124002054883,-1.36092091573,0.0792413340281,1.89590244799,0.158595278201,-0.00597757234442,-0.0235007273213,-0.000450142718236,-0.0415280142133,-0.0012892630043,0.00474952594194,-0.00499919312451,0.573956635022,0.818871736393,0.00189930310715,0.0,0.818827406685,-0.573897750472,-0.0119915372405,0.0,-0.00872969321514,0.00843798625842,-0.999926293706,0.0,0.661093769781,0.260087930099,0.303220522137,1.0,-0.0051,-0.00670285714286,0.256
0.46453617503,0.544087161955,-0.124010197497,-1.36170821773,0.0792076675588,1.89618788158,0.158481060213,-0.00117315657506,-0.0299538919348,-0.00155347402595,-0.0489954832405,-0.000160170155597,0.0123534557729,-0.00565106650405,0.573955949206,0.818872235737,0.00189124618117,0.0,0.818827696637,-0.573896998594,-0.0120077110619,0.0,-0.00874756911417,0.00844066446357,-0.999926114879,0.0,0.661002703687,0.259967905396,0.303214947541,1.0,-0.00544,-0.00714971428571,0.273
0.464456757512,0.543569835146,-0.124007758188,-1.3625440768,0.0791574975876,1.89647297343,0.158381779495,-0.00384180884707,-0.030178050369,-0.000908078233375,-0.0460525970683,-0.00268815486418,0.0181051992218,-0.0119726590689,0.573971024435,0.818861732608,0.00186356650416,0.0,0.818816774855,-0.57391213633,-0.0120289604732,0.0,-0.00878070103671,0.00843035659087,-0.999925911444,0.0,0.660903652993,0.259835627874,0.30320774281,1.0,-0.00578,-0.00759657142857,0.29
0.464392042048,0.543051912662,-0.124016216434,-1.36335771383,0.0791075028974,1.89676501622,0.158270014728,-0.00308707782087,-0.0308316976,-0.000211244991461,-0.052357591814,-0.00245411857663,0.014490997359,-0.00632420349904,0.573970315368,0.81886224248,0.00185790672999,0.0,0.818817241182,-0.573911481044,-0.012028481649,0.0,-0.00878356456454,0.00842543968433,-0.999925927736,0.0,0.660809676858,0.259709909328,0.303212436725,1.0,-0.0061,-0.00801714285714,0.306
0.464307980677,0.54246339213,-0.124013758172,-1.36427566061,0.0790624113161,1.8970961769,0.158167588443,-0.00571517038157,-0.0349203031173,-2.94043459601e-05,-0.052653500657,-0.00557775730354,0.0208702098028,-0.00568793687998,0.573992506898,0.818846669937,0.00186549186352,0.0,0.81880164027,-0.573933514575,-0.0120391710629,0.0,-0.00878773602312,0.00843802423521,-0.999925784967,0.0,0.66070344666,0.259569733391,0.303220400961,1.0,-0.00644,-0.008464,0.323
0.464231338636,0.541817610292,-0.1240173164,-1.36528129484,0.0790020219218,1.8974707226,0.158026804507,-0.00125613994078,-0.031596994031,0.000720947988403,-0.0558635689543,-0.00209142707445,0.0193759364533,-0.0105057686721,0.573982230037,0.818853847414,0.00187698647577,0.0,0.818808975353,-0.573923196278,-0.0120321883463,0.0,-0.00877552659868,0.00844331823223,-0.999925847506,0.0,0.660587309276,0.259421793413,0.303230979971,1.0,-0.0068,-0.00893714285714,0.341
0.464147750572,0.54119241071,-0.124020419494,-1.36621855803,0.0789494159719,1.89782717263,0.157898409484,-0.00265704035147,-0.042495024188,-0.000954387204908,-0.0605016521913,-0.00338192696282,0.0234997632011,-0.00142037388805,0.573985697682,0.818851325802,0.00191624375305,0.0,0.818806951979,-0.573926480342,-0.0120132200103,0.0,-0.00873742632249,0.00846461314576,-0.999926001115,0.0,0.660483900258,0.259277416552,0.303257877426,1.0,-0.00712,-0.00935771428571,0.357
0.464049935595,0.540457409997,-0.124018739268,-1.36735646183,0.0788768958205,1.89823753262,0.157765651951,-0.00864587710006,-0.0422355868821,0.000272120373502,-0.0611605484263,-0.0092125921384,0.0198436727957,-0.0114379098198,0.573999496771,0.818841642001,0.00192092003464,0.0,0.818797331062,-0.573940259445,-0.0120106675481,0.0,-0.00873250952146,0.00846712434444,-0.999926022805,0.0,0.660351317923,0.259104486801,0.303271293686,1.0,-0.00748,-0.00983085714286,0.375
0.463953639896,0.539719664519,-0.12402899292,-1.36849699797,0.0788112994558,1.89867649943,0.157612137324,-0.0116232202904,-0.0383115920214,-0.001900575151,-0.0699504562071,-0.00495684667578,0.0248787976046,-0.00893474495197,0.574005534602,0.818837340378,0.00195016670889,0.0,0.81879344559,-0.573946205243,-0.0119914072544,0.0,-0.00869988874126,0.00848008111859,-0.999926197357,0.0,0.660225637839,0.258928432698,0.303288164405,1.0,-0.00782,-0.0102777142857,0.392
0.46385536451,0.539006759907,-0.124024392577,-1.36959967256,0.0787531752179,1.89909136097,0.157485815236,-0.00814202247986,-0.0524518117833,0.000662553654266,-0.0650282378679,-0.00541017472489,0.0267494218677,-0.00343055632182,0.574024785091,0.818823781966,0.00197663579291,0.0,0.818780132088,-0.573965242993,-0.011989246692,0.0,-0.00868272724547,0.00850071853654,-0.999926171291,0.0,0.660099722363,0.258763438593,0.303302817245,1.0,-0.00814,-0.0106982857143,0.408
0.463749598739,0.538230394247,-0.124030015621,-1.37080284223,0.0786816623642,1.89955629838,0.157336668839,-0.0106599689785,-0.0510562423333,0.000556332795242,-0.0711006376258,-0.0024052369298,0.0271792515215,-0.0112943887959,0.574040618116,0.818812607876,0.00200719623859,0.0,0.818769391107,-0.573980979165,-0.0119694045332,0.0,-0.00864877339382,0.00851451914968,-0.999926348129,0.0,0.65996700297,0.25857771786,0.303319008365,1.0,-0.00848,-0.0111451428571,0.425
0.463648271123,0.537485785022,-0.124036058565,-1.37199945257,0.078618154818,1.90000482486,0.157186454391,-0.0053402261837,-0.0424305969791,0.000344309095875,-0.078746263117,-9.32576670826e-05,0.0343389334274,-0.00845269958495,0.57405388435,0.818803309459,0.00200628581193,0.0,0.818760023782,-0.573994191429,-0.0119765839849,0.0,-0.00865503683671,0.00851803517543,-0.999926263989,0.0,0.65982993467,0.258395232965,0.303314376486,1.0,-0.0088,-0.0115657142857,0.441
0.463527252269,0.536648503309,-0.124042433631,-1.37330025744,0.0785382543914,1.90049367117,0.157035114061,-0.00947710237807,-0.0522548947212,-0.000534648144225,-0.082852144589,-0.00579405677511,0.0270554373339,-0.0121417944515,0.574083776207,0.818782306394,0.00202473043596,0.0,0.81873930403,-0.574024044481,-0.0119622445964,0.0,-0.00863239646687,0.00852522107474,-0.99992639846,0.0,0.659685002357,0.258188516944,0.303328923721,1.0,-0.00914,-0.0120125714286,0.458
0.463404777189,0.535742146028,-0.124042872227,-1.37474052979,0.0784608945528,1.90102460801,0.156857293188,-0.0028901253658,-0.0471725538312,0.000967481749124,-0.078403803644,-0.00339270871763,0.0369153067974,-0.0134362845734,0.574097216396,0.818772878376,0.00202649049024,0.0,0.818729792196,-0.574037370192,-0.0119738003369,0.0,-0.00864070805557,0.00853343787615,-0.999926256582,0.0,0.65951646858,0.257971918538,0.303329159375,1.0,-0.0095,-0.0124857142857,0.476
0.46329324987,0.534888151504,-0.12404106707,-1.37610063525,0.078387665783,1.90151395167,0.156686279795,-0.00648534877,-0.0527504006544,0.00246747285935,-0.0843735496536,-0.00145941408919,0.031011896258,-0.0139697287333,0.574102176133,0.818769423605,0.00201723338205,0.0,0.818726087376,-0.574042240658,-0.0119936104852,0.0,-0.00866219114738,0.00853728384263,-0.999926037879,0.0,0.659352964826,0.257770540269,0.30332674614,1.0,-0.00982,-0.0129062857143,0.492
0.463175465808,0.534044076772,-0.12405455158,-1.37749612069,0.0783042438736,1.9020077511,0.156524070978,-0.00886610253349,-0.0480286758509,-0.000317780198797,-0.0908371150977,-0.0111441693382,0.0235739817133,-0.00929860955581,0.574129283551,0.818750544411,0.00196435691002,0.0,0.818706521748,-0.574069572846,-0.0120209683448,0.0,-0.00871466462872,0.00850998560026,-0.999925814631,0.0,0.659187193733,0.257550500966,0.303301219795,1.0,-0.01014,-0.0133268571429,0.508
0.463052122321,0.533127770391,-0.124053008338,-1.37897431289,0.0782165818588,1.90257325778,0.15633376902,-0.00618902715919,-0.0499707786187,-0.000978050788355,-0.0900024626835,-0.00997808677227,0.0290226141763,-0.0102109776803,0.574130859425,0.81874943381,0.00196667056313,0.0,0.818705421304,-0.574071119047,-0.0120220757316,0.0,-0.00871422670339,0.00851253241645,-0.999925796769,0.0,0.659016274133,0.257330844996,0.303292826153,1.0,-0.01048,-0.0137737142857,0.525
0.462912970816,0.532167132534,-0.124049257755,-1.3805244739,0.0781310856444,1.903149495,0.156147823943,-0.00993206659566,-0.0582239506639,-3.77524825635e-06,-0.0904943900308,-0.00535512627753,0.0302933474788,-0.00757720433601,0.574151649735,0.818734872569,0.00195919553582,0.0,0.818690648385,-0.574091827474,-0.0120392182296,0.0,-0.00873233778204,0.00851647604012,-0.999925605189,0.0,0.658834938801,0.257095197304,0.303282109972,1.0,-0.01082,-0.0142205714286,0.542
0.462784801863,0.531228656027,-0.124052475695,-1.38204590771,0.0780419745924,1.90369864644,0.155955904047,-0.0106569734497,-0.0562087188086,-0.000882584131337,-0.0909166978171,-0.00602491030002,0.0388104624739,-0.00732209448578,0.574160638947,0.818728637137,0.00193036732238,0.0,0.818683979675,-0.574100884993,-0.0120607700547,0.0,-0.00876644102275,0.00850534399676,-0.999925401535,0.0,0.658652861318,0.256863468341,0.303267115134,1.0,-0.01114,-0.0146411428571,0.558
0.462648547988,0.530176641777,-0.124055341565,-1.38369680065,0.0779391457824,1.90427745876,0.155729098061,-0.0101132762325,-0.0572386152678,-0.000306490581097,-0.0988255270497,-0.00183946860748,0.0358511626792,-0.0187637084671,0.574150413019,0.81873585157,0.00191193244598,0.0,0.818690922258,-0.574090710645,-0.0120738007463,0.0,-0.00878780007149,0.00849762302828,-0.999925279695,0.0,0.65845178966,0.25661258163,0.303272815291,1.0,-0.01148,-0.015088,0.575
0.462508283505,0.529063541374,-0.124060948433,-1.38542931145,0.0778317095236,1.90492975919,0.155488818814,-0.00532664158801,-0.0645203492521,-0.00101734977229,-0.0940914144783,-0.0056716810329,0.0366068206701,-0.0195219679438,0.574137656208,0.818744739508,0.00193653130457,0.0,0.81870017438,-0.574077889852,-0.012056025696,0.0,-0.00875925645582,0.00850742064721,-0.999925446831,0.0,0.658249343275,0.25635282362,0.303288896356,1.0,-0.01184,-0.0155611428571,0.593
0.462375768576,0.528031411698,-0.124057094708,-1.38703680848,0.0777197568826,1.90555816906,0.155272788376,-0.00895294559089,-0.0637644484668,0.000243908899044,-0.0967239462056,-0.00610067579358,0.0320973402474,-0.00864507074745,0.574123631246,0.818754487507,0.00197284887208,0.0,0.818710537152,-0.574063847274,-0.0120209197231,0.0,-0.00870980844448,0.0085168502179,-0.999925798497,0.0,0.658064870728,0.256115121506,0.303304805548,1.0,-0.01216,-0.0159817142857,0.609
0.462230892014,0.526868036542,-0.124058594393,-1.38879573122,0.0776166311352,1.90622530849,0.155022620879,-0.0142756383106,-0.0670991569442,-0.00060146515823,-0.10030784991,-0.00431876793413,0.0441296585622,-0.0104633323525,0.574105815276,0.818766826763,0.0020354752588,0.0,0.81872367228,-0.574045746998,-0.011990650656,0.0,-0.00864925759801,0.00855055867401,-0.999926036409,0.0,0.657859528417,0.255853998704,0.303344295805,1.0,-0.0125,-0.0164285714286,0.626
0.462083898978,0.525703360542,-0.124062060214,-1.39063380247,0.0775061800534,1.90689143534,0.154783939528,-0.0115824744606,-0.0677916209153,-0.000110572320597,-0.106438047739,-0.00231349821032,0.0423194656522,-0.0207109208759,0.574102459042,0.818769196643,0.00202880576016,0.0,0.818725913525,-0.574042378162,-0.0119988957032,0.0,-0.00865987244153,0.00854979598844,-0.999925951057,0.0,0.657636268278,0.255579757991,0.303346728377,1.0,-0.01284,-0.0168754285714,0.643
0.461937546268,0.524597246584,-0.124064436613,-1.39238777221,0.0773884854191,1.9075236795,0.154537182603,-0.0088122755949,-0.068351696789,0.000208214248747,-0.113160864759,-0.0123209021983,0.0427605870153,-0.0186339881093,0.57408440229,0.818781906766,0.0020087559206,0.0,0.818738420885,-0.574024466415,-0.0120023758088,0.0,-0.00867442011444,0.00853518672143,-0.99992594977,0.0,0.657423872435,0.255312368454,0.303344714903,1.0,-0.01316,-0.017296,0.659
0.461779857685,0.523401789618,-0.124064052379,-1.39429892562,0.0772785211416,1.90822395506,0.154279774324,-0.0065705755378,-0.0685717842175,0.00733646987373,-0.112901002476,-0.0106836407441,0.0422524931898,-0.0145128770943,0.574075422477,0.81878822863,0.00199821576119,0.0,0.818744503304,-0.574015432349,-0.0120195106634,0.0,-0.00869459455892,0.00853629818317,-0.999925765064,0.0,0.657191717361,0.255027525719,0.303336267221,1.0,-0.0135,-0.0177428571429,0.676
0.461608022432,0.522091049868,-0.124064468004,-1.39636118146,0.0771428225055,1.90903338561,0.154009711098,-0.00444715289537,-0.0794816122997,0.00160580574709,-0.114190421625,-0.00883529783018,0.0505197227399,-0.0135144398755,0.574069335838,0.818792395946,0.00203884594961,0.0,0.818749332695,-0.574009304708,-0.0119831223394,0.0,-0.0086415392817,0.00854861143064,-0.999926119792,0.0,0.656953350261,0.254719770614,0.303346030232,1.0,-0.01386,-0.018216,0.694
0.461463994527,0.520986058439,-0.124079772531,-1.39813964151,0.0770399466654,1.90970265404,0.153765657977,-0.00718490102522,-0.0720803024311,0.000442406847586,-0.123588616922,-0.00151123645369,0.0366712807705,-0.00481049069837,0.574065661663,0.818794986986,0.0020328029023,0.0,0.818751854291,-0.574005665636,-0.0119851496956,0.0,-0.00864670658185,0.00854478854944,-0.999926107797,0.0,0.656742334356,0.254448429973,0.303334352661,1.0,-0.01416,-0.0186102857143,0.709
0.461273781885,0.519604510041,-0.124083270535,-1.40030705065,0.0768947978518,1.91048808867,0.153471026426,-0.00880564039773,-0.0780604703106,-0.000591883663963,-0.122095201699,-0.00434156640944,0.0452712816384,-0.0178511465823,0.574058686349,0.818799898176,0.00202441997312,0.0,0.81875673356,-0.573998802861,-0.0119805035292,0.0,-0.00864778692548,0.00853518393108,-0.999926180484,0.0,0.65648068045,0.254112255471,0.303341066255,1.0,-0.01452,-0.0190834285714,0.727
0.461100609313,0.518275091774,-0.12408655125,-1.40240583106,0.0767697568723,1.91124079051,0.153188254165,-0.00910793273437,-0.0755589722483,0.00328775347155,-0.123918297253,-0.00633798491316,0.0483023693824,-0.0169164506805,0.57404884575,0.818806829826,0.00201122443649,0.0,0.818763411979,-0.573988939141,-0.0119966599822,0.0,-0.00866869344705,0.00853355009478,-0.999926013401,0.0,0.656221069362,0.253795924704,0.30334062435,1.0,-0.01486,-0.0195302857143,0.744
0.460930995628,0.516971454338,-0.124090407056,-1.40441561072,0.0766345453222,1.91195768916,0.152915654311,-0.00820608456552,-0.0791437707945,0.0001495493308,-0.124113726163,-0.00396458696393,0.0442063099257,-0.0222833313012,0.574036850541,0.818815233252,0.00201368256044,0.0,0.818771911852,-0.573976998454,-0.0119878483849,0.0,-0.00866019213511,0.0085303776877,-0.999926114135,0.0,0.655973748513,0.253487830026,0.303360909184,1.0,-0.01518,-0.0199508571429,0.76
0.460751998713,0.515620788317,-0.124098950324,-1.40659208986,0.0764970921215,1.91279608129,0.152617320138,-0.0124287108791,-0.0835582313941,-0.000421915001509,-0.127862318207,-0.0130853004649,0.0513078987594,-0.00841300443652,0.574023283007,0.818824737208,0.00201673072503,0.0,0.818781544089,-0.573963507024,-0.0119759160712,0.0,-0.00864881300659,0.00852588070687,-0.999926250976,0.0,0.655715224869,0.253159535773,0.303345219627,1.0,-0.01552,-0.0203977142857,0.777
0.460558857569,0.514159822323,-0.124105378599,-1.40896634141,0.0763590098714,1.91363245122,0.152294663249,-0.00765831190782,-0.0794509440731,-0.00177122213593,-0.135325417886,-0.0051146304651,0.0509821169842,-0.022854896927,0.574009374831,0.818834640732,0.00195336749957,0.0,0.818790475905,-0.57394972745,-0.0120255490391,0.0,-0.00872596938503,0.00850234028693,-0.99992578108,0.0,0.655414467213,0.25280106244,0.30331208008,1.0,-0.01588,-0.0208708571429,0.795
0.460378959369,0.512902708041,-0.124103218624,-1.41097619012,0.0762271887335,1.91432669555,0.152009931324,-0.0101651827377,-0.0834188488135,-0.000630995304787,-0.134962792228,-0.0117144935445,0.0465780316386,-0.0214364299569,0.573991480454,0.818847309465,0.0019002760079,0.0,0.818802408251,-0.573932023102,-0.0120580263953,0.0,-0.00878322232181,0.00847731820824,-0.999925492265,0.0,0.655160123488,0.252488326357,0.303296439162,1.0,-0.01618,-0.0212651428571,0.81
0.460166884471,0.511308528901,-0.124103360835,-1.41353383149,0.0760775921916,1.91529059459,0.151637617275,-0.0101701407224,-0.0811561341127,0.000933006696644,-0.133255513807,-0.0043193616163,0.0501796502655,-0.0248399675554,0.573954041984,0.818873547113,0.00190221683553,0.0,0.818828579749,-0.573894492527,-0.0120671178698,0.0,-0.00878994108159,0.00848372392426,-0.999925378898,0.0,0.654846809127,0.252107975249,0.303279240957,1.0,-0.01656,-0.0217645714286,0.829
0.459970002424,0.509924916509,-0.124105999613,-1.41572822402,0.0759415471426,1.91611759523,0.151337212496,-0.0129124454771,-0.0821396705183,0.00150410152764,-0.139538280807,-0.0124422355467,0.0514094137466,-0.0206371929099,0.573948955126,0.818877087904,0.00191277723531,0.0,0.818832267135,-0.573889368582,-0.0120605898922,0.0,-0.00877858722451,0.0084885701182,-0.999925437512,0.0,0.654582259371,0.251769450788,0.303275161867,1.0,-0.01688,-0.0221851428571,0.845
0.45977183923,0.508496589805,-0.124109587823,-1.41796519887,0.0758068325651,1.91691159142,0.151022932279,-0.00979555658347,-0.086433390087,-0.00104562577367,-0.135915693556,-0.00812350085296,0.0499206804683,-0.0198726972054,0.573936127505,0.818886104033,0.00190185901499,0.0,0.818841043691,-0.573876496645,-0.0120771961416,0.0,-0.00879858530744,0.00848902284541,-0.999925257901,0.0,0.654301721657,0.251423174147,0.303278804186,1.0,-0.0172,-0.0226057142857,0.861
0.459571476916,0.507049431699,-0.12411812812,-1.42023340378,0.0756556896899,1.91773146851,0.150708482431,-0.0129143146775,-0.0867606228763,-0.00114295975628,-0.140620219409,-0.0148403362288,0.050523059652,-0.00709060155508,0.573927264598,0.818892336218,0.00189302285743,0.0,0.81884722632,-0.57386773711,-0.0120742351156,0.0,-0.00880132331113,0.00847999251432,-0.999925310428,0.0,0.65400417739,0.251047220788,0.303281517534,1.0,-0.01754,-0.0230525714286,0.878
0.459338500381,0.505356531897,-0.124131092048,-1.42283922973,0.0754926926157,1.91872916506,0.150354393902,-0.0149783734058,-0.0926823153684,-0.00341177974048,-0.143924257339,-0.011660673579,0.0562267062152,-0.0257004557531,0.573926027675,0.818893048998,0.00195856085444,0.0,0.818848908053,-0.573866325621,-0.0120271775494,0.0,-0.00872518796011,0.00850663943123,-0.999925751334,0.0,0.653710316548,0.250662826301,0.303312612846,1.0,-0.01788,-0.0234994285714,0.895
0.459126594006,0.503788916534,-0.12412597117,-1.42517601077,0.0753390377554,1.9196206709,0.150028551894,-0.0160553645408,-0.0990842130414,0.000612121400408,-0.147195293288,-0.00762750209786,0.0518952149398,-0.0189947219791,0.573907712574,0.818905639779,0.00205851590931,0.0,0.818862881252,-0.573847667188,-0.0119659296562,0.0,-0.00861785864871,0.00855314626097,-0.999926285384,0.0,0.653428702888,0.25030639631,0.303372582864,1.0,-0.0182,-0.02392,0.911
0.458902093668,0.502103774939,-0.124137650764,-1.42767671287,0.07518216823,1.92054984937,0.149684700115,-0.00995800119089,-0.102063712674,0.000417833084234,-0.152035458636,-0.0128735838523,0.0529021446511,-0.0204715646359,0.573904029704,0.818907979666,0.00215230799435,0.0,0.818866503436,-0.573843659535,-0.0119101159869,0.0,-0.00851836472938,0.00859788201664,-0.999926754261,0.0,0.653124397433,0.24991615347,0.303439789004,1.0,-0.01854,-0.0243668571429,0.928
0.458664888254,0.500369827083,-0.124146198514,-1.43026137249,0.0750188275834,1.92146222795,0.149309932151,-0.0129786422972,-0.102533908163,-0.00163472611173,-0.149862685827,-0.00866946005156,0.0554383386282,-0.0250623306455,0.573884926405,0.818921229021,0.00220426973537,0.0,0.818880409075,-0.573824328988,-0.0118853689483,0.0,-0.0084684803892,0.00862603346467,-0.999926935524,0.0,0.652799469106,0.249508130496,0.303498869152,1.0,-0.01888,-0.0248137142857,0.945
0.458426104429,0.498783540287,-0.124141540504,-1.43272962185,0.0748617408639,1.9223738996,0.148973788205,-0.0196734682712,-0.0975876308049,0.00595441782876,-0.157531757137,-0.00905215576902,0.0633952458006,-0.0232254771745,0.573884959466,0.81892114296,0.0022275127373,0.0,0.818880603514,-0.57382424695,-0.0118759295278,0.0,-0.00844741160241,0.00863965065037,-0.999926996172,0.0,0.652494558022,0.249119684285,0.303509367862,1.0,-0.0192,-0.0252342857143,0.961
0.458151927168,0.497024269409,-0.1241472128,-1.43553685069,0.0746886528475,1.92339083529,0.148553776453,-0.0143301601982,-0.0934799155681,-0.000909876842021,-0.156612358083,-0.0107951754424,0.0574120534105,-0.0252286694414,0.573865139844,0.818935107097,0.00219966767987,0.0,0.818894136028,-0.573804470488,-0.0118983413877,0.0,-0.00848195363423,0.00862950445334,-0.999926791378,0.0,0.652144110087,0.248668890362,0.303488048855,1.0,-0.01956,-0.0257074285714,0.979
0.457875740868,0.495249136275,-0.124141241529,-1.43841587247,0.0745179432438,1.924378633,0.148140314926,-0.0212602752873,-0.0994328353734,-0.00029712016798,-0.16331348543,-0.00802284554839,0.0571796230941,-0.0285716574391,0.57384743221,0.818947757384,0.00210763469716,0.0,0.818905307482,-0.573786859282,-0.011978497147,0.0,-0.0086005958701,0.00859994864494,-0.999926032581,0.0,0.651767190705,0.248213956756,0.303440083493,1.0,-0.01992,-0.0261805714286,0.997
0.457625284908,0.493704320932,-0.124174804547,-1.4409087533,0.0743549189921,1.92528031122,0.147784845986,-0.0156414377629,-0.104369317197,-0.00756144962759,-0.177358708427,-0.0108206830515,0.0658399440372,-0.0189866756309,0.573866771834,0.818934339697,0.0020548361571,0.0,0.818891345543,-0.57380656086,-0.0119892372443,0.0,-0.0086394859546,0.00856307728548,-0.999926013758,0.0,0.651461444388,0.247790846978,0.30340857163,1.0,-0.0242291428571,-0.0318440163265,1.012
0.457315062226,0.491261495697,-0.124225141106,-1.44468521563,0.0741423560973,1.92670562373,0.147238628231,-0.0199480331912,-0.144899923052,0.00569816357393,-0.234684980755,-0.018988896731,0.0900664894913,-0.0270336769608,0.573842100596,0.818951430325,0.00213195982547,0.0,0.818909455827,-0.573781586407,-0.0119474331584,0.0,-0.00856125301365,0.00860198781581,-0.999926352664,0.0,0.650991743876,0.247206124458,0.30343611753,1.0,-0.0311822857143,-0.0409824326531,1.03
0.45690967056,0.488647888745,-0.124233969729,-1.44892815515,0.073909344698,1.92823620621,0.146615585152,-0.0233657862742,-0.18126644396,-0.00377291788769,-0.280632105978,-0.0221002891315,0.0944437492799,-0.0460824157115,0.573819147447,0.818967693773,0.00206142668401,0.0,0.818924396863,-0.57375852935,-0.0120303416883,0.0,-0.00866986696702,0.0085915584291,-0.999925506491,0.0,0.650446471723,0.246534989736,0.303367111962,1.0,-0.0373628571429,-0.0491054693878,1.046
0.456385479715,0.485220764567,-0.124306311506,-1.45421848075,0.0735892359489,1.93024729491,0.14583069702,-0.0334415350488,-0.215084087641,-0.0081386529091,-0.328524496415,-0.0225758922461,0.121568063132,-0.0573943125847,0.57383367757,0.818957222697,0.00217365617991,0.0,0.81891562974,-0.573772830375,-0.0119447641975,0.0,-0.00853523038394,0.00863451522771,-0.999926294778,0.0,0.649807111443,0.245654747551,0.303406069089,1.0,-0.0439297142857,-0.0577361959184,1.063
0.455806063066,0.481530111441,-0.124396704734,-1.46002484737,0.07323588288,1.93226805773,0.144934076569,-0.0364199785494,-0.237311817284,-0.00517775532156,-0.377491044212,-0.026323430494,0.132605339914,-0.0594494441672,0.573828268893,0.818961248875,0.00208268144923,0.0,0.818918470708,-0.573767799737,-0.0119915478254,0.0,-0.00862580350381,0.0085868007599,-0.99992592844,0.0,0.649063970013,0.244666709749,0.303380940149,1.0,-0.0501102857143,-0.0658592326531,1.079
0.455084872491,0.477014811487,-0.124481497599,-1.46703700225,0.0728081102684,1.93476254638,0.143914335213,-0.0412953113406,-0.283276463198,-0.00451299313953,-0.422068756928,-0.0259885520206,0.157436725463,-0.0642499836342,0.573870234859,0.81893186911,0.00207224494089,0.0,0.818888941397,-0.573809790885,-0.0119988517704,0.0,-0.00863733396679,0.00858288759669,-0.999925862503,0.0,0.648170773596,0.243478982823,0.303390455312,1.0,-0.0566771428571,-0.0744899591837,1.096
0.45430582586,0.472302545157,-0.124551940834,-1.47429888111,0.0723838265974,1.93740394495,0.142853817682,-0.0524834744604,-0.309375880862,-0.00971662117037,-0.471139739165,-0.029183317607,0.17097694762,-0.0732783532062,0.573926141104,0.818892476442,0.00215487465744,0.0,0.818850451063,-0.573865170052,-0.0119771572723,0.0,-0.00857156149687,0.0086386900615,-0.999925947942,0.0,0.647252163137,0.242246697151,0.303424711494,1.0,-0.0628577142857,-0.0826129959184,1.112
0.453327825074,0.466382553491,-0.124589599266,-1.48320324297,0.071834992534,1.9407315476,0.141422084224,-0.0578763100869,-0.343075213567,0.000790365753317,-0.515002065079,-0.039234770038,0.192275587947,-0.0811343539677,0.573856985952,0.818940113628,0.00244884992798,0.0,0.818901898279,-0.573794836933,-0.0118284828093,0.0,-0.00828184106191,0.00879339464805,-0.999927040998,0.0,0.646130745976,0.240754526646,0.303563190576,1.0,-0.0698108571429,-0.0917514122449,1.13
0.452277898014,0.460328190797,-0.124617506415,-1.49262345367,0.0712262366531,1.9439702492,0.140007436009,-0.062797123931,-0.36617718474,0.000387769998095,-0.58184127479,-0.0396169068061,0.194464882657,-0.0786792714821,0.573853287101,0.818943025943,0.00233923996663,0.0,0.818903017169,-0.573791180796,-0.0119279593577,0.0,-0.00842624609848,0.00876067802259,-0.99992612172,0.0,0.644869421176,0.239150172587,0.303532975703,1.0,-0.0763777142857,-0.100382138776,1.147
0.45120052111,0.454170495405,-0.124702361147,-1.50218035,0.0705814218914,1.9472103386,0.138538435204,-0.0687998879637,-0.395250759405,-0.00626778435653,-0.602371510863,-0.0407234985414,0.212195261746,-0.0979693969569,0.573857999807,0.818940162923,0.00218002507939,0.0,0.818898067765,-0.573796531435,-0.0120100801129,0.0,-0.00858481141962,0.00867746594443,-0.999925498524,0.0,0.643581580185,0.237477066049,0.303501759776,1.0,-0.0825582857143,-0.10850517551,1.163
0.449968212153,0.446986790984,-0.124769781191,-1.512741644,0.0698655790599,1.95122727491,0.13685817564,-0.0700994436347,-0.424539380693,-0.00358930376609,-0.640644232146,-0.0439122638619,0.241633801155,-0.0941013694006,0.573824645888,0.818962020247,0.00268925005686,0.0,0.818927264288,-0.573761990141,-0.0116645349842,0.0,-0.00800997588812,0.00889586912183,-0.999928349333,0.0,0.642241366062,0.235652312292,0.303751879915,1.0,-0.0891251428571,-0.117135902041,1.18
0.448613572536,0.439510773202,-0.124792057119,-1.52428576206,0.069100466162,1.95515061102,0.135061940794,-0.0802657721053,-0.451904994359,-0.0062745314324,-0.702014078721,-0.0495070293642,0.234226207961,-0.110898956689,0.573783082229,0.818991534177,0.0025667870585,0.0,0.81895468164,-0.573720316519,-0.011788754555,0.0,-0.00818242983249,0.00886644090897,-0.999927214385,0.0,0.640639514104,0.233655478734,0.303713631736,1.0,-0.095692,-0.125766628571,1.197
0.447228213126,0.431914365826,-0.124826970964,-1.53567387691,0.0683342488789,1.95919593564,0.133180469942,-0.0891178598926,-0.491767170806,-0.0036054344203,-0.724718391122,-0.0466789860039,0.269516955795,-0.120603830943,0.573689224735,0.819056611216,0.00277271481269,0.0,0.819022406216,-0.573625701136,-0.0116876008108,0.0,-0.00798245992197,0.00897613902431,-0.999927852028,0.0,0.639091895829,0.231663287319,0.303828196682,1.0,-0.101872571429,-0.133889665306,1.213
0.445404950116,0.422550415734,-0.124869453718,-1.55006245345,0.0673034402445,1.96413068676,0.130815514408,-0.097792699307,-0.514697895125,-0.00160354295344,-0.774407169317,-0.0484857926952,0.24980410645,-0.126356516142,0.573604470711,0.819116351764,0.00265713262694,0.0,0.819080668986,-0.573541393102,-0.0117420182746,0.0,-0.00809425946254,0.00891185172793,-0.999927528305,0.0,0.637081199428,0.229083946101,0.303779887715,1.0,-0.109212,-0.143535771429,1.232
0.443748516592,0.414145816267,-0.124998796224,-1.56269460179,0.0663880408574,1.96854601934,0.128788239717,-0.102643226048,-0.546458525413,-0.00354798189493,-0.8131722475,-0.0636550909891,0.295242817863,-0.127797909578,0.573668115582,0.819071440426,0.00275962760492,0.0,0.819037695052,-0.573605347576,-0.0116149135661,0.0,-0.0079306595233,0.0089235164162,-0.999928735208,0.0,0.635339599252,0.226742352123,0.303853083657,1.0,-0.115392571429,-0.151658808163,1.248
0.442051307682,0.406003763543,-0.125046771297,-1.5751532484,0.0655683347009,1.97277812145,0.12668446288,-0.110689855357,-0.550878187733,-0.00154778751852,-0.866597910756,-0.0543746921103,0.27926858228,-0.140142223005,0.573652304411,0.819082705781,0.0027021541263,0.0,0.819047516957,-0.573588958744,-0.0117310815851,0.0,-0.00805895543469,0.00894292679118,-0.999927536023,0.0,0.633558470046,0.224449735611,0.303797258939,1.0,-0.121186857143,-0.159274155102,1.263
0.439811286359,0.395647241237,-0.125188655104,-1.59058625547,0.0644921107699,1.97804274959,0.124072572475,-0.129286280893,-0.583942261048,-0.0036097670795,-0.870589085058,-0.070042689852,0.300092391993,-0.1445673684,0.573766119914,0.819002522923,0.00283795447978,0.0,0.81896910982,-0.573702299385,-0.0116625786867,0.0,-0.00792369291323,0.00901596316049,-0.999927961155,0.0,0.631375443127,0.221479445269,0.30388984637,1.0,-0.12814,-0.168412571429,1.281
0.437574995084,0.385620262671,-0.125305932209,-1.60588279482,0.063313451581,1.98312138329,0.121422583659,-0.133737046611,-0.596827213976,-0.00380866252408,-0.902643622064,-0.0632788483223,0.294236509288,-0.165196605272,0.573768977683,0.819001299141,0.00260368120607,0.0,0.818965214853,-0.573706393008,-0.0117344954918,0.0,-0.00811697477621,0.00886538450643,-0.99992775723,0.0,0.629137773642,0.218522734505,0.303784724317,1.0,-0.134706857143,-0.177043297959,1.298
0.435316398072,0.375633177054,-0.12540753279,-1.62058012544,0.0622390200629,1.98807102345,0.118768023799,-0.151847050131,-0.626144509043,-0.00465087421437,-0.919120864692,-0.0674757775322,0.312406688769,-0.16853401263,0.573766010266,0.819002798244,0.0027800777908,0.0,0.818969056498,-0.573702865612,-0.0116384444115,0.0,-0.00793713275946,0.00895471390703,-0.999928404948,0.0,0.626989506272,0.215648652536,0.303898945273,1.0,-0.140887428571,-0.185166334694,1.314
0.432721849024,0.364757037268,-0.125538401506,-1.63675605584,0.0610089010998,1.99342881467,0.115920442623,-0.150928615224,-0.657323140102,-0.00465526786631,-0.945575834106,-0.0678804586047,0.318409001503,-0.173956337683,0.573890884376,0.818915309705,0.00277763598803,0.0,0.818881739139,-0.573827960965,-0.0116153097568,0.0,-0.00791822224181,0.00894064791238,-0.999928680742,0.0,0.62458686303,0.21240666138,0.30391224871,1.0,-0.147454285714,-0.193797061224,1.331
0.429965703809,0.353500699877,-0.125669186339,-1.65348884712,0.0597336272547,1.99888732337,0.112808349216,-0.159365214894,-0.67884159876,-0.00774584695229,-0.998464707219,-0.0733948600822,0.317617945672,-0.173613472925,0.573915932264,0.818897942784,0.00272192911573,0.0,0.818863598,-0.573853137465,-0.0116503817212,0.0,-0.00797863967467,0.00891540000505,-0.999928425914,0.0,0.622047659339,0.209022632866,0.303890933775,1.0,-0.154021142857,-0.202427787755,1.348
0.427197080781,0.342466293235,-0.125789528876,-1.66961361725,0.0585332463002,2.00411039038,0.10976813664,-0.172092782145,-0.695128947512,-0.00712664349818,-1.00689368935,-0.0795866580985,0.325886853935,-0.190633732131,0.57398219369,0.818851153425,0.00282431631252,0.0,0.818817774668,-0.573918631999,-0.0116448543457,0.0,-0.00791462703915,0.00899671265515,-0.999928206343,0.0,0.619569505604,0.205716926576,0.303958070505,1.0,-0.160201714286,-0.21055082449,1.364
0.424123106662,0.330560208352,-0.125853869907,-1.68723799147,0.0571174589216,2.00971567059,0.106377367612,-0.183830180606,-0.718575639573,-0.00147535383142,-1.03737248811,-0.0851062163982,0.332383994117,-0.201825669887,0.573920610136,0.818894752152,0.00269537742579,0.0,0.81885955633,-0.573857343993,-0.011727005296,0.0,-0.00805657607879,0.00893767767557,-0.999927602129,0.0,0.61661879875,0.20189923456,0.303895508641,1.0,-0.167154857143,-0.219689240816,1.382
0.420668234721,0.317405122477,-0.125866585905,-1.70628448543,0.0555279023306,2.01578622196,0.102655550735,-0.199513048271,-0.74836258853,0.000182851473998,-1.07135598329,-0.0850964845468,0.331583664076,-0.202494473831,0.573831087415,0.818957230602,0.00277208612491,0.0,0.818923168432,-0.573767717582,-0.0116703628168,0.0,-0.00796714787601,0.00896711518302,-0.999928055112,0.0,0.613730516804,0.198189284126,0.303950186146,1.0,-0.173721714286,-0.228319967347,1.399
0.417652758148,0.306131569229,-0.125947820861,-1.72248834298,0.0541888756246,2.02089589518,0.0993158641503,-0.202949150726,-0.760810248698,-0.00367799784684,-1.0937805089,-0.0941449359669,0.337214663979,-0.222383350525,0.573684636042,0.819059441324,0.00288389483975,0.0,0.819026964528,-0.573621060953,-0.0115955469462,0.0,-0.00784333039436,0.0090143483203,-0.999928609298,0.0,0.61092199388,0.194556485086,0.304020704679,1.0,-0.179902285714,-0.236443004082,1.415
0.413739784352,0.292332908339,-0.126075791624,-1.74238887546,0.0525568745448,2.02690969402,0.0952444085482,-0.223302951288,-0.776401384596,-0.00826891796325,-1.09607615654,-0.0831705789602,0.345308981867,-0.225359251718,0.57374222579,0.819019460062,0.00278015939988,0.0,0.818985009996,-0.573678284997,-0.0117271320352,0.0,-0.00800998648806,0.0090054330924,-0.999927368508,0.0,0.607793870459,0.190479391077,0.304005852208,1.0,-0.186469142857,-0.245073730612,1.432
0.409842984759,0.27898322749,-0.126202798027,-1.7615715472,0.0509500317375,2.03273084015,0.0911386140314,-0.234034536292,-0.8106618179,-0.000906938920675,-1.15212833448,-0.101879786143,0.3328387299,-0.249854016171,0.573690427618,0.819055888057,0.002737225065,0.0,0.819020501504,-0.573626224104,-0.0117949157572,0.0,-0.00809070689265,0.00900864715427,-0.999926689682,0.0,0.604566332141,0.186281072251,0.303978338323,1.0,-0.193036,-0.253704457143,1.449
0.405921790017,0.266004064321,-0.126351046333,-1.77980466553,0.0493410266442,2.03824948003,0.08717133437,-0.247811035756,-0.796627983917,-0.00907678556766,-1.15814187361,-0.103661857941,0.344488131114,-0.247345224574,0.57372745896,0.819029417299,0.00289194318158,0.0,0.818996457039,-0.573663176201,-0.0116666417705,0.0,-0.00789647353178,0.00906213843151,-0.999927759067,0.0,0.601485811765,0.182167031024,0.304088588782,1.0,-0.199216571429,-0.261827493878,1.465
0.401456292015,0.252003139068,-0.126544585276,-1.79951671315,0.0475952006467,2.04404566848,0.0828068632182,-0.264562593848,-0.820082941836,-0.0137996334593,-1.15474700394,-0.104496592208,0.346331044323,-0.255465810582,0.573881543999,0.818921413072,0.00290509384755,0.0,0.818888667118,-0.573817246716,-0.0116561202339,0.0,-0.00787860518739,0.00906835529947,-0.999927843653,0.0,0.598093281969,0.177592606752,0.304123008067,1.0,-0.205783428571,-0.270458220408,1.482
0.396534474816,0.236879649488,-0.126674356331,-1.82078267713,0.0456774515553,2.0501589425,0.0778694365019,-0.274502829969,-0.883074468603,-0.00368364698348,-1.16577978916,-0.105680404786,0.345057965048,-0.281914443087,0.573831009468,0.818957071785,0.00283443933357,0.0,0.818923054976,-0.573766558738,-0.0117351184009,0.0,-0.00798440542482,0.0090553368997,-0.999927122416,0.0,0.594324726334,0.172678066201,0.304098318487,1.0,-0.212736571429,-0.279596636735,1.5
0.392277624814,0.224018957753,-0.126745747339,-1.83873864749,0.0440298484345,2.0553591264,0.0736336508216,-0.290861379864,-0.863500683785,-0.00620860357335,-1.21779529089,-0.118719157174,0.329399605915,-0.294751976015,0.573743693442,0.819018087455,0.00287985375425,0.0,0.818984524379,-0.573678939736,-0.0117290166726,0.0,-0.0079543184999,0.00908817997904,-0.999927064241,0.0,0.591095647448,0.168530563389,0.304087112955,1.0,-0.218530857143,-0.287211983673,1.515
0.387098287587,0.209040645829,-0.126882039017,-1.85921238773,0.0421033988053,2.06111216123,0.0686280195393,-0.310073459169,-0.893708329039,-0.00690018796903,-1.20703588628,-0.119940577702,0.336488033538,-0.296996843351,0.573754651584,0.81900982726,0.00304130542473,0.0,0.818978452916,-0.573689454812,-0.0116382987656,0.0,-0.00778726613962,0.00916846818632,-0.999927646221,0.0,0.587373321809,0.163613553334,0.304194546595,1.0,-0.225097714286,-0.295842710204,1.532
0.381296432374,0.193003195673,-0.127078243345,-1.88122912826,0.0400003456755,2.06708625846,0.0630504468326,-0.32905846097,-0.896919759654,-0.015629937575,-1.2307431614,-0.112286188944,0.330580304492,-0.315547244519,0.573781195188,0.818991427072,0.00298819893967,0.0,0.818959045315,-0.573715801232,-0.0117050593751,0.0,-0.00787211789536,0.00916353193524,-0.999927027059,0.0,0.583276914035,0.158207370455,0.304180356766,1.0,-0.232050857143,-0.304981126531,1.55
0.37575016339,0.178429775385,-0.127325890708,-1.90097159728,0.0380931110017,2.0723895856,0.0578681655798,-0.347663745246,-0.92698650302,-0.0134284924958,-1.22286243377,-0.119469293454,0.341906118759,-0.314352747749,0.573949331373,0.818873351743,0.00305707770219,0.0,0.818841769193,-0.573883569741,-0.0116855597549,0.0,-0.00781473727671,0.00921035945024,-0.999927046919,0.0,0.579578413921,0.153173140282,0.304216990309,1.0,-0.238231428571,-0.313104163265,1.566
0.369684638858,0.162785451038,-0.127477159241,-1.92225206373,0.0359269912389,2.07780340153,0.0521571239579,-0.359602767668,-0.919667598465,-0.0109832591858,-1.24979819185,-0.130795118137,0.31697166149,-0.353937098902,0.57392050356,0.818894423291,0.00281531470246,0.0,0.818859204841,-0.573855033657,-0.011863806142,0.0,-0.00809977812123,0.00911440343433,-0.999925657859,0.0,0.575435630832,0.147798667113,0.304122967206,1.0,-0.244798285714,-0.321734889796,1.583
0.362993591449,0.145807493495,-0.127652233285,-1.94488354203,0.0335820288338,2.08360712441,0.0458548839303,-0.373462491604,-0.936230329731,-0.0102170939706,-1.2795918339,-0.13969549246,0.305572948702,-0.350435850815,0.573846845139,0.818945855956,0.00286883890854,0.0,0.818911451567,-0.573781321514,-0.0118227101586,0.0,-0.00803622803266,0.00913392581677,-0.999925992481,0.0,0.570983800945,0.142015337012,0.304149490202,1.0,-0.251751428571,-0.330873306122,1.601
0.357095967317,0.131331492138,-0.127802381371,-1.9638119036,0.0316634911648,2.08832340955,0.0403262385785,-0.401308365052,-0.964695188818,-0.00914265507639,-1.26849577404,-0.130492265052,0.301613883701,-0.382643084466,0.573802761953,0.818975979829,0.00307924333627,0.0,0.81894396856,-0.573736099496,-0.0117648372823,0.0,-0.00786859757456,0.00927260241083,-0.999926049274,0.0,0.56719864696,0.137072385111,0.304255895739,1.0,-0.257545714286,-0.338488653061,1.616
0.349976610463,0.114774985907,-0.128085328393,-1.98538339216,0.029296416931,2.09356887048,0.0338766217004,-0.430140990491,-0.977704384485,-0.0140390591618,-1.28306136645,-0.146660985302,0.299830664111,-0.385805784652,0.573928778557,0.818887437698,0.00314140512615,0.0,0.818856701539,-0.573862442524,-0.0116767421543,0.0,-0.00775935243634,0.00927415755821,-0.999926888553,0.0,0.562565213926,0.130852356578,0.304302961702,1.0,-0.264498857143,-0.347627069388,1.634
0.342122767325,0.0969504590973,-0.128276956307,-2.00840238703,0.0267217652277,2.09894113926,0.0266309016577,-0.443071963229,-1.00210109734,-0.0092972395234,-1.28852611012,-0.149281833849,0.304657356475,-0.403910742004,0.573818641776,0.818964239458,0.00323847806951,0.0,0.818935245852,-0.573752590452,-0.0115661122663,0.0,-0.00761429375286,0.0092891335099,-0.999927864663,0.0,0.558054284603,0.124933172642,0.30438027919,1.0,-0.271065714286,-0.356257795918,1.651
0.334858472222,0.0809697123486,-0.128451322155,-2.02902480312,0.0245547941969,2.10340790608,0.0199042536458,-0.456692524587,-1.01526961732,-0.0166984904541,-1.26648887083,-0.141238174667,0.268137507864,-0.429143524711,0.573727045806,0.819028735378,0.00315506533053,0.0,0.818996886138,-0.573659151513,-0.0118332279458,0.0,-0.0078819733718,0.00937321205632,-0.999925005884,0.0,0.553621667183,0.119285754972,0.304326090908,1.0,-0.277246285714,-0.364380832653,1.667
0.326676643309,0.063724608102,-0.128686826717,-2.05099415443,0.0219930608014,2.10819145147,0.0125023770754,-0.487827205439,-0.995598034909,-0.0161909916095,-1.29739339978,-0.149912151827,0.255609600691,-0.44391165784,0.573686901485,0.819056946242,0.00313125837201,0.0,0.819024927131,-0.573619263356,-0.0118260874918,0.0,-0.00789024089791,0.00934923015151,-0.999925165197,0.0,0.548871607044,0.113065770581,0.304309560815,1.0,-0.27998,-0.367973714286,1.684
0.317578509732,0.0455192904656,-0.128972502316,-2.07380757608,0.0193012406335,2.11291579012,0.00447102100858,-0.509813473076,-0.992482978435,-0.0136761847002,-1.27567052282,-0.147461977829,0.252979973447,-0.439687937727,0.573822428151,0.818961838323,0.00317414917244,0.0,0.818930380443,-0.57375462387,-0.0118072213487,0.0,-0.00784863204719,0.00937483610806,-0.999925252918,0.0,0.54385176069,0.106360520915,0.304340631137,1.0,-0.27998,-0.367973714286,1.702
0.309368916986,0.0293906496859,-0.129129679425,-2.09365491714,0.0169758305349,2.11681329176,-0.00279619314474,-0.523988365642,-1.00453416319,-0.00903800683999,-1.24484430848,-0.147977737872,0.24271231434,-0.456274621002,0.573839724754,0.81894913039,0.00332250342742,0.0,0.818919200244,-0.573770916481,-0.0117909190559,0.0,-0.00774995628147,0.00948714225215,-0.99992496334,0.0,0.539369609207,0.100517024198,0.304425399226,1.0,-0.27998,-0.367973714286,1.718
0.300347791011,0.0124383044256,-0.129348435479,-2.11427814897,0.0143927538808,2.12073244918,-0.0107607344499,-0.536251177544,-0.995145417809,-0.00869558413489,-1.20903219341,-0.144842168835,0.223870251634,-0.46090549558,0.573850920724,0.818940739608,0.00345437342041,0.0,0.818913098098,-0.573782386325,-0.0116558057942,0.0,-0.00756350121427,0.00951770977191,-0.999926100594,0.0,0.534648714669,0.0942334766098,0.304522016939,1.0,-0.27998,-0.367973714286,1.735
0.291029769855,-0.00427193938281,-0.129565846714,-2.13455683058,0.0119246420491,2.12427394551,-0.0189392796432,-0.55109555092,-0.997868788501,0.00260341955345,-1.16467895902,-0.135873279702,0.22335805589,-0.491122887961,0.573932889857,0.81888327498,0.00345930637778,0.0,0.818854793588,-0.573863192801,-0.0117732691927,0.0,-0.00765591203093,0.00958992065644,-0.999924707382,0.0,0.529880917575,0.0879281364762,0.304525905586,1.0,-0.27998,-0.367973714286,1.752
0.282181762484,-0.0198403709084,-0.129717710527,-2.15334856033,0.00948177786093,2.12747969711,-0.0267683021287,-0.556661574319,-0.968519482715,-0.0114471595955,-1.17092536314,-0.153180950606,0.186220741227,-0.503230950007,0.573831611517,0.818954506016,0.00339788200802,0.0,0.818925209175,-0.57376211757,-0.0118017422571,0.0,-0.0077156625745,0.00955500797576,-0.999924582343,0.0,0.525375120394,0.0820824726801,0.304489974208,1.0,-0.27998,-0.367973714286,1.768
0.272414240776,-0.0363701270766,-0.12996768154,-2.17274637559,0.00688947141548,2.13063655778,-0.035227645636,-0.583275342394,-0.97492185362,-0.0189290586618,-1.13940716877,-0.155887368006,0.184593964552,-0.497996806023,0.573941173282,0.818877033888,0.00356088242025,0.0,0.818850679435,-0.573872168152,-0.0116209427429,0.0,-0.00747277568332,0.00958575305715,-0.999926132753,0.0,0.520670694671,0.0757694523683,0.304600452081,1.0,-0.27998,-0.367973714286,1.785
0.262423570362,-0.0527473898017,-0.130140385391,-2.19177992786,0.0044750518987,2.13347587987,-0.0439789141607,-0.589486248769,-0.97504105224,-0.00499929405415,-1.10253275983,-0.153312297611,0.173104293781,-0.517308105778,0.573969612227,0.818856212253,0.00375962714064,0.0,0.818831872017,-0.573899252231,-0.0116086415525,0.0,-0.00734830252396,0.00974169757787,-0.999925548118,0.0,0.515930929193,0.0695308115691,0.304685476044,1.0,-0.27998,-0.367973714286,1.802
0.252877151178,-0.0677910924887,-0.130310021834,-2.2094993385,0.00207176764177,2.13586805162,-0.0523954392543,-0.596582620179,-0.928260059989,-0.00876762554856,-1.09210769831,-0.149281570737,0.141823217402,-0.528670684085,0.573880282996,0.818919805698,0.00353829426366,0.0,0.818891652947,-0.573809444019,-0.011829183793,0.0,-0.00765699364996,0.00968620147031,-0.999923771069,0.0,0.511393854638,0.063674289074,0.304563486384,1.0,-0.27998,-0.367973714286,1.818
0.242358524116,-0.0837965326017,-0.130584208821,-2.22775969702,-0.00045473859383,2.13826818526,-0.0615650387161,-0.62259099778,-0.92785519558,-0.0119668121198,-1.07026321921,-0.147071495727,0.135007777973,-0.536346015795,0.573961368727,0.81886253065,0.00364005618455,0.0,0.818835886056,-0.573890409196,-0.0117616682641,0.0,-0.00754234131961,0.00973153920883,-0.999924202243,0.0,0.506677796656,0.0573548714842,0.30461153114,1.0,-0.27998,-0.367973714286,1.835
0.23116178606,-0.100645806613,-0.130720593916,-2.24679047739,-0.00307990272312,2.14047790697,-0.0714729946958,-0.626194532009,-0.937356067309,-0.0120702979628,-1.04599478091,-0.1436628938,0.12936279999,-0.552477737647,0.573791533091,0.818981319176,0.00369083916737,0.0,0.81895488802,-0.5737198498,-0.0117971281987,0.0,-0.0075442651724,0.00979191157686,-0.999923598347,0.0,0.501610880358,0.0508557995609,0.304635434536,1.0,-0.27998,-0.367973714286,1.853
0.221430789753,-0.114401077313,-0.130960285428,-2.26242580869,-0.00535952027415,2.14204745335,-0.079875433252,-0.659801659022,-0.919514753024,-0.0200987230374,-1.03782803524,-0.151877334831,0.0979740416634,-0.560191003314,0.573891926268,0.818912022554,0.00345009881817,0.0,0.818881559265,-0.573819950619,-0.0120167827896,0.0,-0.00786110371596,0.00972174409621,-0.999921842316,0.0,0.497351185823,0.0452729878009,0.304522100102,1.0,-0.27998,-0.367973714286,1.868
0.209517541831,-0.130926759531,-0.131190238626,-2.28060332817,-0.00792457343005,2.14379526133,-0.0902964229284,-0.661345286571,-0.897795714141,-0.00532591773532,-1.0034356113,-0.145555104787,0.0872224271888,-0.589762706902,0.573928708222,0.818885665892,0.00358482579578,0.0,0.818856516586,-0.573855669088,-0.0120176204743,0.0,-0.00778403440574,0.00983290467232,-0.999921358305,0.0,0.492328217278,0.0386525827126,0.304570222628,1.0,-0.27998,-0.367973714286,1.886
0.198048275761,-0.146431294739,-0.131438195035,-2.29740059834,-0.0104194600537,2.14525673385,-0.10042357926,-0.68178396665,-0.901649588269,-0.0114102993307,-0.980150060517,-0.145333621146,0.0868156032408,-0.605681090303,0.573871758948,0.818924981147,0.00371839163848,0.0,0.818897954619,-0.573798731026,-0.0119123085237,0.0,-0.00762182537329,0.00988131099868,-0.999922130704,0.0,0.487589677555,0.0324059810362,0.304636785573,1.0,-0.27998,-0.367973714286,1.903
0.1868918269,-0.160763096252,-0.131723595841,-2.31298462774,-0.0128158555776,2.14629933485,-0.11011335156,-0.69045304878,-0.887531193142,-0.00579285933522,-0.964504113718,-0.14173752641,0.0613325785428,-0.594069765785,0.573979148922,0.818850374957,0.00357028516704,0.0,0.818820767125,-0.573905818102,-0.0120586141287,0.0,-0.00782534393324,0.009845006261,-0.999920916795,0.0,0.483063310795,0.0264379767789,0.304576719873,1.0,-0.27998,-0.367973714286,1.919
0.175022787138,-0.175924006256,-0.131889239413,-2.3289976049,-0.0151440274347,2.14730602089,-0.120687671468,-0.706241087141,-0.879112298398,-0.01084531529,-0.942935924773,-0.146545203549,0.050375972515,-0.621568464188,0.573843207027,0.8189447234,0.00377632964606,0.0,0.818917513672,-0.573768754679,-0.0120111971542,0.0,-0.00766991424248,0.00998523862654,-0.999920730571,0.0,0.47833337045,0.0203157228634,0.304648807431,1.0,-0.27998,-0.367973714286,1.936
0.16260778153,-0.190880347859,-0.132220767817,-2.34464358537,-0.0176373938525,2.1480477449,-0.131531914948,-0.737266330079,-0.872309568048,-0.0201809134001,-0.888370614054,-0.139866673522,0.0560190434065,-0.649231291569,0.57396971305,0.818855868044,0.00381873967898,0.0,0.818829492176,-0.573895454358,-0.0119589761879,0.0,-0.00760126683205,0.00999117916419,-0.999921195436,0.0,0.47359979622,0.0139655464103,0.304692082888,1.0,-0.27998,-0.367973714286,1.953
0.150908419189,-0.204802220133,-0.132380013521,-2.35912979547,-0.0198405375957,2.14860445009,-0.142017674513,-0.736791246247,-0.852169540425,-0.0139656475744,-0.919955985088,-0.132467265716,0.0275774589714,-0.660189586819,0.573793320075,0.81897914419,0.00389025957901,0.0,0.818953207777,-0.573718178089,-0.0119934358566,0.0,-0.00759060733853,0.0100678877787,-0.999920506998,0.0,0.469113393633,0.00819245937295,0.304693295759,1.0,-0.27998,-0.367973714286,1.969
0.13800850737,-0.219491834604,-0.132736621604,-2.3740473912,-0.0222377914131,2.14898854614,-0.153343296325,-0.759113763342,-0.858549791271,-0.023241042797,-0.858034267136,-0.15109937952,0.0307083628831,-0.668076596016,0.573946925986,0.81887074118,0.00404750441672,0.0,0.818847233719,-0.573871713244,-0.0118832432939,0.0,-0.00740823458116,0.0101348338813,-0.999921198496,0.0,0.46438983858,0.00187439426974,0.304773054507,1.0,-0.27998,-0.367973714286,1.986
0.124955918573,-0.233872853599,-0.132938610928,-2.3887954847,-0.0246575659385,2.14915662271,-0.164983423108,-0.772070700242,-0.874727821903,-0.0185699121041,-0.859808262334,-0.148361696487,0.00428460500148,-0.692411093155,0.573812899381,0.818965216182,0.00393422034298,0.0,0.81893967323,-0.573737354556,-0.0120002707511,0.0,-0.00757074091835,0.0101079938854,-0.999920252991,0.0,0.459586072648,-0.00431379786749,0.304702824395,1.0,-0.27998,-0.367973714286,2.003
0.11145087022,-0.248178466639,-0.13331135145,-2.40293000401,-0.0269446489113,2.14920928993,-0.176961751903,-0.804933589068,-0.837045630484,-0.0246336233405,-0.845008630826,-0.132446676612,-0.00170064923751,-0.712669478188,0.57395757835,0.818862611207,0.00417960801791,0.0,0.818840678047,-0.573881709431,-0.0118521920975,0.0,-0.00730685705502,0.0102252854062,-0.999921023571,0.0,0.454884320818,-0.010639034818,0.304797020038,1.0,-0.27998,-0.367973714286,2.02
0.0970093429019,-0.263000821711,-0.133555532866,-2.41775715122,-0.0293916133426,2.14902264391,-0.189906832378,-0.813052579464,-0.799565397086,-0.0159295633637,-0.836183513361,-0.14334960253,-0.0195752197765,-0.710197071449,0.573860188535,0.818931138318,0.00412572514796,0.0,0.818907679669,-0.57378338067,-0.0119829523147,0.0,-0.00744608361658,0.0102553247292,-0.999919688852,0.0,0.449801488661,-0.0171897846915,0.304724123502,1.0,-0.27998,-0.367973714286,2.038
0.0820813190282,-0.27762454596,-0.133926922195,-2.43187028482,-0.0318490324761,2.14873589706,-0.203207936442,-0.834292136556,-0.781851189963,-0.0125052863052,-0.784318912546,-0.137338701398,-0.0252489191491,-0.74470427163,0.573959134934,0.81886088951,0.00430139012946,0.0,0.818840847283,-0.573883294982,-0.0117633949808,0.0,-0.0071642260707,0.0102740597527,-0.999921555704,0.0,0.444838135362,-0.0238770061439,0.304804758978,1.0,-0.27998,-0.367973714286,2.056
0.0695911784481,-0.28965847628,-0.134105618147,-2.44350727557,-0.0337045931248,2.14824969075,-0.214572033739,-0.838680468498,-0.817030972179,-0.0126590540431,-0.739324259943,-0.12007624797,-0.0490260228777,-0.757941844342,0.573822922191,0.818955876539,0.00439011985635,0.0,0.818936039155,-0.573745441012,-0.011860842805,0.0,-0.0071948341856,0.0104014511047,-0.999920018889,0.0,0.440619368114,-0.0292749128321,0.304789803359,1.0,-0.27998,-0.367973714286,2.071
0.0548988760922,-0.303078353107,-0.134452211484,-2.4560741636,-0.035998941665,2.14766229321,-0.227759193735,-0.866401797266,-0.755091103012,-0.0118171254046,-0.747395546235,-0.121862159676,-0.0436726336367,-0.769535702215,0.573882183398,0.818913421681,0.00456007339797,0.0,0.818897359325,-0.573806467953,-0.0115757991731,0.0,-0.00686310983556,0.0103775767685,-0.999922598816,0.0,0.435942558047,-0.0356046245153,0.304896969216,1.0,-0.27998,-0.367973714286,2.088
0.0401256348268,-0.316202212894,-0.134704705311,-2.46857757575,-0.0381779560391,2.14676684548,-0.241163109881,-0.879882786205,-0.744323803852,-0.020925699831,-0.729733709844,-0.120586894758,-0.0644713538081,-0.791718294863,0.573792491135,0.818976719704,0.00447845963917,0.0,0.818958507915,-0.573715415956,-0.0117614076416,0.0,-0.00706309370113,0.0104164805633,-0.999920801684,0.0,0.431130197474,-0.0417737801206,0.304823287067,1.0,-0.27998,-0.367973714286,2.105
0.025841003219,-0.328389775381,-0.135011967658,-2.4796848986,-0.0401672145464,2.1459429236,-0.254160991053,-0.885266898647,-0.746912671125,-0.00462027047149,-0.689280303765,-0.120865878086,-0.0488300413112,-0.823419059431,0.573793083666,0.818975023444,0.00470691122131,0.0,0.818960901733,-0.573717014044,-0.0115141708392,0.0,-0.00672951284565,0.0104617292705,-0.999922629946,0.0,0.426736232514,-0.047667887328,0.304932601751,1.0,-0.27998,-0.367973714286,2.121
0.00944961822741,-0.341731118892,-0.13538315134,-2.49205260553,-0.0423958822175,2.1447540734,-0.269058510204,-0.927929260943,-0.726450392093,-0.0300631094156,-0.675894948213,-0.129888147173,-0.0596629165245,-0.83392801914,0.573842983117,0.818940157763,0.00468995007878,0.0,0.818924932165,-0.57376558958,-0.0116512056398,0.0,-0.00685084011263,0.0105268823265,-0.999921122258,0.0,0.421663882368,-0.054296031266,0.304877944828,1.0,-0.27998,-0.367973714286,2.139
-0.0053448753822,-0.353424291805,-0.135659091558,-2.50249886862,-0.04434790078,2.14356023765,-0.282639511751,-0.935877468143,-0.728433043364,-0.0240178353675,-0.632674459677,-0.114481721345,-0.0626224687942,-0.857418795052,0.573768568645,0.818991770872,0.00478077181774,0.0,0.818978223664,-0.573691692436,-0.0115437469644,0.0,-0.0067116739141,0.0105389900918,-0.999921938514,0.0,0.41722170038,-0.0601536655614,0.304949064713,1.0,-0.27998,-0.367973714286,2.155
-0.0204920987086,-0.364761519677,-0.136032095138,-2.51273770363,-0.0462233999099,2.14233019297,-0.296508855042,-0.959932468653,-0.697880686666,-0.0177948066708,-0.641120628165,-0.119811650098,-0.0830941580025,-0.87623500304,0.573851495276,0.818933355692,0.00483396386322,0.0,0.818919844721,-0.573773418846,-0.0116231944124,0.0,-0.00674515149666,0.0106288210674,-0.999920762408,0.0,0.412730509378,-0.0660716609458,0.304918126892,1.0,-0.27998,-0.367973714286,2.171
-0.0367194367555,-0.376528642334,-0.13627796504,-2.52331087344,-0.0482179514163,2.14080123812,-0.31153896564,-0.963070296735,-0.695602920813,-0.0132174846851,-0.614420380679,-0.110415364969,-0.0986309633962,-0.890883537563,0.573713105272,0.819030800052,0.00475061114574,0.0,0.819015122475,-0.573633633222,-0.0118080859824,0.0,-0.00694620951377,0.0106654813892,-0.999918995559,0.0,0.407651677541,-0.0726082787157,0.304862966171,1.0,-0.27998,-0.367973714286,2.189
-0.0533719006553,-0.388068979977,-0.136642559644,-2.53320645955,-0.050205673926,2.13940768892,-0.326863517583,-0.976693774879,-0.677600068563,-0.0127362847818,-0.590021166705,-0.109865657975,-0.0820524501074,-0.911698402762,0.573743127283,0.819008892002,0.00489955275909,0.0,0.818996755304,-0.573665707039,-0.0115203415786,0.0,-0.00662468433976,0.0106226391355,-0.999921633477,0.0,0.403248193772,-0.0785290311899,0.304957951666,1.0,-0.27998,-0.367973714286,2.205
-0.0692705128278,-0.398545469083,-0.136993104611,-2.54236736452,-0.0519850327413,2.13784651121,-0.341667455383,-1.00979013436,-0.645099780063,-0.0320805272909,-0.563438698564,-0.098461343754,-0.100200430348,-0.925535214306,0.573708304486,0.81903338776,0.00488241729272,0.0,0.819020046759,-0.573629377491,-0.0116724970567,0.0,-0.00675959695885,0.0106956120585,-0.999919952662,0.0,0.398736128545,-0.0844090450417,0.304914816758,1.0,-0.27998,-0.367973714286,2.221
-0.0863561910207,-0.409368244652,-0.137277185686,-2.55164362034,-0.0537050288846,2.13611821882,-0.357616728515,-1.0143752334,-0.638236996193,-0.0151743554039,-0.523993135961,-0.110336608374,-0.0897216006968,-0.948544145952,0.573666931118,0.819061866345,0.00496569654252,0.0,0.81904864788,-0.573586218578,-0.0117859732292,0.0,-0.00680531715085,0.0108285786153,-0.999918211427,0.0,0.393981462271,-0.090580324147,0.304910637756,1.0,-0.27998,-0.367973714286,2.238
-0.103897085418,-0.419878336487,-0.137659560962,-2.56039235842,-0.0555395770478,2.13454528293,-0.373955878195,-1.02628522575,-0.60496314367,-0.015307664043,-0.513548437101,-0.0966074965652,-0.102028331245,-0.968980163997,0.573702442549,0.819036151914,0.00510256524824,0.0,0.819026166392,-0.573623659207,-0.0115231620465,0.0,-0.00651105950949,0.010790208411,-0.9999205856,0.0,0.389003919922,-0.0972578084459,0.304993699839,1.0,-0.27998,-0.367973714286,2.256
-0.121648727712,-0.429968114519,-0.13803532693,-2.56898003299,-0.0573355826567,2.13263673542,-0.390590357341,-1.05478090481,-0.59161060407,-0.032852556041,-0.489213365173,-0.100057593306,-0.106068351576,-0.982426772906,0.573704435846,0.81903535223,0.00500589545742,0.0,0.819022584215,-0.573623466859,-0.0117843843894,0.0,-0.006780458857,0.0108609041378,-0.99991802971,0.0,0.38444683508,-0.103145205322,0.304923942497,1.0,-0.27998,-0.367973714286,2.272
-0.139568212898,-0.439635151051,-0.138306464,-2.57704131658,-0.0589370722803,2.13087850337,-0.4075086409,-1.05770596133,-0.561964289431,-0.0152778620251,-0.451860802716,-0.0933082403532,-0.101494082066,-1.00842619144,0.573623060987,0.819091957307,0.00506914970872,0.0,0.819079504444,-0.57354107538,-0.0118383763032,0.0,-0.00678948396097,0.0109430129705,-0.999917073249,0.0,0.379708121672,-0.109320801429,0.304909417834,1.0,-0.27998,-0.367973714286,2.289
-0.157956233325,-0.448979988231,-0.138659437993,-2.58448306158,-0.0605289976693,2.12919193867,-0.42477245139,-1.08568029804,-0.535031515312,-0.0120013290988,-0.432757203066,-0.0887909521302,-0.106617805238,-1.02180170896,0.573728398236,0.819016972675,0.00526026895266,0.0,0.819008562867,-0.573648359179,-0.0115447331211,0.0,-0.00643791166741,0.0109319570309,-0.999919519566,0.0,0.375024461081,-0.115637031014,0.30502560665,1.0,-0.27998,-0.367973714286,2.306
-0.175413801319,-0.45732490682,-0.138990718893,-2.59142330217,-0.0620568850442,2.12738310062,-0.441302761261,-1.09922355954,-0.519229742516,-0.0246836324064,-0.423754350474,-0.0987157221962,-0.113486844766,-1.03467436462,0.573705000715,0.819033969768,0.00516482533996,0.0,0.81902277025,-0.573622685375,-0.0118094681317,0.0,-0.00670982376868,0.0110054723702,-0.999916925471,0.0,0.370471080928,-0.121508721253,0.304946276725,1.0,-0.27998,-0.367973714286,2.322
-0.195198211142,-0.466214472441,-0.139290210344,-2.59867730191,-0.0636336133516,2.12555643789,-0.460254826482,-1.10706861434,-0.490518592555,-0.0253880179641,-0.402355027652,-0.0952566976402,-0.0990103124831,-1.0646868741,0.573535974338,0.819152243965,0.00518017846433,0.0,0.819140816562,-0.573452935123,-0.0118659488826,0.0,-0.00674956005906,0.0110490568996,-0.999916177377,0.0,0.365448181782,-0.128060870323,0.304911102692,1.0,-0.27998,-0.367973714286,2.34
-0.21429310301,-0.474205317848,-0.139612863839,-2.60489829834,-0.0650350661725,2.12383706294,-0.478344280355,-1.11738637092,-0.456946446731,-0.017595587152,-0.346507783127,-0.0659969987859,-0.0994890890903,-1.07082580768,0.573649139166,0.819072229599,0.00530044673085,0.0,0.819063168396,-0.57356700256,-0.0117118167894,0.0,-0.00655278870822,0.0110600872536,-0.999917364301,0.0,0.360739354826,-0.134345177817,0.304986581399,1.0,-0.276176571429,-0.362974922449,2.357
-0.231126187123,-0.480687665779,-0.139810332878,-2.60999364993,-0.0661218737821,2.12237131518,-0.494328775135,-1.1196453032,-0.42847744707,-0.00379990753569,-0.335492382963,-0.0818301188147,-0.104993908592,-1.07067707566,0.573736970776,0.819010127103,0.00538952397244,0.0,0.819002174901,-0.573654443195,-0.0116946231783,0.0,-0.00648641532578,0.011123883701,-0.999917089377,0.0,0.35663763367,-0.139785598068,0.305006849817,1.0,-0.270382285714,-0.35535957551,2.372
-0.251128469213,-0.48785617821,-0.139947815393,-2.6157793569,-0.06727845976,2.12060002539,-0.513427068031,-1.12656711503,-0.378967513402,-0.0160167456888,-0.30805624476,-0.062497279924,-0.102044598478,-1.06928892312,0.57375587731,0.818996618692,0.0054294313441,0.0,0.818987402104,-0.573670166338,-0.0119550136002,0.0,-0.00667654147682,0.0113061128656,-0.999913794087,0.0,0.351744503373,-0.146109235694,0.304934925383,1.0,-0.263429142857,-0.346221159184,2.39
-0.270976875595,-0.494362102806,-0.139932899693,-2.62090412834,-0.0683089809791,2.11906438706,-0.532326429297,-1.09554346949,-0.355309315276,0.00352154298844,-0.274867652505,-0.0572673949479,-0.0740426550787,-1.04692731331,0.573789253418,0.818972825459,0.00549096737134,0.0,0.818964190056,-0.573702927859,-0.0119730060503,0.0,-0.00665551067573,0.0113671067007,-0.999913242768,0.0,0.347026400976,-0.152298071971,0.304923091854,1.0,-0.256476,-0.337082742857,2.408
-0.287355946679,-0.499275359987,-0.139903823389,-2.62468375016,-0.069082343004,2.11785128299,-0.547878137974,-1.07233611933,-0.321579953857,0.010374930352,-0.241059699565,-0.0478498522225,-0.0813417548125,-1.02694702516,0.573897395113,0.818896628356,0.00555327384852,0.0,0.81888892447,-0.573811018027,-0.0119411839151,0.0,-0.00659219244638,0.0114007482923,-0.999913279208,0.0,0.343195703732,-0.157368714735,0.304942657844,1.0,-0.250681714286,-0.329467395918,2.423
-0.306616615449,-0.504556086706,-0.139813320062,-2.62871888445,-0.069846249595,2.11653729838,-0.566291156719,-1.07216613604,-0.282339449141,-0.00235510737434,-0.214759697503,-0.0346822204655,-0.0685255259594,-1.00517631468,0.573966291244,0.818847546447,0.0056691352072,0.0,0.818841543649,-0.573879802213,-0.0118846921538,0.0,-0.00647847354966,0.0114637568151,-0.999913302072,0.0,0.338746956605,-0.163264968574,0.304968635101,1.0,-0.243728571429,-0.320328979592,2.441
-0.324412066897,-0.509028154353,-0.139609283979,-2.63207914282,-0.0705024121929,2.11544271071,-0.583434121134,-1.04172860603,-0.250521049016,0.0077974787493,-0.187474234283,-0.0358748981088,-0.0599014935875,-0.998335174096,0.573878252091,0.818908836703,0.00572851187084,0.0,0.818904470594,-0.573793111547,-0.0117337156468,0.0,-0.00632198449741,0.0114250481744,-0.999914746759,0.0,0.334691053211,-0.168644900964,0.305014804356,1.0,-0.237161714286,-0.311698253061,2.458
-0.341963679309,-0.512976720068,-0.139404201251,-2.63514725441,-0.0710632079329,2.11430929975,-0.600287162823,-1.01754735601,-0.22027321043,0.0142161145984,-0.1688036023,-0.0239067741975,-0.0657124239363,-0.988499646263,0.573885495149,0.818903588014,0.00575316399915,0.0,0.818898736496,-0.573798811881,-0.0118545244732,0.0,-0.00640667730642,0.0115146200689,-0.999913180236,0.0,0.330664429772,-0.173885549518,0.304990965619,1.0,-0.230594857143,-0.303067526531,2.475
-0.358123593151,-0.516193441769,-0.139254029346,-2.63773610197,-0.0714661388355,2.11338165273,-0.615891527665,-1.01185565941,-0.195730621907,0.0161990861583,-0.155307653918,-0.0263549854065,-0.0515772773175,-0.955338091932,0.573926708925,0.818874155916,0.00583064797982,0.0,0.81886903125,-0.573837412448,-0.0120366372216,0.0,-0.00651077254779,0.0116829095821,-0.999910555732,0.0,0.326741586644,-0.178976860786,0.304929991183,1.0,-0.224028,-0.2944368,2.492
-0.374875580494,-0.519119814962,-0.138942404361,-2.64008612957,-0.0718535268767,2.11256383097,-0.632042093779,-0.976669386623,-0.171449681716,0.0200669392285,-0.132460370508,-0.0252027600783,-0.050531349386,-0.946638735614,0.573879330577,0.818907238033,0.00584776321815,0.0,0.818901537268,-0.5737885422,-0.0121543408747,0.0,-0.00659802521618,0.011764093789,-0.999909031943,0.0,0.323199991661,-0.183599659978,0.304874724592,1.0,-0.217847428571,-0.286313763265,2.508
-0.390403368252,-0.521536001215,-0.138729653245,-2.64191277985,-0.0721741805801,2.11185717793,-0.646964532326,-0.956338620396,-0.147407573184,0.0219142881382,-0.106142801304,-0.0133504978338,-0.0417543246977,-0.933615378703,0.573979699041,0.818836482382,0.0059048379237,0.0,0.818831433159,-0.573888476048,-0.0121592775536,0.0,-0.00656786807474,0.0118144728356,-0.999908636497,0.0,0.319735665307,-0.18817904915,0.304877662793,1.0,-0.211666857143,-0.278190726531,2.524
-0.406374342258,-0.523752747667,-0.138448216954,-2.64355183755,-0.0724088444651,2.11119999309,-0.66248508897,-0.943265717566,-0.119365315571,0.0105459578224,-0.0864559304836,-0.00512218297871,-0.0337957679013,-0.894870765127,0.573952194608,0.818855146232,0.00598954883678,0.0,0.818851331292,-0.573860843745,-0.0121233724383,0.0,-0.00649024331895,0.0118630146556,-0.999908568633,0.0,0.31619510283,-0.192847838308,0.304897120242,1.0,-0.2051,-0.26956,2.541
-0.422018356936,-0.525605422282,-0.138166488074,-2.64490533041,-0.0726062225618,2.11065681119,-0.677648410369,-0.901535636942,-0.0975824240175,0.016126239221,-0.072125179358,-0.00291694376985,-0.0335951474514,-0.887288478863,0.573982179177,0.818833582658,0.00606372817932,0.0,0.818831103443,-0.573891183046,-0.0120532550909,0.0,-0.00638981293394,0.0118837516583,-0.999908969225,0.0,0.312745014642,-0.197411164197,0.304921442694,1.0,-0.198533142857,-0.260929273469,2.558
-0.436372541435,-0.527005468182,-0.137970576804,-2.64593392159,-0.0727665126446,2.11022858507,-0.691508162085,-0.890952461267,-0.078596152892,0.00297658717297,-0.0640515021445,-0.00420219299452,-0.027510675888,-0.862890522283,0.574119355063,0.818736808093,0.00614427508738,0.0,0.818735579133,-0.574028365043,-0.0120097664258,0.0,-0.00630597105614,0.0119258055856,-0.999909000805,0.0,0.309576455054,-0.201606878701,0.304934555388,1.0,-0.192352571429,-0.252806236735,2.574
-0.451888421957,-0.528238716538,-0.137562160037,-2.64686080677,-0.0728622994562,2.1098244917,-0.706643612423,-0.846529888639,-0.0613537644423,0.0185633927474,-0.0409971755543,-0.0037967026807,-0.0194480094466,-0.830776297285,0.574046955784,0.818787393761,0.00616792304192,0.0,0.818786593972,-0.573956111297,-0.0119851048273,0.0,-0.00627325640118,0.0119304553385,-0.999909151118,0.0,0.306181369031,-0.206069430759,0.304940046422,1.0,-0.185399428571,-0.243667820408,2.592
-0.466270028613,-0.529080006842,-0.137257079738,-2.64752359753,-0.0729196762896,2.1094953752,-0.720488367362,-0.828430055881,-0.0399590851081,0.0226894359872,-0.036500058854,-0.0075896980631,-0.0128801382015,-0.808910179752,0.574207950225,0.818674140047,0.00621524084683,0.0,0.818673643383,-0.574116273169,-0.0120298550485,0.0,-0.00628038124169,0.01199612324,-0.999908320717,0.0,0.303019793371,-0.210213568845,0.304925789335,1.0,-0.178832571429,-0.235037093878,2.609
-0.479155488192,-0.529606058622,-0.136829332101,-2.64793526417,-0.0729246945389,2.1092710188,-0.73315565986,-0.800886491932,-0.0290498080769,0.0208023345485,-0.0221960070863,-0.00121696094261,-0.0152680004809,-0.784728082531,0.574058650227,0.818778946561,0.00620077978396,0.0,0.818778229707,-0.573967006873,-0.0120346366888,0.0,-0.00629478533155,0.0119858815532,-0.999908352961,0.0,0.300225657348,-0.213887212629,0.304922623545,1.0,-0.172652,-0.226914057143,2.625
-0.492591438373,-0.529930244834,-0.136489783037,-2.64820975382,-0.0729345114634,2.10907996611,-0.746185594988,-0.772990780135,-0.0163435732866,0.0251120574727,-0.00974497717486,-0.000832464543259,-0.0123015935461,-0.763219129351,0.574131603376,0.818727730103,0.00620909555238,0.0,0.818726867104,-0.574039424015,-0.0120749186202,0.0,-0.00632192679525,0.0120163770897,-0.999907815713,0.0,0.297287806464,-0.21774126618,0.304908616315,1.0,-0.166085142857,-0.218283330612,2.642
-0.50529238497,-0.530074169844,-0.135996576835,-2.64834402789,-0.0729327165467,2.10895613421,-0.758739067982,-0.747758120677,-0.00610665294594,0.0286045760955,-0.00893674775478,0.00174125683416,-0.00531241646339,-0.731690457318,0.573897754871,0.818892282374,0.00612729333173,0.0,0.818890353306,-0.573805983393,-0.0120842701721,0.0,-0.00637996084032,0.0119529470535,-0.999908207365,0.0,0.294536231734,-0.221337259899,0.304902269294,1.0,-0.159518285714,-0.209652604082,2.659
-0.517833052519,-0.530077740448,-0.135651884422,-2.64837453074,-0.0729278716547,2.10885913237,-0.770811532771,-0.721321348993,-0.000833618474898,0.025071884821,-0.000373400524456,-0.00160043586643,-0.0107313807757,-0.704809454475,0.574038640307,0.818793710178,0.0061029918117,0.0,0.81879129671,-0.573946632245,-0.0121170404071,0.0,-0.00641868845403,0.0119529561106,-0.999907959404,0.0,0.291777590979,-0.224911903152,0.304890315715,1.0,-0.152951428571,-0.201021877551,2.676
-0.528895591978,-0.529948285857,-0.135207871283,-2.64830473498,-0.0728713482469,2.10886084065,-0.781738173794,-0.684873466652,0.00530061818531,0.0307331835298,0.00354755363658,-0.00166023601678,0.000806076244233,-0.672370862328,0.573865207533,0.818915692265,0.00604644078448,0.0,0.818912763991,-0.573773895124,-0.0120892161592,0.0,-0.00643088275384,0.0118893169814,-0.999908639771,0.0,0.28937517847,-0.228028676326,0.304886433266,1.0,-0.146770857143,-0.192898840816,2.692
-0.540444242796,-0.529717413944,-0.134872789832,-2.64812481027,-0.0728017894992,2.10885792489,-0.79290100596,-0.670892067302,0.0178923559504,0.0181366969705,0.00803106656893,0.00380250506191,0.000343302858686,-0.648713230436,0.573984865947,0.818831824255,0.00604682983407,0.0,0.818829084724,-0.573893866796,-0.012062610208,0.0,-0.00640713392378,0.0118753044782,-0.999908958745,0.0,0.286831702457,-0.231307103326,0.30489238191,1.0,-0.140204,-0.184268114286,2.709
-0.550637147755,-0.529324273245,-0.134406711516,-2.64783753859,-0.0726594783156,2.10888772928,-0.802930079121,-0.619013355055,0.0251562528151,0.0259718167756,0.022609585529,0.0113833636564,0.00138689196131,-0.615348274708,0.573867516292,0.818914317048,0.00601348308999,0.0,0.818911173953,-0.573776740813,-0.0120618314365,0.0,-0.00642733347094,0.0118466298295,-0.999909169248,0.0,0.28462866733,-0.234159999248,0.304894054156,1.0,-0.134023428572,-0.176145077551,2.725
-0.561688672359,-0.528750090071,-0.133952645646,-2.64744088565,-0.0724730589727,2.10895966459,-0.813734717464,-0.603902884704,0.0317341637632,0.0212923131153,0.0302761389836,0.00380931739422,0.00702577961107,-0.590950693629,0.573851713946,0.818925367411,0.00601663645201,0.0,0.818922094507,-0.573760613537,-0.0120875300588,0.0,-0.00644680009324,0.0118638347824,-0.999908839941,0.0,0.282224817608,-0.237260949868,0.304882559641,1.0,-0.127070285714,-0.167006661225,2.743
-0.571697804687,-0.528087179642,-0.133546078823,-2.64694533688,-0.0722738678393,2.10909605326,-0.823422743212,-0.569999531932,0.0466347942806,0.0250915117846,0.0346360857789,0.0146520922732,0.00527579246747,-0.560025136785,0.573940859675,0.818862799468,0.00602927391596,0.0,0.818859941879,-0.573850149282,-0.0120477656355,0.0,-0.0064056906883,0.0118520640434,-0.999909243734,0.0,0.280062200471,-0.240085681807,0.304887755207,1.0,-0.120503428572,-0.158375934694,2.76
-0.579865027696,-0.527390168084,-0.133117378277,-2.64648052933,-0.0720423613116,2.10920733453,-0.831586743881,-0.544098353123,0.0426793269295,0.0202425666086,0.030829733634,0.0131300125529,0.00416869923713,-0.535098966039,0.573766228596,0.818985070541,0.0060428515872,0.0,0.818981978458,-0.573674736382,-0.0121063082163,0.0,-0.00644837854851,0.0118954063793,-0.99990845467,0.0,0.27831299614,-0.242358702504,0.304864776561,1.0,-0.114709142857,-0.150760587755,2.775
-0.589462256025,-0.526549943978,-0.13268089404,-2.64587219533,-0.0717785007951,2.10934241351,-0.840797326204,-0.526025661279,0.0463740454425,0.0190454729041,0.0357196057119,0.0185772274282,0.0120487992411,-0.496732697742,0.573921529287,0.818875996341,0.006076819748,0.0,0.818873145195,-0.57382948236,-0.0121344202521,0.0,-0.00644965131931,0.011940579421,-0.99990790804,0.0,0.276234915082,-0.245044994799,0.304856694375,1.0,-0.107756,-0.141622171429,2.793
-0.597908912846,-0.525653365574,-0.132245222248,-2.64521359061,-0.0715207195182,2.10949682724,-0.849074842547,-0.476244143729,0.0537002122568,0.0297051555425,0.0333169758375,0.0135026996371,0.00937036208558,-0.475653093329,0.573899186196,0.8188915635,0.00608918818642,0.0,0.818888717617,-0.573806800196,-0.0121561141269,0.0,-0.00646064610191,0.0119629818345,-0.999907569287,0.0,0.274429146952,-0.247412806889,0.3048521887,1.0,-0.101189142857,-0.132991444898,2.81
-0.605243083205,-0.52479545079,-0.131778764908,-2.64459989219,-0.0712147460191,2.10963372398,-0.856381235131,-0.455980450248,0.0517823555309,0.0217543131884,0.0421597696387,0.0102006079002,0.0108869580592,-0.442135464597,0.573757120082,0.818990857069,0.00612291542454,0.0,0.818988084084,-0.573663931918,-0.0122048451442,0.0,-0.00648328567114,0.0120174429466,-0.99990676969,0.0,0.272878832381,-0.249439059041,0.304840457644,1.0,-0.0950085714286,-0.124868408163,2.826
-0.613651523175,-0.523824160189,-0.13128623252,-2.64384865403,-0.0709172339413,2.10981717597,-0.864435547428,-0.42955180724,0.0522314302695,0.0261111730431,0.0389268493065,0.0110528873172,0.0158588628025,-0.409777622807,0.573867276703,0.818913637018,0.0061278656019,0.0,0.818911094423,-0.573774350212,-0.0121803682228,0.0,-0.0064587818892,0.0120083230652,-0.999907037836,0.0,0.271085657831,-0.251780861075,0.304853992879,1.0,-0.0876691428572,-0.115222302041,2.845
-0.620203535185,-0.522945258792,-0.130898653394,-2.64317435541,-0.0706391072138,2.10998787663,-0.870779760547,-0.392406849351,0.0606293631177,0.0220815152171,0.0393278737342,0.0131810245774,0.00513066085803,-0.38192869893,0.573919013528,0.818877150635,0.00615832613796,0.0,0.818875082313,-0.573826081516,-0.0121644827242,0.0,-0.00642753254565,0.0120245592583,-0.99990704408,0.0,0.26970203487,-0.253615244146,0.304862414246,1.0,-0.0814885714287,-0.107099265306,2.861
-0.626149211847,-0.522108812686,-0.13042420392,-2.64254749476,-0.0703344773793,2.11015448335,-0.876617446225,-0.36535987363,0.0506132729074,0.0327916611403,0.0395517745621,0.0220242975285,0.00903961084273,-0.358615253963,0.573836017112,0.818935239638,0.0061681152587,0.0,0.818933314444,-0.573743087602,-0.0121590634237,0.0,-0.0064186956052,0.0120288151915,-0.999907049656,0.0,0.268471104957,-0.255245527321,0.304866406421,1.0,-0.0753080000001,-0.0989762285715,2.877
-0.632458037552,-0.521272931439,-0.129920565159,-2.64190275214,-0.0700326898929,2.11034018161,-0.882728557389,-0.346108678909,0.0483100581401,0.0199393730705,0.0363186758547,0.0130865947896,0.0120262522193,-0.326550853963,0.573805157289,0.818956917908,0.0061607613448,0.0,0.81895517952,-0.573712797711,-0.012115551172,0.0,-0.00638772980305,0.0119975841497,-0.999907623175,0.0,0.267150470963,-0.256967941235,0.304880803311,1.0,-0.0683548571429,-0.089837812245,2.895
-0.637001617138,-0.52061856001,-0.129539133074,-2.64137852813,-0.0697769722535,2.11047628151,-0.88704648796,-0.31243563099,0.0486797369008,0.029327725976,0.0354978539944,0.0165742816948,0.00844085467156,-0.296826270183,0.57385714447,0.818920415347,0.00617073491553,0.0,0.818919073914,-0.573765232585,-0.0120729100873,0.0,-0.00634632157548,0.0119816889152,-0.999908077442,0.0,0.266213123079,-0.258210893383,0.30489963994,1.0,-0.0629468571429,-0.0827301551021,2.909
-0.64199853113,-0.519809019352,-0.129129916409,-2.64077997587,-0.0694557949901,2.11063891135,-0.891904122397,-0.287367642786,0.04445654202,0.0199709600635,0.0321092238038,0.0187987444655,0.01417057184,-0.270652126532,0.573850723415,0.818924539644,0.00622033009741,0.0,0.818923766705,-0.573758447919,-0.0120770305864,0.0,-0.00632133147625,0.0120246204035,-0.999907720378,0.0,0.265182176353,-0.259578055765,0.304897988906,1.0,-0.0563800000001,-0.0740994285715,2.926
-0.647088549944,-0.519030219675,-0.128684232253,-2.64021685107,-0.069140393888,2.11080373809,-0.896684069887,-0.254882280065,0.0355912268919,0.0279215584392,0.0278033292532,0.0208354160984,0.00660641510191,-0.24700572863,0.573953756818,0.818852100668,0.00625053333218,0.0,0.818851654709,-0.573861198418,-0.0120846775557,0.0,-0.00630874651657,0.0120545377321,-0.999907439635,0.0,0.264120462135,-0.260950083792,0.304892383534,1.0,-0.0490405714287,-0.0644533224491,2.945
-0.650576249922,-0.518479587036,-0.128213624156,-2.63982148771,-0.0688697735501,2.11091823826,-0.900048727654,-0.223062317565,0.0349616624426,0.0356391543398,0.0278513631941,0.0162166685135,0.00607238721723,-0.225077959858,0.573857563222,0.818919627009,0.00623606706718,0.0,0.818918940424,-0.573764990569,-0.0120934492311,0.0,-0.00632564775992,0.0120469826835,-0.999907423909,0.0,0.263432090483,-0.261848614705,0.304890635751,1.0,-0.0432462857144,-0.0568379755103,2.96
-0.65426693098,-0.517870107878,-0.127650995849,-2.63938653032,-0.0685953918064,2.11105269239,-0.903583724421,-0.192437583916,0.0313546874807,0.0308675241885,0.015603872083,0.0162529889544,0.0072565636225,-0.186798256668,0.573726353431,0.819012011949,0.00617596662828,0.0,0.819010527555,-0.573634048278,-0.012102946401,0.0,-0.00636983638251,0.0120021920702,-0.999907682024,0.0,0.262718849221,-0.262790329858,0.304888971578,1.0,-0.0362931428572,-0.0476995591838,2.978
-0.656966377884,-0.517404900561,-0.127253716238,-2.63904747518,-0.0683437012488,2.11116124743,-0.905998693104,-0.172828844954,0.0266688784499,0.0251879898891,0.0165624855411,0.0158795069595,0.00136024163685,-0.154382547941,0.573802893609,0.818958382354,0.00617690525733,0.0,0.818956971332,-0.573710683176,-0.0120945449445,0.0,-0.00636129490256,0.0119987355206,-0.999907777884,0.0,0.262202518292,-0.263482369991,0.304890542626,1.0,-0.0304988571429,-0.040084212245,2.993
-0.659577925134,-0.516945501109,-0.126845015614,-2.63873935374,-0.0680742517656,2.11124249516,-0.90841284567,-0.147005836063,0.0258822155002,0.0269482743131,0.0162448074233,0.0178122967198,0.000361269280063,-0.126803211915,0.573806002339,0.818956064345,0.00619542196187,0.0,0.818954609021,-0.573713169996,-0.0121364672686,0.0,-0.00638496122642,0.0120379789048,-0.999907155357,0.0,0.2617006343,-0.264134335555,0.304878054906,1.0,-0.0239320000001,-0.0314534857144,3.01
-0.661709902926,-0.516617554483,-0.126426208041,-2.6385253311,-0.0678120239487,2.11130024835,-0.910295876799,-0.119709194634,0.0185840476661,0.0295064471754,0.0116422977144,0.0150735967798,0.00529965658268,-0.098598036036,0.573835946367,0.818934986268,0.00620820620273,0.0,0.818933490513,-0.573742659151,-0.0121674191269,0.0,-0.00640253574892,0.0120664427613,-0.999906699895,0.0,0.261303678683,-0.264633065158,0.304869433073,1.0,-0.0198446153846,-0.0260814945055,3.027
-0.663371234599,-0.516343018335,-0.126156762184,-2.6383318659,-0.0676189262902,2.11135112466,-0.911781039804,-0.0996103919954,0.0172138820942,0.0153409969309,0.0101914618656,0.0152030106736,0.00381115768478,-0.102928596942,0.57388157643,0.818902821497,0.00623314368419,0.0,0.818901564475,-0.573788001699,-0.0121780009826,0.0,-0.00639621945304,0.0120932943496,-0.999906415925,0.0,0.260986604344,-0.265042144505,0.304866926551,1.0,-0.0195246153846,-0.0256609230769,3.043
-0.664971883774,-0.516074126303,-0.125935779052,-2.63810226861,-0.0674719513149,2.11143522852,-0.913370159305,-0.0900817728363,0.0166997239451,0.0134324502609,0.0133717738031,0.00426177727521,0.00354578562832,-0.086875070637,0.573816183134,0.818948658027,0.00623140358521,0.0,0.81894772037,-0.573723278513,-0.0121234439587,0.0,-0.00635349919053,0.012060054293,-0.999907089753,0.0,0.260662113752,-0.265489431882,0.304883383426,1.0,-0.0191646153846,-0.0251877802198,3.061
-0.666502621092,-0.515790992877,-0.125785290256,-2.63788388332,-0.0674245925035,2.11149681535,-0.914844841718,-0.0857959552147,0.0178540500286,0.00785039902126,0.0135725412784,0.00278785671858,0.0060288800884,-0.0918346952968,0.573779340381,0.818974788121,0.00618965874233,0.0,0.818973405193,-0.57368681785,-0.0121137736898,0.0,-0.00637007225712,0.0120200303973,-0.999907466243,0.0,0.260367245485,-0.265886729166,0.304888100385,1.0,-0.0188446153846,-0.0247672087912,3.077
-0.667962215784,-0.515522351037,-0.125714718835,-2.63768070358,-0.067359197743,2.11152691476,-0.91630073343,-0.0821666534358,0.0172723489352,0.00282877952784,0.00913267112878,0.00161286571656,0.00130705846798,-0.0862810215892,0.573770827703,0.818980632468,0.00620546701438,0.0,0.818979284377,-0.573677912908,-0.0121379942386,0.0,-0.00638096568637,0.012046807874,-0.999907074531,0.0,0.260045073277,-0.2662974342,0.30488551817,1.0,-0.0185046153846,-0.0243203516484,3.094
-0.66929982793,-0.51530402134,-0.125681958914,-2.63747706534,-0.0673285841417,2.11157400409,-0.917556498977,-0.0852078843669,0.0168107719748,-0.000324380595784,0.00950048143945,-0.000296389154523,0.00099946708801,-0.0765930008603,0.573838079183,0.818933531417,0.00620297516895,0.0,0.818932411355,-0.573745653606,-0.0120986570335,0.0,-0.00634918812882,0.0120227190001,-0.999907566747,0.0,0.259747027042,-0.266691100122,0.304902228134,1.0,-0.0181846153846,-0.0238997802198,3.11
-0.670759805844,-0.515033726419,-0.125622105492,-2.63724214886,-0.0672790536312,2.11166294039,-0.919086727782,-0.0740223695533,0.015140851365,0.00110028925053,0.0122963829854,0.00271559604524,0.00103457256285,-0.074930893618,0.57377123991,0.818980395607,0.00619860994742,0.0,0.818979612213,-0.573679594562,-0.01203596543,0.0,-0.00630132500788,0.0119826566825,-0.999908350421,0.0,0.259435886236,-0.267121771908,0.30491816361,1.0,-0.0178246153846,-0.0234266373626,3.128
-0.672015219296,-0.514771201697,-0.125589333504,-2.63703451131,-0.0672415010327,2.11171819473,-0.920343284626,-0.0745710245824,0.0175667925511,0.000604974640108,0.0121636328107,0.00392544541281,0.00210609116368,-0.0726343081776,0.573773849612,0.818978536342,0.00620269409995,0.0,0.81897785243,-0.573682274162,-0.0120279858352,0.0,-0.00629240772563,0.0119814435089,-0.999908421115,0.0,0.259160448079,-0.267494232879,0.304921034737,1.0,-0.0175046153846,-0.0230060659341,3.144
-0.673393647771,-0.51449259604,-0.125567221664,-2.63681872519,-0.0672045006964,2.11173816451,-0.921748858042,-0.0753145771159,0.0160913756771,0.000542044188956,0.0154622151824,0.000510313063753,0.00116496102351,-0.0835891260061,0.573762982153,0.818986035818,0.00621774453041,0.0,0.818985318057,-0.573670905983,-0.0120618131284,0.0,-0.00631163889947,0.0120130946418,-0.999907920146,0.0,0.258845100686,-0.267897378211,0.304918382872,1.0,-0.0171446153846,-0.0225329230769,3.162
-0.674623894346,-0.514257928724,-0.125532341076,-2.63661892679,-0.0671767559225,2.11179595439,-0.922963553858,-0.0729631211586,0.0154747368306,0.00260423724769,0.0133716342662,-0.000245564423679,0.0115630638538,-0.0645417175094,0.573773057637,0.818979025967,0.00621130085937,0.0,0.818978415595,-0.57368137176,-0.012032679947,0.0,-0.00629132603288,0.0119911797687,-0.999908311209,0.0,0.258574159302,-0.268262057603,0.304928202466,1.0,-0.0168246153846,-0.0221123516484,3.178
-0.675871812951,-0.513995899052,-0.125519991686,-2.63641429505,-0.0671522916633,2.11188591934,-0.924168055567,-0.0687688189124,0.0133448759258,0.00122986244657,0.009271461941,1.27445878682e-05,0.00581508751455,-0.0714606839527,0.573820894457,0.818945523609,0.00620945624507,0.0,0.81894513929,-0.573729683625,-0.0119939927452,0.0,-0.00625999782626,0.0119678380727,-0.99990878748,0.0,0.258298047069,-0.268641622826,0.304932299096,1.0,-0.0164846153846,-0.0216654945055,3.195
-0.677033323447,-0.513745500989,-0.125506944379,-2.63622413117,-0.0671219557588,2.11191318492,-0.92539357448,-0.0728002853296,0.0103954310243,0.00295178106091,0.0130961027824,-0.000215765583226,0.000210991988911,-0.0766585172256,0.57378209173,0.818972608712,0.00622288439554,0.0,0.818972222789,-0.573690494407,-0.0120192274409,0.0,-0.00627352921136,0.0119930178304,-0.999908400982,0.0,0.258032692481,-0.268985223955,0.304928774352,1.0,-0.0161646153846,-0.0212449230769,3.211
-0.678262576488,-0.513502644008,-0.125484195335,-2.6360409511,-0.0670928303448,2.11193440185,-0.92659352363,-0.0714962267973,0.0128498431582,6.94943128058e-05,0.0064192067616,0.000600795495279,0.00016579723141,-0.0739179673312,0.573811931525,0.818951633446,0.00623187098499,0.0,0.818951162911,-0.573719903505,-0.0120503937492,0.0,-0.00629346239309,0.0120184890963,-0.999907969891,0.0,0.257748406382,-0.269341495844,0.30492455891,1.0,-0.0158246153846,-0.0207980659341,3.228
-0.679430423558,-0.513249737427,-0.125472499736,-2.63584373546,-0.0670651230526,2.11198254745,-0.9277724202,-0.0643069079794,0.0132975591421,-0.00763470069978,0.0134200086982,0.000217837961052,0.00273546878265,-0.0683874796241,0.573816644964,0.818948274311,0.00623930021801,0.0,0.818947889378,-0.573724562088,-0.0120510680352,0.0,-0.00628968268156,0.0120249966914,-0.999907915433,0.0,0.257484616635,-0.269691590021,0.304925019453,1.0,-0.0154846153846,-0.0203512087912,3.245
-0.680568648884,-0.512992659289,-0.125456916602,-2.63565719064,-0.0670291932382,2.11206481478,-0.928978626144,-0.0657360752701,0.0174451996631,-0.000212438297973,0.0114297128215,0.000796886806748,0.00421715876547,-0.0627141939362,0.57377497469,0.818977393116,0.00624939082291,0.0,0.818977247117,-0.573683062621,-0.0120315945504,0.0,-0.00626855496223,0.0120217682072,-0.99990808693,0.0,0.257232794859,-0.270034243192,0.304922078464,1.0,-0.0151446153846,-0.0199043516484,3.262
-0.681713000922,-0.512764977715,-0.125424368674,-2.63545953395,-0.0670024992309,2.11208864435,-0.93009205132,-0.0691016010353,0.0179116530551,0.00211340061679,0.0109615309961,0.000543314350634,-3.19579711799e-05,-0.0606359204788,0.573798699727,0.818960791991,0.00624662108376,0.0,0.818960612927,-0.573706800356,-0.0120319824138,0.0,-0.00627011357091,0.012019903916,-0.99990809957,0.0,0.25697599609,-0.270370496559,0.304930447417,1.0,-0.0148046153846,-0.0194574945055,3.279
-0.682778966242,-0.512544612544,-0.125403574191,-2.63528270619,-0.0669714522936,2.11212411246,-0.931145574312,-0.0619553540541,0.0136651549799,0.000917435494801,0.0149767075403,0.00624383852485,0.00335248110665,-0.0655704148602,0.573810049923,0.818952790892,0.00625298319893,0.0,0.818952700022,-0.573718130682,-0.0120303181199,0.0,-0.00626493338694,0.0120242464189,-0.999908079829,0.0,0.256721145419,-0.270704863636,0.30493115446,1.0,-0.0144646153846,-0.0190106373626,3.296
-0.683865810388,-0.512303781652,-0.125395693941,-2.63509826365,-0.066945711096,2.11218728205,-0.932279076393,-0.0648680758582,0.0147415349928,-1.09735704173e-05,0.00576388933283,0.00441731040005,0.00136695701542,-0.0683625793491,0.573793246372,0.818964507295,0.00626044011177,0.0,0.818964567807,-0.573701402644,-0.0120201573143,0.0,-0.00625257932072,0.0120243952245,-0.999908155368,0.0,0.256490144599,-0.271013175947,0.30493301034,1.0,-0.0141446153846,-0.0185900659341,3.312
-0.685038380972,-0.512052988114,-0.125372045629,-2.63487576068,-0.066916298603,2.11222396387,-0.933431303224,-0.0610092558146,0.0118680368895,0.0030910650103,0.00977007364677,0.000373063751151,0.000730250808631,-0.0633788752076,0.573817015872,0.818947855746,0.00626009308379,0.0,0.81894800546,-0.573725348868,-0.0120056369807,0.0,-0.00624053672344,0.0120159608754,-0.999908331991,0.0,0.256229633386,-0.271365645572,0.304944948414,1.0,-0.0137646153846,-0.0180906373626,3.331
-0.686008149093,-0.51185132384,-0.12533178168,-2.63470623209,-0.0668892633573,2.11227749678,-0.93441902239,-0.0583397039177,0.0143449579382,0.00157378647492,0.00956108595811,0.000407946570203,0.000149206428022,-0.0607305838565,0.573793888817,0.81896412813,0.00625115143278,0.0,0.818964331515,-0.573702592655,-0.0119793901791,0.0,-0.0062245088906,0.011993401841,-0.999908702733,0.0,0.256019279152,-0.271651954819,0.304952822781,1.0,-0.0134446153846,-0.0176700659341,3.347
-0.6870029253,-0.511639724018,-0.12528509983,-2.63453621468,-0.0668699541182,2.1123219478,-0.935434066009,-0.0555729537305,0.0145963989746,0.00716082789672,0.00767625026993,0.00345830121086,0.00477220788493,-0.0561890998579,0.573761061039,0.818987251348,0.00623489105199,0.0,0.81898729842,-0.573669947402,-0.0119726093526,0.0,-0.00622876472635,0.0119759441982,-0.999908885474,0.0,0.25580106864,-0.271942521282,0.304956599173,1.0,-0.0131046153846,-0.0172232087912,3.364
-0.687851615696,-0.511442304469,-0.125262846611,-2.63438281608,-0.0668408466318,2.11234781093,-0.936277685775,-0.0567961920795,0.0177209158438,0.00385878742684,0.0103284084036,0.00354911041097,0.00180024041736,-0.053187818793,0.573769750353,0.81898111327,0.0062415213293,0.0,0.818981161491,-0.573678442984,-0.0119853276533,0.0,-0.00623525079429,0.0119887376636,-0.99990869174,0.0,0.255611442939,-0.272192930479,0.30495591106,1.0,-0.0128046153846,-0.0168289230769,3.379
-0.688792002209,-0.511239818644,-0.125239248845,-2.63421615031,-0.0668190281042,2.11239690419,-0.937231506965,-0.0560984372071,0.00987801589885,0.00294998811806,0.00742288066911,-3.63445686677e-05,0.00500465878479,-0.0613621190949,0.573759814422,0.818988107593,0.00623713697391,0.0,0.818988213823,-0.573668749121,-0.0119674057858,0.0,-0.00622323226788,0.0119747887442,-0.999908933761,0.0,0.255402581761,-0.272473892694,0.304961368455,1.0,-0.0124646153846,-0.0163820659341,3.396
-0.689837204841,-0.511013694165,-0.125216186565,-2.63402727674,-0.0667853100194,2.11245081396,-0.938311192635,-0.0599353155307,0.0130447776458,0.00283315782887,0.011127517757,0.00589432147194,0.00405771649087,-0.0566658125858,0.57373922549,0.819002498156,0.00624147817781,0.0,0.81900279817,-0.573648410855,-0.0119442125756,0.0,-0.00620204530846,0.0119648817256,-0.999909183996,0.0,0.255170925814,-0.272786589442,0.304968547305,1.0,-0.0120846153846,-0.0158826373626,3.415
-0.690750436428,-0.510816528281,-0.125209013085,-2.63386107614,-0.066762228486,2.11249220799,-0.939216014677,-0.0557356431947,0.0184632054046,0.000426324279894,0.00532713455751,0.00056846917235,0.00330774227802,-0.0529880403199,0.573759369281,0.818988349119,0.0062463646665,0.0,0.818988806622,-0.573668711334,-0.0119285860851,0.0,-0.0061861481589,0.011960071041,-0.999909340026,0.0,0.25496404172,-0.273062502302,0.304974695732,1.0,-0.0117446153846,-0.0154357802198,3.432
-0.691596606809,-0.510632662188,-0.125202556026,-2.63371731696,-0.0667486176407,2.11253727015,-0.940034647444,-0.0488966027943,0.0112661224255,0.000671590896529,0.0129998263088,-5.318473632e-05,0.00366441048829,-0.0472868933088,0.573790544299,0.818966516935,0.00624518322899,0.0,0.818967018053,-0.573699998677,-0.011919805411,0.0,-0.00617917887816,0.0119543008783,-0.99990945212,0.0,0.254770072395,-0.273317055771,0.304975859641,1.0,-0.0114246153846,-0.0150152087912,3.448
-0.692470110617,-0.510435226866,-0.125201756197,-2.63356082416,-0.0667262879092,2.11256677791,-0.940897121295,-0.0477434308753,0.0152632311331,0.000101381775029,0.00920012018205,0.0032151198111,-0.00128002044319,-0.0492329858101,0.573812838864,0.818950845468,0.00625184478417,0.0,0.818951435699,-0.573722265648,-0.0119186730627,0.0,-0.00617410369813,0.0119592751405,-0.999909423989,0.0,0.254556440888,-0.273595345473,0.304979334289,1.0,-0.0110646153846,-0.0145420659341,3.466
-0.693293819065,-0.510248441474,-0.125186918613,-2.63339921731,-0.0667081412173,2.11259778377,-0.941753859253,-0.0471563360014,0.0101710485898,0.000266310249228,0.00904736321694,0.00169609832041,0.00127891351721,-0.0511103610197,0.573794990967,0.818963336266,0.00625372640907,0.0,0.818963964395,-0.573704439771,-0.0119158596356,0.0,-0.00617098036618,0.0119590673933,-0.999909445754,0.0,0.254383772238,-0.273828642632,0.304983478167,1.0,-0.0107446153846,-0.0141214945055,3.482
-0.694051980908,-0.510070558618,-0.125162915921,-2.6332546745,-0.0666853690711,2.11263988616,-0.942479213798,-0.0457724943943,0.00643381819813,0.00301968777733,0.0100051725919,6.92511890573e-05,0.00327471096574,-0.041688480615,0.573821892059,0.818944513211,0.0062503900608,0.0,0.818945181346,-0.573731510571,-0.0119033873182,0.0,-0.00616228664474,0.0119493811173,-0.999909615172,0.0,0.254217937716,-0.274055712424,0.304987348441,1.0,-0.0104246153846,-0.0137009230769,3.498
-0.694879103949,-0.509866381808,-0.125135047926,-2.63310657165,-0.0666658149753,2.11267793326,-0.943282231249,-0.0465949890352,0.0132998127282,0.0036522345706,0.00506146856976,0.00136631383729,0.00491609265574,-0.0432302509446,0.573837822267,0.818933387947,0.00624553783152,0.0,0.818933911304,-0.573747299202,-0.011917737904,0.0,-0.00617659193404,0.0119537616367,-0.99990947455,0.0,0.254033181102,-0.274299582018,0.304982819447,1.0,-0.0100646153846,-0.0132277802198,3.516
-0.695595102645,-0.509704299897,-0.125110255406,-2.63296950429,-0.066643359181,2.11271270407,-0.944003193147,-0.0441880504599,0.00485385178664,0.00140821551017,0.00741067797831,0.000278333370267,0.00259243219089,-0.0390901854123,0.573832672826,0.818937017376,0.00624276136502,0.0,0.818937590511,-0.573742328593,-0.0119042064196,0.0,-0.00616717759435,0.011943684491,-0.999909653079,0.0,0.253876268063,-0.274512814611,0.304988525838,1.0,-0.00974461538462,-0.0128072087912,3.532
-0.696348255951,-0.50951503921,-0.1250864814,-2.63283232948,-0.0666236502975,2.11273822849,-0.944766721534,-0.0469956542134,0.0106775839977,0.000393348319584,0.00521626744069,0.000497601707817,0.00382329140484,-0.0393449853443,0.573822782068,0.818943950337,0.00624242638001,0.0,0.818944378552,-0.573732169379,-0.0119268419214,0.0,-0.00618605330967,0.0119563238013,-0.999909385427,0.0,0.253706521921,-0.274734044557,0.304983378879,1.0,-0.00940461538462,-0.0123603516484,3.549
-0.697073190097,-0.50934071865,-0.125067738891,-2.63270148029,-0.0666025444182,2.11278365213,-0.945477257237,-0.0410733483384,0.00879839853191,0.00133713755881,0.00876354836371,0.000649785289659,0.000324589108115,-0.0371090152152,0.573836980555,0.818934005559,0.00624188977273,0.0,0.818934464533,-0.573746440024,-0.0119210847228,0.0,-0.00618143863837,0.0119526880473,-0.999909457433,0.0,0.253545271872,-0.274950460505,0.304982470443,1.0,-0.00906461538462,-0.0119134945055,3.566
