nelsonifechukwu/NELSON_IML_WORK/CNN-GradCAM/train2dof/data_sample_2022-02-21-07-51-30/robot_state.csv
position_joint1,position_joint2,position_joint3,position_joint4,position_joint5,position_joint6,position_joint7,velocity_joint1,velocity_joint2,velocity_joint3,velocity_joint4,velocity_joint5,velocity_joint6,velocity_joint7,ee_T_00,ee_T_10,ee_T_20,ee_T_30,ee_T_01,ee_T_11,ee_T_21,ee_T_31,ee_T_02,ee_T_12,ee_T_22,ee_T_32,ee_T_03,ee_T_13,ee_T_23,ee_T_33,v_x,v_y,time
0.465085027932,0.547536750295,-0.124000925697,-1.35573884268,0.0794240785757,1.89411453867,0.15914776503,-0.000874978273421,-0.00011378268808,0.000433243074498,-0.0018003108642,0.000277156845254,5.18319723254e-05,0.000676728578914,0.573770156313,0.819001648235,0.00220336437397,0.0,0.818962656425,-0.573711456535,-0.0116652871102,0.0,-0.0082899535934,0.00849783035899,-0.999929529291,0.0,0.661712099214,0.260893896477,0.303433847435,1.0,0.0,0.0,0.0
0.465079878738,0.547533948575,-0.124003510504,-1.35573547798,0.0794212353699,1.89411241502,0.159149290909,-0.00043068478859,0.000479934287249,-0.00273721477117,-0.000284128321851,0.000158545856825,4.80989189778e-05,0.00143217323431,0.573776472259,0.818997219949,0.00220465387744,0.0,0.818958283888,-0.573717806953,-0.0116599372788,0.0,-0.00828476653592,0.00849588080668,-0.999929588848,0.0,0.661714617499,0.260888824834,0.303437329714,1.0,-0.00018,-0.000236571428571,0.01
0.465079869953,0.547532926205,-0.124003431399,-1.35573903002,0.079423468386,1.89411561091,0.159142983943,0.00440659678875,0.00085274212302,0.000289545986395,-0.00214195478804,-7.6477184945e-05,0.000129461959375,-0.00163282488538,0.573772064399,0.819000302917,0.00220654435625,0.0,0.818961371135,-0.573713371878,-0.0116613214818,0.0,-0.00828486133242,0.00849817870795,-0.999929568535,0.0,0.661714326637,0.26088903582,0.303436642427,1.0,-0.00046,-0.000604571428571,0.024
0.465079042779,0.547503574642,-0.124003061582,-1.35575746541,0.0794229532669,1.8941168142,0.15914459405,-0.000680308256634,-0.00164370125443,0.00042623979727,-0.0013135683351,0.000366262896491,-0.000315548885166,-0.00165427185863,0.573774625944,0.818998477507,0.0022179640472,0.0,0.818959679954,-0.573715876698,-0.0116568578396,0.0,-0.00827462694755,0.00850499612039,-0.999929595317,0.0,0.661711275456,0.260886898959,0.303448751652,1.0,-0.00086,-0.00113028571429,0.044
0.465081125981,0.547419824788,-0.124003799928,-1.35583315532,0.07942035262,1.89412197501,0.159144224769,-0.000194606250117,-0.00978360927893,-4.19741978912e-05,-0.006427728208,0.000314320738383,0.000232107225738,-0.000610255956392,0.573776461037,0.818997153929,0.00223193127121,0.0,0.818958495466,-0.573717616878,-0.0116544278819,0.0,-0.00826460409526,0.00851505940263,-0.999929592563,0.0,0.661696936101,0.260879894061,0.30347251923,1.0,-0.00112,-0.001472,0.057
0.465083971526,0.547258436512,-0.124001004854,-1.35602027422,0.0794159689572,1.89416672934,0.159142981704,0.000771997949373,-0.00894282861791,-0.000529790069996,-0.0109427888914,-8.46140359118e-05,0.00818511666804,-0.00133197411136,0.573780230799,0.818994451139,0.00225447329121,0.0,0.818955980135,-0.573721195167,-0.0116550297994,0.0,-0.00825212450142,0.00853390437625,-0.999929534976,0.0,0.661666086116,0.260865631125,0.303501560728,1.0,-0.00152,-0.00199771428571,0.077
0.465068738188,0.547153778135,-0.12400314178,-1.35618004205,0.0794149848018,1.89421787235,0.159139280415,-0.000147598206384,-0.00332608140901,0.000299241700132,-0.0101808978702,0.000254900694973,0.00592972809653,5.3403144145e-05,0.573799796601,0.818980740434,0.00225546455491,0.0,0.818942207391,-0.5737406775,-0.0116637402246,0.0,-0.00825848584497,0.00853991130951,-0.999929431173,0.0,0.661646938378,0.260840037128,0.303504156704,1.0,-0.00178,-0.00233942857143,0.09
0.465044293376,0.546915536395,-0.123998602429,-1.35643933693,0.0794040821016,1.89436910569,0.159126148766,-0.00444312481982,-0.0140374452164,0.00154291366049,-0.0112941597742,0.000250896851838,0.00685334833874,-0.00172875081309,0.573817736147,0.818967849316,0.002369466181,0.0,0.818930801394,-0.573758211071,-0.0116019247315,0.0,-0.00814225943182,0.00859798456072,-0.999929886678,0.0,0.661629879254,0.260807360492,0.303562454993,1.0,-0.0022,-0.00289142857143,0.111
0.465026109623,0.546763412881,-0.123996648967,-1.35661941292,0.079395733836,1.89446307237,0.159120128596,-0.000181937350189,-0.0143940995123,0.00111374242094,-0.00953962917006,-4.74200226888e-06,0.013271427226,0.00024234071306,0.573834300347,0.81895607418,0.00242718156295,0.0,0.818919778153,-0.573774575514,-0.0115706674302,0.0,-0.00808336893317,0.00862747894212,-0.999930110435,0.0,0.66161609874,0.260782118166,0.303592569757,1.0,-0.00246,-0.00323314285714,0.124
0.464979718634,0.546474158605,-0.124001345435,-1.35702859462,0.0793708051079,1.89462801133,0.159093873851,-0.00451852456352,-0.0166399862144,0.000557111875591,-0.0217189536435,-0.000784520532445,0.0103574621765,-0.00667560738803,0.573870392244,0.818930674047,0.00246392210655,0.0,0.818894896019,-0.573810581756,-0.0115461006553,0.0,-0.0080417862442,0.00864382496961,-0.999930304553,0.0,0.661577341248,0.260711099709,0.303617093139,1.0,-0.00288,-0.00378514285714,0.145
0.464953685853,0.546273618935,-0.124004838019,-1.35734018415,0.0793535785426,1.89472452126,0.159046023107,-0.000742098916678,-0.0189589481205,8.92105406668e-05,-0.0256760350168,-2.02007272181e-05,0.00965522264756,-0.00886330087031,0.573867705015,0.818932592061,0.00245228508516,0.0,0.818896640586,-0.57380791027,-0.0115551309179,0.0,-0.0080558878349,0.0086394508152,-0.999930228846,0.0,0.661538943842,0.260661261853,0.30361925522,1.0,-0.00314,-0.00412685714286,0.158
0.46490906371,0.545944829337,-0.124002404051,-1.35787489449,0.0793040932714,1.89491919281,0.158923013381,-0.0036896206921,-0.0110852999305,-0.000294854378447,-0.0273390680842,-0.00552876943312,0.0120794012746,0.000499207198994,0.573818591684,0.818967060927,0.00243389709341,0.0,0.818930993918,-0.573758997338,-0.0115493322314,0.0,-0.00806220753973,0.0086205812946,-0.999930340768,0.0,0.661477573716,0.26057919966,0.303614286401,1.0,-0.00354,-0.00465257142857,0.178
0.464867517742,0.545708770125,-0.124002162415,-1.35826374935,0.079276610643,1.89505110825,0.158900911648,-0.00462757058577,-0.0218657638638,-0.000458483905998,-0.0292458054455,-0.00276653086215,0.00676845514001,-0.00156761590773,0.573848734195,0.818946000577,0.00241356637248,0.0,0.818909688784,-0.573789225958,-0.0115582304672,0.0,-0.00808084381551,0.00860933456647,-0.999930287231,0.0,0.661433149236,0.26051330347,0.303607728723,1.0,-0.0038,-0.00499428571429,0.191
0.464800693464,0.545280731695,-0.124004396254,-1.35898685732,0.0792451486951,1.89529108531,0.158824616347,-0.0014600780599,-0.0254359580021,0.00120729981733,-0.0334481908029,0.0002759808096,0.010038630911,-0.00730251337223,0.573874469851,0.818928086828,0.00237241621352,0.0,0.81889110933,-0.573814961445,-0.0115968954627,0.0,-0.0081358521367,0.00859807832012,-0.999929938025,0.0,0.661345911369,0.260398791757,0.303587423667,1.0,-0.00422,-0.00554628571429,0.212
0.464749018061,0.544980692265,-0.124005224551,-1.35950282517,0.0792259665329,1.89545603858,0.158726187416,-0.00580094522525,-0.0266668483314,0.000704539584283,-0.0440269058443,0.000188640251127,0.00638454933548,-0.001250270069,0.573860362713,0.818938077837,0.00233573883744,0.0,0.818900485423,-0.57380083978,-0.0116334922594,0.0,-0.00818701850847,0.00858890311838,-0.999929599257,0.0,0.661282892267,0.260314919636,0.303568535168,1.0,-0.00448,-0.005888,0.225
0.464666903905,0.544470923071,-0.1240109147,-1.36037237632,0.0791792798029,1.89574737084,0.158664935931,-0.000397564456239,-0.0208026838667,0.000562751684873,-0.0453631307165,-0.00165437468476,0.0203672257274,-0.00298070111859,0.573917422334,0.818898253262,0.00227816764133,0.0,0.818859849193,-0.573858033933,-0.0116726676827,0.0,-0.00825154124039,0.00856481225861,-0.999929275528,0.0,0.66117984306,0.260173016694,0.303540849608,1.0,-0.0049,-0.00644,0.246
0.464621827849,0.54413873185,-0.124010788857,-1.36089466957,0.0791506039483,1.89592512829,0.158566735722,-0.00503782916136,-0.0275842194721,0.00119393425562,-0.0422982696234,-0.00284012507538,0.0204502035895,-0.00762508878904,0.573895222772,0.818913833977,0.0022699566089,0.0,0.81887527075,-0.573835812767,-0.0116832290234,0.0,-0.00826513460664,0.0085639255379,-0.999929170856,0.0,0.661117237189,0.260093075515,0.303542713552,1.0,-0.00514,-0.00675542857143,0.258
0.464538644863,0.543527301417,-0.124017617528,-1.36189064186,0.0790999109559,1.89627886848,0.158452999075,-0.00478650499151,-0.0290546195992,0.000133273913284,-0.0519402473546,-0.00361077019667,0.0161515443511,-0.00566263032609,0.573916929376,0.818898686258,0.00224649100078,0.0,0.818859741711,-0.573857524496,-0.0117052075982,0.0,-0.00829637309089,0.00855754260231,-0.999928966806,0.0,0.661000764293,0.259939738172,0.303532138841,1.0,-0.00556,-0.00730742857143,0.279
0.464484433112,0.543129378843,-0.124018106848,-1.36251784841,0.0790676328793,1.89649987666,0.158370582375,-0.00138086864151,-0.0291241970532,0.001230644962,-0.044693683483,-0.00443826644969,0.0162001079395,-0.00184744279351,0.573920424459,0.818896247696,0.00224249858751,0.0,0.818857184471,-0.573860965169,-0.0117154170522,0.0,-0.00830698859573,0.00856016801664,-0.999928856201,0.0,0.66092693648,0.259844172199,0.30353426746,1.0,-0.00582,-0.00764914285714,0.292
0.464397837713,0.542481522999,-0.124025876927,-1.36357395675,0.0789926001268,1.8968705344,0.158227174452,-0.00747214804392,-0.0332296965407,-0.00105912959039,-0.0545425646326,-0.00450084313325,0.0175243973775,-0.0120644187007,0.573917999444,0.818898057138,0.00220200607018,0.0,0.818858567929,-0.573858795388,-0.0117249983774,0.0,-0.00833809837459,0.0085324834262,-0.999928833889,0.0,0.660803115998,0.259678597385,0.303522151621,1.0,-0.00622,-0.00817485714286,0.312
0.4643392683,0.542001874048,-0.124023953659,-1.36431946511,0.0789538175971,1.89715080287,0.158128736364,-0.0085974052082,-0.0380621319555,5.25421610513e-05,-0.0562760589409,-0.00511717159328,0.0197884901127,-0.00783046798094,0.573915107473,0.818900041409,0.00221776833703,0.0,0.818860690647,-0.573855776368,-0.0117245103658,0.0,-0.00832868320619,0.00854508145812,-0.999928804775,0.0,0.660716744572,0.259571560558,0.303530729382,1.0,-0.0065,-0.00854285714286,0.326
0.46424087323,0.541232504023,-0.124031822826,-1.36552131703,0.078877475032,1.89758645607,0.157975801719,-0.00566773286944,-0.0335519089656,-0.00100044438847,-0.0539548406993,-0.000675980113859,0.0179586735603,-0.00515359098463,0.573919318106,0.818897078408,0.0022222017065,0.0,0.818857847209,-0.573860033434,-0.0117147339924,0.0,-0.00831808884406,0.00854314393213,-0.999928909518,0.0,0.660587768918,0.259395919636,0.303543861959,1.0,-0.0069,-0.00906857142857,0.346
0.464175558235,0.540719797961,-0.124024277691,-1.36630137091,0.0788280012383,1.89788044051,0.157868840729,-0.00593902731383,-0.0352085777272,0.00169366745497,-0.0615303330194,-0.00389581379369,0.0195634497901,-0.0102760094086,0.573912876968,0.818901545724,0.00223941104841,0.0,0.818862507603,-0.573853497333,-0.0117091477899,0.0,-0.00830370523423,0.00855396513195,-0.999928936555,0.0,0.660488348888,0.259273959263,0.303556987479,1.0,-0.00718,-0.00943657142857,0.36
0.464062731139,0.53988239813,-0.12403288873,-1.36756368194,0.0787696898204,1.89834139092,0.157706563165,-0.00200624432708,-0.0447577760109,8.7398932191e-05,-0.0624431649486,-0.00760945438159,0.0257170258246,-0.00776303811304,0.573932659125,0.818887573711,0.00227844498469,0.0,0.818848908548,-0.57387299322,-0.0117046795149,0.0,-0.00827743793211,0.00858356528734,-0.999928900687,0.0,0.660345243223,0.259077450055,0.303588219325,1.0,-0.00758,-0.00996228571429,0.38
0.463982318305,0.539331332791,-0.124030815073,-1.36846401269,0.0787055259774,1.89867092115,0.157601561544,-0.00381880462938,-0.0405791671149,0.00110682978716,-0.0705978423775,-0.0046871870208,0.0310119618118,-0.00981401227615,0.573943729648,0.818879877631,0.0022556839712,0.0,0.818840978447,-0.573884210796,-0.0117094626981,0.0,-0.0082943016567,0.00856778411953,-0.99992889629,0.0,0.660241298655,0.258937901325,0.303577520139,1.0,-0.00784,-0.010304,0.393
0.463861199196,0.538445676235,-0.124039272894,-1.36983762623,0.0786341200113,1.89920080551,0.157434487776,-0.00828292863733,-0.0486703155623,0.00078977037529,-0.0700050678543,-0.0016782042662,0.0212490673252,-0.00375608103698,0.573975324321,0.818857604639,0.00230158570892,0.0,0.81881921494,-0.573915541539,-0.0116957824248,0.0,-0.00825642353397,0.00859783864881,-0.999928951797,0.0,0.660083079481,0.258714003769,0.30359921077,1.0,-0.00826,-0.010856,0.414
0.463769643267,0.537867741985,-0.124041746776,-1.37076538063,0.0785829111235,1.89955676775,0.157317633539,-0.00736802262954,-0.0456460787567,-0.000601534464658,-0.0638736823927,-0.00169185524724,0.0259690258799,-0.0103652874253,0.573991251798,0.818846449474,0.00229824801869,0.0,0.818808024278,-0.573931487538,-0.0116967470636,0.0,-0.00825896190993,0.00859581990465,-0.99992894819,0.0,0.659979661923,0.258563610234,0.303591954408,1.0,-0.00852,-0.0111977142857,0.427
0.463643748515,0.536914245606,-0.124051100974,-1.3722649749,0.0784869009293,1.90010953633,0.157132969929,-0.00512461903469,-0.0457115144971,-0.000670268831078,-0.0781487307974,-0.00764100603684,0.0238852383742,-0.00885503214368,0.574002919662,0.818838265892,0.00229987656291,0.0,0.818799945187,-0.573943234744,-0.0116858869973,0.0,-0.00824901166927,0.00859103746301,-0.999929071425,0.0,0.659816250263,0.258345454355,0.303600745764,1.0,-0.0089,-0.0116971428571,0.446
0.463548891843,0.5362189002,-0.124056964022,-1.37334816573,0.078422744613,1.90052723606,0.15699990416,-0.00572617197759,-0.0473117818142,-0.000585909085088,-0.0780983123604,-0.0130900901993,0.0281106861715,-0.00867745891104,0.57401825728,0.818827447519,0.00232344575517,0.0,0.818789460184,-0.573958512854,-0.0116701463297,0.0,-0.00822243296829,0.00860145555868,-0.999929200773,0.0,0.659696069174,0.258177979775,0.303612402487,1.0,-0.00918,-0.0120651428571,0.46
0.463408026605,0.535120246872,-0.124064143394,-1.37506203241,0.0783228576151,1.9011440161,0.156793735935,-0.00624817353499,-0.0590316676394,-0.000711002209892,-0.0878723849634,-0.00172876196962,0.0298479020944,-0.00974178711119,0.574037063016,0.818814259295,0.00232507198192,0.0,0.818776254124,-0.573977269611,-0.011674183205,0.0,-0.00822460755525,0.00860529324661,-0.999929149869,0.0,0.659493692208,0.25791757439,0.303625630362,1.0,-0.0096,-0.0126171428571,0.481
0.463305311367,0.534452024501,-0.124062713283,-1.37615864122,0.0782768055346,1.90154167648,0.156664490247,-0.00805449822584,-0.0561611061673,-0.000160213126541,-0.0887924754551,-0.000707000386462,0.0234593583773,-0.0130056014747,0.57406216062,0.818796708424,0.00230931150099,0.0,0.818758291001,-0.574002205191,-0.0117079568862,0.0,-0.00826104571749,0.00861202877272,-0.999928791507,0.0,0.659364501654,0.257748797269,0.303609553599,1.0,-0.00986,-0.0129588571429,0.494
0.463164373863,0.53337018027,-0.12407331495,-1.37788019121,0.0781509910014,1.90217904577,0.156449070847,-0.0081421821769,-0.052221880916,-0.000795069793482,-0.0877191297149,-0.00162784198245,0.0422316963182,-0.0138383047757,0.574069095392,0.818791896385,0.0022915129104,0.0,0.818753466558,-0.574009432581,-0.0116909883264,0.0,-0.00825729545549,0.00858778457332,-0.999929030996,0.0,0.659165397303,0.257482483129,0.303608699957,1.0,-0.01026,-0.0134845714286,0.514
0.463052220048,0.532602579292,-0.124068373893,-1.37911918588,0.0780993429784,1.90265211121,0.156291379044,-0.00916998630353,-0.059379275068,-1.46761768019e-05,-0.0917157773812,-0.00220678803667,0.0324626257042,-0.00518459268078,0.574082364028,0.818782554875,0.00230522136108,0.0,0.818744078478,-0.574022415154,-0.0117110102161,0.0,-0.00826568127174,0.00861063655042,-0.999928765188,0.0,0.659022099405,0.257298163457,0.303601084096,1.0,-0.01054,-0.0138525714286,0.528
0.462903279093,0.531446019803,-0.124068073059,-1.38095920223,0.077982684205,1.90332898969,0.15606364457,-0.00661281387042,-0.0642723060584,0.000885757705872,-0.0946281047216,-0.00321251180123,0.0336928124515,-0.0095820617149,0.574086641665,0.818779582634,0.00229560984713,0.0,0.818740996519,-0.574026743664,-0.0117143108901,0.0,-0.00827385643358,0.00860470495944,-0.999928748638,0.0,0.658803385835,0.257024034108,0.303599151315,1.0,-0.01094,-0.0143782857143,0.548
0.462791788626,0.530622048961,-0.124068453247,-1.38229425799,0.0779021125854,1.90379438796,0.155897039623,-0.00191278265881,-0.0565856971509,0.000840358430851,-0.0961344686995,-0.00579653781221,0.0338836767612,-0.00802748615752,0.57409266091,0.818775470557,0.00225663561667,0.0,0.818736320162,-0.574032847989,-0.0117419920853,0.0,-0.00831883228835,0.00858874638138,-0.999928512677,0.0,0.658639579137,0.25682127595,0.30358465864,1.0,-0.01122,-0.0147462857143,0.562
0.462618483823,0.52934173484,-0.124074504626,-1.38432756404,0.077767437404,1.90454344262,0.155624398247,-0.0063089597141,-0.0648996894281,-0.000233163848444,-0.0972191379641,-0.00859389304934,0.0322462298153,-0.0136265050673,0.574089794639,0.818777513682,0.00224447803679,0.0,0.818738301503,-0.574030127125,-0.0117368524522,0.0,-0.0083216330737,0.00857581246056,-0.999928600383,0.0,0.658401016386,0.256508143169,0.303583822765,1.0,-0.01164,-0.0152982857143,0.583
0.462523723497,0.528645897445,-0.124080009619,-1.38540163348,0.0777024716954,1.9049431132,0.155479299067,-0.0117385090942,-0.066427821547,-0.00164818064972,-0.0990106493879,-0.00768022151731,0.0347921173349,-0.00947208784237,0.574093209778,0.818775072736,0.00226133900635,0.0,0.818736093783,-0.574033493095,-0.011726228839,0.0,-0.00830321940438,0.00858355347754,-0.999928687036,0.0,0.658277028213,0.256340812258,0.303597403472,1.0,-0.01186,-0.0155874285714,0.594
0.462354136806,0.527272174237,-0.124077861707,-1.38753830839,0.0775693584491,1.90577105256,0.155183377672,-0.00513728420093,-0.0678996773302,-0.0010906645368,-0.105541674142,-0.00497036419912,0.0458883920418,-0.0129022885232,0.574068235047,0.818792438306,0.00231330563882,0.0,0.818754173663,-0.574008369393,-0.01169366824,0.0,-0.00824698911342,0.00860715784896,-0.999928949478,0.0,0.658028445319,0.256029496726,0.303619119708,1.0,-0.01228,-0.0161394285714,0.615
0.462233375013,0.5263965514,-0.124078736348,-1.38889902932,0.0774800088332,1.90628591436,0.154993970073,-0.00969678640822,-0.065669513074,0.000407555562495,-0.106175812534,-0.00403068834557,0.0411456005953,-0.0149549916964,0.574062069556,0.818796702187,0.0023340280476,0.0,0.818758765648,-0.574002190561,-0.0116754360398,0.0,-0.00822022957869,0.00861359673762,-0.999929114376,0.0,0.657871295751,0.255820001206,0.303632262721,1.0,-0.01254,-0.0164811428571,0.628
0.46203295605,0.524868421041,-0.124087926984,-1.39127030314,0.0773304952238,1.90714017308,0.154675495942,-0.0082392177715,-0.0700796210591,0.000606691290694,-0.10634499358,-0.0107774717075,0.0436595204256,-0.0112784222886,0.574059119167,0.818798756851,0.00233888456213,0.0,0.818760911204,-0.573999252064,-0.0116694393638,0.0,-0.00821256257219,0.0086141011858,-0.99992917303,0.0,0.657586974778,0.255455243837,0.303652834216,1.0,-0.01298,-0.0170594285714,0.65
0.461927998838,0.52403599474,-0.124098604914,-1.39261065794,0.0772416520683,1.90760627937,0.154488364198,-0.00903095766041,-0.0742608422552,-0.00073543021733,-0.106919658303,-0.00752524623867,0.0351194275684,-0.018484476817,0.574047273595,0.818807180313,0.00229696464461,0.0,0.818768843144,-0.573987616159,-0.0116852425991,0.0,-0.00824969011517,0.00858873009977,-0.99992908565,0.0,0.65742101333,0.255249147578,0.303640927788,1.0,-0.01322,-0.0173748571429,0.662
0.461730164536,0.522547344824,-0.124108859207,-1.39499614702,0.077100563686,1.90851116666,0.15417544215,-0.0105080538893,-0.0688216294196,-0.000517822386367,-0.114413366359,-0.0116034948701,0.0463578255345,-0.0168313838887,0.574050368266,0.81880499993,0.0023008007818,0.0,0.818766718001,-0.573990702026,-0.011682567472,0.0,-0.008245265149,0.00859036665564,-0.999929108089,0.0,0.657140013467,0.254888115604,0.303630666908,1.0,-0.01364,-0.0179268571429,0.683
0.461616626482,0.521687959771,-0.124103834194,-1.39637172149,0.0770192729184,1.90904593047,0.153978440686,-0.00526926272218,-0.0698560178278,0.000636890913539,-0.119239388383,-0.0016616657576,0.0372961086296,-0.0154678436661,0.574030316562,0.818819011248,0.00231719395659,0.0,0.818780908114,-0.573970557247,-0.0116777918688,0.0,-0.00823215537955,0.00860084632817,-0.999929126019,0.0,0.656977517685,0.254687577386,0.303625977784,1.0,-0.01388,-0.0182422857143,0.695
0.461409569516,0.520132564792,-0.124112090557,-1.39886337327,0.0768535283758,1.90997576107,0.153643521049,-0.0100061498516,-0.0734915584258,-0.000347053484523,-0.121812152069,-0.00608345226454,0.0416188276687,-0.0117323880423,0.574019680123,0.818826516557,0.0022998949368,0.0,0.818788318758,-0.573960120871,-0.0116711446044,0.0,-0.00823675328774,0.0085827590458,-0.999929243568,0.0,0.656679863405,0.25430777096,0.303613333606,1.0,-0.0143,-0.0187942857143,0.716
0.461283108018,0.51911879315,-0.124116076173,-1.40044533165,0.0767531940878,1.91053628493,0.153433071495,-0.00498631402879,-0.0779253547452,0.000272252882106,-0.123705611806,-0.00525671356377,0.041828330346,-0.0225643512438,0.574010602841,0.818832905049,0.00229092479327,0.0,0.818794586342,-0.573951072883,-0.0116763956235,0.0,-0.00824629697268,0.00857833686887,-0.999929202855,0.0,0.656483226016,0.25406981438,0.30362079725,1.0,-0.01456,-0.019136,0.729
0.461057283485,0.517381887654,-0.12412418518,-1.40317594529,0.0765756021141,1.91152725343,0.15307110064,-0.0102249980109,-0.0762925857715,-0.00103728286664,-0.123955246204,-0.00994494055233,0.0481609799917,-0.0179693317909,0.574001563452,0.818839271304,0.00228031277423,0.0,0.818800879809,-0.573942141044,-0.0116741106144,0.0,-0.00825061148257,0.00856824481562,-0.999929253793,0.0,0.656149571931,0.253654178061,0.303626122267,1.0,-0.015,-0.0197142857143,0.751
0.46091985124,0.516436750134,-0.124129504914,-1.40468449339,0.0764741724639,1.91208781317,0.152851808656,-0.0130588166678,-0.0761180386621,-0.001581736861,-0.13072876613,-0.00821462541584,0.0482240201006,-0.0201547950533,0.573990683961,0.818846924727,0.0022705708681,0.0,0.818808489694,-0.573931384653,-0.0116691823276,0.0,-0.0082522810627,0.00855732940382,-0.999929333488,0.0,0.655970507802,0.253415948778,0.303619826907,1.0,-0.01524,-0.0200297142857,0.763
0.460698623678,0.514750449684,-0.124138681426,-1.40738320403,0.0763130318109,1.91310438819,0.152486868925,-0.0105890301144,-0.0821979692736,-0.00122038357532,-0.132523993421,-0.00937391351792,0.050105306458,-0.00934139360306,0.573978566602,0.818855416358,0.00227136183092,0.0,0.818816978628,-0.573919252429,-0.0116702229676,0.0,-0.00825280589519,0.00855845225935,-0.999929319547,0.0,0.655644398621,0.253010303688,0.303606137469,1.0,-0.01566,-0.0205817142857,0.784
0.46056135127,0.513736563556,-0.124134456934,-1.40898489326,0.0762212267696,1.91365318325,0.152273529343,-0.0171311675298,-0.0841320238775,0.000557541010739,-0.132290458139,-0.0101023706773,0.0430821374397,-0.0136786539544,0.57397247796,0.818859760338,0.00224373469208,0.0,0.818820805774,-0.573913103142,-0.0117040580163,0.0,-0.00829643313454,0.00855518854422,-0.999928986452,0.0,0.655438803988,0.252768466975,0.303601806031,1.0,-0.0159,-0.0208971428571,0.796
0.460322336771,0.512001606119,-0.124137305085,-1.41179574081,0.076055623726,1.91464355247,0.151866981444,-0.00686724137416,-0.0854621420251,0.000273452693159,-0.13462390769,-0.00850385313945,0.0441504618393,-0.0232918080914,0.573939798998,0.81888285381,0.00217388203105,0.0,0.818842826854,-0.57388052353,-0.0117608045373,0.0,-0.0083833340297,0.00853022573303,-0.999928474922,0.0,0.65508330244,0.25233992026,0.303565341279,1.0,-0.01632,-0.0214491428571,0.817
0.460175805699,0.510901616606,-0.124132368415,-1.41355864471,0.0759518433632,1.91531322522,0.151620887788,-0.0147148245484,-0.079954706906,0.00138038136474,-0.138265360498,-0.0108167172128,0.0530427330143,-0.016014770944,0.573919055663,0.818897372649,0.00218117329359,0.0,0.818857370537,-0.573859683557,-0.0117650842412,0.0,-0.00838287055428,0.0085384402568,-0.999928408697,0.0,0.654867286927,0.252080738241,0.303554419542,1.0,-0.01658,-0.0217908571429,0.83
0.459933827958,0.509074046105,-0.124140166822,-1.41645853003,0.075764470021,1.91640659822,0.151218194093,-0.0107881477284,-0.0890632135066,-0.000807742806569,-0.140563674884,-0.0102439088872,0.0506543938268,-0.0231603988709,0.573893530032,0.81891523907,0.00218959063976,0.0,0.818875441602,-0.573834225936,-0.0117490079388,0.0,-0.00836514065008,0.00853584598394,-0.999928579327,0.0,0.654514361049,0.25164160433,0.303548293121,1.0,-0.017,-0.0223428571429,0.851
0.459782371574,0.50800269424,-0.124140116702,-1.41813759082,0.0756550209998,1.91700308625,0.15097771562,-0.0157295831459,-0.0891793205073,3.34733381466e-05,-0.139814109717,-0.00982899255049,0.0483855952307,-0.0282486141301,0.573877963438,0.81892618084,0.00217722675667,0.0,0.818886214899,-0.573818700576,-0.0117563948169,0.0,-0.00837844739053,0.00852980111773,-0.999928519501,0.0,0.654304248793,0.251380223161,0.303550267284,1.0,-0.01724,-0.0226582857143,0.863
0.459518535893,0.506091144161,-0.12413929752,-1.42113682317,0.075468683262,1.91809480231,0.150579445414,-0.0145369015216,-0.0967231539588,1.09968800016e-05,-0.142220723618,-0.00593302768297,0.0511513956819,-0.0199732961662,0.573872014967,0.818930343685,0.00217934194757,0.0,0.818890343242,-0.573812681604,-0.011762613518,0.0,-0.00838238847079,0.00853504112232,-0.999928441758,0.0,0.653930564386,0.250921429142,0.303553912378,1.0,-0.01766,-0.0232102857143,0.884
0.45934812365,0.504878193371,-0.12414403702,-1.42299883734,0.0753506131434,1.91883015474,0.150314942448,-0.0147024848046,-0.0966287203077,0.000373862135994,-0.140356738149,-0.0115492660166,0.0640018239309,-0.0161891047715,0.573862700481,0.81893668599,0.00224771845745,0.0,0.818897660031,-0.573803197254,-0.0117158063323,0.0,-0.00830491546944,0.00856408053048,-0.99992883992,0.0,0.653712970729,0.250633055045,0.303579187538,1.0,-0.01792,-0.023552,0.897
0.459051692587,0.502711498891,-0.124147242452,-1.4262097826,0.0751350729281,1.92005171855,0.149866348949,-0.014138806132,-0.101345593352,-0.00164035420893,-0.142609570651,-0.0121746248841,0.0514052676049,-0.0184397157607,0.573846868805,0.818947381079,0.00238853252933,0.0,0.818910352572,-0.573787031816,-0.011619960067,0.0,-0.00814578370632,0.00862423775914,-0.99992963189,0.0,0.653329142182,0.250133118228,0.303670017186,1.0,-0.01836,-0.0241302857143,0.919
0.458906721584,0.501620732246,-0.124152568642,-1.42784087717,0.0750385753597,1.92063784633,0.149645764126,-0.0143124136156,-0.0973071748908,0.000240234028671,-0.149589770351,-0.009191845366,0.0495870218881,-0.0141771315558,0.573846052076,0.818947831349,0.00243000968009,0.0,0.818911284171,-0.573786008874,-0.0116048084696,0.0,-0.0081095833081,0.00864950240275,-0.999929707913,0.0,0.653125064737,0.249880380398,0.303706016862,1.0,-0.01858,-0.0244194285714,0.93
0.458609178946,0.499500958942,-0.124153608796,-1.43106358742,0.0748317849984,1.92178365341,0.149184932854,-0.0149492112682,-0.0961085371903,-0.000390928204954,-0.150622724851,-0.0110387763417,0.0510745923692,-0.0327245091452,0.573821079867,0.818965225373,0.00246471729279,0.0,0.818929088085,-0.573760875771,-0.0115910751863,0.0,-0.00807868468954,0.00866979888569,-0.999929782255,0.0,0.652718598459,0.249375617821,0.303750341757,1.0,-0.019,-0.0249714285714,0.951
0.458411558654,0.498231325839,-0.1241511323,-1.43305455672,0.0747128203375,1.9225317394,0.148904285723,-0.0109071042919,-0.0978358224981,0.000569383665949,-0.155417603351,-0.00760433095246,0.0612270945074,-0.021996313687,0.573820510491,0.818965550685,0.00248906253768,0.0,0.818929665673,-0.573760154096,-0.0115859895384,0.0,-0.00806055658804,0.00868681283135,-0.99992978089,0.0,0.652475851775,0.24906022736,0.30375284472,1.0,-0.01926,-0.0253131428571,0.964
0.458089315747,0.496160850237,-0.124153264213,-1.4363568873,0.0745028103229,1.92370976152,0.148403542932,-0.0145637132053,-0.0955058192032,0.00104415424194,-0.160568099145,-0.00873504273179,0.0503413279374,-0.0312485046305,0.573786038052,0.818989850991,0.00243996140295,0.0,0.818953263472,-0.573725786502,-0.0116198559689,0.0,-0.00811683160775,0.00866569231428,-0.999929508926,0.0,0.652058876567,0.248530615819,0.30372629606,1.0,-0.01968,-0.0258651428571,0.985
0.457879352594,0.494882880234,-0.124151369173,-1.43844832076,0.0743771889181,1.92442725753,0.148115212103,-0.0159456362201,-0.0958020439881,-0.000124858211508,-0.159179046351,-0.00767762346034,0.06106549796,-0.022567669353,0.573791860677,0.81898600222,0.00236128975786,0.0,0.818948231175,-0.573731717855,-0.0116815017367,0.0,-0.00821239769226,0.00863669097056,-0.999928979525,0.0,0.651787547588,0.248192237592,0.303683281945,1.0,-0.01994,-0.0262068571429,0.998
0.457560398759,0.492853088884,-0.124157400379,-1.44173681936,0.0741652203931,1.9256223205,0.147659412551,-0.0193611272106,-0.102520473381,-0.000536838846419,-0.167766795807,-0.0023301563177,0.0573143263407,-0.0228181279792,0.573791924732,0.818986133699,0.00229930910694,0.0,0.818947556362,-0.573732008455,-0.0117144912149,0.0,-0.00827497795529,0.0086048597061,-0.999928738026,0.0,0.651373302802,0.247664757177,0.303635099745,1.0,-0.0209514285714,-0.0275361632653,1.018
0.457332418251,0.491468724047,-0.124160708539,-1.44396330272,0.0740221411498,1.92643002455,0.147346386457,-0.0176998857784,-0.108058522206,-0.00157906742779,-0.175235452706,-0.0142161037584,0.0618459234224,-0.0233949695001,0.573797134818,0.818982575837,0.00226615338343,0.0,0.818943561532,-0.573737335309,-0.0117328597844,0.0,-0.00830899089836,0.00858829840166,-0.999928598351,0.0,0.651117695453,0.247331463309,0.303606562482,1.0,-0.0216371428571,-0.0284373877551,1.03
0.45695215557,0.489140666423,-0.124159335221,-1.44770514776,0.07378469562,1.9277487105,0.14681828893,-0.0190351809731,-0.113639065234,0.00101306274944,-0.180131036344,-0.0113647264414,0.0682374555853,-0.0174874118121,0.573797024659,0.818982879899,0.00218261911152,0.0,0.818942640554,-0.573737401316,-0.0117937574808,0.0,-0.00840679710624,0.00855482751747,-0.999928067757,0.0,0.650613866873,0.246692391095,0.303561074244,1.0,-0.0228942857143,-0.0300896326531,1.052
0.456704022336,0.487589834753,-0.124167851574,-1.45009438305,0.0736311669841,1.92866118718,0.146465809698,-0.0205134475312,-0.124377370133,-0.000477251991703,-0.184625959412,-0.00898718970153,0.073951780279,-0.0213312855523,0.573794746672,0.818984321889,0.00223966355257,0.0,0.818944903853,-0.573734986171,-0.0117540205104,0.0,-0.00834154578039,0.00857872144082,-0.999928409514,0.0,0.650325003704,0.246300459363,0.303580897277,1.0,-0.0236371428571,-0.0310659591837,1.065
0.456292625285,0.485122162383,-0.124182015184,-1.45387382723,0.0733885200193,1.93008654373,0.145894085553,-0.0184055570784,-0.124355371066,-2.09958705907e-05,-0.189220713202,-0.0204852028164,0.0683517034305,-0.0342029098078,0.573794572853,0.818984196384,0.00232833409836,0.0,0.818946029242,-0.573734583629,-0.0116951117119,0.0,-0.00824242456476,0.00861753750812,-0.999928897715,0.0,0.649867540676,0.245667081229,0.303619575258,1.0,-0.02478,-0.032568,1.085
0.455994951244,0.4833285057,-0.124204281679,-1.45663504651,0.0732133074484,1.93101929005,0.145486470851,-0.0211161537779,-0.127824531996,-0.00171927455051,-0.195054300091,-0.00736918469677,0.0757177454242,-0.0258516015842,0.573808214636,0.818974728703,0.00229640236697,0.0,0.81893609584,-0.573748288691,-0.0117183213222,0.0,-0.00827961150566,0.00860484149515,-0.999928699826,0.0,0.649511539423,0.245192527403,0.303631509899,1.0,-0.02558,-0.0336194285714,1.099
0.455538483483,0.480518983227,-0.124252315834,-1.46097998114,0.072946516436,1.93257998417,0.144835821647,-0.0201114735252,-0.132387857698,-0.00106480018764,-0.205836372261,-0.0134701402976,0.0797201005015,-0.0304803212579,0.573823941543,0.818963666058,0.00231185839499,0.0,0.818925256381,-0.57376397964,-0.0117075628997,0.0,-0.00826176662451,0.0086114849156,-0.999928790234,0.0,0.64896639086,0.244453581579,0.303648357761,1.0,-0.02678,-0.0351965714286,1.12
0.455257996287,0.47887571439,-0.12425980089,-1.46350322974,0.0727939126176,1.93351218555,0.144462433535,-0.0219654022222,-0.133727702194,0.000435950529001,-0.211014510028,-0.0126317183972,0.0790773778708,-0.0271417813197,0.573834762641,0.818955953145,0.00235773069843,0.0,0.818918080246,-0.573774569014,-0.0116905389194,0.0,-0.00822138881536,0.0086393922583,-0.999928882305,0.0,0.648652847052,0.244028854428,0.303666987065,1.0,-0.0274657142857,-0.0360977959184,1.132
0.454747252112,0.475909017115,-0.124274687089,-1.46804095867,0.0725145634651,1.9351721039,0.14381589367,-0.0274413015065,-0.141391807227,0.00013962802578,-0.214927730071,-0.0101828440374,0.0794075526916,-0.027196991559,0.573878128881,0.818925342223,0.00243391816837,0.0,0.818888378514,-0.573817569834,-0.0116604882371,0.0,-0.00815260127434,0.00868497368633,-0.999929050645,0.0,0.648085216315,0.243258798686,0.303705422424,1.0,-0.0286657142857,-0.0376749387755,1.153
0.454418483949,0.474007071516,-0.124281425092,-1.47098132258,0.072317034874,1.93622646635,0.143394397856,-0.0318996730682,-0.145457740583,0.000233788327274,-0.230622316773,-0.0194457165497,0.0802559809338,-0.029967052351,0.573894437001,0.818913895464,0.00244006072795,0.0,0.818877049726,-0.573833894772,-0.0116527054456,0.0,-0.00814252962707,0.00868569978793,-0.999929126404,0.0,0.647710312241,0.24275899317,0.303713204678,1.0,-0.0294085714286,-0.0386512653061,1.166
0.453914437903,0.471013072375,-0.124274323505,-1.47559658315,0.0720270680253,1.93784804813,0.142709104101,-0.0232416881491,-0.148545598291,0.00174619376422,-0.230143690856,-0.0142695892437,0.0846554616589,-0.0380785009484,0.573882343074,0.818922352646,0.00244612887876,0.0,0.818885345866,-0.5738215248,-0.0116788228768,0.0,-0.00816056481948,0.00870553693835,-0.99992880687,0.0,0.647104418644,0.241994218379,0.303726277086,1.0,-0.0305514285714,-0.0401533061224,1.186
0.453581889905,0.469014872102,-0.124279045821,-1.47862908696,0.0718336990133,1.93901978441,0.142207041426,-0.0250081882908,-0.153165438316,-0.000464629801822,-0.230365492652,-0.0176331430484,0.0919307676391,-0.0411902806804,0.573838853771,0.818952481246,0.00255934859421,0.0,0.818917004458,-0.573777707237,-0.0116116057324,0.0,-0.00804101097176,0.00875925325082,-0.999929306314,0.0,0.646728945284,0.241492451074,0.30376451759,1.0,-0.0312942857143,-0.0411296326531,1.199
0.453006294438,0.465701177137,-0.12428016051,-1.48373630008,0.0714749624992,1.94083341328,0.141420702749,-0.0269517540686,-0.153249257956,-0.000287846010536,-0.250965372734,-0.0173707728628,0.080442034852,-0.0322543775165,0.57380941167,0.818973109222,0.00255975604834,0.0,0.818937743915,-0.573748383109,-0.0115979037837,0.0,-0.00802987002821,0.0087514356822,-0.999929464293,0.0,0.646063407964,0.240625774768,0.303777239036,1.0,-0.0324942857143,-0.0427067755102,1.22
0.452635540231,0.463589145381,-0.12428290971,-1.48707249233,0.0712522634081,1.94195778401,0.140932706706,-0.0278409992534,-0.158344083306,0.000411950283544,-0.25767496085,-0.0262820027158,0.0877516998083,-0.0340300134751,0.573810516559,0.818972605454,0.00247174112299,0.0,0.818935976867,-0.573749664448,-0.0116591269164,0.0,-0.00813050144546,0.00871449515067,-0.999928973738,0.0,0.645611243105,0.24005949277,0.303742945095,1.0,-0.0332371428571,-0.0436831020408,1.233
0.452043444082,0.460290016709,-0.124285401421,-1.49223802348,0.0709089904716,1.9437974015,0.140165463137,-0.0302555636712,-0.163211718149,-0.000220704912455,-0.259055982993,-0.0250634516573,0.0874062472336,-0.035873190218,0.573815520225,0.818969190427,0.00244147114818,0.0,0.818932103325,-0.57375470588,-0.0116830871449,0.0,-0.00816744010874,0.00870350339988,-0.999928768438,0.0,0.644931672116,0.239179718223,0.303716193505,1.0,-0.03438,-0.0451851428571,1.253
0.451631281114,0.458101072538,-0.124283947437,-1.49563541341,0.070682504637,1.9449941432,0.139638883676,-0.0326453023394,-0.165498942205,0.000883614827838,-0.260050560115,-0.0177733257777,0.0894620784463,-0.047211143612,0.573815723053,0.818969086987,0.00242846412833,0.0,0.818931760183,-0.57375488042,-0.0116985579367,0.0,-0.00818757180309,0.00870173041957,-0.99992861923,0.0,0.644484760653,0.238587980412,0.303709035241,1.0,-0.0351228571429,-0.0461614693878,1.266
0.450943643862,0.454508241476,-0.124317287527,-1.50137269246,0.0702915638871,1.94694941481,0.138761842093,-0.0339999647045,-0.176664532971,-0.00229750969127,-0.26596865086,-0.0175716746004,0.0932403195813,-0.0393118261814,0.573840691316,0.818952098234,0.00225137478043,0.0,0.818912436953,-0.573780473466,-0.0117955827684,0.0,-0.00836838348793,0.00861262999805,-0.999927893782,0.0,0.643715661645,0.237566987611,0.303618893773,1.0,-0.0363228571429,-0.0477386122449,1.287
0.45052359154,0.45214617326,-0.124347015188,-1.5049106793,0.0700590821857,1.94825211506,0.138176047659,-0.0332492760938,-0.184439474455,-0.00471890155488,-0.269491562958,-0.0158854602755,0.100463223181,-0.0473851208234,0.573824499851,0.818963163036,0.00235114066847,0.0,0.818924914878,-0.57376402774,-0.0117290734985,0.0,-0.00825683816183,0.00865600406071,-0.999928446549,0.0,0.643262394772,0.236944478289,0.30367045952,1.0,-0.0370657142857,-0.0487149387755,1.3
0.449809108971,0.44822023849,-0.12436417933,-1.51077457076,0.0696479582374,1.95036334309,0.137309793632,-0.0379886543403,-0.191350742345,0.000792559811762,-0.28496878591,-0.0231442986074,0.0964393471954,-0.0432577113355,0.573864351156,0.81893486023,0.00247953096597,0.0,0.818898487495,-0.573803630829,-0.0116364654268,0.0,-0.00810689939975,0.00870840450338,-0.999929218432,0.0,0.642495446225,0.235913873433,0.303755346066,1.0,-0.0382657142857,-0.0502920816327,1.321
0.449365128795,0.445765214441,-0.124369158214,-1.51451107912,0.0693953192569,1.95160932034,0.136748026215,-0.0367317173412,-0.191791904862,-0.0016590096368,-0.288122297065,-0.0172784732471,0.092408740032,-0.0429410150567,0.573869034602,0.818931672215,0.00244831987369,0.0,0.818894756826,-0.573808277288,-0.0116698354929,0.0,-0.00815208863865,0.00870204107711,-0.999928906439,0.0,0.641977899796,0.235263071942,0.303767004317,1.0,-0.0390085714286,-0.0512684081633,1.334
0.448669203882,0.441965411444,-0.124366590782,-1.52034627887,0.0689875835509,1.9537259396,0.135821450519,-0.0359874554475,-0.194403792707,0.000756710471076,-0.293864279559,-0.0130673460289,0.105997849628,-0.0398733041356,0.573825388285,0.818962094425,0.00250171058733,0.0,0.8189259623,-0.573764544084,-0.0116302675598,0.0,-0.00808951119309,0.00872262648608,-0.999929235294,0.0,0.641197130205,0.234260534576,0.303773669374,1.0,-0.0401514285714,-0.0527704489796,1.354
0.448178648303,0.439486340806,-0.124377496482,-1.52421639581,0.0687208810206,1.9550812322,0.135174185074,-0.0368366932054,-0.191664821491,-0.00220965677599,-0.29724146169,-0.0210022674148,0.107459278018,-0.0479349473971,0.573802178457,0.818978474628,0.00246272119737,0.0,0.818941824737,-0.573741462039,-0.0116520099237,0.0,-0.00812993657973,0.00870294162739,-0.999929078954,0.0,0.640674436253,0.23356721253,0.303744454767,1.0,-0.0408942857143,-0.0537467755102,1.367
0.447397190598,0.435517300789,-0.12439440081,-1.53029956357,0.0683185632098,1.95718624136,0.134214239592,-0.0352933559399,-0.208370400771,-0.000878305555906,-0.3042236074,-0.0230736809018,0.107589149312,-0.0471093521235,0.573823391871,0.818963634989,0.00245487442913,0.0,0.818926703741,-0.573762508912,-0.0116783632158,0.0,-0.00815579690274,0.00871184794639,-0.999928790806,0.0,0.63980246201,0.232421278212,0.303744620579,1.0,-0.0420942857143,-0.0553239183673,1.388
0.446827311023,0.432640441385,-0.124405084365,-1.53460916666,0.0680146612843,1.95875157665,0.133533969914,-0.0397993071055,-0.204673928296,-0.000400377026848,-0.31345970075,-0.0183553083015,0.110271768711,-0.0453605139236,0.573843857996,0.818948994568,0.00255300561015,0.0,0.818913475602,-0.5737827764,-0.0116099907719,0.0,-0.00804327448039,0.00875318111915,-0.999929341282,0.0,0.63927560914,0.231693276472,0.303789076741,1.0,-0.0428371428571,-0.056300244898,1.401
0.446003445046,0.428517249528,-0.124434803378,-1.54099550891,0.0675473006458,1.96082426252,0.13252762371,-0.0438917219981,-0.214127545845,-0.00179372981129,-0.32261243129,-0.018400170986,0.100278347926,-0.0546018039513,0.573859261193,0.81893875098,0.00237010301062,0.0,0.818900837694,-0.573798807754,-0.0117086782052,0.0,-0.00822888645483,0.00866017950051,-0.999928640813,0.0,0.638370198872,0.230522782253,0.303738852884,1.0,-0.04398,-0.0578022857143,1.421
0.445467343964,0.425785854474,-0.124442924216,-1.54513826682,0.0672403117347,1.9622829659,0.131817909839,-0.0410008313823,-0.209338446314,0.00046253313136,-0.317318764378,-0.0196758453159,0.11639952512,-0.0585453577109,0.573813392609,0.81897082483,0.00239278915506,0.0,0.818933361182,-0.573753025656,-0.0116774309935,0.0,-0.00819076297275,0.00866036789963,-0.999928952191,0.0,0.637801562016,0.229777217983,0.303751965125,1.0,-0.0447228571429,-0.0587786122449,1.434
0.444546906978,0.421298487248,-0.12445541763,-1.55194458278,0.0667680679268,1.96462774683,0.130709733468,-0.0447338221277,-0.215560818456,-0.000447105297764,-0.324766498899,-0.0226451166792,0.118171048506,-0.0493559617764,0.573824158282,0.818963240664,0.00240680591063,0.0,0.818925854724,-0.573763628866,-0.0116828744638,0.0,-0.00818706466424,0.00867507821515,-0.999928854964,0.0,0.6368575016,0.228530744606,0.303765015945,1.0,-0.0459228571429,-0.060355755102,1.455
0.443869538214,0.418020114743,-0.12446780739,-1.55685941691,0.0664215968645,1.96639589019,0.129934251151,-0.0473224088099,-0.220527210421,0.000728414190921,-0.318645799148,-0.0209812989567,0.115837286607,-0.0559800937062,0.573861529879,0.818936756862,0.00250593050607,0.0,0.818900762444,-0.573800755948,-0.0116181170652,0.0,-0.00807675379403,0.00871946671215,-0.99992936598,0.0,0.636190544571,0.227626124385,0.30380358663,1.0,-0.04678,-0.0614822857143,1.47
0.44300315568,0.413777467814,-0.124477440145,-1.56318453515,0.0659816212429,1.96866891751,0.128868272708,-0.0460812008384,-0.226396461546,0.000378820222197,-0.343882247421,-0.0236460256369,0.121224785997,-0.0583958813887,0.57384388019,0.818948645525,0.00265783054714,0.0,0.818914669097,-0.573782646607,-0.0115319596146,0.0,-0.00791921813055,0.00879425019103,-0.999929971122,0.0,0.635323015619,0.226471648986,0.303864804255,1.0,-0.0478657142857,-0.0629092244898,1.489
0.442404442089,0.410855228036,-0.124494153584,-1.56768161298,0.065655123848,1.97009085689,0.128113934674,-0.0442076180998,-0.221931530876,-0.00314557524218,-0.346974456202,-0.0263733385198,0.113028995854,-0.0540777630179,0.573820172378,0.818965690196,0.00252090351653,0.0,0.818929783227,-0.57375923597,-0.0116230883882,0.0,-0.00807267435245,0.00873417371272,-0.999929270568,0.0,0.634659032475,0.22564173721,0.303825862891,1.0,-0.0486085714286,-0.0638855510204,1.502
0.441441985061,0.406298638073,-0.124516837322,-1.5746233344,0.0651805250033,1.97244120654,0.126988319405,-0.0488187139773,-0.224130232187,0.000942644022284,-0.348259474286,-0.0221115524106,0.118865592663,-0.0594716193734,0.573851630823,0.818943742591,0.00248981426142,0.0,0.818907183832,-0.573790532353,-0.0116703107282,0.0,-0.00812885260004,0.00873612182609,-0.999928798431,0.0,0.633666007552,0.224354732926,0.303805803197,1.0,-0.0497514285714,-0.0653875918367,1.522
0.440730879015,0.403110554727,-0.124519336713,-1.57952882135,0.0648463889746,1.97412610429,0.126162237942,-0.0568223352881,-0.223758492945,-0.000413576862392,-0.351281670261,-0.0284500608145,0.115925594419,-0.0629705364948,0.573862337519,0.818936320125,0.00246334284145,0.0,0.818899197046,-0.573801096652,-0.0117112535611,0.0,-0.00817745951294,0.00873804505319,-0.999928385298,0.0,0.632966999632,0.223436288025,0.303768991475,1.0,-0.0505514285714,-0.0664390204082,1.536
0.439577606218,0.397855268023,-0.124549402515,-1.58723355299,0.0642752843162,1.97685176985,0.124819301081,-0.0569372469816,-0.242088133407,-0.00149533840838,-0.357125574045,-0.0290057966383,0.111095042156,-0.0684926906939,0.573872403997,0.81892861808,0.00267007893255,0.0,0.818894508007,-0.573810801399,-0.011562692406,0.0,-0.00793705239411,0.00882219291608,-0.999929583576,0.0,0.631898505269,0.221958564048,0.303878912186,1.0,-0.0518085714286,-0.0680912653061,1.558
0.438994918404,0.395206946377,-0.124549566504,-1.59123841091,0.0639747948867,1.97815307886,0.124159662483,-0.0495817554953,-0.239925759323,-0.000951103039456,-0.370209958931,-0.0350442211139,0.116711992218,-0.0631850931465,0.573880071213,0.818923423189,0.00261490313461,0.0,0.818888521682,-0.573818569777,-0.0116010748626,0.0,-0.00800006598836,0.00879910924063,-0.99992928481,0.0,0.631306497779,0.221202761639,0.303867426633,1.0,-0.0524371428571,-0.0689173877551,1.569
0.437828181895,0.38986537545,-0.124560180495,-1.59930771617,0.0633566571965,1.9808068562,0.122802497393,-0.0557894681033,-0.245916068884,0.000650396013867,-0.361464305457,-0.02928172368,0.136365976824,-0.0649596489822,0.573866326912,0.81893333422,0.00252583469611,0.0,0.818897295301,-0.573805155487,-0.0116451787089,0.0,-0.00808744376547,0.0087513436234,-0.999929001099,0.0,0.630112461977,0.219681058462,0.303845728179,1.0,-0.0536942857143,-0.0705696326531,1.591
0.437174361921,0.386969275347,-0.124555206298,-1.60374164638,0.06302151855,1.98231135832,0.121982393808,-0.0589570185478,-0.234800345246,-0.00147117338648,-0.371058199221,-0.029134326214,0.123660232094,-0.0740713321134,0.573799705239,0.818980138445,0.00248555860649,0.0,0.81894355762,-0.573738664066,-0.0116679770802,0.0,-0.00812993693667,0.00873078211184,-0.999928836252,0.0,0.629459968166,0.21884777747,0.303808717166,1.0,-0.05438,-0.0714708571429,1.603
0.435990218763,0.381683444336,-0.124563307215,-1.61149484179,0.0624696461179,1.98496862444,0.120600129674,-0.0549901954071,-0.249296458168,0.000500121615368,-0.373490173106,-0.030732925933,0.13021383214,-0.0661533613534,0.57377900172,0.818994146696,0.00264419428931,0.0,0.818959492006,-0.573717266433,-0.0116015322779,0.0,-0.00798472083931,0.00882237347879,-0.999929202474,0.0,0.628332429093,0.217367053118,0.303888466215,1.0,-0.05558,-0.073048,1.624
0.435225725686,0.378431616258,-0.124559549348,-1.61640404414,0.0620924307966,1.98660071432,0.119758544614,-0.056659951293,-0.248196916672,0.00182884747317,-0.383212913552,-0.0334899446232,0.125083273794,-0.0664020112205,0.573786848458,0.818988762802,0.00260880107329,0.0,0.818953633784,-0.573725216625,-0.0116218940525,0.0,-0.00802162011164,0.00880514660667,-0.999929058986,0.0,0.627602707124,0.216418845356,0.303867900974,1.0,-0.0563228571429,-0.0740243265306,1.637
0.434003141164,0.373298615483,-0.124595280022,-1.62415272252,0.0614867086501,1.9890812987,0.118363782612,-0.0645610173611,-0.251802135858,-0.00364641006092,-0.378280702821,-0.0297544466829,0.125965817611,-0.0745967892443,0.573781460723,0.818992978536,0.00246644289467,0.0,0.818956019002,-0.573720350537,-0.0116938112313,0.0,-0.00816225795745,0.00872976841894,-0.999928581794,0.0,0.62643499875,0.214883098585,0.303823045971,1.0,-0.0574657142857,-0.0755263673469,1.657
0.433198864551,0.369925458699,-0.124627171539,-1.62914699797,0.0611174216998,1.9907270607,0.117503102972,-0.0645780321901,-0.252568003524,-0.00505047582112,-0.392429426488,-0.0280508654614,0.125016897798,-0.0690934518381,0.573834141978,0.818956032694,0.00247808713689,0.0,0.818919190429,-0.573772946873,-0.0116923858026,0.0,-0.00815384751729,0.0087390115397,-0.999928569673,0.0,0.625691997043,0.213886494567,0.303837590674,1.0,-0.0582085714286,-0.0765026938775,1.67
0.431869984182,0.364352808404,-0.124651359943,-1.6371866724,0.0604860146661,1.99350593828,0.116062923241,-0.0615682436266,-0.263327129975,-0.000814517717106,-0.382279746575,-0.0300955326707,0.13470091376,-0.0739981030114,0.573865156039,0.818933574084,0.00270754938055,0.0,0.818900119416,-0.573803620279,-0.0115215743964,0.0,-0.00788195421494,0.00882921258958,-0.999929957448,0.0,0.62451952706,0.212284059204,0.303959068365,1.0,-0.0594085714286,-0.0780798367347,1.691
0.431026444322,0.360925534263,-0.124670591763,-1.64228926255,0.0600968965508,1.99521305343,0.11508757548,-0.0671132065446,-0.26457370482,-0.00195417842562,-0.401050136226,-0.0304165009998,0.13183587418,-0.0754060040991,0.573838818877,0.818951983854,0.00272121153798,0.0,0.818918728463,-0.57377726701,-0.0115113394508,0.0,-0.00786601640605,0.00883427461389,-0.999930038242,0.0,0.623755077912,0.211263777413,0.303955505098,1.0,-0.0601514285714,-0.0790561632653,1.704
0.429686341177,0.355545722867,-0.124694855899,-1.65037503543,0.0594879018323,1.9976781955,0.11363250281,-0.0683289709456,-0.273659113309,-0.00179629380012,-0.39900538344,-0.0266459393053,0.131852935551,-0.0777458394424,0.573866118992,0.818933509579,0.00251620023513,0.0,0.818897106466,-0.57380472331,-0.0116797016368,0.0,-0.00812124783176,0.00876326286112,-0.999928622731,0.0,0.622482945943,0.209638327458,0.303889354373,1.0,-0.0612942857143,-0.0805582040816,1.724
0.428801021017,0.352044120381,-0.124705417815,-1.65563245692,0.0590823945854,1.99939874535,0.112684593382,-0.0716103680937,-0.263753635147,0.000438086773601,-0.403077259573,-0.0292830036448,0.132800746062,-0.0795972931686,0.573884412154,0.818920817187,0.00247458406037,0.0,0.818883802254,-0.573823087195,-0.0117102480306,0.0,-0.00816994971851,0.0087468940164,-0.999928369318,0.0,0.621675478633,0.208583738103,0.303854886188,1.0,-0.0620371428571,-0.0815345306122,1.737
0.427395850771,0.346523256842,-0.12472267022,-1.66362597555,0.058504493166,2.00212009942,0.111128446468,-0.0724680796096,-0.283859301999,-0.00286674205853,-0.397774589973,-0.0249972295774,0.140464836974,-0.0694870567942,0.573876686198,0.818925560857,0.00268732493329,0.0,0.818891150255,-0.573814442077,-0.0116196815527,0.0,-0.00797378189529,0.00886906170681,-0.999928876744,0.0,0.620475291493,0.206960740339,0.303933903028,1.0,-0.06318,-0.0830365714286,1.757
0.426395540459,0.342617674967,-0.124726693412,-1.66930036727,0.0580352872605,2.0039269239,0.110112377656,-0.0671910758506,-0.277543079484,-0.000757546827356,-0.41852171004,-0.0358058430969,0.12427909774,-0.0760121010808,0.573915318293,0.818898455871,0.00269690609361,0.0,0.818864273691,-0.573853152731,-0.0116020375259,0.0,-0.0079534156784,0.00886715782936,-0.999929055829,0.0,0.619591839908,0.205798235338,0.303965308492,1.0,-0.06398,-0.084088,1.771
0.424954026045,0.336972682854,-0.124727680023,-1.677666147,0.0573529203909,2.00648151203,0.108487091542,-0.0680646232745,-0.288520338142,-0.000917763583219,-0.418485198826,-0.0416142137344,0.123941043173,-0.0849667598328,0.573834829718,0.818955369381,0.00253733437501,0.0,0.81891889024,-0.573772983575,-0.0117115937665,0.0,-0.0081355753194,0.00879856086482,-0.999928196293,0.0,0.618245025839,0.204105770029,0.303921704317,1.0,-0.0651228571429,-0.0855900408163,1.791
0.424015097758,0.333303636521,-0.12471739164,-1.6830840126,0.0569032817481,2.00823830333,0.107469595498,-0.0745302583051,-0.283536343954,0.00141912208672,-0.413069500733,-0.0267646341148,0.136771119603,-0.081805973775,0.573802077133,0.818978361932,0.00252306677849,0.0,0.81894176188,-0.573740356152,-0.0117107332127,0.0,-0.00814340865733,0.00878605695395,-0.999928242475,0.0,0.617386257452,0.203020485348,0.303906315149,1.0,-0.0658657142857,-0.0865663673469,1.804
0.42251396044,0.327532555836,-0.124720002745,-1.69130607237,0.0562714569601,2.01100810598,0.105823526376,-0.0752531267689,-0.28893635695,-0.000265768430708,-0.415007016648,-0.0309183355933,0.137216922766,-0.083205532082,0.573758603905,0.819007972906,0.00278418078187,0.0,0.818974789799,-0.57369601759,-0.0115723799134,0.0,-0.00788074971664,0.00892009815311,-0.999929160307,0.0,0.616115845274,0.201335576039,0.30401671893,1.0,-0.0670085714286,-0.0880684081633,1.824
0.421480550001,0.323810731291,-0.124727824431,-1.69682713125,0.055808383946,2.01276155194,0.10475047714,-0.0825411241532,-0.289477452091,-0.00352133626729,-0.432744072126,-0.0418992761563,0.128154173235,-0.0856254577828,0.573764150891,0.819004295016,0.00272227805974,0.0,0.818970367225,-0.573701835491,-0.0115969160794,0.0,-0.00793630095678,0.00888353080503,-0.999929046487,0.0,0.615237888226,0.200174174571,0.303978114064,1.0,-0.0677514285714,-0.0890447346939,1.837
0.419797081459,0.317648375855,-0.124779132999,-1.70588552563,0.0550646933455,2.01550041527,0.103047579643,-0.0796135587362,-0.296563921005,-0.00222867595214,-0.42522730343,-0.0375466245105,0.135704044345,-0.0860507629245,0.573839566545,0.818951963145,0.00256531270101,0.0,0.818915833061,-0.573777603861,-0.011698998682,0.0,-0.00810915508904,0.00881429322273,-0.999928272347,0.0,0.613762675297,0.198253717932,0.303931831853,1.0,-0.0689514285714,-0.090621877551,1.858
0.418748586246,0.313798549667,-0.124796871006,-1.71149109412,0.0546002273371,2.01722673338,0.101849514313,-0.0794706979801,-0.298826532154,-0.00285970251272,-0.426771147478,-0.0325889209469,0.145618492138,-0.088840137147,0.573757818028,0.819009359164,0.00252641118894,0.0,0.818972662971,-0.573695939932,-0.0117257287202,0.0,-0.00815424671768,0.00879695959318,-0.999928058293,0.0,0.612848136701,0.197074378717,0.303923989243,1.0,-0.0696942857143,-0.0915982040816,1.871
0.417047937803,0.307777214187,-0.124804053069,-1.71995093647,0.0538720594339,2.02004563852,0.100122559444,-0.0880078404796,-0.300378537502,-0.000227699960908,-0.428329091351,-0.0396450086332,0.132698412933,-0.0915430243877,0.573760451259,0.819006612181,0.00280368967473,0.0,0.818974084312,-0.573698257997,-0.0115110771392,0.0,-0.00781932695423,0.00890092136823,-0.999929813399,0.0,0.611454356037,0.195160916196,0.304058940082,1.0,-0.0708942857143,-0.0931753469388,1.892
0.415832908042,0.303573377431,-0.12482987655,-1.72610362728,0.053365422315,2.02190123326,0.098833155492,-0.0870490892639,-0.296141780543,-0.000742288712892,-0.443597190053,-0.045500642158,0.136144358112,-0.100444629298,0.57375061173,0.819013811563,0.00271273098921,0.0,0.818979938324,-0.573688529599,-0.0115792283791,0.0,-0.00792743794507,0.00886543231115,-0.999929277418,0.0,0.610510633171,0.193917148313,0.304020889589,1.0,-0.0716371428571,-0.0941516734694,1.905
0.414062187879,0.297538499102,-0.124878994615,-1.7349832281,0.0526517729839,2.02450350044,0.0971199344981,-0.0902935878127,-0.301984717044,0.000834155066641,-0.441713173317,-0.0344858581908,0.130591353256,-0.082718120578,0.573869464256,0.818931196598,0.00250601958509,0.0,0.818894083997,-0.573807483518,-0.0117557626241,0.0,-0.00818934563121,0.00879860721209,-0.999927756955,0.0,0.60902069308,0.191981097786,0.303932861028,1.0,-0.07278,-0.0956537142857,1.925
0.41288874899,0.293512109664,-0.124905191331,-1.74063553784,0.0521981772555,2.02632960407,0.0959001863173,-0.088451894953,-0.312525018863,-0.00246633200412,-0.428419901469,-0.0442072537945,0.146477630394,-0.0874328507411,0.573868158859,0.818931564945,0.00267863516892,0.0,0.818896753969,-0.573805626285,-0.0116600378731,0.0,-0.00801191138615,0.00888502117554,-0.999928430276,0.0,0.608042301578,0.190646599074,0.304006163305,1.0,-0.07358,-0.0967051428571,1.939
0.410960481552,0.286964526674,-0.124930797894,-1.7498827026,0.0514123852814,2.02922695459,0.0939425514342,-0.0957930499835,-0.312856102067,-0.0022039108143,-0.448876375119,-0.0305699475712,0.123304284928,-0.0950340413088,0.57387486294,0.818926440063,0.00280612759516,0.0,0.818893429568,-0.57381206246,-0.0115764799208,0.0,-0.00787024715371,0.00894154243046,-0.999929051498,0.0,0.606591878369,0.188706214328,0.304076866258,1.0,-0.0747228571429,-0.0982071836735,1.959
0.409660672682,0.282610631325,-0.124945740141,-1.75623357811,0.0508427911068,2.03102824647,0.0926180517101,-0.0913872613651,-0.318519981431,-0.00594319038627,-0.452867408606,-0.0383269755639,0.128005664187,-0.0987539001532,0.573855842097,0.81894038969,0.00261868817385,0.0,0.818904800671,-0.573793521464,-0.011690554545,0.0,-0.00807143638604,0.00885331979386,-0.999928232746,0.0,0.605492432152,0.187314938057,0.304014002941,1.0,-0.0755228571429,-0.0992586122449,1.973
0.407663798632,0.275988651869,-0.124942229033,-1.76570298409,0.0500275187081,2.03391180937,0.0905961741182,-0.0970339848544,-0.320445667255,-0.000659509616763,-0.447697051138,-0.0447486542378,0.146941884363,-0.0905490680408,0.573823687324,0.818962891437,0.0026277778225,0.0,0.818927316111,-0.573761224051,-0.0116985299496,0.0,-0.00807310032534,0.00886502331065,-0.999928115623,0.0,0.603887411507,0.18524449799,0.304009460454,1.0,-0.0767228571429,-0.100835755102,1.994
0.406479971898,0.272161921001,-0.124961735163,-1.77101180185,0.0495697872975,2.03564019776,0.0894041878168,-0.0988914799455,-0.313680714554,-0.00417211889052,-0.442589483567,-0.0340620457794,0.137345402866,-0.0993275877993,0.573824090882,0.8189619901,0.00281396441124,0.0,0.818929120874,-0.573761316183,-0.0115669329532,0.0,-0.00785848580664,0.00894199434873,-0.999929139958,0.0,0.603021640797,0.184043398864,0.304083521292,1.0,-0.0774085714286,-0.101736979592,2.006
0.404269607666,0.265110746334,-0.125037155791,-1.78109953674,0.0486909946903,2.03851972289,0.0872258681832,-0.101793507982,-0.32034547074,-0.00441066351976,-0.461054678266,-0.0430318289498,0.124005660827,-0.105214506151,0.573882062974,0.818921881861,0.00266009525413,0.0,0.818886745737,-0.573819499821,-0.0116801618892,0.0,-0.00803888039987,0.00888152314366,-0.9999282449,0.0,0.601272910827,0.181744418513,0.304041303061,1.0,-0.0786657142857,-0.10338922449,2.028
0.403038998147,0.261211635443,-0.125056044483,-1.78665806436,0.048185511953,2.04009643378,0.0860070708957,-0.103543359824,-0.317829130172,0.00171958099415,-0.461666080065,-0.036516814707,0.126174205875,-0.100635203046,0.573879472168,0.81892397892,0.00257197880193,0.0,0.818887626146,-0.573817144283,-0.0117340348157,0.0,-0.00813359354567,0.00884025352432,-0.999927844684,0.0,0.600298187111,0.180484492472,0.30401962004,1.0,-0.0793514285714,-0.10429044898,2.04
0.400965328407,0.25464111515,-0.125053123372,-1.79571091729,0.047373956715,2.04287746876,0.0839736460501,-0.098862715308,-0.331943194423,0.00666074861755,-0.451660498612,-0.0390402977981,0.13738519593,-0.106862031604,0.573870154414,0.818929755965,0.00280135138604,0.0,0.81889669753,-0.573807386181,-0.0115770997981,0.0,-0.00787354698601,0.00893794153052,-0.999929057713,0.0,0.598676140464,0.178325244884,0.304134082066,1.0,-0.0805514285714,-0.105867591837,2.061
0.399585918511,0.250408818902,-0.125051151847,-1.80170150544,0.0468369941115,2.04468444269,0.0825995929722,-0.106919882295,-0.322626109034,-0.000282774262704,-0.466703836906,-0.0412610587724,0.142178884833,-0.113112485311,0.573834141426,0.81895494548,0.00281465977959,0.0,0.818922054127,-0.573771327729,-0.0115706370534,0.0,-0.00786101070724,0.00894478576252,-0.999929095145,0.0,0.597713422321,0.177073275861,0.304122459752,1.0,-0.0812371428571,-0.106768816327,2.073
0.397432696611,0.243835715632,-0.125066504197,-1.81112699475,0.0460250709598,2.04729665893,0.08046723067,-0.1049426453,-0.327415045489,-0.000935866339808,-0.471484156257,-0.0430666868176,0.129813226194,-0.109416979133,0.573815152392,0.818968896928,0.00261985692879,0.0,0.818932723492,-0.573752175916,-0.0117635847937,0.0,-0.00813101799623,0.00889578104228,-0.999927373176,0.0,0.596012780196,0.174932643084,0.304027674522,1.0,-0.08238,-0.108270857143,2.093
0.396006409581,0.23948991845,-0.125059061876,-1.817189711,0.0455010416153,2.0490381144,0.0790225327192,-0.104885561741,-0.335044409648,-0.000855314580373,-0.45796083375,-0.0338022993433,0.14061613272,-0.112836036145,0.573758386542,0.81900858896,0.00264423585578,0.0,0.81897242179,-0.573694987849,-0.0117889849362,0.0,-0.00813845175115,0.00892975714406,-0.999927009856,0.0,0.594929685028,0.173550813848,0.304038137239,1.0,-0.0831228571429,-0.109247183673,2.106
0.393762750008,0.232689894256,-0.125054766456,-1.82639765527,0.0446580704262,2.05185576016,0.0769037016693,-0.116138893392,-0.336253778792,-0.000871320174892,-0.467608914051,-0.0534592050943,0.135534999727,-0.111447026488,0.57378683428,0.818987624733,0.00294724312655,0.0,0.818955924134,-0.573722986709,-0.0115704688641,0.0,-0.00778531957444,0.00905281921382,-0.999928715091,0.0,0.593245932072,0.17129913972,0.304183614135,1.0,-0.0843228571429,-0.110824326531,2.127
0.392155078755,0.227956836978,-0.125065813301,-1.83309698954,0.0440106876959,2.05363735599,0.0752984005439,-0.113264497039,-0.336075891466,-0.000302435000321,-0.48211648932,-0.0449880779381,0.127362433096,-0.114669898918,0.573714091193,0.819039185602,0.00277505247641,0.0,0.819005002746,-0.57365054703,-0.0116876973723,0.0,-0.00798092542379,0.00897835139824,-0.999927844415,0.0,0.592090661111,0.169852054658,0.304123871733,1.0,-0.0850657142857,-0.111800653061,2.14
0.389772211241,0.221161934878,-0.125119213428,-1.84262130854,0.0431383355278,2.05626008141,0.0730264409336,-0.119294605079,-0.336227075719,-0.00523292670362,-0.473404414147,-0.0350328278333,0.132384220725,-0.117733539774,0.573751627358,0.819013241239,0.00266977158548,0.0,0.818977378408,-0.573688105696,-0.011779556043,0.0,-0.00811615243275,0.00894519420598,-0.999927053125,0.0,0.590357576243,0.167572727005,0.304079752888,1.0,-0.0862085714286,-0.113302693878,2.16
0.38819584452,0.216645299641,-0.125180250287,-1.84863735936,0.0426058162606,2.05815287213,0.0715019852634,-0.125894150223,-0.344403349198,-0.00636771405212,-0.46178573733,-0.0447765140251,0.145186636647,-0.112066809608,0.573786173649,0.818987966821,0.00298060937501,0.0,0.818956567831,-0.573722065647,-0.0115705789937,0.0,-0.00776627312226,0.00908020269352,-0.999928614913,0.0,0.589323486117,0.166097999276,0.304202919526,1.0,-0.0869514285714,-0.114279020408,2.173
0.385553615292,0.209405887945,-0.125231425686,-1.85872044777,0.0416347522672,2.06085258012,0.0690751970133,-0.123444403587,-0.345212070171,-0.0064373183835,-0.480054468908,-0.0468346111018,0.116865537628,-0.126850520504,0.573868678329,0.818930699771,0.00282770337076,0.0,0.818897157324,-0.573804883802,-0.0116682454818,0.0,-0.0079330871699,0.00901181237042,-0.999927924085,0.0,0.587462357367,0.163628092987,0.304154234353,1.0,-0.0881514285714,-0.115856163265,2.194
0.383928417788,0.204869326214,-0.12528261957,-1.86504675152,0.0410015734708,2.06247067635,0.0675347440564,-0.120584116972,-0.350228892944,-0.0102821746212,-0.490528512038,-0.0554006352695,0.129355493894,-0.118393403045,0.573879897899,0.818923412187,0.0026560611167,0.0,0.818887552014,-0.573816608796,-0.0117653528302,0.0,-0.00811098706421,0.00892708674089,-0.99992725686,0.0,0.58626695879,0.162086277783,0.304106569454,1.0,-0.0888942857143,-0.116832489796,2.207
0.381218104723,0.197453036636,-0.125288130581,-1.87498391704,0.0400825754759,2.06537270481,0.0649512830563,-0.126948688069,-0.35792388613,-0.00399391615702,-0.474546207637,-0.0430166464936,0.142188000947,-0.117755893801,0.573855977312,0.818939143521,0.00295692618987,0.0,0.818907402225,-0.573791895918,-0.0115876512596,0.0,-0.00779307095415,0.00907126633304,-0.999928487529,0.0,0.58446526859,0.159658018071,0.304225308967,1.0,-0.0900942857143,-0.118409632653,2.228
0.379494651832,0.192913759727,-0.125326162868,-1.88124669086,0.0394787384188,2.06710734925,0.0633903062815,-0.127882410536,-0.351159262402,-0.0042861135054,-0.490401338645,-0.0451739128487,0.12522979068,-0.126362911212,0.573921711183,0.818893120303,0.00294514103041,0.0,0.818861252703,-0.573857690548,-0.0115908033197,0.0,-0.00780168747387,0.00906405005981,-0.999928485777,0.0,0.583305156155,0.158096204508,0.304203521035,1.0,-0.0908371428571,-0.119385959184,2.241
0.376788836894,0.18580951765,-0.125428066404,-1.89106671706,0.0385553509812,2.06955105991,0.0608307495452,-0.132539806824,-0.354702452021,0.000104423808713,-0.491833975856,-0.0540494679281,0.124134800384,-0.127674261823,0.573970421025,0.818859753766,0.0027214613489,0.0,0.818824225638,-0.573906309005,-0.0117975799671,0.0,-0.00809885551715,0.00900003370097,-0.99992670128,0.0,0.581418997789,0.15562195468,0.304126354025,1.0,-0.09198,-0.120888,2.261
0.375007432729,0.1811054545,-0.125438588259,-1.89731733112,0.0379560041815,2.07127859616,0.059150345547,-0.135434720636,-0.367984074684,0.0012633293824,-0.472586670657,-0.0493357131921,0.133305709389,-0.130283542939,0.573955599241,0.818869666961,0.00286103687987,0.0,0.818836041608,-0.573891091316,-0.011717473,0.0,-0.00795331276175,0.00906820394191,-0.999927253601,0.0,0.580249348906,0.154060001545,0.30419267505,1.0,-0.0927228571428,-0.121864326531,2.274
0.372269483053,0.173889344153,-0.125417757603,-1.90696013015,0.0369564990718,2.07393029356,0.0566294777602,-0.139323459827,-0.35482163665,0.000502010651137,-0.493721769832,-0.0524606250395,0.127062506282,-0.129065024798,0.573916056733,0.818896909063,0.00299316754368,0.0,0.818865536607,-0.573851731758,-0.0115831695379,0.0,-0.00776793691023,0.00909894391534,-0.999928431627,0.0,0.578420539942,0.151677449995,0.304256676029,1.0,-0.0938657142857,-0.123366367347,2.294
0.370318254358,0.168827190669,-0.125417252048,-1.91389069111,0.0362764606021,2.07558947659,0.0547377544458,-0.142379831383,-0.359987647218,0.000419031743687,-0.500019533486,-0.0439825688704,0.123489734384,-0.141490992742,0.573829023389,0.818958500342,0.00282374477308,0.0,0.818924314775,-0.573764576886,-0.0117440998813,0.0,-0.00799791968642,0.00905171289238,-0.999927047226,0.0,0.577038830635,0.149967233348,0.304198758615,1.0,-0.0946657142857,-0.124417795918,2.308
0.367463154157,0.161528301261,-0.125423292156,-1.92371789708,0.0353113700002,2.07814962357,0.0520158605479,-0.140456537699,-0.376842904193,-0.000935752683014,-0.485295519586,-0.0459951959229,0.128311461658,-0.148034255775,0.573743943192,0.819018050176,0.00284042908537,0.0,0.818983820936,-0.573679153543,-0.0117676138755,0.0,-0.00800854740752,0.00907803743269,-0.999926723518,0.0,0.575122997075,0.147510881787,0.304193686479,1.0,-0.0958085714286,-0.125919836735,2.328
0.365551197045,0.156676896144,-0.125423594274,-1.92996262758,0.0346424600739,2.07988449135,0.0503275818317,-0.146223961065,-0.367701864938,5.68594932888e-05,-0.476035074738,-0.0517688683637,0.129563114384,-0.127291796297,0.573764188743,0.819002986204,0.00308402448705,0.0,0.818972707102,-0.573699493475,-0.0115474287396,0.0,-0.00768822335675,0.00915140915875,-0.999928568915,0.0,0.573842490089,0.1457768903,0.304322900241,1.0,-0.0966085714286,-0.126971265306,2.342
0.362209191969,0.148563456231,-0.125456165867,-1.94096749543,0.0335149695516,2.08244968453,0.0472552055075,-0.152828691739,-0.376817155465,-0.000529066087356,-0.506669411911,-0.0517027956847,0.117998140899,-0.149738690681,0.573760314984,0.819006729018,0.00279744078113,0.0,0.818971929793,-0.573695664913,-0.0117902151624,0.0,-0.00805154092267,0.00905595739553,-0.999926578467,0.0,0.571717831295,0.143063069947,0.304220996262,1.0,-0.0978085714286,-0.128548408163,2.363
0.360355517043,0.144138050797,-0.125481428526,-1.94694056307,0.0329361983805,2.08394522794,0.0455672006825,-0.152212472075,-0.370068329724,-0.00105935146256,-0.494878443182,-0.0512140588405,0.125492050735,-0.136346603796,0.573784232899,0.818990096579,0.00276092069684,0.0,0.818954420616,-0.573719263763,-0.0118579189553,0.0,-0.00812768128396,0.00906512967303,-0.999925879364,0.0,0.570529284353,0.141512417283,0.304182625924,1.0,-0.0984942857143,-0.129449632653,2.375
0.35705999715,0.136246621153,-0.125543162552,-1.95709236045,0.0318937493897,2.08671639229,0.0425440836445,-0.158568355755,-0.368614343984,-0.00162279377822,-0.49429093719,-0.0507417279956,0.120778321966,-0.149581926917,0.573801410252,0.818976690442,0.00314149761156,0.0,0.818946763844,-0.57373605918,-0.0115706217469,0.0,-0.00767382678996,0.00921213574061,-0.999928121886,0.0,0.568573734922,0.138803603895,0.304339578697,1.0,-0.0996942857143,-0.13102677551,2.396
0.354955760689,0.131359329704,-0.125592167606,-1.96362472451,0.031170057453,2.08818636755,0.0406373012127,-0.165348853144,-0.37771924662,-0.00315888387845,-0.499006863614,-0.0561712870654,0.114101084332,-0.14748991093,0.573810085536,0.818971259412,0.00296797844697,0.0,0.818938954215,-0.573745150903,-0.0116721028985,0.0,-0.00785640482901,0.0091283392769,-0.999927472532,0.0,0.567234434541,0.13705116202,0.304293312596,1.0,-0.100437142857,-0.132003102041,2.409
0.351512100569,0.123400779554,-0.125724783229,-1.97419070765,0.0300563261848,2.09068413809,0.0376066031579,-0.166302431139,-0.38489517085,-0.00110810650062,-0.495132746689,-0.0535701224512,0.12818481093,-0.141855106197,0.573959287796,0.818867113944,0.00285176338462,0.0,0.818833068495,-0.573894470922,-0.0117596380094,0.0,-0.00799312349137,0.00908484653091,-0.99992678509,0.0,0.565085664395,0.134193780309,0.304245628667,1.0,-0.101637142857,-0.133580244898,2.43
0.349485214066,0.118744114973,-0.12575408641,-1.98002610247,0.0294393990991,2.09223832278,0.0357632120114,-0.166851348664,-0.391822828626,-0.00566574866078,-0.488597424594,-0.0504944363189,0.125992448791,-0.146623105195,0.573964489219,0.81886243101,0.0031354579975,0.0,0.818832664952,-0.57389942242,-0.0115441177492,0.0,-0.00765375414868,0.00919350607883,-0.999928447187,0.0,0.563942377311,0.132588640162,0.304376487199,1.0,-0.102322857143,-0.134481469388,2.442
0.345897186916,0.110790786909,-0.125766276765,-1.99054241765,0.0282883192847,2.09464946489,0.0324883238804,-0.171338754927,-0.375345879028,-0.00206982368157,-0.501072772259,-0.0554230639438,0.102279708531,-0.155127099497,0.57390098766,0.818907506909,0.00298301714475,0.0,0.818875491697,-0.573836100816,-0.0116535573746,0.0,-0.00783157347133,0.00913088351601,-0.999927644094,0.0,0.561757871037,0.129745202381,0.304310757367,1.0,-0.103522857143,-0.136058612245,2.463
0.343695592536,0.105783134795,-0.1257568413,-1.99711335708,0.0275688042249,2.09610745752,0.030538600336,-0.167920632209,-0.387177047965,0.00151806829315,-0.500957093957,-0.0544311469307,0.112742628233,-0.153591490465,0.573887487771,0.818917318427,0.00288511017444,0.0,0.818883753347,-0.573822616421,-0.0117367069029,0.0,-0.00795600425283,0.00909829425801,-0.999926958851,0.0,0.560364358005,0.128009725705,0.304277781645,1.0,-0.104265714286,-0.137034938775,2.476
0.340272963861,0.0979564449246,-0.125733255881,-2.00699069526,0.0265520554662,2.09849970262,0.0273110208142,-0.171790582052,-0.388635671315,0.00130064674943,-0.50048652764,-0.043877289831,0.12119108775,-0.161375760695,0.573728623685,0.819027564858,0.00317195026785,0.0,0.818997740155,-0.573662833011,-0.0115932111716,0.0,-0.00767567731854,0.00924935526959,-0.999927764093,0.0,0.558313344611,0.125378384793,0.304401896224,1.0,-0.105408571429,-0.138536979592,2.496
0.337952702122,0.092925599101,-0.125740102128,-2.01357185386,0.0258665035017,2.09997052336,0.0252475637258,-0.18434994482,-0.386346770906,-0.000845019033826,-0.507664904554,-0.0528559951453,0.109906605062,-0.156245133074,0.573736330496,0.819022373756,0.0031178930107,0.0,0.818991355514,-0.573670126383,-0.0116830043279,0.0,-0.0077801496517,0.00925666967499,-0.999926888996,0.0,0.556912741782,0.123592984979,0.304359768844,1.0,-0.106151428571,-0.139513306122,2.509
0.334078515204,0.0847632759939,-0.125804787721,-2.02423031813,0.024682911695,2.10218863995,0.0217566614056,-0.187100404771,-0.387266191074,-0.00389932718395,-0.50429646277,-0.058280859354,0.101513377698,-0.165963923325,0.573725298633,0.819030963118,0.0028827182042,0.0,0.818996166746,-0.573659089574,-0.0118859036644,0.0,-0.00808138121686,0.00918035553871,-0.999925203378,0.0,0.554613463583,0.120609342666,0.304270018561,1.0,-0.107351428571,-0.14109044898,2.53
0.33164377703,0.0795429481059,-0.125845538076,-2.03065017245,0.0239678135573,2.10375301992,0.0195524342063,-0.184016311788,-0.39751449479,-0.00256224104331,-0.497893880263,-0.0470727141623,0.117486676487,-0.171829666618,0.573714030278,0.81903785751,0.0031537800786,0.0,0.81900725617,-0.573647651078,-0.0116719173885,0.0,-0.00775073290239,0.00927949019368,-0.999926905929,0.0,0.553284112279,0.1187784695,0.304397043692,1.0,-0.108094285714,-0.14206677551,2.543
0.327640548891,0.0712486178323,-0.125923052712,-2.04123921515,0.0227805705709,2.1060509393,0.0160636405216,-0.192503501015,-0.403523345896,-0.00566405566814,-0.508272488149,-0.0558366792001,0.104964233681,-0.172487052592,0.573801054277,0.818976958135,0.00313672690398,0.0,0.81894600956,-0.573734569961,-0.0116971603247,0.0,-0.0077802059133,0.00928083159223,-0.999926664591,0.0,0.551003631138,0.115764269647,0.304387455682,1.0,-0.109294285714,-0.143643918367,2.564
0.325085869019,0.0660742924146,-0.1260105006,-2.04789500286,0.0220063786768,2.10736773175,0.0138082327923,-0.197708623451,-0.396136058524,-0.00875531376155,-0.509902606668,-0.0572845393317,0.100780454374,-0.177424309791,0.573849651607,0.818943464882,0.00298757071702,0.0,0.818910272806,-0.573783318902,-0.0118074105552,0.0,-0.00795553663858,0.0092224083443,-0.99992582556,0.0,0.549539154626,0.113830917106,0.304338188962,1.0,-0.110037142857,-0.144620244898,2.577
0.32109036888,0.05806640186,-0.126091730042,-2.05782877161,0.0208349180571,2.10961264843,0.0102747390418,-0.201365932838,-0.412746404368,0.00017190290348,-0.493233841945,-0.0550337234563,0.115996982073,-0.188975523001,0.573880318857,0.818921203986,0.00319189479471,0.0,0.818891503291,-0.573814281636,-0.0116027121863,0.0,-0.00767029989147,0.00927256222143,-0.999927590423,0.0,0.547415209849,0.110902443037,0.3044319027,1.0,-0.11118,-0.146122285714,2.597
0.318474740589,0.0528369351892,-0.1260869869,-2.06433638453,0.020111712268,2.11099114345,0.00797559500516,-0.20086659601,-0.405709355025,0.000852646263658,-0.511994739509,-0.0576909180021,0.0952751670594,-0.179902799486,0.573877378811,0.818922933246,0.00327572804495,0.0,0.818894234807,-0.573810973232,-0.0115735085119,0.0,-0.00759830913201,0.00932442906343,-0.999927657744,0.0,0.545983934408,0.109031464243,0.304465532079,1.0,-0.111922857143,-0.147098612245,2.61
0.314211735469,0.0443907987721,-0.126090764035,-2.07512060278,0.0189088726782,2.11302508078,0.00421507931958,-0.200322643605,-0.39724237586,0.000760897142664,-0.523237765101,-0.0607140080423,0.0976552139135,-0.176074801181,0.573852331915,0.818941321745,0.0030593454619,0.0,0.818908602687,-0.573785205388,-0.0118315436257,0.0,-0.00793408556665,0.00929506217586,-0.999925323264,0.0,0.54352653208,0.10597355907,0.304360518873,1.0,-0.113122857143,-0.148675755102,2.631
0.311495667483,0.0390606422869,-0.126105374679,-2.08160412995,0.0181603681591,2.11436904112,0.00175320601815,-0.206951878457,-0.416527631185,-0.00172832384813,-0.492254928801,-0.052304717951,0.11536588207,-0.19236353269,0.57379172653,0.818983227346,0.00320543185399,0.0,0.818952629368,-0.573724361999,-0.0117343172538,0.0,-0.00777132429194,0.00935833117868,-0.999926011341,0.0,0.542086495316,0.104061862519,0.304435844041,1.0,-0.113865714286,-0.149652081633,2.644
0.307003465622,0.030517019176,-0.126192063296,-2.09213594661,0.0168768668384,2.11651346851,-0.00217076195587,-0.21099594196,-0.412318780917,-0.00511791323748,-0.514802324757,-0.0538139230398,0.0930892028446,-0.189063642953,0.573834199895,0.818953161424,0.00328288368154,0.0,0.818924085216,-0.573767200424,-0.0116313916538,0.0,-0.00764210112146,0.00936310310783,-0.999926962628,0.0,0.539731122773,0.100889942745,0.304473974323,1.0,-0.115065714286,-0.15122922449,2.665
0.304398561775,0.0255846468812,-0.12624617759,-2.09829756082,0.0161430179372,2.11755395625,-0.00449622517426,-0.219124757642,-0.410477667678,-0.000645983806088,-0.51527052162,-0.0637127724303,0.084787031646,-0.201635447581,0.573819640621,0.818963934955,0.00313690632386,0.0,0.818932383542,-0.573752432468,-0.0117747324695,0.0,-0.00784342461276,0.00932566647478,-0.999925753561,0.0,0.53829203329,0.0990522740984,0.304431549867,1.0,-0.115751428571,-0.15213044898,2.677
0.299739269758,0.016895316656,-0.126344382584,-2.10886467983,0.0148689091689,2.11961167238,-0.00854242333702,-0.220632214778,-0.427401368065,-0.00359080107147,-0.491167141345,-0.0604083220317,0.102481914014,-0.190996007421,0.573893969118,0.818911386446,0.00325580406054,0.0,0.818881696567,-0.573826729492,-0.0116789746457,0.0,-0.00769592609391,0.00936879184573,-0.999926496529,0.0,0.535885551985,0.0958271932209,0.304489710997,1.0,-0.116951428571,-0.153707591837,2.698
0.296559094021,0.0111042076489,-0.126406557966,-2.11590167148,0.0140283303558,2.12092224162,-0.0113338521984,-0.228056408155,-0.406735193982,-0.00148826099529,-0.516453393988,-0.0537395693575,0.090286965093,-0.202505364539,0.573921702122,0.818891756219,0.0033042896589,0.0,0.818862664433,-0.573854261604,-0.0116606233856,0.0,-0.00765275499977,0.00939822520038,-0.999926551655,0.0,0.534262346951,0.0936555025866,0.304512902829,1.0,-0.117751428571,-0.154759020408,2.712
0.291958109921,0.00285936398858,-0.126429176539,-2.12613055279,0.0128415466062,2.12268457257,-0.0153868623007,-0.230533686584,-0.409765208004,-0.00134757619771,-0.514950269385,-0.0589342057699,0.0831057472111,-0.197499959911,0.573898687788,0.818908441855,0.00316337092183,0.0,0.818876424152,-0.573830411177,-0.0118662579983,0.0,-0.00790229255486,0.00940062075398,-0.999924588207,0.0,0.531837771269,0.0905692015142,0.304423264252,1.0,-0.118894285714,-0.156261061224,2.732
0.288952948428,-0.00258458707767,-0.126416823975,-2.13264666847,0.0120514565093,2.12387044486,-0.0181035131676,-0.229104853323,-0.41581326933,0.000151800687421,-0.503023414554,-0.0653902938752,0.0893515346615,-0.207945276895,0.573792037087,0.818982830882,0.00325081480677,0.0,0.818952042708,-0.573723574777,-0.0118134834359,0.0,-0.00781012138409,0.00944092591934,-0.999924932643,0.0,0.530303565125,0.0885920992561,0.304463097848,1.0,-0.119637142857,-0.157237387755,2.745
0.283993280899,-0.0114039954107,-0.12643982892,-2.14312714854,0.0107193518651,2.12579889076,-0.0224492137144,-0.235709769203,-0.416494438387,-0.000592990559769,-0.505381309488,-0.0561474312307,0.0810580257726,-0.205243309427,0.573742574486,0.819016796821,0.00341930513553,0.0,0.818988948821,-0.573674479348,-0.0116378844654,0.0,-0.00757020051308,0.00947770538859,-0.999926429876,0.0,0.527836435717,0.0853408412861,0.304543413123,1.0,-0.11998,-0.157688,2.766
0.281042388065,-0.0163767974565,-0.12648826351,-2.14922891966,0.00992997767274,2.1266821462,-0.0250103879865,-0.24410707668,-0.404387283075,-0.00614780197987,-0.50670442097,-0.0677015159602,0.0689104188826,-0.218841196405,0.57375695074,0.819007536998,0.00321911789449,0.0,0.818976528597,-0.57368883569,-0.0118030637298,0.0,-0.00782017672021,0.00940865299912,-0.999925158242,0.0,0.526341646052,0.0834003381578,0.304472679532,1.0,-0.11998,-0.157688,2.778
0.275884134058,-0.0251353603648,-0.126597975339,-2.15960531135,0.00864095787039,2.1283876467,-0.0294968032075,-0.247194013948,-0.422786313256,-0.00373796137661,-0.479937160047,-0.0610749515516,0.0885028638472,-0.208730415685,0.573825982521,0.818958883989,0.0032916591439,0.0,0.818928739009,-0.573757509782,-0.0117808019676,0.0,-0.00775952767338,0.00945594659219,-0.999925184603,0.0,0.523841102692,0.0800541540857,0.304511426142,1.0,-0.11998,-0.157688,2.799
0.272626110009,-0.0305725937968,-0.126673804208,-2.16588505145,0.00782853799161,2.12952235741,-0.0322773419645,-0.255880563768,-0.420631104385,-0.00667698206239,-0.494391365535,-0.0634655683027,0.0846423917663,-0.215142544874,0.573914132958,0.818896273509,0.00349401275624,0.0,0.818869524442,-0.573845943147,-0.0115880272018,0.0,-0.0074845113474,0.009511856281,-0.999926750657,0.0,0.522351330862,0.0779690150615,0.304603696206,1.0,-0.11998,-0.157688,2.812
0.267336019743,-0.0392349274021,-0.126740941716,-2.17625351695,0.00656360300649,2.13098005733,-0.0368927682765,-0.251720720817,-0.423748405489,-0.000758829243481,-0.491880040068,-0.062123061902,0.0769252011128,-0.220728934763,0.573942666335,0.818876882292,0.00334877717917,0.0,0.818847005481,-0.573873399115,-0.0118173729382,0.0,-0.00775534868029,0.00952481408058,-0.999924563396,0.0,0.519760281613,0.0746263948464,0.304535840821,1.0,-0.11998,-0.157688,2.833
0.264315971777,-0.0441031749341,-0.126728105809,-2.18212338509,0.0058543246916,2.13186918373,-0.0395674715409,-0.251628601458,-0.413378941697,0.00124270024052,-0.479505833241,-0.0598043879945,0.0750823941303,-0.21919262103,0.573888067194,0.818915378174,0.00329190280377,0.0,0.818884128015,-0.573818238385,-0.0119231323093,0.0,-0.00787523415896,0.00953841395689,-0.999923496747,0.0,0.518172841229,0.0726131426909,0.304474161411,1.0,-0.11998,-0.157688,2.846
0.258742137834,-0.0532148891856,-0.126735901175,-2.19243167695,0.00445459627108,2.13354714134,-0.0444094177232,-0.252865373367,-0.413543045518,-0.00215388169887,-0.469514467883,-0.0654923884248,0.0717730324819,-0.230242742684,0.573836037016,0.818950538062,0.00360079573974,0.0,0.818924835116,-0.573767095467,-0.0115836734973,0.0,-0.00742058039959,0.00959609510581,-0.999926422266,0.0,0.515754625105,0.06935523593,0.304648522511,1.0,-0.11998,-0.157688,2.867
0.255624444702,-0.0580796081431,-0.126755282554,-2.19821105562,0.00369591080574,2.1342625077,-0.0471242672694,-0.262659153458,-0.405049175055,-0.000877424026868,-0.481939863173,-0.0584002641009,0.0556518747372,-0.214188594413,0.573820607228,0.818961979119,0.00345461709512,0.0,0.818933771153,-0.573751360765,-0.0117303617699,0.0,-0.0076247758322,0.00956040998694,-0.999925227882,0.0,0.514266085691,0.0674509254352,0.30458983922,1.0,-0.11998,-0.157688,2.879
0.250140656827,-0.0665783784276,-0.126809359223,-2.20822677554,0.0024073143821,2.13558532783,-0.0518926758591,-0.268772030084,-0.409337377972,-0.00248684393632,-0.465381352722,-0.0693425424665,0.0618559165224,-0.228382439541,0.573828399556,0.818957034109,0.00333032245786,0.0,0.818926350811,-0.573758520644,-0.0118970095906,0.0,-0.0078324896021,0.00955431474049,-0.999923680676,0.0,0.51169088628,0.0641322696453,0.304512735745,1.0,-0.11998,-0.157688,2.9
0.246705047636,-0.0718637886397,-0.126877949444,-2.21413063566,0.00160428203969,2.13647117622,-0.0548370224207,-0.264886813047,-0.401234284652,-0.00420488944383,-0.457112103632,-0.0717111364621,0.0696243299121,-0.22559531596,0.573895507913,0.818909238126,0.00351462818565,0.0,0.818881735116,-0.573825958648,-0.0117140930377,0.0,-0.00757613998111,0.00960091504794,-0.99992520947,0.0,0.51020579338,0.0620691673226,0.304606277992,1.0,-0.11998,-0.157688,2.913
0.241353090701,-0.0799346811483,-0.12694259625,-2.22338706608,0.000417183975324,2.13763261362,-0.0595575718092,-0.26621044522,-0.397489102109,0.0014235317182,-0.470562087636,-0.0620666094979,0.0497036863946,-0.230415011387,0.573876227167,0.818922667523,0.00353375305588,0.0,0.818894877314,-0.573805938083,-0.0117759173749,0.0,-0.00761602381405,0.00965187713823,-0.999924415868,0.0,0.507797817194,0.0589022113761,0.304606280065,1.0,-0.11998,-0.157688,2.933
0.237902910553,-0.0851363801795,-0.126932665517,-2.22943380471,-0.000376781318605,2.13831815663,-0.0625546223334,-0.264143083069,-0.397638678749,0.00200439070056,-0.460734954609,-0.0544146388277,0.0598713713691,-0.23456924307,0.573841255827,0.818947611224,0.00343075551255,0.0,0.818917831494,-0.57377051677,-0.0119048833791,0.0,-0.00778115925325,0.00964120571652,-0.999923247411,0.0,0.506189333437,0.0568955883175,0.304553462887,1.0,-0.11998,-0.157688,2.946
0.232250930853,-0.093589992487,-0.126939762787,-2.23893639297,-0.00164887512639,2.1394841637,-0.0675380555732,-0.271539124453,-0.403897597921,-0.00262411557427,-0.438755390099,-0.0639807292634,0.0586750491995,-0.241641669187,0.573750253286,0.819010957814,0.00352770970637,0.0,0.818982579517,-0.573679358739,-0.0118437623521,0.0,-0.0076765447032,0.00968468090458,-0.999923635893,0.0,0.503682269868,0.0536427837339,0.304601077014,1.0,-0.11998,-0.157688,2.967
0.228629802391,-0.0987667792306,-0.126973095834,-2.24467615742,-0.00249021442327,2.14021003253,-0.0706494100491,-0.276201688563,-0.394389050843,-0.0021370885128,-0.44567073261,-0.0650189600652,0.0514730567838,-0.242779344519,0.573768533636,0.818997790568,0.00361050608553,0.0,0.818971274299,-0.573698359107,-0.0117043381613,0.0,-0.0075146303573,0.00967266794257,-0.999924982099,0.0,0.502175440567,0.0515677047798,0.304655880667,1.0,-0.11998,-0.157688,2.98
0.2230390832,-0.106725314568,-0.127098191858,-2.25372899851,-0.00371375203707,2.14107086022,-0.075432977302,-0.278738846097,-0.3984324546,-0.0108691456855,-0.452834384892,-0.0588564763605,0.0419471293243,-0.249942910383,0.573897465169,0.81890804894,0.00347185178465,0.0,0.818878701181,-0.573826442439,-0.0119009920688,0.0,-0.00775372712052,0.00967316089971,-0.999923151884,0.0,0.499709488062,0.0483528213587,0.304597335706,1.0,-0.11998,-0.157688,3.0
0.219350286835,-0.111842423777,-0.127196399938,-2.25955300837,-0.00452870003044,2.1416627784,-0.0786626746789,-0.283033766601,-0.394767374715,-0.00810265024681,-0.44352852307,-0.062629022035,0.0393389362982,-0.242019873858,0.573928774468,0.818886436068,0.00339316419424,0.0,0.818855653315,-0.573857527437,-0.0119876661637,0.0,-0.00786949591908,0.0096587641943,-0.999922386642,0.0,0.498123654238,0.0462450074257,0.304550769182,1.0,-0.11998,-0.157688,3.013
0.213423585703,-0.120188691942,-0.127201131454,-2.26850048914,-0.00577352110778,2.14275131828,-0.0838226048213,-0.272789775135,-0.386503791782,0.00241346792343,-0.425563004895,-0.0593393919262,0.0499967017961,-0.250827220594,0.573903794213,0.818902421471,0.00374245890902,0.0,0.818877619488,-0.57383318086,-0.0116478215219,0.0,-0.00739102444925,0.00974953251688,-0.999925156886,0.0,0.495723389459,0.0429846885079,0.304718937646,1.0,-0.11998,-0.157688,3.034
0.209748589204,-0.125207157341,-0.127203174122,-2.27418980865,-0.00653510713117,2.14323820313,-0.0870448565905,-0.278581481321,-0.385338932127,-0.000795440686688,-0.435893008185,-0.0565575397471,0.0346972014309,-0.246258314117,0.573867753722,0.818928147674,0.00363828068491,0.0,0.818901188986,-0.573796438674,-0.0117998535196,0.0,-0.00757574554227,0.00975113555183,-0.999923758811,0.0,0.494129070706,0.0409745245525,0.304654708333,1.0,-0.11998,-0.157688,3.047
0.203674891101,-0.133471065545,-0.127214660075,-2.28334681806,-0.00782702351259,2.14397308479,-0.0923668631152,-0.29107201618,-0.393157375129,-0.000888472202348,-0.437448985838,-0.0553759066184,0.0381303257886,-0.260637436424,0.573797652113,0.818977705207,0.00353831952006,0.0,0.818948846105,-0.57372593306,-0.0119200712799,0.0,-0.00773239582722,0.00973759908051,-0.999922691621,0.0,0.491545288952,0.0376779827924,0.304621542912,1.0,-0.11998,-0.157688,3.068
0.199879491498,-0.138529808596,-0.127254163239,-2.28886785423,-0.00862410805982,2.14448769284,-0.0956920926978,-0.292979350833,-0.392906825885,-0.00784475747422,-0.414777478236,-0.0588816432434,0.0429003938095,-0.262794998067,0.573783433899,0.818987517101,0.00357277449465,0.0,0.818959313033,-0.573711855187,-0.0118784559586,0.0,-0.007678711908,0.00974180575503,-0.999923064342,0.0,0.489998624993,0.0356264270507,0.304634097103,1.0,-0.11998,-0.157688,3.081
0.193943430384,-0.146315841884,-0.127400776807,-2.29711573329,-0.00978138543062,2.14530016363,-0.100803540925,-0.296351430806,-0.389719793605,-0.00583447364421,-0.422625890085,-0.058976296536,0.0334408291471,-0.250092493605,0.573941735185,0.818875334414,0.0038494418987,0.0,0.818851565981,-0.573870309793,-0.0116502072878,0.0,-0.00733112812079,0.00983885114131,-0.999924722951,0.0,0.487696870968,0.0324220598707,0.304751611435,1.0,-0.11998,-0.157688,3.101
0.190044177429,-0.151279644297,-0.127458424611,-2.30266735297,-0.0105673346412,2.14559831186,-0.104206437676,-0.29934163169,-0.376629657757,-0.00445500810633,-0.432982433191,-0.0641444495593,0.0162759594904,-0.267291324104,0.573959591578,0.818863639824,0.00367062812953,0.0,0.818836447346,-0.573887308394,-0.0118733593781,0.0,-0.00761628201695,0.00982066167459,-0.999922770444,0.0,0.486070425126,0.0303442367843,0.304664819592,1.0,-0.11998,-0.157688,3.114
0.183830028122,-0.159373776329,-0.127432317327,-2.3114439486,-0.0118726510329,2.14615940464,-0.109711881921,-0.290935574273,-0.3855353241,0.00056901104706,-0.41129059368,-0.0674649151104,0.031265276866,-0.257660885414,0.573795359527,0.818979162114,0.0035727174525,0.0,0.818950487847,-0.57372318455,-0.0119395505306,0.0,-0.00772864105553,0.00977692562607,-0.999922336901,0.0,0.483503861741,0.0271155054961,0.304639030136,1.0,-0.11998,-0.157688,3.135
0.179899302373,-0.164342859841,-0.127445000484,-2.31665177655,-0.0125811301515,2.14656806218,-0.113143099336,-0.301552711204,-0.386804189849,-0.0023392495422,-0.397296383669,-0.0562700224638,0.0318519111553,-0.263689587691,0.573811160099,0.818967396928,0.00372856762293,0.0,0.818941013101,-0.57373876877,-0.0118401508904,0.0,-0.00755761926425,0.00984767726299,-0.999922949853,0.0,0.481996638012,0.0250965792563,0.304699806402,1.0,-0.11998,-0.157688,3.148
0.173766520943,-0.171990672767,-0.127457821551,-2.32472510012,-0.0137095978443,2.14710835424,-0.11859659547,-0.30273929935,-0.377806121273,-0.00179355515962,-0.411184626428,-0.0584265604653,0.0199250244682,-0.263963053275,0.573739841384,0.819016825874,0.00384450843749,0.0,0.818991908788,-0.573667012742,-0.0117965559763,0.0,-0.00745625371715,0.00991696639064,-0.999923026067,0.0,0.479498528115,0.0218152895957,0.304737520569,1.0,-0.11998,-0.157688,3.169
0.169703971485,-0.176872019129,-0.127541483659,-2.33007055721,-0.0145036696468,2.14729798579,-0.122052020879,-0.3137318778,-0.378957505129,-0.006888802081,-0.401536952759,-0.061491304565,0.0149463485932,-0.272085300084,0.573845555557,0.818943512688,0.00368080090392,0.0,0.8189155576,-0.573772101018,-0.0119846783165,0.0,-0.00770298199713,0.00989180995933,-0.999921404993,0.0,0.477998617426,0.0198785377336,0.30466106249,1.0,-0.11998,-0.157688,3.181
0.163064772937,-0.184817089166,-0.127679505913,-2.33844451551,-0.0157709757554,2.14773929172,-0.127845711398,-0.312497694556,-0.385470666294,-0.000672593141978,-0.396266246507,-0.0542699338575,0.0244868258691,-0.278453370322,0.573924051392,0.818888408946,0.00370186828684,0.0,0.818860778248,-0.573850572229,-0.011970526358,0.0,-0.00767835388091,0.00990167836898,-0.999921496742,0.0,0.475479739945,0.0164939280196,0.304668860544,1.0,-0.11998,-0.157688,3.202
0.159016468933,-0.189718871207,-0.127674500756,-2.34346107005,-0.0164557743422,2.1480321129,-0.131467864256,-0.313532506663,-0.380868536061,0.00245444989306,-0.380851747965,-0.0574563072898,0.0252500663828,-0.277145032201,0.573864325049,0.818929485873,0.0038704657132,0.0,0.818904336841,-0.573790631497,-0.0118636086984,0.0,-0.00749476630366,0.00997783506071,-0.999922132611,0.0,0.473968029248,0.0145019380702,0.304734239412,1.0,-0.11998,-0.157688,3.215
0.152663563539,-0.197221317207,-0.127690982572,-2.35121394601,-0.017668335317,2.14837840729,-0.137108183886,-0.323751936391,-0.368284294863,-0.000245536895637,-0.388035893413,-0.0579579971534,0.0104785761852,-0.284647913398,0.573757628054,0.819004078934,0.00390510444209,0.0,0.818979969785,-0.573684622142,-0.0117690403396,0.0,-0.00739873612561,0.00995097057474,-0.999923115489,0.0,0.471469826004,0.0112117787016,0.304770665613,1.0,-0.11998,-0.157688,3.236
0.148472646314,-0.202002593521,-0.127724880994,-2.3563373849,-0.0184422627605,2.14849703905,-0.140738554864,-0.318437210075,-0.374251874984,-0.00437788744924,-0.388956168384,-0.0560217793054,0.0146666984898,-0.282410768485,0.573793156961,0.818979780281,0.00377881159214,0.0,0.818953288042,-0.57371959727,-0.0119198412257,0.0,-0.00759427689657,0.00993438477334,-0.999921814422,0.0,0.469981911311,0.00931883867058,0.304702097644,1.0,-0.11998,-0.157688,3.248
0.141636589403,-0.209785421828,-0.127860896393,-2.36440076225,-0.0195961495622,2.14872956237,-0.146763904486,-0.329276737712,-0.369720784162,-0.00591301683996,-0.377133538999,-0.0564351168779,0.00804864243753,-0.293032792273,0.573874643485,0.818922455423,0.00382785450532,0.0,0.818895885403,-0.573799954879,-0.0119953137359,0.0,-0.00762695587829,0.0100186135874,-0.999920725321,0.0,0.467447504374,0.00597634037438,0.304693113755,1.0,-0.11998,-0.157688,3.269
0.137333269152,-0.214614251832,-0.127925768728,-2.36918869464,-0.0203026663521,2.14889671605,-0.1505168796,-0.330875520941,-0.373006879815,-0.00288813416624,-0.360682674834,-0.0551580883048,0.0168918444505,-0.284755679828,0.573953118828,0.818866624747,0.00400189519571,0.0,0.81884289614,-0.573878570227,-0.0118509483283,0.0,-0.00740788678929,0.0100790062583,-0.999921765363,0.0,0.465943908619,0.00390165622846,0.304777127594,1.0,-0.11998,-0.157688,3.282
0.130521829918,-0.222285210024,-0.127899670435,-2.37699773987,-0.0215137889096,2.14907590174,-0.156648287385,-0.326150778565,-0.364249566798,0.00164498165929,-0.381428628385,-0.0531206259657,0.00608431362715,-0.302712474085,0.573766034567,0.818997585393,0.00402983859351,0.0,0.818974569343,-0.573691897046,-0.0117902049845,0.0,-0.00734440506865,0.0100653482765,-0.999922371226,0.0,0.463445946106,0.000695100726137,0.304797531311,1.0,-0.11998,-0.157688,3.303
0.126169771407,-0.226978421245,-0.127926098274,-2.38192641247,-0.0223022513644,2.14907793664,-0.160456560225,-0.341246673781,-0.355255982767,-0.00114460024833,-0.370560624315,-0.055797899435,0.00109688016353,-0.293177886644,0.573762044642,0.819001140546,0.0038723137894,0.0,0.81897538265,-0.573687519211,-0.0119457028466,0.0,-0.00756219176021,0.0100255135796,-0.999921148058,0.0,0.461830057621,-0.00135710449232,0.304722593293,1.0,-0.11998,-0.157688,3.316
0.11938916273,-0.234246208274,-0.127987350568,-2.38928412696,-0.023394507376,2.14910739952,-0.166439272953,-0.333448227645,-0.364614096226,-0.00420721522942,-0.369560737169,-0.0516945261849,0.00718030828121,-0.297414660864,0.573794851971,0.818978052429,0.00389414841196,0.0,0.818952052539,-0.573719544065,-0.0120069688431,0.0,-0.00759944122003,0.0100788517939,-0.999920329446,0.0,0.459412139253,-0.00452040597595,0.304718899458,1.0,-0.11998,-0.157688,3.336
0.11456116739,-0.239331547347,-0.128133554994,-2.39425925317,-0.0242007541639,2.14914756881,-0.170653981517,-0.350393196345,-0.362345789533,-0.00947335526954,-0.35017732071,-0.0675447526961,0.00376641313938,-0.298598308446,0.57392636507,0.818885339463,0.00400938773793,0.0,0.818861420458,-0.573851403176,-0.0118864653993,0.0,-0.00743300258259,0.0101052833764,-0.999921313764,0.0,0.457771523027,-0.00680450451163,0.304784634754,1.0,-0.11998,-0.157688,3.35
0.107722783468,-0.246495679129,-0.128178591789,-2.40132195583,-0.0253169660059,2.14922495083,-0.176791916724,-0.34136766539,-0.358835120422,0.00105420788962,-0.357667587555,-0.0528220900116,6.18165702102e-05,-0.305233927798,0.573852889746,0.818936185124,0.00413914546494,0.0,0.818914749389,-0.573778603434,-0.0117257995573,0.0,-0.00722786761153,0.0101186860477,-0.999922682072,0.0,0.45542761426,-0.00993577451644,0.304842885426,1.0,-0.11998,-0.157688,3.37
0.103295437129,-0.251128501995,-0.128183257159,-2.40604938756,-0.026009407009,2.1491976337,-0.180754549185,-0.343488030254,-0.358898214174,-0.00177107957505,-0.359655713474,-0.0529864166345,-0.00532719871525,-0.308327021986,0.573802279619,0.818971822777,0.00410418111416,0.0,0.818949288659,-0.573727219904,-0.011827368601,0.0,-0.00733174235999,0.0101478826473,-0.999921629945,0.0,0.453827695679,-0.0119267581834,0.304793127565,1.0,-0.11998,-0.157688,3.383
0.0958943354375,-0.25849840805,-0.128216434969,-2.41345265232,-0.0271503584218,2.14914156297,-0.187298860305,-0.346839858568,-0.351228320246,-0.000182474345457,-0.341779831415,-0.0525393870948,-0.00654482680032,-0.31593355983,0.57381846311,0.818960564182,0.00408810590314,0.0,0.818937437165,-0.573742926302,-0.0118859341102,0.0,-0.00738873171676,0.0101684671894,-0.999921001339,0.0,0.451297737376,-0.0152436507883,0.304751214674,1.0,-0.11998,-0.157688,3.404
0.0916618931161,-0.262727543387,-0.128283092754,-2.41758384351,-0.0278083295707,2.14907561842,-0.191043440274,-0.353831991207,-0.356121182147,-0.00743618107633,-0.334846236599,-0.0619073444054,-0.00314632900851,-0.311043582112,0.573860833926,0.818930658001,0.00413129199792,0.0,0.818908196706,-0.573785285126,-0.0118557513852,0.0,-0.00733870501881,0.0101868963861,-0.999921182169,0.0,0.449868898963,-0.0171463444417,0.304768547821,1.0,-0.11998,-0.157688,3.416
0.0841438801489,-0.270103976021,-0.128432388311,-2.42456371234,-0.0289404134303,2.1490072733,-0.197754983619,-0.359149141687,-0.352997731218,-0.00395828118772,-0.337497241361,-0.0531678854152,-0.00350513818835,-0.312212231278,0.57393253257,0.818879150916,0.00437391745204,0.0,0.818861106905,-0.573858003106,-0.0115856278035,0.0,-0.00697735585952,0.0102311965752,-0.999923316621,0.0,0.447444211484,-0.0205139952566,0.304890531436,1.0,-0.11998,-0.157688,3.437
0.0795534388092,-0.274606655552,-0.128407293501,-2.42900405122,-0.0296391167305,2.14885398292,-0.201886751872,-0.360381413193,-0.341423740509,0.00251947678311,-0.342058936466,-0.0541741936297,-0.0117273809047,-0.31655657995,0.573846244,0.818939837547,0.00433331589008,0.0,0.818920990134,-0.573771446513,-0.0116398447777,0.0,-0.00704613532486,0.0102283214726,-0.999922863733,0.0,0.445867476107,-0.0224968956494,0.304867368935,1.0,-0.11998,-0.157688,3.45
0.0719454882643,-0.281834105856,-0.128441672071,-2.43616236721,-0.0308031412018,2.14858879814,-0.208729370261,-0.368332683723,-0.343879296195,0.000827150523835,-0.33224348769,-0.0602258646779,-0.0039688194438,-0.335722315819,0.573766160777,0.818996486722,0.00423017558918,0.0,0.818975713243,-0.573690860209,-0.0117611620349,0.0,-0.00720567604535,0.0102127644847,-0.999921885786,0.0,0.443295591555,-0.0257905060067,0.304799788374,1.0,-0.11998,-0.157688,3.471
0.0671948753216,-0.286274018419,-0.128491142116,-2.44043369801,-0.031499675576,2.14844396311,-0.212979179177,-0.371699566375,-0.338280797643,-0.005042646292,-0.323342180061,-0.0612783759767,-0.0160193172707,-0.329341435398,0.573773382165,0.818991255744,0.00426331267823,0.0,0.818971067652,-0.573698193593,-0.0117268886395,0.0,-0.00715850229399,0.0102203030653,-0.999922147595,0.0,0.441749495014,-0.0278420232434,0.304808072543,1.0,-0.11998,-0.157688,3.484
0.0593792736358,-0.293463502973,-0.128673823061,-2.4471550967,-0.032528414689,2.14818024306,-0.219941788156,-0.368409304634,-0.34356950083,-0.00678223595411,-0.31364349011,-0.0493800293335,-0.0103297845882,-0.330342131457,0.573945590959,0.818869338889,0.00449570319847,0.0,0.818852509518,-0.573870157868,-0.0115912236993,0.0,-0.00691188085847,0.0103342485485,-0.999922711618,0.0,0.439282828101,-0.031223030412,0.304892128135,1.0,-0.11998,-0.157688,3.505
0.0545852076765,-0.297846605992,-0.128678457542,-2.45125576447,-0.033181076133,2.14801245655,-0.224288711209,-0.372835062073,-0.339843407935,-0.000950263237138,-0.315133530373,-0.0465722160686,-0.0187222152899,-0.329574248043,0.573893138919,0.818905575933,0.00459017517788,0.0,0.818890451471,-0.573818168113,-0.0114841340155,0.0,-0.00677062582371,0.0103497156058,-0.999923518082,0.0,0.437766568543,-0.0332367932381,0.304935046591,1.0,-0.11998,-0.157688,3.518
0.0471111084281,-0.304543516157,-0.128691303604,-2.45774012849,-0.0342916233257,2.14756209741,-0.231007510367,-0.379705809232,-0.333716513261,-0.00260533282088,-0.321067169389,-0.060540904929,-0.0202352404364,-0.340976780651,0.57381548451,0.818960817854,0.004440209315,0.0,0.818943194165,-0.573740127656,-0.0116214262896,0.0,-0.0069701007156,0.0103050319601,-0.999922609011,0.0,0.43530848102,-0.0363552661389,0.304872830561,1.0,-0.11998,-0.157688,3.538
0.0422020541715,-0.308850787701,-0.128734470284,-2.46187610158,-0.0349716703227,2.14728845311,-0.235463410255,-0.372003764256,-0.327845333879,-0.0063951971298,-0.30911655592,-0.0486516354718,-0.0184247867189,-0.338491547759,0.573780273447,0.818985681306,0.00440437512079,0.0,0.818967220533,-0.5737044853,-0.0116876918347,0.0,-0.00704537814374,0.0103134044327,-0.999921995126,0.0,0.433726938613,-0.0383974182466,0.304841708796,1.0,-0.11998,-0.157688,3.551
0.0341291691691,-0.31576253161,-0.128916591455,-2.46832694406,-0.0359816041228,2.14687172101,-0.242700066922,-0.387637239412,-0.326149880181,-0.00907743267984,-0.301707433014,-0.0429807700059,-0.021779657464,-0.350911892934,0.573939215707,0.818873568264,0.00453902786571,0.0,0.818856641649,-0.573862665032,-0.0116700047517,0.0,-0.00695161364515,0.0104148870078,-0.999921599525,0.0,0.431228205037,-0.0417706569289,0.30486346907,1.0,-0.11998,-0.157688,3.572
0.0291713555743,-0.320023136756,-0.128930265775,-2.47224049584,-0.0366477962349,2.14659602506,-0.247191028976,-0.37470797269,-0.328438787051,0.000700357439459,-0.297958714044,-0.0467666590966,-0.0224934548387,-0.353432697772,0.5739003881,0.818900507585,0.00458804057889,0.0,0.81888469419,-0.57382441484,-0.0115821179696,0.0,-0.00685200450613,0.0104042585184,-0.999922397708,0.0,0.429698137875,-0.0437910159219,0.304897749763,1.0,-0.11998,-0.157688,3.585
