nelsonifechukwu/NELSON_IML_WORK/CNN-GradCAM/train2dof/data_sample_2022-02-21-09-04-30/robot_state.csv
position_joint1,position_joint2,position_joint3,position_joint4,position_joint5,position_joint6,position_joint7,velocity_joint1,velocity_joint2,velocity_joint3,velocity_joint4,velocity_joint5,velocity_joint6,velocity_joint7,ee_T_00,ee_T_10,ee_T_20,ee_T_30,ee_T_01,ee_T_11,ee_T_21,ee_T_31,ee_T_02,ee_T_12,ee_T_22,ee_T_32,ee_T_03,ee_T_13,ee_T_23,ee_T_33,v_x,v_y,time
0.465082243765,0.54758813833,-0.123983144355,-1.35573859575,0.0794612296951,1.89409836461,0.159174896286,0.0011810136096,-0.00312612524127,0.000479921252017,-0.00271600342393,-0.00015174197088,0.000399423760833,-0.00189535694308,0.573792047171,0.818986401228,0.00216981743579,0.0,0.818946538482,-0.573733026107,-0.0117357898834,0.0,-0.00836671748388,0.00851103124426,-0.999928777657,0.0,0.661702126684,0.260906612064,0.30339563388,1.0,0.0,0.0,0.0
0.465081297949,0.547600706623,-0.12398991607,-1.35573581137,0.079461229533,1.89409954149,0.159175565781,0.000103627222368,2.51842480989e-05,-0.00105832621351,-0.000341294863583,-0.000201929910246,0.000386021093295,-0.0012706785945,0.573797981437,0.818982268684,0.00216031978838,0.0,0.818942320509,-0.573739034438,-0.011736393926,0.0,-0.00837259993274,0.00850366016645,-0.999928791132,0.0,0.661704469376,0.260902311467,0.303388381914,1.0,-0.0002,-0.000262857142857,0.011
0.465081839354,0.547592274286,-0.123985442352,-1.35574216476,0.07946016509,1.89410109329,0.159181930099,0.00032917529373,-0.00150984062467,-0.00085540308373,-0.00117500402065,-0.00027788958978,5.58275506384e-05,0.000566927334518,0.573799684341,0.818981065312,0.00216421150481,0.0,0.81894115106,-0.573740705392,-0.0117363102253,0.0,-0.00837028076961,0.00850681674608,-0.999928783698,0.0,0.66170243646,0.260904548718,0.303391316183,1.0,-0.00054,-0.000709714285714,0.028
0.46507862067,0.547570659992,-0.123980810081,-1.35575522356,0.079458173953,1.89410182897,0.159179170655,-0.000197974695983,-0.00526804620484,0.00686493799528,-0.000159775623797,0.000218208325852,-9.88731571111e-05,0.000440786797514,0.573796974671,0.818982940079,0.00217315851487,0.0,0.818943124699,-0.573737944319,-0.0117335697252,0.0,-0.00836293094455,0.00851254392793,-0.999928796456,0.0,0.661700048618,0.26090356184,0.303400319199,1.0,-0.00084,-0.001104,0.043
0.46508031665,0.547458036377,-0.123983576652,-1.35586137694,0.0794578813311,1.89411941243,0.159175606559,-0.000998752396317,-0.010523022683,0.000744980125092,-0.00914671108288,5.74271606082e-05,0.000536878710921,-0.000259874914766,0.573800235008,0.81898058862,0.00219833317637,0.0,0.818941033093,-0.5737410402,-0.0117281715409,0.0,-0.00834403151713,0.00853009705972,-0.999928804757,0.0,0.661682405252,0.260893110137,0.303431192425,1.0,-0.00118,-0.00155085714286,0.06
0.465074640073,0.547332451064,-0.123986397709,-1.35603168637,0.0794558850467,1.89415461857,0.159179501873,-0.0028621510153,-0.00818353672753,-0.000558636087685,-0.0111274895504,-1.35861559873e-05,0.0030656392882,0.000808008057011,0.573818835294,0.81896756448,0.0021953341854,0.0,0.818927876283,-0.573759553831,-0.011741155583,0.0,-0.00835619251183,0.00853528091441,-0.999928658968,0.0,0.661655938618,0.26087121886,0.303442235333,1.0,-0.00152,-0.00199771428571,0.077
0.465059854866,0.547175184202,-0.123989198798,-1.35623404375,0.0794508721255,1.8942468348,0.159169507284,-0.000931321230879,-0.0119198093966,-0.00105135413021,-0.0182590022549,-2.24967395147e-05,0.0120715376045,-0.000439006341399,0.573834783494,0.818956273037,0.0022385277787,0.0,0.818917119661,-0.573775309859,-0.0117214258013,0.0,-0.00831508331022,0.00855949535458,-0.999928794679,0.0,0.66163687087,0.260843317086,0.303465409956,1.0,-0.00186,-0.00244457142857,0.094
0.465045403715,0.546982328015,-0.12398320956,-1.35644279027,0.0794500977834,1.89436876683,0.159153369004,-3.59361439903e-05,-0.0124930142974,-0.00109842137579,-0.012277820757,0.000197329740098,0.0049374067006,-0.00119351812394,0.57384087801,0.81895172914,0.0023364427215,0.0,0.818913773983,-0.573780965063,-0.011678262439,0.0,-0.0082234851858,0.00861497536338,-0.99992907573,0.0,0.661620854458,0.2608231455,0.303513047357,1.0,-0.0022,-0.00289142857143,0.111
0.465021857796,0.546781544049,-0.123988551776,-1.35669195837,0.0794441406532,1.89448606834,0.159136285218,-1.12975550646e-05,-0.0182264576077,-0.00130183582781,-0.0167447859329,0.000186244801349,0.00978359711929,0.000530008263862,0.573862354116,0.81893650051,0.00239865847459,0.0,0.818899334613,-0.573802194514,-0.0116476710969,0.0,-0.00816250466408,0.00864858629653,-0.999929285236,0.0,0.661600107245,0.260784542855,0.303547012752,1.0,-0.00254,-0.00333828571429,0.128
0.464975111938,0.54652212035,-0.123986012124,-1.35705925499,0.0794330903711,1.89463320076,0.159083500629,-0.00389824755797,-0.0192749645444,-0.000264496105418,-0.0206908877582,-0.00146732936438,0.00505129124965,-0.0091310768214,0.573873284047,0.818928722335,0.00243895304304,0.0,0.81889198517,-0.573812879538,-0.0116379896268,0.0,-0.0081313378604,0.00867613746852,-0.999929300492,0.0,0.661564270588,0.260723097913,0.303568588225,1.0,-0.0029,-0.00381142857143,0.146
0.464939963282,0.546254765096,-0.123988789546,-1.35747095047,0.0794199550423,1.89478598055,0.158950361933,-0.00359374813796,-0.0170195336264,-0.00151779285957,-0.024916637994,0.000244744593519,0.014023563271,-0.00442126097194,0.573814527068,0.818969852656,0.00245272647417,0.0,0.818933197783,-0.573753978017,-0.0116420435965,0.0,-0.00812737763448,0.00868916016845,-0.999929219609,0.0,0.661517871031,0.260661124919,0.303575291913,1.0,-0.00324,-0.00425828571429,0.163
0.464896146532,0.545986745627,-0.123985968434,-1.35792194638,0.0793946075258,1.894932929,0.158947548033,-0.00289877975273,-0.0166983847303,-0.000256698916749,-0.0322439007516,-0.00496382673781,0.00706881546326,-0.000775261538596,0.573864545821,0.818934892634,0.00242313382562,0.0,0.818897798589,-0.573804037365,-0.0116648648218,0.0,-0.00816251800199,0.0086785183969,-0.99992902579,0.0,0.661462933099,0.260589625337,0.303563026011,1.0,-0.00356,-0.00467885714286,0.179
0.464847305593,0.545676839996,-0.123989230389,-1.35844219192,0.079354921974,1.89511122364,0.15888746166,-0.00288177466718,-0.0147492440458,0.000585613621643,-0.0338795594239,-0.000308625511369,0.0105185684778,-0.00885613101829,0.573876123256,0.818926876906,0.00239004997279,0.0,0.818889417691,-0.573815800744,-0.0116745583445,0.0,-0.00818931883509,0.00865710358999,-0.999928992286,0.0,0.661402922837,0.260503419982,0.303550335766,1.0,-0.0039,-0.00512571428571,0.196
0.464787613041,0.545336283537,-0.123991374299,-1.35904986824,0.0792884453426,1.895307785,0.158778893725,-0.00423531629749,-0.0173757887245,0.000847586501542,-0.0371106281347,-0.00139591290889,0.0089979564518,-0.00660299396157,0.573853806332,0.818942737118,0.00231282960414,0.0,0.818904498292,-0.573794002181,-0.011688140964,0.0,-0.00824498913958,0.00860143635207,-0.999929015204,0.0,0.661331299036,0.260397610789,0.303519206524,1.0,-0.00424,-0.00557257142857,0.213
0.464728431618,0.544910751078,-0.123992436809,-1.35977512027,0.0792682309785,1.89553205509,0.158724218701,-0.00128360749117,-0.0233874869074,-0.000417276102532,-0.0392293097754,-0.000549665771195,0.0177280586372,-0.00544649783664,0.573893141964,0.818915316309,0.00226124360368,0.0,0.818876143778,-0.573833251571,-0.0117476569652,0.0,-0.00832291969181,0.00859374366497,-0.999928435728,0.0,0.661237377237,0.260289302001,0.303494693687,1.0,-0.0046,-0.00604571428571,0.231
0.464672691871,0.544569229795,-0.123992439407,-1.36036150972,0.0792437292943,1.89573863932,0.158641699577,-0.00729295025936,-0.0215947227943,0.000369995244173,-0.0444082283938,-0.00043457201885,0.0205973676127,-0.00341414020773,0.573895983822,0.818913397344,0.00223479405431,0.0,0.818873775739,-0.573836085224,-0.0117742771308,0.0,-0.00835986876838,0.00858738993687,-0.999928182085,0.0,0.66116426562,0.260189940564,0.303477036089,1.0,-0.0049,-0.00644,0.246
0.464596959953,0.544087001305,-0.123993282966,-1.36115830326,0.0792081337178,1.89602186731,0.158536821651,-0.00337515079245,-0.0269391385945,0.00168290638861,-0.0485696912066,0.000277905213783,0.0239474654268,0.00022049536032,0.573909076022,0.818904280607,0.00221326978508,0.0,0.818864236068,-0.573849112078,-0.0118028113961,0.0,-0.00839545151299,0.00858627336697,-0.999927893552,0.0,0.661076483366,0.260072029734,0.303461776973,1.0,-0.00524,-0.00688685714286,0.263
0.464537623641,0.5436189154,-0.123998839743,-1.36191941281,0.0791695495742,1.89629655448,0.15844412315,-0.00117401543533,-0.0352065496892,0.000345109148747,-0.0519635119915,-0.00358790421534,0.0190141827457,-0.00402009378166,0.573917773525,0.818898221721,0.00219968063746,0.0,0.818857945312,-0.573857805048,-0.0118165936624,0.0,-0.00841444563871,0.00858314434466,-0.99992776076,0.0,0.660987320641,0.259957784453,0.303454684848,1.0,-0.00556,-0.00730742857143,0.279
0.464459344296,0.543123336253,-0.124005244556,-1.36271082472,0.079124052418,1.89656824687,0.158338890932,-0.00557864066532,-0.0289225821399,-0.000236215970813,-0.0500591121908,-0.000920402489922,0.0134996745748,-0.0047078308086,0.573929932206,0.818889759487,0.00217752772424,0.0,0.818849158594,-0.573870012062,-0.0118326509137,0.0,-0.0084401812991,0.00857434436424,-0.99992761936,0.0,0.660890717724,0.259818779767,0.303450453932,1.0,-0.0059,-0.00775428571429,0.296
0.464389600576,0.542551097753,-0.124007410959,-1.36360549708,0.0790612648986,1.89688074525,0.158235197651,-0.00174874189097,-0.0394826620079,-0.00126633457646,-0.0533226287767,-0.000700541225426,0.0205034291514,-0.00328289474104,0.573938624017,0.81888369968,0.00216544718318,0.0,0.818843009939,-0.573878819682,-0.0118309887588,0.0,-0.00844566217726,0.00856358757391,-0.999927665263,0.0,0.660790120929,0.259690990284,0.30345835037,1.0,-0.00622,-0.00817485714286,0.312
0.464314203687,0.541967390185,-0.124008421118,-1.36452274518,0.0790076910156,1.89722174143,0.158104599831,-0.00419790083631,-0.037431400892,-0.000152020302673,-0.0605384142176,-0.00234805063633,0.0207157148334,-0.0104013875694,0.573930827839,0.81888914612,0.00217212453609,0.0,0.8188485244,-0.57387097907,-0.0118296394682,0.0,-0.00844080664047,0.0085682007086,-0.999927666744,0.0,0.660684867523,0.259553843324,0.303464124769,1.0,-0.00656,-0.00862171428571,0.329
0.464230948907,0.541341131963,-0.124009131516,-1.36548660633,0.0789610831788,1.89757679446,0.157964729831,-0.00597276695536,-0.0343621063546,0.000227786143384,-0.061983138003,-0.00012019211525,0.027450109397,-0.00237342396719,0.573926009107,0.818892466915,0.00219330834261,0.0,0.81885200975,-0.573865964797,-0.01183163033,0.0,-0.00843033025042,0.00858664064031,-0.999927596946,0.0,0.660574217967,0.259408792689,0.303478942108,1.0,-0.0069,-0.00906857142857,0.346
0.464142597774,0.540663159869,-0.124011616515,-1.36650835022,0.0788991238916,1.89795572259,0.157842932396,-0.00706706556821,-0.0394109630549,0.000125760098764,-0.0637788064079,-0.00306288256423,0.0227920610272,-0.0065038072918,0.573940433467,0.818882278387,0.00222258349704,0.0,0.818842212107,-0.573880283262,-0.0118152044115,0.0,-0.00839992638581,0.00860133433106,-0.99992772653,0.0,0.660458748648,0.259252302366,0.303504776167,1.0,-0.00724,-0.00951542857143,0.363
0.464051618394,0.539991750508,-0.124012189831,-1.36752500534,0.0788375424597,1.89832941737,0.157714662181,-0.00925167831866,-0.0431606794591,3.22215699601e-05,-0.0583384398077,-0.00287072040366,0.0205978982674,-0.00299696777156,0.573950096478,0.818875439583,0.00224679810092,0.0,0.818835682616,-0.573889845475,-0.0118032637836,0.0,-0.00837614947119,0.00861440869807,-0.999927813436,0.0,0.66034327532,0.259095418224,0.303527774817,1.0,-0.00756,-0.009936,0.379
0.463960103503,0.539253279111,-0.124023279264,-1.36867917259,0.0787631309409,1.89876558754,0.157566371487,-0.00823115539927,-0.0418782500628,-0.0028597525029,-0.0694276932968,-0.00440556852618,0.0217689085191,-0.00521133675404,0.573955400698,0.818871690861,0.0022580560773,0.0,0.818832176915,-0.573895205233,-0.0117858542737,0.0,-0.00835537572831,0.00861368952582,-0.999927993432,0.0,0.66021330985,0.258918811004,0.303538356416,1.0,-0.0079,-0.0103828571429,0.396
0.463863409258,0.538554491796,-0.124020396935,-1.36977440698,0.0787125234104,1.8991908223,0.157425515013,-0.00474347867709,-0.0474764559012,-0.000924907794618,-0.0715656503403,-0.000288423424006,0.0226947904256,-0.00400179504153,0.573966178968,0.81886403013,0.00229618416938,0.0,0.818824885244,-0.573905705537,-0.0117811441852,0.0,-0.00832952238039,0.00864231744224,-0.999927962108,0.0,0.66008250426,0.258744907151,0.303552095084,1.0,-0.00824,-0.0108297142857,0.413
0.463745250198,0.537729187684,-0.12402584046,-1.37107863235,0.0786277914306,1.89969016388,0.157266181813,-0.00447566657291,-0.0429819052792,-2.25296427055e-06,-0.0752471302008,-0.0153776365674,0.0290758691355,-0.0128476708795,0.573983856065,0.818851623972,0.00230169431078,0.0,0.818812631152,-0.573923443023,-0.0117687516681,0.0,-0.00831602520113,0.008639896183,-0.999928095374,0.0,0.659946228819,0.258551521179,0.303553000781,1.0,-0.00858,-0.0112765714286,0.43
0.463643279358,0.536916651754,-0.124036103325,-1.37234245754,0.0785584377229,1.90015830108,0.157106020623,-0.00628307342478,-0.0508120913831,0.00106653025501,-0.0766198512245,-0.00498242946762,0.0316000170097,-0.0154446470045,0.573994479982,0.818844133811,0.00231697543221,0.0,0.818805315929,-0.573933983201,-0.0117636914029,0.0,-0.00830299861692,0.00864961226209,-0.999928119627,0.0,0.659800679247,0.258359464895,0.303566063082,1.0,-0.00892,-0.0117234285714,0.447
0.463521949805,0.536123468579,-0.124033299995,-1.37359235855,0.0784887303027,1.9006308403,0.156967471431,-0.00862878696815,-0.0511638460788,-0.000310942544949,-0.0721209611102,-0.00280529532325,0.0339916949771,-0.00570018039456,0.574028580108,0.818820183719,0.00233299255211,0.0,0.818781512108,-0.573967954123,-0.0117630766186,0.0,-0.00829294126061,0.00866272012282,-0.999928089617,0.0,0.65966048265,0.258163873171,0.303571903556,1.0,-0.00924,-0.012144,0.463
0.463412185462,0.53524693012,-0.124044883749,-1.37497422175,0.0783976495573,1.90112871263,0.156792385532,-0.0112463958489,-0.0513157577897,-0.00166194510739,-0.0848089538373,-0.00609701471778,0.0296053788375,-0.00460393057484,0.574034637114,0.818815975883,0.00231946856232,0.0,0.818777215732,-0.573974152333,-0.0117596919258,0.0,-0.00829786837807,0.00864976503341,-0.999928160892,0.0,0.65949809067,0.257951278996,0.303576243073,1.0,-0.00958,-0.0125908571429,0.48
0.463286474916,0.534346798141,-0.124048171652,-1.37641642448,0.078338688073,1.90165386827,0.156613590873,-0.0045539330022,-0.0538998933083,-0.00142786807725,-0.0900852869643,0.000100853946333,0.0282024828951,-0.0139049759195,0.57405680758,0.818800434099,0.00231898499755,0.0,0.818761406586,-0.573996049864,-0.0117915531897,0.0,-0.00832400090496,0.00866788368256,-0.999927786793,0.0,0.659327839783,0.257733176215,0.303570500104,1.0,-0.00992,-0.0130377142857,0.497
0.463163574181,0.533427230139,-0.124045706839,-1.37789185408,0.0782357517284,1.90219660036,0.156430471582,-0.00712488093846,-0.0555620140664,-0.000487986119244,-0.0852119849986,-0.00401110673897,0.0335298343613,-0.0139579208986,0.574058902544,0.818799019784,0.00229967644725,0.0,0.818759824884,-0.573998305221,-0.01179159279,0.0,-0.00833509471125,0.00865211808159,-0.99992783092,0.0,0.659153904584,0.257510702388,0.303563727995,1.0,-0.01026,-0.0134845714286,0.514
0.463033986235,0.532531443563,-0.124052058741,-1.37932505854,0.0781610374229,1.90274441219,0.156246450654,-0.00984309719787,-0.0592154108407,-0.00129488679076,-0.0955274121427,-0.00462469640938,0.0397140938761,-0.00659413318108,0.574077260225,0.818786114906,0.00231175926359,0.0,0.818747007746,-0.5740165424,-0.0117937805294,0.0,-0.008329756054,0.00866345399205,-0.999927777256,0.0,0.658991994764,0.257288306374,0.303560880091,1.0,-0.01058,-0.0139051428571,0.53
0.46290306831,0.531565274315,-0.124047511585,-1.38087718406,0.0780663533579,1.90331797903,0.156051276013,-0.0097534836566,-0.0582719668292,-0.000121661489145,-0.0889286831805,-0.00367732581424,0.0361062759855,-0.00949171276592,0.574080717316,0.818783722501,0.00230058132275,0.0,0.818744431407,-0.57402000175,-0.0118042590845,0.0,-0.0083447161613,0.00866035240823,-0.999927679389,0.0,0.658807931965,0.257056732135,0.303552705654,1.0,-0.01092,-0.014352,0.547
0.462771267982,0.530558438287,-0.124054461905,-1.38250817708,0.0779634657044,1.90389027842,0.155844479911,-0.0065051149311,-0.0616859077383,-0.001424615552,-0.100398826506,-0.00425313409986,0.035609292636,-0.00909332930716,0.574085202275,0.818780712435,0.0022521934786,0.0,0.818740792443,-0.574024673648,-0.0118294435455,0.0,-0.0083930671799,0.00863523741911,-0.99992749192,0.0,0.658609146961,0.256807695748,0.303535692242,1.0,-0.01126,-0.0147988571429,0.564
0.462614979184,0.529390375226,-0.124057768483,-1.38435665931,0.0778504594393,1.90456294549,0.155596331284,-0.0100662093059,-0.0617078111628,-0.00201252839885,-0.0999467674211,-0.00583097175352,0.0382681141431,-0.0140515655198,0.574082298833,0.818782771191,0.00224380682458,0.0,0.818742724792,-0.574021785488,-0.0118358475205,0.0,-0.00840315581928,0.00863201725975,-0.999927434992,0.0,0.658389343797,0.256526144136,0.303537063918,1.0,-0.01164,-0.0152982857143,0.583
0.462484685458,0.528363716098,-0.124053161948,-1.385934598,0.0777620301221,1.90515233147,0.155372826948,-0.010717690172,-0.0680791881534,-0.00057069864072,-0.0979012302678,-0.00895323809511,0.0396124693162,-0.0113891335994,0.574064503171,0.818795144611,0.00228128501749,0.0,0.818755488559,-0.574003746004,-0.0118277820935,0.0,-0.00837522565301,0.00865789117142,-0.999927445626,0.0,0.658202114342,0.256294906991,0.30355987395,1.0,-0.01196,-0.0157188571429,0.599
0.462344831115,0.527247917795,-0.124055676423,-1.38766590593,0.0776375708291,1.90582375586,0.155128330508,-0.00973751784778,-0.0708918305757,-0.000147022389707,-0.109402666271,-0.00461897822154,0.0409565600382,-0.0110889314806,0.574042360095,0.818810587465,0.00231031888461,0.0,0.818771552303,-0.573981746473,-0.0117833253254,0.0,-0.00832239089548,0.00865591791227,-0.999927903849,0.0,0.657993367904,0.256016619242,0.303575636471,1.0,-0.01232,-0.016192,0.617
0.462203449624,0.526169365374,-0.124057915418,-1.38935849496,0.0775467236527,1.9064640362,0.154896683639,-0.00400060121301,-0.0689243500968,-0.000813724556394,-0.107455503345,-0.00119899231841,0.0338570309544,-0.00512471753808,0.574035587697,0.818815241647,0.00234328929939,0.0,0.818776497571,-0.573974706326,-0.0117826323218,0.0,-0.00830297000227,0.00868244763884,-0.999927835292,0.0,0.657804317649,0.255783642816,0.303588398136,1.0,-0.01262,-0.0165862857143,0.632
0.46205499261,0.525065923329,-0.124064763893,-1.39107973966,0.0774317411377,1.90708345558,0.154672997679,-0.00944960716509,-0.0700348029573,-0.000369708254382,-0.105421269939,-0.0147804020136,0.0321224265985,-0.0130064223844,0.574040392246,0.818811889927,0.00233749557373,0.0,0.818773147568,-0.573979612729,-0.0117764125868,0.0,-0.00830115166549,0.0086741821138,-0.999927922125,0.0,0.657598777742,0.255515654233,0.303599199972,1.0,-0.01294,-0.0170068571429,0.648
0.46189250798,0.523887952296,-0.124073704367,-1.39296192214,0.0773134185029,1.90775243248,0.15440290153,-0.0168329904374,-0.0691484143081,-0.00109187897219,-0.118551813937,-0.00713167413137,0.033381268312,-0.017914338717,0.574027713229,0.818820875395,0.00230333753727,0.0,0.818781695767,-0.57396707224,-0.0117932845885,0.0,-0.00833470817686,0.00865576944887,-0.999927802541,0.0,0.657370962193,0.255221961068,0.303589916668,1.0,-0.01328,-0.0174537142857,0.665
0.461747130894,0.522683776046,-0.124075074574,-1.39489699472,0.0771959790254,1.90848495942,0.154148097614,-0.00876808233826,-0.0749035782871,0.000353176400788,-0.112107828412,-0.0049757070474,0.0467980044272,-0.00517631365754,0.574011333866,0.818832360784,0.00230226564084,0.0,0.81879316182,-0.573950693412,-0.0117943456546,0.0,-0.00833636543615,0.00865533408669,-0.999927792495,0.0,0.657137327485,0.254942444397,0.303578853768,1.0,-0.01362,-0.0179005714286,0.682
0.461581786692,0.521453262148,-0.124082613574,-1.39685125965,0.0770757004667,1.90926037505,0.153883716975,-0.00703277529319,-0.0765729425969,-0.00502157602518,-0.113490832519,-0.006318967637,0.0434085504132,-0.0131253369126,0.57400802806,0.818834570313,0.00234031734408,0.0,0.818795956007,-0.573947337455,-0.0117636369776,0.0,-0.00828941331835,0.00866883134332,-0.999928065908,0.0,0.656914434846,0.254646741436,0.30358074286,1.0,-0.01396,-0.0183474285714,0.699
0.461421328075,0.520256199629,-0.124086499892,-1.39876669441,0.0769588780553,1.90995783329,0.153628633387,-0.00639787134796,-0.0787352282088,-0.00102668025669,-0.124252912721,-0.00395802751205,0.0397720042829,-0.0126736308095,0.574003933162,0.81883749685,0.00232063972376,0.0,0.818798598934,-0.573943288338,-0.0117772261851,0.0,-0.00831187884453,0.00866047744743,-0.999927951805,0.0,0.656681323055,0.254355909271,0.303570403844,1.0,-0.01428,-0.018768,0.715
0.461230384547,0.518770335703,-0.124086796377,-1.40107366736,0.0768057368275,1.91078341608,0.153312533695,-0.0118742848725,-0.0811556398499,0.00106927809457,-0.127119758186,-0.0099984356882,0.0413203536788,-0.011709735591,0.573982732429,0.818852364567,0.00231836527814,0.0,0.818813475291,-0.573922138667,-0.0117736285996,0.0,-0.00831046246185,0.00865633490587,-0.999927999448,0.0,0.656397080732,0.254007383321,0.303587019154,1.0,-0.01466,-0.0192674285714,0.734
0.461089007991,0.517658681078,-0.124090569541,-1.40281671067,0.0766945155716,1.91140364797,0.153072566282,-0.0121811318667,-0.078714861229,-0.000301209770664,-0.125708789032,-0.00406643029648,0.0379268137049,-0.0112001152408,0.573972712773,0.818859435359,0.00230152458593,0.0,0.818820318357,-0.573912175069,-0.0117833973855,0.0,-0.00832823349288,0.00864805015894,-0.99992792328,0.0,0.656164471097,0.253725588507,0.303588623997,1.0,-0.01496,-0.0196617142857,0.749
0.460880504325,0.516158419156,-0.124096480072,-1.40519822468,0.0765514148754,1.91229265009,0.152737023308,-0.0125126269503,-0.0793822648957,0.000269231404554,-0.125800102619,-0.003342738598,0.0480921513402,-0.0184345269725,0.573954554418,0.818872136901,0.00231079432989,0.0,0.818833125986,-0.573893968721,-0.0117801254024,0.0,-0.00832042572631,0.00865357817916,-0.999927940454,0.0,0.655895232326,0.253378272741,0.303587460009,1.0,-0.01532,-0.0201348571429,0.767
0.460694264588,0.514797697791,-0.124105659581,-1.40740146267,0.0764139139993,1.91312476262,0.152453908289,-0.0113211399915,-0.0782509928698,-0.000858544293399,-0.130907298234,-0.00659272527246,0.052057852029,-0.0166085998411,0.573961005035,0.818867659153,0.00229529830969,0.0,0.818828498607,-0.573900531324,-0.0117820590686,0.0,-0.0083308346044,0.0086420645197,-0.999927953362,0.0,0.65563105141,0.253041414109,0.30356529919,1.0,-0.01566,-0.0205817142857,0.784
0.460525597105,0.513549248627,-0.124108883851,-1.40939689024,0.0762987633589,1.91380886708,0.152162823081,-0.00910713537038,-0.0829546870283,-0.00370461932679,-0.135919894854,-0.00941118836256,0.0466564429924,-0.0204195812435,0.573936648955,0.818884866463,0.00224618908462,0.0,0.818844907202,-0.573876202172,-0.0118266407578,0.0,-0.00839578432128,0.00862718915761,-0.999927538581,0.0,0.65537591629,0.252736426461,0.303549924762,1.0,-0.01596,-0.020976,0.799
0.460330719932,0.512145360229,-0.124106797644,-1.41167230417,0.076160264814,1.91461287595,0.151852791642,-0.0146861435351,-0.0855877082638,0.00131240315006,-0.13102518892,-0.0105113099667,0.0510187401838,-0.0244507587663,0.573922615708,0.818894855822,0.00218933517608,0.0,0.818854040037,-0.573862275201,-0.0118700091426,0.0,-0.00846407551977,0.00860537832971,-0.999927150791,0.0,0.655088127143,0.252390600464,0.30352005225,1.0,-0.0163,-0.0214228571429,0.816
0.460110067392,0.51051701508,-0.12411383359,-1.41426570662,0.0759929476166,1.91560220319,0.151482950646,-0.0136479765162,-0.0852203049721,-3.95294308708e-06,-0.140770002649,-0.00814414155877,0.0620040029015,-0.0200417544282,0.573895964725,0.818913502306,0.0022009804411,0.0,0.818872939998,-0.573835685115,-0.0118516466495,0.0,-0.00844263489341,0.00860410116781,-0.99992734304,0.0,0.654776640291,0.251995711551,0.303511833709,1.0,-0.01668,-0.0219222857143,0.835
0.459924315279,0.509125211239,-0.124116468208,-1.41648499143,0.0758592387077,1.91641991904,0.1511710836,-0.0106542554463,-0.082761894064,-0.000273128381479,-0.138446432519,-0.011459198039,0.048494199794,-0.0189608574417,0.573874094967,0.818928851592,0.0021922722252,0.0,0.818888119832,-0.573813795413,-0.0118626427333,0.0,-0.00845686716521,0.00860305467861,-0.999927231776,0.0,0.654501289985,0.251661412721,0.303500579528,1.0,-0.017,-0.0223428571429,0.851
0.459713093253,0.50761579867,-0.124124484874,-1.41885718945,0.0757052924973,1.91726503387,0.150838023054,-0.0159589836836,-0.0860332656639,0.000201861819241,-0.141091923109,-0.0070649176334,0.0561301600486,-0.024248815356,0.573861306516,0.818937868535,0.00217146589537,0.0,0.818896888449,-0.573801114181,-0.0118707351799,0.0,-0.00847556819698,0.00859052765902,-0.999927181138,0.0,0.654205760844,0.251289430343,0.303500845597,1.0,-0.01734,-0.0227897142857,0.868
0.459522406919,0.506239617172,-0.124130885731,-1.42101270942,0.0755715937934,1.91805455894,0.150548780187,-0.012513836384,-0.0951492767008,0.000499432882372,-0.148909154894,-0.00235634627527,0.0579850396241,-0.0179589479996,0.573860539186,0.818938390026,0.00217756939305,0.0,0.81889748282,-0.573800315957,-0.0118683166135,0.0,-0.00847009316957,0.00859413012933,-0.999927196574,0.0,0.653939976358,0.250955310276,0.303505733985,1.0,-0.01764,-0.023184,0.883
0.459295195479,0.504610512353,-0.12413234362,-1.42347297718,0.0754095493268,1.91901888458,0.15021807346,-0.0117196890305,-0.106622319547,0.000686036231416,-0.149368137105,-0.0143272619903,0.0651517272656,-0.0217755970422,0.573860059498,0.818938439578,0.00228280412683,0.0,0.818899050791,-0.573799577949,-0.0117955864729,0.0,-0.00835014790174,0.00863856840697,-0.999927822478,0.0,0.65365139633,0.250574656415,0.303556749404,1.0,-0.01798,-0.0236308571429,0.9
0.45906834064,0.502956370349,-0.124143336546,-1.42594237762,0.0752606305506,1.91995637568,0.149863114379,-0.017868236348,-0.103781479705,-0.00169567435432,-0.147910104278,-0.00264366934436,0.0643249997931,-0.0136134427104,0.573849768364,0.818945355767,0.00238631867094,0.0,0.818907341286,-0.573788927787,-0.0117379571307,0.0,-0.00824366096282,0.00869016517138,-0.999928258968,0.0,0.653356207392,0.250188303839,0.303618249682,1.0,-0.01832,-0.0240777142857,0.917
0.458839401982,0.501246431732,-0.12414154039,-1.42847599075,0.0750935641917,1.92086773491,0.149504809893,-0.015227294061,-0.106678611368,0.000968916786557,-0.155657864089,-0.0143719988699,0.0545193885923,-0.0265466282742,0.573826628999,0.818961356834,0.00245820366309,0.0,0.818924298134,-0.573765551322,-0.0116975614389,0.0,-0.00816957549725,0.00872562295273,-0.999928558218,0.0,0.653039317493,0.249796700922,0.303684761612,1.0,-0.01866,-0.0245245714286,0.934
0.458596507463,0.499536109203,-0.124144707496,-1.43107156761,0.0749299088662,1.92179173896,0.149130195941,-0.0158694823476,-0.10485351041,-0.000618830220758,-0.148652061057,-0.00592495467374,0.0564806963428,-0.0216714004505,0.573808847125,0.818973717093,0.00249089821933,0.0,0.818937040935,-0.573747608863,-0.0116855128051,0.0,-0.00814113770299,0.00874530782204,-0.999928618186,0.0,0.652713308272,0.249387262212,0.303722702064,1.0,-0.019,-0.0249714285714,0.951
0.458355097926,0.497967106403,-0.124144739775,-1.43355374313,0.0747817703147,1.9227252424,0.148775163571,-0.0146766419121,-0.108034770085,-0.00074799285732,-0.151901931459,-0.00432025474314,0.0604995457947,-0.0252037245828,0.57380220577,0.818978314333,0.00250922418109,0.0,0.818941809478,-0.573740830981,-0.0116841112611,0.0,-0.0081295458973,0.00875944605183,-0.999928588744,0.0,0.652409830163,0.248995382721,0.303716310473,1.0,-0.01932,-0.025392,0.967
0.458092973313,0.496313235878,-0.124147929252,-1.43622286709,0.0746154905571,1.923666292,0.148373883563,-0.0163369388766,-0.0948479922481,-0.00150909606762,-0.163545114762,-0.0151433669923,0.0571625822824,-0.0234114391367,0.573780589857,0.818993652969,0.00244499486693,0.0,0.818956214186,-0.573719343753,-0.0117294820866,0.0,-0.00820378847935,0.00873266102108,-0.999928216667,0.0,0.652070554925,0.248564936256,0.303680301649,1.0,-0.01966,-0.0258388571429,0.984
0.457825317273,0.494633134951,-0.124147930227,-1.43896434295,0.0744378842854,1.92460946251,0.147986944256,-0.016939694191,-0.0994552194682,-0.000130782564108,-0.164586720815,-0.00614808025827,0.0636127748593,-0.0206040827609,0.573772761389,0.818999442126,0.00234072330124,0.0,0.818960549345,-0.573711802129,-0.0117954913242,0.0,-0.00831776037336,0.00868505888399,-0.999927689693,0.0,0.651714833898,0.248123053984,0.303627613135,1.0,-0.01998,-0.0262594285714,1.001
0.457513426009,0.492676063151,-0.124150391641,-1.44211223782,0.0742376542636,1.92577512642,0.147555183422,-0.0113361101451,-0.110552330579,0.000925544725998,-0.172294982608,-0.013636106578,0.0676227341435,-0.0188863039322,0.573780410523,0.81899416097,0.00231337381221,0.0,0.818954903912,-0.573719545975,-0.0118107927315,0.0,-0.00834590319481,0.00867151728375,-0.999927572721,0.0,0.651323523033,0.247617835734,0.303592954695,1.0,-0.0215434285714,-0.0283142204082,1.02
0.457250515021,0.491016420723,-0.124152958969,-1.44477452404,0.0740738274994,1.92671953254,0.147169922466,-0.020772077721,-0.116887988815,2.718518711e-05,-0.17986834987,-0.00572139037189,0.0612780488505,-0.0296767947718,0.573770791773,0.819001037181,0.00226417896342,0.0,0.818961021366,-0.57370999654,-0.01185041157,0.0,-0.00840667911619,0.00865386095941,-0.99992721657,0.0,0.650982636396,0.24718919502,0.303562493255,1.0,-0.0227777142857,-0.0299364244898,1.035
0.456906924599,0.488920024191,-0.124161853229,-1.44815482391,0.073862429716,1.92790994075,0.146688125657,-0.0240830144106,-0.117736542043,-0.000676844459531,-0.190066523776,-0.0116715444263,0.0679958486819,-0.027440299518,0.573774915526,0.818998370834,0.00218215145135,0.0,0.818957171696,-0.573714327998,-0.0119066233282,0.0,-0.00849973720069,0.00861897631714,-0.999926731173,0.0,0.650549834805,0.246634253005,0.303514813211,1.0,-0.0242588571429,-0.0318830693878,1.053
0.456562040507,0.486763341032,-0.124177554878,-1.45147055311,0.0736544069816,1.92920542452,0.146210898069,-0.0239282101486,-0.1300837326,-0.000199716407009,-0.190523716109,-0.00993970829764,0.0779541861424,-0.0252821236152,0.573786311949,0.818990090809,0.00229047524983,0.0,0.81895044003,-0.573725435765,-0.0118341891038,0.0,-0.00837814100312,0.00866624828663,-0.999927348808,0.0,0.650155135468,0.246090526461,0.303547826516,1.0,-0.0256577142857,-0.0337215673469,1.07
0.456232298909,0.484745936356,-0.124199664136,-1.45453021272,0.0734632104408,1.93033191742,0.14573672021,-0.0250370949954,-0.13207700741,-0.00122481020004,-0.205636992595,-0.012665873437,0.0745666099284,-0.0292283722496,0.573783066731,0.818992172149,0.00235821818509,0.0,0.818953453211,-0.573721983546,-0.0117929627934,0.0,-0.00830554250692,0.0086980407478,-0.99992767841,0.0,0.649780575798,0.245573007966,0.30359044093,1.0,-0.026892,-0.0353437714286,1.085
0.455842082662,0.482371630794,-0.124237043029,-1.45820733302,0.0732311847293,1.9315789407,0.145186205886,-0.0218772826404,-0.142011483098,-0.00361688240929,-0.223421040864,-0.0161757190406,0.0733274272439,-0.0274692911166,0.573795740827,0.818983440497,0.00230627454416,0.0,0.818943997546,-0.573734804599,-0.0118258097578,0.0,-0.00836211338374,0.00867447597602,-0.999927411629,0.0,0.649306511889,0.24494094003,0.303596740433,1.0,-0.0282908571429,-0.0371822693878,1.102
0.455429959365,0.479870484856,-0.124258047888,-1.46208890006,0.0729941446656,1.93300120234,0.144611851899,-0.0234205473521,-0.151881276836,-0.000240676759777,-0.228788888484,-0.00645283145607,0.0904476232854,-0.0299653500336,0.573803463738,0.818977932439,0.00234053024685,0.0,0.818938888637,-0.573742346341,-0.0118137036396,0.0,-0.00833246169142,0.00869566272562,-0.999927475136,0.0,0.648820093238,0.244292865906,0.303607051052,1.0,-0.0296897142857,-0.0390207673469,1.119
0.455010715065,0.477404234854,-0.124272567364,-1.46581754362,0.0727583190539,1.93438059278,0.144072561862,-0.0287087467602,-0.159731602952,-0.00352714366389,-0.238369762258,-0.0161238843293,0.0881419288888,-0.0324694360616,0.573832623963,0.818957221123,0.00243650324713,0.0,0.818919460428,-0.57377117774,-0.0117600946945,0.0,-0.00823317764764,0.00874379426619,-0.999927877823,0.0,0.648359491012,0.243659237069,0.303660422127,1.0,-0.0310062857143,-0.0407511183673,1.135
0.454493368636,0.474374384812,-0.124291059843,-1.47047733159,0.0724680635396,1.93608828609,0.143403583488,-0.0258041421747,-0.166261317734,6.64655834112e-05,-0.250037962214,-0.0183379555033,0.089506219817,-0.0404166817475,0.573867904987,0.81893230673,0.0025003041609,0.0,0.81889533967,-0.573806181538,-0.0117318198679,0.0,-0.00817303367951,0.00878017135989,-0.999928052467,0.0,0.647773982126,0.242870909371,0.303687716518,1.0,-0.0325697142857,-0.0428059102041,1.154
0.454078613435,0.471910717861,-0.124292846975,-1.47433557655,0.0722258021963,1.93740580556,0.142827678792,-0.0280829449264,-0.169196306997,-0.000600630278702,-0.256747397513,-0.0197792580178,0.0989995016438,-0.042456643924,0.573855807157,0.818940969208,0.00243894358415,0.0,0.818902965701,-0.573794057418,-0.0117923424246,0.0,-0.00825793999038,0.00876453105895,-0.999927492083,0.0,0.647259529991,0.242228233373,0.303668932674,1.0,-0.033804,-0.0444281142857,1.169
0.45355557511,0.468807352852,-0.124288002536,-1.47902832485,0.0719292985796,1.93919331249,0.142084014795,-0.0274804946129,-0.17386542712,0.000844151884154,-0.265730369281,-0.0159688724777,0.10534528061,-0.0423595004973,0.573814736967,0.818969228539,0.00260715312823,0.0,0.818933416168,-0.573752381958,-0.0117051689944,0.0,-0.00809046867038,0.00885185371106,-0.999928091916,0.0,0.646673225946,0.241452266336,0.30373345674,1.0,-0.0352851428571,-0.0463747591837,1.187
0.453043700899,0.465754955818,-0.124290405235,-1.48367809919,0.0716112969315,1.94085688534,0.141355146061,-0.0297265802681,-0.177125881283,3.8927295442e-05,-0.285064961138,-0.01920343521,0.0930141237707,-0.0476018808593,0.573771053636,0.818999686065,0.00265313693629,0.0,0.818964530681,-0.573708607474,-0.0116738210259,0.0,-0.00803888303167,0.00887109643197,-0.999928337436,0.0,0.646067551849,0.240672836052,0.303770498249,1.0,-0.036684,-0.0482132571429,1.204
0.452561566762,0.463008924452,-0.124299909704,-1.48801223857,0.0713178600315,1.9423288502,0.140710714868,-0.0294461849157,-0.187245359608,-0.00111942484549,-0.291257667185,-0.0177735682853,0.101287982596,-0.0443326260836,0.57376750375,0.819002511993,0.00254634843467,0.0,0.818965875223,-0.573705336305,-0.0117400688927,0.0,-0.00815444922743,0.00882161234021,-0.999927839453,0.0,0.645483786469,0.239933476469,0.303728457603,1.0,-0.0379182857143,-0.0498354612245,1.219
0.451987472089,0.459821500802,-0.124296363954,-1.49301375828,0.0709833379067,1.94407107124,0.139972340697,-0.0338225879361,-0.193222967698,0.000755391830252,-0.294123971147,-0.0220432164063,0.103475479026,-0.0353058714695,0.573771301788,0.819000054934,0.00247995219673,0.0,0.818962417261,-0.573709230719,-0.0117908694996,0.0,-0.00823410983303,0.00879641954607,-0.999927408584,0.0,0.644816052811,0.239081771303,0.303693833497,1.0,-0.0393171428571,-0.0516739591837,1.236
0.451389093711,0.456551598011,-0.124306734194,-1.49814248466,0.0706444032171,1.94591042845,0.139180785628,-0.0379174046124,-0.198388656392,0.00375125801923,-0.306187700198,-0.0259962538277,0.105452517766,-0.0481066555231,0.573764826582,0.819004665339,0.00245536784969,0.0,0.818966662476,-0.573702800258,-0.0118088792871,0.0,-0.00826303490652,0.00878655315765,-0.999927256723,0.0,0.644142527856,0.238198751387,0.303661843291,1.0,-0.040716,-0.0535124571429,1.253
0.450745342566,0.453136261379,-0.124351235016,-1.50347038117,0.0702762029578,1.94774687694,0.138332827353,-0.0401548727993,-0.20745658938,-0.00691443591652,-0.31134003865,-0.0176335279213,0.10327689066,-0.0474681423797,0.573772463745,0.818999562908,0.00237122437478,0.0,0.818960570118,-0.573710868031,-0.0118394001641,0.0,-0.00833622686333,0.00873522924749,-0.999927098889,0.0,0.643436862441,0.237241139128,0.3036330493,1.0,-0.0421148571429,-0.055350955102,1.27
0.450108929616,0.449523328491,-0.124394260207,-1.50883345336,0.0699129441752,1.94977054959,0.137515465109,-0.0352293764662,-0.212186985393,-0.00290910690916,-0.31796593262,-0.0244566655346,0.118867373799,-0.0428057984925,0.573799898702,0.818979699524,0.00258358652997,0.0,0.818943828529,-0.573737899671,-0.011686534852,0.0,-0.00808888902842,0.00882171460378,-0.999928371048,0.0,0.642757652223,0.23630119157,0.303735763995,1.0,-0.0435137142857,-0.0571894530612,1.287
0.449469073176,0.446061728561,-0.124409941982,-1.51412154299,0.0695501224813,1.95149220626,0.136729342194,-0.0361487675712,-0.212839406155,-0.0023839254665,-0.334576551815,-0.0253574176192,0.117326931485,-0.0545753612325,0.573828464542,0.81895997457,0.00249002726212,0.0,0.818922701195,-0.573766598421,-0.0117578444352,0.0,-0.00820066739578,0.00878629483354,-0.99992777243,0.0,0.642022505521,0.235363710212,0.303740774596,1.0,-0.0448302857143,-0.0589198040816,1.303
0.448781792211,0.442351243645,-0.124408883829,-1.51983417219,0.0691518793748,1.9535309078,0.135825454227,-0.0393417351619,-0.222252989475,6.71537795984e-05,-0.338341878405,-0.0250858037225,0.122687960811,-0.0539043086572,0.57379488981,0.818983445088,0.00250758870171,0.0,0.818946436431,-0.573733002538,-0.0117440605308,0.0,-0.00817966224173,0.00879243203108,-0.999927890532,0.0,0.641253351476,0.234375261469,0.303738276335,1.0,-0.0462291428571,-0.0607583020408,1.32
0.448055394899,0.438584579638,-0.124411785591,-1.52568952301,0.0687617910999,1.9555959057,0.134866954842,-0.0439202269535,-0.224146211717,-0.00154138538352,-0.348017842928,-0.02602629164,0.12068168641,-0.0513561203036,0.573758077189,0.81900930662,0.00248423633834,0.0,0.818971831828,-0.573696106389,-0.0117755291863,0.0,-0.00821922952496,0.00879099382241,-0.999927578724,0.0,0.640458116582,0.233347657943,0.303705550317,1.0,-0.047628,-0.0625968,1.337
0.447275784622,0.434623336517,-0.124429174991,-1.53163355673,0.0683504265215,1.95773596031,0.133920080899,-0.0518431598763,-0.242339808718,-0.00157462298202,-0.349825444762,-0.0203214275534,0.122061230501,-0.0596852512345,0.573779868681,0.818993668351,0.00260391991437,0.0,0.818957882533,-0.573717604592,-0.0116980220545,0.0,-0.00808684699587,0.00884476058664,-0.999928183979,0.0,0.639670672186,0.232272362027,0.303766210505,1.0,-0.0490268571429,-0.0644352979592,1.354
0.446528507308,0.430867570356,-0.124456085351,-1.53740148644,0.0679287736219,1.95976441564,0.132996721423,-0.0437674865149,-0.23779645106,-0.00486238889821,-0.363731086739,-0.0266196737352,0.1202135426,-0.059493916572,0.573787399765,0.818988433381,0.002590899607,0.0,0.818952710771,-0.573725434743,-0.0116760417573,0.0,-0.00807623363604,0.00882155973833,-0.999928474709,0.0,0.638889515906,0.231222586323,0.303757925816,1.0,-0.0503434285714,-0.0661656489796,1.37
0.445611493764,0.426259833365,-0.124512858979,-1.54455223433,0.0674130538114,1.96207334069,0.131855732328,-0.0481982027774,-0.2482899122,-8.96081565006e-05,-0.3747962572,-0.0259758033691,0.132632964649,-0.0637972596008,0.573806905721,0.818975438809,0.00236906623896,0.0,0.818936789461,-0.573745703442,-0.0117961667454,0.0,-0.00830168909402,0.00870900511462,-0.999927614974,0.0,0.637872489557,0.229902688495,0.303693042058,1.0,-0.0519068571429,-0.0682204408163,1.389
0.444810199053,0.422264874685,-0.124525324352,-1.55056360788,0.066992037723,1.9641543805,0.130846785501,-0.051883721392,-0.248802582322,-0.00284429253113,-0.386690012746,-0.0243559165744,0.121534755369,-0.0654641212379,0.573782727688,0.818992244193,0.00241500720043,0.0,0.81895416315,-0.573721324589,-0.0117757068239,0.0,-0.0082588304368,0.00873464555169,-0.999927746233,0.0,0.637040530104,0.228808443272,0.303727534878,1.0,-0.0532234285714,-0.0699507918367,1.405
0.443898359578,0.417937257177,-0.124546979669,-1.55702608005,0.0665457267124,1.96646989058,0.129823987027,-0.0551498820545,-0.263492169291,-0.00619362005253,-0.378213991027,-0.0218934159312,0.143822704577,-0.0708426863725,0.573854156601,0.818941766236,0.00255682755604,0.0,0.81890561248,-0.573792316368,-0.0116928365488,0.0,-0.00810882032957,0.00880395279515,-0.999928366158,0.0,0.636168410015,0.227603074394,0.303789432758,1.0,-0.0546222857143,-0.0717892897959,1.422
0.443043279448,0.413784550138,-0.124554808212,-1.56322897541,0.0661106669116,1.96871560608,0.128773182464,-0.0541360507105,-0.264602690648,-0.00212784860453,-0.403383508842,-0.0248528283783,0.140092167921,-0.0672917722214,0.573834892009,0.818954770672,0.00271057352216,0.0,0.818920718335,-0.573772637553,-0.0116001886997,0.0,-0.00794492992174,0.00887650874595,-0.999929040323,0.0,0.63532176212,0.22646872246,0.303845466979,1.0,-0.0559388571429,-0.0735196408163,1.438
0.442105722879,0.409316764463,-0.124573418169,-1.57011011215,0.0656209358298,1.97088317973,0.127639986374,-0.0594950547635,-0.263426951718,-0.00281223684871,-0.403951537046,-0.0321287382137,0.126479368282,-0.0677264549187,0.573830996535,0.818958174867,0.00249842669572,0.0,0.818920985851,-0.573769072528,-0.0117565830307,0.0,-0.00819478758854,0.00879247509146,-0.99992776631,0.0,0.634305411218,0.225190609627,0.30378172579,1.0,-0.0573377142857,-0.0753581387755,1.455
0.441154685761,0.404770477088,-0.124588824705,-1.57704986566,0.065131549499,1.97327706475,0.126503396576,-0.0579053070617,-0.260219967894,-0.000131440100912,-0.402209920749,-0.0270272669097,0.147999920712,-0.0690857101641,0.573833096614,0.818956734472,0.00248821136364,0.0,0.818919316725,-0.573771107288,-0.0117735311808,0.0,-0.00821450701443,0.00879385551429,-0.999927592368,0.0,0.633314980825,0.22391638184,0.303757560936,1.0,-0.0587365714286,-0.0771966367347,1.472
0.440200079384,0.400361513697,-0.124591717617,-1.58357565742,0.0646897452844,1.97560920621,0.125361072603,-0.0628612624087,-0.287713511793,-0.00182252872684,-0.394630571851,-0.027757112954,0.149025347651,-0.0695082550934,0.573818272223,0.818966539241,0.00267300716007,0.0,0.818931418847,-0.573755503863,-0.0116918738328,0.0,-0.00804175570886,0.00889819170574,-0.999928073588,0.0,0.632405718623,0.222698367387,0.303826299764,1.0,-0.0600531428571,-0.0789269877551,1.488
0.439150586869,0.395582016147,-0.124612281576,-1.5906451053,0.0641478162773,1.97805330039,0.12415649516,-0.065484451627,-0.28032080704,-0.0031885916624,-0.423719204947,-0.0378407564616,0.140512715682,-0.0783533878804,0.573829787935,0.818958139901,0.00277244840647,0.0,0.818924626232,-0.573767029927,-0.011601673176,0.0,-0.00791069750156,0.00892798382464,-0.999928853454,0.0,0.631405393595,0.221346613958,0.303890684056,1.0,-0.061452,-0.0807654857143,1.505
0.438083151777,0.390748439052,-0.124619804498,-1.5980153594,0.0636056251609,1.98038090272,0.122934028827,-0.0593520613591,-0.283502667843,0.00265879273297,-0.428802206762,-0.0325675981194,0.136029810386,-0.0789497691685,0.573838886079,0.818952366545,0.00258863960642,0.0,0.818916106246,-0.573776368079,-0.0117404117092,0.0,-0.00812969424363,0.00885715397194,-0.999927726836,0.0,0.630294422181,0.219953364468,0.303833132421,1.0,-0.0628508571429,-0.0826039836735,1.522
0.437003270767,0.385860453457,-0.124630420395,-1.60542989566,0.0630465898756,1.98286522054,0.121598299997,-0.0623285964962,-0.289906050095,-0.000226772979675,-0.433573084717,-0.0346414404979,0.152659260936,-0.0747430528277,0.573760441993,0.819007502207,0.00253247590273,0.0,0.818970493908,-0.573698119761,-0.0117704881826,0.0,-0.00818739909526,0.0088276335023,-0.999927517065,0.0,0.62919885556,0.218555976244,0.303798725449,1.0,-0.0642497142857,-0.0844424816326,1.539
0.435878223249,0.380808785478,-0.124631622171,-1.61275881831,0.0625289576847,1.98546076853,0.120295587125,-0.0661031642977,-0.296675589943,0.000481596460771,-0.43613954365,-0.0291787099275,0.154784995777,-0.0705640808799,0.573745096467,0.819017382237,0.00279978137852,0.0,0.818983851522,-0.573681837189,-0.0116338956151,0.0,-0.0079223315364,0.00896803896134,-0.999928402907,0.0,0.628149213871,0.217163312351,0.303916430513,1.0,-0.0656485714286,-0.0862809795918,1.556
0.434757837532,0.376091862016,-0.124651090078,-1.6199370587,0.06198322402,1.9877932242,0.119035304239,-0.0724909591178,-0.295907903944,-0.00096216307737,-0.454475724601,-0.0365349339764,0.144015092057,-0.079258601487,0.573753991986,0.819011576717,0.00267222471359,0.0,0.818976276551,-0.573691047038,-0.0117127237028,0.0,-0.00805998009324,0.00890888215115,-0.999927831666,0.0,0.627072641114,0.215758446419,0.303855356408,1.0,-0.0669651428571,-0.0880113306122,1.572
0.433530552086,0.37092782236,-0.124712724628,-1.62774716786,0.061360712109,1.99026489996,0.117675451858,-0.0713966863904,-0.302935076724,-0.0036816091401,-0.462164099815,-0.0296541647806,0.141752133656,-0.0661503114607,0.573795617441,0.81898299853,0.00248685032753,0.0,0.818945410677,-0.573733474861,-0.0117924151969,0.0,-0.0082311567533,0.00880320031071,-0.999927373224,0.0,0.625889271578,0.214196332158,0.303798862813,1.0,-0.068364,-0.0898498285714,1.589
0.432135544831,0.365019328897,-0.124761269386,-1.63637335542,0.0606870232258,1.99319149743,0.116160751068,-0.0731169312585,-0.312369306911,-0.00123996691244,-0.447092309161,-0.0463133160223,0.163863572572,-0.0879625072113,0.573848287152,0.818945658049,0.00262667006574,0.0,0.818910267328,-0.573786043258,-0.0116746532891,0.0,-0.00805391505921,0.00885065728135,-0.999928397596,0.0,0.624618043126,0.212478513511,0.303879783765,1.0,-0.0699274285714,-0.0919046204082,1.608
0.430984315739,0.360329545349,-0.124764750454,-1.6432460581,0.06017260283,1.99556691518,0.114835214728,-0.0770994510491,-0.312620306835,-0.00150553393664,-0.469796961054,-0.0292417330638,0.154700081118,-0.082275377187,0.573802237692,0.818977423893,0.00277814227922,0.0,0.818944046341,-0.573739534501,-0.0115906175087,0.0,-0.00789867608451,0.00892603719604,-0.999928965865,0.0,0.623603983944,0.211114908367,0.303929328536,1.0,-0.0711617142857,-0.0935268244898,1.623
0.429548865957,0.354621408603,-0.12479655487,-1.6518057817,0.0595256023498,1.99822047972,0.113262817163,-0.0862859870821,-0.315041688195,-0.000429036250938,-0.473816352403,-0.0382111606844,0.153333628162,-0.0931658829937,0.573822442071,0.818963836062,0.00260520634832,0.0,0.818927789855,-0.573759865032,-0.0117319726385,0.0,-0.00811345468292,0.00886571575916,-0.999927782861,0.0,0.622269603476,0.209382969452,0.303870642493,1.0,-0.0726428571429,-0.0954734693877,1.641
0.428159721101,0.349190699244,-0.124833403768,-1.65995756632,0.0589199539239,2.00081957839,0.111756718493,-0.0809125083945,-0.323583333769,-0.000423047505778,-0.470273848207,-0.025518268301,0.152752183621,-0.0876487582732,0.573856323087,0.818940427285,0.00249878222073,0.0,0.818902616648,-0.573793723455,-0.0118327626284,0.0,-0.00825670109541,0.00883673508743,-0.999926866826,0.0,0.621005952079,0.207726255434,0.303810043473,1.0,-0.0740417142857,-0.0973119673469,1.658
0.426737002609,0.343539524734,-0.124841864899,-1.66797133447,0.058311473754,2.00356645687,0.110253683416,-0.0835592785024,-0.329438718693,0.0017992930293,-0.476301498155,-0.036157863435,0.154556718986,-0.085364083532,0.573887335548,0.818917678599,0.00281223691085,0.0,0.818884106857,-0.573823786047,-0.0116545701546,0.0,-0.00793055779244,0.00899147943784,-0.999928127192,0.0,0.619805548218,0.206096099417,0.303962114734,1.0,-0.0754405714286,-0.0991504653061,1.675
0.425283519014,0.337913193872,-0.124847838686,-1.67632028993,0.0576266705413,2.0061460285,0.108648742414,-0.0839766582446,-0.325874527526,-0.000105277505706,-0.492791116245,-0.0369585605623,0.157276888594,-0.0988002945507,0.573837373206,0.818953175057,0.0026670355313,0.0,0.818917578416,-0.57377418315,-0.0117445056972,0.0,-0.00808807981743,0.00892369038644,-0.999927472727,0.0,0.618473723984,0.204394981637,0.303917883915,1.0,-0.0768394285714,-0.100988963265,1.692
0.423918484489,0.332557235292,-0.124837538798,-1.68428069017,0.0569620105328,2.00862416833,0.107139512128,-0.0878030414984,-0.334735653117,0.00193063042088,-0.496302969133,-0.0439606042179,0.159410284276,-0.0950215898014,0.573767976066,0.819002222156,0.00253311006901,0.0,0.818964799703,-0.573705195458,-0.0118216942,0.0,-0.00822889384389,0.00885760807149,-0.999926911372,0.0,0.617188460209,0.202799320985,0.303863936678,1.0,-0.078156,-0.102719314286,1.708
0.422598410315,0.327381306747,-0.124836828509,-1.691547552,0.0563854537036,2.0110888426,0.105672110568,-0.0902517024761,-0.342449415978,-0.000580776034363,-0.485984954223,-0.0387177997373,0.165289442531,-0.103003351873,0.573704956007,0.819045388149,0.00283240301039,0.0,0.819012107493,-0.573641394911,-0.0116389314877,0.0,-0.00790818180118,0.00899725826105,-0.999928252428,0.0,0.616068961336,0.201315472241,0.304010829429,1.0,-0.0793902857143,-0.104341518367,1.723
0.421018932002,0.321599656167,-0.124850616903,-1.70010311933,0.0556931789031,2.01379218911,0.104037238459,-0.0958427396189,-0.338835917135,-0.00325009061393,-0.506439066645,-0.0418024602313,0.152968245358,-0.0976471946752,0.573727823647,0.819029643034,0.00275229092167,0.0,0.818995185164,-0.573664380115,-0.0116966904418,0.0,-0.00800119897962,0.00896500236814,-0.999927802167,0.0,0.614698172269,0.199532306908,0.303957244573,1.0,-0.0807891428571,-0.106180016327,1.74
0.419302871018,0.315298852925,-0.124892737579,-1.70933809346,0.0549397636664,2.01655350959,0.102221052146,-0.0969816157021,-0.352641380888,-0.00134222957815,-0.515875185746,-0.0461376017615,0.148152873621,-0.101691905958,0.573730366958,0.819028389409,0.00259041970483,0.0,0.818991500855,-0.573667147615,-0.0118182983797,0.0,-0.0081936409573,0.00890221978345,-0.999926804687,0.0,0.613180490561,0.197581993366,0.303915170055,1.0,-0.0822702857143,-0.108126661224,1.758
0.41753336801,0.308893592792,-0.124926953526,-1.71839656354,0.0541501508622,2.01956190028,0.100344197167,-0.100757993693,-0.357036152269,-0.00181236353553,-0.50789627957,-0.0406753555826,0.16815533896,-0.10212176689,0.573693960727,0.819053131726,0.00282023694684,0.0,0.819019959614,-0.5736307449,-0.0116112514861,0.0,-0.00789260922954,0.00897130792984,-0.999928608628,0.0,0.61183973113,0.195744950365,0.304026308912,1.0,-0.0836691428571,-0.109965159184,1.775
0.41588891676,0.303224619171,-0.124947132494,-1.72666202566,0.0534803609415,2.02211222201,0.0986092998183,-0.103355639024,-0.356724978079,-0.00679952498184,-0.524430854531,-0.0385226502826,0.16014425309,-0.116085841014,0.573673485897,0.819067596506,0.00278403195421,0.0,0.819033727372,-0.573610138042,-0.0116580385816,0.0,-0.00795192578668,0.00896829636793,-0.999928165688,0.0,0.610408770715,0.193855455633,0.304002789345,1.0,-0.085068,-0.111803657143,1.792
0.41408838824,0.29714799535,-0.125019526774,-1.73564738195,0.0527435508703,2.02471184859,0.0968909441531,-0.109459927964,-0.359031366865,-0.00720656154745,-0.534637754668,-0.0413874344744,0.161472955464,-0.10560164324,0.57382574194,0.818961815958,0.00251173052163,0.0,0.818923905843,-0.573762809998,-0.0118583811332,0.0,-0.00827058301947,0.00886173113695,-0.99992653089,0.0,0.608899097635,0.191873521259,0.30389146111,1.0,-0.0864668571428,-0.113642155102,1.809
0.412491141373,0.291591309192,-0.12507035323,-1.74336810512,0.0521320572327,2.02724000015,0.095221013406,-0.105924921655,-0.368397545639,-0.0033564647406,-0.517096573287,-0.0402676922195,0.172891501792,-0.112343930477,0.573833854939,0.8189551637,0.0028095688607,0.0,0.818921288182,-0.57377001667,-0.0116892528815,0.0,-0.00796108091051,0.00900867823794,-0.999927729842,0.0,0.607664795859,0.190175981078,0.304025705602,1.0,-0.0877011428571,-0.115264359184,1.824
0.410610544735,0.285339591254,-0.125083571716,-1.75233408082,0.051367100128,2.02996864366,0.0933244567728,-0.109990844934,-0.364692016131,0.00106717884056,-0.535905625348,-0.0399609477519,0.156717772415,-0.106498697658,0.573836207081,0.8189535466,0.00280051000865,0.0,0.81891946556,-0.573772300643,-0.0117048213127,0.0,-0.00797900347625,0.00901021590079,-0.999927573134,0.0,0.606167951237,0.188201221827,0.304025278676,1.0,-0.0891,-0.117102857143,1.841
0.408826356358,0.279411256943,-0.125114959804,-1.76098196816,0.0505786259995,2.03244808884,0.0914605024275,-0.112783948242,-0.371935698041,-0.000158158341803,-0.549033780259,-0.0466596143871,0.14778824181,-0.112847035759,0.573774375863,0.818997658894,0.00255875584671,0.0,0.818960367036,-0.573711278931,-0.011833535122,0.0,-0.00822380880589,0.0088854699291,-0.99992670601,0.0,0.60467558948,0.186293991678,0.303938201842,1.0,-0.0904165714286,-0.118833208163,1.857
0.406865360021,0.272941538363,-0.125134267561,-1.76998175511,0.049815096197,2.03531559353,0.0895421443461,-0.11524142511,-0.390212393386,-0.00104387436337,-0.531560379839,-0.0458968695918,0.174217730809,-0.118485012008,0.573817561668,0.818966546027,0.00281945230192,0.0,0.818932896187,-0.573753801727,-0.0116719085101,0.0,-0.00794138401728,0.00900666172668,-0.999927904633,0.0,0.603188336063,0.184289075311,0.304050664449,1.0,-0.0918154285714,-0.120671706122,1.874
0.404838858947,0.266507319251,-0.12519312734,-1.77913175632,0.0490182416886,2.03805014829,0.0875236897462,-0.121280181429,-0.385005518172,-0.00581094063922,-0.542107365382,-0.0411734182877,0.158006724739,-0.111034618692,0.573847882198,0.818945337185,0.00280886096773,0.0,0.81891154682,-0.573784151336,-0.011677887674,0.0,-0.00795202485329,0.009001713101,-0.999927864629,0.0,0.601633206288,0.182201864473,0.304048758879,1.0,-0.0932142857143,-0.122510204082,1.891
0.402767388812,0.259984396056,-0.125271809681,-1.78848573489,0.0481768864803,2.0406683921,0.0854892845173,-0.121455067613,-0.38871268779,-0.00306694098911,-0.544921756858,-0.0487569725908,0.161105593099,-0.117091773083,0.57389865642,0.818910445737,0.00260017745881,0.0,0.818873740167,-0.573835440041,-0.0118081463153,0.0,-0.00817789783603,0.00890606781537,-0.9999268993,0.0,0.599992980551,0.180052538584,0.303986115991,1.0,-0.0946131428571,-0.124348702041,1.908
0.400669580529,0.253301661786,-0.125262876653,-1.79764975628,0.0473529605372,2.04348785851,0.0834478083427,-0.121516881992,-0.396121833729,0.00314243588927,-0.545556360767,-0.0544177156655,0.169886535111,-0.119330967533,0.573890192334,0.818915536073,0.00285286212741,0.0,0.818882452304,-0.573826460049,-0.0116391562672,0.0,-0.00789459011373,0.00901592994835,-0.999928191649,0.0,0.598426161402,0.177982282898,0.30411557316,1.0,-0.096012,-0.1261872,1.925
0.398529500415,0.246695329692,-0.125256898398,-1.80705647108,0.0465357412469,2.04617551556,0.0812592428474,-0.126062193061,-0.392603214631,-0.00130305948839,-0.552292808564,-0.0436355753547,0.156969797064,-0.124148965783,0.573799316676,0.818979537233,0.0027583831368,0.0,0.818944679804,-0.573735306257,-0.0117540068485,0.0,-0.008043864165,0.00900357763941,-0.999927113263,0.0,0.596749066102,0.175863046415,0.304061291408,1.0,-0.0974108571428,-0.128025697959,1.942
0.396324545435,0.23999816553,-0.125266003133,-1.81653202071,0.0456971299148,2.04886495969,0.0790824447344,-0.132543690327,-0.397156930882,-1.47847359604e-05,-0.549715386924,-0.0427235147457,0.153745983459,-0.126030032905,0.573768824127,0.819001170774,0.00267686991924,0.0,0.8189648143,-0.573704628615,-0.0118481621354,0.0,-0.00816808325844,0.00899054142858,-0.999926223569,0.0,0.595051599657,0.173697427292,0.304019564471,1.0,-0.0988097142857,-0.129864195918,1.959
0.394212667669,0.233508752013,-0.125256084054,-1.82529628027,0.0449265252598,2.05155924089,0.077074732042,-0.13097864604,-0.411380193554,0.000350890285948,-0.54847774077,-0.0573334062897,0.172658353395,-0.125138991929,0.573785317198,0.818988441802,0.00301477412953,0.0,0.818956716328,-0.573720196432,-0.011652462795,0.0,-0.00781374598063,0.00915515784769,-0.999927561606,0.0,0.593525265609,0.171685860006,0.304168889035,1.0,-0.100126285714,-0.131594546939,1.975
0.391910266827,0.226684476289,-0.125270766848,-1.83493934234,0.0439930276465,2.05418087331,0.0747406074956,-0.139696991999,-0.400876842559,-0.0028305261709,-0.56594235362,-0.0594011921343,0.161554042746,-0.143981090597,0.573661887982,0.819075628261,0.00281075905498,0.0,0.819041115888,-0.573597331001,-0.0117685705894,0.0,-0.00802726000683,0.00905348196361,-0.999926796101,0.0,0.591753711298,0.169447433861,0.304097037475,1.0,-0.101525142857,-0.133433044898,1.992
0.389496968164,0.219783084343,-0.12531803718,-1.84455166068,0.0430939641297,2.05684237303,0.0724582939822,-0.145392111033,-0.40779699248,-0.00347928783301,-0.55313020406,-0.045590013453,0.159274292859,-0.134882574963,0.5737017725,0.819047920467,0.00274355777092,0.0,0.81901240097,-0.573637304583,-0.0118184917897,0.0,-0.00810626010935,0.00902747133198,-0.999926393945,0.0,0.59000623356,0.167146550263,0.304077741714,1.0,-0.102924,-0.135271542857,2.009
0.387023326354,0.212771750796,-0.12537905693,-1.85402888515,0.0422457483964,2.05967966055,0.0701352726725,-0.147705159904,-0.408329813216,-0.00221016476987,-0.568786604196,-0.0538349602866,0.153269985834,-0.138239445668,0.573777681865,0.818993713068,0.00303589346746,0.0,0.818962262302,-0.573712492666,-0.0116419751403,0.0,-0.00779312448075,0.00916636417149,-0.99992761987,0.0,0.588330881153,0.164843955678,0.304190235054,1.0,-0.104322857143,-0.137110040816,2.026
0.384621342599,0.206183677877,-0.125445792557,-1.86325957393,0.0413402776467,2.06206859479,0.0678435227359,-0.154520923024,-0.414857612745,-0.0118500575443,-0.590028445622,-0.055720123643,0.145682413709,-0.132466979785,0.573787380781,0.818987786385,0.00279182919878,0.0,0.818952900898,-0.57372273251,-0.0117948807713,0.0,-0.00805828256386,0.00905430468899,-0.999926539126,0.0,0.586601019221,0.162580197643,0.304108337002,1.0,-0.105639428571,-0.138840391837,2.042
0.381734710117,0.198211188038,-0.125500955401,-1.87409715724,0.0403092016865,2.06507428097,0.0650912095973,-0.158363609336,-0.430344227827,-0.00169307012128,-0.555955141626,-0.0464193068118,0.171085180688,-0.14133813178,0.573787375975,0.818987481094,0.00288095197397,0.0,0.818953823578,-0.57372248849,-0.0117425699434,0.0,-0.00796430418131,0.00909728018047,-0.999926902004,0.0,0.584601239822,0.159928576788,0.304157036787,1.0,-0.107202857143,-0.140895183673,2.061
0.37919549181,0.191504603794,-0.125562511617,-1.88326680359,0.0394356636454,2.06764432447,0.0627605862593,-0.158887489341,-0.411993940421,-0.00810825431991,-0.574233055257,-0.0543817117485,0.1560180788,-0.153218183016,0.573868564295,0.818930369595,0.0029440736552,0.0,0.818897619983,-0.573803548013,-0.0117014176336,0.0,-0.00789347833238,0.00912614635348,-0.999927200576,0.0,0.582912683405,0.15763331116,0.304163481471,1.0,-0.108519428571,-0.142625534694,2.077
0.376420482789,0.184292741185,-0.125687498284,-1.89318082042,0.0385075325711,2.07012896591,0.0601804049893,-0.166233404159,-0.428497256419,-0.00380126251917,-0.577047680801,-0.0533223272973,0.147500961497,-0.152553236776,0.573974476668,0.81885676074,0.00276630191408,0.0,0.818820984248,-0.573909271961,-0.011878140139,0.0,-0.00813904574217,0.00908303020257,-0.999925624483,0.0,0.581019065458,0.155102051274,0.304108065276,1.0,-0.109918285714,-0.144464032653,2.094
0.373805652383,0.177379686396,-0.12572232156,-1.90227994312,0.0376062075824,2.07270384725,0.0577620779563,-0.163397991538,-0.429427343723,-0.000530121827633,-0.574217726449,-0.0578045403306,0.157381076482,-0.142938259014,0.573995361454,0.818841108099,0.00305149418636,0.0,0.818809633454,-0.573929825037,-0.0116656331654,0.0,-0.00780110665887,0.00919478918979,-0.99992729665,0.0,0.57933108709,0.152808686007,0.304243726168,1.0,-0.111234857143,-0.146194383673,2.11
0.371006658809,0.170083829456,-0.125702803379,-1.91223451033,0.0365803146255,2.07523191106,0.0550952755774,-0.167228710363,-0.423890679476,0.000370317190202,-0.596187840726,-0.0517700094222,0.137083932446,-0.164703132411,0.573878189611,0.818923746151,0.00291004821585,0.0,0.818890242123,-0.573812930622,-0.0117575043738,0.0,-0.00795882946433,0.00913056120405,-0.999926642252,0.0,0.577381496508,0.150360625414,0.304192364646,1.0,-0.112633714286,-0.148032881633,2.127
0.367787160899,0.161848981076,-0.125716267768,-1.92337428422,0.0354786539942,2.07807167774,0.0520150781251,-0.168715447485,-0.442050024319,-0.00128906767935,-0.568362263932,-0.0565344076128,0.15832385146,-0.164659143166,0.573775819415,0.818995699064,0.00284620279505,0.0,0.818960919191,-0.573710296062,-0.0118429697572,0.0,-0.00806660075413,0.00912631424379,-0.999925817419,0.0,0.575196817762,0.147575982581,0.304159970847,1.0,-0.114197142857,-0.150087673469,2.146
0.365174300331,0.15519945718,-0.12570632222,-1.93200805032,0.0345774915494,2.08047119879,0.0496264533546,-0.176663630758,-0.441114001099,0.000409979971901,-0.582578350579,-0.0662422909882,0.161570936853,-0.159989794886,0.573748536831,0.819013730547,0.00314206322514,0.0,0.818983572678,-0.573682904726,-0.0116008366213,0.0,-0.00769884474742,0.00922943889847,-0.999927770015,0.0,0.573549844069,0.145380590298,0.304295560224,1.0,-0.115431428571,-0.151709877551,2.161
0.36192293071,0.147284416385,-0.125725843032,-1.94277193918,0.0334891073423,2.08293246068,0.0466477920074,-0.180068537194,-0.438219301544,0.000228092125477,-0.600019762467,-0.0598974103797,0.137096341066,-0.163884985074,0.573736964656,0.819022983701,0.00282744726515,0.0,0.818987677901,-0.573671197912,-0.0118864222455,0.0,-0.0081133841612,0.00913550017651,-0.999925355031,0.0,0.571358135839,0.142622453234,0.304181713844,1.0,-0.116912571429,-0.153656522449,2.179
0.358970104632,0.140122604729,-0.125782073422,-1.95213209544,0.0325686212462,2.08533835599,0.0439747952756,-0.186170847517,-0.456998230033,-0.00035382809764,-0.58704724673,-0.0649032533178,0.155914270645,-0.16544683208,0.573794267323,0.818982123327,0.00302776467564,0.0,0.818949431017,-0.573727772652,-0.0117906414586,0.0,-0.00791936436596,0.00924516663346,-0.999925902536,0.0,0.569405933169,0.140014026419,0.304269812698,1.0,-0.118311428571,-0.155495020408,2.196
0.355958598229,0.132969350808,-0.12582582899,-1.96153176273,0.0315877157468,2.08776986286,0.041156882232,-0.192201506235,-0.448380471775,-0.00365466580555,-0.601278671477,-0.0604245985864,0.137511509004,-0.176329412223,0.573742669512,0.819017933727,0.00311774227949,0.0,0.818986633085,-0.573676131653,-0.0117191169039,0.0,-0.00780974294311,0.00927732528634,-0.999926466872,0.0,0.567658180699,0.137684431041,0.304290560736,1.0,-0.119545714286,-0.15711722449,2.211
0.352655416179,0.125348937539,-0.125943109601,-1.97173774747,0.0304657036308,2.09007572722,0.0382075942608,-0.198139241573,-0.444467173853,-0.00816929939023,-0.599834227441,-0.0592998915858,0.141946209,-0.164741741727,0.573824461246,0.818961618561,0.00284638368428,0.0,0.818926496398,-0.57375854111,-0.0118859960686,0.0,-0.00810119360146,0.00915163050564,-0.999925306371,0.0,0.565560944373,0.134927395061,0.304200185596,1.0,-0.120944571429,-0.158955722449,2.228
0.349469641919,0.117972076276,-0.126029694759,-1.98111656165,0.029462194193,2.09251336024,0.0353472699118,-0.20312206117,-0.458037255373,-0.000214204521755,-0.590896140434,-0.0610977596892,0.153206845546,-0.19189726636,0.573885973954,0.818917363919,0.00316020124773,0.0,0.818887143887,-0.573819907909,-0.0116321006283,0.0,-0.00771249128378,0.00926352592365,-0.999927349644,0.0,0.563705835399,0.132359146489,0.304344844755,1.0,-0.122261142857,-0.160686073469,2.244
0.345999339722,0.110258706391,-0.126048456323,-1.99125868727,0.0283555680566,2.09486795983,0.0321865238692,-0.205385319125,-0.449888898359,-0.00210096652813,-0.590121180396,-0.069551641275,0.138909227676,-0.190588728491,0.573837667446,0.818951546296,0.00307296922091,0.0,0.818920017774,-0.573771687413,-0.0116962435416,0.0,-0.00781562447398,0.00922843879684,-0.999926873292,0.0,0.561606670568,0.129610930262,0.30430714589,1.0,-0.12366,-0.162524571429,2.261
0.34252373939,0.102431941102,-0.126069519524,-2.00147948042,0.0272218205661,2.09716914386,0.0290365574228,-0.205412483764,-0.467456849231,-0.000496954849041,-0.594799734322,-0.0683439083695,0.147606559169,-0.185221585684,0.573794845619,0.818981988994,0.00295359859423,0.0,0.818948668155,-0.573729003153,-0.0117837501988,0.0,-0.00795626718121,0.00918047751377,-0.9999262056,0.0,0.559576413494,0.127025646703,0.304267419787,1.0,-0.124976571429,-0.164254922449,2.277
0.338988649979,0.0945138721674,-0.126054678838,-2.01153070645,0.026207439146,2.09959471695,0.0257876810009,-0.211749695138,-0.461718724777,3.90580844131e-05,-0.598025072659,-0.0670270724625,0.1341767991,-0.190853028136,0.573705853401,0.819043290663,0.00322934910589,0.0,0.819013392645,-0.573638890892,-0.0116718646836,0.0,-0.00770743061118,0.00934127710489,-0.999926665339,0.0,0.557360672496,0.124165858523,0.304366979881,1.0,-0.126457714286,-0.166201567347,2.295
0.335070953997,0.0861617739582,-0.126111501325,-2.02246580068,0.0250371914014,2.1018621753,0.0222697035327,-0.216065538629,-0.469137152116,-0.00863718285401,-0.615105575254,-0.0657231379194,0.128761443998,-0.19760541618,0.573713010214,0.819039183886,0.00299066407489,0.0,0.819005044046,-0.573645542057,-0.0119279841398,0.0,-0.00805406034652,0.00929278756396,-0.999924385247,0.0,0.554994838393,0.121142659173,0.304265224641,1.0,-0.127938857143,-0.168148212245,2.313
0.331294627624,0.0780781164273,-0.126224071526,-2.03251770133,0.0238696513007,2.10423064391,0.0188667575755,-0.226668628618,-0.481083198229,-0.00424600779691,-0.595962856666,-0.0666530325433,0.147126658861,-0.20368739064,0.573725359,0.819029529488,0.00325410023448,0.0,0.818999873661,-0.573658216299,-0.0116706776379,0.0,-0.00769203637397,0.00936105162778,-0.999926598951,0.0,0.552896989375,0.118258287978,0.304406343617,1.0,-0.129337714286,-0.169986710204,2.33
0.327641676016,0.0705481097625,-0.126265833031,-2.04217928665,0.0228149636801,2.10629254062,0.0156685143453,-0.232776309016,-0.462693885026,-0.00254331216983,-0.613077212168,-0.0665703445451,0.116725712722,-0.199715354467,0.573780099797,0.818991381398,0.00320330672229,0.0,0.818960548807,-0.573712495042,-0.0117617784598,0.0,-0.00779516817762,0.00937223669434,-0.999925695506,0.0,0.550800909111,0.115528857288,0.304370654546,1.0,-0.130654285714,-0.171717061224,2.346
0.323872516865,0.0629552823344,-0.126404704505,-2.05194742364,0.0216844204505,2.10818843596,0.0123033108213,-0.238243731526,-0.472922201375,-0.010421612704,-0.606738228387,-0.0742221163039,0.122288549861,-0.211880755416,0.573831309788,0.818956403953,0.00296365197216,0.0,0.818921800367,-0.573763798609,-0.0119555505799,0.0,-0.00809079426977,0.0092876472732,-0.99992413645,0.0,0.548641751885,0.112679537982,0.304290115485,1.0,-0.131970857143,-0.173447412245,2.362
0.319804324017,0.0547708975933,-0.126475780902,-2.06196851991,0.0205133070531,2.11053229604,0.00874161781142,-0.243621551052,-0.481966125537,-0.00216997352346,-0.596885100836,-0.0638106342937,0.135093754575,-0.212385597589,0.573887430948,0.81891570579,0.00332119138642,0.0,0.818886923953,-0.573820051858,-0.0116404796092,0.0,-0.00762695220375,0.00940018611889,-0.999926730366,0.0,0.546511600619,0.109725547032,0.304442341089,1.0,-0.133369714286,-0.175285910204,2.379
0.31596140721,0.0470953340763,-0.126470434035,-2.07171591462,0.0194115418889,2.11243520841,0.00531682794758,-0.243324801838,-0.478642350971,-0.000225837919425,-0.612092598682,-0.0670625347017,0.118964821567,-0.205405073843,0.573825202736,0.818959803504,0.00319747575404,0.0,0.818928651174,-0.573757319046,-0.0117961869919,0.0,-0.00782617854282,0.00938763463962,-0.999925308833,0.0,0.544309702489,0.106966140956,0.304380965568,1.0,-0.134686285714,-0.177016261224,2.395
0.311755838464,0.0388445711796,-0.126484292619,-2.08197563279,0.0182181928476,2.11446590979,0.00158379419506,-0.250955790349,-0.496778101889,-0.00392869012071,-0.587104542677,-0.0749690106946,0.133405203187,-0.225517699951,0.573777294231,0.818993327135,0.0032083694598,0.0,0.818962101655,-0.57370912119,-0.0118180885514,0.0,-0.00783841575362,0.00940866501363,-0.999925015319,0.0,0.541999184982,0.103986107705,0.304393808998,1.0,-0.136085142857,-0.178854759184,2.412
0.30742732123,0.030576231351,-0.126565186979,-2.09212843209,0.0169785911298,2.1165898983,-0.00222098861193,-0.257027104713,-0.486012116773,-0.00712663418662,-0.609337592318,-0.0738573296398,0.11336009542,-0.223953553795,0.57379562783,0.818979916395,0.00334976507539,0.0,0.818951245658,-0.573727848308,-0.0116601978187,0.0,-0.0076277611837,0.00943404644377,-0.999926405305,0.0,0.539740556736,0.100933208195,0.304452677606,1.0,-0.137484,-0.180693257143,2.429
0.303014116997,0.02225998613,-0.126674335295,-2.10253853763,0.0157644287262,2.11836813105,-0.00615220148438,-0.263004418652,-0.487949674986,-0.00995843831278,-0.618396909154,-0.0691377815526,0.103810918414,-0.227748641972,0.573802875087,0.818975737952,0.00312219284975,0.0,0.81894292554,-0.573734455641,-0.0119166278252,0.0,-0.00796827286591,0.00939487393434,-0.999924118607,0.0,0.537310283157,0.0978218944013,0.304369240659,1.0,-0.138882857143,-0.182531755102,2.446
0.298726153276,0.0142680243176,-0.126799425356,-2.11204794309,0.0145880267345,2.12027780202,-0.00988204799809,-0.274062767757,-0.496804425774,-0.00969294636292,-0.603200732425,-0.0689054038501,0.118297610459,-0.240289862634,0.573890410649,0.818913314112,0.00339520775756,0.0,0.818885017221,-0.573822202573,-0.0116685605581,0.0,-0.00760744047073,0.0094769422339,-0.999926154481,0.0,0.535028909887,0.0946715122089,0.304513173198,1.0,-0.13998,-0.183973714286,2.463
0.294068565101,0.0059625929112,-0.126854852018,-2.12233417368,0.0133884424717,2.12206732987,-0.0139639838219,-0.274565683682,-0.493552755259,-0.00214485193291,-0.606085193598,-0.0730052898891,0.101564837452,-0.243547544046,0.573913874812,0.81889737732,0.00327056850577,0.0,0.818866493143,-0.573844898825,-0.0118509662293,0.0,-0.00782807682536,0.00947977542691,-0.99992442468,0.0,0.532747686393,0.0917094380159,0.304439280391,1.0,-0.13998,-0.183973714286,2.479
0.288876695285,-0.00338906437969,-0.126847885437,-2.13364672954,0.0120149993122,2.12405656207,-0.0185404315047,-0.272925098697,-0.499206186282,0.00118629358262,-0.577985204496,-0.0659002515951,0.113312873022,-0.242341988297,0.573835249406,0.818952375743,0.00329540660078,0.0,0.818921548208,-0.573765872598,-0.0118730039969,0.0,-0.00783278379194,0.00951201082091,-0.999924081692,0.0,0.53006968649,0.0882753100612,0.30445223485,1.0,-0.13998,-0.183973714286,2.498
0.284469062275,-0.0112397905183,-0.126842165591,-2.1429787564,0.0108264534902,2.12581082491,-0.0224256575156,-0.278102221902,-0.48150239777,-0.000694744691364,-0.588278096497,-0.0698079928566,0.102920668075,-0.246690088077,0.573748692013,0.81901229695,0.00347026794243,0.0,0.818984524272,-0.573679695625,-0.0116919943069,0.0,-0.00758521089507,0.00955054605814,-0.999925623057,0.0,0.527876615394,0.0854007762274,0.304524799069,1.0,-0.13998,-0.183973714286,2.514
0.279639777241,-0.019489238081,-0.12688275201,-2.15304402967,0.00955925225151,2.12728520748,-0.0267021317254,-0.287934663199,-0.480911524176,-0.00279424548392,-0.594035555369,-0.073598608255,0.0825332049817,-0.25145530754,0.573679847937,0.819061570557,0.00321288171886,0.0,0.819029373274,-0.573610438285,-0.0119456145486,0.0,-0.00794140421918,0.00948458544602,-0.999923485442,0.0,0.525404014672,0.082251753658,0.304430396845,1.0,-0.13998,-0.183973714286,2.531
0.275325346876,-0.0268240271655,-0.126987367401,-2.16155516234,0.00846813098544,2.12878611066,-0.0303891557166,-0.289932990199,-0.49084299582,-0.00494579625122,-0.563096271993,-0.077537994203,0.112486228973,-0.245073894537,0.573813589609,0.818966805234,0.00347609071533,0.0,0.818938976462,-0.573744399202,-0.0117074385481,0.0,-0.00759376216961,0.00956477766252,-0.999925422121,0.0,0.523251662639,0.0792768108547,0.304563426067,1.0,-0.13998,-0.183973714286,2.547
0.270065303308,-0.035483846876,-0.127116995525,-2.17184589782,0.00714643784906,2.13042770754,-0.0348949672616,-0.28734798233,-0.48696472789,-0.00156885678876,-0.575826504304,-0.0704307405753,0.0767743825684,-0.250579528986,0.573919242015,0.818892924974,0.00343918201193,0.0,0.818864417529,-0.573849909408,-0.0117513437277,0.0,-0.0076496652313,0.00956073013349,-0.999925034721,0.0,0.52087060934,0.0760904156762,0.304536583514,1.0,-0.13998,-0.183973714286,2.564
0.26506661007,-0.0436070657343,-0.127127488774,-2.18157844973,0.00597826490573,2.13179961921,-0.0393303405391,-0.293611547066,-0.473408462251,-0.000558362199516,-0.56465986101,-0.074611730799,0.0816307020422,-0.253639706897,0.573844902646,0.818945500307,0.003322970805,0.0,0.818914152908,-0.573774356593,-0.0119726682407,0.0,-0.00789847941701,0.00959186713609,-0.999922802074,0.0,0.518563834947,0.0731658031863,0.304464159825,1.0,-0.13998,-0.183973714286,2.58
0.260346876142,-0.0513260927762,-0.127123009424,-2.19033181943,0.00480957579589,2.13325826442,-0.0433816249243,-0.297598576476,-0.476541414299,0.000690353315812,-0.548087625879,-0.0748024564247,0.0867286999417,-0.261228095204,0.573845835157,0.818943660708,0.00360346509143,0.0,0.818917181447,-0.573775837722,-0.0116912308456,0.0,-0.00750702271875,0.00966008959135,-0.999925160839,0.0,0.51627687738,0.0700996403871,0.304601616405,1.0,-0.13998,-0.183973714286,2.597
0.255547296717,-0.0589232388132,-0.127137235506,-2.199262811,0.00363246983017,2.13445698864,-0.0476151647913,-0.301890882761,-0.470379939182,-0.00276354418015,-0.565912914659,-0.0654092851761,0.0682421085614,-0.259888640648,0.573761419025,0.819003253331,0.00350028173045,0.0,0.81897497591,-0.573691194166,-0.0117961634097,0.0,-0.0076531627506,0.00963501210671,-0.999924294955,0.0,0.513997612944,0.0671750665103,0.304561165883,1.0,-0.13998,-0.183973714286,2.613
0.250356799157,-0.0669406318277,-0.127219716966,-2.208739479,0.00241692121856,2.13565895925,-0.0521254528008,-0.304683325068,-0.469301095236,-0.00584069274727,-0.541233671822,-0.0760016921323,0.0773045026644,-0.254369564479,0.573810446341,0.81896957226,0.00334040171001,0.0,0.81893806688,-0.573739371879,-0.0120134371182,0.0,-0.00792227200743,0.00962920322589,-0.999922255004,0.0,0.511411459815,0.063826452823,0.304470369774,1.0,-0.13998,-0.183973714286,2.631
0.245070019767,-0.0750027317408,-0.127383064077,-2.21775540876,0.00116882979332,2.13700276026,-0.0566890564582,-0.309200587754,-0.474189083939,-0.00769608936667,-0.53406428825,-0.0671181903283,0.0783772249913,-0.273363454834,0.573914173078,0.818895792652,0.00359855764386,0.0,0.818868913705,-0.573843750264,-0.011738796876,0.0,-0.0075479868808,0.00968399533767,-0.999924621223,0.0,0.509281589004,0.0608226842135,0.30460211474,1.0,-0.13998,-0.183973714286,2.647
0.239769260459,-0.0829697510407,-0.127422340515,-2.22698181421,4.01754287238e-06,2.13807409757,-0.0613161397059,-0.307039940724,-0.468219121661,-0.00111195988342,-0.536290250705,-0.0715920779034,0.0602512495967,-0.270537773943,0.573915106004,0.818895502509,0.00351482196484,0.0,0.8188663621,-0.573843485609,-0.01192819961,0.0,-0.00775114055949,0.00972413063901,-0.999922677562,0.0,0.506848121651,0.0577083169064,0.304547333482,1.0,-0.13998,-0.183973714286,2.664
0.23446715539,-0.0909098377011,-0.127413583516,-2.23612042838,-0.00119211623868,2.13911530312,-0.0660165141005,-0.313019531005,-0.464517093279,-0.000590429078728,-0.528636468664,-0.0632532574984,0.0604897425744,-0.284330207564,0.573795738821,0.818979503202,0.00343079395986,0.0,0.818948403136,-0.573723375954,-0.0120726047592,0.0,-0.00791904162127,0.0097370398704,-0.999921236315,0.0,0.50441300731,0.0546469520594,0.304496537361,1.0,-0.13998,-0.183973714286,2.681
0.229360294732,-0.0984165934591,-0.127420235865,-2.24435971839,-0.00238595593856,2.14020692543,-0.0704528362293,-0.326901960951,-0.464583821139,0.00036948396954,-0.524283262688,-0.0747358672174,0.0641538223623,-0.281960136417,0.573743856612,0.819014920779,0.00364601736181,0.0,0.818988053196,-0.573672521095,-0.0117963623032,0.0,-0.00756992250983,0.00975432286386,-0.999923771824,0.0,0.502119370851,0.0515514113222,0.304619669113,1.0,-0.13998,-0.183973714286,2.698
0.2238632657,-0.106295556963,-0.127482125593,-2.25327645871,-0.00360170675596,2.14110444302,-0.0751761947236,-0.327422608915,-0.461759883608,-0.00241696613769,-0.523507315398,-0.0711769365719,0.0563768360977,-0.28731499699,0.57380060995,0.818975518471,0.00356469736176,0.0,0.818946969774,-0.573728754056,-0.011913201437,0.0,-0.00771159941976,0.00975528817312,-0.999922679804,0.0,0.499840018418,0.0486000996944,0.304588910274,1.0,-0.13998,-0.183973714286,2.714
0.218238348021,-0.114108004378,-0.12763674231,-2.26212542215,-0.00485932348392,2.14197091336,-0.080036650956,-0.3332028876,-0.464408747002,-0.00785014026196,-0.511076063824,-0.0778741865513,0.0588769943183,-0.280842331219,0.573897162507,0.818908388309,0.00344170387431,0.0,0.818877686924,-0.573825058897,-0.0120367163942,0.0,-0.00788218385097,0.00972635915474,-0.999921631487,0.0,0.497423670822,0.0453857134504,0.304531449768,1.0,-0.13998,-0.183973714286,2.731
0.212643505646,-0.121959075284,-0.127652469517,-2.27058319548,-0.00602329262335,2.1429769564,-0.0849589511161,-0.330035197757,-0.447249066413,0.00148986234065,-0.504553413437,-0.0649879930332,0.0509138981021,-0.286280933552,0.573843284378,0.818944831474,0.00374097276234,0.0,0.818919110266,-0.573771501446,-0.0117686817898,0.0,-0.00749158180249,0.00981712210715,-0.999923747251,0.0,0.495143315354,0.0423113480586,0.304664136138,1.0,-0.13998,-0.183973714286,2.748
0.20697360407,-0.129695568166,-0.127660914583,-2.27922665474,-0.00719532194184,2.1436610898,-0.0899110183851,-0.33787351163,-0.456905962062,0.000989796924239,-0.503159259292,-0.0795726165524,0.0390056112376,-0.293455210091,0.573806535519,0.818971103723,0.00362463290034,0.0,0.818942776081,-0.573733751822,-0.0119607034257,0.0,-0.00771604481069,0.00983168601515,-0.999921897251,0.0,0.492707780532,0.0392230360208,0.304609127312,1.0,-0.13998,-0.183973714286,2.765
0.200870826248,-0.13788038311,-0.127729905443,-2.2882824896,-0.00850978485681,2.14444012936,-0.0952712991533,-0.334679994384,-0.45459384305,-0.0014685052484,-0.493220970559,-0.0766308149772,0.0437926288714,-0.298155345502,0.573761850568,0.819002714232,0.0035552517487,0.0,0.818973245692,-0.57368903036,-0.0120194087446,0.0,-0.00780446971708,0.00980812310466,-0.999921442401,0.0,0.490156641477,0.0359040838467,0.304574551112,1.0,-0.13998,-0.183973714286,2.783
0.195030996527,-0.145662094777,-0.127844702334,-2.2964832294,-0.00966781273251,2.14527738732,-0.100359769776,-0.337116177098,-0.446331044209,-0.00887527374232,-0.479966569235,-0.0754800765412,0.0405158515696,-0.302964726262,0.573834837013,0.818950134487,0.00387349396502,0.0,0.818925951518,-0.573762375716,-0.0117375058693,0.0,-0.00739010919302,0.00990768525209,-0.999923609112,0.0,0.487874406749,0.0327607170067,0.304715147271,1.0,-0.13998,-0.183973714286,2.8
0.189056554324,-0.153266914776,-0.127945093512,-2.30484717376,-0.0108949209118,2.14579249388,-0.105554052073,-0.347859312881,-0.448945005678,-0.000895803861978,-0.493356583228,-0.0711494931955,0.0337318063248,-0.309478206372,0.573878586938,0.818920215449,0.00371417339459,0.0,0.818893123591,-0.573805559513,-0.0119154903017,0.0,-0.00762676938117,0.00987974600538,-0.99992210847,0.0,0.485443709408,0.0295744066164,0.304649305636,1.0,-0.13998,-0.183973714286,2.817
0.183195271382,-0.160879638261,-0.127926558396,-2.31311461984,-0.0121049480287,2.14630294336,-0.110725818256,-0.348464020957,-0.444131289768,0.00118725140101,-0.48373654187,-0.0701992714245,0.0268016691178,-0.306706294659,0.573753376117,0.819008374523,0.00361839151899,0.0,0.818979571159,-0.573680121698,-0.0120136128332,0.0,-0.00776359970505,0.00985642942373,-0.999921285561,0.0,0.483017372447,0.0265363721647,0.304613276307,1.0,-0.13998,-0.183973714286,2.834
0.17753328833,-0.168057036033,-0.127950203327,-2.32055168905,-0.0131343440194,2.14689324589,-0.115716985386,-0.354652587909,-0.44431267527,-0.00337799455397,-0.463464414917,-0.0700628537204,0.0416254266223,-0.313568103022,0.57373475359,0.819020148373,0.0038956364519,0.0,0.818995701004,-0.573661493741,-0.0118016624551,0.0,-0.00743116578196,0.00996172520151,-0.999922767921,0.0,0.480863444948,0.0236359045347,0.304733363165,1.0,-0.13998,-0.183973714286,2.85
0.171059203766,-0.175988973763,-0.128018830002,-2.32911300471,-0.0143562125107,2.14732778057,-0.121353416474,-0.360673332168,-0.435100144949,-0.00508692732308,-0.475338599232,-0.07405306055,0.0191744395489,-0.31008458361,0.573776625642,0.818991225241,0.00380837845258,0.0,0.818964664775,-0.573702368546,-0.0119673337022,0.0,-0.00761641219264,0.00998569598795,-0.999921134961,0.0,0.478299960588,0.0203245673776,0.30467262442,1.0,-0.13998,-0.183973714286,2.868
0.165895396398,-0.182166059365,-0.128185504999,-2.33567029194,-0.0153634718657,2.14763339306,-0.125848657156,-0.370269895931,-0.437342748203,-0.0108253336046,-0.47306703761,-0.068392879016,0.0175179374608,-0.325356254199,0.573886457789,0.818914499152,0.00375813056463,0.0,0.818887004779,-0.573812004834,-0.0120251159308,0.0,-0.00769122943601,0.00997872758909,-0.999920631843,0.0,0.476182103371,0.0174675363566,0.304652574995,1.0,-0.13998,-0.183973714286,2.883
0.159669221632,-0.189642907501,-0.128227728321,-2.34343942906,-0.0164820456905,2.14804785066,-0.131348798852,-0.361764710092,-0.441768518688,0.00162237429297,-0.450017861666,-0.0664060570957,0.0249075069061,-0.326591660872,0.573861096504,0.818931625964,0.00389625658101,0.0,0.818906100079,-0.573786364055,-0.0119479947925,0.0,-0.00754911724931,0.010047351117,-0.999921027664,0.0,0.473974979093,0.0145531682915,0.304703278479,1.0,-0.13998,-0.183973714286,2.899
0.15343050252,-0.197091993435,-0.128237967282,-2.35110262046,-0.0176856744592,2.1484305848,-0.136912998276,-0.370646247515,-0.439589231123,-0.000978920569041,-0.460179963498,-0.0735258137148,0.0128027610031,-0.339864870177,0.573726495066,0.819025486713,0.00398846770719,0.0,0.819002084066,-0.573652707525,-0.011785768832,0.0,-0.00736499155375,0.010028564289,-0.999922589403,0.0,0.471635912635,0.0114821240972,0.304764139434,1.0,-0.13998,-0.183973714286,2.916
0.147037599269,-0.204415296699,-0.128321612101,-2.35886397471,-0.0188234578059,2.14859783124,-0.142514120338,-0.378284791928,-0.43840698908,-0.00870024949665,-0.455516648699,-0.0557693138682,0.00956745768552,-0.329362195216,0.573768284149,0.818996826803,0.00386014160851,0.0,0.81897047533,-0.573693226815,-0.0120078701641,0.0,-0.00762001717462,0.0100512705864,-0.999920450485,0.0,0.469193861268,0.00834512608566,0.304684887681,1.0,-0.13998,-0.183973714286,2.933
0.140533292234,-0.211756792744,-0.128485011669,-2.36644356688,-0.019929741387,2.14879700985,-0.148214471677,-0.39069215379,-0.432634724809,-0.0076539379293,-0.439782181577,-0.0624146718381,0.00546030832576,-0.33262826854,0.573895117891,0.818907730551,0.00390760864155,0.0,0.818881379962,-0.573819046719,-0.0120720369225,0.0,-0.00764377126001,0.0101281460078,-0.999919493469,0.0,0.466802687029,0.00515827962536,0.304680809589,1.0,-0.13998,-0.183973714286,2.95
0.134418201878,-0.218639901456,-0.128540796589,-2.37326822229,-0.0209810278047,2.14904883662,-0.153565189833,-0.378899251677,-0.425632183414,-0.0011494556,-0.430862838485,-0.0622286178823,0.0135639032606,-0.332287700872,0.57393827653,0.818876384492,0.00413141092665,0.0,0.818854125947,-0.57386299483,-0.0118292216603,0.0,-0.00731594727194,0.0101724618271,-0.999921495886,0.0,0.464654177205,0.00223391705597,0.304795378565,1.0,-0.13998,-0.183973714286,2.966
0.127890425314,-0.225833199082,-0.128545114289,-2.38073778986,-0.0221765596511,2.14913743029,-0.159410384482,-0.389402515144,-0.428948149866,-0.00317788255247,-0.441626396003,-0.0762284017387,0.000861523050637,-0.345119485102,0.573791832319,0.818979794888,0.00397185489743,0.0,0.818954902301,-0.573716368329,-0.0119642638784,0.0,-0.0075199169915,0.0101179617347,-0.999920535692,0.0,0.462084684322,-0.00102067656066,0.304718322819,1.0,-0.13998,-0.183973714286,2.984
0.121202745762,-0.233017197754,-0.128607284457,-2.38809072989,-0.0233038815974,2.14915177852,-0.165325449628,-0.397097409849,-0.413330917961,-0.00770314541947,-0.43004225258,-0.0714995630707,-0.000794825886469,-0.350548370057,0.573786014182,0.818984055653,0.00393362626687,0.0,0.81895812739,-0.573709972297,-0.0120499033443,0.0,-0.00761206465038,0.0101357363569,-0.999919658433,0.0,0.459814781327,-0.0039704457832,0.304693256275,1.0,-0.13998,-0.183973714286,3.0
0.11440750678,-0.240210327271,-0.128765443101,-2.39518826508,-0.024430096988,2.14918966506,-0.171306295709,-0.401551011317,-0.425242321006,-0.0131717685824,-0.40948645338,-0.0738829510849,0.00830105663371,-0.355766303803,0.573894181158,0.818907663193,0.00405646365824,0.0,0.818883772594,-0.573818262054,-0.011946380933,0.0,-0.00745545350759,0.0101779267238,-0.999920409843,0.0,0.457469939455,-0.00716187838821,0.304758229478,1.0,-0.13998,-0.183973714286,3.017
0.107600519708,-0.247338545228,-0.128840386922,-2.40216465242,-0.0255216056076,2.14925285822,-0.177361423026,-0.396192549252,-0.410857908832,-0.00148888176856,-0.41677601464,-0.0625225591404,-0.00677405953489,-0.359378437541,0.573898120635,0.818904036174,0.00422771463559,0.0,0.818883169786,-0.573822721238,-0.0117722442164,0.0,-0.00721451848863,0.0102182699265,-0.999921765781,0.0,0.455150197236,-0.0102857696223,0.304835396318,1.0,-0.13998,-0.183973714286,3.034
0.101195895602,-0.253919174405,-0.128843376274,-2.40891321154,-0.0265170525698,2.14918864174,-0.183101426062,-0.409765657032,-0.405270238462,-0.00527110914877,-0.419563998294,-0.065889339089,0.00147991335568,-0.364763166748,0.573803170336,0.818971020924,0.0041395047929,0.0,0.818947844155,-0.573726462913,-0.0119633276366,0.0,-0.00742281811739,0.0102548312889,-0.999919866893,0.0,0.45271239164,-0.0133451459101,0.304740233785,1.0,-0.13998,-0.183973714286,3.051
0.0938254672828,-0.261315339342,-0.128921827897,-2.41627385094,-0.0276941141316,2.1490835513,-0.189648556318,-0.416568297616,-0.407143046317,-0.00569655338105,-0.406568054361,-0.0628607743251,-0.0105309648405,-0.361148483149,0.573824370299,0.818956230969,0.00412682793413,0.0,0.818932675381,-0.573747410829,-0.0119970272142,0.0,-0.00745742692659,0.010263978441,-0.999919515526,0.0,0.450320499092,-0.0164689562204,0.304720673599,1.0,-0.13998,-0.183973714286,3.068
0.0871547321466,-0.267902382602,-0.129097374,-2.42249098409,-0.0287005330697,2.14902597551,-0.195570589829,-0.417550719946,-0.404330611303,-0.0144457675659,-0.383607647373,-0.0605384430606,-0.000859019145436,-0.377315058186,0.57394781774,0.818868461962,0.00436937246745,0.0,0.818849196924,-0.573871605264,-0.0117524580204,0.0,-0.00711639544425,0.0103233535265,-0.999921389554,0.0,0.448167306395,-0.01948278671,0.30483999174,1.0,-0.13998,-0.183973714286,3.084
0.0801084643918,-0.274770469257,-0.129131009307,-2.42918731075,-0.0297840706312,2.14889284521,-0.201885274046,-0.412300193323,-0.393819435144,0.00411498226029,-0.404310815582,-0.0592148949527,-0.0143062793497,-0.372456136522,0.573892882157,0.818906737262,0.00441161858925,0.0,0.818888320427,-0.573816980049,-0.0116935442558,0.0,-0.00704459614784,0.010323663515,-0.999921894768,0.0,0.445811336004,-0.0225672082533,0.304848877497,1.0,-0.13998,-0.183973714286,3.101
0.0729585456858,-0.281583920878,-0.129161089658,-2.43594904439,-0.0308775390984,2.14858984604,-0.208357715944,-0.431270399131,-0.410419436971,-0.00476398915329,-0.386937114445,-0.0621167744579,-0.0176823798605,-0.388263751295,0.573779625039,0.818986769587,0.00428486082839,0.0,0.818965790746,-0.573702838595,-0.0118673281528,0.0,-0.00726108772572,0.010318584199,-0.999920398544,0.0,0.443371685975,-0.0256594942601,0.3047744241,1.0,-0.13998,-0.183973714286,3.118
0.0656930778601,-0.288374261777,-0.129254872794,-2.44250139643,-0.0319387182239,2.14835791794,-0.214831866067,-0.427338786885,-0.391695746774,-0.0100589080339,-0.381004934514,-0.0583326442413,-0.00702825704341,-0.379171086284,0.573825250252,0.818954563264,0.00433040224722,0.0,0.818934198978,-0.573748332347,-0.0118480282621,0.0,-0.0072185747231,0.0103452114554,-0.999920431224,0.0,0.440994644353,-0.0287976835845,0.304774703743,1.0,-0.13998,-0.183973714286,3.135
0.0578705527483,-0.295525812056,-0.129415677013,-2.44914414847,-0.0329795608963,2.14811245297,-0.221808978815,-0.429018727303,-0.40014046284,-0.0019786819399,-0.367659944353,-0.0583006134281,-0.0141166339341,-0.380967317482,0.573968196678,0.818853020263,0.00458119085587,0.0,0.818836660418,-0.573891540266,-0.0116520585526,0.0,-0.00691234974572,0.0104393590462,-0.99992161653,0.0,0.438551887156,-0.0321652175335,0.304874576797,1.0,-0.13998,-0.183973714286,3.153
0.0509973307427,-0.301827611552,-0.129423955993,-2.45509812105,-0.0339525611125,2.14777471045,-0.228107313255,-0.434782736353,-0.385842078071,0.000961051782548,-0.372451131494,-0.0673467885836,-0.0303698180786,-0.401871142868,0.573818006711,0.818958080977,0.0046155906353,0.0,0.818942317427,-0.573741496942,-0.0116156065456,0.0,-0.00686467113183,0.0104453477912,-0.999921882449,0.0,0.436322763244,-0.0350382680182,0.304895271828,1.0,-0.13998,-0.183973714286,3.169
0.0435035275223,-0.308401894735,-0.129473988438,-2.46147307602,-0.0350685776875,2.147305217,-0.234752876119,-0.438239271356,-0.380310758818,-0.00489211105852,-0.369610415437,-0.0608728730374,-0.0265471569179,-0.394237273233,0.573842796801,0.818941653,0.00444527192936,0.0,0.818922972672,-0.573765767516,-0.0117794633959,0.0,-0.00709628499002,0.0104000957567,-0.999920737233,0.0,0.433881372956,-0.0381638935296,0.304818509057,1.0,-0.13998,-0.183973714286,3.186
0.0363847139793,-0.314581338939,-0.129624550843,-2.46727773304,-0.0359663023043,2.14693251803,-0.241186206097,-0.449039237947,-0.386039045367,-0.0135735011888,-0.364663209768,-0.0556536150742,-0.0210014801934,-0.396983672601,0.573925126454,0.818883374867,0.00455131772446,0.0,0.818865675227,-0.573847145436,-0.0117985809224,0.0,-0.00705003681528,0.0104986220405,-0.999920034761,0.0,0.431641662407,-0.0411333109941,0.304822739349,1.0,-0.13998,-0.183973714286,3.202
0.0287802840767,-0.321071272303,-0.12969927043,-2.47321604369,-0.03696941457,2.14651531043,-0.248092737393,-0.448803080975,-0.378997092917,-5.18538162988e-05,-0.333298102364,-0.0560067832037,-0.031083078933,-0.411838984202,0.573901847984,0.818899044964,0.00466582665277,0.0,0.818883513625,-0.573824530652,-0.0116595898889,0.0,-0.00687079351963,0.0105124311042,-0.999921137385,0.0,0.429315982836,-0.0442545178873,0.304884568751,1.0,-0.13998,-0.183973714286,3.219
0.0215865110668,-0.327131400131,-0.129711884306,-2.47871834235,-0.0379396862817,2.14613186904,-0.254661929524,-0.455782333844,-0.3802875319,-0.0013102021102,-0.348766918073,-0.057989399949,-0.0290429513289,-0.408882652886,0.573784316906,0.818980921056,0.00474926522172,0.0,0.818967525599,-0.573708406908,-0.0114718245429,0.0,-0.00667064047652,0.0104720486155,-0.999922916406,0.0,0.426997434457,-0.0473394409238,0.304945178431,1.0,-0.13998,-0.183973714286,3.236
0.0133508027505,-0.333816491091,-0.129777249951,-2.48508765245,-0.038973287081,2.14548223724,-0.262122246617,-0.45283677955,-0.36187397724,-0.00769580975398,-0.352782357689,-0.066034407576,-0.0280780214117,-0.425357239208,0.573793770352,0.818974933682,0.00463831936164,0.0,0.818958692835,-0.573716020463,-0.0117189673419,0.0,-0.00693659592681,0.0105230650187,-0.999920571215,0.0,0.424546876494,-0.0504544901529,0.304854895389,1.0,-0.13998,-0.183973714286,3.253
0.00589665531076,-0.339777983223,-0.129939822533,-2.49052760426,-0.0398560568121,2.14496150954,-0.268784694892,-0.467893603211,-0.378003810005,-0.00398476169839,-0.337580828564,-0.0532877355375,-0.0338623979565,-0.416868618635,0.5739755756,0.818846974418,0.00473476527066,0.0,0.818831723125,-0.573897084157,-0.011725736712,0.0,-0.0068844485934,0.0106074667104,-0.999920039812,0.0,0.422300534492,-0.0534538802814,0.304868766003,1.0,-0.13998,-0.183973714286,3.269
-0.00144592265444,-0.345630900753,-0.129969029732,-2.4958717378,-0.0407449875168,2.1444038706,-0.27562917818,-0.456325219755,-0.359107111642,-0.0022110703619,-0.332946801936,-0.0553634327337,-0.0341935639409,-0.4265673471,0.573811344873,0.81896194026,0.00475686884859,0.0,0.818946819822,-0.573732568386,-0.0117385339207,0.0,-0.00688437447906,0.0106315312417,-0.999919784749,0.0,0.420070192709,-0.0563284271511,0.304868288876,1.0,-0.13998,-0.183973714286,3.285
-0.00946955241119,-0.351809004589,-0.130026838978,-2.50129232639,-0.0417613487968,2.14383195549,-0.282878782156,-0.472419396734,-0.364581393276,-0.00544288682873,-0.319142412181,-0.059635599366,-0.0303121206854,-0.435329485413,0.573830911999,0.81894774271,0.00484004600404,0.0,0.818935024425,-0.573753950519,-0.0115142057631,0.0,-0.00665266538766,0.0105710939128,-0.999921993966,0.0,0.417757457498,-0.0594785260062,0.304956463016,1.0,-0.13998,-0.183973714286,3.302
-0.0175568703121,-0.357894443107,-0.130192784603,-2.50679388312,-0.0427019504636,2.14317378004,-0.290247102279,-0.47927328978,-0.357519826822,-0.0124758582498,-0.329624456551,-0.0552292763049,-0.0434937314597,-0.427153857626,0.573916892529,0.818887266916,0.00487764844445,0.0,0.818874625751,-0.573839154642,-0.0115636846,0.0,-0.00667049684528,0.0106309811556,-0.999921240254,0.0,0.41536471026,-0.0626438153336,0.304947899949,1.0,-0.13998,-0.183973714286,3.319
-0.0256110741649,-0.363923434592,-0.13025017528,-2.51231686206,-0.043643164482,2.14242459945,-0.297711171803,-0.465609659923,-0.356907826139,-0.000433932573429,-0.324129685022,-0.0516140078207,-0.0466002822395,-0.437848449151,0.573809756271,0.818962794325,0.00480125203427,0.0,0.818948156516,-0.573730690527,-0.0117370604805,0.0,-0.00685772223562,0.0106670216893,-0.999919589914,0.0,0.412930452912,-0.0657140150436,0.304888729997,1.0,-0.13998,-0.183973714286,3.336
-0.0338548313765,-0.369883395992,-0.130288726508,-2.51759672444,-0.0445977649239,2.14176089044,-0.305248218843,-0.484847485911,-0.342654041415,-0.000438729814715,-0.301236927183,-0.0489297962585,-0.0401289805837,-0.446063325252,0.573783352847,0.818981179616,0.00482061530265,0.0,0.818967232976,-0.573704916522,-0.0116656320737,0.0,-0.00678845311567,0.0106416763452,-0.999920332641,0.0,0.410563013242,-0.0688411245766,0.3049072083,1.0,-0.13998,-0.183973714286,3.353
-0.0421673615861,-0.375674642775,-0.130432050808,-2.52276748253,-0.0454675397397,2.14101085857,-0.31278506565,-0.494545034168,-0.336615313047,-0.0095422088056,-0.297393832233,-0.048222433761,-0.0479456702568,-0.450353389753,0.573932689134,0.818876358904,0.00485016212,0.0,0.818862048577,-0.573852961984,-0.0117673414048,0.0,-0.00685284972348,0.0107254820847,-0.999918997962,0.0,0.40817798298,-0.0719943815723,0.304885036052,1.0,-0.13998,-0.183973714286,3.37
-0.0504972677337,-0.381481598491,-0.130528911315,-2.52769854638,-0.046330891039,2.14033972414,-0.320496406069,-0.48529997189,-0.341014639651,0.000236215986765,-0.290890831042,-0.0442313370064,-0.0397883306961,-0.459715596457,0.573926342932,0.818879789125,0.00501903896623,0.0,0.818868681572,-0.573847702301,-0.011560441416,0.0,-0.00658657466238,0.0107449825598,-0.999920578038,0.0,0.405871698357,-0.0751226162894,0.304974814,1.0,-0.13998,-0.183973714286,3.387
-0.0584433993456,-0.386864929426,-0.130561356526,-2.53245856677,-0.0472184603897,2.13959340528,-0.327823322943,-0.504337230074,-0.342634480481,-0.00275467286627,-0.30279498606,-0.0567506240195,-0.0530845455807,-0.457506972949,0.573866152413,0.818922351325,0.00495666379285,0.0,0.818910283351,-0.573787463513,-0.0116035098017,0.0,-0.00665843018064,0.0107181308327,-0.999920390321,0.0,0.403608244244,-0.0780524621586,0.304953543813,1.0,-0.13998,-0.183973714286,3.403
-0.0669620772306,-0.392504820026,-0.130672004945,-2.53745451514,-0.0481261416952,2.13876117236,-0.335674470404,-0.502352691761,-0.334679370841,-0.0106927732911,-0.28966608204,-0.0443833225158,-0.0584319506156,-0.458194912272,0.573883538359,0.818910453994,0.00490913849202,0.0,0.818897060103,-0.573803863287,-0.01172511544,0.0,-0.00678506760956,0.0107491367693,-0.999919206194,0.0,0.401181467023,-0.0811877118665,0.304911459648,1.0,-0.13998,-0.183973714286,3.42
-0.0754870464167,-0.398068086338,-0.130796200903,-2.54219866383,-0.0489711918482,2.13800520982,-0.343636936842,-0.496318828391,-0.325908890681,-0.00867795836431,-0.276900920353,-0.0535980830854,-0.0517190734759,-0.475091457203,0.573860109488,0.818926253907,0.00501121756868,0.0,0.818914535725,-0.573780676165,-0.0116389750037,0.0,-0.0066562505476,0.0107831099869,-0.99991970621,0.0,0.398831416242,-0.0843110021764,0.304948673694,1.0,-0.13998,-0.183973714286,3.437
-0.0841030477408,-0.403447023605,-0.130832726726,-2.54689524501,-0.0498234120268,2.13714750863,-0.351608165854,-0.51512190493,-0.314859048052,-0.00393125966062,-0.276609392905,-0.0479299908672,-0.0492966753194,-0.471191338508,0.573834705912,0.818944368106,0.00495975195901,0.0,0.818931419659,-0.573754537432,-0.0117391470186,0.0,-0.00676815845422,0.0107982345895,-0.999918791783,0.0,0.396447588254,-0.0874052281245,0.304916567791,1.0,-0.13998,-0.183973714286,3.454
-0.0928716550763,-0.408821093041,-0.130921632443,-2.55143358671,-0.0506900340742,2.13632446073,-0.359692281787,-0.510258362579,-0.314532120091,-0.0147519712537,-0.262020025884,-0.0495468968894,-0.0397562360345,-0.476634449965,0.573878710626,0.818913345623,0.00499046618042,0.0,0.818901188897,-0.573799065709,-0.0116714145202,0.0,-0.00669448117061,0.0107848826467,-0.999919431868,0.0,0.394083667056,-0.0905611539274,0.304946900395,1.0,-0.13998,-0.183973714286,3.471
-0.101131154924,-0.413821739536,-0.131057153719,-2.55561555444,-0.0514690324553,2.13560435993,-0.367440582999,-0.512578763297,-0.310023335722,-0.00568952113972,-0.26336852267,-0.0418116477905,-0.0445268635995,-0.493592065726,0.573868179172,0.818920090187,0.0050936943896,0.0,0.818909871031,-0.573789197041,-0.0115467479767,0.0,-0.00653328286658,0.0107977957434,-0.99992035874,0.0,0.391873234369,-0.0935260216317,0.304988404326,1.0,-0.13998,-0.183973714286,3.487
-0.109946215556,-0.41906356164,-0.131108255788,-2.560083245,-0.0522272803695,2.1346758648,-0.375697701798,-0.531789357336,-0.305265212262,-0.00306151886444,-0.262740999136,-0.0487089167349,-0.0549516457936,-0.487237646782,0.573827158458,0.81894871324,0.00511313992835,0.0,0.818938003266,-0.573746898829,-0.0116528876768,0.0,-0.0066095964465,0.0108742973907,-0.999919028167,0.0,0.389464200099,-0.0966066690206,0.304972512178,1.0,-0.13998,-0.183973714286,3.504
-0.118932312709,-0.424178560585,-0.131188371523,-2.56440789347,-0.0530195312057,2.13376794294,-0.384006347993,-0.531539130053,-0.299833502307,-0.00469092976674,-0.252914931191,-0.0416072583258,-0.0516201308768,-0.49534752786,0.57389486815,0.818901232807,0.00511840982996,0.0,0.818890192955,-0.573813925559,-0.0117122849068,0.0,-0.00665431782824,0.0109132459294,-0.999918307222,0.0,0.387060828005,-0.0997477908095,0.304963662926,1.0,-0.13998,-0.183973714286,3.521
-0.127856573343,-0.429096120144,-0.131305890021,-2.56856411443,-0.0538092877947,2.13293660272,-0.39237941802,-0.522797624333,-0.286263783597,-0.000532312364571,-0.240720498497,-0.0457964780806,-0.0542247063924,-0.503105269014,0.573906931452,0.818892659051,0.00513749796363,0.0,0.818881743572,-0.573825721529,-0.0117251122283,0.0,-0.006653707959,0.0109363370283,-0.999918058994,0.0,0.384842107835,-0.102680484523,0.304951765708,1.0,-0.13998,-0.183973714286,3.537
-0.136314595894,-0.433663606418,-0.131329488875,-2.57242707179,-0.0545282585389,2.13209363844,-0.400397456876,-0.536618699372,-0.28442041041,-0.0048018568796,-0.244000424934,-0.0446780043385,-0.0514413833029,-0.502055726842,0.573782978668,0.818979739565,0.00510161481518,0.0,0.818967826073,-0.573701042473,-0.0118135779259,0.0,-0.00674840916311,0.0109566992761,-0.99991720143,0.0,0.382321435066,-0.105940752414,0.304919077931,1.0,-0.13998,-0.183973714286,3.555
-0.146638493247,-0.439046520409,-0.131453085013,-2.57686868932,-0.0553680108929,2.13106240548,-0.409958757954,-0.545901725281,-0.283999267781,-0.01443786776,-0.229145478244,-0.0429282936786,-0.052281555584,-0.499988478109,0.573912025468,0.818889035192,0.00514606318426,0.0,0.818877545574,-0.573829662305,-0.0118250122692,0.0,-0.00673053877278,0.0110007241303,-0.9999168385,0.0,0.37978895836,-0.109301842147,0.304934812625,1.0,-0.13998,-0.183973714286,3.573
-0.155745178211,-0.443795863396,-0.131541812018,-2.58061729107,-0.0561056885209,2.13024077362,-0.418596750997,-0.52608706119,-0.280266222403,0.00101093648576,-0.224045911402,-0.0390882851771,-0.0423012801705,-0.506115719319,0.573857345908,0.818926615584,0.00526229377141,0.0,0.8189178483,-0.573776627531,-0.0116054442363,0.0,-0.00648475084911,0.0109694669162,-0.999918806105,0.0,0.377476105534,-0.112410804086,0.305019709894,1.0,-0.13998,-0.183973714286,3.59
