nelsonifechukwu/NELSON_IML_WORK/CNN-GradCAM/train2dof/data_sample_2022-02-22-11-32-58/robot_state.csv
position_joint1,position_joint2,position_joint3,position_joint4,position_joint5,position_joint6,position_joint7,velocity_joint1,velocity_joint2,velocity_joint3,velocity_joint4,velocity_joint5,velocity_joint6,velocity_joint7,ee_T_00,ee_T_10,ee_T_20,ee_T_30,ee_T_01,ee_T_11,ee_T_21,ee_T_31,ee_T_02,ee_T_12,ee_T_22,ee_T_32,ee_T_03,ee_T_13,ee_T_23,ee_T_33,v_x,v_y,time
0.465073330291,0.547765772928,-0.124018336312,-1.35583635156,0.0794583514659,1.89409316506,0.159149561626,-0.000264421371159,0.00124736165906,-0.00112385312433,0.00159521575713,-0.000300266939225,0.000114187789415,0.000101241862307,0.573808057953,0.818975810251,0.00191878946915,0.0,0.818932775416,-0.573750119299,-0.011859884268,0.0,-0.00861221845295,0.0083768180245,-0.999927826702,0.0,0.661684524596,0.260865538926,0.303223972613,1.0,0.0,0.0,0.0
0.465070546551,0.547765410098,-0.124011224967,-1.35583921215,0.079460121186,1.89409632495,0.159144997131,-0.00121932851056,-0.0005194935902,0.00101708239475,0.000570067129347,-7.57583351138e-05,8.48185982249e-05,-0.00143717338067,0.5738022774,0.818979852544,0.00192210252948,0.0,0.818936808882,-0.573744275316,-0.0118640845061,0.0,-0.00861381669916,0.00838188059786,-0.999927770511,0.0,0.661683502321,0.260867979324,0.303222910354,1.0,-0.0001,-0.000131428571429,0.006
0.465070978862,0.547762252143,-0.124012882283,-1.35584154625,0.079460029222,1.89409680946,0.159149201557,-0.000656789951885,-0.00429780026992,0.00141918459875,0.00038416036496,0.00011897841168,0.000327970490282,-0.000215238731713,0.573806625395,0.818976804452,0.00192284265016,0.0,0.818933778402,-0.573748627511,-0.0118627957059,0.0,-0.00861229200093,0.00838179294401,-0.999927784379,0.0,0.661683420597,0.260867088939,0.303224133357,1.0,-0.00038,-0.000499428571429,0.02
0.465069128607,0.547763626363,-0.124018002095,-1.3558507254,0.0794598632676,1.89409626575,0.159147769605,-0.000792714913361,-0.000413195293977,-0.00115745991749,0.000175131230276,-0.000141121914662,0.000296241979202,-2.77721579628e-05,0.573811000576,0.81897376371,0.00191229544774,0.0,0.818930617971,-0.573753062592,-0.0118664660644,0.0,-0.00862130499184,0.00837530730912,-0.999927761055,0.0,0.661682837491,0.260861727784,0.303218913143,1.0,-0.0007,-0.00092,0.036
0.465072164878,0.547722295577,-0.12401347125,-1.35589818095,0.0794564535937,1.8940987091,0.159146019321,0.00124525830777,-0.00147330726821,9.92037168132e-05,-0.00431401588387,0.000170724525616,-0.000196074649806,-0.000648305013237,0.573805546145,0.818977588702,0.00191084238791,0.0,0.818934385865,-0.573747577719,-0.0118716304816,0.0,-0.00862642419968,0.00837702323319,-0.99992770253,0.0,0.661671896996,0.260860881369,0.303225661408,1.0,-0.00104,-0.00136685714286,0.053
0.465071586053,0.547586484067,-0.124013707982,-1.35604528702,0.0794528855177,1.8941317239,0.159144093918,0.00201870118817,-0.00665218359088,-0.000391945688567,-0.00816433302848,0.000152249425239,-5.3145545931e-07,-0.00065158018714,0.573811684251,0.8189732337,0.00193401178478,0.0,0.818930257537,-0.573753546908,-0.0118679232982,0.0,-0.00861003116934,0.00839393543456,-0.999927701992,0.0,0.661648754939,0.260846351667,0.303254721544,1.0,-0.00138,-0.00181371428571,0.07
0.465057070422,0.547445445355,-0.124015503058,-1.35624054501,0.0794536754859,1.89417567448,0.15914141451,-0.000899408126221,-0.0120385479849,-0.00147927001699,-0.0156384255564,-0.000188678488622,0.00591343656297,-0.000821282538418,0.573833554417,0.818957912304,0.00193302897394,0.0,0.818914781271,-0.573775279983,-0.0118851166428,0.0,-0.00862445211997,0.00840322651533,-0.999927499677,0.0,0.661620630224,0.260817493781,0.303265571906,1.0,-0.00172,-0.00226057142857,0.087
0.46504006216,0.547272990871,-0.124013000652,-1.35645593649,0.0794467584286,1.89430758877,0.159134474899,-0.000599591396605,-0.0156295237751,0.00448460718914,-0.0125590557766,0.000102532724029,0.000320195571205,-0.000512293472213,0.573850584338,0.818945791031,0.00201124554058,0.0,0.818903679612,-0.573791990325,-0.0118432368334,0.0,-0.00854509689475,0.00844342731323,-0.999927842324,0.0,0.661606363686,0.260792240806,0.303296571406,1.0,-0.00206,-0.00270742857143,0.104
0.465021197635,0.547099824388,-0.124008421233,-1.35665324316,0.0794444753686,1.89440736473,0.159123691814,-0.00425317450261,-0.0115787015912,0.00077548476162,-0.014843979277,-0.000122457801818,0.0111642639078,-0.00110259106791,0.573864544732,0.818935831578,0.00208205615617,0.0,0.818894568043,-0.573805593315,-0.0118141614252,0.0,-0.00848050791921,0.00848487620448,-0.999928041342,0.0,0.661589590516,0.260767682886,0.303333825139,1.0,-0.00236,-0.00310171428571,0.119
0.46499214169,0.546895448675,-0.124008421554,-1.35692372018,0.079440507481,1.89453668047,0.159112026706,-0.00486288855243,-0.0197135562392,0.00107110049045,-0.0170624694795,-2.18997466531e-05,0.00815129357125,-0.00198525910785,0.573893018976,0.818915723137,0.00214197824617,0.0,0.818875168406,-0.573833757957,-0.0117908310981,0.0,-0.0084267197891,0.008520852505,-0.999928190155,0.0,0.661566541997,0.260727185931,0.303361064437,1.0,-0.00268,-0.00352228571429,0.135
0.464955106073,0.546628094822,-0.124010929804,-1.35735267996,0.0794282076609,1.89468788526,0.159054056271,-0.00065651753457,-0.0183322190482,-8.15289419591e-05,-0.0258984735276,0.000430831657239,0.013661976712,-0.00414040067207,0.573898339112,0.818912000158,0.00213992146307,0.0,0.818871296045,-0.573838961516,-0.0118065092758,0.0,-0.00844068432517,0.00852822052066,-0.99992800956,0.0,0.661516259008,0.260662096644,0.303359429582,1.0,-0.00306,-0.00402171428571,0.154
0.464913576277,0.546356706047,-0.124011164981,-1.35775949926,0.0794138414022,1.89483547418,0.158936231432,-0.00116304476572,-0.0160024345572,0.000547539904558,-0.0281564040637,-0.000224929464258,0.00921213745278,-0.00578652502238,0.573854936377,0.818942370941,0.00215684369347,0.0,0.818901785154,-0.573795394923,-0.0118092310026,0.0,-0.00843365503139,0.0085431931395,-0.999927941061,0.0,0.661471178613,0.260597456138,0.303370781082,1.0,-0.00338,-0.00444228571429,0.17
0.464860045922,0.546042311451,-0.124010907088,-1.3582823834,0.0793840386797,1.89501335463,0.158918695598,0.00018525245254,-0.0144495871431,0.00139589230671,-0.0258247292198,-0.000970298734721,0.00580997091162,-0.00123890950601,0.573905496234,0.818907007544,0.00213103024145,0.0,0.818866047873,-0.573846011522,-0.011827831652,0.0,-0.00846317396168,0.00853325019682,-0.999927776556,0.0,0.661410469736,0.260511502376,0.303359910058,1.0,-0.00374,-0.00491542857143,0.188
0.464808674507,0.545771913544,-0.124016910127,-1.35874437898,0.0793317062984,1.89517110448,0.158866858135,-0.00049621806857,-0.017670778913,-0.00126703542052,-0.0334922824593,-0.00171822367824,0.0109580790052,-0.00455322986459,0.573921194759,0.818896119552,0.00208674126288,0.0,0.818854811868,-0.573862112661,-0.0118245352344,0.0,-0.00848572764578,0.00849525307336,-0.999927908952,0.0,0.661360656773,0.260424988781,0.303345266681,1.0,-0.00402,-0.00528342857143,0.202
0.464751789951,0.54537939307,-0.124014809562,-1.35940987488,0.0792774249998,1.89538822067,0.158779045417,0.000116223681385,-0.0239251633224,0.00108467920025,-0.0398863104081,-0.000673569818207,0.00758422868913,-0.00807266787764,0.573917009806,0.818899190557,0.00203186166898,0.0,0.818857239632,-0.573858217982,-0.0118454065909,0.0,-0.00853435766541,0.00846224789266,-0.999927774942,0.0,0.661278787413,0.260320685211,0.303325086664,1.0,-0.00438,-0.00575657142857,0.22
0.464691742651,0.544992469525,-0.124018058246,-1.36006521265,0.0792633044869,1.89560192041,0.15867881848,-0.00353622098886,-0.0276524609247,-0.000301927091702,-0.0387517052475,-1.88673075088e-05,0.0177552808708,-0.00355161028137,0.573919072575,0.818897826597,0.00199865734632,0.0,0.818855181966,-0.573860157011,-0.0118936144168,0.0,-0.00859287061708,0.00846274601472,-0.999927269607,0.0,0.66119814788,0.260218601004,0.303305701611,1.0,-0.0047,-0.00617714285714,0.236
0.464626838339,0.544560345543,-0.124026478076,-1.36078068643,0.0792350549169,1.89585023649,0.158620100824,-0.00118597059856,-0.0191837359286,-0.00278788854162,-0.0433353046744,-0.000134039248254,0.0113421720326,-0.00346773268954,0.573962366465,0.818867541946,0.00197421662529,0.0,0.818824458845,-0.573903428388,-0.0119208801517,0.0,-0.00862877826877,0.00845883630089,-0.999926993472,0.0,0.661114940326,0.260103834136,0.303292802048,1.0,-0.00504,-0.006624,0.253
0.46456463165,0.54407789208,-0.124026488308,-1.36156397753,0.0791966349071,1.89613814258,0.158504635165,-0.00463471559497,-0.0353746819315,-0.000129478493615,-0.0484621409911,-3.2493698445e-05,0.0159177636763,-0.00723061703833,0.573952226778,0.818874665257,0.00196745477511,0.0,0.818831400307,-0.573893226256,-0.0119352264584,0.0,-0.00864451203617,0.00846142646015,-0.99992683566,0.0,0.661023201248,0.259989380195,0.303286338595,1.0,-0.00538,-0.00707085714286,0.27
0.464500505406,0.54360361684,-0.124023467864,-1.36234691771,0.079158927683,1.89640463729,0.158409044769,-0.00650445842181,-0.0298953112114,-0.000187859368,-0.047478589483,-0.0046924230938,0.0143290970722,-4.47284755323e-05,0.573958708876,0.818870192723,0.00193775040901,0.0,0.818826406441,-0.573899701354,-0.0119664448213,0.0,-0.00868705784876,0.00845508921011,-0.999926520547,0.0,0.660920633015,0.259868798288,0.303273992016,1.0,-0.00572,-0.00751771428571,0.287
0.46441704061,0.543035929739,-0.124023733925,-1.36325461334,0.0790993430048,1.89673024184,0.158292081714,-0.00103481021208,-0.02773805635,-0.000552550655346,-0.051783909412,-0.000496048802299,0.0104848180392,-0.00178165178088,0.573965149654,0.818865715273,0.00192203891094,0.0,0.81882173582,-0.573906219235,-0.0119734444718,0.0,-0.00870174062256,0.00844630970314,-0.999926467078,0.0,0.66082262399,0.259730857174,0.30327000803,1.0,-0.00606,-0.00796457142857,0.304
0.464346324366,0.542472731882,-0.124026826341,-1.36411220763,0.0790471004224,1.89703280029,0.158179471045,-0.0037414283677,-0.0373221330992,0.000358197839622,-0.0497078293565,-0.00455986497543,0.0151551997888,-0.00131523924429,0.573966634873,0.818864658683,0.00192865588654,0.0,0.818820757895,-0.573907668818,-0.0119708401722,0.0,-0.008695794969,0.00845024901848,-0.999926485519,0.0,0.660722160857,0.259600014647,0.303286466393,1.0,-0.00638,-0.00838514285714,0.32
0.464264343816,0.541881684981,-0.124026638817,-1.3650438824,0.0789978393311,1.89738372881,0.158050939056,-0.00638676150648,-0.0333873836971,0.000794491708519,-0.0528040085185,-0.00160276957962,0.0217681694831,-0.0111401650539,0.573967050293,0.818864339204,0.00194063369372,0.0,0.818820527733,-0.573907968426,-0.0119722195644,0.0,-0.0086900458321,0.0084608531517,-0.999926445829,0.0,0.66061686687,0.259458971014,0.303291390262,1.0,-0.00672,-0.008832,0.337
0.464177217916,0.541235223608,-0.124024642734,-1.36604430249,0.0789404387411,1.89775782188,0.157935399556,-0.00669426411926,-0.0366375257852,9.3712906951e-05,-0.0575130592827,-0.000563602476981,0.0272072528436,-0.00176762377205,0.573982589856,0.818853402226,0.00195936394632,0.0,0.818809794765,-0.573923387729,-0.0119671181111,0.0,-0.00867495760603,0.00847342697698,-0.99992647037,0.0,0.66050300779,0.259308410004,0.303304627915,1.0,-0.00706,-0.00927885714286,0.354
0.464082638476,0.540537439919,-0.124032966677,-1.36711045727,0.0788756497625,1.89814426986,0.157792836028,-0.00170137667537,-0.0393300705709,-0.00166773278988,-0.0615993479592,-0.000864931876203,0.0193710110052,-0.00918727586926,0.573990837802,0.818847588189,0.00197290071857,0.0,0.818804182576,-0.57393160252,-0.0119571370181,0.0,-0.00865892944915,0.00847886969944,-0.999926563158,0.0,0.660382310374,0.25913946868,0.303324157001,1.0,-0.0074,-0.00972571428571,0.371
0.463985608101,0.539847788421,-0.124036054343,-1.36815323117,0.0788051051469,1.89853420564,0.157665491359,-0.00521761951646,-0.0499350640841,-0.000993303993359,-0.0681700833406,-0.00701393610714,0.0267466695831,-0.0126319495777,0.574007033865,0.818836170965,0.0019992733879,0.0,0.818793192061,-0.57394776793,-0.011933784991,0.0,-0.00862450235708,0.00848723137006,-0.999926789752,0.0,0.660267057126,0.258973931947,0.303349076264,1.0,-0.00772,-0.0101462857143,0.387
0.46387525174,0.539087696438,-0.124036489805,-1.3693239341,0.078749345112,1.89898192293,0.15752580966,-0.00906364403795,-0.0460145391287,-0.000533323602181,-0.0744590935596,0.000469626310368,0.0287742341247,-0.00813705141981,0.574033238094,0.818817705309,0.00203812077395,0.0,0.818775109711,-0.573973686767,-0.0119278463671,0.0,-0.00859706961715,0.0085159067915,-0.999926782182,0.0,0.660137413858,0.258793191572,0.303367728561,1.0,-0.00806,-0.0105931428571,0.404
0.463762683919,0.538320997918,-0.124044975509,-1.37051478855,0.0786857424516,1.8994429385,0.157368641564,-0.00969156809862,-0.0519286781358,-0.00153861323458,-0.069248568818,-0.00218952965087,0.0277814457593,-0.00638634354187,0.574051557037,0.818804780251,0.00207089403494,0.0,0.818762595411,-0.573991852694,-0.0119126948095,0.0,-0.00856566006736,0.00853423588926,-0.999926895471,0.0,0.660008538353,0.258603662594,0.303382733283,1.0,-0.0084,-0.01104,0.421
0.463662261433,0.537582085381,-0.124056828873,-1.37168799266,0.0786032901026,1.89989033257,0.157228777518,-0.00689688524062,-0.0472544834791,-0.000639713505619,-0.0776256242966,-0.00935054879535,0.0261740756423,-0.00342306705424,0.574069774164,0.81879201548,0.00206801324237,0.0,0.818749977493,-0.574010263019,-0.0118928215961,0.0,-0.00855085116966,0.00852065925261,-0.999927138001,0.0,0.659868732664,0.258405910326,0.303385716379,1.0,-0.00874,-0.0114868571429,0.438
0.463555978477,0.536744826426,-0.124063423502,-1.37298951867,0.0785335638542,1.90037221886,0.157076031978,-0.00717423473916,-0.0512074113724,0.000483581957212,-0.0722585007044,-0.00603744654974,0.0336700574908,-0.00350774584207,0.574092106331,0.81877627438,0.00210068138023,0.0,0.818734567047,-0.574032365337,-0.0118869327239,0.0,-0.00852704355994,0.00854425920907,-0.999927139927,0.0,0.659719972186,0.258213391283,0.303405251042,1.0,-0.00908,-0.0119337142857,0.455
0.463437285984,0.535886014677,-0.124068869071,-1.37433530079,0.0784562393556,1.90086781068,0.156912397384,-0.00534642553067,-0.0499387356968,-0.00133732338437,-0.0862005794932,-0.0112453775522,0.025613593722,-0.0183639122844,0.574110181552,0.818763610558,0.00209675128539,0.0,0.818721844189,-0.574050446335,-0.0118900719538,0.0,-0.00853168149278,0.00854303192709,-0.999927110852,0.0,0.659573325584,0.258013115505,0.303407664364,1.0,-0.0094,-0.0123542857143,0.471
0.463331953365,0.53499022656,-0.124065820557,-1.37574873008,0.0783818270845,1.90137735326,0.156746958912,-0.00585170787971,-0.0478575765246,0.000100200518878,-0.0875702658346,-0.00133162982758,0.0307503801527,-0.00748227076725,0.574116396316,0.818759253866,0.00209632789162,0.0,0.81871733165,-0.574056511556,-0.0119079510056,0.0,-0.0085464989505,0.00855301456859,-0.999926898977,0.0,0.659400838141,0.257811934867,0.303411090011,1.0,-0.00974,-0.0128011428571,0.488
0.463206633556,0.534084692236,-0.124070466837,-1.37721571115,0.078301676637,1.90190454949,0.156559009492,-0.00652454741521,-0.0552951487136,-0.000705038079757,-0.0832285392137,-0.000363130906819,0.0318226768234,-0.0156742660025,0.574127243136,0.818751714949,0.00206998966045,0.0,0.818709351384,-0.574067366806,-0.0119332823051,0.0,-0.00858224707346,0.00854610690274,-0.999926651856,0.0,0.659226549528,0.257587164907,0.303397509666,1.0,-0.01008,-0.013248,0.505
0.463078062726,0.533179326027,-0.124062724554,-1.37869122167,0.0782154540483,1.90246957324,0.156368949959,-0.00765872375908,-0.0529594335638,0.000804588147935,-0.0808593632128,-0.00682486609777,0.0225303908405,-0.0139273153975,0.57412922066,0.818750336369,0.00206678040882,0.0,0.818707868708,-0.574069295329,-0.0119422266918,0.0,-0.00859139235894,0.00854863527482,-0.999926551709,0.0,0.659055791546,0.257368032203,0.303382443816,1.0,-0.01042,-0.0136948571429,0.522
0.462941704758,0.532225220869,-0.12406533641,-1.38024019029,0.0781274107856,1.90305131275,0.156175401727,-0.0087282231474,-0.0552283874034,-0.000585120315495,-0.0917919469146,-0.0101199580054,0.0348676220079,-0.00879432695137,0.574145306927,0.818739082845,0.00205612663721,0.0,0.818696426188,-0.574085373858,-0.0119537513361,0.0,-0.00860677688339,0.00854669830991,-0.999926435964,0.0,0.658876611915,0.257130537993,0.303368378669,1.0,-0.01076,-0.0141417142857,0.539
0.462821673992,0.531294760129,-0.124065247746,-1.38174057987,0.0780426217573,1.90360031969,0.155983374032,-0.00831735695078,-0.059986782867,0.00152990407787,-0.0950040826633,-0.0105412887821,0.04645357446,-0.00549344226713,0.574145837733,0.818738757794,0.0020372533347,0.0,0.818695750459,-0.574085879579,-0.0119757233266,0.0,-0.0086355967295,0.00854386684543,-0.999926211682,0.0,0.658683029812,0.256895143357,0.303357502982,1.0,-0.0111,-0.0145885714286,0.556
0.462678767123,0.530260107194,-0.124070864972,-1.38338600864,0.0779296305651,1.90417058342,0.155778388617,-0.0108592717723,-0.0607671534768,-0.000286339932473,-0.0991761937744,-0.0110908526702,0.0390207064351,-0.00930527226668,0.574157286812,0.81873082583,0.00199793327115,0.0,0.818687392155,-0.574097577758,-0.0119863272419,0.0,-0.00866673381147,0.00851788390319,-0.999926163964,0.0,0.658497221076,0.256650492914,0.303353057053,1.0,-0.01142,-0.0150091428571,0.572
0.462537874168,0.529201450744,-0.124076956476,-1.38503656561,0.0778402300336,1.90478807153,0.155548936241,-0.00850637207486,-0.0673787864768,-0.00145067681526,-0.0997119082368,-0.00236886863444,0.037302060355,-0.00577182920768,0.574154715712,0.818732565918,0.0020235694149,0.0,0.818689387016,-0.574094820649,-0.0119821280799,0.0,-0.0086486042601,0.008536434498,-0.999926162739,0.0,0.65830493188,0.256399589039,0.303366843963,1.0,-0.01176,-0.015456,0.589
0.462375022089,0.527992659063,-0.124074425722,-1.38693436134,0.0777108999231,1.90552081634,0.155280092672,-0.010690813219,-0.0651623086049,0.000446947873918,-0.0974408024999,-0.00529111236416,0.0368500793013,-0.0201536331513,0.574134293496,0.818746816968,0.00205174021961,0.0,0.818704137547,-0.574074414165,-0.0119519481901,0.0,-0.008607933702,0.0085419559961,-0.999926466529,0.0,0.658087080045,0.256113274634,0.303378066574,1.0,-0.01214,-0.0159554285714,0.608
0.462256497617,0.527036266109,-0.124076583226,-1.38839595136,0.0776217643982,1.90607354201,0.155074043069,-0.00467456622034,-0.0681524754842,-0.00242048577519,-0.106697482826,-0.0102450610241,0.0376909734912,-0.0103916348392,0.574123905201,0.818753994604,0.00209396722071,0.0,0.818711899139,-0.574063886603,-0.0119259049212,0.0,-0.00856247618655,0.00856146782119,-0.999926689948,0.0,0.657903415902,0.255879451456,0.303406554927,1.0,-0.01244,-0.0163497142857,0.623
0.462082539538,0.525742369061,-0.12408072722,-1.39041787819,0.0774968606698,1.90681813319,0.154806083293,-0.0102014077354,-0.0702111431678,0.000147019588539,-0.107527426107,-0.000749514183548,0.0405936804636,-0.0199368319913,0.574120517795,0.818756347428,0.00210273520368,0.0,0.81871435239,-0.574060449928,-0.0119229157666,0.0,-0.00855503055753,0.00856689500338,-0.999926707195,0.0,0.657676433121,0.255586662853,0.303416189502,1.0,-0.0128,-0.0168228571429,0.641
0.46189876754,0.524354656005,-0.12408974231,-1.39262833994,0.0773667827514,1.90760866735,0.154505234177,-0.0132777902363,-0.0673886455146,-0.000434119783142,-0.113138046446,-0.00786585014057,0.0375556470304,-0.01609170448,0.57411475909,0.818760455161,0.0020754183793,0.0,0.818718033974,-0.574054734072,-0.0119452934568,0.0,-0.00858909552859,0.00855731648522,-0.999926497185,0.0,0.657407527151,0.255249045287,0.303408885515,1.0,-0.0132,-0.0173485714286,0.661
0.461788058368,0.523508638252,-0.124092882247,-1.39397050235,0.0772785029342,1.908097377,0.154326788526,-0.0130248993149,-0.0721165484847,-7.33767110049e-05,-0.111266506841,-0.0104258482662,0.0358550133399,-0.00492726235633,0.57410967689,0.81876404696,0.00206426939374,0.0,0.81872152277,-0.574049740697,-0.0119461399405,0.0,-0.00859624207729,0.0085486209102,-0.999926510151,0.0,0.657245421282,0.255045147391,0.303407303202,1.0,-0.01344,-0.017664,0.673
0.461627739785,0.522292677341,-0.124094187744,-1.39591167011,0.0771598822598,1.90885400879,0.154074380444,-0.010275153529,-0.0763135599802,0.00338572475074,-0.114153417027,-0.00660083617573,0.0479163457776,-0.0118535625269,0.574107469839,0.818765535883,0.0020873971585,0.0,0.818723347443,-0.574047472864,-0.0119300524319,0.0,-0.00856981570433,0.00855829777953,-0.999926654209,0.0,0.657018991622,0.25475673141,0.303403613345,1.0,-0.01378,-0.0181108571429,0.69
0.46146928741,0.521046514263,-0.124093751554,-1.39791946194,0.0770416571198,1.90962181781,0.153793460017,-0.0037522810345,-0.0801611916901,0.000835901852089,-0.118513637069,-0.00420089946774,0.0473073233809,-0.0179492174497,0.574082503492,0.81878302857,0.00209241747872,0.0,0.818740865481,-0.574022448999,-0.0119318958174,0.0,-0.00856870416264,0.008563205188,-0.999926621721,0.0,0.656778317448,0.254463911805,0.303390026592,1.0,-0.01412,-0.0185577142857,0.707
0.461308066924,0.519830363127,-0.124098930682,-1.39984612952,0.0769209703431,1.91032240503,0.153536437281,-0.00893275769524,-0.0767246846462,-1.69313537021e-05,-0.124156465304,-0.00303580386574,0.0457961921673,-0.0195614986532,0.57407695841,0.818786964438,0.00207354525204,0.0,0.818744583473,-0.574017010225,-0.0119384214596,0.0,-0.0085849389076,0.00855144126516,-0.999926583143,0.0,0.656529036753,0.254149743215,0.303384733233,1.0,-0.01446,-0.0190045714286,0.724
0.461135766892,0.518475616631,-0.124099996078,-1.40190738085,0.0767880856906,1.91105770371,0.153255816993,-0.0116714576102,-0.0771225702629,-0.00133323313829,-0.119191861878,-0.00485060589369,0.0465284686768,-0.0179462023313,0.574063137784,0.818796580737,0.00210240600664,0.0,0.818754556785,-0.574003053767,-0.0119254731966,0.0,-0.00855791397538,0.00856749401178,-0.999926677389,0.0,0.65629034795,0.253858244273,0.303421549052,1.0,-0.01478,-0.0194251428571,0.74
0.460933914031,0.516971235913,-0.124105318313,-1.40428910907,0.0766373534326,1.91190852873,0.152921549521,-0.00575634875485,-0.0779858019028,0.000149602714788,-0.127100689842,-0.00439974871759,0.0355451955443,-0.0242181237165,0.574043756257,0.818810236441,0.00207593428071,0.0,0.818767855482,-0.573983771352,-0.0119405174109,0.0,-0.0085856305969,0.0085542524212,-0.999926553159,0.0,0.655996424771,0.253493193773,0.303417382379,1.0,-0.01516,-0.0199245714286,0.759
0.460762278159,0.515699685544,-0.12410930814,-1.40633603233,0.0765062277835,1.91269569976,0.152656470977,-0.00851184073876,-0.0765194195175,0.000939488433674,-0.130184196757,-0.00868947233885,0.048968186948,-0.0186207904765,0.574043006055,0.818810755608,0.00207860571195,0.0,0.818768489184,-0.573983089708,-0.0119298260633,0.0,-0.00857535046637,0.00855029469311,-0.999926675224,0.0,0.655753142223,0.253184269988,0.303403284115,1.0,-0.01548,-0.0203451428571,0.775
0.460586676667,0.514386137665,-0.124109960714,-1.40842274054,0.0763830544057,1.91345341045,0.152362620299,-0.00809165862984,-0.0847786450508,0.00105489039288,-0.133361704748,-0.00141688948861,0.0428900294014,-0.0182325828433,0.574023264645,0.818824623808,0.00206736391679,0.0,0.818782115175,-0.573963301789,-0.0119466719436,0.0,-0.00859580363613,0.00855055285595,-0.999926497402,0.0,0.655494706016,0.252869893127,0.303396652398,1.0,-0.0158,-0.0207657142857,0.791
0.460391946489,0.512984020465,-0.124112784234,-1.41069913285,0.0762400681971,1.91424130827,0.152046963836,-0.0116469588371,-0.085480396676,-0.00102152035832,-0.133582485527,-0.00732977170072,0.0482285661839,-0.0117508240798,0.57400685679,0.81883631382,0.00199158950916,0.0,0.81879273642,-0.573947133443,-0.011995403246,0.0,-0.00867937179175,0.00851630670249,-0.99992606778,0.0,0.655205102582,0.252519337804,0.303364107889,1.0,-0.01614,-0.0212125714286,0.808
0.460204202978,0.511650987564,-0.124115965467,-1.41286297997,0.0761115945185,1.91503367516,0.15174168969,-0.0111489239005,-0.0808926740884,0.00070337678393,-0.131384344477,-0.00206667224516,0.0529465248663,-0.020694839836,0.573991541048,0.818847128824,0.00195890878846,0.0,0.818803045026,-0.573931880615,-0.0120215128419,0.0,-0.00871966895047,0.00850437089828,-0.999925818773,0.0,0.654938052651,0.252188247042,0.303336731758,1.0,-0.01646,-0.0216331428571,0.824
0.460000100491,0.510173425668,-0.12411943042,-1.41518401903,0.0759724934272,1.91591676631,0.151422667202,-0.0136358572337,-0.0840472297664,0.000453329802931,-0.135767888109,-0.00909000282005,0.0578813769744,-0.0125919858438,0.573983691752,0.81885255187,0.00199168300227,0.0,0.818808879659,-0.57392387669,-0.0120062174155,0.0,-0.00868841461807,0.00852234480537,-0.999925937803,0.0,0.654659369432,0.251833993532,0.303343112233,1.0,-0.0168,-0.02208,0.841
0.45980159552,0.508661840064,-0.124127372943,-1.41755455083,0.075822569236,1.9167638663,0.151087313769,-0.0128087369542,-0.0928023489596,-0.000793331208595,-0.140555978637,-0.00868214052198,0.0409564658014,-0.0212356554994,0.573959866998,0.81886928472,0.00197800869541,0.0,0.818825425203,-0.573900104448,-0.0120141607231,0.0,-0.00870301536093,0.00851545385066,-0.999925869537,0.0,0.654361788594,0.251471337228,0.303346239011,1.0,-0.01714,-0.0225268571429,0.858
0.459602707458,0.507222872182,-0.124130511872,-1.41981214203,0.0756784391945,1.91758606098,0.15077746468,-0.0120545729085,-0.0898334873992,-0.000233653849443,-0.141903955906,-0.0138254430929,0.0467338884848,-0.00768143323561,0.573949219451,0.818876749743,0.00197715020567,0.0,0.818832884296,-0.573889467054,-0.0120139128592,0.0,-0.00870341580378,0.00851449544414,-0.999925874213,0.0,0.654082102334,0.251122987268,0.303349514265,1.0,-0.01746,-0.0229474285714,0.874
0.459385022772,0.505653125939,-0.124139737778,-1.42225186308,0.0755226762173,1.91850310201,0.150445691802,-0.0112891766455,-0.0959308429099,-0.00162765672002,-0.141973859333,-0.0113961551756,0.0561509587383,-0.0215294592129,0.573946407729,0.818878638652,0.00201074996032,0.0,0.818835289629,-0.573886589764,-0.0119873870398,0.0,-0.00866243952132,0.00852675492211,-0.999926125567,0.0,0.653786961341,0.25074349639,0.303365426488,1.0,-0.0178,-0.0233942857143,0.891
0.459158489263,0.503999986595,-0.124137601943,-1.42473455795,0.0753733657089,1.91945512121,0.150087940632,-0.0137496629009,-0.0979135425837,0.000156739039484,-0.145828366311,-0.00575561546248,0.0612744554515,-0.0241811299466,0.573925104902,0.818893301264,0.00211707551498,0.0,0.818851315974,-0.573864825274,-0.0119344686811,0.0,-0.00855830606054,0.00858322651493,-0.999926539112,0.0,0.653488968951,0.250364317754,0.303421169286,1.0,-0.01814,-0.0238411428571,0.908
0.458928777474,0.502314683622,-0.124146433754,-1.4272137388,0.0752143804178,1.92038238356,0.14975338249,-0.0107876761503,-0.103078556863,-0.000805706436321,-0.151512610352,-0.00802124238437,0.0458515429789,-0.0159627982095,0.57392963177,0.81888983851,0.00222644629105,0.0,0.818849368487,-0.573869003096,-0.0118670094937,0.0,-0.00844024747532,0.00863411876186,-0.999927104451,0.0,0.653190425604,0.2499743982,0.303498524021,1.0,-0.01848,-0.024288,0.925
0.458697227092,0.500604054647,-0.124138993254,-1.42980448624,0.075049034225,1.92128674605,0.149386434602,-0.0100140463403,-0.103950449097,0.00106169543128,-0.149600908584,-0.0107065848736,0.0544589273523,-0.0211560805842,0.573900643663,0.818910092851,0.00224898464244,0.0,0.818869816501,-0.573839827374,-0.0118668885446,0.0,-0.00842752009678,0.00865220719728,-0.999927055447,0.0,0.65285709939,0.249577535501,0.30353736449,1.0,-0.01882,-0.0247348571429,0.942
0.458460844537,0.499006410334,-0.124144972491,-1.43226206864,0.0748939175057,1.92218994179,0.14903334003,-0.018933865748,-0.0973509138234,0.000408766127356,-0.160178538508,-0.010052544748,0.0579447497294,-0.0275818299148,0.573892496982,0.818915708157,0.00228292408088,0.0,0.818875885137,-0.573831560419,-0.011847865222,0.0,-0.00839255063341,0.00866899933872,-0.999927204123,0.0,0.652555253799,0.249185569896,0.303560506662,1.0,-0.01914,-0.0251554285714,0.958
0.458208646074,0.497335875264,-0.124144973614,-1.4349125428,0.0747326195984,1.92317004144,0.148654138662,-0.0111563134781,-0.103292368361,0.000322646187939,-0.159207144838,-0.00737471859975,0.0585790529157,-0.0189590090471,0.573879523017,0.818924799392,0.00228317826524,0.0,0.818884905716,-0.573818510698,-0.0118564274747,0.0,-0.00839955425684,0.00867398816348,-0.999927102052,0.0,0.652225896323,0.248769187475,0.303548647606,1.0,-0.01948,-0.0256022857143,0.975
0.457949078888,0.495660461345,-0.124147979101,-1.4376086452,0.0745655983413,1.92410067965,0.148249129471,-0.0132216022237,-0.0957244896712,-0.000952337460759,-0.160657844259,-0.0104059998865,0.041772297621,-0.0268129534591,0.573853402153,0.818943311881,0.00220718469698,0.0,0.818902282505,-0.573792545062,-0.0119127595732,0.0,-0.00848957210437,0.00864381261655,-0.999926603141,0.0,0.651877274096,0.248336884483,0.303513673065,1.0,-0.01982,-0.0260491428571,0.992
0.457654221173,0.493956886112,-0.124155618323,-1.44039211274,0.0743976501538,1.92508754884,0.147862534349,-0.0190543593763,-0.109941670469,-0.00214879302228,-0.176842965631,-0.0132782960485,0.0551927361964,-0.0180426785761,0.573878503992,0.818925931469,0.00212798602392,0.0,0.818883733587,-0.573817829322,-0.0119698170215,0.0,-0.00858148245291,0.00861195963256,-0.999926093424,0.0,0.65152798914,0.247872639604,0.303461180533,1.0,-0.0259045714286,-0.0340460081633,1.009
0.457339395269,0.491307443937,-0.124240710704,-1.44435547175,0.0741771910427,1.92659005931,0.147278633763,-0.0204032732718,-0.16832923198,-0.000669155971125,-0.265783052774,-0.0172721221058,0.0971576844232,-0.0394581592192,0.573859106813,0.818939104912,0.0022836101477,0.0,0.818899106075,-0.573797980986,-0.0118692033052,0.0,-0.00840998575696,0.00868146386097,-0.999926949494,0.0,0.651043364406,0.247249006568,0.303551211515,1.0,-0.0384942857143,-0.0505924897959,1.026
0.456855998729,0.487739426972,-0.124268978968,-1.45006359796,0.0738770265038,1.92875236847,0.146419590663,-0.0297474367969,-0.231793566915,-0.00180101114261,-0.365018781003,-0.0133863747232,0.140173367437,-0.0570862149067,0.57377662387,0.818996792475,0.0023209303386,0.0,0.818956874443,-0.573714941997,-0.0118974801066,0.0,-0.00841260760002,0.00872740585364,-0.999926527511,0.0,0.650319152406,0.246386386737,0.303503419394,1.0,-0.051084,-0.0671389714286,1.043
0.456204335552,0.483355061949,-0.124384149915,-1.45696235286,0.0734610026925,1.93130534878,0.145361842299,-0.0461010001375,-0.293628623185,-0.015542800185,-0.464857819617,-0.0345638001367,0.163048118981,-0.0790857602447,0.573755819572,0.81901133023,0.002333959012,0.0,0.818971829526,-0.573694346526,-0.0118611175182,0.0,-0.00837557180212,0.00871699971406,-0.999926929187,0.0,0.649463674785,0.245241727553,0.303488752845,1.0,-0.0629331428571,-0.0827121306122,1.059
0.455265117222,0.477284984514,-0.124551792907,-1.46660846024,0.0728877322935,1.93462701674,0.143939342098,-0.0569598212111,-0.370813099112,-0.00989510190956,-0.569991391597,-0.0353995351394,0.202100161903,-0.0825975997548,0.573796512735,0.818983442178,0.00210483083782,0.0,0.818940821575,-0.573735823866,-0.0119950853743,0.0,-0.00861632534518,0.00860663575773,-0.999925839629,0.0,0.648210006636,0.243604998605,0.303397852417,1.0,-0.0762634285714,-0.100231934694,1.077
0.454168244237,0.470479809098,-0.12468776978,-1.47722136108,0.0722829192958,1.9384054827,0.142384490438,-0.0708492951376,-0.419174303847,-0.00873647655781,-0.644284039444,-0.0393581334982,0.230976351335,-0.0956790333743,0.573867747697,0.818933565784,0.00209042755617,0.0,0.818890343356,-0.573806698023,-0.0120509652199,0.0,-0.00866960550194,0.00862765731666,-0.999925197937,0.0,0.646843209576,0.24180766782,0.303384409993,1.0,-0.0888531428571,-0.116778416327,1.094
0.452890410053,0.462608448314,-0.124777851277,-1.4891667391,0.0715360200548,1.942870031,0.140426345152,-0.0820390625143,-0.476571768328,-0.00362759772391,-0.759462364983,-0.0506863462392,0.263870865313,-0.119553430865,0.57373903603,0.819022865198,0.00241075077874,0.0,0.818984009885,-0.573676895784,-0.0118641349513,0.0,-0.0083341662362,0.00878145276009,-0.999926711195,0.0,0.645328964945,0.239803096184,0.303517784776,1.0,-0.101442857143,-0.133324897959,1.111
0.451457964444,0.454417750738,-0.124896893934,-1.50203372729,0.0707163670121,1.94723848099,0.138501744044,-0.0990258515764,-0.534564191697,-0.00933864725576,-0.806540555226,-0.0558290564816,0.27623203107,-0.128374197933,0.573795283336,0.818984213626,0.00213952191863,0.0,0.818941384781,-0.573733786896,-0.0120539192209,0.0,-0.00864461997748,0.00866879193861,-0.999925058488,0.0,0.643592441421,0.237564672903,0.303410731023,1.0,-0.113292,-0.148898057143,1.127
0.449740073024,0.444530180247,-0.125049275529,-1.5168232938,0.069704127167,1.9525898489,0.1361810171,-0.103285328556,-0.588990513444,-0.00667649364312,-0.896092199534,-0.0564380131618,0.310247969755,-0.141850359367,0.57380600458,0.818975779998,0.00246734382438,0.0,0.81893801954,-0.573744020247,-0.0117926368676,0.0,-0.00824241890384,0.00878745669527,-0.999927418934,0.0,0.641662597548,0.234959200387,0.30361883872,1.0,-0.125881714286,-0.165444538775,1.144
0.447918552256,0.434503016581,-0.125156985584,-1.53210603293,0.0687101358936,1.9578201891,0.133716984667,-0.127851049421,-0.668750323203,-0.0127814487807,-0.962400685107,-0.0680981065936,0.348755475527,-0.160791104612,0.573761983423,0.819006583361,0.0024798570036,0.0,0.818968588465,-0.57369953389,-0.0118339690324,0.0,-0.00826956495249,0.00882097636474,-0.999926899664,0.0,0.639431565259,0.23207821543,0.303670521687,1.0,-0.138471428571,-0.181991020408,1.161
0.44574906582,0.422954258066,-0.12529287996,-1.54950226325,0.0675022005784,1.96394226173,0.130831820258,-0.132354899363,-0.687281426608,-0.0103369655125,-1.04069559415,-0.072743050924,0.360745969267,-0.177158791563,0.573690211352,0.819056378454,0.00263385907406,0.0,0.819020664247,-0.5736275042,-0.01172112891,0.0,-0.00808956713858,0.00888165292937,-0.999927834968,0.0,0.637180664056,0.229130696061,0.303768139286,1.0,-0.150320571429,-0.197564179592,1.177
0.443312673181,0.410527328107,-0.125440340717,-1.56803097621,0.0661624490763,1.97050376932,0.127738259457,-0.143683117748,-0.727792604536,-0.00444562021907,-1.11505905835,-0.0768483069224,0.399399085631,-0.189620936797,0.57365947067,0.819076823921,0.00295213940844,0.0,0.819046045107,-0.573596624763,-0.0114557826346,0.0,-0.00768997691121,0.00898982939141,-0.999930021163,0.0,0.634630369463,0.22572459362,0.303943236858,1.0,-0.162910285714,-0.214110661224,1.194
0.44056881604,0.397316234287,-0.125603289079,-1.58779789669,0.0648620913307,1.97721116041,0.124401383143,-0.166463429798,-0.791200942675,-0.012242017348,-1.16758332752,-0.0851480103329,0.411938441535,-0.203986771512,0.573730794787,0.819026326169,0.00309823443939,0.0,0.81899669293,-0.573666610905,-0.0114796953029,0.0,-0.00762496582303,0.00912387413266,-0.99992930491,0.0,0.631808281523,0.222013578275,0.304032146067,1.0,-0.1755,-0.230657142857,1.211
0.437348377821,0.382567728672,-0.125741807041,-1.61000093911,0.0631963257294,1.98461033891,0.120500709945,-0.188474460193,-0.823146884236,-0.00832486987749,-1.24845118708,-0.0872196233917,0.403704473143,-0.228300657244,0.573662025175,0.819074925042,0.0029824388215,0.0,0.819043944675,-0.573598389649,-0.0115174209042,0.0,-0.0077230572513,0.0090500296989,-0.99992922317,0.0,0.628554501484,0.217766950894,0.30400709598,1.0,-0.188830285714,-0.248176946939,1.229
0.434204136793,0.368657370395,-0.125883400039,-1.63074489131,0.0616248440249,1.99152998494,0.116805891486,-0.202892934524,-0.859636974312,0.000556271363379,-1.32445960629,-0.0976773300331,0.422189738977,-0.226129803128,0.573635649842,0.819093360906,0.00299236551419,0.0,0.81906271544,-0.573572228854,-0.0114853543718,0.0,-0.00769138783913,0.00903951778111,-0.999929562355,0.0,0.625470161497,0.213731207707,0.304021806138,1.0,-0.200679428571,-0.263750106122,1.245
0.430488672028,0.353189872614,-0.126091620104,-1.65365104618,0.0598561947952,1.99905700577,0.112614649013,-0.223883288377,-0.912537368018,-0.0100467055849,-1.38293189978,-0.103681399613,0.445840410787,-0.257468132913,0.57370208355,0.819046836472,0.00299096920284,0.0,0.81901648495,-0.573639025346,-0.0114460858639,0.0,-0.00765929122358,0.00901646998673,-0.999930016815,0.0,0.622015302173,0.209111539511,0.304042688665,1.0,-0.213269142857,-0.280296587755,1.262
0.426131788602,0.335997559371,-0.126318564782,-1.67890515875,0.0579483841604,2.0072084038,0.107821741662,-0.250041654834,-0.963679076331,-0.0143707287591,-1.43498725895,-0.120730874838,0.457017666164,-0.275772730136,0.573810481349,0.818970735845,0.00303516468497,0.0,0.818940541285,-0.573746784047,-0.0114788734714,0.0,-0.00765959294742,0.00907249199558,-0.999929507778,0.0,0.618117824823,0.203897892671,0.30407240428,1.0,-0.226599428571,-0.297816391837,1.28
0.422044291413,0.320089875655,-0.126435855047,-1.70206133098,0.0560906026242,2.01459119599,0.103282612173,-0.260417690828,-1.00983177286,-0.00485693210451,-1.44709084254,-0.111919931133,0.447933982709,-0.283284384776,0.573712553129,0.819039109099,0.00309694200934,0.0,0.81900959043,-0.573648532692,-0.0114629239452,0.0,-0.00761217333422,0.00911302402355,-0.99992950132,0.0,0.614429559165,0.199135130703,0.304114736618,1.0,-0.238448571429,-0.31338955102,1.296
0.417346959426,0.302511145013,-0.126594538718,-1.72743386842,0.0539630112216,2.02257743968,0.0980920512544,-0.275156827197,-1.0456780219,-0.00602404924251,-1.49953350305,-0.125982133403,0.455028432762,-0.312228980524,0.573544238828,0.819156696606,0.00317165777472,0.0,0.819128447741,-0.573480385266,-0.0113833526981,0.0,-0.00750601058389,0.00912702719188,-0.999930176152,0.0,0.610308554091,0.193795205454,0.30417152166,1.0,-0.251038285714,-0.329936032653,1.313
0.412797582545,0.286391832181,-0.126776261596,-1.7504461796,0.052063204109,2.02966750985,0.0933255662637,-0.30728828563,-1.09247243732,-0.0113244930493,-1.54140323028,-0.121823691207,0.482237493616,-0.323545198111,0.573572499037,0.819136557825,0.00326111701416,0.0,0.819109138642,-0.573507984792,-0.0113823228598,0.0,-0.00745354362425,0.00919997524403,-0.999929900114,0.0,0.606231181309,0.188464645836,0.304229000129,1.0,-0.262887428571,-0.345509191837,1.329
0.407245209562,0.267662051982,-0.126985889785,-1.77710811854,0.0497951165232,2.03773098692,0.0875285056504,-0.339088161388,-1.12954532348,-0.020236449493,-1.56983246111,-0.146593910699,0.489128339255,-0.353096135862,0.573526956761,0.819168072618,0.00335344193324,0.0,0.819141698288,-0.573462003546,-0.0113558582357,0.0,-0.00737942705088,0.00926001321958,-0.999929895648,0.0,0.601986655342,0.182884975381,0.304277106051,1.0,-0.274736571429,-0.36108235102,1.345
0.401542407493,0.249501069533,-0.127256029346,-1.80272224872,0.0474738143157,2.04530281164,0.0818419177523,-0.359844561968,-1.16145413306,-0.0175309712336,-1.60449933033,-0.154721980085,0.484036097773,-0.364193566789,0.573636533325,0.819091539302,0.00330526538949,0.0,0.819064834827,-0.573572065226,-0.0113414832858,0.0,-0.0073940474653,0.00921329318959,-0.999930219211,0.0,0.597277889826,0.17660148201,0.304278042923,1.0,-0.287326285714,-0.377628832653,1.362
0.395084498987,0.229590484912,-0.127462895804,-1.83055317389,0.0449992132663,2.05332559421,0.0753488915728,-0.386471805368,-1.19445089537,-0.00840135679904,-1.63085057838,-0.153391281915,0.485400972102,-0.395296275576,0.573583579723,0.819128252482,0.00339557935585,0.0,0.819102265093,-0.573518303525,-0.0113570129109,0.0,-0.00735556484488,0.00929570183314,-0.999929740328,0.0,0.592622985982,0.170544049939,0.304317905789,1.0,-0.299175428571,-0.393201991837,1.378
0.387336311171,0.206662420476,-0.127706799367,-1.86225294021,0.0420188276252,2.062149009,0.0676481202105,-0.423671916306,-1.22047767053,-0.00781878537511,-1.67772276704,-0.157434588717,0.455169401481,-0.402913573602,0.573458400484,0.819216032574,0.00336181344245,0.0,0.819189275779,-0.573392817456,-0.0114172781225,0.0,-0.00742572057291,0.00930147465144,-0.999929168113,0.0,0.586813807177,0.163051450448,0.304326001416,1.0,-0.313246285714,-0.411695118367,1.397
0.380199464031,0.186769105137,-0.127991345628,-1.88946797142,0.0394003937014,2.06944859629,0.0607114410248,-0.4565146482,-1.2677011597,-0.0228562457407,-1.71013909987,-0.153496098722,0.4413585019,-0.448673488385,0.573459832319,0.819215502604,0.00324467418485,0.0,0.819186606494,-0.573393830561,-0.0115570634739,0.0,-0.00760739586859,0.00928568409472,-0.999927949204,0.0,0.581368471206,0.155938723454,0.304297956175,1.0,-0.325836,-0.4282416,1.414
0.371949082811,0.165134419851,-0.128439013466,-1.91873307102,0.036510406847,2.07710153041,0.0529447892417,-0.491649367634,-1.28438070814,-0.0252246169161,-1.75823652532,-0.183680223465,0.438022784944,-0.459052777861,0.573654720844,0.819079069813,0.00323813972177,0.0,0.819049931741,-0.573588521751,-0.0115829155249,0.0,-0.00763011080087,0.00929697128556,-0.999927671251,0.0,0.576124999781,0.148886646397,0.304312505784,1.0,-0.337685142857,-0.443814759184,1.43
0.36432173002,0.145605229647,-0.128715868328,-1.94475827271,0.0337831170831,2.0837546783,0.0456731657026,-0.532811303069,-1.30002927397,-0.0178909510129,-1.75881996594,-0.187211493883,0.429088263785,-0.483693187741,0.57357069953,0.81913784825,0.00325347596474,0.0,0.81910924833,-0.573504878339,-0.0115299922911,0.0,-0.0075789146559,0.00927839663379,-0.999928233129,0.0,0.570674473506,0.141751302922,0.304351333503,1.0,-0.349534285714,-0.459387918367,1.446
0.354434771062,0.121671232524,-0.129134372358,-1.97617628962,0.0304628523655,2.09143602686,0.0364335028686,-0.564787122133,-1.32594468015,-0.0237775082927,-1.74021628706,-0.188146186436,0.418430810938,-0.52934091819,0.573573811639,0.819135230633,0.00336205868452,0.0,0.819107840682,-0.573507416922,-0.0115036937368,0.0,-0.00749505953367,0.00935228615437,-0.999928176834,0.0,0.564701793689,0.133864858482,0.304423411022,1.0,-0.362124,-0.4759344,1.463
0.344948959384,0.0998481543825,-0.129606916798,-2.00436257096,0.027301316687,2.09807307148,0.0277027092352,-0.599105544062,-1.35877861103,-0.0244234299605,-1.74677194768,-0.198516389295,0.402115640549,-0.567480236574,0.573656580062,0.819076829492,0.00346733942401,0.0,0.819051481015,-0.573590729022,-0.0113619508835,0.0,-0.00731761784532,0.00935796754695,-0.999929437967,0.0,0.558910549145,0.126095100474,0.304524794132,1.0,-0.373973142857,-0.491507559184,1.479
0.334305889945,0.0762544278995,-0.129965081181,-2.03454714241,0.0239904378495,2.1048102603,0.0178442796235,-0.643295731313,-1.37736063754,-0.02209303542,-1.75871316315,-0.20054694507,0.399104128445,-0.601300867816,0.573547442501,0.819152753481,0.0035839316249,0.0,0.819128020894,-0.573480131373,-0.0114267759352,0.0,-0.00730510203752,0.00948967963835,-0.999928288161,0.0,0.552482322852,0.117761033096,0.304568787778,1.0,-0.37998,-0.499402285714,1.496
0.322981665777,0.0528278417509,-0.130451456847,-2.06428391998,0.0204236278919,2.11111177128,0.00767842275692,-0.67843282179,-1.37578432074,-0.0290419392845,-1.73778631035,-0.210102958058,0.35366798873,-0.593974860931,0.57364504963,0.819084942208,0.00345852358289,0.0,0.819058845986,-0.573578417083,-0.0114522124605,0.0,-0.00739674270943,0.0094024203456,-0.999928438784,0.0,0.546004913468,0.109155948207,0.304521302914,1.0,-0.37998,-0.499402285714,1.513
0.311172956182,0.0295890016514,-0.130833737225,-2.0932168773,0.0169663719807,2.11677505073,-0.00273531594091,-0.708201654101,-1.38302376286,-0.0176216621387,-1.66485289432,-0.215585792182,0.334054163096,-0.613863818222,0.573800581508,0.818976187059,0.00341241737812,0.0,0.818948680918,-0.573733040372,-0.0115846151992,0.0,-0.00752985236,0.00944203543682,-0.999927071986,0.0,0.539494024239,0.100593294955,0.304517744308,1.0,-0.37998,-0.499402285714,1.53
0.299641491109,0.00803912504849,-0.131238254524,-2.11952701418,0.0135924924981,2.12171492396,-0.0128856446087,-0.733054374633,-1.34471869226,-0.0360409352489,-1.63707501423,-0.220132928098,0.295779152128,-0.65067588752,0.573904541582,0.818903173751,0.00345196668707,0.0,0.818876796795,-0.573837644311,-0.011484622016,0.0,-0.00742406792257,0.00941799348223,-0.999928089722,0.0,0.533455675693,0.0925031253727,0.304577479751,1.0,-0.37998,-0.499402285714,1.546
0.286265368479,-0.0159515657731,-0.131604730858,-2.14831265624,0.0100226378596,2.12676338066,-0.0246968314924,-0.743756230529,-1.30837379972,-0.0145689236597,-1.61148047531,-0.203474260045,0.262517784783,-0.66193581954,0.57396677165,0.818858551514,0.00368300895991,0.0,0.818834485296,-0.573898314489,-0.0114698394689,0.0,-0.00727864363569,0.00959926629294,-0.999927435084,0.0,0.526648688786,0.0835181645345,0.304666914498,1.0,-0.37998,-0.499402285714,1.564
0.273930730256,-0.037039462862,-0.131978930653,-2.17323117334,0.00666069371004,2.13073859511,-0.0354638916604,-0.785461204778,-1.31721913065,-0.0306851356681,-1.53311591491,-0.202738115792,0.22694022293,-0.673470102963,0.574049303102,0.818800503591,0.00372556429333,0.0,0.818777362902,-0.573981212194,-0.0113993398303,0.0,-0.00719551982053,0.00959437551429,-0.999928083641,0.0,0.520584452529,0.0754699643692,0.304732553823,1.0,-0.37998,-0.499402285714,1.58
0.260414293049,-0.0591165827174,-0.132358631131,-2.19904055715,0.00321965601989,2.13452898798,-0.0473347376732,-0.795468587291,-1.29655636136,-0.0174823588972,-1.52696314178,-0.200267697578,0.216767470203,-0.706065541717,0.574091832915,0.818770407055,0.00378613428037,0.0,0.818747454968,-0.574022771313,-0.0114546889523,0.0,-0.0072055717736,0.00967611747759,-0.999927223595,0.0,0.514122683579,0.0669648384538,0.304746850251,1.0,-0.37998,-0.499402285714,1.597
0.247328156012,-0.0797124702843,-0.132702520341,-2.2226967416,-4.42646061017e-05,2.13765834437,-0.0588824966474,-0.842310262613,-1.28310980274,-0.0283632433333,-1.47678732631,-0.204863699992,0.180721965558,-0.725709155424,0.574056900462,0.818794664965,0.00383647733347,0.0,0.81877193259,-0.573987118691,-0.0114916004233,0.0,-0.00720731131106,0.00973821997195,-0.999926608175,0.0,0.507653748095,0.0584895323282,0.304768582857,1.0,-0.37998,-0.499402285714,1.614
0.232143020534,-0.102477228367,-0.133061758136,-2.24851144198,-0.00374450268502,2.14072597942,-0.072258214903,-0.841065574228,-1.27310181676,-0.0142565910525,-1.40642279989,-0.208315554999,0.167494731751,-0.756003958491,0.573937941729,0.818878015005,0.00384479982313,0.0,0.818855286682,-0.573868012849,-0.0115008783788,0.0,-0.00721154766797,0.00974931283068,-0.999926469536,0.0,0.501186641238,0.0500675953627,0.304774743194,1.0,-0.37998,-0.499402285714,1.631
0.218176358675,-0.122379279708,-0.133442157163,-2.27079952522,-0.0070180959142,2.14302083217,-0.0844930112006,-0.88820339901,-1.25046776126,-0.0372839091304,-1.384066675,-0.214613606302,0.156991662107,-0.779188143997,0.573951208205,0.818869022846,0.00377901090712,0.0,0.818844963126,-0.573880830282,-0.0115959432511,0.0,-0.00732699786942,0.00975011740612,-0.99992562239,0.0,0.495104392971,0.0420953662476,0.304730021211,1.0,-0.37998,-0.499402285714,1.647
0.202912441166,-0.143321729214,-0.13375849111,-2.29388849108,-0.0104263529894,2.14496696342,-0.0980223713336,-0.908831358894,-1.24985063246,-0.0213971184936,-1.33515705282,-0.215906226481,0.12824641615,-0.800926415535,0.573762779892,0.819001363315,0.0037129773522,0.0,0.818975467372,-0.573691348852,-0.0117544457837,0.0,-0.00749694847592,0.00978528924845,-0.999924019052,0.0,0.488217235274,0.0332098117025,0.304686862589,1.0,-0.37998,-0.499402285714,1.665
0.187046543616,-0.16393941036,-0.134225792951,-2.3163174613,-0.0138854308768,2.14651619323,-0.11197436624,-0.940682174011,-1.21388257005,-0.026327374843,-1.28072299707,-0.18736233661,0.0685116257503,-0.838212854882,0.573811945459,0.818967726862,0.00352994441084,0.0,0.818938080956,-0.573739403964,-0.0120109450048,0.0,-0.00781145852055,0.00978301797512,-0.999921633767,0.0,0.482085746438,0.0251811741301,0.304581714234,1.0,-0.37998,-0.499402285714,1.681
0.170755945183,-0.18444775502,-0.134623896891,-2.3380818857,-0.017262542174,2.14769268829,-0.126401098146,-0.977771560182,-1.19742060327,-0.0314825265435,-1.2710379799,-0.210644850769,0.0527389327116,-0.861827796817,0.573732577259,0.819023266291,0.00354485077318,0.0,0.818992950692,-0.57365890983,-0.012113991511,0.0,-0.00788825753849,0.0098535890771,-0.999920337915,0.0,0.475576656487,0.01674840633,0.304572785326,1.0,-0.37998,-0.499402285714,1.698
0.152851070059,-0.205829586811,-0.135212585785,-2.3602143346,-0.020826042774,2.14860171934,-0.142244182188,-0.995169885338,-1.19306535408,-0.0312033852383,-1.23188782156,-0.194790962983,0.0306921273166,-0.883610117923,0.573818474486,0.818962291659,0.00372425578308,0.0,0.818934424758,-0.573744247553,-0.0120288506101,0.0,-0.00771455325878,0.00995248959054,-0.999920713666,0.0,0.468765185751,0.00770266344831,0.304642674874,1.0,-0.37998,-0.499402285714,1.716
0.137465679249,-0.22335768868,-0.1357306804,-2.37799271,-0.0237476235896,2.14897888425,-0.155809000427,-1.04002675949,-1.16264385061,-0.0295884111517,-1.17413643817,-0.197789767179,0.0169663845276,-0.909004185011,0.573986794853,0.818843564452,0.00388885477992,0.0,0.818817862692,-0.573911964172,-0.0119629435276,0.0,-0.00756406466606,0.0100510288851,-0.999920877742,0.0,0.463101530785,0.000151052128939,0.304722740474,1.0,-0.37998,-0.499402285714,1.731
0.119660084078,-0.242836338779,-0.136214403941,-2.39758501717,-0.0270626145875,2.14910284147,-0.171699290351,-1.05750298066,-1.14403642976,-0.0383294916525,-1.11661337295,-0.192386936013,0.0117535915999,-0.943921958258,0.573939636783,0.818876315607,0.00395221053158,0.0,0.818851391348,-0.573864521973,-0.0119438774677,0.0,-0.00751266960958,0.0100915320816,-0.999920857256,0.0,0.456655280752,-0.00830128612556,0.304745568106,1.0,-0.37998,-0.499402285714,1.748
0.100175293028,-0.263065106376,-0.136773656766,-2.41767313488,-0.0305157586667,2.14897326827,-0.189166493931,-1.08739771938,-1.10850934367,-0.0245142314397,-1.09897040456,-0.198837995222,-0.0161162930746,-0.983321512175,0.573911565791,0.81889556161,0.00403989205293,0.0,0.818871683866,-0.573836014797,-0.0119222642653,0.0,-0.00744499707462,0.0101506739922,-0.999920764779,0.0,0.449819085459,-0.0172858094147,0.304733612417,1.0,-0.37998,-0.499402285714,1.766
0.0767356928206,-0.286120491204,-0.137451382611,-2.43997529114,-0.0344135451118,2.14836136688,-0.210272580686,-1.1247812258,-1.07917157208,-0.0242926497835,-1.06270229597,-0.183078364778,-0.0463491289038,-1.02855080806,0.57391148149,0.81889449591,0.00426179352284,0.0,0.818873761468,-0.573835526035,-0.0118024887435,0.0,-0.00721956354105,0.0102636522998,-0.999921264572,0.0,0.441896741989,-0.0277430288964,0.304786424787,1.0,-0.37998,-0.499402285714,1.787
0.0594447259242,-0.302278561393,-0.13800276694,-2.45520836255,-0.0372210660189,2.147649261,-0.225912640478,-1.17207129417,-1.07813253985,-0.0419587394269,-1.0093595387,-0.184787572811,-0.0523637807351,-1.05456444959,0.573917740263,0.818889221808,0.00442907659781,0.0,0.818871540058,-0.57384252854,-0.0116146555097,0.0,-0.00696965788544,0.010292899789,-0.999922737057,0.0,0.435865215366,-0.0357516638458,0.304863668374,1.0,-0.37998,-0.499402285714,1.803
0.0393958607814,-0.320030188458,-0.138508516149,-2.47202408099,-0.0402787942098,2.14641516347,-0.244046661874,-1.2040465646,-1.03635185612,-0.0332543541275,-0.963199529372,-0.182176074026,-0.0707174229114,-1.08759470288,0.573916977195,0.818889981986,0.00438720762036,0.0,0.818870584323,-0.573840182431,-0.011796527394,0.0,-0.00714263960192,0.0103629821305,-0.999920792514,0.0,0.429749432267,-0.043693483548,0.304802200606,1.0,-0.37998,-0.499402285714,1.819
0.0188351728951,-0.337386615648,-0.139113489921,-2.48799966047,-0.0432761041348,2.14505232742,-0.262907712709,-1.20873052743,-1.00945323986,-0.03396027503,-0.923327042644,-0.160891250066,-0.0927656304785,-1.13728665394,0.573832216343,0.818948654849,0.00452052080598,0.0,0.81893103586,-0.573755066867,-0.0117400447738,0.0,-0.00702095733327,0.0104390116821,-0.999920863465,0.0,0.423319052134,-0.0521503603673,0.304828254336,1.0,-0.37998,-0.499402285714,1.836
-0.00244501531044,-0.354377670855,-0.139721170839,-2.50324896488,-0.0462738895736,2.14338078542,-0.282256250116,-1.25924233242,-0.997168206749,-0.0343071197152,-0.858762872095,-0.171380476445,-0.0922047598501,-1.15660155649,0.573932950263,0.81887739852,0.00463914836741,0.0,0.818861976482,-0.573856405834,-0.0116032692266,0.0,-0.00683958159347,0.0104585221002,-0.999921916671,0.0,0.416868840953,-0.060685840698,0.304907177597,1.0,-0.37998,-0.499402285714,1.853
-0.0190160524481,-0.366914942672,-0.140256269036,-2.51442416584,-0.0484172237199,2.14200861359,-0.29750489856,-1.29163602024,-0.964528403832,-0.0446295628972,-0.869562387107,-0.163024754452,-0.103499631308,-1.17037252661,0.574003320768,0.818827247361,0.00478263819721,0.0,0.818813407668,-0.573925903771,-0.0115934164969,0.0,-0.00674825529276,0.0105709513717,-0.999921354926,0.0,0.41194279505,-0.0671960785324,0.304927437267,1.0,-0.37998,-0.499402285714,1.866
-0.0410540656951,-0.382794155984,-0.14078835957,-2.52839151367,-0.0512728491372,2.13996492779,-0.317910707615,-1.31065192852,-0.925050681107,-0.038505591457,-0.788675035538,-0.165968258879,-0.119289249402,-1.22167371404,0.573866038999,0.818923524208,0.00477259720625,0.0,0.818909576272,-0.573788709061,-0.0115918137388,0.0,-0.00675447661367,0.0105606771167,-0.999921421485,0.0,0.405499131531,-0.0756135960303,0.30494235093,1.0,-0.37998,-0.499402285714,1.883
-0.0637398012917,-0.398085148933,-0.141353919643,-2.5416438687,-0.0539156904702,2.137885803,-0.338952062808,-1.34850052315,-0.889131725735,-0.0255371236306,-0.754720298702,-0.157253872839,-0.126345276052,-1.26539699638,0.573865454848,0.818923118698,0.00491042726477,0.0,0.818910890283,-0.573787609523,-0.011553347352,0.0,-0.00664388883833,0.0106514743701,-0.999921199313,0.0,0.399066164583,-0.0840737843391,0.304960028858,1.0,-0.37998,-0.499402285714,1.9
-0.085419685784,-0.411873102948,-0.141945892339,-2.55341493748,-0.0564200884949,2.13566588457,-0.359304899091,-1.35387715062,-0.870231049785,-0.0384164848229,-0.70861741492,-0.143195645244,-0.127055177944,-1.28566697067,0.573731906499,0.819016673958,0.00491265147541,0.0,0.81900394073,-0.573653223648,-0.0116306048066,0.0,-0.00670763005199,0.0106965359287,-0.999920292732,0.0,0.392994672809,-0.0920052985008,0.304961745351,1.0,-0.37998,-0.499402285714,1.916
-0.11190614441,-0.427523265419,-0.142629577654,-2.56658560906,-0.05926243629,2.13310143404,-0.38415948117,-1.39991228662,-0.829478045297,-0.0446933058011,-0.692549466098,-0.136645176094,-0.154640045846,-1.33163036453,0.573677774418,0.819054074048,0.00499818215019,0.0,0.819042604748,-0.573599089657,-0.0115776877261,0.0,-0.00661592694592,0.0107357929522,-0.999920482969,0.0,0.385793448701,-0.101473105469,0.30497320223,1.0,-0.37998,-0.499402285714,1.935
-0.133279371175,-0.439187644635,-0.143142466061,-2.57639373045,-0.0613938704181,2.13084848296,-0.404224990346,-1.42721124905,-0.758872067083,-0.0301472084799,-0.637525101026,-0.151470784365,-0.142345140635,-1.35674756792,0.573693370426,0.819043462514,0.0049467306643,0.0,0.819029705276,-0.573612254224,-0.011835141746,0.0,-0.00685612214916,0.0108414704477,-0.999917724669,0.0,0.380045508764,-0.10892427432,0.304906039384,1.0,-0.37998,-0.499402285714,1.95
-0.159421805134,-0.452489385835,-0.143789102117,-2.58712290531,-0.0638667030273,2.12837629541,-0.42895974701,-1.46668072469,-0.700041160898,-0.0333242291354,-0.600158941297,-0.138839635561,-0.149349814655,-1.39662220073,0.573675222427,0.819055271161,0.00509400219392,0.0,0.819044680122,-0.573595652767,-0.0116011203163,0.0,-0.00658018792184,0.0108276991421,-0.999919727807,0.0,0.373283327143,-0.117919569665,0.304990869018,1.0,-0.37998,-0.499402285714,1.968
-0.184507894736,-0.464135178803,-0.1443003411,-2.59665256884,-0.0659617649235,2.12585924027,-0.452860452286,-1.46848240579,-0.654569177929,-0.00867041956337,-0.542614856808,-0.123270407451,-0.151082012427,-1.40989479862,0.573590783826,0.81911424839,0.00511934523482,0.0,0.819102234786,-0.573508283505,-0.0118543081448,0.0,-0.00677417623177,0.0109930006723,-0.999916628761,0.0,0.36681845774,-0.126301907561,0.304929427873,1.0,-0.371257714286,-0.487938710204,1.985
-0.211145372117,-0.475239039051,-0.144629767256,-2.60549427822,-0.067903753551,2.12348393253,-0.478043893338,-1.47295224791,-0.602313795368,-0.000802609339462,-0.461869315245,-0.10224319786,-0.137626203202,-1.38615702344,0.573685291848,0.819047322923,0.00523599381659,0.0,0.819036882314,-0.573602460125,-0.0118131303823,0.0,-0.00667226234229,0.0110657042515,-0.999916512067,0.0,0.360230188238,-0.135018060895,0.304948909893,1.0,-0.357927428572,-0.470418906123,2.003
-0.2316695068,-0.483061192111,-0.144843829947,-2.61160890513,-0.0691706716297,2.12176051069,-0.497444359658,-1.45726029379,-0.538049084578,-0.00441296009479,-0.424483586656,-0.0940345143435,-0.117815256687,-1.39243443357,0.573864012075,0.818920891171,0.0054237026388,0.0,0.818913080525,-0.573780827909,-0.011733497805,0.0,-0.00649691497433,0.0111751883188,-0.999916449141,0.0,0.355256050974,-0.141621250304,0.304987893986,1.0,-0.347559428572,-0.456792391837,2.017
-0.256224767095,-0.491535552325,-0.144830739756,-2.61836648095,-0.0705206430634,2.11965943321,-0.520728523287,-1.43511633366,-0.475456719217,-0.00303831389718,-0.376513566417,-0.0775155669461,-0.116418899575,-1.36306171322,0.573922298844,0.818879749061,0.00546794012079,0.0,0.818871025221,-0.57383639635,-0.0119491079154,0.0,-0.00664730741816,0.0113356154622,-0.999913654835,0.0,0.349337786723,-0.149305809644,0.304935029888,1.0,-0.334969714286,-0.440245910204,2.034
-0.280240533056,-0.499005332579,-0.144659083053,-2.62412004117,-0.0715771519228,2.1178913518,-0.543588465541,-1.40370981782,-0.417626283934,0.00143085648528,-0.329858429746,-0.0498041642645,-0.100803109876,-1.3367430944,0.573952481794,0.818857434345,0.00563895049139,0.0,0.81885130888,-0.573866584467,-0.0118500666175,0.0,-0.00646763441076,0.0114190569874,-0.999913883713,0.0,0.343725982772,-0.156703052747,0.304974115486,1.0,-0.32238,-0.423699428572,2.051
-0.304968217293,-0.505740416823,-0.144376502701,-2.6292899574,-0.0724668435529,2.11616044519,-0.567193576832,-1.37141709391,-0.35652191669,0.00163945216102,-0.267630737836,-0.0371406670597,-0.0921704617115,-1.30902373951,0.573980022393,0.818837095235,0.00578725000838,0.0,0.818832683105,-0.573893186331,-0.0118488253706,0.0,-0.0063811172573,0.0115400006845,-0.999913051083,0.0,0.338034018804,-0.164205405949,0.304994785172,1.0,-0.309049714286,-0.40617962449,2.069
-0.325111386798,-0.510633742622,-0.144043977812,-2.63292725741,-0.0731826574248,2.11497956604,-0.586411923736,-1.34090649765,-0.310812123863,0.0284032107795,-0.235087164156,-0.0472480817689,-0.0825284211652,-1.26929974858,0.573974502828,0.818840636462,0.00583344521494,0.0,0.818838238861,-0.573890096839,-0.0116121586791,0.0,-0.00616086957998,0.0114419513039,-0.999915559153,0.0,0.333493878222,-0.1702690742,0.30506520531,1.0,-0.297941142857,-0.391579787755,2.084
-0.347281491773,-0.515290484141,-0.143635785758,-2.63660732967,-0.0737713977652,2.11359735714,-0.607673818723,-1.284778676,-0.254226633246,0.0241573829601,-0.209949949526,-0.0232214368655,-0.0797396956212,-1.25253939616,0.573954928728,0.818854182526,0.0058578537163,0.0,0.818850619086,-0.573867706814,-0.0118433779088,0.0,-0.0063364884539,0.0115944954956,-0.999912704484,0.0,0.328451227601,-0.176820293554,0.305006672342,1.0,-0.285351428572,-0.375033306123,2.101
-0.371187589244,-0.519558433916,-0.143068525801,-2.64003099822,-0.0742755944804,2.11240457501,-0.630587169299,-1.22688848091,-0.21051572215,0.0261201630791,-0.164952197546,-0.0146728921446,-0.0562270697478,-1.18810232564,0.573943969621,0.818861776362,0.00587008095908,0.0,0.818857373193,-0.57385488381,-0.0119967327079,0.0,-0.00645521551188,0.011692436583,-0.999910804582,0.0,0.323093297595,-0.18380511976,0.304935838415,1.0,-0.271280571429,-0.356540179592,2.12
-0.388224359213,-0.522107987143,-0.142599875386,-2.6420100609,-0.0745292814221,2.11163291668,-0.646898809705,-1.19223272463,-0.17562286881,0.0454981408542,-0.13275973633,-0.0221345726359,-0.0558738342803,-1.15316490576,0.573938334149,0.818865701672,0.00587351010381,0.0,0.818861054965,-0.573848714185,-0.0120404647484,0.0,-0.00648914232991,0.0117202986121,-0.999910258789,0.0,0.319080302558,-0.189090106911,0.304926970538,1.0,-0.260172,-0.341940342857,2.135
-0.41041043898,-0.524947127683,-0.14193395469,-2.64416483756,-0.0747190822711,2.11078321647,-0.668292508353,-1.16352947354,-0.134381170834,0.031893629665,-0.102582679689,-0.00887231291948,-0.0375540797505,-1.10513554791,0.573943967704,0.818861145182,0.0059576629384,0.0,0.818857430913,-0.573853698578,-0.0120493720834,0.0,-0.00644805985597,0.011794368068,-0.999909653622,0.0,0.314480706455,-0.195150941132,0.304926048797,1.0,-0.246841714286,-0.324420538776,2.153
-0.42825539284,-0.52675688937,-0.141254779302,-2.64558129458,-0.0748123691203,2.11022246209,-0.685495642725,-1.09729195708,-0.106492379632,0.050075036198,-0.084506013437,-0.00554868184381,-0.0312545887743,-1.04468535409,0.573864451245,0.818917014435,0.00593817880647,0.0,0.818912970448,-0.573774141884,-0.0120634919719,0.0,-0.00647194998534,0.0117858877609,-0.99990959927,0.0,0.310609563052,-0.200238447689,0.304914683837,1.0,-0.234992571429,-0.308847379592,2.169
-0.447519004575,-0.528279560075,-0.140601891536,-2.646796066,-0.0748089096238,2.10970720896,-0.704035209493,-1.03451648709,-0.0649087346528,0.0404209863887,-0.05941793622,0.00918796961273,-0.0303278818299,-1.00858025723,0.573925037775,0.818874137881,0.00599535028826,0.0,0.818870411476,-0.573833690971,-0.0121198686721,0.0,-0.00648443787108,0.0118655394914,-0.99990857634,0.0,0.306422856406,-0.205725287536,0.304892415446,1.0,-0.221662285714,-0.29132757551,2.187
-0.463853563411,-0.529239509012,-0.139995015463,-2.64754520166,-0.074816941515,2.10936989329,-0.719676866466,-1.01341583514,-0.0549792548737,0.0291254691955,-0.0474365111824,0.000759181311346,-0.0230818060806,-0.958891827235,0.574015946951,0.818810570737,0.00597400997999,0.0,0.818806645034,-0.573924817804,-0.012113152324,0.0,-0.00648986952863,0.0118449297225,-0.999908785457,0.0,0.302890429826,-0.210365937262,0.304889710672,1.0,-0.209813142857,-0.275754416327,2.203
-0.480190375298,-0.529888361199,-0.139201255257,-2.64804338115,-0.0747375788469,2.10909895607,-0.735503244092,-0.933183793202,-0.0252713121358,0.048692448877,-0.0206289417547,0.00764749616042,-0.0130446137175,-0.913434157195,0.573878129815,0.818907696332,0.00590117867955,0.0,0.818903029797,-0.573787719316,-0.0120924709195,0.0,-0.00651671911488,0.0117723243499,-0.999909468278,0.0,0.299397509317,-0.214949934486,0.304897985598,1.0,-0.197223428572,-0.259207934694,2.22
-0.493999734983,-0.530184250478,-0.138565018527,-2.64825179168,-0.0746260125274,2.10893048389,-0.748716316414,-0.896707720457,-0.0197880758571,0.0574086302956,-0.00895772421822,0.0119655525482,-0.00536393161418,-0.86877545118,0.573952781129,0.81885563609,0.00586508128398,0.0,0.818850752248,-0.573862963564,-0.0120619854858,0.0,-0.00651139723488,0.0117258620961,-0.999910048886,0.0,0.296447882493,-0.218834318352,0.304913678839,1.0,-0.186114857143,-0.244608097959,2.235
-0.509354405459,-0.530275116358,-0.137678552619,-2.6483289826,-0.0743503113839,2.10883518633,-0.763619982237,-0.838535910711,-0.000911130556905,0.0467884911206,-0.000870464681903,0.00840679320148,-0.000776899353774,-0.807203730128,0.573809916464,0.818955921353,0.00584170774624,0.0,0.818951051023,-0.573720796574,-0.0120154279009,0.0,-0.00648872153349,0.0116788692331,-0.99991074627,0.0,0.29320388714,-0.223088445472,0.304927110391,1.0,-0.172784571429,-0.227088293878,2.253
-0.52230968079,-0.530170511224,-0.136928696442,-2.64828684051,-0.0740613047017,2.10882246712,-0.776055221968,-0.773079676318,0.00998832284983,0.0554836506639,0.00497119053954,0.0205444813729,-0.00112156434007,-0.75739747942,0.573832790308,0.818939844468,0.00584865901462,0.0,0.818935246987,-0.573743966425,-0.0119862059772,0.0,-0.00646047322151,0.0116679756805,-0.999911056359,0.0,0.290458769996,-0.226663940886,0.304926851806,1.0,-0.160935428572,-0.211515134694,2.269
-0.53501357959,-0.529891560329,-0.136080566921,-2.64813187617,-0.0736573735592,2.10883143556,-0.788287195264,-0.736535017253,0.0178551067254,0.0428111433492,0.0145161579259,0.0265217301337,0.00250275948442,-0.699197444381,0.573802497526,0.818960817209,0.00588392817797,0.0,0.818956565343,-0.573713331671,-0.01199600123,0.0,-0.00644869108954,0.0117022423819,-0.999910731969,0.0,0.287783766237,-0.230123786489,0.304918644054,1.0,-0.148345714286,-0.194968653061,2.286
-0.547593031452,-0.529429679239,-0.135242152755,-2.64787287669,-0.0732294192426,2.10885189654,-0.800278320872,-0.676790992514,0.0298898651875,0.0522280375864,0.0156669051159,0.0272909743033,0.00234932992821,-0.642868495131,0.573890709646,0.818898702471,0.00592582274644,0.0,0.8188944357,-0.573800334628,-0.0120758462233,0.0,-0.00648878065776,0.0117830660932,-0.999909523447,0.0,0.285120300111,-0.233539415928,0.304891536018,1.0,-0.135015428572,-0.17744884898,2.304
-0.558335045285,-0.528887876054,-0.134376148108,-2.64756025466,-0.0727720562995,2.10891866962,-0.810636974314,-0.61873887494,0.036209119453,0.044776915473,0.0179871288861,0.0270354006802,0.00337489645085,-0.58211988858,0.57380701856,0.818957146154,0.00595358006105,0.0,0.818952746762,-0.573715644313,-0.012145161287,0.0,-0.00653083034518,0.0118449075832,-0.999908519025,0.0,0.282878284855,-0.236412608601,0.304864087768,1.0,-0.122425714286,-0.160902367347,2.321
-0.568373474725,-0.528310782237,-0.133649925133,-2.64715578569,-0.0723352977068,2.10902943331,-0.820009051879,-0.567554406718,0.0322047172917,0.0432735493332,0.0279351904428,0.0246368357172,0.000795874657159,-0.530334656148,0.574049460481,0.818786773854,0.00601521277336,0.0,0.818783265514,-0.573957926286,-0.0121247626761,0.0,-0.0064752409342,0.0118855978646,-0.999908397714,0.0,0.280775394382,-0.239128295545,0.30486543234,1.0,-0.109836,-0.144355885714,2.338
-0.57617828115,-0.527704420078,-0.132859553674,-2.64674353259,-0.0718955646864,2.10915230054,-0.82756154505,-0.499322972819,0.045653744865,0.0505992928646,0.0260058476151,0.025449353714,0.0121438956424,-0.483165658109,0.573909100852,0.81888509952,0.00602367365547,0.0,0.818881683465,-0.573817526048,-0.0121236210085,0.0,-0.0064714876776,0.0118907613897,-0.999908360622,0.0,0.279202365937,-0.241190200239,0.304862051639,1.0,-0.0987274285715,-0.12975604898,2.353
-0.584289285108,-0.527067183039,-0.132037729525,-2.64626752147,-0.0714414345068,2.10927150825,-0.835173229871,-0.458829643653,0.0366254773124,0.0518766645214,0.0314600545652,0.0238921595931,0.00716304681018,-0.427717269141,0.573957927821,0.818850873903,0.00602414321647,0.0,0.818847666785,-0.573866713902,-0.0120929805059,0.0,-0.0064454164779,0.0118739462598,-0.999908728838,0.0,0.277561563732,-0.243332549638,0.304876591904,1.0,-0.0861377142858,-0.113209567347,2.37
-0.59147798467,-0.526426962569,-0.131205765281,-2.64580032601,-0.0709408063114,2.10938893031,-0.841801568324,-0.405546969408,0.0415040644178,0.046355507015,0.0304166086822,0.0247909953382,0.00336254758321,-0.377431693989,0.574068563294,0.818773133366,0.00604876992368,0.0,0.818770311976,-0.573977339798,-0.0120804191143,0.0,-0.00641938933386,0.0118877709588,-0.999908732006,0.0,0.276134253463,-0.245199421871,0.304885892868,1.0,-0.0735480000001,-0.0966630857144,2.387
-0.597260514945,-0.525820732101,-0.130372848443,-2.64538089318,-0.070463398445,2.10951582561,-0.847217871929,-0.335422747119,0.0345225020493,0.0486781632694,0.0247132525774,0.0273348553283,0.00939814478282,-0.314391924005,0.574006812238,0.818816460465,0.0060440446775,0.0,0.818813574214,-0.573915615938,-0.0120807022258,0.0,-0.00642322987967,0.011883579995,-0.99990875716,0.0,0.27503080553,-0.246663652633,0.304886467481,1.0,-0.061698857143,-0.0810899265308,2.403
-0.602684855023,-0.525246925342,-0.129380727803,-2.64503970749,-0.0699144251142,2.10959661208,-0.852271439433,-0.288700202042,0.0299007007015,0.0588490963968,0.017174132918,0.0352832546274,-0.00104965866185,-0.268427473194,0.573862460074,0.818917751105,0.00602832844972,0.0,0.818914081581,-0.573770298172,-0.0121704077873,0.0,-0.00650781245873,0.011921052726,-0.999907764186,0.0,0.274022012885,-0.247956365646,0.304863117084,1.0,-0.0483685714287,-0.0635701224491,2.421
-0.606766049487,-0.524863708901,-0.128549627012,-2.64475831128,-0.0694373241262,2.10967937518,-0.855880687454,-0.236788161815,0.0231084103131,0.0519144580893,0.0135577317767,0.032666116768,0.00364412731691,-0.210186663556,0.57388004573,0.818905463326,0.00602346641697,0.0,0.818901930664,-0.573788268793,-0.0121407352089,0.0,-0.00648604490034,0.0119001830705,-0.999908154214,0.0,0.273292743645,-0.248910273016,0.304878324619,1.0,-0.0365194285715,-0.0479969632655,2.437
-0.610126313298,-0.524464628081,-0.127671867425,-2.64450766717,-0.0688988176305,2.10980566813,-0.858739628849,-0.170618060013,0.02627970249,0.0519058563056,0.0128431008657,0.0311639980296,0.00603795427537,-0.141769655845,0.573913216178,0.818882103675,0.00603883087287,0.0,0.818878922866,-0.573821643657,-0.0121151912037,0.0,-0.00645582569671,0.0118983687493,-0.99990837137,0.0,0.272754706421,-0.249646471883,0.304878437261,1.0,-0.0239297142858,-0.0314504816328,2.454
-0.612569028417,-0.524209523231,-0.126928195927,-2.64436212171,-0.0684553377831,2.10982365558,-0.86078365696,-0.132055709153,0.012510444124,0.0342552112782,0.00985034497364,0.0204492393336,-0.00065497729425,-0.11115986925,0.57391085914,0.818883667475,0.00605076901908,0.0,0.818880281715,-0.573818570581,-0.0121687787685,0.0,-0.00649289556557,0.0119388795771,-0.999907648466,0.0,0.272368904714,-0.250133312342,0.304870837234,1.0,-0.0197466666667,-0.0259527619048,2.471
-0.614537673323,-0.524057324907,-0.126396830435,-2.64420402395,-0.068157521942,2.1098353298,-0.862489330636,-0.106899032537,0.0144026146155,0.0254386278024,0.00954681813517,0.00470208255908,0.00463571272112,-0.0902740116114,0.573885468756,0.818901538623,0.0060403387885,0.0,0.818898313684,-0.573793777944,-0.0121243201456,0.0,-0.00646284003816,0.011904623599,-0.999908251609,0.0,0.272048528104,-0.250557306421,0.304900829559,1.0,-0.0194066666667,-0.0255059047619,2.488
-0.616136838888,-0.523887656358,-0.126048672207,-2.6439929608,-0.0679771381537,2.10992295173,-0.864005159699,-0.0931459132605,0.00917471408865,0.0179369528381,0.012466138877,0.0131817650307,0.00150563539885,-0.0891847519133,0.573795009657,0.818965165354,0.00600763941363,0.0,0.818962484683,-0.573705268937,-0.0119774779168,0.0,-0.0063626452978,0.0117928754076,-0.999910218387,0.0,0.271796351464,-0.250956879449,0.304950454087,1.0,-0.0190866666667,-0.0250853333333,2.504
-0.61785062832,-0.523665012045,-0.125847213304,-2.64378601264,-0.0678151849623,2.10998654408,-0.86561924655,-0.0893695846643,0.00757878505496,0.0104043313115,0.00505926441329,0.00455807554232,0.00045186841407,-0.0938369572679,0.573813900591,0.818951719058,0.00603624404266,0.0,0.818949792505,-0.573724751649,-0.0119119100943,0.0,-0.0062922577802,0.0117788271799,-0.999910829385,0.0,0.271476375338,-0.251416921923,0.304973180274,1.0,-0.0187066666667,-0.0245859047619,2.523
-0.619193784434,-0.523520374109,-0.12574569736,-2.64366105734,-0.0677784383425,2.10997799842,-0.866963251164,-0.0922071741275,0.0126760770953,0.00392137059712,0.00923933610553,0.00334145535557,-0.000384973007217,-0.0839774395615,0.573763608309,0.818987074694,0.00601998057211,0.0,0.818984830499,-0.573674336747,-0.0119310381497,0.0,-0.00631797931105,0.0117760949944,-0.999910699375,0.0,0.27118782001,-0.251782479115,0.304978616014,1.0,-0.0184066666667,-0.0241916190476,2.538
-0.620654956532,-0.523355654026,-0.125651894144,-2.64349825822,-0.0677463005023,2.10998357405,-0.86837242218,-0.0747868415277,0.0162570357916,0.00301514696981,0.0168913425106,0.00485837200012,-6.40546580036e-06,-0.0763746655496,0.573761943507,0.818988394383,0.00599907909976,0.0,0.818985982559,-0.573672950075,-0.0119186250977,0.0,-0.00631982790343,0.0117518414503,-0.999910973036,0.0,0.270877782736,-0.252192911432,0.304994892751,1.0,-0.0180666666667,-0.0237447619048,2.555
-0.622109445369,-0.523126110696,-0.125582576505,-2.6433132432,-0.0677049511073,2.11006245043,-0.869838548573,-0.0849830445428,0.0169320419406,0.00375903664472,0.00666802901318,0.000701369888431,0.00648812197212,-0.0818088041109,0.573730711921,0.8190103342,0.00599079062036,0.0,0.819008097088,-0.573642283433,-0.01187495107,0.0,-0.00628925792109,0.0117197557991,-0.999911542367,0.0,0.270580117144,-0.252620111038,0.305003144214,1.0,-0.0177066666667,-0.0232716190476,2.573
-0.623436664146,-0.522917878054,-0.125582126916,-2.64317156143,-0.067676522962,2.1101072203,-0.871153244635,-0.0768616834785,0.0166423255648,0.00112456980105,0.00467053282236,8.71528899774e-05,-0.000796918506324,-0.0739520611505,0.573760381163,0.818989394688,0.00601192962657,0.0,0.818987324775,-0.573671662885,-0.0118883119542,0.0,-0.00628764880192,0.0117449626867,-0.999911256724,0.0,0.2702830848,-0.253014114052,0.30499494794,1.0,-0.0173666666667,-0.0228247619048,2.59
-0.624625561076,-0.522757387441,-0.125580008017,-2.64307451579,-0.067658113501,2.11010569105,-0.872299293574,-0.0801197265657,0.0115019284929,0.000672487997046,0.0121636880992,0.000120240634266,-0.00059141026441,-0.0706842386772,0.573820089724,0.81894737841,0.00603679768804,0.0,0.818945200332,-0.573730453725,-0.0119529169413,0.0,-0.00632543710111,0.0118028576053,-0.999910336679,0.0,0.269984055105,-0.253379419301,0.304978366287,1.0,-0.0170466666667,-0.0224041904762,2.606
-0.625940222957,-0.522567061001,-0.125586056077,-2.64295191709,-0.0676287981754,2.11011408083,-0.873638975503,-0.0796367114339,0.0107759627255,-6.20429169161e-05,0.0103271161245,-4.90458768265e-05,-0.000885529226599,-0.0761251885454,0.573810078,0.818954211274,0.00606144558226,0.0,0.818952049048,-0.573719773484,-0.0119962400475,0.0,-0.00634692231784,0.0118478248245,-0.999909668732,0.0,0.26969693526,-0.253736221446,0.304966486303,1.0,-0.0167266666667,-0.0219836190476,2.622
-0.627333350754,-0.522354481153,-0.125572197912,-2.64280223446,-0.0675914920467,2.11015802372,-0.875018217533,-0.075627559389,0.0124704873153,0.00101161885577,0.00933371302385,0.00296333391378,0.00249544497427,-0.0735755553814,0.573835544541,0.818936203134,0.00608357777733,0.0,0.818934245579,-0.573744986195,-0.0120057958967,0.0,-0.00634168075642,0.0118716311692,-0.999909419627,0.0,0.269386807365,-0.254144885936,0.304960549979,1.0,-0.0163466666667,-0.0214841904762,2.641
-0.628337627414,-0.522198217631,-0.12553682041,-2.64270565066,-0.0675706174886,2.11018726547,-0.876070449496,-0.0729758217338,0.0103442698107,0.00167218130855,0.00405358639719,0.000414846508307,0.00550361447211,-0.0752035360343,0.5737853794,0.81897134751,0.00608417993868,0.0,0.818969240188,-0.573694534279,-0.0120296244929,0.0,-0.00636157948471,0.0118854077062,-0.999909129566,0.0,0.269164609465,-0.25443100905,0.304950400152,1.0,-0.0160666666667,-0.0211161904762,2.655
-0.629677492304,-0.521994727326,-0.125438631131,-2.64256804424,-0.0675411460053,2.11021674632,-0.877405858895,-0.0669286831884,0.00945970591433,0.00306162136052,0.00551032160798,0.00146899364953,0.00317354256412,-0.056469692671,0.573739461091,0.819003696855,0.00605988663436,0.0,0.819001114389,-0.573648433367,-0.0120580440551,0.0,-0.00639946139324,0.0118814583595,-0.999908934774,0.0,0.268879308022,-0.254801946879,0.304943053704,1.0,-0.0156866666667,-0.0206167619048,2.674
-0.630772807051,-0.521831040362,-0.125381317153,-2.6424611694,-0.0675117943615,2.11024251509,-0.87851111848,-0.06985342718,0.00734738089376,0.00184302413821,0.00475388553701,-0.000120117743741,0.00478371870105,-0.0678133514993,0.57370900467,0.81902505541,0.00605668833596,0.0,0.819022278824,-0.573617714373,-0.0120818644613,0.0,-0.00642124961886,0.0118922660807,-0.99990866661,0.0,0.268640295081,-0.255108345457,0.304935065016,1.0,-0.0153666666667,-0.0201961904762,2.69
-0.631977565814,-0.521653952454,-0.125367736088,-2.6423401919,-0.0674855221343,2.11028450806,-0.879812478008,-0.0675287201885,0.00892349891278,0.00108559546332,0.00573221341845,0.000411793687959,0.00403410440732,-0.0738316861209,0.573637941795,0.819074715102,0.00607204363242,0.0,0.819072076564,-0.573546485013,-0.0120875896613,0.0,-0.00641816334541,0.0119075706992,-0.999908504284,0.0,0.268368992376,-0.255459459951,0.304928897767,1.0,-0.0150066666667,-0.0197230476191,2.708
-0.633109039565,-0.521479762479,-0.125366655868,-2.64220207184,-0.0674568204616,2.11031533185,-0.880915383503,-0.0657844648795,0.0113870577099,-0.000543373821478,0.00755453152626,0.00107647582714,0.000510317328114,-0.0629469153398,0.573680077306,0.819045055169,0.00609207732897,0.0,0.819042673885,-0.573588517649,-0.0120854324656,0.0,-0.00640429139843,0.0119230726923,-0.9999084085,0.0,0.268115803736,-0.255795999468,0.3049303281,1.0,-0.0146666666667,-0.0192761904762,2.725
-0.634110302553,-0.521314762394,-0.125365804822,-2.64208872537,-0.0674386495356,2.1103445958,-0.88189032618,-0.0666423738375,0.0129540994359,0.000699597088267,0.00729034040836,-0.000402658157583,0.00416739797367,-0.069821406578,0.573714845452,0.819020605774,0.00610494286456,0.0,0.819018277444,-0.573623008681,-0.0121017364796,0.0,-0.00640975925635,0.0119432356072,-0.999908132835,0.0,0.267888748348,-0.256092219944,0.30492372391,1.0,-0.0143666666667,-0.0188819047619,2.74
-0.635135617331,-0.521154503624,-0.12535422781,-2.64197496158,-0.0674153269784,2.11035742685,-0.882959045402,-0.0616067283551,0.00925292969191,0.00123176483182,0.00984385019041,0.00163584015786,5.65414671285e-05,-0.0642695770541,0.573680849063,0.819044326099,0.00611736906396,0.0,0.819042049922,-0.57358876018,-0.0121161692013,0.0,-0.00641494900907,0.0119614270276,-0.999907882103,0.0,0.267644339662,-0.256407734967,0.304922887113,1.0,-0.0140266666667,-0.0184350476191,2.757
-0.636240411901,-0.520977977839,-0.125316942206,-2.64184266843,-0.0673914899706,2.11039602209,-0.884025699632,-0.062157015186,0.0121803705982,-0.00105779276296,0.00964335138258,0.000434188878699,0.0062145541176,-0.0584373282249,0.57370908645,0.81902454975,0.00611701994037,0.0,0.819022199344,-0.573616863244,-0.0121275753542,0.0,-0.00642407983688,0.0119679057216,-0.99990774596,0.0,0.267415199286,-0.256710480192,0.304917314821,1.0,-0.0136866666667,-0.0179881904762,2.774
-0.637188830138,-0.52082355191,-0.125264497284,-2.64170836425,-0.0673715630021,2.11042739733,-0.884985953119,-0.0587471561631,0.0114480056646,0.00175446675817,0.00755608789151,-8.81775075738e-05,0.00481342527364,-0.0627902632912,0.573677705556,0.819046639996,0.00610234061324,0.0,0.81904421651,-0.573585774037,-0.0121110744876,0.0,-0.00641944269592,0.0119461702111,-0.999908035658,0.0,0.267217408894,-0.256986194364,0.304925499757,1.0,-0.0133666666667,-0.0175676190476,2.79
-0.638188307325,-0.520664478847,-0.125216097102,-2.64156084155,-0.0673482904578,2.11046479192,-0.886044773347,-0.0615693917932,0.0121304089652,0.00130491207706,0.0099533970167,0.000122026151117,0.000832184421152,-0.0642351551648,0.573612328647,0.819092508786,0.00609141823793,0.0,0.819090151556,-0.573520846916,-0.0120792664738,0.0,-0.00640060456504,0.0119184663255,-0.999908487024,0.0,0.267009564082,-0.257280051232,0.30493839441,1.0,-0.0130266666667,-0.0171207619048,2.807
-0.639114378665,-0.520507482904,-0.125171715253,-2.64143755528,-0.0673243796395,2.11048520727,-0.886965010807,-0.0554974874942,0.00835838926225,-0.000236937386844,0.00618457577471,0.000272560974305,0.00185294989945,-0.0507339890357,0.573602323645,0.819099553414,0.00608628021534,0.0,0.819097084274,-0.573510782652,-0.0120870019953,0.0,-0.00641003401973,0.0119186162791,-0.999908424832,0.0,0.266811209405,-0.257546504357,0.304939488058,1.0,-0.0127066666667,-0.0167001904762,2.823
-0.640074459876,-0.520354005576,-0.125166105153,-2.64132550914,-0.0673101920504,2.11050886095,-0.887925945042,-0.0597445931413,0.0107787048102,6.37576682675e-05,0.00694283633198,0.000613960883003,0.000883459207851,-0.0535773295393,0.573609632762,0.819094378972,0.00609380346167,0.0,0.819091922509,-0.573517898712,-0.0120991420629,0.0,-0.00641555741693,0.0119317993523,-0.999908232183,0.0,0.266592604356,-0.257829053844,0.304936113578,1.0,-0.0123666666667,-0.0162533333333,2.84
-0.641022670322,-0.52020988931,-0.125167312745,-2.64123190015,-0.067298558793,2.11054659194,-0.888876021466,-0.0534941228945,0.0062485255334,0.000685732017485,0.00478962613587,-0.000235638266774,0.00298340829778,-0.0571905022032,0.573618944339,0.819087787623,0.00610325840294,0.0,0.819085398976,-0.573527063814,-0.0121063271825,0.0,-0.0064158844023,0.0119437384163,-0.999908087546,0.0,0.266373254202,-0.258107440405,0.304928836332,1.0,-0.0120266666667,-0.0158064761905,2.857
-0.641951830485,-0.520070967444,-0.125173415085,-2.64113949795,-0.0672917059883,2.1105722225,-0.889822707381,-0.0511405043275,0.0124997049803,-0.00128639503261,0.00690258359071,-0.000549149188898,0.00257825995109,-0.0529147418989,0.573616786757,0.819089230883,0.00611234013998,0.0,0.819086850579,-0.573524661823,-0.012121897147,0.0,-0.00642346127076,0.0119600913946,-0.999907843433,0.0,0.266154966714,-0.258380234561,0.304921764334,1.0,-0.0116866666667,-0.0153596190476,2.874
-0.642913204368,-0.519915878472,-0.12516777976,-2.64102310405,-0.0672785573758,2.1106064103,-0.890715109243,-0.0504071340855,0.00900450902576,-0.00102343868567,0.00490263724879,0.00266514717118,0.00333767261795,-0.0438212804447,0.573681024189,0.819044209505,0.00611655652438,0.0,0.819041890227,-0.573588878258,-0.012121373376,0.0,-0.00641967547788,0.0119637482496,-0.999907823999,0.0,0.265937716093,-0.258665227895,0.304920651204,1.0,-0.0113266666667,-0.0148864761905,2.892
-0.643738280735,-0.519779464633,-0.125144093614,-2.64090948117,-0.0672726852273,2.11063735701,-0.891499631817,-0.0500846014833,0.00678001383921,0.00335619285893,0.00333206995983,-6.61200086581e-06,0.00327910164114,-0.0555497775721,0.57370586188,0.819026902113,0.00610447051679,0.0,0.819024515798,-0.573613932549,-0.0121097402302,0.0,-0.00641671722855,0.011947369989,-0.999908038817,0.0,0.265757978675,-0.258909758862,0.304925288924,1.0,-0.0110066666667,-0.0144659047619,2.908
-0.644702400657,-0.519619063745,-0.125114561975,-2.64079008544,-0.0672647207333,2.11067539682,-0.892476084086,-0.0514849088197,0.00573356688883,0.000598918131951,0.00284378955526,-0.000251967874014,0.000667057732472,-0.0541829776744,0.573684506901,0.819041947185,0.00609279858882,0.0,0.819039429658,-0.57359267224,-0.0121080931427,0.0,-0.00642237521095,0.0119366975437,-0.999908129954,0.0,0.265545361011,-0.259191655098,0.304924461041,1.0,-0.0106266666667,-0.0139664761905,2.927
-0.6454370733,-0.519500673269,-0.125093605883,-2.64070572805,-0.0672574352988,2.11069047071,-0.893172635368,-0.0525113048754,0.00421200856384,0.0012037790091,0.00695392977488,-0.00024231365619,0.00166875281964,-0.0358843091691,0.573711990661,0.819022719362,0.00608965033105,0.0,0.819020075503,-0.573620005619,-0.0121223751102,0.0,-0.00643547927369,0.0119425277606,-0.999907976084,0.0,0.265366675696,-0.259418186034,0.30492218654,1.0,-0.0103066666667,-0.0135459047619,2.943
-0.646205318426,-0.51940868877,-0.125085804523,-2.64063174882,-0.0672483630665,2.11070606923,-0.893906947688,-0.0460779242054,0.000896341064352,-0.00674077307321,0.00742268529437,-1.69267469079e-05,0.000497328535812,-0.0414209406701,0.573738441973,0.819004179194,0.00609110553342,0.0,0.819001559709,-0.573646454949,-0.0121217498243,0.0,-0.00643374653883,0.0119435687411,-0.999907974801,0.0,0.265199877984,-0.259623699784,0.304922283089,1.0,-0.0100066666667,-0.0131516190476,2.958
-0.646989015931,-0.519318750562,-0.125085131158,-2.64055656103,-0.0672373595351,2.11073225461,-0.894663812316,-0.0459837304129,0.00183395432004,-0.00156977747301,0.00219937104665,-0.000405087261313,0.000247541868792,-0.0501246071925,0.573768534535,0.818983040209,0.00609881377947,0.0,0.818980618986,-0.573676689026,-0.0121057463585,0.0,-0.0064157771843,0.0119409365318,-0.999908121698,0.0,0.265016921038,-0.259851565846,0.304925597388,1.0,-0.00966666666667,-0.0127047619048,2.975
-0.647839201093,-0.519201170781,-0.125070833562,-2.64046472485,-0.0672244211917,2.11075298214,-0.895498547433,-0.0437501758105,0.0107108112172,-0.000849872989491,0.00382497651743,-0.000254921616081,0.000835898505835,-0.0508031382388,0.573781375008,0.818974023966,0.00610152967094,0.0,0.818971635374,-0.573689509723,-0.012105940151,0.0,-0.00641419044694,0.0119433726655,-0.999908102783,0.0,0.26482196058,-0.260096765262,0.304926155201,1.0,-0.00928666666667,-0.0122053333333,2.994
-0.648434005392,-0.51911675354,-0.125066090624,-2.64039230876,-0.0672143058581,2.11076908424,-0.896085300809,-0.041078157017,0.00653275111217,0.00121530469661,0.0043604944791,0.0030933805624,-0.000194006338134,-0.0444207128146,0.573792669425,0.818966079846,0.00610569216539,0.0,0.81896379078,-0.573700867875,-0.0120983673184,0.0,-0.00640543488552,0.0119425252111,-0.999908169031,0.0,0.264686464558,-0.260271547193,0.304929472245,1.0,-0.00900666666667,-0.0118373333333,3.008
-0.649118480781,-0.519005727487,-0.125060140387,-2.64030809117,-0.0671998790869,2.11080146724,-0.896752883048,-0.0394160027003,0.00501062075629,-0.000744022156322,0.0049533489067,-4.32175659611e-05,-0.000197725606706,-0.0348363819676,0.573812850659,0.818951897657,0.00611135369791,0.0,0.818949740449,-0.573721128483,-0.0120886828124,0.0,-0.00639396009283,0.0119417629859,-0.999908251577,0.0,0.264532844539,-0.260474135763,0.304929772567,1.0,-0.00866666666667,-0.0113904761905,3.025
-0.64985527839,-0.518860751165,-0.125039327617,-2.64020366918,-0.0671819785716,2.11084065384,-0.897465522253,-0.041593756722,0.0064175335442,-0.000135206334877,0.00558389095365,0.000100135201288,0.000897427177699,-0.0372736173459,0.573831013999,0.818939175676,0.00611071334277,0.0,0.818937030647,-0.573739329101,-0.0120859000182,0.0,-0.00639178348626,0.0119397835805,-0.999908289131,0.0,0.264373942153,-0.260692429269,0.304927681144,1.0,-0.00828666666667,-0.0108910476191,3.044
-0.650470706242,-0.518737560469,-0.125003483245,-2.64012177473,-0.0671721545596,2.11086384234,-0.898060488523,-0.0348038239133,0.0111884688813,0.00243087874632,0.00782678988004,-0.000189412979166,0.000212375519358,-0.0307540401933,0.573830902932,0.818939343552,0.00609863302406,0.0,0.818936955978,-0.573739112043,-0.0121012539185,0.0,-0.0064112920815,0.011938699284,-0.999908177181,0.0,0.264241868753,-0.260868437649,0.304922355513,1.0,-0.00796666666667,-0.0104704761905,3.06
-0.651109606871,-0.518596920034,-0.12496897819,-2.64003701043,-0.0671597656153,2.1108815899,-0.898729307555,-0.0295133978818,0.00771058128765,0.00205819305557,0.00471429579821,-0.000312743442521,-0.000284947547053,-0.0370116830268,0.573791794427,0.818966800846,0.00609119540931,0.0,0.818964097202,-0.573699637371,-0.0121359167496,0.0,-0.00644452039528,0.0119521899147,-0.999907802406,0.0,0.264102899931,-0.261050287425,0.304911408276,1.0,-0.00760666666667,-0.00999733333334,3.078
-0.651668524492,-0.518505731769,-0.124952250023,-2.63998356573,-0.067145378713,2.11090168104,-0.899285684476,-0.0344072851565,0.00952703669793,-0.000216865906977,0.00525000253626,-0.000240154666651,-0.000573509169903,-0.0289566356447,0.573791041599,0.818967297662,0.0060953131611,0.0,0.818964552943,-0.57369869068,-0.0121499068219,0.0,-0.00645362742932,0.0119635834448,-0.999907607414,0.0,0.263975291045,-0.261207753188,0.30490422226,1.0,-0.00728666666667,-0.00957676190477,3.094
-0.65219990221,-0.518422837038,-0.124939185823,-2.63994006093,-0.0671324442288,2.11091346138,-0.899794534377,-0.0300662814436,0.00603172920423,0.000757557917985,0.00325643819655,0.000503692360249,0.00167629212376,-0.030757845966,0.573808143351,0.818955269028,0.00610154538621,0.0,0.818952444989,-0.573715463273,-0.0121740276591,0.0,-0.00646955771783,0.0119826624238,-0.999907276013,0.0,0.2638504503,-0.261355254498,0.304894776564,1.0,-0.00696666666667,-0.0091561904762,3.11
-0.652716771299,-0.518368869158,-0.124929205522,-2.63989318941,-0.0671186113114,2.1109270839,-0.900303615915,-0.0281183692393,0.00795160090294,0.00250340357003,0.00456137697226,0.000269136697345,0.000298375803925,-0.0319346925298,0.573815757879,0.818949884343,0.00610817861972,0.0,0.818947205836,-0.573723155744,-0.0121639433284,0.0,-0.00645738079296,0.0119823688709,-0.999907358244,0.0,0.263730436082,-0.2615010704,0.304897598355,1.0,-0.00664666666667,-0.00873561904763,3.126
-0.653218825363,-0.518309508342,-0.124923075217,-2.63984655209,-0.0671050605048,2.11093894446,-0.90079665283,-0.027173905172,0.00764268774517,-0.000212066347495,0.000464391197816,-0.000222383947392,-0.000196784724234,-0.0264596020889,0.573827006688,0.818941938591,0.00611674040268,0.0,0.818939381236,-0.573734381312,-0.0121612689602,0.0,-0.00645011309206,0.0119879349704,-0.999907338435,0.0,0.263612898597,-0.261643393477,0.304898085097,1.0,-0.00630666666667,-0.00828876190477,3.143
-0.65373943734,-0.518274267673,-0.124918222509,-2.63976557631,-0.0670865984406,2.11095257984,-0.901307813818,-0.030293112528,0.000673993394703,0.000608936219798,0.00654943282398,0.000598561872658,-0.000342805207632,-0.0276904614267,0.573843077239,0.818930624217,0.00612391423197,0.0,0.818928559373,-0.573751160429,-0.0120982416382,0.0,-0.00639414078677,0.0119577706947,-0.999908059115,0.0,0.263499263638,-0.261799836452,0.304923180785,1.0,-0.00594666666667,-0.00781561904763,3.161
-0.654200142591,-0.518214462188,-0.124903268811,-2.63966806561,-0.0670731803962,2.11097323956,-0.901775866497,-0.0325255006594,0.00556892577986,-0.00116591925621,0.0110696609562,-0.000417622673945,0.000224545542106,-0.0331897604702,0.573836947308,0.818934956361,0.00611899130264,0.0,0.818933219524,-0.573745787962,-0.0120374273742,0.0,-0.0063472467791,0.0119187952993,-0.999908823232,0.0,0.263407330862,-0.261943589097,0.304947573629,1.0,-0.00560666666667,-0.00736876190477,3.178
-0.654614844058,-0.518147973232,-0.124889302053,-2.63957686991,-0.0670569607439,2.11099125508,-0.902183336384,-0.0241375144999,0.00589224935491,-3.46900872785e-05,0.00962127267193,0.00483685282783,-2.93163482105e-06,-0.0304855982254,0.57384439331,0.818929748469,0.00611769889121,0.0,0.818928283151,-0.573753780265,-0.0119922302811,0.0,-0.006310862766,0.0118918597151,-0.999909374235,0.0,0.263325405899,-0.262073016073,0.304966387317,1.0,-0.00528666666667,-0.0069481904762,3.194
-0.65499919738,-0.518084083437,-0.124872658116,-2.63950601913,-0.0670328167878,2.11100718197,-0.902559971516,-0.0217130230339,0.00454431059087,-0.00677620439891,0.00288008882803,0.000232690851146,2.87990275902e-05,-0.0270107812778,0.573852767299,0.818923829017,0.00612459249461,0.0,0.818922611412,-0.573762421941,-0.0119660598723,0.0,-0.00628535155824,0.0118825526269,-0.999909645567,0.0,0.263247757756,-0.262187556408,0.304976803755,1.0,-0.00496666666667,-0.00652761904763,3.21
-0.655378259046,-0.518016892504,-0.124844575005,-2.6394713724,-0.0670094667892,2.11103234037,-0.902925524949,-0.0203622521324,-6.09121791082e-05,0.000852347938414,0.00418446651391,0.00441628542082,9.60551944012e-05,-0.0154380985524,0.57385576608,0.818921690413,0.00612956845166,0.0,0.818920506741,-0.573765341138,-0.0119701232197,0.0,-0.00628578062859,0.0118889824326,-0.99990956644,0.0,0.263167000098,-0.26229018989,0.304970609672,1.0,-0.00462666666667,-0.00608076190477,3.227
-0.655734404923,-0.517944844039,-0.124787178091,-2.63945321165,-0.0669829340315,2.11104605301,-0.903266191285,-0.0240396181543,0.0046419253473,0.0043243160539,-0.000223403226643,0.00283538885372,0.000127905552938,-0.0263460578142,0.573840205987,0.818932616702,0.00612651573592,0.0,0.818931161615,-0.573749359698,-0.0120071513433,0.0,-0.00631808503073,0.0119076101068,-0.999909141184,0.0,0.263093262293,-0.262374122261,0.304954849046,1.0,-0.00428666666667,-0.00563390476191,3.244
-0.656044888079,-0.517894140391,-0.124732590318,-2.63944988946,-0.066961369679,2.11104686815,-0.903559617656,-0.015168818033,0.00110228943399,0.000735243085443,-8.58799383761e-06,0.000782447799254,0.00031456333945,-0.0184190097046,0.573812926885,0.81895174896,0.00612410939607,0.0,0.818950021016,-0.573721642219,-0.0120452160039,0.0,-0.0063510388903,0.0119272698057,-0.999908698102,0.0,0.263023937218,-0.2624448959,0.304941122152,1.0,-0.00394666666667,-0.00518704761905,3.261
-0.656360763512,-0.517834849564,-0.124692266869,-2.63943713871,-0.0669377581435,2.11105507641,-0.903887580834,-0.0196306385333,0.00390420339286,0.00191673237969,-0.000641013447406,4.34944247399e-05,-4.38353801109e-05,-0.017076740306,0.573797458134,0.818962568037,0.00612667072847,0.0,0.818960608658,-0.573705669086,-0.0120860922577,0.0,-0.00638327432116,0.0119527011316,-0.999908189158,0.0,0.262956429121,-0.26251720737,0.304924648266,1.0,-0.00358666666667,-0.00471390476191,3.279
-0.656591618148,-0.517784883106,-0.124668222191,-2.63942370786,-0.0669202495933,2.11106175089,-0.904129709555,-0.0162697105438,0.00451942572782,-0.00044145825743,0.00198954606704,1.78745358655e-05,0.00217895461028,-0.0173611120349,0.57377948571,0.818975120562,0.0061319311859,0.0,0.818973047083,-0.573687335592,-0.0121134650072,0.0,-0.00640293847704,0.011972574599,-0.99990782567,0.0,0.262905682618,-0.262574464656,0.304913482116,1.0,-0.00328666666667,-0.00431961904763,3.294
-0.656868990969,-0.517742014816,-0.124652259098,-2.63939624412,-0.0668960553388,2.11106300041,-0.904403436084,-0.00671800278192,0.0011646280734,-0.00074815326705,0.00263041994996,0.00325713392405,-0.000249665423405,-0.0148439049046,0.573782936281,0.818972602065,0.00614540475293,0.0,0.8189706213,-0.573690570563,-0.0121242564613,0.0,-0.00640399639998,0.0119898282626,-0.999907612156,0.0,0.262844039276,-0.262647998189,0.304910657784,1.0,-0.00290666666667,-0.0038201904762,3.313
-0.657084282453,-0.517702206103,-0.124634814891,-2.63937092365,-0.066875297799,2.11106998235,-0.904623131326,-0.0111300503762,0.00311882876535,0.0010577563236,0.00118885829503,0.00142448242518,0.000431076060107,-0.0144619028771,0.573777158147,0.818976584981,0.00615409963568,0.0,0.818974676753,-0.57368467849,-0.0121291139035,0.0,-0.0064030708916,0.0119996912975,-0.999907499768,0.0,0.262799181737,-0.262705537063,0.30490850842,1.0,-0.00258666666667,-0.00339961904763,3.329
-0.657299224341,-0.517682024811,-0.124615334332,-2.63934689307,-0.0668514956946,2.11107489354,-0.904842818554,-0.0149830313547,-0.00126030977164,0.00297897586753,0.00056153694834,0.00478731901925,0.000928393456334,-0.00730288057968,0.573770800177,0.81898096563,0.0061639031146,0.0,0.818979249024,-0.573678397978,-0.0121174362901,0.0,-0.00638797459803,0.012000970916,-0.999907580968,0.0,0.262754942677,-0.262761938569,0.304912879356,1.0,-0.00222666666667,-0.00292647619048,3.347
-0.65745204401,-0.517664941379,-0.124589405278,-2.63932783888,-0.066840806129,2.11107470184,-0.90500832077,-0.0142869299989,0.00393000574406,0.00332813339356,-0.000946536493199,0.00449347760066,-0.000216532148163,-0.0178415911947,0.573747528773,0.81899729818,0.00616000825229,0.0,0.818995551508,-0.573655187744,-0.0121144164278,0.0,-0.00638807662323,0.0119958668015,-0.999907641563,0.0,0.262725384827,-0.262799977479,0.304915838966,1.0,-0.00194666666667,-0.00255847619048,3.361
-0.657627438627,-0.517658121685,-0.124559876019,-2.6393062474,-0.0668201758953,2.11108051682,-0.905172170173,-0.00589656774637,-0.000457190201692,0.000250239176483,0.000759741318988,-0.000126514955731,-0.000323386192657,-0.00814472815982,0.573745847262,0.818998467728,0.00616112886933,0.0,0.818996878654,-0.573653770427,-0.0120917877574,0.0,-0.00636892346093,0.0119837890498,-0.999907908567,0.0,0.262693327678,-0.262843841498,0.304924337167,1.0,-0.00160666666667,-0.00211161904763,3.378
-0.657806105173,-0.517648609354,-0.124520124119,-2.63929861603,-0.0667959693774,2.11108168876,-0.905320574979,-0.0102264202836,5.30028052682e-05,0.00114687660917,-0.000207700534633,0.000572450671923,0.000204493141044,-0.00650100765329,0.57375313935,0.818993346224,0.00616285875599,0.0,0.818991788817,-0.573661070522,-0.0120901992821,0.0,-0.00636652319039,0.0119843512461,-0.999907917114,0.0,0.26265900242,-0.262881672809,0.304925346828,1.0,-0.00124666666667,-0.00163847619048,3.396
-0.657938641381,-0.517647795217,-0.124497050557,-2.63928760184,-0.0667761191166,2.11108554172,-0.905422532669,-0.00861778198343,-0.000671573418858,0.00123959443575,-0.000359243906473,0.00495610999887,0.000293175346835,-0.0120511011378,0.573783871539,0.818971795608,0.00616552205696,0.0,0.818970369347,-0.573691966176,-0.0120751387844,0.0,-0.00635220992087,0.0119781303734,-0.999908082687,0.0,0.262631750863,-0.262916951488,0.3049305485,1.0,-0.000906666666672,-0.00119161904763,3.413
-0.658048844126,-0.517638937918,-0.124479968397,-2.63928642876,-0.0667602608593,2.11108843496,-0.905480208703,0.000834385363681,0.00287652158363,-0.000262258879968,-0.000540523956674,-0.00017915734212,-0.000212085324415,-0.00120779268169,0.573820266123,0.818946251403,0.00617141801948,0.0,0.81894491662,-0.57372835488,-0.0120724997965,0.0,-0.00634613312858,0.0119817271468,-0.99990807818,0.0,0.262608970079,-0.26294149441,0.304931546577,1.0,-0.000546666666672,-0.000718476190483,3.431
-0.658093602616,-0.517629708328,-0.124473552487,-2.63928036097,-0.0667465816722,2.11108949629,-0.905513870998,-0.00263149165219,0.00081943977849,-0.000380376413303,0.00125388638361,0.000196373682798,-0.000166951924879,-0.0048266225118,0.573819227315,0.818946906657,0.00618104692141,0.0,0.818945650372,-0.573727185422,-0.0120783006123,0.0,-0.00634537443905,0.0119929335168,-0.999907948648,0.0,0.262603085423,-0.262947586398,0.304928464158,1.0,-0.000246666666672,-0.000324190476198,3.446
-0.658092394983,-0.517629008822,-0.124452732595,-2.63927777856,-0.0667348121668,2.11109066331,-0.905539102573,0.000427732566548,-0.000491996052954,0.00226185212256,0.000632196106818,4.62449893238e-05,0.000158163065467,-0.00207284386032,0.573787939379,0.818968832693,0.00618050179039,0.0,0.818967590782,-0.573695947164,-0.0120744505698,0.0,-0.00634299198226,0.011990035618,-0.999907998517,0.0,0.262609802199,-0.262942382827,0.304929975087,1.0,0.0,0.0,3.464
-0.65808988933,-0.517622981821,-0.124429219828,-2.63928007388,-0.066728553422,2.11109118063,-0.905551878208,0.000609946833593,0.000187200159387,0.00250580626415,0.000557624605167,0.000484453224371,0.000752256107033,-0.0030186782997,0.573770252852,0.818981246368,0.00617753524502,0.0,0.818979967056,-0.573678279772,-0.0120744267111,0.0,-0.00634493340408,0.0119874552742,-0.999908017138,0.0,0.262616296798,-0.262936950268,0.304930401822,1.0,0.0,0.0,3.479
-0.658092394877,-0.517620107548,-0.12441049505,-2.63927952877,-0.0667190829768,2.11109189743,-0.9055481598,5.78908595911e-06,0.000414496831007,-0.00223183861372,-0.00123815288989,0.000121322340224,-9.78060612286e-05,0.00063889480841,0.573757214119,0.818990410941,0.00617356740825,0.0,0.818989026868,-0.573665161045,-0.0120832021169,0.0,-0.00635458847127,0.0119891391763,-0.999907935636,0.0,0.262620111426,-0.262931195364,0.304927005133,1.0,0.0,0.0,3.496
-0.658087383676,-0.517614416517,-0.124383759036,-2.63927096527,-0.0667142920721,2.11109741847,-0.90555225367,0.00030035288886,-0.000402467940088,-0.000386905263061,0.00143915706075,0.000106097513611,0.000756407860001,0.000525061021891,0.573733239118,0.819007288078,0.00616273540247,0.0,0.819005823122,-0.573641352232,-0.0120750819376,0.0,-0.00635450258517,0.0119754226176,-0.999908100552,0.0,0.262630436373,-0.262926484132,0.304929899025,1.0,0.0,0.0,3.514
-0.658087383567,-0.517608272682,-0.12438126445,-2.6392792219,-0.0667091505306,2.11109896946,-0.905552486278,0.000921052222971,-0.00177694757205,-0.000928317811091,-0.00099144213461,3.10712043693e-05,1.82914961098e-05,0.000368988451152,0.57373312193,0.819007336359,0.00616722719733,0.0,0.819005847104,-0.573641059313,-0.0120873645148,0.0,-0.00636198796036,0.0119861472845,-0.999907924452,0.0,0.262629674486,-0.262923407169,0.304924077473,1.0,0.0,0.0,3.532
-0.658092474456,-0.51760581342,-0.124386078708,-2.63927599009,-0.0667096123093,2.1111020237,-0.905556408947,-0.00265838080566,0.000745359945528,-0.000574030422536,-0.000139012859504,-4.68800806748e-05,0.000385602940725,0.000653335681762,0.573737456912,0.819004289894,0.00616851454643,0.0,0.81900284106,-0.573645432279,-0.0120835119972,0.0,-0.00635803038095,0.0119850251313,-0.999907963076,0.0,0.262628397294,-0.262927060954,0.304924786635,1.0,0.0,0.0,3.546
-0.658095180352,-0.517607337885,-0.124385142731,-2.6392686368,-0.066709493349,2.11110131823,-0.90556507391,-0.00148238811257,-0.000588208536244,0.000226369048047,-0.000432988875115,-0.000143887906288,-0.000315556048927,-0.00118173702484,0.573732292949,0.819007917771,0.00616713526746,0.0,0.819006503415,-0.57364037435,-0.0120753956884,0.0,-0.00635224919599,0.0119791989848,-0.999908069635,0.0,0.262629501601,-0.262929381189,0.304928651043,1.0,0.0,0.0,3.563
