nelsonifechukwu/NELSON_IML_WORK/CNN-GradCAM/train2dof/data_sample_2022-07-05-18-52-20/robot_state.csv
position_joint1,position_joint2,position_joint3,position_joint4,position_joint5,position_joint6,position_joint7,velocity_joint1,velocity_joint2,velocity_joint3,velocity_joint4,velocity_joint5,velocity_joint6,velocity_joint7,ee_T_00,ee_T_10,ee_T_20,ee_T_30,ee_T_01,ee_T_11,ee_T_21,ee_T_31,ee_T_02,ee_T_12,ee_T_22,ee_T_32,ee_T_03,ee_T_13,ee_T_23,ee_T_33,v_x,v_y,w_z,time
0.46510951023352526,0.5473090392190575,-0.12399816805338605,-1.3555782185115175,0.07942514623536003,1.8941697579411425,0.15914975383877752,-0.0005064419077530369,-0.0003548246236235736,0.00034166423459994384,-0.0010038504354313868,0.00022391835173137168,0.0003356231663541587,0.000951428303569957,0.5737411365654599,0.8190208717587745,0.002582002571596168,0.0,0.8189869810475114,-0.573681341813629,-0.011436338172923577,0.0,-0.00788550478067912,0.008676291198140132,-0.9999312680306577,0.0,0.6617588388278828,0.2609377206560662,0.30367635825657396,1.0,5e-324,6.92916505581795e-310,6.92895285623895e-310,0.0
0.4651043419875293,0.5473004289695099,-0.12399822115171154,-1.3555787231199177,0.0794251418472323,1.8941634731693087,0.15914532362418884,-0.0012611886420242579,-0.0014236600658594323,-0.00011835249709317302,-2.591363266268807e-05,0.00017101464003791865,-0.0003287940727484268,-0.00018156898163945395,0.5737417449108164,0.8190204389571958,0.0025841087945794516,0.0,0.8189865678152832,-0.5736819349006028,-0.011436179783964481,0.0,-0.007884160247904226,0.00867793121396647,-0.9999312644012242,0.0,0.6617590560920174,0.2609338943031756,0.30368167315074157,1.0,-0.00030000000000000014,-0.00039428571428571453,-0.00015000000000000007,0.016000000000000007
0.46510703465511144,0.5472975323220767,-0.12399778098338961,-1.3555844203210188,0.0794238238069745,1.8941674705515303,0.1591484771072864,0.0009529721440533032,-0.0033577723239849137,0.0005754266544756477,0.0008296430443238065,1.0260753244201393e-05,4.310392706588895e-05,0.0005617214661717795,0.5737417987674276,0.8190203998321727,0.0025845516193079296,0.0,0.8189865428524303,-0.5736819966186549,-0.01143487137951842,0.0,-0.007882833964935276,0.008677543739086538,-0.9999312782203272,0.0,0.6617578946327226,0.26093535093321163,0.3036813435859113,1.0,-0.0006200000000000004,-0.0008148571428571435,-0.0003100000000000002,0.03200000000000002
0.4651059891955055,0.5472583924589,-0.12399897184871574,-1.3556132654974034,0.07942513307164561,1.8941682564940925,0.15914379774530726,0.0003940762693304671,-0.001567281707776634,0.00023351861081877023,-0.005971340869101913,0.00034637910668315814,-0.00035315599984594423,-0.0048061845983505495,0.5737415059963027,0.819020567537206,0.0025963723414878757,0.0,0.8189868314552133,-0.5736816308874673,-0.011432549429319738,0.0,-0.007874153604600143,0.0086858901144886,-0.9999312741473437,0.0,0.6617529417076385,0.26093132384112677,0.3036954495962849,1.0,-0.0009600000000000008,-0.001261714285714287,-0.0004800000000000004,0.04900000000000004
0.46510561173900317,0.5471388318665995,-0.12399562218259466,-1.3557374457813112,0.07942206921202209,1.8941955924497276,0.15914351274577196,-0.0009026292442428454,-0.007924289103750034,0.0003114494458526002,-0.010750756764615024,0.00010580435480837213,0.0009394067676386184,-0.00010875643552361609,0.5737451730393089,0.8190179213368499,0.0026206572395290418,0.0,0.8189844246841277,-0.5736851377161477,-0.011428989002597586,0.0,-0.007857265983241435,0.008703772309157795,-0.9999312514962511,0.0,0.6617325789976329,0.26092119869372016,0.303723289719823,1.0,-0.001280000000000001,-0.0016822857142857158,-0.0006400000000000005,0.06500000000000004
0.4650883229231749,0.5469932466499294,-0.12399630775885505,-1.3559435167226728,0.07941790413120933,1.89424240215184,0.15915132434264062,-0.0011136001757805123,-0.00780285463742866,0.0006872901152807236,-0.015002359847551987,0.00020938146487523972,0.0006437823863122511,0.00048038813588176905,0.5737764268245504,0.8189960459319631,0.0026145113251364186,0.0,0.8189623707418507,-0.5737162976317177,-0.011445175483585496,0.0,-0.007873717301937533,0.00870832594877663,-0.9999310824426946,0.0,0.6617034180683142,0.2608893103439812,0.30373239727276824,1.0,-0.0016400000000000013,-0.0021554285714285733,-0.0008200000000000006,0.08300000000000006
0.46507377455193155,0.546843565703709,-0.12400134543473076,-1.3561268821913042,0.0794134530919749,1.8943167784583175,0.15913754749213246,-0.0004940783561808854,-0.012979990964324069,0.0011480214484395391,-0.01082983800284907,0.0002956031126657011,0.008037976530006728,-0.0009981460019321533,0.5737896336068649,0.8189866727251652,0.0026520115141961155,0.0,0.8189534589160254,-0.5737293573762933,-0.011428189501042641,0.0,-0.007838148941593126,0.008729418737590505,-0.9999311779666002,0.0,0.6616853593554085,0.2608612979743949,0.30375775517298415,1.0,-0.0019400000000000014,-0.002549714285714288,-0.0009700000000000007,0.09800000000000007
0.4650441936938441,0.5466424856246137,-0.12399636923492706,-1.3563550179873431,0.07941060837909268,1.8944642091011896,0.15914473020686642,8.42770876502511e-05,-0.010314286458530294,0.000585612866496805,-0.01341260899127958,-0.00029763380732953005,0.006918353253486406,0.001401601588769983,0.5738285450908902,0.8189590521147148,0.0027601991682716567,0.0,0.8189272019697023,-0.573767889908509,-0.011375116932144332,0.0,-0.007732190196558297,0.00878793817620474,-0.999931490341901,0.0,0.6616744825372777,0.26082972552478095,0.3038042312058166,1.0,-0.0023000000000000017,-0.0030228571428571457,-0.0011500000000000008,0.11600000000000009
0.4650134597181404,0.546433220445351,-0.12399965373323,-1.3566081214210814,0.07939984191997011,1.8945831921467708,0.15913244187192302,1.2146625172674319e-05,-0.016784988240795884,-0.0003911886360777706,-0.0189788940745135,-0.0035292176198269184,0.010440222103845513,-9.482216201447765e-05,0.5738573009343051,0.81893867897323,0.002825800273164666,0.0,0.8189076866863017,-0.5737964577055754,-0.011338990776613926,0.0,-0.0076646515088573675,0.008821202042595802,-0.9999317174246306,0.0,0.6616550524722348,0.2607865294885174,0.30384239034311916,1.0,-0.0026200000000000017,-0.0034434285714285743,-0.0013100000000000008,0.1320000000000001
0.46497400739348915,0.5461709809095416,-0.12399670380951994,-1.3569975473426588,0.07938399902032506,1.8947218707105156,0.1591210450585282,-0.0020637838775850515,-0.018628335634197073,0.0011738665458707659,-0.01910137193647999,3.127593071279213e-06,0.0037062333948547663,0.0006130778932276906,0.5738957379945943,0.8189116927179476,0.0028404828240823467,0.0,0.8188808097318402,-0.5738347541101196,-0.011342016113212328,0.0,-0.007658289296993914,0.008835321689973932,-0.9999316415113976,0.0,0.6616107996126273,0.2607261996469763,0.30385464486414665,1.0,-0.002980000000000002,-0.0039165714285714325,-0.001490000000000001,0.1500000000000001
0.46494551642078413,0.5459419396521441,-0.1239995199514678,-1.3573856352551972,0.07936115871422818,1.8948539177063657,0.1591093106591101,0.00013357609114816638,-0.01239573157364452,0.0013610642472945233,-0.027990478283831527,-0.0011888360996479747,0.01690928682471631,-0.0007497226570854699,0.5739270575464458,0.8188898261873608,0.0028163955903009142,0.0,0.8188586262118133,-0.5738661344968073,-0.011355917285819701,0.0,-0.007683159006382501,0.008823867904334662,-0.9999315518688714,0.0,0.6615634971388681,0.26066792541404726,0.3038436096322858,1.0,-0.0032800000000000025,-0.004310857142857147,-0.0016400000000000013,0.16500000000000012
0.4648941093515049,0.5456029959819835,-0.1240020289542228,-1.3579293921121054,0.07931337961337157,1.8950386595953157,0.15908588252072053,-0.005736018825830074,-0.01431605095522173,-0.00021384230906735933,-0.028621121391146635,-0.0035036996614423443,0.01485489282584617,-0.0012582294465688887,0.5739693717192079,0.8188602585245379,0.0027900248373844425,0.0,0.8188288323975371,-0.5739086534284867,-0.01135551212387877,0.0,-0.007697506396833587,0.008802438413464578,-0.9999316303994228,0.0,0.6615011403915962,0.26057717227837685,0.30384079607588066,1.0,-0.0036600000000000027,-0.004810285714285718,-0.0018300000000000013,0.18400000000000014
0.46485512642086524,0.5453075698099862,-0.12401050148856882,-1.3584048357949767,0.07927487817476918,1.8951976572484217,0.15901966380945448,-0.001995513108714172,-0.01897339076084761,-0.0015483110384072938,-0.032899321202661334,-0.0009688839468978345,0.013309698903843255,-0.016705090712462383,0.5739692620227768,0.8188604207167494,0.0027648757341730314,0.0,0.8188287649008401,-0.5739087277552934,-0.011356622670210863,0.0,-0.0077128509989318195,0.008782481205587542,-0.9999316876433819,0.0,0.6614457467918019,0.2604984801484296,0.30383764575324845,1.0,-0.0039600000000000034,-0.005204571428571434,-0.0019800000000000017,0.19900000000000015
0.46478858196029615,0.5448907484597666,-0.12400556941944227,-1.3591023382423943,0.0792469028712562,1.8954292421114374,0.15893099250971549,-0.0008492986131287245,-0.02717211344764058,7.894267457061206e-05,-0.035787934756846246,0.00017551772351533256,0.007281578134786137,-0.002260115127308067,0.5739791213007406,0.8188536204135798,0.0027319494159131485,0.0,0.8188213638268105,-0.5739184870239266,-0.011396986188350543,0.0,-0.0077646966211987745,0.008778779683222493,-0.9999313188982801,0.0,0.6613604970383617,0.260391190811494,0.3038205822718497,1.0,-0.004340000000000004,-0.005704000000000006,-0.002170000000000002,0.21800000000000017
0.464735683035468,0.5445511479696309,-0.1240058889019284,-1.3597180298879712,0.07922244168779352,1.8956250209426415,0.1589326516839572,-0.003403088126307822,-0.022015670942535107,0.00030970721465593354,-0.044855844734606284,-4.8698624112194055e-05,0.017600881748570853,-0.00024049526905032233,0.574051805842354,0.8188028745919801,0.002669020466513322,0.0,0.8187696624925047,-0.5739912000886632,-0.011449406268200764,0.0,-0.00784296350549013,0.008758033949929023,-0.9999308899942952,0.0,0.661282248839367,0.2602967257572431,0.3037848385079674,1.0,-0.0046400000000000035,-0.00609828571428572,-0.0023200000000000017,0.23300000000000018
0.4646682892502405,0.5440868282105823,-0.12400912062384334,-1.3604908680634045,0.0791822354234375,1.8958711280459446,0.1588985388825907,-0.0007410899869400582,-0.025120585879462122,-0.00010911915197418299,-0.046807821367562986,0.00029655636326801095,0.014729538674640942,-0.0037781139487232415,0.5741135450873094,0.8187597503861515,0.0026182811341878155,0.0,0.8187257930061205,-0.5740529963197725,-0.0114882628799581,0.0,-0.007903247279677561,0.008739389887145468,-0.9999305784637436,0.0,0.6611864377115735,0.26017484291565746,0.303766967162177,1.0,-0.005000000000000004,-0.006571428571428577,-0.002500000000000002,0.25100000000000017
0.46459847836818197,0.5436387634901292,-0.1240126474339711,-1.3612122320973816,0.07915227951901953,1.8961348582095285,0.15883347193109745,-0.0030780068975662348,-0.02648817572270932,-0.0007359040392545467,-0.04923480914219599,-0.006519658896125203,0.015404378446933145,-0.00330707599828628,0.5741521403716077,0.8187326938900396,0.0026158294036366615,0.0,0.81869860022864,-0.5740914792947075,-0.011503142444053732,0.0,-0.007916425845233555,0.008746298119788984,-0.9999304138143998,0.0,0.6611055730600843,0.2600599515032965,0.30376361534209556,1.0,-0.0053200000000000035,-0.006992000000000006,-0.0026600000000000018,0.2670000000000002
0.4645345583094331,0.5431097241118884,-0.12401764932978512,-1.3620814406186577,0.07909111888292022,1.8964447636693471,0.15876234622485105,-0.003935303434297021,-0.02685712446713624,0.0013068066810880048,-0.05248799344683999,-0.003696669127580932,0.01885723873542091,-0.0021107394377184417,0.5741818501301198,0.8187119632538852,0.0025828486850890866,0.0,0.8186775191205818,-0.5741213781843632,-0.011511285743349274,0.0,-0.007941711606347046,0.008724259468294776,-0.9999304058350719,0.0,0.6610024789324873,0.25992970211489913,0.303751130366788,1.0,-0.005680000000000004,-0.007465142857142863,-0.002840000000000002,0.2850000000000002
0.4644780680360725,0.5427177588484148,-0.12401800265802235,-1.3627447267958603,0.07905605100482894,1.8966698035298342,0.15873777882684617,-0.001719075949380027,-0.029314834592417356,-0.0003788180339510191,-0.05287793713152909,5.942627539451257e-05,0.020695513933821442,-0.004518464362364052,0.5742357369614255,0.8186742870609706,0.0025449956362329183,0.0,0.8186392852893742,-0.574175310664412,-0.011540368518260213,0.0,-0.007986683077432388,0.008710493133584657,-0.9999301676631177,0.0,0.6609216905167814,0.25982816823751714,0.30373216960842997,1.0,-0.005940000000000004,-0.00780685714285715,-0.002970000000000002,0.2980000000000002
0.4643908644025794,0.5420405989615529,-0.1240187724198396,-1.3638071816183952,0.07899422869771562,1.8970489841907716,0.15863361177013044,-0.005859231388094906,-0.036185036215905,0.001253190686200667,-0.05607860753536482,-0.0013551146564881238,0.016028469692257918,-0.006604679664082024,0.5742648841880038,0.8186538557427527,0.002540505318016066,0.0,0.8186187559904357,-0.5742044260102854,-0.011548003813575184,0.0,-0.007995202382629296,0.008711486098729224,-0.9999300909307673,0.0,0.6607966561397074,0.2596685937388468,0.3037382203693052,1.0,-0.0063400000000000045,-0.008332571428571436,-0.0031700000000000022,0.3180000000000002
0.464300915482684,0.5414011532305595,-0.12401948442108263,-1.3648024637425826,0.07892767758007445,1.8974116851652092,0.15857922010500658,-0.005630092942660239,-0.037909358597454396,-0.00025064235295708807,-0.05600980968467543,-0.0038524141454386665,0.02087910598121048,-0.004446720232684978,0.574326070945737,0.8186109302934623,0.002540853658270748,0.0,0.8185758692248035,-0.5742656412881695,-0.011544109318307932,0.0,-0.007991162967633247,0.008710132136278456,-0.9999301350157386,0.0,0.6606882193066289,0.2595237030771468,0.30374821665215623,1.0,-0.006680000000000005,-0.00877942857142858,-0.0033400000000000027,0.33500000000000024
0.4642206906243976,0.5407985284108131,-0.12403009477006287,-1.3657290279071637,0.07887585832331866,1.8977433206886232,0.15851609440229597,-0.008306649467870738,-0.04725392931986312,-0.003167360592683017,-0.05463821806393567,-0.005249640186284827,0.015929116127990046,-0.011064960800257978,0.5743908536254868,0.8185654551272645,0.0025475173968693534,0.0,0.8185304940995753,-0.5743304085532959,-0.01153945151720346,0.0,-0.007982833370037468,0.008713543843643617,-0.9999301718245486,0.0,0.6605779831184279,0.2593657392912578,0.30376209366391255,1.0,-0.007020000000000005,-0.009226285714285723,-0.0035100000000000027,0.35200000000000026
0.4641374664752441,0.5401964871863726,-0.12403284218622428,-1.3666446172441804,0.07882941682294016,1.898093056527762,0.1584291382779216,-0.009395369395661008,-0.04271662404780556,1.3819061770033381e-05,-0.05988817225105671,-0.0019923789782751436,0.02448390178332191,-0.0015991232962451337,0.5744280891545525,0.8185392181761276,0.0025817821502658496,0.0,0.8185046487232742,-0.5743674678742002,-0.011528172768361175,0.0,-0.007953522978526417,0.00873547513172232,-0.9999302140381865,0.0,0.6604770225074535,0.2592246095142536,0.30378220720781024,1.0,-0.007320000000000005,-0.009620571428571437,-0.0036600000000000027,0.36700000000000027
0.4640303547902875,0.5394469850735589,-0.12403693930884425,-1.3678209304061033,0.07875195371690064,1.8985310581591648,0.1583588030490946,-0.00634511003486851,-0.03731664957251022,-0.0008459676225573019,-0.06854213068104092,-1.4667833180038797e-05,0.026910779798435577,-0.0030561180205084405,0.5745054831317322,0.8184848892655108,0.002585110598731651,0.0,0.8184504359836149,-0.5744449215532941,-0.011517935625313202,0.0,-0.007942405525674878,0.008733070206361937,-0.9999303234122049,0.0,0.6603453767638737,0.2590388922793782,0.30378999042527066,1.0,-0.007680000000000006,-0.010093714285714296,-0.003840000000000003,0.3850000000000003
0.46394755943832305,0.5387436512221119,-0.12404355975096507,-1.3689119025830925,0.07869492335070659,1.898943988949199,0.1582709399264069,-0.005201657025419464,-0.04574598317409086,0.00217760343973472,-0.06918645490435858,-0.004955464082236795,0.027895869201303516,-0.0033838183307941215,0.5745510803754932,0.8184528074853036,0.002608612655481018,0.0,0.8184186205421984,-0.5744903938478229,-0.01151068319372923,0.0,-0.007922480596439407,0.00874858107314054,-0.9999303458893553,0.0,0.6602201536182177,0.258878903026438,0.3038035972787222,1.0,-0.008000000000000005,-0.010514285714285723,-0.004000000000000003,0.4010000000000003
0.4638346673717038,0.5379390340434225,-0.12404988408184024,-1.3701691794986046,0.07862267904237391,1.8994296901721115,0.15816861560252918,-0.006688101994883593,-0.04469482469129867,0.0010146332334068284,-0.07577953826227202,-0.005567370930112097,0.03079645416636446,-0.0021353974326802075,0.574614368760567,0.818408290480581,0.0026351826798660313,0.0,0.8183744648579304,-0.5745536067591297,-0.011495004557625855,0.0,-0.007893705294174824,0.008761929697516296,-0.9999304565842089,0.0,0.6600819779691836,0.25868329007370716,0.303815753133595,1.0,-0.008360000000000006,-0.010987428571428582,-0.004180000000000003,0.4190000000000003
0.4637349111261366,0.5372002049205051,-0.12405848907455845,-1.37134504264978,0.07855431279366733,1.89987757295152,0.15811725243295766,-0.005389273442168085,-0.04566150741221181,0.00012945946271655193,-0.07537591996304553,-0.00362018539387961,0.032944828660096875,-0.0051936032774462055,0.5747066380081237,0.818343479812013,0.0026412458752012938,0.0,0.8183097622360863,-0.5746458777544572,-0.011488912487151965,0.0,-0.007884247365864572,0.008764280293558038,-0.9999305106028168,0.0,0.6599500224258699,0.25850190099704273,0.30381686270128394,1.0,-0.008680000000000007,-0.011408000000000012,-0.004340000000000004,0.43500000000000033
0.4636120853880029,0.5363205565479209,-0.12406697545450651,-1.37273366184379,0.07847718858072097,1.900387571834533,0.15797834982577386,-0.0071743904989657525,-0.05439154336316125,-0.001865443051262998,-0.0774971501103852,-0.005694902297417857,0.026204934285313942,-0.009096132444405733,0.574755213422102,0.818309359420358,0.0026426937707222115,0.0,0.8182756273981081,-0.5746944055667157,-0.011492811568995563,0.0,-0.007886085778892271,0.008768174083938665,-0.9999304619693922,0.0,0.6597910003220462,0.25828476245737125,0.3038213586897644,1.0,-0.009040000000000006,-0.011881142857142868,-0.004520000000000003,0.45300000000000035
0.4635089509465525,0.535511764880461,-0.12407513159336708,-1.3739971924351806,0.07838840772208383,1.9008463517044356,0.15790563047270553,-0.004763604675305641,-0.049145976425234265,-0.0011839765256674145,-0.07670755291251982,-0.00027299052340299773,0.029553405083358294,-0.001981297853147577,0.5748313935438109,0.8182558686520777,0.002636155178059883,0.0,0.8182221763937626,-0.5747707356992616,-0.011481216938656478,0.0,-0.007879539993774332,0.008756893156859569,-0.9999306124285454,0.0,0.6596440757356792,0.25808939080194526,0.3038307335825599,1.0,-0.009360000000000007,-0.012301714285714298,-0.004680000000000004,0.46900000000000036
0.4633933605419891,0.5346155699678862,-0.12408070968238846,-1.375418776527125,0.07833178662901727,1.9013548907142181,0.15779387921464957,-0.011395436160446007,-0.051771700387759,-0.001721318445682611,-0.07863880573142093,0.0002397702409280998,0.026265724195390854,-0.012968633764001872,0.5749012306068783,0.8182068048247133,0.0026356187961858813,0.0,0.8181728546403312,-0.5748402870902061,-0.011513955399830328,0.0,-0.007905889005991595,0.008775947846925175,-0.999930237395796,0.0,0.6594732233498922,0.2578782609032523,0.3038306954314357,1.0,-0.009700000000000007,-0.01274857142857144,-0.004850000000000004,0.4860000000000004
0.4632789796787884,0.5337602960305342,-0.12408469295113042,-1.3767928140337078,0.07823853851977013,1.9018677661941357,0.15769552241862045,-0.009848061155569172,-0.055577566695519505,-0.0011884766092452488,-0.08909538465340804,-0.006165507605895251,0.027959006785903306,-0.0015638651355876767,0.5749674479657843,0.8181603187110598,0.002621748946497109,0.0,0.8181262873925332,-0.5749066508238558,-0.011509457720296507,0.0,-0.007909472972362053,0.008762653973224607,-0.9999303256390641,0.0,0.6593142228627012,0.25766836472013066,0.30382451141503425,1.0,-0.010020000000000006,-0.013169142857142867,-0.005010000000000003,0.5020000000000003
0.4631468388195396,0.5327784119453295,-0.1240840513363073,-1.3783665250819679,0.07816093573328584,1.9024610240833824,0.15757996743274666,-0.011262600938795025,-0.05194879494176435,-0.00017973854839215334,-0.08981256248879198,-0.0001659645175977483,0.03380756051022997,-0.0034772356377549053,0.5750459376360526,0.8181051272693587,0.002630065601461668,0.0,0.8180710555020467,-0.5749849392544657,-0.011524525218589387,0.0,-0.00791617747152834,0.008778880973424122,-0.9999301302506558,0.0,0.6591304320155824,0.2574353908401066,0.30381925959805495,1.0,-0.010380000000000007,-0.013642285714285727,-0.005190000000000004,0.5200000000000004
0.4630368959586954,0.5319263696954796,-0.12407705522401702,-1.379705219418072,0.07807094817885474,1.9029640498998832,0.15747792040287034,-0.007927746655602846,-0.061211178379747516,0.0005222823634606238,-0.09169104151114546,-0.005436786483606281,0.03131390557739167,-0.0017667803563777558,0.5750963962637488,0.8180696288533623,0.0026389871881952846,0.0,0.8180357154491156,-0.5750354098836791,-0.011514883011604866,0.0,-0.00790261714202023,0.008781122559749138,-0.999930217829673,0.0,0.6589730781856556,0.25723884796447305,0.3038260564821502,1.0,-0.010680000000000007,-0.01403657142857144,-0.005340000000000004,0.5350000000000004
0.4628964831999997,0.530875397646813,-0.12408192768142758,-1.3813860198071573,0.07798765545579163,1.9035729833492951,0.15736495021028798,-0.00815853768696061,-0.06112317287743204,-0.0004489153975952225,-0.09544232625994561,0.00046146217558653896,0.03093286916730133,-0.007568462354192331,0.5751914744347504,0.8180028159635855,0.002628253113919396,0.0,0.8179686025405342,-0.5751303328981965,-0.01154176500817889,0.0,-0.007929760862000479,0.008788722569493174,-0.999929936169664,0.0,0.658772148475443,0.25698561142992443,0.30381964261526057,1.0,-0.011040000000000008,-0.0145097142857143,-0.005520000000000004,0.5530000000000004
0.4627692138669869,0.5299208413880435,-0.1240873479012294,-1.3829275045384175,0.07787526314630228,1.9041208938410292,0.1572600371057732,-0.007199920924333985,-0.05323899679445558,-0.00037463360815002283,-0.0953722318505943,-0.007619559840136829,0.030521231718255985,-0.0018901339324173291,0.5752670357760066,0.8179498270298915,0.0025816491755558295,0.0,0.8179151519115111,-0.5752061967750208,-0.011549128382435239,0.0,-0.007961780248021744,0.008755571399848117,-0.999929972560451,0.0,0.6585869033477569,0.25674720272522006,0.3038060406620092,1.0,-0.011360000000000007,-0.014930285714285726,-0.005680000000000004,0.5690000000000004
0.46261645059174666,0.5288169460405366,-0.12408833344656323,-1.3846830594886894,0.07776763015643746,1.9047607053887579,0.15712440737626224,-0.007522744016277715,-0.060521967035772194,-7.458054999225245e-05,-0.09244100239008826,-0.007178816406747017,0.033405134985577845,-0.008011496053956707,0.5753480026023381,0.8178929171406026,0.0025688312408139857,0.0,0.8178580635226902,-0.5752871828638892,-0.01155820334886476,0.0,-0.00797571052326923,0.008751097040305578,-0.9999299007141653,0.0,0.6583787249832745,0.2564781457770757,0.3038033535929027,1.0,-0.011720000000000008,-0.015403428571428585,-0.005860000000000004,0.5870000000000004
0.4624900372414484,0.5278518566904744,-0.12409068154036935,-1.3862069863257163,0.07767053159892377,1.9053456008990386,0.1570147266859965,-0.011835791906501227,-0.061874515571830886,0.0002849646391229419,-0.09905120363074055,-0.008684499168588844,0.04123858859972075,-0.002303102747853416,0.5754198491689014,0.8178423204395264,0.0025851463668401936,0.0,0.8178077430873792,-0.5753590372501243,-0.011542118615996327,0.0,-0.007952398855239684,0.008755885446849784,-0.9999300444643557,0.0,0.6582026028487918,0.2562493112468867,0.3038082212575294,1.0,-0.012020000000000008,-0.0157977142857143,-0.006010000000000004,0.6020000000000004
0.46233454121277034,0.5266449318887345,-0.12409151010190059,-1.388057295709777,0.07755525926858632,1.9060521183025727,0.1568865363153736,-0.01025379231737003,-0.06677614469772856,0.00016356216460661644,-0.10789731843409099,-0.009778669929576307,0.0386942145085188,-0.004451998034674677,0.5755117462451609,0.8177774969419479,0.0026348302442812414,0.0,0.8177436083881369,-0.5754508092702645,-0.011511036085220899,0.0,-0.007897403130101732,0.008779521102932397,-0.9999302730855807,0.0,0.6579883159624142,0.255971987053519,0.30383817941151114,1.0,-0.012380000000000009,-0.016270857142857156,-0.0061900000000000045,0.6200000000000004
0.46217784027320197,0.5255694251097489,-0.12409786425042903,-1.3897612307219582,0.0774553003830898,1.9066773213857402,0.1567623183477734,-0.009999492700032519,-0.06598807423118931,0.00045490537751277367,-0.10521539710747355,-0.003310469566266943,0.04442412181619164,-0.0027441321782949247,0.5756077154914911,0.8177099637358458,0.00263058453511602,0.0,0.8176759997160719,-0.5755467576901487,-0.011516774804072406,0.0,-0.007903509274420961,0.00878027932197592,-0.9999302181833377,0.0,0.6577888232791929,0.25570331393002516,0.3038381971695181,1.0,-0.01270000000000001,-0.016691428571428586,-0.006350000000000005,0.6360000000000005
0.4620284541003837,0.5243278411590055,-0.12411171159204648,-1.3917221435568898,0.07732644265696,1.9073854079557246,0.156617391258532,-0.003379026134782537,-0.06748894306924051,-0.0010974458650325747,-0.10688251768799491,-0.010726285197469524,0.03743385888755909,-0.010279739245515038,0.5756917265781368,0.8176508831304912,0.0026107789298109646,0.0,0.8176167663587893,-0.5756309382459361,-0.011514912257971192,0.0,-0.007912485391843305,0.008763825076246956,-0.999930291542844,0.0,0.6575507707533401,0.255407777565553,0.3038398114761137,1.0,-0.013060000000000009,-0.017164571428571442,-0.0065300000000000046,0.6540000000000005
0.4618934214347663,0.5232849154262651,-0.12410823696105151,-1.3933915999678819,0.07721821976684273,1.9079956834429475,0.1565022568190856,-0.006207406805373467,-0.07291366229388149,0.000941864367178409,-0.11064843372997812,-0.005647750799487257,0.04372366859066812,-0.00929269891608719,0.5757744037081044,0.8175927570126218,0.0025819791411576956,0.0,0.8175582903396178,-0.5757137254243345,-0.01152801614344156,0.0,-0.007938894519599116,0.008748623511377632,-0.9999302153352818,0.0,0.6573341579382944,0.25514115516542035,0.3038246416366418,1.0,-0.01338000000000001,-0.017585142857142872,-0.006690000000000005,0.6700000000000005
0.46170965029529243,0.5219306364085861,-0.12410842780972621,-1.3955596588086583,0.0770983180636827,1.9088191502907945,0.1563423254455836,-0.012825496986928609,-0.07425817947199688,0.001273856682353768,-0.1083198620624473,-0.008978057198342724,0.04953617544556004,-0.002490670564597294,0.5758694397840025,0.8175257556305227,0.0026027110500410544,0.0,0.8174914568016973,-0.5758085700628166,-0.011530637435158732,0.0,-0.007928082394222546,0.008768004579327596,-0.9999301313618103,0.0,0.6570902460645949,0.25483648509421203,0.30382234390631113,1.0,-0.013740000000000011,-0.01805828571428573,-0.0068700000000000054,0.6880000000000005
0.46155839437624896,0.5207717475811239,-0.12411611493898284,-1.3974477822428724,0.0769784769912616,1.909553872357831,0.1561974714613082,-0.013257266820802345,-0.07713062543724844,-0.0018132358191420912,-0.12163466903379673,-0.005501441880488727,0.04616706536930125,-0.01726137139883572,0.5759488491328923,0.8174698281596018,0.0025981016947144624,0.0,0.8174355699087472,-0.57588809562286,-0.011521166132201676,0.0,-0.007922142386875552,0.008759551762525658,-0.9999302525241056,0.0,0.6568691452250524,0.25455419655725514,0.30380167752098375,1.0,-0.01406000000000001,-0.018478857142857158,-0.007030000000000005,0.7040000000000005
0.461373534236347,0.5193947112587919,-0.12411639859826804,-1.3996080027264195,0.07683591616204667,1.9103406109182839,0.15604447888575096,-0.01034283353017116,-0.08125440927578162,-6.492279671096742e-05,-0.1214055779423046,-0.006773329848030452,0.03792110846994973,-0.009418325177345171,0.5760514359029274,0.8173975565587811,0.0025931886005164844,0.0,0.81736329237676,-0.5759907495942261,-0.011517445815494902,0.0,-0.00792083192209253,0.008754386921298318,-0.9999303081371693,0.0,0.6566073602336185,0.2542246672484381,0.3038085525083982,1.0,-0.014420000000000011,-0.018952000000000017,-0.0072100000000000055,0.7220000000000005
0.4612192588636549,0.5182145211942116,-0.1241227354148117,-1.4014367371208105,0.07671266802824406,1.910997853166692,0.1559057177480595,-0.010032779819886543,-0.07832031206129247,0.00011060116818495733,-0.12181682938417424,-0.009745549927757136,0.039199600313532874,-0.004053504949680839,0.5761321551339231,0.8173406685432708,0.0025919620345409003,0.0,0.8173064739426306,-0.5760715573189571,-0.011508058080492087,0.0,-0.007913000629177491,0.008748758095067949,-0.9999304194056886,0.0,0.6563846948799351,0.2539428447594164,0.3038235994014565,1.0,-0.01472000000000001,-0.019346285714285733,-0.007360000000000005,0.7370000000000005
0.4610264885590393,0.5167899021360486,-0.1241234642893047,-1.4036705970941332,0.0765744081706886,1.9118075505197847,0.1557370755737477,-0.00981395536735793,-0.07907185637155704,0.0016998354373536108,-0.12647428556111998,-0.00516182046963166,0.04587842189929192,-0.0027447755892504246,0.5762331609254435,0.8172694694038621,0.002589504085678567,0.0,0.8172352198724945,-0.576172533108641,-0.011513226842890509,0.0,-0.007917560102041699,0.008750705515148463,-0.999930366273081,0.0,0.6561116732081543,0.25360210812542233,0.3038300215332185,1.0,-0.015080000000000012,-0.01981942857142859,-0.007540000000000006,0.7550000000000006
0.4608638307005016,0.5155916733575149,-0.12413734414461607,-1.405574215624336,0.07644515402898208,1.9125325644432638,0.15557748939109062,-0.01385204840275775,-0.08054643232798238,-0.0005656901255689179,-0.1293465677754086,-0.004500824795840416,0.05769087371095086,-0.01235236697582854,0.5763111465414023,0.8172144684643476,0.002592644571924689,0.0,0.8171804348530821,-0.5762506926939501,-0.011490124641562845,0.0,-0.007896034894202875,0.00874071361061024,-0.9999306238727399,0.0,0.6558881349885128,0.25330542632280195,0.3038275321720415,1.0,-0.015380000000000012,-0.020213714285714304,-0.007690000000000006,0.7700000000000006
0.46067845264916,0.5141095867960385,-0.12414404474805567,-1.4079181115757426,0.07631766247537837,1.9134010112879296,0.15539907484638765,-0.007019975086386762,-0.08620249407254937,-0.0007125211092212795,-0.13368124027669223,-0.003536595150544498,0.051933078361426584,-0.008896632024081653,0.576410669914812,0.8171442425515394,0.002602570736225102,0.0,0.8171102124827873,-0.5763500330860509,-0.0115016050728038,0.0,-0.007898630708528365,0.00875640360029245,-0.9999304660969777,0.0,0.6555995171478672,0.25295954448638547,0.30382634378697554,1.0,-0.01574000000000001,-0.02068685714285716,-0.007870000000000005,0.7880000000000006
0.46048965636936173,0.5127895730357536,-0.12414367141982766,-1.410051252434514,0.07619239339003857,1.9141498025008767,0.15523753536756432,-0.009468653552518766,-0.08726567384428456,-0.0004332974527991312,-0.13399366363473447,-0.011393377730027321,0.04225612358874933,-0.007492425333696868,0.5765106214433849,0.8170738963385129,0.0025491540501402657,0.0,0.8170390530789088,-0.5764500144185922,-0.011546147493138322,0.0,-0.007964749177061858,0.008739403338420909,-0.9999300903562381,0.0,0.6553310741653875,0.2526308101640004,0.30380084406870805,1.0,-0.016060000000000012,-0.02110742857142859,-0.008030000000000006,0.8040000000000006
0.46029992616109344,0.5113863381525637,-0.12414473684690465,-1.4123452272394568,0.07603822353243406,1.9149814994782033,0.15505893991389758,-0.013629224202327692,-0.09444377778163868,0.0012510100450805056,-0.13391174820505136,-0.008454341272350186,0.04730116421993291,-0.0048291771465955894,0.576607130964965,0.8170059665322239,0.002492804105152086,0.0,0.8169704608036052,-0.5765467756028827,-0.011568431936636233,0.0,-0.008014414048924168,0.008707155306947822,-0.9999299748551961,0.0,0.6550291674648088,0.25225986591603,0.30376816346359364,1.0,-0.01642000000000001,-0.021580571428571445,-0.008210000000000005,0.8220000000000006
0.4601036127222529,0.5099222194841431,-0.12414051209635756,-1.4146889384339825,0.07590216857910405,1.9158697850849407,0.15488077760894553,-0.007728979673329229,-0.08372892423947882,0.0003376683015651308,-0.1392193390046452,-0.0030451283343789254,0.052730917129465496,-0.008637447334046179,0.5766961909705584,0.8169430944728424,0.002496119867704736,0.0,0.8169075491302837,-0.5766357235600708,-0.011577797265229468,0.0,-0.008019204033556604,0.00871613855882597,-0.9999298581877086,0.0,0.6547573334321334,0.25193694684582674,0.3037502100630192,1.0,-0.016740000000000012,-0.022001142857142875,-0.008370000000000006,0.8380000000000006
0.4598906805081563,0.5083328692230479,-0.12414514032049569,-1.4172046549761173,0.07574427353945876,1.9167651925727287,0.15467592693196494,-0.014847330728984543,-0.0847747865555779,0.00100614318884578,-0.13759581878643376,-0.009210930267999847,0.049423770356821814,-0.014637942271765517,0.5767938720541386,0.8168742241365026,0.002465360701613916,0.0,0.8168382546307464,-0.5767334703589004,-0.011598139539753468,0.0,-0.008052520240802441,0.008703704319579258,-0.999929698753312,0.0,0.6544402678680512,0.251552538688635,0.30374260525567925,1.0,-0.017100000000000014,-0.02247428571428574,-0.008550000000000007,0.8560000000000006
0.45970693187550793,0.5070665033822815,-0.12414334495673655,-1.4191695997376876,0.07561991419311541,1.9174739396380205,0.154520066667053,-0.012487179584627209,-0.09061747563685268,0.0004158710275482062,-0.139783651651276,-0.005414074009598353,0.05737913504888181,-0.006142978381785938,0.5768987839229597,0.8168001723919147,0.0024532407050344394,0.0,0.8167640471138896,-0.5768384125676604,-0.011605344879384702,0.0,-0.008064279486580228,0.00869899563733438,-0.9999296449607162,0.0,0.654160858203093,0.25120027371756426,0.3037437996720052,1.0,-0.017420000000000015,-0.022894857142857168,-0.008710000000000008,0.8720000000000007
0.4594645425184898,0.5053067717534913,-0.1241483423528362,-1.4219010431651706,0.07544998692423409,1.9185005155412764,0.15430198996570835,-0.017059198418765284,-0.09367577014473087,-0.0001864849297569798,-0.1408663095474512,-0.015292936330716168,0.05383271620578509,-0.013122313705209984,0.5770146164272085,0.816718174333534,0.00251058635959457,0.0,0.8166828213696105,-0.5769540656947661,-0.011572478527128028,0.0,-0.008003114612500306,0.008728010051128415,-0.9999298835403645,0.0,0.6538509457822003,0.2507988027187392,0.3037696682861223,1.0,-0.017780000000000015,-0.023368000000000024,-0.008890000000000007,0.8900000000000007
0.4592477538569279,0.5037515023567263,-0.12415922008213719,-1.4242333831300917,0.07530282278235467,1.919407909724203,0.15412349597757355,-0.016734573892841633,-0.0992624657424634,-0.001194422886422539,-0.15184130423470768,-0.012032593161274934,0.05625849000961595,-0.008469579951556599,0.5771210920573896,0.8166426047176467,0.002616899629630935,0.0,0.8166087254714992,-0.5770602819482438,-0.011505102469562264,0.0,-0.007885599832414325,0.0087769893569489,-0.9999303884636724,0.0,0.6535928154129447,0.25045810043339545,0.30382877174514994,1.0,-0.018080000000000013,-0.023762285714285736,-0.009040000000000006,0.9050000000000007
0.459007296243705,0.5019790672456141,-0.12416559162806005,-1.4268576893196032,0.07513294219917903,1.9203981211432621,0.15391407585583838,-0.015745844234439272,-0.10294638826818811,3.0169522845317743e-05,-0.1440517862982332,-0.008065652341400753,0.05248140105959556,-0.012286739072894595,0.5772393013075208,0.8165586902519556,0.002727874855002527,0.0,0.8165263463396693,-0.5771782364472174,-0.011434859250500366,0.0,-0.007762913154878814,0.008828201823177631,-0.9999308976283907,0.0,0.6532771301540227,0.25004897703495127,0.30390314639658417,1.0,-0.018440000000000015,-0.024235428571428595,-0.009220000000000008,0.9230000000000007
0.4587942782888015,0.5003622110362967,-0.12416711050746362,-1.4292947807171372,0.07498033841066826,1.9212504747513635,0.1537235175581371,-0.015419674611154087,-0.09847993744942102,-0.003483785613463009,-0.150324652085124,-0.0040006399850013395,0.05669102151343495,-0.009802418789234338,0.5773413801143669,0.816486428549747,0.0027549415466261223,0.0,0.8164543757949695,-0.5772801518946625,-0.011429145853038909,0.0,-0.007741518452644203,0.008847973272027632,-0.9999308887423294,0.0,0.6529648375730134,0.24967442501118856,0.3039453038642743,1.0,-0.018760000000000016,-0.024656000000000025,-0.009380000000000008,0.9390000000000007
0.45855380593022355,0.4986758817236389,-0.1241671112698267,-1.43189414639529,0.0748067995141167,1.9222165234696005,0.1535200150240925,-0.013017395441582322,-0.10080712872617455,-0.0021473615529044336,-0.1512986520272135,-0.012656531568454876,0.0595941070240444,-0.006239363376417466,0.5774566056410932,0.8164048183724102,0.002790706180708349,0.0,0.8163733134897078,-0.577395352159175,-0.011400317014272684,0.0,-0.007696081136852717,0.00886161703160357,-0.9999311186670411,0.0,0.6526445353537508,0.24926889266570187,0.3039679269005603,1.0,-0.019100000000000016,-0.02510285714285717,-0.009550000000000008,0.9560000000000007
0.45834645498266907,0.49729396405330184,-0.1241639522058174,-1.434078831163122,0.07467761305704047,1.9230201959242368,0.15334772843300484,-0.014701597381641146,-0.108474062962981,-0.00010031793356270899,-0.15470027279441934,-0.002583524694299388,0.06057787649974124,-0.011708245862103187,0.5775588383658825,0.8163324901775589,0.002792956706829921,0.0,0.8163009234473619,-0.5774974605667563,-0.011411937571693374,0.0,-0.007703158319652292,0.00887112934307456,-0.9999309798261482,0.0,0.65237155434746,0.24892822089299207,0.303961045872532,1.0,-0.019380000000000015,-0.025470857142857167,-0.009690000000000008,0.9700000000000008
0.458025520325946,0.4953403676578986,-0.124167405173156,-1.4372470893453124,0.07447716357023618,1.924121733318642,0.15309798136927374,-0.018833552007388826,-0.0983828311896692,-0.0005192931241238416,-0.15653677471600255,-0.00841883970930952,0.04924227371175681,-0.01079986297637214,0.5777247981450323,0.8162153890475605,0.002691317786816869,0.0,0.8161824259833229,-0.5776636213939457,-0.01147758403228777,0.0,-0.00781365477425261,0.008827661158414712,-0.9999305071841449,0.0,0.6519675971444745,0.24840949154025,0.3039098902397759,1.0,-0.019780000000000016,-0.025996571428571456,-0.009890000000000008,0.9900000000000008
0.4577666628971955,0.4937607108546096,-0.12417314165048426,-1.439847616970546,0.07431023454288156,1.9250399510175107,0.15288946228418723,-0.0185394306632912,-0.10261865403517022,-0.00018795242636521564,-0.16600614692497892,-0.012326156015042984,0.05536168566687661,-0.01571382786793869,0.5778553766671061,0.8161232560603625,0.0025964351632753267,0.0,0.8160890414270928,-0.5777944636386972,-0.0115317454137317,0.0,-0.007911272069079267,0.00878277246879211,-0.9999301349004391,0.0,0.6516365322338251,0.24798538929922892,0.30385200165880577,1.0,-0.020622857142857172,-0.027104326530612288,-0.012875136107142932,1.006
0.45749215348545297,0.49192025246280174,-0.12421062696741209,-1.4427616502514407,0.07413299079440737,1.9261209691937193,0.15271298170034708,-0.017039062540562193,-0.11156718574479335,0.0005229429842955942,-0.18055483147708226,-0.005654919129196739,0.06912699320463549,-0.013172056840019828,0.578080747522324,0.815963687904749,0.002579974054270717,0.0,0.8159293859666368,-0.5780200000425154,-0.011526646006786672,0.0,-0.007914200354792289,0.008768577608230382,-0.9999302363062499,0.0,0.6512567171578973,0.24747531404308962,0.3038325799062768,1.0,-0.022937142857142632,-0.03014595918367318,-0.023261626092856074,1.023999999999998
0.4571968323150047,0.4899135371661189,-0.1242547197226947,-1.4460016992413618,0.07394153230317538,1.9272851625598522,0.1526572297864154,-0.019168968826643,-0.12048473501415183,0.0005414221262542991,-0.1952576655898616,-0.01378021575723041,0.07576603918367233,0.006219076332440307,0.5783972976222902,0.8157395109246999,0.002522562342403005,0.0,0.8157044760837042,-0.5783367129272441,-0.011558593285001983,0.0,-0.007970064268460253,0.008743292849739626,-0.9999300140038301,0.0,0.6508689258751121,0.24698056315498304,0.3037967338224536,1.0,-0.02499428571428526,-0.03284963265306064,-0.0324940616357122,1.0399999999999963
0.4568756117178446,0.48782701291036895,-0.12429511257244225,-1.4493282976117694,0.07375418893625663,1.928494774595485,0.1526632408864566,-0.0224445735130973,-0.13786314728401133,-0.004901199713117588,-0.21394710568644812,-0.008154407994204284,0.0797609058714908,0.0011739020954910084,0.578833692628885,0.8154299813031843,0.0024997541291849543,0.0,0.8153945984509147,-0.578773072944896,-0.011581267296890595,0.0,-0.007997076164912964,0.008742082041343288,-0.9999298089238039,0.0,0.6504255854125214,0.24640232275014684,0.3037716460856145,1.0,-0.02717999999999931,-0.03572228571428481,-0.04230352439999683,1.0569999999999944
0.45650570826030334,0.48540567214348046,-0.12435841892968091,-1.4530684355497498,0.07353913466298591,1.9299585448301508,0.15276298906309185,-0.022994465731753618,-0.1412821010032385,-0.004673227511647355,-0.21936692676692182,-0.011272245162392214,0.07967758853168166,0.001259259814058439,0.5793634972645634,0.8150533275443885,0.002599653323457794,0.0,0.8150194666366104,-0.579302732943306,-0.011504760275638811,0.0,-0.007871158414466228,0.008784375340055411,-0.9999304373880711,0.0,0.650010921519762,0.24580842245808437,0.3038000765660732,1.0,-0.029237142857141938,-0.03842595918367227,-0.051535959942852955,1.0729999999999926
0.45610135465547436,0.4827849062394947,-0.12443172225129605,-1.457107956210817,0.07329869421767325,1.9313684195443324,0.15304196872973697,-0.024417647860172323,-0.15495531936933205,-0.005333661023064058,-0.24216692636584203,-0.016227268037522082,0.08823123746528706,0.021949587362942,0.5801575231696269,0.8144883976073137,0.0025778622854322857,0.0,0.8144543527675364,-0.5800968396814924,-0.011511331407195846,0.0,-0.007880587832996333,0.008778105682525031,-0.9999304181772014,0.0,0.6494677689967727,0.24507645737925735,0.30382463469770704,1.0,-0.0315514285714274,-0.04146759183673316,-0.061922449928566096,1.0909999999999906
0.4556867026002361,0.4801376957288347,-0.12449049225211155,-1.4612307110797662,0.07305699647329829,1.932846982866361,0.1534646517021987,-0.02543627991929119,-0.16787830632541684,-0.0021668897507052458,-0.2577527868805053,-0.014373222927744293,0.09813795879612007,0.02358128808125382,0.5809655393102243,0.8139122890978654,0.0025641159610221443,0.0,0.8138781367484241,-0.5809048779439114,-0.011517300251856525,0.0,-0.007884716548070991,0.008778201480561548,-0.9999303847887229,0.0,0.6489792898713737,0.24442004552057495,0.3038233557438921,1.0,-0.033479999999998615,-0.0440022857142839,-0.07057785824999373,1.105999999999989
0.4551773061773046,0.4769707335276035,-0.12453380703219886,-1.4660700829954803,0.07277596823360831,1.934627517886661,0.15402351511456877,-0.02885497542878288,-0.17875054674727925,-0.0029160375911072836,-0.27305395024845175,-0.016342761722213658,0.1053004875018938,0.03865633988743094,0.5820867666480476,0.8131104918000027,0.002659157608554931,0.0,0.813077619043856,-0.5820257178607064,-0.011471532587750946,0.0,-0.007780075178657975,0.008839699041126775,-0.9999306626717058,0.0,0.6483429207092006,0.2435641063065914,0.30387673820801187,1.0,-0.03592285714285549,-0.04721289795918151,-0.08154137545713537,1.124999999999987
0.45470018518787175,0.4739972582055326,-0.12458554798995077,-1.4706187779043076,0.07250912530206341,1.9363391899268412,0.1546729703685429,-0.03303055661476521,-0.18568963533122068,-0.003151533858050018,-0.3011970494097825,-0.01936490333566196,0.10446263632028817,0.04620038938912957,0.583042667488871,0.8124250125641941,0.0027556757317893288,0.0,0.8123934644467837,-0.5829812904411396,-0.011420193559829761,0.0,-0.0076716912060031395,0.008897324372067764,-0.9999309890052702,0.0,0.6478471530405993,0.2428959964487076,0.30391908304775395,1.0,-0.03772285714285529,-0.04957861224489553,-0.08961975655713449,1.1389999999999854
0.45413607957408375,0.47049762861280187,-0.12462259565945122,-1.4760424438665747,0.07218644486766246,1.9382305592155769,0.15555771390429673,-0.03651599432128899,-0.19454313447981217,0.0006768220773219309,-0.30112979921557004,-0.007866350877103757,0.10758389570333982,0.056836952073464606,0.5844979023425642,0.8113788465721967,0.002704883273323933,0.0,0.8113465415109794,-0.5844363795176992,-0.011474091494523503,0.0,-0.0077291517451331115,0.008901351477437244,-0.9999305106632042,0.0,0.6470991841084911,0.2419367497256794,0.30391345478121423,1.0,-0.04016571428571216,-0.05278922448979314,-0.10058327376427613,1.1579999999999833
0.45371303393480655,0.46780395412934656,-0.12463867413226488,-1.4800739455941536,0.0719340899272471,1.9398357801131856,0.15626377254894072,-0.03865263630249318,-0.21335587850684187,-1.620971438671029e-06,-0.305557308899938,-0.015334462643445252,0.12946163035123492,0.059363820921764156,0.5855479649828839,0.8106206530295381,0.0029128143738754364,0.0,0.8105912701718772,-0.5854859733900821,-0.011345245075312121,0.0,-0.007491422245829271,0.009004460432941938,-0.9999313967893229,0.0,0.646607255860763,0.24128031330071437,0.30399370667874637,1.0,-0.04183714285714055,-0.05498595918367045,-0.10808462764284674,1.1709999999999818
0.4531702088710018,0.4643771265198566,-0.12465077289503272,-1.48533320650372,0.07159749046506711,1.9416906135584373,0.15717452600945367,-0.03357735125420895,-0.2205874557550014,-0.002179292051076779,-0.3388787231258171,-0.023321006750293978,0.11382060807697807,0.05026619021994219,0.5868890212619803,0.8096502593694774,0.0029122373360617486,0.0,0.809620878524035,-0.5868268703664119,-0.011358000490452005,0.0,-0.007487173072610598,0.009023867679243222,-0.9999312536627147,0.0,0.6459071834989121,0.24041792259793168,0.3040148985727506,1.0,-0.04389428571428318,-0.057689632653057904,-0.11731706318570287,1.18699999999998
0.45258860539627666,0.4608625170937567,-0.12468854587588755,-1.4908850454672122,0.07123131091903087,1.9436381034331378,0.1582443148160325,-0.035801116503925326,-0.21912026617576438,-0.0019933399582149117,-0.34969179497772906,-0.01675691018514403,0.11744696688649049,0.06749464871432038,0.5884103479504239,0.8085457113026293,0.0028003678677344292,0.0,0.8085150541005217,-0.5883485220167104,-0.011409243392577512,0.0,-0.007577448407554532,0.00897762929974412,-0.9999309898426926,0.0,0.6451662250634747,0.23948439840692526,0.3039636232753873,1.0,-0.04595142857142581,-0.06039330612244537,-0.12654949872855897,1.2029999999999783
0.4518842229487444,0.4567373953911285,-0.12471160550837902,-1.4973257553015646,0.07081545576720674,1.9459493702972248,0.15964290560268365,-0.04187091399645879,-0.23014674796796256,0.00034625135678552485,-0.36351342624379324,-0.026234448702827866,0.1288670048188809,0.07434274685596301,0.5903087895689038,0.8071608556788125,0.0027627737423034345,0.0,0.8071298319406698,-0.5902469701628775,-0.011432213529210037,0.0,-0.007597062690898493,0.00897862610321204,-0.9999308320637829,0.0,0.6443135760991451,0.23840092751864056,0.3039371415924793,1.0,-0.04826571428571127,-0.06343493877550625,-0.13693598871427212,1.2209999999999763
0.4511948051413486,0.452902845437084,-0.12476391563947817,-1.503313511605977,0.07041565056022041,1.948054462176618,0.16093164231138643,-0.0439912155501073,-0.2439652703361806,-0.0026406047861630543,-0.3718169617478,-0.026181781953203035,0.14024816915919927,0.07884862058924384,0.5921047928661135,0.8058445774352013,0.002679213404530782,0.0,0.8058127419020614,-0.5920433049449968,-0.011458488525789661,0.0,-0.007647697727319658,0.00894374246952448,-0.9999307586978763,0.0,0.6435211764575782,0.2373494125966881,0.30390570136699757,1.0,-0.050322857142853894,-0.06613861224489372,-0.14616842425712825,1.2369999999999746
0.45045578807631986,0.44858413234596534,-0.12485617302002623,-1.5097866166879437,0.06998606294522693,1.9505004015162226,0.16250563386515382,-0.045607849604408585,-0.26349786082007903,-0.005782027985706445,-0.39496273586551767,-0.01684046171956431,0.13500096187532112,0.093597557911391,0.5943303304709239,0.804203905039855,0.002878246372169376,0.0,0.8041752993835777,-0.5942687862450634,-0.011289130053322572,0.0,-0.007368452360822841,0.009024260778343729,-0.9999321320105735,0.0,0.6426505074155808,0.23613916544546829,0.3040107609191422,1.0,-0.05263714285713936,-0.0691802448979546,-0.15655491424284138,1.2549999999999726
0.4495981151396176,0.4438711066272424,-0.1249031843663799,-1.517061658948668,0.06951063344321191,1.9529476012336828,0.16418423001189558,-0.048910331597659354,-0.2612719775803176,-0.0017064790608824225,-0.4058769818114373,-0.03145770286181653,0.1340503245736952,0.10666210672310954,0.596471993550606,0.8026172210930648,0.0027393823793276156,0.0,0.8025868063448591,-0.596410528608453,-0.011386243777178628,0.0,-0.007505143343478071,0.00899034077192791,-0.9999314209465557,0.0,0.6417022067630399,0.23492786929654816,0.3039808097213739,1.0,-0.0548228571428534,-0.07205289795917877,-0.16636437700712603,1.2719999999999707
0.44871900530750963,0.439049513243949,-0.12493579399048457,-1.5245673555646653,0.068993237375998,1.9556092516372579,0.16607506215406673,-0.053147762444888065,-0.2664418379584473,0.00021861444655495627,-0.42335634024428254,-0.03472139557276773,0.15462621195550996,0.1020679362959856,0.598902965385448,0.800805150057602,0.002663943495375196,0.0,0.8007740999211576,-0.5988418027531638,-0.011405396617786388,0.0,-0.007538364761651373,0.008964115397538663,-0.9999314064933954,0.0,0.6406835289874782,0.2336237372581316,0.3039373035757972,1.0,-0.05713714285713886,-0.07509453061223967,-0.17675086699283915,1.2899999999999687
0.44787795608925535,0.43455513087183884,-0.12495919772813552,-1.531348387291882,0.06856212527022042,1.9580889952697573,0.16784782809104537,-0.047867152170521676,-0.2856120085901043,0.0020844480874419456,-0.42654176042404185,-0.026921324534621094,0.15290676810219128,0.11412560763404589,0.6011866699822306,0.7990916676194414,0.002800263927811874,0.0,0.7990624574270377,-0.6011249307884813,-0.011346965075090278,0.0,-0.007384098951264684,0.009059404345106714,-0.9999316988052684,0.0,0.6397811000936817,0.23243287747227648,0.3039933547312191,1.0,-0.059194285714281494,-0.07779820408162712,-0.18598330253569528,1.305999999999967
0.4469322195331741,0.4297038593248299,-0.12503512267433922,-1.5387871721365558,0.06804273724708762,1.960785159402652,0.16989916690060347,-0.05564689906320598,-0.28379241944894334,-0.0037859010414259533,-0.4509858107764796,-0.031177380053018768,0.1516160212872477,0.12487670432348971,0.603808024323454,0.7971126854641035,0.002825479785973295,0.0,0.7970843832031695,-0.6037465951409327,-0.011281924062956538,0.0,-0.007287231288388318,0.009064436609970139,-0.9999323638372214,0.0,0.6387931795481265,0.2310742636241652,0.3039950344990233,1.0,-0.061379999999995535,-0.0806708571428513,-0.1957927652999799,1.322999999999965
0.4460062415070541,0.42494008683155654,-0.12512049669433975,-1.5461516438258758,0.06750985154260526,1.96321606980914,0.17187358303764422,-0.05717187304215259,-0.29587379006867903,-0.0023483515462227986,-0.4615363110192052,-0.026391823568802944,0.15875555998100183,0.1315656092906853,0.606340067357225,0.7951890668443969,0.0026110514321428845,0.0,0.7951584736732495,-0.6062794487447759,-0.01135687794101646,0.0,-0.007447981745987209,0.008962502363132174,-0.9999320982543275,0.0,0.6377569686501068,0.22971355401801155,0.3039442697340733,1.0,-0.06343714285713817,-0.08337453061223875,-0.20502520084283604,1.3389999999999633
0.4449051346954053,0.419432410959991,-0.12519297574931346,-1.5545479908890438,0.06691253145485357,1.9661271874744182,0.1742865208371787,-0.06422454004833104,-0.3053680438253088,-0.002528410044029866,-0.4631769829925571,-0.029347256402582317,0.16953625024812513,0.13659921787584398,0.6093647448094602,0.7928737671463012,0.002558135208113101,0.0,0.7928430070624554,-0.6093044953587109,-0.01134658490642263,0.0,-0.007437869438997047,0.008942580599221595,-0.9999323518870837,0.0,0.6365982223752698,0.22816191558729623,0.30394262012652024,1.0,-0.06575142857142363,-0.08641616326529965,-0.2154116908285492,1.3569999999999613
0.443895259704683,0.4143421765701704,-0.12523191151845198,-1.5620328675288204,0.06640347311791579,1.968971671855551,0.176525138489798,-0.06482076104417182,-0.31722896579565946,-0.0016819733853283597,-0.48752450318208873,-0.028500180736159435,0.17301500103541978,0.14187253133690703,0.6121306553391548,0.790739169738358,0.002893637288497954,0.0,0.7907131252395359,-0.6120697177471951,-0.011142759622419007,0.0,-0.00704004427665994,0.009109037110847276,-0.9999337294138526,0.0,0.63560925701082,0.22679971954315545,0.3040771403757046,1.0,-0.06780857142856626,-0.08911983673468711,-0.22464412637140532,1.3729999999999596
0.4427622890232379,0.40888969035911854,-0.12527627013941525,-1.5703786535330815,0.06583498246652639,1.9717753382146497,0.17898248118081853,-0.06369124565952644,-0.32818855795185603,-0.007186482890981469,-0.5103026192853466,-0.03686200642453126,0.16664572321531732,0.15939625193874263,0.6151747688228245,0.788373699079661,0.0027679061480924286,0.0,0.7883461368113099,-0.6151138394069131,-0.011228537125465572,0.0,-0.007149843627631214,0.009089755855249196,-0.999933125801217,0.0,0.6344163996900191,0.2252529933633142,0.30403805345835555,1.0,-0.0699942857142803,-0.09199248979591128,-0.23445358913568995,1.3899999999999577
0.44159425347384823,0.4033328771890516,-0.12537240652711623,-1.579004455721186,0.06523371067946664,1.9746740804167622,0.18166389880582895,-0.0714251844694561,-0.3297263066299801,-0.004910185525758027,-0.5048985621897296,-0.027864517305688768,0.17579235916326574,0.15539222010813927,0.6184472556417954,0.7858099183202922,0.002551697434200431,0.0,0.7857799460247613,-0.6183868887421975,-0.01132603894910208,0.0,-0.00732231848146081,0.009009803844125322,-0.999932601272079,0.0,0.6331789467993576,0.22362679048730996,0.3039389492740289,1.0,-0.07217999999999437,-0.09486514285713549,-0.24426305189997471,1.406999999999956
0.4403516591227716,0.39746294833109747,-0.12540803411246554,-1.5875645288579157,0.06464807141537861,1.9778055823399117,0.18437071613973696,-0.07688927379457929,-0.34145409275094274,0.0002935678906274609,-0.5018220150056191,-0.03257997641537262,0.18263009734497734,0.15546382547166068,0.6217412189363608,0.7832051430555329,0.002882267874190914,0.0,0.7831796740305647,-0.6216799590891517,-0.011152289159509759,0.0,-0.00694281572317651,0.009191348432081373,-0.9999336560111546,0.0,0.6320037356884483,0.22202075874106558,0.304090655464122,1.0,-0.07436571428570841,-0.09773779591835967,-0.25407251466425934,1.4239999999999542
0.4391434654290369,0.3919098496023258,-0.12543748907124636,-1.595952915875129,0.06400672520906957,1.980661614949427,0.18708109423858832,-0.07477009631241731,-0.34842134515601975,-0.0025619988815362895,-0.5324599536814274,-0.040027840201868586,0.17006975698747834,0.17201251044408558,0.6249651158387509,0.7806352544950548,0.002819632122462037,0.0,0.7806095142461115,-0.6249042538577154,-0.011144805076376468,0.0,-0.0069381612205579035,0.00916632253713913,-0.9999339180415988,0.0,0.6307908740937765,0.22043400828162876,0.3040798539634536,1.0,-0.07642285714285105,-0.10044146938774712,-0.2633049502071155,1.4399999999999524
0.4377561477012326,0.38556133864665065,-0.12547975238444495,-1.6056607984492504,0.0632895396961128,1.9838162143408409,0.1902392171756024,-0.07905432399070803,-0.3497875760402964,-0.002702316508255889,-0.5454344364432547,-0.035652996110539646,0.17912696119895408,0.16722858249260142,0.6286973243957206,0.7776334886196729,0.002564873499251134,0.0,0.7776048042560166,-0.6286369488820834,-0.011273943382645195,0.0,-0.007154759423599333,0.009082530862248459,-0.9999331562913227,0.0,0.6293368820257782,0.2185979200855791,0.303993224697857,1.0,-0.07873714285713651,-0.10348310204080802,-0.2736914401928286,1.4579999999999504
0.4364874915006065,0.37967487559720664,-0.12548523284060994,-1.6142137521037385,0.06266861294880631,1.9868815623105147,0.1931498987890921,-0.08113175324338887,-0.3662710489389396,-0.002176640935585893,-0.5358105700318192,-0.03685721743250391,0.19760262344022034,0.1874357377274053,0.6320845759878085,0.7748817355688228,0.002851592777649954,0.0,0.774857009604543,-0.6320234799609327,-0.011121256493136843,0.0,-0.0068155161621520355,0.009239329232934385,-0.9999340895952936,0.0,0.6281101689428732,0.2169965869548822,0.30412661506890615,1.0,-0.08079428571427914,-0.10618677551019547,-0.2829238757356847,1.4739999999999487
0.43506787876172176,0.3734279851105905,-0.12551143088407427,-1.6236644928401462,0.06198367697654018,1.9900624420580106,0.19640485235818472,-0.08652443587757505,-0.37519505735239067,-0.003059371551570066,-0.5594677363307963,-0.04441592082051261,0.18124128647627463,0.18980228384497355,0.635864821472244,0.7717830237627372,0.002764045391424585,0.0,0.7717574026747416,-0.6358036816252086,-0.011177510893558774,0.0,-0.00686935517589865,0.009240736373808053,-0.9999337081780657,0.0,0.62669876634341,0.2151932876595033,0.30407672007507214,1.0,-0.08297999999999318,-0.10905942857141965,-0.29273333849996935,1.4909999999999468
0.43367134487727416,0.36737625433552834,-0.12556567314306222,-1.6327511354787914,0.06127353848424187,1.9930177634827035,0.19946680359420896,-0.09047880328755421,-0.38090495061986057,-0.00379936014007598,-0.5677796886591798,-0.0373695055697174,0.18788517348081216,0.20115774976407297,0.6394548047562258,0.7688117487217243,0.0026066458965374635,0.0,0.7687846498153981,-0.6393942153628407,-0.01122258748958222,0.0,-0.006961516836074211,0.009180463597145319,-0.9999336259829862,0.0,0.6253217486496208,0.21341394627128463,0.3040411549486538,1.0,-0.08503714285713584,-0.11176310204080714,-0.30196577404282565,1.5069999999999453
0.43215042181417984,0.36077202676569314,-0.1256043734052467,-1.6423290445295988,0.0605250835579412,1.9964077006106833,0.20295845104046661,-0.08816945480899781,-0.3788714763471374,-0.00241610821156322,-0.5707936473828867,-0.03958378083187313,0.18869698648596803,0.2050179963006849,0.6436898449883127,0.7652685121490675,0.0028696120439282618,0.0,0.7652454352584966,-0.6436290467341305,-0.01103725134970934,0.0,-0.006599622317457421,0.009300703195327803,-0.9999349688381435,0.0,0.6238377152823469,0.21142544776633432,0.3041619564807947,1.0,-0.0873514285714213,-0.11480473469386802,-0.3123522640285388,1.5249999999999433
0.43061109214350035,0.3545348092739609,-0.12563892313836997,-1.6516795743593187,0.059839659247121,1.9994564117488518,0.20624883656492915,-0.09871904649411396,-0.4037775079930812,-0.006470590595012926,-0.594479277083784,-0.049779218019653515,0.19157753637430264,0.2058673783546906,0.6475235342945116,0.7620278878961237,0.002741806799456881,0.0,0.7620033281770227,-0.6474626279786986,-0.011127448910975536,0.0,-0.006704338034798862,0.009294729905274149,-0.9999343277673305,0.0,0.6223977328629224,0.2095594659497803,0.30410717864619563,1.0,-0.08940857142856393,-0.11750840816325549,-0.3215846995713949,1.5409999999999415
0.4288283737226977,0.34738279561854996,-0.12576042903234838,-1.6623385086652744,0.05903541628633208,2.002945113786588,0.2100969564077103,-0.0999270237461364,-0.4019149063659508,-0.01150814569483863,-0.5812416738144567,-0.03852081880298398,0.2029908180170015,0.21130277809978362,0.6517672229765019,0.75840176198661,0.0026460102630845644,0.0,0.758376488980256,-0.6517065959247784,-0.011151712483984954,0.0,-0.006733185690374732,0.00927517122603097,-0.9999343155473698,0.0,0.6208640423636761,0.2074929878528384,0.3040762020789727,1.0,-0.09159428571427797,-0.12038106122447967,-0.33139416233567953,1.5579999999999397
0.4270680705548351,0.34039196370982966,-0.12580454260273335,-1.672453850662704,0.05826118762235204,2.0063758866577333,0.21391472754573213,-0.10527162025358229,-0.3979263041077495,0.0004763686429945732,-0.60325497236491,-0.05030580716338905,0.19190902202114826,0.23055892336145808,0.6561213865947294,0.75463729667586,0.0028325642037322412,0.0,0.7546147751653426,-0.6560603218157607,-0.011051793626757594,0.0,-0.00648188747927142,0.009388993725711559,-0.9999349138476588,0.0,0.6193317782716632,0.2054329920550813,0.3041683702561158,1.0,-0.09377999999999202,-0.12325371428570384,-0.34120362509996416,1.5749999999999378
0.4252633062772247,0.3333861163888258,-0.12582711745537675,-1.6829142408922162,0.05740598298477677,2.00965960564082,0.21778311575574344,-0.10389982943596604,-0.40957711917671363,0.00013668032917065647,-0.6202545495049693,-0.047321087321423504,0.18549962157993183,0.2238691976469215,0.6604868463974106,0.7508203637708282,0.002579531789490241,0.0,0.7507951646400649,-0.6604263617731196,-0.011152951601562048,0.0,-0.006670400809678012,0.00930325694244824,-0.9999344754349164,0.0,0.6176623366991154,0.20330761890307233,0.30408229602782,1.0,-0.09596571428570606,-0.126126367346928,-0.3510130878642488,1.591999999999936
0.42353432093376825,0.32656131907709895,-0.1258336310079498,-1.6926229687902696,0.05658767645889083,2.0129855373162053,0.22159793748707263,-0.11139135905890413,-0.432415484008409,0.001016860940276131,-0.6004503385825471,-0.0435984705526938,0.21040472631270182,0.24916076869793347,0.6647016629222322,0.7470905240871126,0.0028626960843060037,0.0,0.7470696020119063,-0.6646410727531642,-0.010954499555120307,0.0,-0.00628145835484567,0.009420288664901147,-0.9999358986667126,0.0,0.616168626654175,0.20133364225870493,0.30422286933452025,1.0,-0.0980228571428487,-0.12883004081631547,-0.3602455234071049,1.6079999999999341
0.42147835667904765,0.31890656822322117,-0.12586018999869297,-1.7038643705409633,0.05570956702851463,2.016600188624736,0.2259373714158198,-0.11738384602753739,-0.4504238202346255,-0.001786331886170404,-0.6249005132407415,-0.05304801064648118,0.18696265500355314,0.24975153790844978,0.6695639115583706,0.742736211884543,0.002799070428217784,0.0,0.7427147715062571,-0.6695031121316525,-0.011004450629118392,0.0,-0.006299538897019008,0.009447275850642478,-0.9999355303161734,0.0,0.6143742766123912,0.1990060827878989,0.30419150113405813,1.0,-0.10033714285713416,-0.13187167346937634,-0.3706320133928181,1.6259999999999322
0.4195196867973435,0.31152103182491236,-0.12595222165066802,-1.714632451305105,0.05483250783570025,2.0199793675268514,0.2301710680796836,-0.11612621025493838,-0.43676278968307886,-0.003812801348683705,-0.6222157445112911,-0.0511336539994898,0.19551420508031164,0.25527099109337975,0.674269262657192,0.7384676453895801,0.002691662999803875,0.0,0.7384453984721369,-0.674208736399985,-0.01103268500732612,0.0,-0.006332660133103629,0.0094268280371132,-0.999935514085182,0.0,0.6126298499166579,0.19674369692129778,0.3041753008402015,1.0,-0.1025228571428482,-0.13474432653060053,-0.3804414761571027,1.6429999999999303
0.41743855338857366,0.30396683408275915,-0.12594651350526312,-1.725437316135612,0.05390068928842485,2.0235127236446617,0.2345451742872025,-0.12235515900212166,-0.4458558784884984,0.0018855955420175427,-0.6413615730210166,-0.0555510168575673,0.19606483460278656,0.26209488322625657,0.6790470791557208,0.7340761735597789,0.0028253500890648934,0.0,0.7340562753901523,-0.6789866377362017,-0.010921411869955305,0.0,-0.006098890700510395,0.009490301511314567,-0.9999363668301335,0.0,0.6108963701121864,0.19447234862248494,0.304246421957064,1.0,-0.10470857142856224,-0.1376169795918247,-0.39025093892138735,1.6599999999999284
0.41537401796817025,0.2968604844674842,-0.12601255168688166,-1.7359209353492049,0.053028509196604665,2.0266556736523356,0.23871643888116162,-0.1289371415938515,-0.44787753659331264,-0.008382283872498782,-0.6494377634940659,-0.05930058810177632,0.1923683697683529,0.2566390948537844,0.6836859676295461,0.7297588056520246,0.0025159771441563604,0.0,0.7297355091424416,-0.6836260129918856,-0.011059292863840497,0.0,-0.006350751199474092,0.009397262131611211,-0.9999356776431334,0.0,0.6091503493177987,0.19219425621694347,0.30413595167556007,1.0,-0.10676571428570487,-0.14032065306121216,-0.3994833744642435,1.6759999999999267
0.41301108983874923,0.28859162628139007,-0.12611812353178875,-1.7475119544919666,0.052094513477438556,2.030482034056822,0.24354394708598825,-0.13184965760217848,-0.45873970633827293,0.0014744289107776745,-0.6442787310692998,-0.06321880782009781,0.20047073004175014,0.2655765958903991,0.6890210776551229,0.7247223613430618,0.00286363711356536,0.0,0.7247038533025483,-0.6889604567204186,-0.010888571313040954,0.0,-0.00591837232700293,0.009577928395698765,-0.9999366160695616,0.0,0.6072977605647265,0.18964753807267476,0.3042902522853317,1.0,-0.10907999999999034,-0.14336228571427304,-0.4098698644499566,1.6939999999999247
0.4109752243974383,0.281709991328492,-0.12614635568673344,-1.7574863868706934,0.05124900694408262,2.0335145550806137,0.24760586237156276,-0.1349100777886501,-0.4645944051176119,-0.002364286594123392,-0.6710414582217937,-0.051506888159518656,0.2025068416196903,0.27508155454359057,0.693452266576463,0.720484092135927,0.0027154852684522024,0.0,0.7204641371955828,-0.6933917681754087,-0.010955808633451157,0.0,-0.006010706429865287,0.009553924022690508,-0.9999362949428241,0.0,0.6056142790839664,0.1874782499545445,0.30423691191847924,1.0,-0.11100857142856155,-0.1458969795918238,-0.41852527277138424,1.708999999999923
0.4084387548564371,0.27328851598906906,-0.1262072255089659,-1.769473651831339,0.05017341366385176,2.0372624043607095,0.25268080955162064,-0.14177733827074784,-0.4825962458296729,-0.004503708977367748,-0.6600195069943297,-0.05861423893421214,0.21925032565585828,0.2830330069674163,0.6989350636179711,0.7151664395107168,0.0027363377195845934,0.0,0.7151476051498568,-0.6988750350608172,-0.010878194628451023,0.0,-0.00586747456808856,0.009560221085608236,-0.9999370854783752,0.0,0.6036147741762347,0.18481242855026775,0.30426048724980714,1.0,-0.11332285714284701,-0.14893861224488467,-0.42891176275709736,1.726999999999921
0.4061005224057348,0.2657527591563018,-0.12627788460701364,-1.7802013499251084,0.04922396424696959,2.0405905462935245,0.25725354587498445,-0.1509306880344938,-0.4683049715413866,-0.007205123970634975,-0.675007414101045,-0.06334823263341968,0.20691830376635972,0.2810653943851096,0.7038836126908399,0.7102964915207006,0.002738762472999399,0.0,0.7102783553900587,-0.7038238679478581,-0.010833636163274235,0.0,-0.005767598404190499,0.009571086939392001,-0.9999375626025091,0.0,0.6018113331782541,0.18238859840627422,0.3042630104145829,1.0,-0.11537999999998964,-0.15164228571427213,-0.4381441982999535,1.7429999999999193
0.403520152694392,0.2576178356369254,-0.12639440104886085,-1.7918269385469043,0.04819186045501955,2.0439327951605217,0.2622907153541785,-0.15240782722513044,-0.48078508885003407,-0.007909305142868028,-0.6798115782934904,-0.05823594860827316,0.20760032173568155,0.30035320814415517,0.7093134980263056,0.704875136641629,0.0024799522856080647,0.0,0.7048544660794309,-0.7092542668078674,-0.010923074838297912,0.0,-0.00594060150413217,0.009496072695756669,-0.9999372649607203,0.0,0.5997923312509478,0.17970910558960076,0.3042064641031511,1.0,-0.11756571428570368,-0.15451493877549632,-0.4479536610642381,1.7599999999999174
0.40087444658886817,0.24933330321745278,-0.12643516808293165,-1.8033492811650667,0.0471409583615259,2.0476102627693833,0.26733231822443043,-0.15268188600698854,-0.480614845700863,-0.0004883267022468365,-0.6989398185567274,-0.06480176256427002,0.21514892816744113,0.2997821305411582,0.7146818109180474,0.6994305771567342,0.002742951386094281,0.0,0.6994138691928221,-0.7146225825395995,-0.010749465399151188,0.0,-0.00555843680207635,0.009601090490565983,-0.9999384595272398,0.0,0.5978488773746462,0.1770765863907449,0.3043007482473695,1.0,-0.11975142857141773,-0.1573875918367205,-0.45776312382852274,1.7769999999999155
0.39833061803551384,0.2415062114828817,-0.1264413385234567,-1.814491601939739,0.04617491291404631,2.0507692665126127,0.2722217858915222,-0.15872266380752648,-0.47934097707564605,-0.0003180450261986273,-0.6963733180426158,-0.06480609950375041,0.19741018619272033,0.3027477040400198,0.71981570470383,0.6941468211798377,0.002507749760847026,0.0,0.6941274603219991,-0.7197562608761722,-0.010896818695913314,0.0,-0.005759134348843398,0.009584583734186095,-0.9999374821088538,0.0,0.5958486753984635,0.17455716733114018,0.30422529499720913,1.0,-0.12180857142856036,-0.16009126530610795,-0.4669955593713789,1.7929999999999138
0.3957362399366606,0.23345903406834886,-0.12644919120807308,-1.8254352038887183,0.04519256342832481,2.054230772853626,0.27719285068305455,-0.15366390834763824,-0.5049330947581997,0.0005293647994202137,-0.7032558546135446,-0.054449682813671046,0.220235155850749,0.30157473820908476,0.7249845598109946,0.6887449916351818,0.002910572850862765,0.0,0.6887309802144109,-0.724924531221522,-0.010714841452943609,0.0,-0.005269949190234546,0.009772884465077195,-0.9999383572824699,0.0,0.5939616472960373,0.17205602747632534,0.30438735409369916,1.0,-0.12386571428570299,-0.16279493877549542,-0.476227994914235,1.808999999999912
0.39274597937446676,0.2244458657821806,-0.12641694835681547,-1.8381719991745844,0.043991223516082784,2.057819972233135,0.2828992395069859,-0.1652705070702596,-0.5082034448328505,0.0012197518234054485,-0.7130783486802007,-0.06988670821449945,0.19160642421798,0.32160096310562897,0.7308166249155406,0.6825546083296083,0.00264845167625025,0.0,0.682538031867151,-0.73075692329102,-0.010812077430657395,0.0,-0.005444563702212968,0.009709501868800346,-0.9999380392302077,0.0,0.5916270605273889,0.16916929721467774,0.30429872322684604,1.0,-0.12617999999998847,-0.1658365714285563,-0.48661448489994813,1.82699999999991
0.3899257734128363,0.216253725132312,-0.12646760211249553,-1.8493609006039247,0.04292415234845965,2.0611112369293734,0.2879916694414497,-0.1795346211270864,-0.5150222953966374,-0.0035067812007009884,-0.6875108060457396,-0.06894850000564517,0.22051048316294367,0.31852829881007605,0.7361191630320302,0.6768320024879632,0.00278659763244751,0.0,0.6768177616798227,-0.7360595659090069,-0.010713533953244661,0.0,-0.005200260916732258,0.009772644572764513,-0.9999387244748811,0.0,0.589631708214028,0.1664976248417052,0.3043828330207363,1.0,-0.1282371428571311,-0.16854024489794375,-0.49584692044280426,1.8429999999999083
0.3866591734144258,0.2070303853568336,-0.12650219620268993,-1.8621149883746646,0.041755040268487434,2.064723451951847,0.2938850325983753,-0.18725029157927095,-0.5149961752920853,-0.0005891681677037033,-0.721097247694962,-0.06941887480811061,0.1949590224087005,0.33025774054478085,0.7421910881326554,0.670168368745775,0.0027373582703689326,0.0,0.6701539662526481,-0.7421312059187494,-0.010755538974691373,0.0,-0.0051766426818429245,0.009817305690577927,-0.9999384095430688,0.0,0.5872981184552678,0.16345289774051955,0.3043739427313767,1.0,-0.13055142857141655,-0.17158187755100465,-0.5062334104285174,1.8609999999999063
0.3836713119056817,0.19871784080764096,-0.12654810034334626,-1.8735513375051494,0.04061600472728906,2.067930133874744,0.2991921539368758,-0.17966192161026737,-0.5186401940610458,-0.0016365519994574569,-0.7087638907393855,-0.07107620722768294,0.21309092112103978,0.3353897875293302,0.7476088284556134,0.6641194672527603,0.0026682826580105776,0.0,0.6641050263265643,-0.7475494793643177,-0.010725521485642655,0.0,-0.005128453041873482,0.009790702978673321,-0.9999389186868269,0.0,0.5851874220711452,0.1606840478377081,0.3043685181653045,1.0,-0.13260857142855917,-0.1742855510203921,-0.5154658459713736,1.8769999999999045
0.3804013296220044,0.18981801458139194,-0.12660639601678317,-1.8857442715911605,0.03945493273049653,2.0713879389382366,0.30495318315949077,-0.20021647522087105,-0.5207110180624293,-0.0027856277582366164,-0.7145892390462827,-0.06398393064761079,0.19731602201796736,0.3437176002407596,0.7534660695152788,0.6574666593018272,0.0026871726591471785,0.0,0.6574530171245008,-0.75340666860564,-0.01070835541296961,0.0,-0.0050159494314555575,0.009835261595536757,-0.9999390520829999,0.0,0.5829300805326898,0.15770655834434286,0.3043674795945638,1.0,-0.1347942857142732,-0.17715820408161628,-0.5252753087356582,1.8939999999999027
0.3771534029771368,0.1813081504317679,-0.12673022362228453,-1.8973535908130998,0.038351448906623946,2.0745019293263485,0.3104122405636605,-0.2044227963257868,-0.5347296794148086,-0.012722589693347289,-0.7179767431912345,-0.07128657147496993,0.19321844321903844,0.3289043555311784,0.7590918619572894,0.6509636189957864,0.0025804564193787427,0.0,0.6509491907545816,-0.7590323939468373,-0.010757457715326685,0.0,-0.005044160707811052,0.009845834187844488,-0.9999388061236043,0.0,0.5807485021979494,0.15476550421933025,0.30435258479998534,1.0,-0.13685142857141586,-0.17986187755100375,-0.5345077442785143,1.9099999999999009
0.3734506729627247,0.17166400476402066,-0.12681026801748413,-1.9103432358755632,0.03700203124913986,2.078157690627238,0.31671350046142904,-0.20635194249020694,-0.5280506626892545,-0.002197569145416884,-0.7228879281775473,-0.08140105511165577,0.19220256590658702,0.3434339882041084,0.7654043915353007,0.6435290454887196,0.0026892251787307055,0.0,0.64351692922659,-0.7653455910672221,-0.010622378921540996,0.0,-0.004777714720083814,0.00986116726214259,-0.9999399636089567,0.0,0.5783179035649647,0.1514860656130186,0.3043984282357198,1.0,-0.13916571428570132,-0.18290351020406462,-0.5448942342642275,1.927999999999899
0.3700862599847819,0.16303017493630445,-0.12680451449021327,-1.922122132703254,0.03581300713241241,2.0812022228298823,0.3223301224243731,-0.21377462495759392,-0.5472519091319963,-0.000439691826456248,-0.734754709425229,-0.07268358387332513,0.18469893520533312,0.34718917817590383,0.7709579717194015,0.6368661454745316,0.002462821943968566,0.0,0.636851923794743,-0.7708993693804095,-0.010702165623376805,0.0,-0.004917353759586185,0.009819561851978381,-0.9999396961002389,0.0,0.5760133659469245,0.14856624695026588,0.3043267928690561,1.0,-0.14122285714284394,-0.18560718367345208,-0.5541266698070836,1.9439999999998971
0.3661921529024889,0.1531278137266315,-0.1268068229030263,-1.9351287915674225,0.03444914636874627,2.0848190858445994,0.32871821945003177,-0.21332414635740665,-0.5433831165696015,0.0006301560942973266,-0.7443206350729111,-0.08093264358616348,0.19384456518188026,0.3545521130807978,0.776879318704813,0.6296280698710215,0.002786521208648583,0.0,0.6296183981943776,-0.7768207797887021,-0.010530700110972544,0.0,-0.004465882789144504,0.009935719441009017,-0.9999406669248447,0.0,0.5736707112056879,0.14545834977404926,0.30446580711808074,1.0,-0.14340857142855798,-0.18847983673467625,-0.5639361325713682,1.9609999999998953
0.36258953909125324,0.14434198641796825,-0.12681882253846413,-1.947058086481038,0.03323759493371298,2.087765728666156,0.3345526164467167,-0.22551910867278058,-0.5447574542617497,-0.001146846564198333,-0.7317786865719811,-0.06940394740953258,0.18823995905229948,0.37047276371274224,0.7829273872234349,0.6220927642062912,0.002458853161445837,0.0,0.6220798512348907,-0.7828690286496538,-0.010653148357743294,0.0,-0.004702377058605101,0.009870434654765795,-0.9999402292985939,0.0,0.5711365144626703,0.14222842611593572,0.30435583863629323,1.0,-0.14559428571427205,-0.19135248979590042,-0.573745595335653,1.9779999999998934
0.35864271336502673,0.13479156302605486,-0.12688773645618392,-1.959439830806901,0.03198740897818732,2.091126580046814,0.34079689008761654,-0.22903273192367074,-0.5497886797628295,-0.005093879527353177,-0.7429310469787058,-0.07340289198826497,0.19650269999215808,0.3717023693064774,0.7890409848659545,0.6143184278919941,0.0028178458583900854,0.0,0.6143102324102623,-0.7889821715548265,-0.01052702360061911,0.0,-0.0042437961504814825,0.010037477866256514,-0.999940617853039,0.0,0.5687344925051705,0.13896747465613976,0.30450006246541206,1.0,-0.1477799999999861,-0.1942251428571246,-0.5835550580999376,1.9949999999998915
0.3545805706295619,0.12524865227554843,-0.12693658783811199,-1.9721909379729146,0.0305981651538369,2.0942511196803033,0.34712457778147476,-0.23702582689059248,-0.5543732463333366,-0.005594820998259335,-0.7472729498650842,-0.07828707998371494,0.1759813922264672,0.37618701493499673,0.79513640606603,0.6064092872782563,0.0025727324546664116,0.0,0.6063990886052721,-0.7950782365943359,-0.010558879388695977,0.0,-0.004357562837858764,0.009956043709640441,-0.9999409426759993,0.0,0.5661490679593615,0.1356194651112748,0.304421943476752,1.0,-0.14996571428570016,-0.1970977959183488,-0.5933645208642223,2.01199999999989
0.3503748351820539,0.11550005778127943,-0.1270504056147793,-1.9846938497052915,0.029250143687712126,2.097490768864333,0.3535287160687443,-0.25680510976695586,-0.5697405212390569,-0.010749731427325653,-0.7376217996793037,-0.07755065280797545,0.19304898518612199,0.3827226856484515,0.801320816391079,0.5982118828402416,0.002870426497212601,0.0,0.598205870180307,-0.8012628032609859,-0.010411719040419116,0.0,-0.0039285237053166,0.010060426876449396,-0.9999416755554099,0.0,0.5636651617764524,0.1322154924875353,0.30456070510814004,1.0,-0.1521514285714142,-0.199970448979573,-0.6031739836285069,2.028999999999888
0.3460351786165344,0.10583725088784607,-0.12711067850701663,-1.9974806366067186,0.0278526162473645,2.100469934554547,0.3599005455770534,-0.25819672827775636,-0.5681434330267378,-0.0036280484934388666,-0.7556812871847565,-0.08040034074404301,0.17055927771036203,0.37459132951531776,0.8070611069684916,0.5904459473845868,0.0025883850407201602,0.0,0.5904373860505951,-0.8070034561954512,-0.010481495291480314,0.0,-0.004099999681258293,0.009987678783928741,-0.9999417164390747,0.0,0.5611663526978031,0.12895713610149767,0.30447364365388274,1.0,-0.15420857142855682,-0.20267412244896044,-0.6124064191713631,2.0449999999998862
0.3416663773702309,0.09596144712587877,-0.12709286411708126,-2.010063703748351,0.026444606953549388,2.103616765199335,0.3664465020078624,-0.25591497436341015,-0.5774687169347628,-0.000555682422619399,-0.7261128170388766,-0.07687319325998586,0.18364942630685133,0.3920826317786299,0.8135024279662456,0.5815380832939039,0.0028291824055702,0.0,0.5815330574299745,-0.8134450116003007,-0.01035679100595769,0.0,-0.0037215557274418165,0.010070731616414627,-0.9999423635328577,0.0,0.5584211802989758,0.12537654237951756,0.30457772109724973,1.0,-0.15652285714284228,-0.20571575510202134,-0.6227929091570762,2.0629999999998843
0.33742542514210944,0.0866959589675999,-0.1270847569207734,-2.02223642303665,0.02519736916141026,2.1063747976403446,0.37261410673960965,-0.2722863738836172,-0.5770457114970774,-0.0026383670633988573,-0.7585236579555207,-0.08081671607654288,0.16621257153469315,0.3944833751474787,0.8192396117273555,0.5734287789300534,0.002577008499838266,0.0,0.5734211592415139,-0.8191814468032761,-0.010520373026559057,0.0,-0.003921722612499456,0.01009661190592416,-0.9999413375392436,0.0,0.5558170899503418,0.12212540866804038,0.30446835555917884,1.0,-0.15857999999998493,-0.2084194285714088,-0.6320253446999323,2.0789999999998825
0.3326856375273495,0.07660879427113267,-0.12713349985820857,-2.034834311784591,0.023698149061078755,2.10939654334779,0.37926362059395796,-0.27786424192459525,-0.5813091659170528,-0.002685111273162679,-0.7526539003437378,-0.0850496202010744,0.1729266962993142,0.39889314188506153,0.8254011467004392,0.5645222914822334,0.0028768639968339564,0.0,0.5645190532677595,-0.8253437946726561,-0.010325017879948323,0.0,-0.003454367412556336,0.0101465214896653,-0.9999425560738171,0.0,0.5531909163990462,0.11854986548479965,0.3046230077204174,1.0,-0.16076571428569897,-0.21129208163263297,-0.641834807464217,2.0959999999998806
0.3278491334147327,0.06660717816243479,-0.1271826844342666,-2.0477660654162726,0.022254904991176636,2.1122278098870595,0.38599412350971135,-0.29050575195102735,-0.5865531897901278,-0.004157286618896673,-0.7635034588719408,-0.0952628160598093,0.15667417859471128,0.40774575331437446,0.8315721636131104,0.5553931524091843,0.0026324631064350494,0.0,0.555387784193599,-0.8315148023143332,-0.010406228994593371,0.0,-0.0035906854182730097,0.010115762971525735,-0.9999423874992652,0.0,0.550386378174602,0.11493033130590051,0.304529543878579,1.0,-0.162951428571413,-0.21416473469385713,-0.6516442702285016,2.1129999999998788
0.32279789537255427,0.05636454995289472,-0.12732754498498614,-2.060520669208323,0.020738117758537816,2.1150824896702947,0.39272106528547934,-0.29527417799923844,-0.609055445972694,-0.008964414192445227,-0.7408059375113477,-0.09158893921442997,0.16807767269925145,0.41119808986339357,0.8377761497714556,0.5459891192322959,0.0027841435425372965,0.0,0.5459863269312203,-0.8377193891463075,-0.01029090635950513,0.0,-0.003286455146023881,0.01014177547456914,-0.9999431701865846,0.0,0.5476513690945773,0.11118299352765151,0.3046235915167109,1.0,-0.16513714285712705,-0.2170373877550813,-0.6614537329927862,2.129999999999877
0.3179942614596731,0.04680678929890606,-0.12735188992455757,-2.07265898766665,0.01937312169823686,2.1177187477047816,0.3991018884858159,-0.2996596655730688,-0.5974249950936835,-0.0001265682102007134,-0.7737967898867613,-0.08346300421300334,0.1555239934265211,0.40453118736183413,0.8435198719218564,0.5370732527277412,0.002700699647734864,0.0,0.5370700735381191,-0.8434629117665552,-0.010334383641610576,0.0,-0.003272444053339485,0.010167918688119018,-0.9999429506424202,0.0,0.5449766774142305,0.10772156318348594,0.30457158012229,1.0,-0.1671942857142697,-0.21974106122446876,-0.6706861685356423,2.145999999999875
0.3124606367174593,0.035840426851395144,-0.1273517501490929,-2.086202621070444,0.017800540414967973,2.1205694774145827,0.4062964306547763,-0.31581916835948864,-0.6079532519398532,-0.0014231491584844607,-0.7565541854750621,-0.0892222328758426,0.16889241963913104,0.40186470402296287,0.8499075154969141,0.5269061646458362,0.0028027952629555426,0.0,0.5269047893590352,-0.8498504554356927,-0.010309861660801148,0.0,-0.0030504315652662983,0.01023943229769407,-0.9999429228178409,0.0,0.541958937596602,0.1038133531097415,0.304638511959016,1.0,-0.16950857142855513,-0.22278269387752966,-0.6810726585213555,2.163999999999873
0.30731511977813947,0.026110748954409548,-0.12738932012902865,-2.098325287573997,0.016299734198028774,2.1230451783459414,0.4127759283323034,-0.32220649570772625,-0.6121403349146549,-0.0031338168782896565,-0.7323114380238476,-0.09075859874097368,0.15668757711490017,0.4115075337368424,0.8556256175572884,0.5175694997116791,0.0027133833343807486,0.0,0.5175679643137346,-0.8555692588314967,-0.010266087856050309,0.0,-0.00299198419229757,0.010188484210401694,-0.9999436198206815,0.0,0.5392295821956304,0.10021292391087834,0.30461394647912726,1.0,-0.16998000000000002,-0.22340228571428578,-0.6831884250000001,2.1799999999998714
0.301437723189175,0.015129310623614993,-0.1274212185264132,-2.1117265087574375,0.014671649774742649,2.1257368336727365,0.4200034312858174,-0.3244408009504438,-0.6177765097503468,-0.0014825333046929517,-0.7308674490279248,-0.0943608047113618,0.16434446359912186,0.40117221512933043,0.8619480469170627,0.5069698686066486,0.00280421861254947,0.0,0.5069701113094806,-0.8618919766237445,-0.010211452965962035,0.0,-0.002760018584491708,0.01022359379819815,-0.9999439286416328,0.0,0.5361855520061946,0.09618430734492554,0.3046714019942502,1.0,-0.16998000000000002,-0.22340228571428578,-0.6831884250000001,2.1979999999998694
0.29606371180301977,0.005517011740053049,-0.12751302660738686,-2.123561083606715,0.013249223334262358,2.1279826567126205,0.42634090145923564,-0.3359020982510584,-0.6029878547506538,-0.010310265658244323,-0.7340105997799595,-0.08444054316397524,0.12847122270043684,0.39128654836331794,0.8675175825280969,0.4973799096060849,0.0026863406443304247,0.0,0.49737947554259077,-0.867461490699557,-0.010245309340755461,0.0,-0.0027655672196725267,0.01022431354206925,-0.9999439059520023,0.0,0.5334548677024532,0.09253085437659524,0.30463418929773345,1.0,-0.16998000000000002,-0.22340228571428578,-0.6831884250000001,2.2139999999998676
0.2903687781173863,-0.004738139789520299,-0.12749977802501183,-2.135880014524158,0.011761504190023475,2.130361737391522,0.43304800933570414,-0.3292548411155935,-0.6050952776020908,0.0019087604748558669,-0.7078612892986014,-0.08998715931058097,0.14212071774602686,0.38266319996761716,0.8732403190408919,0.48726173521425975,0.0028449074779346383,0.0,0.48726367339270604,-0.8731841798038958,-0.01021017302753718,0.0,-0.002490946381934034,0.0103023531724135,-0.9999438267749009,0.0,0.5305906805235574,0.08877564940538868,0.3047022076547939,1.0,-0.16998000000000002,-0.22340228571428578,-0.6831884250000001,2.2309999999998658
0.284972919884466,-0.014272556418046402,-0.12747850056281368,-2.1473887350263836,0.010289724748822828,2.1325252383753144,0.4392047681613624,-0.33726854180518573,-0.5946126797159053,0.0004958272498768763,-0.71968395923929,-0.09161775880149887,0.1308055355205433,0.3845833888132116,0.8784307021725333,0.47784097392659686,0.002872632722791831,0.0,0.47784395259560375,-0.8783751834167669,-0.010145985737212627,0.0,-0.0023249631740894783,0.01028541357607022,-0.9999444008612721,0.0,0.5278756532363905,0.08525755104886058,0.3047067398535552,1.0,-0.16998000000000002,-0.22340228571428578,-0.6831884250000001,2.246999999999864
0.2786971062947961,-0.024982472407625377,-0.1275096774630386,-2.1602240540268576,0.008651755629371639,2.134662724423623,0.44605927237375365,-0.350992182517093,-0.5968903815234303,-0.0023535739581317184,-0.6891081014567294,-0.08789755503415506,0.1214550970798237,0.36851383851839425,0.8842309843184648,0.4670213024997989,0.0027232854786381827,0.0,0.4670233999659468,-0.8841757237338999,-0.010157772644135418,0.0,-0.0023360782784977996,0.010253852765358819,-0.9999446990917762,0.0,0.5247802641755619,0.08120702991383727,0.3046948732112193,1.0,-0.16998000000000002,-0.22340228571428578,-0.6831884250000001,2.264999999999862
0.27296447945813335,-0.034409028496143,-0.1275677218019738,-2.1714161163915473,0.007198713408226692,2.136700684910735,0.4521537498504187,-0.36118953461102205,-0.5880509181445163,-0.00924682806016572,-0.7050252719402088,-0.093134412542338,0.11843527086521055,0.39364544871019724,0.889353178849936,0.4571910064864503,0.002837914485842532,0.0,0.4571950681900905,-0.8892985313184553,-0.010076642233668642,0.0,-0.002083237129318072,0.0102593718342186,-0.9999452012048612,0.0,0.5221092687192008,0.07756629098894433,0.3047167717613168,1.0,-0.16998000000000002,-0.22340228571428578,-0.6831884250000001,2.2809999999998603
0.2668482343716742,-0.0443727050661345,-0.12759026860947068,-2.183345420100562,0.005796801903650682,2.138527999935981,0.45854697086614254,-0.3635446311171423,-0.5783884690650972,0.00571608589305958,-0.6812665678960241,-0.07581611888157642,0.11171173182742737,0.37915170013768057,0.894658846808164,0.44672090222669886,0.002594271161337807,0.0,0.44672275516800974,-0.8946031017835276,-0.010238026938910256,0.0,-0.002252740975615508,0.010318660001782512,-0.9999442236514315,0.0,0.519147039568522,0.07375518108191827,0.30463614979586084,1.0,-0.16998000000000002,-0.22340228571428578,-0.6831884250000001,2.2979999999998584
0.2607533308683925,-0.054378721469789976,-0.12756691485348606,-2.194803529202052,0.004226487469866763,2.140491266849265,0.46485827451579886,-0.3602152790839765,-0.5786142761116834,0.0005872221380132215,-0.6751210552670737,-0.08318919369831312,0.10185630840970612,0.3640384102133685,0.899729174192765,0.4364167754243107,0.002925429175403854,0.0,0.4364230317738652,-0.8996746144204335,-0.010063419198290968,0.0,-0.0017599444752504634,0.010331275423869794,-0.9999450821637959,0.0,0.5163393880172761,0.0700270237964913,0.30477321435696686,1.0,-0.16998000000000002,-0.22340228571428578,-0.6831884250000001,2.3149999999998565
0.25414125814115723,-0.06475122122183029,-0.12756501621317543,-2.207197259842733,0.002624281209626414,2.142185024543596,0.47143590779241834,-0.3727823045540671,-0.5761487414977822,0.0008752081755420111,-0.6860949924365379,-0.0874571960798074,0.08916010585512207,0.3737303244614575,0.9050068534339335,0.4253672205870557,0.0024636941495612195,0.0,0.4253691796479022,-0.9049520919553806,-0.010174437206027299,0.0,-0.0020983873012398457,0.010256112422535782,-0.9999452029629975,0.0,0.5131633850111353,0.06601917990781016,0.3046172589734787,1.0,-0.16998000000000002,-0.22340228571428578,-0.6831884250000001,2.3329999999998545
0.2485201923983726,-0.07351720873172382,-0.12759982308791692,-2.2170853051478843,0.0012785639379494917,2.143715621170866,0.47681525633601696,-0.3820363050404549,-0.5809787460677033,-0.005362236311740052,-0.6514387677542469,-0.0952780858931814,0.09671635745109673,0.3520575724830139,0.9093120926151609,0.41608268870958076,0.0027315345963746765,0.0,0.41608816162272066,-0.909257965965705,-0.010066776372893204,0.0,-0.0017049746148515288,0.010290598824054573,-0.9999455968388504,0.0,0.5106773183222418,0.06266317748701487,0.3047347360087089,1.0,-0.16998000000000002,-0.22340228571428578,-0.6831884250000001,2.347999999999853
0.2415677167005402,-0.0838395261006561,-0.12766566562477893,-2.2290256442551266,-0.0002602520159998372,2.145433351028896,0.48317586053360656,-0.39102773340808866,-0.5747083012264869,2.6301088035854923e-05,-0.6625507682001623,-0.09221865027598924,0.09472344195838464,0.34553061522141637,0.9144182030758508,0.404737964883282,0.002697511238052678,0.0,0.40474370947511984,-0.9143638790637132,-0.010098178305388925,0.0,-0.0016206404992594181,0.010325957571874808,-0.9999453725702199,0.0,0.5076147078087618,0.058567831372530445,0.3046995465517252,1.0,-0.16998000000000002,-0.22340228571428578,-0.6831884250000001,2.365999999999851
0.23589944633803525,-0.0924367208958031,-0.12762030538643404,-2.238783972611793,-0.0015313443262188146,2.1466415321848955,0.48843050954384537,-0.384633900729179,-0.5800696526309784,0.0036255142675113857,-0.6296891835900302,-0.0843825435498544,0.09128888870337552,0.3520144290113282,0.9184550989155105,0.3954921260506496,0.0026375005678841166,0.0,0.39549773893953316,-0.9184005383976703,-0.010135899851253408,0.0,-0.0015864171834865104,0.010352693732965754,-0.9999451510022894,0.0,0.505039791563823,0.05531174677467794,0.30471055368761835,1.0,-0.16998000000000002,-0.22340228571428578,-0.6831884250000001,2.3809999999998492
0.2288729150967791,-0.10270081645493649,-0.12764179084984215,-2.250311899798517,-0.0031759316470585867,2.1481931219873593,0.49467040596999706,-0.40373246861536877,-0.5710661584444886,-0.0006337685155460369,-0.6524170282545897,-0.08671910506204603,0.07535829128817548,0.33966919221313463,0.9232356716818026,0.3841991948480304,0.0027604553218512863,0.0,0.3842069092698775,-0.9231822237149077,-0.010018961388020824,0.0,-0.0013008986623291308,0.010310647065916084,-0.9999459976517495,0.0,0.502017123333731,0.05129257563648701,0.3047578928529328,1.0,-0.16998000000000002,-0.22340228571428578,-0.6831884250000001,2.3989999999998473
0.222530777331142,-0.1117418168383088,-0.1276705059522074,-2.26062756572514,-0.004570039434958596,2.1493193115996045,0.5001464544486663,-0.4000491198713535,-0.5743809945260815,-0.0037292572350357068,-0.6413929134050961,-0.08683206360566018,0.05930686764921369,0.3361270450367175,0.927390016837066,0.374061838540385,0.0024989037479272807,0.0,0.3740673671675866,-0.9273364061201267,-0.010076785485748538,0.0,-0.001452044440888256,0.010280066530220705,-0.9999461044471727,0.0,0.4992235346878086,0.04771195233292947,0.30467753492356286,1.0,-0.16998000000000002,-0.22340228571428578,-0.6831884250000001,2.4149999999998455
0.21520808297342936,-0.12192028103914476,-0.12774226544166417,-2.27173798932961,-0.006139622356767577,2.1507228461486023,0.5061785676282384,-0.396308135262065,-0.5469081745530966,0.0005586518431864643,-0.6107238144724122,-0.0841632508476367,0.07108186060470008,0.3336554082435893,0.9319618433387611,0.3625188421020968,0.0028210960249413245,0.0,0.3625284828708663,-0.9319090668120502,-0.00996680500712838,0.0,-0.0009841685949465995,0.010311608159006946,-0.9999463496354952,0.0,0.49625754316953885,0.043636801177273025,0.3047963709326188,1.0,-0.16998000000000002,-0.22340228571428578,-0.6831884250000001,2.4329999999998435
0.20875883920865898,-0.13087249987053556,-0.12770797642019527,-2.2817080512486623,-0.007489029331403484,2.151758898836512,0.5115046729285703,-0.41462830209203894,-0.5599701673363228,-0.00012322327338605386,-0.6144164020902101,-0.0806231722456435,0.05880168453500502,0.3307006001696748,0.9358410876032577,0.35238437973780146,0.002730306130239553,0.0,0.3523936297139003,-0.9357882097830275,-0.009995152292360173,0.0,-0.0009671658760919133,0.010316215298620063,-0.9999463187051996,0.0,0.4935024194780346,0.04013543512965837,0.30476706403978826,1.0,-0.16998000000000002,-0.22340228571428578,-0.6831884250000001,2.4489999999998417
0.2017077529538543,-0.14035605089831515,-0.12772565355711282,-2.2920555334214217,-0.008976290562972535,2.152792562991761,0.5169762758384944,-0.4192133362704579,-0.5699692248905125,0.003337555482693591,-0.5981720769693539,-0.08734400251603831,0.06397743358595376,0.3202734983415584,0.9398503554656676,0.341547042286236,0.0027702234189492334,0.0,0.3415573567496127,-0.9397980904635898,-0.009943244561824875,0.0,-0.0007926503525095829,0.010291550268729393,-0.999946726430206,0.0,0.4906255506056575,0.03633408195312952,0.3047995159187163,1.0,-0.16998000000000002,-0.22340228571428578,-0.6831884250000001,2.46599999999984
0.19499362612189453,-0.14919483087733168,-0.12777073477619622,-2.3016804430654196,-0.010309362228351698,2.15374189403943,0.5220791015826193,-0.4240092102747518,-0.5471408121332194,-0.010921236394628721,-0.6141119398013597,-0.08518066434203472,0.054340577844164184,0.3167167250355214,0.9437631744929664,0.33058105152767675,0.0028259056994974423,0.0,0.33059255052048026,-0.9437110413275176,-0.009938959608770413,0.0,-0.0006188052221103302,0.010314446029306142,-0.9999466132165284,0.0,0.48775337558686793,0.0325321662487241,0.30481544209459865,1.0,-0.16998000000000002,-0.22340228571428578,-0.6831884250000001,2.482999999999838
0.18729227459637168,-0.15910870708598734,-0.12784123256520125,-2.3124923301715214,-0.011908275912158069,2.15458733874945,0.5276870736252545,-0.41314197727738816,-0.5479129212482092,0.00012030038694517083,-0.5947129709524667,-0.08998835629079042,0.04826540917598932,0.3138310974040968,0.9475388965939016,0.3195994450367837,0.0026421724015611193,0.0,0.3196096709970311,-0.9474872110462665,-0.009919173864045115,0.0,-0.0006667507393314231,0.010243464128667609,-0.9999473120550384,0.0,0.4848132512277218,0.028689438029473466,0.3047678009905786,1.0,-0.16998000000000002,-0.22340228571428578,-0.6831884250000001,2.499999999999836
0.18048062649096472,-0.16790566685736252,-0.12780947975139206,-2.321726340822921,-0.013184875467763717,2.155450176352192,0.532658761232254,-0.42978493860801187,-0.5429006729663427,0.00026510095081333637,-0.5754351098628764,-0.07603451587536146,0.04606724338614566,0.3039068639465662,0.9509545040592675,0.3092854520854203,0.0029643277345209355,0.0,0.30929956728020813,-0.9509032328637546,-0.00987756603339756,0.0,-0.000236203197762741,0.01031017969707456,-0.9999468207873172,0.0,0.4821691546927398,0.025204105752664862,0.3048773191209002,1.0,-0.16998000000000002,-0.22340228571428578,-0.6831884250000001,2.5159999999998344
0.17307983488702516,-0.17710319298005509,-0.12782000623949363,-2.3316355444540973,-0.014586003436914362,2.1560835277482076,0.5378026253533527,-0.4338531382704404,-0.5480528602048916,-0.0024937561091276884,-0.5784723891760636,-0.09084486496254365,0.024460984201747984,0.2900788513093857,0.9544701061562861,0.2982613162224152,0.0027839900303245446,0.0,0.298274156413024,-0.954418603842818,-0.009919836492263738,0.0,-0.00030161741810896814,0.010298777950970617,-0.9999469206911182,0.0,0.47923639402852497,0.02143714494017745,0.30482567634488583,1.0,-0.16998000000000002,-0.22340228571428578,-0.6831884250000001,2.5329999999998325
0.1658787049940756,-0.18576865467085232,-0.12793846374297518,-2.3408099450560895,-0.01597221114231791,2.1566219920397107,0.5425790478448185,-0.4513924008462081,-0.5404478215280366,-0.002337414681538014,-0.5603036278131343,-0.08009142060071811,0.03552889088847133,0.3019286430811831,0.9577285885345446,0.2876271545552644,0.002705100234572872,0.0,0.2876397608032957,-0.9576774805589654,-0.009897380282864103,0.0,-0.00025614668262363693,0.01025729591765018,-0.9999473597491693,0.0,0.47649566537626414,0.017766021409514974,0.3048191856059203,1.0,-0.16998000000000002,-0.22340228571428578,-0.6831884250000001,2.5489999999998307
0.15783443843744552,-0.19549286944870212,-0.1279394180011987,-2.3508148494910026,-0.01743506821355117,2.1573581945024123,0.5477906354440198,-0.43654727380852343,-0.5374830101939964,0.00530843765679176,-0.5604081939815174,-0.07944018242988773,0.029446727792952168,0.2963505159022023,0.9611690165099467,0.2759086831964442,0.003044197646979685,0.0,0.27592539162473034,-0.961118877505063,-0.009819799455959656,0.0,0.0002164720559794664,0.010278656309320976,-0.9999471497855894,0.0,0.47351270808052653,0.013791401564738636,0.3049282350652166,1.0,-0.16998000000000002,-0.22340228571428578,-0.6831884250000001,2.5669999999998288
0.1505730189854256,-0.20395862192076045,-0.1279676329742661,-2.359833238586972,-0.01875783844618802,2.1577039528856883,0.5523475431009205,-0.4534351761262379,-0.535828320547848,-0.0025471331758528492,-0.5743332284085553,-0.0829110708468425,0.0052828767160666285,0.27815892236978157,0.9641172709568591,0.2654262495963513,0.0027460460888633514,0.0,0.2654404525601857,-0.9640668333694593,-0.009861736299236838,0.0,2.9808850675050458e-05,0.010236979097865324,-0.9999476003123273,0.0,0.4707193223441773,0.010233797160074753,0.3048323772441852,1.0,-0.16998000000000002,-0.22340228571428578,-0.6831884250000001,2.582999999999827
0.142681849063151,-0.21299846692396254,-0.12801910264194233,-2.3690362296822225,-0.02006859811538346,2.158124821462921,0.5570758590351578,-0.4713840942849572,-0.5334778872731103,-0.011933995534996912,-0.5275170895850542,-0.0809183299395966,0.035704823693348195,0.27849125840141825,0.9671575832785165,0.25412293306707584,0.0029139144555107087,0.0,0.2541394519697443,-0.9671071994667595,-0.00987677038752994,0.0,0.0003081597214750764,0.010293132176101151,-0.9999469768280673,0.0,0.46786871865562296,0.006421717218722117,0.3049027014099355,1.0,-0.16998000000000002,-0.22340228571428578,-0.6831884250000001,2.599999999999825
0.1347393723903321,-0.22192168470778068,-0.12810418587259031,-2.3781314292935,-0.0214434812169987,2.158515224970576,0.5616665921660088,-0.45665851718188766,-0.5174110939092365,-0.0020138746927301178,-0.5369340792168339,-0.07851538267241052,0.007742299805560622,0.2589712624942986,0.9700418919156287,0.2428791431523164,0.0030325981521709916,0.0,0.2428974494196553,-0.9699921224658717,-0.009841662501181004,0.0,0.0005512723764309335,0.010283633260324923,-0.999946970086781,0.0,0.46501533641698883,0.0026111686643527825,0.30493871335437017,1.0,-0.16998000000000002,-0.22340228571428578,-0.6831884250000001,2.6169999999998232
0.12677086524446612,-0.2307547621923316,-0.1280923480784169,-2.387276015886474,-0.022855529771362057,2.1586916868174977,0.5661903984387967,-0.47145203290838794,-0.5246422659222052,-0.0009810024134929908,-0.5286012447979189,-0.0740719563925419,0.017159306481975205,0.26170499328074565,0.9727570813871247,0.23176837208064605,0.002798073533395058,0.0,0.23178483400860755,-0.972707593302977,-0.009822197083177445,0.0,0.00044524131660517163,0.010203359223205805,-0.9999478452503071,0.0,0.46206559124395186,-0.0011229300268755429,0.30486789852228535,1.0,-0.16998000000000002,-0.22340228571428578,-0.6831884250000001,2.6339999999998214
0.11855733987253164,-0.23958261441939185,-0.1281259165952855,-2.3960745137758575,-0.024192958153527944,2.158911176600892,0.5706316873428973,-0.4786935447633637,-0.5169041897919062,-0.002724114726007044,-0.5040899542456524,-0.09031630340780532,0.01583181737737877,0.2518448591484777,0.9753986912776564,0.22038470467471044,0.0029532863871724307,0.0,0.22040330105203765,-0.9753498980401669,-0.009783055739853004,0.0,0.0007244656747774081,0.010193490090305572,-0.9999477825913035,0.0,0.45921566124532504,-0.004934553850367909,0.30492986998799004,1.0,-0.16998000000000002,-0.22340228571428578,-0.6831884250000001,2.6509999999998195
