nelsonifechukwu/NELSON_IML_WORK/CNN-GradCAM/train2dof/data_sample_2022-07-05-18-51-36/robot_state.csv
position_joint1,position_joint2,position_joint3,position_joint4,position_joint5,position_joint6,position_joint7,velocity_joint1,velocity_joint2,velocity_joint3,velocity_joint4,velocity_joint5,velocity_joint6,velocity_joint7,ee_T_00,ee_T_10,ee_T_20,ee_T_30,ee_T_01,ee_T_11,ee_T_21,ee_T_31,ee_T_02,ee_T_12,ee_T_22,ee_T_32,ee_T_03,ee_T_13,ee_T_23,ee_T_33,v_x,v_y,w_z,time
0.4650914184014517,0.5472995594276441,-0.12399666445111707,-1.3555653866258202,0.07942862198087904,1.894164096817171,0.159145054870562,-0.0010366739479512972,0.0001524912368239917,-0.0009900015193248896,-0.00037101125716066194,-0.00045075636959095134,9.921269047006834e-05,-0.0007849126518757951,0.5737512092363679,0.8190137628443468,0.0025986674581075578,0.0,0.8189800574948656,-0.5736913267871078,-0.011431268353193651,0.0,-0.007871684680435143,0.008687128119137175,-0.9999312828316421,0.0,0.661765077695153,0.26092844497826057,0.30368864854589794,1.0,5e-324,6.94104823224736e-310,6.94083603266836e-310,0.0
0.46509613936454247,0.5473044086747597,-0.12399411769040235,-1.3555628897646654,0.07942994440926446,1.8941617408508755,0.15914101102178885,4.549425130032127e-05,0.0007169585867541972,0.0004283450541277052,-0.0005819634845688572,-2.4234845160280765e-05,0.00044033681170218056,-0.0004548867439521879,0.5737424597124479,0.8190199007711928,0.002595951668282627,0.0,0.8189861361677286,-0.5736825603723431,-0.011435715583025911,0.0,-0.007876978098631526,0.008687371272479608,-0.9999312390341687,0.0,0.6617631616420275,0.2609333297376344,0.3036861148661768,1.0,-0.00012,-0.00015771428571428574,-6e-05,0.007
0.46509175903048433,0.547292861544136,-0.12399669910670919,-1.3555686048997446,0.07942982593583471,1.894162354190646,0.15914585143436827,-0.0023053286655180336,-0.0020797949694388975,-0.0006469734910872893,-0.000653924865601725,-9.952735149487749e-06,-0.00014758015189307445,0.0008096859602135683,0.5737520762069579,0.8190131476216571,0.002601148261627214,0.0,0.8189794594104152,-0.5736921692503887,-0.011431837377062342,0.0,-0.007870718260248155,0.008689494726804053,-0.9999312698758153,0.0,0.6617640197631128,0.26092843256258075,0.3036917133352005,1.0,-0.0004800000000000003,-0.0006308571428571433,-0.00024000000000000014,0.025000000000000015
0.46509354561084637,0.5472836959750172,-0.12399243973204449,-1.3555817189272774,0.07943055476082421,1.8941644993887758,0.15914374784487412,0.0011137139403952908,-0.0011481741430507987,0.000622488281951303,1.625745626183836e-05,0.0001865959650844784,-0.00047065656738506977,0.00023480052997408625,0.5737468221470328,0.8190168267315335,0.002601635639019457,0.0,0.8189831085669341,-0.5736868742502067,-0.011436131176109088,0.0,-0.007874011247371804,0.008692306916795664,-0.9999312195082921,0.0,0.6617601984079482,0.26093090693780724,0.30369200998551543,1.0,-0.0008000000000000006,-0.0010514285714285723,-0.0004000000000000003,0.04100000000000003
0.4650903189946695,0.5472006186292787,-0.12399494636434234,-1.355669574027602,0.07942862198087904,1.8941737750334156,0.15914135420755748,-0.0003200076913858917,-0.009084882291719162,-0.00015155701535525827,-0.011724680148570744,-0.0004925196139057819,0.000727439418150268,-7.898988654363864e-05,0.5737534546848874,0.8190121592435821,0.002608284787100944,0.0,0.818978483343881,-0.5736934364497993,-0.01143816835794174,0.0,-0.00787179465831811,0.008698985212126947,-0.9999311788843951,0.0,0.6617456246622516,0.26091829604548467,0.3037099237175238,1.0,-0.0011400000000000008,-0.0014982857142857157,-0.0005700000000000004,0.058000000000000045
0.4650896383934546,0.5470741949417456,-0.12399001333620534,-1.355822591645951,0.07942709283788803,1.8942102863333277,0.1591483731965224,0.0004440487952510097,-0.011137141290261486,3.4644858618605166e-05,-0.009685977303344084,-1.7139347247130738e-05,0.0003919123205323443,0.0012593290819770417,0.573764283052987,0.8190045249339949,0.0026234579358882957,0.0,0.8189709347781062,-0.5737040927794818,-0.011444160867219891,0.0,-0.007867882460389997,0.008714954343105902,-0.9999310706225641,0.0,0.6617202931514794,0.2609064254077791,0.3037296425298011,1.0,-0.001460000000000001,-0.0019188571428571445,-0.0007300000000000005,0.07400000000000005
0.465069160469322,0.546928493000148,-0.12399457936726437,-1.356025236313723,0.07942096011340656,1.8942728292956317,0.15913988114175479,-0.004083473750615541,-0.008599494794540644,-0.0035440331879231434,-0.016994758713653236,-0.0005252399609092958,0.003833029821179075,-0.00012835630314594247,0.5737868976260123,0.8189886569418727,0.0026311241840782885,0.0,0.8189551223404916,-0.573726631768158,-0.01144580680613622,0.0,-0.007864591345632832,0.008722394539308287,-0.9999310316399163,0.0,0.6616968892638697,0.26087134243755017,0.30374195603437854,1.0,-0.0018000000000000013,-0.002365714285714288,-0.0009000000000000006,0.09100000000000007
0.4650454324478111,0.5467361709644666,-0.12399028044916793,-1.356254420357397,0.07941581617911231,1.8943951963498473,0.15913646229059866,0.0010014083325838898,-0.015603713518721628,0.0006556110466564319,-0.012623012593885763,5.3118136459050326e-05,0.009154201419987504,-0.0010448093683167498,0.573812444398196,0.8189705737044313,0.002687928795521771,0.0,0.8189377661771493,-0.57375198754656,-0.011416602662824096,0.0,-0.007807807468203032,0.008752403595016986,-0.9999312144211966,0.0,0.6616836360043684,0.2608433294711054,0.30376705985170666,1.0,-0.0020800000000000016,-0.002733714285714288,-0.0010400000000000008,0.10500000000000008
0.46501904571756364,0.5465308261476405,-0.12399743138389596,-1.3565048300131453,0.07940790664469197,1.8945155906802584,0.1591339837562683,-0.0043520552430980596,-0.01582265312635976,-0.001570793143624857,-0.014556592542289535,-0.0013857084808161842,0.007622370864172015,0.001125512133662875,0.5738486866556569,0.8189448884505817,0.0027751406181193723,0.0,0.8189131805604892,-0.5737879258935614,-0.01137390453084152,0.0,-0.007722407478198079,0.008799668828150226,-0.9999314627769522,0.0,0.6616602718077012,0.26079920418173674,0.30381649297019286,1.0,-0.002480000000000002,-0.003259428571428575,-0.001240000000000001,0.12500000000000008
0.46498074059859024,0.5463156879157235,-0.1239956359951901,-1.356797872754016,0.07939689852289217,1.8946399575094355,0.15912650419604962,-0.0017323373133678278,-0.01250722323640671,-0.0003431477712191461,-0.016159334171382194,-0.0005847362955061912,0.014538381186283755,0.0012496629111651033,0.573886187996882,0.818918461400547,0.00281845790747747,0.0,0.8188872720067737,-0.5738252454021141,-0.011356512920608653,0.0,-0.007682903707110611,0.008825515134580325,-0.9999315392931841,0.0,0.6616337290364138,0.26074960186014484,0.3038400885557503,1.0,-0.002800000000000002,-0.0036800000000000036,-0.001400000000000001,0.1410000000000001
0.4649472833438522,0.5460359842351082,-0.12399034935605863,-1.3572325367345017,0.07937584161112157,1.8947899476094892,0.15911083799455983,-0.0021726078120900575,-0.01681672517000437,0.0003519176853689892,-0.025044992629051382,0.00010073153594959293,0.012178571453778196,-0.0040489683893752924,0.5739157240154255,0.8188977631479186,0.002818180333799037,0.0,0.8188664914835099,-0.5738546882298587,-0.011367181854220277,0.0,-0.007691481881749396,0.008831687883544978,-0.9999314188461079,0.0,0.6615799961001976,0.26068937551125015,0.3038440615333849,1.0,-0.003160000000000002,-0.0041531428571428605,-0.001580000000000001,0.1590000000000001
0.4649065754997533,0.5457628759843574,-0.12399849357480641,-1.3576532430468315,0.07933910751879576,1.8949392561306826,0.15908671340943692,-0.0013963995280620273,-0.016341451150709656,-0.00038180927776548367,-0.021025149380971775,5.074539354275831e-05,0.009764408756405808,-0.00337228596588567,0.5739487349184544,0.8188746509118195,0.0028111707098539924,0.0,0.8188434112115013,-0.5738878566522375,-0.011355298491071874,0.0,-0.007685417322613242,0.00881943761863059,-0.9999315735992481,0.0,0.661534975129962,0.2606155635570061,0.30385034791682064,1.0,-0.0034800000000000026,-0.00457371428571429,-0.0017400000000000013,0.17500000000000013
0.4648582030326974,0.5454040797790987,-0.12399621953338186,-1.3582420354551294,0.07929510874313271,1.895139873560439,0.15903933459999803,-0.0026389922181992865,-0.015642094099207946,-0.0006077503718119481,-0.0328399898375244,-0.004218660445134356,0.009970377208272574,-0.007911661833005535,0.5739691300413601,0.8188604565905304,0.0027815990222726517,0.0,0.8188288708718068,-0.5739083791015431,-0.011366596898364948,0.0,-0.00771142220866633,0.008801898783737772,-0.9999315279284481,0.0,0.6614638431346991,0.26052619564761714,0.30384136502872927,1.0,-0.0038600000000000028,-0.005073142857142862,-0.0019300000000000014,0.19400000000000014
0.4648093239408971,0.5450715617460528,-0.12400170941517204,-1.3587999675647817,0.07926779015714268,1.8953106895108498,0.15893369191516205,-0.005738888468735158,-0.018013372113412477,-0.0004420182840897394,-0.034022806854241604,0.00024779104637353075,0.011767556931832374,-0.0018332991408178058,0.5739502384173167,0.8188738446115897,0.0027381258092943825,0.0,0.8188416201333226,-0.5738895347089146,-0.011399560966509658,0.0,-0.007763570041640522,0.008785041247659484,-0.9999312726535187,0.0,0.6613940814786122,0.26043599490416486,0.30382613687184934,1.0,-0.004180000000000003,-0.005493714285714291,-0.0020900000000000016,0.21000000000000016
0.4647463924177358,0.5446478567139241,-0.12400202862942789,-1.3595035261794346,0.07923802473329901,1.8955505306938403,0.15893029231893824,-0.003001640843068003,-0.028222508197514238,-0.00019548683357199144,-0.04101506042875175,-0.0003103819817809799,0.014175993521414871,-2.9288188074144455e-06,0.5740305098251105,0.8188176708841414,0.002709711977690269,0.0,0.818784952593678,-0.5739697418243296,-0.011431700551069542,0.0,-0.0078053360121239646,0.008780985349872497,-0.9999309831313475,0.0,0.6613095826784944,0.2603277010123721,0.30381193053469485,1.0,-0.004540000000000003,-0.005966857142857148,-0.0022700000000000016,0.22800000000000017
0.46469101599032786,0.544265393484968,-0.12400513426143202,-1.3601752646739826,0.0792012740526421,1.8957765841976184,0.158915587745852,-0.0023514364138360042,-0.022460268293912643,-8.16055487233994e-05,-0.04758547587032803,-0.0032196682613006176,0.011633055611869936,0.0001260768686076814,0.5740936588953242,0.818773573960007,0.0026556170930078695,0.0,0.8187401102428075,-0.5740330035662693,-0.011466891361273043,0.0,-0.00786452718237829,0.008757498458223337,-0.9999307253169851,0.0,0.6612275439429495,0.26022396324902736,0.3037825257993483,1.0,-0.004860000000000004,-0.006387428571428578,-0.002430000000000002,0.2440000000000002
0.46462377212731887,0.5438055076517686,-0.12400492333604385,-1.3609234099820269,0.07916928980812636,1.8960302293768247,0.1588374199204705,-0.0016006618565996681,-0.029743066874102393,-0.0003846188269288724,-0.04052606898020754,-0.0031038041528297453,0.0166347731203177,-0.011197861766153954,0.5741176625268348,0.8187568150566717,0.0026333010057178413,0.0,0.8187229180998369,-0.574056915984611,-0.011497281832389478,0.0,-0.007901965338013961,0.00875690505221835,-0.9999304353592321,0.0,0.6611374470685695,0.2601088942907652,0.3037738014439188,1.0,-0.005200000000000003,-0.00683428571428572,-0.0026000000000000016,0.2610000000000002
0.4645583614677318,0.5433368906841997,-0.12401055176424376,-1.36167408331363,0.07912964232542076,1.8963004671835673,0.15879322710188767,-0.005268182239550784,-0.027791033090710317,-8.674020351950607e-05,-0.04226168885157958,-0.0010731734867878131,0.01862888842744683,-0.0017754105938079428,0.5741756640887001,0.8187161850366833,0.0026195473822753406,0.0,0.8186820726095203,-0.5741149139777271,-0.01150984089097071,0.0,-0.007919524279982548,0.008753415547722687,-0.9999303269985503,0.0,0.6610451051341636,0.25998626562773397,0.30376763170327953,1.0,-0.005540000000000004,-0.007281142857142864,-0.002770000000000002,0.2780000000000002
0.4644780249921473,0.542798824503902,-0.12401126335667002,-1.362575220056863,0.07906811325520079,1.8966166826401996,0.1587319781047597,-0.004971282021419745,-0.029835312601667045,4.2893900231935215e-06,-0.05079629928235678,-0.005480425755221311,0.022625270613263488,-0.0035065298244419544,0.5742200882417838,0.8186851582913088,0.0025785178573892193,0.0,0.8186505569253182,-0.5741595148796581,-0.011526665616314317,0.0,-0.007956382687578034,0.008729916105264302,-0.9999302398364216,0.0,0.6609457844698918,0.2598494481204192,0.30375069921709685,1.0,-0.005880000000000004,-0.0077280000000000066,-0.002940000000000002,0.2950000000000002
0.46440767989363174,0.5422708235139141,-0.12401221657731491,-1.3634103521325278,0.07900954336244895,1.8969017857736197,0.1586633672260564,-0.006479672808588934,-0.03777620804680909,0.00017378808861135493,-0.05499478393896333,-6.363519347557418e-05,0.015199770722341951,-0.003922604153511327,0.5742528605370765,0.8186622448118586,0.002554992329178908,0.0,0.818627378301382,-0.5741924049151832,-0.011534493241262721,0.0,-0.007975950501391105,0.008715470210465578,-0.9999302099609803,0.0,0.6608459504689977,0.25972007623887633,0.3037513170768843,1.0,-0.006200000000000004,-0.008148571428571436,-0.003100000000000002,0.3110000000000002
0.4643363353958742,0.5416857560802317,-0.12402112809235075,-1.3643533408798652,0.07896705313538041,1.8972452274714906,0.15861176056377266,-0.004508105564682269,-0.03600519770736179,-0.0018568424675125276,-0.05969900669698626,-0.0021548841070086313,0.019469336027214457,-0.007366228289549574,0.5743163207599883,0.8186177519910629,0.0025469069510099347,0.0,0.8185826903577765,-0.574255785791032,-0.011550689735126272,0.0,-0.007993177505862759,0.008718771438334341,-0.9999300436220355,0.0,0.6607354562992586,0.25957994424916775,0.3037462488911089,1.0,-0.006540000000000005,-0.00859542857142858,-0.0032700000000000025,0.32800000000000024
0.46424333776532184,0.5411130437004025,-0.12401585073934066,-1.3652630643450756,0.0789086845152617,1.897572890235911,0.15851670609705232,-0.003398382000382823,-0.034197446833781966,-0.0002174651077497331,-0.05677301084301311,-0.0018453366768443862,0.021781545894756702,-0.005296943826809285,0.5743458082452342,0.8185970920853458,0.0025377710206007133,0.0,0.8185618993824932,-0.5742852866574095,-0.01155739197873233,0.0,-0.008003597001887908,0.008715430103089616,-0.9999299894058331,0.0,0.6606322604759989,0.25943388584134197,0.3037463363459508,1.0,-0.006860000000000005,-0.009016000000000008,-0.0034300000000000025,0.34400000000000025
0.46416147314526657,0.5404383425037649,-0.1240221216285354,-1.3662755496959476,0.07885319243828187,1.8979538650919656,0.15847594579004096,-0.0010465920428154097,-0.04015967000936623,0.0002003319445232069,-0.06038183458446475,0.0005539763313415052,0.021980540642604737,-0.0040809571594929055,0.5744354672552342,0.8185340316524583,0.002584547782788443,0.0,0.8184994586921034,-0.5743747926652969,-0.011531720281007192,0.0,-0.007954759550400092,0.008739848358217062,-0.9999301659871909,0.0,0.6605056976411332,0.259264213231946,0.3037807075338308,1.0,-0.007240000000000005,-0.00951542857142858,-0.0036200000000000026,0.36300000000000027
0.46405870482454065,0.5397401973761788,-0.1240322356487376,-1.3673372992674833,0.0787942477281706,1.8983502709557982,0.15836520062740667,-0.00794851140058602,-0.03840974042101653,-0.00030280240814243187,-0.05945208087865744,-0.009515026605193027,0.0264187228027844,-0.00514284083767861,0.5744687242060362,0.8185106326791267,0.0026030753952050916,0.0,0.818476279340818,-0.574407961646493,-0.01152478436850319,0.0,-0.00793808414590047,0.00875135212788189,-0.9999301978918459,0.0,0.6604025728617356,0.25910847225155026,0.3037972193406932,1.0,-0.007540000000000006,-0.009909714285714294,-0.003770000000000003,0.3780000000000003
0.46395601780705176,0.5390035100810424,-0.12403398368338826,-1.3685022131494171,0.07871914864075569,1.8987785046582728,0.15831528075412454,-0.004891050789294786,-0.043049017174494816,0.000518856487233604,-0.06541554810150442,-0.00914832971780224,0.021879046983388845,-0.0009853650947824972,0.5745576910039222,0.818448198874531,0.002598531986674175,0.0,0.8184138093851497,-0.5744969574741864,-0.011525162115943517,0.0,-0.007940052325899116,0.008748713435649688,-0.999930205355495,0.0,0.6602611809017828,0.25892014804780444,0.303799188966726,1.0,-0.007900000000000006,-0.010382857142857152,-0.003950000000000003,0.3960000000000003
0.4638666339617066,0.5382463027996155,-0.12404302710546662,-1.3696652515731935,0.0786599432210208,1.89923356030562,0.1582076059646161,-0.005801314546525803,-0.0424170676911521,-0.0007186754430009196,-0.06800026346489223,-0.008880306514904119,0.028602194293379977,-0.0008965313857557809,0.574597380489188,0.8184201945745218,0.002642413437287607,0.0,0.8183863661818913,-0.5745364900311627,-0.011503224394885112,0.0,-0.007896460237354963,0.008772406631383858,-0.9999303429727562,0.0,0.6601394861415912,0.25875687347092685,0.3038213993728487,1.0,-0.008220000000000007,-0.010803428571428582,-0.004110000000000003,0.4120000000000003
0.46375692734232815,0.5374225465879132,-0.12405222826834625,-1.3709791453253557,0.07857530164685655,1.8997340160544918,0.15811426115534347,-0.005956042043452213,-0.04926286710044316,-0.0018928028457653962,-0.07344390857595993,-0.003756172343012839,0.030122045747414786,-0.004015825963593228,0.5746671578261531,0.8183711970981924,0.0026435539130222696,0.0,0.8183374802404502,-0.5746063625666531,-0.011491015309318689,0.0,-0.007885064868283165,0.008766997148267647,-0.9999304803400211,0.0,0.6599920003631323,0.2585542353981548,0.30382138666083436,1.0,-0.008580000000000006,-0.011276571428571438,-0.004290000000000003,0.4300000000000003
0.4636688733693656,0.5367079416214756,-0.1240549578507763,-1.3721036604025714,0.07851694790383806,1.9001507520498009,0.1580384680776123,-0.002623667445286344,-0.051215850659007287,-0.000767497327114625,-0.0726952924487111,-0.009957438991715181,0.01882630744385993,-0.0031845565978088856,0.5747254295644687,0.8183302458989666,0.0026525761217885925,0.0,0.8182965732632604,-0.5746645170903805,-0.011495994262943999,0.0,-0.007883330214510487,0.008777803191732741,-0.9999303992157935,0.0,0.6598600011729502,0.2583892700693381,0.30382686714669127,1.0,-0.008880000000000008,-0.011670857142857155,-0.004440000000000004,0.44500000000000034
0.46354397635478245,0.5358133742123332,-0.12406486000245603,-1.373527864242253,0.0784217870785423,1.9006703040281432,0.15790597136845988,-0.011313254337205472,-0.04861417983203611,-0.003310888711274767,-0.0795219933399025,-0.004185774561820164,0.028912914711863833,-0.008928852969506185,0.5747789591344534,0.8182927046419214,0.0026352546996129813,0.0,0.8182589086127534,-0.574718208353426,-0.011492883193608822,0.0,-0.007890165523251669,0.008762356776418928,-0.9999304807794082,0.0,0.6596966951108055,0.2581636652137546,0.30382570211063686,1.0,-0.009240000000000007,-0.01214400000000001,-0.0046200000000000034,0.46300000000000036
0.4634377987004561,0.5349708434900251,-0.12406203131091152,-1.3748174465895826,0.07835563476722956,1.9011408602527216,0.15784775640870313,-0.008481172889712134,-0.05992710741680278,7.176342347501418e-05,-0.08419550791670255,-0.0008164071692048917,0.023545549618180398,-0.004855128571379076,0.5748692020432625,0.8182292245362894,0.0026614954618155006,0.0,0.8181956455161367,-0.5748082184781953,-0.011495413414234946,0.0,-0.00787618537973478,0.008786152294675192,-0.9999303821925398,0.0,0.6595437990485765,0.25797447087771136,0.3038470921891395,1.0,-0.009560000000000008,-0.01256457142857144,-0.004780000000000004,0.47900000000000037
0.4633098641234066,0.5340229939879817,-0.12406821166499261,-1.3763486428021083,0.07828156149458332,1.901696833073436,0.15771380277444694,-0.00787360605137355,-0.059662671274786985,0.0009680541817530286,-0.07863574307309368,-0.0034957849592025837,0.027501135395326115,-0.0054969559620383,0.5749327081949223,0.818184655962408,0.00264512694148049,0.0,0.8181507120607865,-0.5748715998005351,-0.01152401832736634,0.0,-0.007908318873600884,0.008789816788115079,-0.9999300963634531,0.0,0.6593623762377593,0.2577429311179439,0.30383532279178244,1.0,-0.009920000000000009,-0.0130377142857143,-0.004960000000000004,0.4970000000000004
0.46320089210494025,0.5332071029461785,-0.12406630260826969,-1.3776604068293508,0.07819594700813767,1.9021849324784021,0.15762621928758624,-0.006136853579130156,-0.050728566548282485,0.0017197967489745944,-0.08988670138698653,-0.003143214335412019,0.024966499623695678,-0.005643616526271838,0.5749977098514026,0.818139014055765,0.0026332957887979253,0.0,0.818104954365611,-0.5749366738328423,-0.011526127956862727,0.0,-0.007916149050878452,0.008781978590077372,-0.9999301032753479,0.0,0.6592085029875577,0.2575464658980345,0.3038285644144554,1.0,-0.010220000000000007,-0.013432000000000012,-0.005110000000000003,0.5120000000000003
0.4630541627261062,0.5321684612082322,-0.12407164165866405,-1.3793412663418387,0.07809758622121599,1.9028323173931754,0.157510729458076,-0.012994595168229987,-0.058852663246034775,0.0011048908697359951,-0.09214427750751629,-0.0023620051127387883,0.03534984065382614,-0.012438392919036716,0.5750926559565593,0.818072273226747,0.0026343393216101242,0.0,0.8180382430384391,-0.5750316224341804,-0.011524453501422987,0.0,-0.00791315981230506,0.008782787978682816,-0.9999301198269339,0.0,0.6590180778585609,0.25728876530584804,0.3038170685633903,1.0,-0.010600000000000007,-0.013931428571428582,-0.0053000000000000035,0.5310000000000004
0.46294136278039527,0.5313032117776637,-0.12406761555401517,-1.3807169343450452,0.07802325859581132,1.9033357267872042,0.15739810012156047,-0.003209607182431259,-0.05680722308829834,-0.00014953740514045026,-0.09219802911464493,-0.00373010629812679,0.025150003973261295,-0.0034095840110080758,0.5751449911091415,0.8180354847339687,0.002632834847581208,0.0,0.8180013230745036,-0.5750838317833108,-0.011539877425454613,0.0,-0.007926081072524627,0.00879093434074904,-0.999929945902336,0.0,0.6588528464541058,0.2570869671658447,0.3038156207293159,1.0,-0.010900000000000007,-0.014325714285714298,-0.0054500000000000035,0.5460000000000004
0.462807678254701,0.5302906604918026,-0.12407008707204786,-1.382345309597075,0.07791173257640871,1.9039093121675317,0.1573111842329282,-0.009323138025397467,-0.06199617294989301,-0.0007228480200255799,-0.09356759082464945,-0.012956557962352774,0.0392008212920172,-0.006933557326379284,0.5752434397624582,0.8179664030917084,0.0025875325458941025,0.0,0.8179317253706015,-0.5751824972865978,-0.01155570632338033,0.0,-0.007964029437207365,0.008763937947024944,-0.9999298813550798,0.0,0.6586550706309381,0.2568383668194588,0.303803746016757,1.0,-0.011240000000000009,-0.014772571428571442,-0.005620000000000004,0.5630000000000004
0.46266859218580336,0.5293136054581298,-0.12407304260728144,-1.3839075309089022,0.07782484684659274,1.904471155790594,0.15719583786803795,-0.009802110534328992,-0.05932685904177718,0.0008183241922244498,-0.09824546038712863,-0.006854885018507067,0.037003279111482476,-0.003960375395801237,0.5753340925529901,0.8179027075316606,0.0025670722261617943,0.0,0.8178676910127166,-0.575273126829794,-0.011576547248963872,0.0,-0.007991875540823146,0.008760076399269581,-0.9999296930218738,0.0,0.6584588520401953,0.2565786998926346,0.30379586359257116,1.0,-0.011580000000000009,-0.015219428571428585,-0.005790000000000004,0.5800000000000004
0.46250889539174894,0.5281151917772626,-0.12408402202937076,-1.3857889890843302,0.0776986909368572,1.9051799576016735,0.15704520344584635,-0.010477143693607234,-0.05958947232078974,-0.001601750950397228,-0.10148742904802092,-0.008278754992482542,0.03525041667734482,-0.00278375575040157,0.5754095493701614,0.817849583535956,0.0025799428092544274,0.0,0.8178148750958478,-0.5753486860414172,-0.011552767788955247,0.0,-0.007964212955296923,0.008757657125763513,-0.9999299349222776,0.0,0.6582525447610479,0.25630507707725386,0.3038072311318577,1.0,-0.011940000000000008,-0.01569257142857144,-0.005970000000000004,0.5980000000000004
0.4623839130447802,0.5271299498557399,-0.12408659519675426,-1.3873279564736165,0.07761171425990336,1.9057717154037785,0.1569470424090006,-0.010608202635010618,-0.06293318517814457,-0.0015783505404329443,-0.10165255365631136,-0.0025420390041015085,0.04255077716729731,-0.003421558086193102,0.5754932410214045,0.8177905910727091,0.002612583556024655,0.0,0.8177562821407799,-0.5754322328195122,-0.011539296029156675,0.0,-0.007933515675937308,0.008777412478871247,-0.9999300057299988,0.0,0.6580736306463985,0.25607764209937217,0.3038195877415705,1.0,-0.01224000000000001,-0.01608685714285716,-0.006120000000000005,0.6130000000000004
0.4622321645362612,0.5258957979785347,-0.12409610868304914,-1.3892294539095975,0.07748622763011127,1.9064856951087872,0.15679897288636446,-0.002605005992976365,-0.0718527723987999,0.002544209218464139,-0.10880020145178314,-0.009331381405090879,0.042386674825838286,-0.011635313074387983,0.5755717154670072,0.8177352648070011,0.0026427157619133062,0.0,0.8177014723684939,-0.5755107386764013,-0.011508199500712791,0.0,-0.007889901170963387,0.008784915834982254,-0.9999302849265466,0.0,0.6578507575885234,0.25579090473527777,0.30384505251677413,1.0,-0.012600000000000009,-0.016560000000000016,-0.006300000000000004,0.6310000000000004
0.46209159759168145,0.524816051449362,-0.12409753732550641,-1.3909475038397325,0.07739103745034882,1.9071080150008188,0.15666883882478008,-0.012834692191115361,-0.06958793079017923,-0.0026898831910464704,-0.11014859804262837,-0.006280880845350427,0.04196807626456848,-0.012796444297269607,0.5756480591930774,0.8176815581741308,0.0026321607810557233,0.0,0.817647526443709,-0.5755869933040361,-0.011527468972516339,0.0,-0.007910913590991386,0.008788114091698579,-0.9999300908047858,0.0,0.6576416291085063,0.25553468879904495,0.30384075377489783,1.0,-0.01292000000000001,-0.016980571428571446,-0.006460000000000005,0.6470000000000005
0.46193833191081535,0.5236218021230549,-0.12410360489420887,-1.3928236423524667,0.07725749793718736,1.9077785570215335,0.15653841471820953,-0.012744642966956907,-0.07282487923585383,0.0002145119006696656,-0.11422063709350165,-0.013422729183898544,0.03910292984968269,-0.0038807624583943687,0.5757417395375819,0.817615669407026,0.0026102481775378853,0.0,0.817581517548519,-0.5756809154915477,-0.011519227538446739,0.0,-0.007915783277751276,0.008766359546870606,-0.9999302432246935,0.0,0.6574023896777711,0.25522697730180305,0.30384759832452934,1.0,-0.01328000000000001,-0.0174537142857143,-0.006640000000000005,0.6650000000000005
0.4617890365669976,0.5225062624905499,-0.12410680376646781,-1.394638303513525,0.07715566412313007,1.908461954091398,0.1564080408950116,-0.004014651844810329,-0.0663753860375337,-7.44274939100744e-05,-0.11226804042851043,-0.006695946869291542,0.044142339339752354,-0.008091904839545201,0.5758231983484252,0.8175583474769461,0.002596076994949464,0.0,0.8175239324747516,-0.5757623228943871,-0.011537515654841332,0.0,-0.007938021743253532,0.008766093013738874,-0.9999300692668853,0.0,0.657197038717855,0.2549764491945347,0.30382539940640657,1.0,-0.01358000000000001,-0.017848000000000017,-0.006790000000000005,0.6800000000000005
0.46161586381851516,0.5212108451479672,-0.12410674477298038,-1.3967250359835892,0.0770187930488291,1.9092841241751293,0.15625524250201703,-0.010800314206744065,-0.07366652747987583,0.0007013104511825659,-0.1181881956714698,-0.009080568384874657,0.04857081478218463,-0.007079323730942589,0.5759147101631376,0.8174938368724574,0.002611550203563808,0.0,0.8174597470888597,-0.5758539104687483,-0.011514451288563297,0.0,-0.007909273844291576,0.008766347824816362,-0.9999302948371301,0.0,0.6569552182532715,0.25466565039619155,0.30381356976392926,1.0,-0.01394000000000001,-0.018321142857142873,-0.006970000000000005,0.6980000000000005
0.4614529954857965,0.520018316971844,-0.12411301807376798,-1.3986178183874232,0.07689880572830282,1.909985331120416,0.15611529205750693,-0.011209131337115881,-0.07037018998219087,-0.0012650612626705026,-0.12076846267937293,-0.009728763541749164,0.043807152177453026,-0.004227390051788743,0.5760063626432952,0.8174292793475383,0.002605832115307353,0.0,0.8173951661994061,-0.5759456264407502,-0.01151193115100883,0.0,-0.007909524257469491,0.008761108842766124,-0.9999303387725895,0.0,0.6567294583318829,0.2543742007899295,0.3038111321389302,1.0,-0.01426000000000001,-0.018741714285714303,-0.007130000000000005,0.7140000000000005
0.4612863339540387,0.5186788350840391,-0.12412156410059229,-1.4006986701660329,0.07676431473991413,1.9107266054617835,0.15595941913966568,-0.01169618598674519,-0.07999144027477224,-7.116572564689473e-05,-0.1172403104954147,-0.011193614793190986,0.04464982510158402,-0.011716269173295525,0.5761053855743672,0.817359498055583,0.002604333262771601,0.0,0.8173254119702131,-0.576044693469091,-0.011507778892150308,0.0,-0.007905932236672575,0.008758449779968203,-0.9999303904737173,0.0,0.6564586696308268,0.2540411457145725,0.30383009062395755,1.0,-0.014620000000000011,-0.019214857142857162,-0.007310000000000006,0.7320000000000005
0.4610996928090815,0.5173346609333596,-0.12412170952760601,-1.402803884225214,0.07662642691131756,1.911488839529391,0.1557970991542009,-0.013113470495517317,-0.07662915750200916,0.0005257843096370218,-0.12375755692953481,-0.017006110045342082,0.046432139865177566,-0.011425550280728803,0.5761893516046487,0.8173003443069223,0.0025932979793118977,0.0,0.8172661543789125,-0.5761287283759317,-0.011509480780833393,0.0,-0.007912781483411735,0.008751223423294499,-0.9999303995667856,0.0,0.6562171601018897,0.25373365736289083,0.3038327265883149,1.0,-0.01494000000000001,-0.01963542857142859,-0.007470000000000005,0.7480000000000006
0.4609015705919363,0.5159047612314833,-0.12413201093563216,-1.4050528310641108,0.07648940778043123,1.9123333517093892,0.15562495156448428,-0.012569761171323884,-0.08101377134370434,0.0011566731343595118,-0.12410949494985658,-0.008763618910783363,0.047115554261307355,-0.0037650682002210063,0.5762997810344599,0.8172224290552538,0.0026097375103042034,0.0,0.8171884894348918,-0.57623913206816,-0.011497056565135885,0.0,-0.00789197156019067,0.008758567264456493,-0.9999304997270396,0.0,0.6559505887438205,0.2533846748492869,0.30383872853366056,1.0,-0.015300000000000012,-0.020108571428571448,-0.007650000000000006,0.7660000000000006
0.4607438837204255,0.514698553757058,-0.12414142228452667,-1.4069975505746555,0.07636037111967602,1.9130616907914415,0.15547522330834646,-0.009846325591627696,-0.08197108213052993,-0.00013268471974550727,-0.13112207623814873,-0.013346067202994704,0.04591790862826139,-0.009881166388394553,0.5763806021337107,0.8171654916694505,0.0025899053678761063,0.0,0.8171314109059339,-0.5763201356527338,-0.011493713642704123,0.0,-0.007899803642706038,0.008741214912973985,-0.9999305897232327,0.0,0.6557154229719879,0.25308939220550686,0.3038221946343239,1.0,-0.015600000000000011,-0.020502857142857163,-0.007800000000000006,0.7810000000000006
0.4605290234712397,0.5131351148790395,-0.12414171489347793,-1.4095257998373782,0.07622187929090117,1.9139576344205809,0.1552854410857983,-0.007214800145669244,-0.08091200383740825,-0.00016549618091293595,-0.13327860206484282,-0.0018835170554961814,0.04399382845594977,-0.008394149278569874,0.5764966511506135,0.8170837887534467,0.0025377686358559054,0.0,0.8170488201142987,-0.5764361081818771,-0.011549269897783786,0.0,-0.007974013253963463,0.008731764402478775,-0.9999300832573472,0.0,0.6553966098052626,0.25270729945113274,0.30379216410557736,1.0,-0.01598000000000001,-0.021002285714285734,-0.007990000000000006,0.8000000000000006
0.4603582815838144,0.5118786346103478,-0.12414782486931218,-1.411527292726651,0.07609865504823357,1.9146580449992103,0.15512120128365414,-0.011321487201856575,-0.08380317448049228,-0.00034475796118534904,-0.12800765635154343,-0.0028458677787143536,0.05127181765772776,-0.011168324814662978,0.576577571745511,0.8170268138563082,0.002497218666466604,0.0,0.8169912776354475,-0.5765171097305462,-0.011576759336929518,0.0,-0.008018987898242569,0.008715273452041386,-0.9999298674615856,0.0,0.6551443816827186,0.25239850553468024,0.3037805238452149,1.0,-0.016280000000000013,-0.02139657142857145,-0.008140000000000007,0.8150000000000006
0.46014801959252316,0.5103267319431614,-0.12415110312864651,-1.413989835442834,0.07594339612544773,1.915601246517767,0.15493593589655205,-0.012072026811769413,-0.08743348792323816,-0.00034279107247315265,-0.13317272223695142,-0.0030054612612141584,0.054645973732468614,-0.008875044089376484,0.5766870863730994,0.8169494566949731,0.0025172440291504634,0.0,0.8169142454202648,-0.5766266142210985,-0.011558992281354505,0.0,-0.007991756428572694,0.008722462021178587,-0.9999300227943332,0.0,0.6548488314751226,0.25202592801132057,0.30377684083173734,1.0,-0.016640000000000012,-0.021869714285714305,-0.008320000000000006,0.8330000000000006
0.4599798764569496,0.5090179258460908,-0.12414834549861278,-1.4160869036789774,0.07582093094178277,1.916371072104456,0.15477447039357292,-0.01048435444909403,-0.08942141280019401,-0.0006993476167814615,-0.14023210568941893,-0.00729258161798322,0.04792454397709764,-0.006725228074022144,0.5767666544034735,0.8168933278006162,0.0025028512276186457,0.0,0.8168578322997968,-0.5767061146530906,-0.011579552384341968,0.0,-0.00801600380756523,0.008723341267919349,-0.999929821037497,0.0,0.6545847765611099,0.2517182630654835,0.30376129282522113,1.0,-0.016940000000000014,-0.022264000000000023,-0.008470000000000007,0.8480000000000006
0.45975690929883267,0.5074345828390986,-0.12415129188100503,-1.4185999644964593,0.0756590184354359,1.9172657813791996,0.15457647651431997,-0.015288166461914277,-0.08523216150704621,0.00024842649261323416,-0.14070472236837403,-0.006969511438595289,0.04902666877387638,-0.014329149348264545,0.5768754190497136,0.816816634142706,0.002466573576072044,0.0,0.8167806706336973,-0.5768149925460494,-0.011599454921540062,0.0,-0.008052026134460821,0.008706257660681962,-0.9999296805039222,0.0,0.6542697959088741,0.2513278733200117,0.30375030862071795,1.0,-0.017300000000000013,-0.02273714285714288,-0.008650000000000007,0.8660000000000007
0.45955195903073903,0.5059628526783045,-0.12415472652307226,-1.4208739599340667,0.07551303592695145,1.9181008488673887,0.15439853817417357,-0.018436170669608797,-0.09166052245718233,0.000644213037874909,-0.1478837060212371,-0.007727790700364749,0.05275072514348614,-0.003319460339266398,0.5769778066120418,0.8167442460798439,0.0024887896322091227,0.0,0.8167086069820991,-0.5769173306414052,-0.011584117927707357,0.0,-0.008025590309706288,0.008716562687899415,-0.9999298032537527,0.0,0.6539908960943689,0.25097445086161846,0.30376932821849423,1.0,-0.017620000000000014,-0.02315771428571431,-0.008810000000000007,0.8820000000000007
0.45932770813097346,0.5043512165971193,-0.12415890763297782,-1.4233374722111396,0.07536024587687694,1.919077357421598,0.15419210174472195,-0.008454822194019801,-0.09775726919514506,-0.00013073520612220892,-0.14340210835423994,-0.00586104164883211,0.05772950890913989,-0.015804050926571812,0.5770930406283683,0.8166624793501692,0.0026008039425029017,0.0,0.8166283623714374,-0.5770322538399627,-0.011517061262563202,0.0,-0.00790495623967774,0.008770475026353308,-0.9999302927877827,0.0,0.6536868310997515,0.25057123093347744,0.30381419089147305,1.0,-0.017980000000000013,-0.023630857142857165,-0.008990000000000007,0.9000000000000007
0.45910144505912753,0.5026851078913549,-0.12417032686930661,-1.4258271968623082,0.07519976942026486,1.9200193614459993,0.15399687460340306,-0.013716131965164144,-0.09747873376389553,-0.0012624803333365275,-0.14874230642776579,-0.012051404502643012,0.04969824731050384,-0.007053260050300678,0.577198927394503,0.8165873818094138,0.0026819741777932976,0.0,0.8165544477647858,-0.5771380149460781,-0.01145829135841848,0.0,-0.0078089772342821995,0.008803860927124457,-0.9999307535561301,0.0,0.6534046812882423,0.2502057592346094,0.3038681282568193,1.0,-0.018300000000000014,-0.024051428571428595,-0.009150000000000007,0.9160000000000007
0.4588739639410226,0.5009734297903171,-0.12416567140536548,-1.4283641402282237,0.07503403670244986,1.9209246019149322,0.15380498301553988,-0.011429259589839407,-0.10133910875897957,0.002379405429851985,-0.15096942856512297,-0.00691369181099237,0.04807135431425554,-0.013062181591928946,0.5773089745671852,0.8165093673996617,0.0027473139605043422,0.0,0.8164772730253366,-0.5772478389629143,-0.011425495480011075,0.0,-0.007743292122325995,0.00883933067461097,-0.9999309514463152,0.0,0.6530847613186884,0.24981618934248137,0.303933525771262,1.0,-0.018640000000000014,-0.024498285714285736,-0.009320000000000007,0.9330000000000007
0.45864853399415983,0.49938118515188795,-0.12417382827870582,-1.4308139798758586,0.07487915903965717,1.921805597175484,0.1536072941612132,-0.012259172183310685,-0.09503228325165863,0.0005761611219021977,-0.15460453950490322,-0.015313341828908655,0.0585301971946323,-0.01476114653426151,0.5774200814569015,0.8164307463736266,0.0027627535751271522,0.0,0.816398859430093,-0.5773588936023913,-0.01141740779136052,0.0,-0.007726571177759323,0.008848319762108786,-0.9999310012872,0.0,0.6527785595877775,0.2494294229247696,0.30395482525139106,1.0,-0.018960000000000015,-0.024918857142857166,-0.009480000000000008,0.9490000000000007
0.4583901584839682,0.4976074672843611,-0.12417353635889555,-1.4335880133631642,0.07470913749023968,1.9228459665775945,0.15338868744779485,-0.015389324609197645,-0.09659265850823902,-0.001020687468017652,-0.15033922093880464,-0.007581770570380396,0.056438952597453323,-0.014296327964661269,0.577547214104543,0.8163407099719193,0.0027942125603038813,0.0,0.8163092053498291,-0.5774858868008299,-0.011405205311527975,0.0,-0.007697063275410865,0.008868156728141063,-0.9999310531297544,0.0,0.6524367236583577,0.24899844717248748,0.3039613501109396,1.0,-0.019320000000000014,-0.025392000000000022,-0.009660000000000007,0.9670000000000007
0.45814255823421207,0.4960344086304139,-0.12417234972978271,-1.4361188006806673,0.07455242502427596,1.9237457241825406,0.1531911289789699,-0.013639515814996013,-0.09265086475027262,-3.425569089622221e-05,-0.15438444709434013,-0.002580319823780748,0.053254665650246114,-0.012725790935137265,0.5776726144277944,0.8162521513430288,0.0027427849428093547,0.0,0.8162198998356389,-0.5776113348744076,-0.01144411805744993,0.0,-0.007757171662119811,0.008849839636194817,-0.9999307509153913,0.0,0.6521154618234123,0.24859408033234742,0.3039309886750188,1.0,-0.019640000000000015,-0.025812571428571452,-0.009820000000000008,0.9830000000000008
0.4578629441750746,0.49436538340591096,-0.1241691688993943,-1.438868758546113,0.0743821397677303,1.924688065991545,0.1529671128213492,-0.014897698583953688,-0.09135966304875723,0.0016751050570548275,-0.1596685829152383,-0.011914341840674261,0.060760496632414444,-0.017898874470451107,0.577807833346728,0.816156829982103,0.0026236421121887963,0.0,0.8161228848671358,-0.5777467449824548,-0.011527461105149371,0.0,-0.007892567379384208,0.00880204116118151,-0.9999301132837028,0.0,0.6517591712126539,0.24814621226227357,0.30386627496626023,1.0,-0.019980000000000015,-0.026259428571428597,-0.009990000000000008,1.0000000000000007
0.45759371319943687,0.49259200280968324,-0.1241939408560747,-1.4417007045860002,0.07419832872981211,1.9257294205470445,0.15276484307472282,-0.015534563152435364,-0.10746927851186222,-0.005691576714748981,-0.17248326916629167,-0.015519252553453227,0.06277230441279588,-0.008365349432269702,0.5779724358346027,0.8160403645659033,0.0025949404177878065,0.0,0.8160061782914355,-0.5779115660853575,-0.01152760496303455,0.0,-0.0079074971196878,0.008780294380912296,-0.9999301865229825,0.0,0.651408586800761,0.24768494735521593,0.30384388646915306,1.0,-0.021771999999999892,-0.028614628571428435,-0.01803247718399946,1.0169999999999988
0.45730295575989,0.4906633752693595,-0.12422890946143436,-1.4447574970825963,0.07402058435002945,1.9268430222841681,0.15264501165381567,-0.020610202923690864,-0.11975594224057345,-0.0029252283637371426,-0.1833478680590385,-0.014825954125920587,0.07314364414737552,-0.00277889853244774,0.5782417094600476,0.8158496384333479,0.0025767828983605037,0.0,0.8158152158191312,-0.5781808645330629,-0.011539862520521558,0.0,-0.007925098683758014,0.00877517747650415,-0.9999300920919965,0.0,0.6510276656628609,0.247185062410988,0.30382831323703435,1.0,-0.023675999999999683,-0.031117028571428163,-0.026577609191998523,1.033999999999997
0.4570069209915537,0.48872861502406867,-0.12425962573384136,-1.4479089329611439,0.07383183103600074,1.9279573751384118,0.1526372392146786,-0.019372154252779,-0.11855037443902071,-0.003058448714555163,-0.19770391331248063,-0.010747689169984902,0.0693623379492131,0.0012743457594081762,0.5786044637241435,0.8155927091722948,0.002480766958195756,0.0,0.8155570198279661,-0.5785438713466371,-0.011596690811623145,0.0,-0.008023098426088393,0.00873327211789858,-0.9999296774522497,0.0,0.6506232453218411,0.2466716539698922,0.30377113797193167,1.0,-0.025467999999999488,-0.033472228571427905,-0.03462008637599764,1.0499999999999952
0.4566624559558532,0.486449884237152,-0.12430220889151045,-1.4514539193031528,0.07362229283175101,1.929339359591749,0.1526526778261037,-0.021369469391405667,-0.13448169643929767,-0.0036215667614947523,-0.21219776942483515,-0.0177572914937247,0.08255836195675573,3.5365822346263355e-05,0.5790478261793816,0.8152777303101116,0.0025660004937332684,0.0,0.8152433103624662,-0.5789870738148405,-0.011535170817302348,0.0,-0.00791883922758968,0.00877149920181032,-0.9999301739556818,0.0,0.6501991372152198,0.24609236297107073,0.30378807399721697,1.0,-0.02737199999999928,-0.03597462857142763,-0.0431652183839967,1.0669999999999933
0.4562851461237357,0.48398194837585995,-0.12436639578928943,-1.4552113264949453,0.0733972305786866,1.930712534503929,0.15278532293872082,-0.024387256283002784,-0.14607523514442594,-0.00568110956100377,-0.22646779585046328,-0.01173286457152724,0.08232003730005995,0.005270132406263152,0.5796335171644112,0.8148612511613988,0.002621838382147978,0.0,0.8148277223269832,-0.5795726981622982,-0.011489881352857554,0.0,-0.007843264156738194,0.008796436296250737,-0.9999305505463135,0.0,0.6497376268277649,0.24545369639382977,0.3038337270631056,1.0,-0.029275999999999067,-0.03847702857142736,-0.05171035039199576,1.0839999999999914
0.4558659488278635,0.48137722852865383,-0.12443784757764892,-1.459281088225207,0.07316086009367015,1.9321162797834681,0.15308583731147926,-0.030716336195204204,-0.16097484542693447,-0.002533448795537663,-0.2446120826188916,-0.011563439449113077,0.07872546703424749,0.019960586641866975,0.5804060123224525,0.8143114082871385,0.0025569698031987715,0.0,0.8142770613122586,-0.5803453306268442,-0.01152872679436388,0.0,-0.007904200446187948,0.008773593121939774,-0.9999302714084802,0.0,0.649218991300365,0.24474911091874915,0.30382713249669246,1.0,-0.03117999999999886,-0.040979428571427085,-0.06025548239999482,1.1009999999999895
0.45545279606608907,0.4787633004967415,-0.12447852297921676,-1.4633040042277075,0.07292877449394895,1.9336064353197462,0.15347091394686913,-0.025386911092121215,-0.16568131876402084,-0.004267325868236015,-0.25033651017853537,-0.01352562242815806,0.09392327818013736,0.024995252505762837,0.581218112122919,0.8137317772687905,0.002616811887348321,0.0,0.8136982263711943,-0.5811571591415484,-0.01150215980179188,0.0,-0.007839044901388537,0.008814728507654801,-0.9999304225476742,0.0,0.6487179592694537,0.2440788161102307,0.30385410951913744,1.0,-0.03297199999999866,-0.04333462857142682,-0.06829795958399394,1.1169999999999878
0.45494369219705433,0.47564700986142,-0.12451720430631917,-1.4680311325989819,0.07264427614187458,1.935373548287019,0.1540021500940946,-0.029566209389962603,-0.18161465199244134,-0.004665136720315629,-0.2679988238872567,-0.019412595502272326,0.09735860435872401,0.027381459914748257,0.5822434342065782,0.812998064149169,0.00273457752533601,0.0,0.8129661464036041,-0.5821821098318487,-0.011436026172563875,0.0,-0.007705593383205367,0.008881841108168545,-0.9999308659748141,0.0,0.6481342983081189,0.24328144218308956,0.3039157353442924,1.0,-0.03498799999999844,-0.04598422857142653,-0.07734574641599296,1.1349999999999858
0.45447423477181514,0.47276041908647093,-0.12455487773883651,-1.4724881589822467,0.07237735095116891,1.936965928075273,0.15460187505684087,-0.03253585427967127,-0.1803474983330454,-0.0051736240149166165,-0.28177711810210887,-0.021789838158854075,0.09569480329226196,0.04627040372925448,0.5832805493897627,0.8122542940373718,0.0027403325775364135,0.0,0.8122224496431335,-0.5832190751443613,-0.011443320526466749,0.0,-0.007696820191849418,0.008900597286563047,-0.9999307667668181,0.0,0.6475618370235342,0.24253099592414887,0.30392981963509547,1.0,-0.036779999999998245,-0.04833942857142627,-0.08538822359999207,1.150999999999984
0.45396545301388264,0.4695514921664858,-0.12457545676021996,-1.4774214103141667,0.07208600169666567,1.9387705082219324,0.15536160500958887,-0.021640320672172884,-0.1952769132722633,-0.0011633286076034718,-0.29040603156964784,-0.02041671676894934,0.11359562970620907,0.04321434367695127,0.5844809969520615,0.8113907054108392,0.002798977676477515,0.0,0.8113595573086132,-0.5844191213305346,-0.011432685092548592,0.0,-0.007640745455699316,0.008953336848714091,-0.9999307259846327,0.0,0.6469254017744033,0.241723909412043,0.3039557228250101,1.0,-0.03868399999999804,-0.050841828571426,-0.09393335560799113,1.1679999999999822
0.4534530661611076,0.4663872852943495,-0.12458084690619964,-1.4822110892067404,0.07178414364147175,1.9405972645312206,0.1561589322289614,-0.035661544465626145,-0.20730390727353407,-0.003840592307342709,-0.30814097020304476,-0.023793660885680742,0.11739671165529622,0.048581194791571816,0.5856911069041368,0.8105170954741775,0.002951633228954232,0.0,0.8104880539034782,-0.5856287957647485,-0.011347905185153755,0.0,-0.007469253543251897,0.009038804645506632,-0.9999312527679526,0.0,0.6463218471156629,0.24094003788689564,0.3040180053175443,1.0,-0.04047599999999783,-0.05319702857142575,-0.10197583279199025,1.1839999999999804
0.45285340028179316,0.46269576498683734,-0.12461412051395358,-1.4879979824242608,0.07139750324955413,1.9426068891924297,0.15712678600659646,-0.03666988381119163,-0.2014778771724461,-0.0033953397069701966,-0.3313335172923814,-0.02467383893396136,0.11774349331260862,0.05338644034065712,0.5871491008483248,0.8094619173354074,0.0028433532840316036,0.0,0.8094316375514795,-0.5870871012519208,-0.011397656581747084,0.0,-0.007556818404605592,0.00899379707704552,-0.9999310006744149,0.0,0.6455465532967818,0.23997268516712256,0.30398353670262246,1.0,-0.042491999999997615,-0.05584662857142545,-0.11102361962398925,1.2019999999999784
0.45228148266919355,0.459290921195224,-0.12464616325934941,-1.4932990531599484,0.07104751663308521,1.9444697786132665,0.15811921924989236,-0.04030360211997121,-0.2071206644876834,-0.00016007711503775016,-0.32261067471336213,-0.0293834982334148,0.11158051891095112,0.06191152608083041,0.5885871527318286,0.8084170719028261,0.002783594134980692,0.0,0.8083861724316038,-0.5885253228391372,-0.011423112521519176,0.0,-0.007596569797229169,0.008973889057928952,-0.9999308783323434,0.0,0.6448417265603884,0.23907420236253402,0.30396703475608233,1.0,-0.04428399999999742,-0.058201828571425196,-0.11906609680798837,1.2179999999999767
0.4516188056088824,0.4555957807098205,-0.12467302392821707,-1.4991714507029328,0.07066648372064155,1.9465753575511158,0.1593484420039463,-0.04192915543127266,-0.21630621156804042,-0.0008026129501845755,-0.35347148384990607,-0.03076365795131855,0.12189223470165965,0.07391443062437325,0.5903001328740881,0.8071674390069747,0.002688017292306317,0.0,0.807135437436061,-0.5902385239649703,-0.011472461102979446,0.0,-0.007673773432513908,0.00894196148701086,-0.9999305748531099,0.0,0.6440662456585239,0.23806890061585087,0.3038965853028329,1.0,-0.04618799999999721,-0.06070422857142492,-0.12761122881598744,1.2349999999999748
0.45096916661510833,0.45189502167043616,-0.12475203725098549,-1.5048416836987837,0.07027906582939483,1.948622459566097,0.1605385207985887,-0.04531288488093964,-0.2351377260518456,-0.008825689275176445,-0.35772233707883466,-0.034479446554353345,0.136791795803523,0.07427902868113402,0.591992020596848,0.8059273450647062,0.0027035028802342483,0.0,0.8058960458507632,-0.5919307362588384,-0.011415500662791329,0.0,-0.007599924013460824,0.00893679964570386,-0.9999311850157899,0.0,0.6433328434398261,0.23706112290373807,0.3039189115490437,1.0,-0.04797999999999701,-0.06305942857142466,-0.13565370599998652,1.250999999999973
0.45020038869342544,0.44751689766309954,-0.12481910520816111,-1.5113983204351094,0.0698492123715569,1.9510150001218052,0.16200497284873117,-0.045637547529286164,-0.24743725270743339,0.0005121892492748862,-0.378045277811708,-0.025382974505413138,0.12906980501930115,0.07957786642465244,0.5940169296017372,0.8044355442926228,0.002844174109448495,0.0,0.8044064247811034,-0.5939554255684139,-0.01131384593918886,0.0,-0.007412089878264916,0.00900866139826835,-0.9999319501563334,0.0,0.642483212080967,0.23590573547374413,0.30400950833913476,1.0,-0.04999599999999679,-0.06570902857142437,-0.14470149283198555,1.268999999999971
0.449476186335853,0.4435687552001477,-0.12484847846803054,-1.5175273189036396,0.06944879624956422,1.9530881670927762,0.1633991457380781,-0.04945984004419374,-0.2465388025909727,0.0004508758427864688,-0.38285575937644295,-0.024198846356662376,0.12779682157613792,0.08760857222945034,0.595902515323715,0.8030401754248191,0.0027231940352682466,0.0,0.803009492004424,-0.595841098559643,-0.011396838124802827,0.0,-0.007529672931001485,0.008978328024833893,-0.9999313444689243,0.0,0.6416394057600809,0.23483106225886557,0.30397662783738877,1.0,-0.051787999999996615,-0.06806422857142415,-0.15274397001598478,1.2849999999999695
0.4486541772856819,0.4390265873399663,-0.12488070711622555,-1.524601923511792,0.06896103836423885,1.9556094967454851,0.16507495435246164,-0.04524870342854413,-0.2484874736371408,-0.001275640633483492,-0.39857634218069915,-0.019291981301100512,0.1372650659754499,0.10080249921190335,0.598105509393903,0.8014009397191372,0.002660892923850638,0.0,0.801369783669859,-0.5980443797047904,-0.01140774410848709,0.0,-0.0075509901704715054,0.008955566210197788,-0.9999313878368357,0.0,0.6406801100281669,0.23360609234785726,0.3039348976388929,1.0,-0.053803999999996396,-0.07071382857142386,-0.16179175684798378,1.3029999999999675
0.44790033915764765,0.43506088313195856,-0.1249013015970103,-1.5305804395497455,0.06858579359510045,1.957780584923111,0.16658568617203826,-0.04640406477209621,-0.2749600760297713,-0.003907717310142587,-0.39437621005927825,-0.02169010908795958,0.1527944693912242,0.09648267897678352,0.6000901744727031,0.7999155150285913,0.0027745664657278842,0.0,0.7998858415977371,-0.6000284875190955,-0.011366682815787382,0.0,-0.007427710025240286,0.0090405451651185,-0.9999315464905079,0.0,0.6398844862557821,0.23254812861854474,0.30398542387765337,1.0,-0.05548399999999622,-0.07292182857142361,-0.16933157920798295,1.3179999999999659
0.4469603914514566,0.43022581673515264,-0.12496309071918384,-1.537947994240488,0.06806590815583613,1.9604683152911733,0.16846975853951043,-0.04937380145555094,-0.278837870753335,-0.0013346985394247634,-0.41836376959937777,-0.025875493419229945,0.14567702346384304,0.10886864338214544,0.6025628720307101,0.7980542948548277,0.0028415867177094484,0.0,0.7980260696970229,-0.6025014032109302,-0.011278214131268154,0.0,-0.007288707571192432,0.009063667882044338,-0.9999323600456512,0.0,0.6389094526009901,0.23120888539419607,0.3040092889530895,1.0,-0.057499999999996,-0.07557142857142332,-0.17837936603998195,1.3359999999999639
0.4460957644126027,0.42578513021754316,-0.12504172622250712,-1.5448525240381883,0.06756401703813045,1.9627423299112252,0.17030324764096713,-0.052309082762508376,-0.28317544548750917,-0.0006808423342889066,-0.42632816701750115,-0.023974126170990255,0.14150398008061188,0.10707243046194223,0.6049216311596175,0.7962686358410445,0.0026127824705036093,0.0,0.7962379144644964,-0.6048610114567958,-0.011361658765335507,0.0,-0.007466706035368864,0.00895348200054237,-0.9999320394212036,0.0,0.6379365464107605,0.22993505945477566,0.30394468806727903,1.0,-0.05929199999999579,-0.07792662857142306,-0.18642184322398106,1.3519999999999621
0.44507876254085543,0.42062564879078745,-0.12509530510441963,-1.5527053426328614,0.06701081475555952,1.9654558824647785,0.17245998033245,-0.05534575713466828,-0.2876666443699387,-0.0032639922673978233,-0.43755961723290576,-0.026248913213175407,0.15318308380783063,0.12584808689498855,0.6076570655581763,0.7941832503905681,0.0025695091957304277,0.0,0.7941523486948903,-0.6075966614435295,-0.011361820552846074,0.0,-0.007462286040269717,0.008944844515298589,-0.9999321497199949,0.0,0.6368471414339592,0.2285004271473732,0.3039488756526545,1.0,-0.061307999999995574,-0.08057622857142277,-0.1954696300559801,1.3699999999999601
0.4441404293026436,0.41588508003448577,-0.1251264096355601,-1.559719592428825,0.0665335662643133,1.9680845007499155,0.17443559556210317,-0.06014579016823614,-0.30088656610481973,0.0002654654246809314,-0.44051248889049727,-0.028997768517309157,0.16481758171187416,0.12871847097758904,0.6101471593368747,0.7922709067745929,0.0028286273906384897,0.0,0.7922436737220065,-0.6100861800650396,-0.011205411296114656,0.0,-0.007152152589873451,0.009078086808378016,-0.9999332152965171,0.0,0.6359117776124855,0.22722898361049498,0.3040532704757888,1.0,-0.0630999999999954,-0.08293142857142255,-0.2035121072399793,1.3859999999999586
0.44308264762264365,0.4108016894825626,-0.12515847857992318,-1.567439001395865,0.06601183193499009,1.9707773875422574,0.17666149069826848,-0.060675503881382306,-0.30353164525389054,-0.0005052821033746458,-0.4577132537571752,-0.02977010736881053,0.14134394133505843,0.13727671231073305,0.6129357732083691,0.7901154694948495,0.0028336703408873417,0.0,0.7900884305041378,-0.6128745767772227,-0.011214812742827526,0.0,-0.007124449692432311,0.009112985525320472,-0.9999330956175997,0.0,0.634833359897687,0.2258039016485771,0.30405464065394133,1.0,-0.06500399999999519,-0.08543382857142227,-0.21205723924797837,1.4029999999999567
0.44206724558265925,0.40589019712027086,-0.12522545021715817,-1.5750072737185812,0.06547873767563091,1.9732955851659193,0.17881626435148176,-0.06516968604590866,-0.3142513895179148,-0.005644939386053475,-0.4672987889598074,-0.03075748592543641,0.16044921417287392,0.14471271763844903,0.6156378008221051,0.7880125526890394,0.0026574244362782213,0.0,0.7879835148876755,-0.6155770106092966,-0.011299167039864319,0.0,-0.00726817600684998,0.009050375243159187,-0.9999326298933802,0.0,0.6337427261922742,0.22439030710579716,0.3039917542595582,1.0,-0.066795999999995,-0.08778902857142201,-0.22009971643197748,1.418999999999955
0.44093216063634905,0.40055730741301826,-0.12529103501324848,-1.5830723607486825,0.06493622761576583,1.9761350894287832,0.1813071431680578,-0.067431596065483,-0.3257823543622706,0.0004203285660091488,-0.46618653122710524,-0.03475436174680593,0.17590810546174113,0.14700247199123645,0.6187037799138372,0.7856074674973849,0.00269937657316205,0.0,0.7855791874557337,-0.6186427500396249,-0.0112798475613702,0.0,-0.007191721192749689,0.009099633574197477,-0.9999327356453038,0.0,0.6326125067558175,0.22287137971043564,0.30399779570706587,1.0,-0.06869999999999479,-0.09029142857142175,-0.22864484843997654,1.435999999999953
0.43973791299181775,0.395026600833886,-0.1253150310008757,-1.5911949556174831,0.06434106041264763,1.979074940539895,0.18384619789159942,-0.06847299218123107,-0.3261054820409155,-0.0011262434612810477,-0.47841553237535195,-0.03824239137151924,0.16942069247629424,0.14569648287498385,0.6217955740784101,0.7831617990175543,0.002933857068177454,0.0,0.7831370007230852,-0.6217342107986301,-0.01112457290249999,0.0,-0.006888393841671836,0.009214999636508237,-0.9999338147157448,0.0,0.631487349341047,0.221336901440475,0.3041089470721926,1.0,-0.07060399999999457,-0.09279382857142147,-0.23718998044797562,1.4529999999999512
0.43846144596400677,0.3891098929235353,-0.1253511911930368,-1.6001841458243353,0.06366905563741318,1.9820198551751387,0.18663335339311368,-0.07553892886217184,-0.32978859907193053,-0.002850118522458014,-0.4963467814336916,-0.04458664285406395,0.17446446158991663,0.16186004702405896,0.6251485119597238,0.7804886456116,0.0027493575833900793,0.0,0.7804618386777269,-0.6250875610017514,-0.011207423873107015,0.0,-0.0070288131798281195,0.009152249241048654,-0.9999334138426983,0.0,0.6301531224532331,0.2196420926610498,0.30406094110803494,1.0,-0.07261999999999436,-0.09544342857142118,-0.24623776727997462,1.4709999999999492
0.4373024693071841,0.3837596292310728,-0.12536807723101448,-1.6082818740326572,0.06307279711916963,1.98468674040261,0.18924453160716728,-0.0714730042621446,-0.3458804026647471,-0.0010650469782547932,-0.49123668857690256,-0.04166458713813634,0.16661330133963573,0.16392330829427473,0.6282306054511101,0.7780104045101144,0.0026198759031008656,0.0,0.7779821456768495,-0.6281698046713733,-0.011279379787125697,0.0,-0.007129885168874361,0.009124443943101107,-0.9999329523824124,0.0,0.6289403234858915,0.21812501655753255,0.30402459738925036,1.0,-0.07441199999999418,-0.09779862857142095,-0.25428024446397385,1.4869999999999477
0.4360151821595832,0.3779189858545978,-0.1253601464807426,-1.6168582274683314,0.06246678273211195,1.9877832626440954,0.19208487203964106,-0.07312352102594911,-0.33744842609652015,0.0034243169774529542,-0.5078921551994038,-0.03715039852994785,0.17111232364849202,0.17640785277686036,0.6315737234016863,0.7752980546111273,0.0028818962402910988,0.0,0.7752733220357162,-0.6315121019595501,-0.011157424413541627,0.0,-0.006830508598410834,0.009281172043728345,-0.9999335997943973,0.0,0.6277089093256297,0.2165221661385604,0.3041164827467837,1.0,-0.07631599999999397,-0.10030102857142069,-0.2628253764719729,1.5039999999999458
0.4347477359647063,0.37234709235679886,-0.12540228729435496,-1.6252849182884077,0.061816531779124106,1.9905497223628825,0.19490956571622262,-0.07785192428420504,-0.34651961170439105,-0.003179513065578323,-0.529287121845743,-0.04899203904658513,0.16436003230366328,0.18003999598482606,0.6348871981437507,0.7725875768988362,0.0027255377397851655,0.0,0.772561303206484,-0.6348260628829505,-0.011209352061542152,0.0,-0.006930097181091832,0.009222496673185782,-0.9999334574401306,0.0,0.6264391251007658,0.21489312569748772,0.3040656450220716,1.0,-0.07810799999999378,-0.10265622857142043,-0.27086785365597205,1.519999999999944
0.43334117642818515,0.366302292792989,-0.12546377750737994,-1.6343021861900713,0.06113075380202076,1.993529691995881,0.19789034808723663,-0.08141666999026081,-0.3632333651358096,-0.0009560066509754166,-0.5252146440991746,-0.04074245350978908,0.17978905042857696,0.17523559377356662,0.6386472593465817,0.7694824442926165,0.0026819686368279236,0.0,0.7694560892150724,-0.6385863275978898,-0.011206064255370816,0.0,-0.006910334256946371,0.00922055684773726,-0.9999336121022611,0.0,0.6250107409443012,0.21301705966784976,0.30407509924213827,1.0,-0.08012399999999356,-0.10530582857142014,-0.279915640487971,1.537999999999942
0.43196623287914604,0.3604930473673097,-0.12549445573059043,-1.642765838685437,0.060444970444739975,1.9965325428114837,0.20085819644639816,-0.089959540953947,-0.3572416136336027,0.0017393537170738915,-0.5308867573577052,-0.047690559151910054,0.17775611881791173,0.1895660452909678,0.6421052976711604,0.7665986527108943,0.0028353598855040173,0.0,0.7665749930391313,-0.642044580082201,-0.011058215739180095,0.0,-0.006656914006194559,0.00927423345114467,-0.9999348349216602,0.0,0.6237681358940835,0.21133675410439626,0.304138246014835,1.0,-0.08191599999999336,-0.10766102857141988,-0.28795811767197016,1.5539999999999403
0.43024041738154384,0.35352022751356027,-0.12555519693668485,-1.6532506417192756,0.05968712612357367,1.9999049289797861,0.20453300297475988,-0.0951449615578204,-0.3679661104845415,-0.0020362646075662415,-0.5516367072264902,-0.0460501916271643,0.1748708228197514,0.19150224793893006,0.6461998928472066,0.7631509055504411,0.0026722168715471962,0.0,0.7631252705578553,-0.6461390549858284,-0.011175417631084903,0.0,-0.006802037361265556,0.009260968201154227,-0.9999339811986155,0.0,0.622240706649385,0.2093401582971939,0.30407585444481683,1.0,-0.08393199999999314,-0.11031062857141959,-0.29700590450396913,1.5719999999999383
0.4288494223590536,0.3479419324516683,-0.12564364743802917,-1.6615644448418219,0.05906259896896236,2.0026234978617983,0.2074369924317149,-0.09944576426045179,-0.3795180786058868,-0.007523524365845558,-0.5395846195242556,-0.03643034428713856,0.19645396121209677,0.19608460458723778,0.6496294248603826,0.760233952615712,0.0025873822810506455,0.0,0.7602075946585479,-0.649568761714358,-0.01120641466076311,0.0,-0.006838945878719527,0.009247142407304454,-0.9999338574008618,0.0,0.6209702979756868,0.20763906773617058,0.3040450055068362,1.0,-0.08561199999999294,-0.11251862857141934,-0.3045457268639683,1.5869999999999367
0.42709472402917825,0.3410057611012445,-0.12568900172351863,-1.671515562399163,0.058299278818586514,2.0060512421230956,0.2110442056406686,-0.09515303423768236,-0.37888770588053877,-0.0019780756700255595,-0.556413488502177,-0.04328514570312589,0.19010744914690028,0.20349717285563876,0.6538298399215837,0.756623460333943,0.002868205295070098,0.0,0.7566010941701277,-0.6537686208057458,-0.011050866550942246,0.0,-0.006486327151414284,0.009395654468015602,-0.9999348224945477,0.0,0.6194818319726888,0.20560024555598633,0.3041796417758841,1.0,-0.08762799999999275,-0.11516822857141909,-0.31359351369596744,1.604999999999935
0.4255135168381602,0.33484029628140305,-0.1257062814527582,-1.6807204027993972,0.057548799816730896,2.0089597579277965,0.21445261076235902,-0.09749881658413558,-0.3796195498970412,-0.0061595338463246736,-0.580633547899503,-0.045980775709601865,0.17950051728109,0.21883504223832909,0.6576805147636202,0.7532794936779474,0.0026630444538220353,0.0,0.7532549890825022,-0.6576197672693362,-0.011131487777993311,0.0,-0.0066339785279827534,0.009327093708362127,-0.999934495680515,0.0,0.6180171950786961,0.20373635043730476,0.304107492543653,1.0,-0.08941999999999256,-0.11752342857141883,-0.3216359908799666,1.6209999999999332
0.4238028639824025,0.32808777196616373,-0.1257043217739085,-1.690425998482319,0.05673591636105853,2.0121734402425,0.21804945269044917,-0.10528946667972618,-0.39981335736169277,0.0014443868855631378,-0.566758849626994,-0.04720914875917331,0.209460398999713,0.2088486114756068,0.6617286894783961,0.7497253406092946,0.002793218697059975,0.0,0.7497030745044516,-0.6616679603049415,-0.011025302067494455,0.0,-0.006417888594146548,0.009390024120237747,-0.9999353169845612,0.0,0.6164980008567222,0.20177114671813418,0.30419555656050357,1.0,-0.09132399999999234,-0.12002582857141855,-0.33018112288796564,1.6379999999999313
0.4220253042416541,0.3213704451268254,-0.1257071804985503,-1.700296848458809,0.055964493494098044,2.015456220168333,0.22184350147076404,-0.10423198168351426,-0.3973440087074042,-0.0011349353695750226,-0.5874155113459697,-0.05314412143208486,0.18417658863645628,0.2303421250654504,0.6659698463877439,0.7459603991386059,0.002827281461862884,0.0,0.7459388555749562,-0.6659088593653639,-0.01101642698214199,0.0,-0.006335228468085541,0.009445769143415675,-0.9999353190709621,0.0,0.6149401577423905,0.1997606499952142,0.304177909389459,1.0,-0.09322799999999214,-0.12252822857141828,-0.3387262548959647,1.6549999999999294
0.42007443321228416,0.3140916683127788,-0.12577744137384247,-1.7109767262593996,0.055090655725294486,2.0187451919860195,0.2258868985063898,-0.10757783087674867,-0.39996070573741876,-0.006486669731240197,-0.5878983202922328,-0.05309731536850938,0.182485011741794,0.22825075801221575,0.6705341076309221,0.7418610767244116,0.002626831952764674,0.0,0.7418375038735889,-0.6704735089908345,-0.011096778331054427,0.0,-0.006471171274048615,0.009389631594230757,-0.9999349772664554,0.0,0.6132011341566573,0.1975165845812493,0.3041311296709122,1.0,-0.09524399999999192,-0.125177828571418,-0.34777404172796367,1.6729999999999274
0.4184121171205637,0.30783953552228405,-0.1258086741803125,-1.719807796032234,0.05433353925857182,2.02169111169247,0.22939712088431422,-0.10909512433470091,-0.4079038738688311,-0.0019532956980456676,-0.5873523268846487,-0.059846602755673384,0.1940663886801664,0.23298999392055714,0.6744126453840918,0.7383360945061955,0.002853453447619959,0.0,0.7383160043706319,-0.674352037603083,-0.010934073896008624,0.0,-0.006148907656339686,0.009481010587970212,-0.9999361486479347,0.0,0.6118049510938807,0.19566418645867742,0.30425018807998416,1.0,-0.09692399999999174,-0.12738582857141775,-0.35531386408796284,1.6879999999999258
0.41627453981513063,0.30036736499866307,-0.12582006828063502,-1.7307120682433008,0.053433953445967144,2.0250570232483933,0.23364059920262714,-0.12470418458685557,-0.41279978010778695,-0.002308964586875483,-0.6198286168155948,-0.056078685260267026,0.1854373055305529,0.2413149033257233,0.6791551373476914,0.7339766774856676,0.0026987446242576303,0.0,0.7339550144572626,-0.6790945938451863,-0.011014366277242026,0.0,-0.006251705444980715,0.009461402752853454,-0.9999356969510478,0.0,0.6100089293441153,0.1933369661625728,0.3042011475541504,1.0,-0.09893999999999151,-0.13003542857141745,-0.36436165091996187,1.7059999999999238
0.4143271982472473,0.29365611862919555,-0.12592816503025642,-1.7404452926939986,0.0526466551077177,2.028093407654268,0.2375242778937251,-0.12575508277854203,-0.4239913967873968,-0.009133661263864548,-0.6089660274447259,-0.05191553744942619,0.20644925693685265,0.23178594655738566,0.6835290790749691,0.729905383506547,0.0026222296417466665,0.0,0.7298831869636171,-0.6834686248661668,-0.0110416988092109,0.0,-0.006267304381603389,0.009461425708115478,-0.9999355990859402,0.0,0.6084194537668836,0.19119125446314217,0.3041761816333954,1.0,-0.10073199999999131,-0.1323906285714172,-0.372404128103961,1.721999999999922
0.4120715094224937,0.28590809396210864,-0.12597910035831258,-1.7513735217776272,0.05172918275971075,2.031651910630272,0.24199848531364843,-0.12982970944478006,-0.4225128639876012,-0.0011759070637940032,-0.6234074851531217,-0.04866440709195018,0.18832107013659163,0.24319083219525495,0.6884757868227043,0.7252404399485699,0.0028534406023385025,0.0,0.7252216619289069,-0.6884150359187668,-0.010909917105334356,0.0,-0.005948076185422646,0.009580775158719523,-0.9999364125468431,0.0,0.6066503698497873,0.18879766377652363,0.3042799071024128,1.0,-0.1027479999999911,-0.1350402285714169,-0.38145191493596,1.73999999999992
0.4101418079182841,0.2794660712529194,-0.126026755828402,-1.7608097508604648,0.05091110533228029,2.03444822761956,0.24575923131948169,-0.1304152580827626,-0.43032395298139703,-0.00023822907695072266,-0.635113425357902,-0.06290225943240892,0.181351203735779,0.25217739696818814,0.6926205945505834,0.721284139143419,0.0025786674352762835,0.0,0.7212624323583088,-0.6925603594052661,-0.011018128254521304,0.0,-0.006161436934026487,0.009491461229132386,-0.9999359723795536,0.0,0.6050398237289243,0.18672687033647184,0.304176268423898,1.0,-0.1044279999999909,-0.13724822857141666,-0.38899173729595915,1.7549999999999184
0.40789167824171324,0.2719621113805712,-0.12608474894302688,-1.7713346724793582,0.049966153072958694,2.0378183959442095,0.25014429861981746,-0.13707280983339196,-0.43546908794575756,-0.004155708772934219,-0.6086811194114843,-0.05776924439499712,0.20008033250093454,0.26122939444658644,0.6976930235666606,0.7163780751737856,0.0027649914866682435,0.0,0.7163594905171594,-0.6976329899057889,-0.010864559002250604,0.0,-0.005854295301061685,0.009561038992300805,-0.9999371549052047,0.0,0.6031974159442409,0.18424137820767594,0.3042691530008607,1.0,-0.10644399999999068,-0.13989782857141636,-0.3980395241279582,1.7729999999999164
0.40553178232182013,0.26443252705388326,-0.12613618603558396,-1.7820316030652184,0.04903325505987008,2.0410735057187206,0.25464596192815614,-0.13726533122810622,-0.4480595337753384,-0.004921135597987728,-0.6331515248298264,-0.04846071772855435,0.18847196214329748,0.2644302009891799,0.7023216083209695,0.7118410024429129,0.0027372664693994866,0.0,0.7118225550460496,-0.7022616387693048,-0.010862216255113782,0.0,-0.005810005531853513,0.009577401596970625,-0.9999372566388205,0.0,0.6014895552305662,0.18195618073777328,0.3042732204930791,1.0,-0.10823599999999049,-0.1422530285714161,-0.40608200131195726,1.7889999999999147
0.4032655246416681,0.2572905896854056,-0.12626082109040762,-1.792238103675745,0.04811417596719373,2.044050918451675,0.25894001850633586,-0.14397358157741155,-0.4554894068182223,-0.010033836882203854,-0.6232742971593748,-0.06370934228144219,0.19951287049609806,0.2753324567208104,0.707021448873195,0.7071739261612596,0.002540844766161382,0.0,0.7071537571695152,-0.706962108102647,-0.010903592495480952,0.0,-0.005914569215830112,0.009506024707286176,-0.9999373247185324,0.0,0.5997280447996368,0.17959200648746682,0.3042262003313134,1.0,-0.11002799999999029,-0.14460822857141586,-0.4141244784959564,1.804999999999913
0.4010994440126592,0.2504667053597899,-0.12627555895947867,-1.8017290259478724,0.047259871365325744,2.047091244538551,0.26308825614025333,-0.13839715660430513,-0.44121988913437515,-0.00026157425854191226,-0.6450346365334165,-0.05521187338561996,0.1964648685565539,0.2762298959415531,0.7114395356199078,0.7027281445383967,0.0027728923096195825,0.0,0.7027113560890429,-0.7113800565638476,-0.01076624576738082,0.0,-0.005593271311498393,0.009608260793091114,-0.9999381964104421,0.0,0.5981244758356522,0.17744428611651958,0.3043052930541556,1.0,-0.1117079999999901,-0.1468162285714156,-0.4216643008559556,1.8199999999999112
0.3985560297639717,0.24269231490168017,-0.12627449107594324,-1.8128230018759164,0.046294711689746054,2.0502139703728144,0.2678254044499526,-0.1453367540359034,-0.4578738531382867,-0.00042923857710492046,-0.6471207044950076,-0.057126878844762266,0.18303639244095035,0.2865640291756486,0.7164865768961497,0.6975825913279955,0.0025020601441294275,0.0,0.6975627050421964,-0.7164269522809731,-0.010928928621687959,0.0,-0.005831399297380302,0.009575958866494844,-0.9999371459216934,0.0,0.596132092434586,0.17492996764444455,0.30421900632321963,1.0,-0.1136119999999899,-0.14931862857141534,-0.43020943286395463,1.8369999999999094
0.39598800370978654,0.2347122213156216,-0.1262769902087631,-1.8236862831391627,0.045320394330397855,2.053634848912403,0.27265775886990845,-0.15367498205590047,-0.4731698710018547,0.003468448264303748,-0.6383163887754902,-0.052559106465838716,0.2172704111653093,0.28654922837334135,0.7215652045376909,0.6923265851406721,0.002881320729150454,0.0,0.6923117697590396,-0.7215049978845489,-0.01075631823310022,0.0,-0.005368101116999313,0.009756345059056329,-0.9999379966885377,0.0,0.5942569635201459,0.1724519536311263,0.3043762774656228,1.0,-0.1155159999999897,-0.15182102857141508,-0.4387545648719537,1.8539999999999075
0.3933807521777055,0.22678010121739228,-0.12625760788000862,-1.8348500183541998,0.04427788508926188,2.056846460891342,0.2775341535019247,-0.1518393743871137,-0.47643404904502074,-0.0003119081213356601,-0.658286310807732,-0.06171364896795262,0.19053508285932097,0.28728077745551867,0.7266226494952515,0.6870172821837028,0.002743377959277248,0.0,0.6870013124811218,-0.7265626217909984,-0.010802785132313341,0.0,-0.00542856871573022,0.009734440031560238,-0.9999378837302699,0.0,0.5922292025261915,0.16992673953693224,0.30432815223723375,1.0,-0.11741999999998948,-0.1543234285714148,-0.44729969687995275,1.8709999999999056
0.3906167584838401,0.21873676189983554,-0.12628714492451798,-1.8460392625223079,0.04320610195707133,2.0600331871633837,0.28258080290678755,-0.157595622624442,-0.48661132468240154,-0.004341697352441853,-0.6406582201491177,-0.060611817212522345,0.19473700800604968,0.2969994345242297,0.7318775573882008,0.6814168853955391,0.002648809266857688,0.0,0.6814004462514409,-0.7318179014181105,-0.010804532083274636,0.0,-0.005424048991163721,0.009712681365515119,-0.9999381198420398,0.0,0.5902029871919499,0.16728852290359464,0.30431730776035915,1.0,-0.11932399999998927,-0.15682582857141453,-0.4558448288879518,1.8879999999999038
0.38757150205183544,0.21007509846818803,-0.12631390793245018,-1.8578887852868715,0.04213644579516172,2.0634992552287743,0.2879192543083234,-0.17023344362169257,-0.47676587337253973,-0.0014522237797672327,-0.6529622880225904,-0.06299397548246814,0.18170650562290436,0.3018821215969686,0.7377919038109956,0.6750082635805352,0.0027744675427085978,0.0,0.674993711886151,-0.7377316949155788,-0.010778781580088688,0.0,-0.005229054670624955,0.009825435097969654,-0.9999380569877252,0.0,0.5879412191893509,0.1642986167290656,0.30437254800737734,1.0,-0.12145199999998907,-0.15962262857141424,-0.4653952705439509,1.9069999999999019
0.3846181438944321,0.20190376719674016,-0.12635539739401208,-1.8693341457485215,0.04101519525588327,2.066597337590962,0.2930977695463635,-0.18040491062046504,-0.4774680335304388,-0.004687770368068103,-0.6684498816814176,-0.06528640874992007,0.18864198401073778,0.3044353822984775,0.7428360250363306,0.6694543744286549,0.0024954694489762947,0.0,0.6694371433068067,-0.7427764454413704,-0.010854038875608308,0.0,-0.00541281209188238,0.009733518433470784,-0.9999379781187248,0.0,0.5859323823789376,0.16170244995091332,0.3042842770251751,1.0,-0.12324399999998886,-0.161977828571414,-0.47343774772795,1.9229999999999001
0.38144773351685635,0.19304515156094476,-0.12642114892503453,-1.8812660495427902,0.03986355876011854,2.070135209518256,0.2986318658117778,-0.18070549134232594,-0.48325472594207836,-0.0007628236796496917,-0.6846189153899103,-0.06070740625743893,0.1888457847086477,0.30770547363355644,0.7485313640062812,0.6630790304435195,0.0027826940519742197,0.0,0.6630659443138807,-0.7484717032897157,-0.010696250134597515,0.0,-0.005009787865755733,0.00985177803956741,-0.9999389203821397,0.0,0.5837665899527588,0.15880100877056716,0.30439471892677034,1.0,-0.12525999999998866,-0.1646274285714137,-0.482485534559949,1.9409999999998981
0.3786367731937642,0.18564538504916892,-0.12649070623041136,-1.8914858374863315,0.038906235706797125,2.0728249953157705,0.30334799082800834,-0.1860167992598186,-0.48535315272476653,-0.008280921437674105,-0.6773633366554374,-0.057519445461317736,0.1723413909050159,0.31510316653427917,0.7534214791412869,0.6575182462162219,0.002564675906869102,0.0,0.6575028838102625,-0.7533617159845334,-0.010808772882983125,0.0,-0.005174936381186823,0.009830032716595535,-0.9999382933412648,0.0,0.5818299112588801,0.15625374178198523,0.3043298053814758,1.0,-0.12693999999998848,-0.16683542857141345,-0.4900253569199482,1.9559999999998965
0.3751905297197992,0.1766094800166883,-0.1266306003226201,-1.9035337353004844,0.03770380042909298,2.0762711208882574,0.3090747470341693,-0.1921531619811443,-0.49902964250375326,-0.0009567953840971229,-0.6729519240635123,-0.06427845524957426,0.19705729700550384,0.3218681034132039,0.7590057025016421,0.6510631003726818,0.002815990821702025,0.0,0.6510514964750664,-0.7589460895285648,-0.01065500014473082,0.0,-0.004799984620998787,0.009920751913752343,-0.9999392675703378,0.0,0.5797445004493772,0.15333957831353076,0.3044449278267921,1.0,-0.12884399999998825,-0.1693378285714132,-0.49857048892794725,1.9729999999998946
0.3720756660740222,0.16860500473994014,-0.126620053113073,-1.9144643904764953,0.03656137297877156,2.079194257636801,0.3142475491480965,-0.19694267070279425,-0.4982257692211254,0.002504443690088677,-0.7005613113669076,-0.07061186802431865,0.1785088964869298,0.3197668732984131,0.7645065168459935,0.6445955423184933,0.0026682249422093586,0.0,0.644583005511868,-0.7644475645835405,-0.01064973749860507,0.0,-0.004825148158684067,0.009861876044687523,-0.9999397288567574,0.0,0.5775122746028095,0.15045146398588627,0.30439366835547393,1.0,-0.13074799999998804,-0.1718402285714129,-0.5071156209359463,1.9899999999998927
0.3686959683991275,0.15994729444410555,-0.12664634198921457,-1.9260186060113413,0.03541373687461641,2.0822523144962353,0.31976662997259675,-0.2042587636528651,-0.5198383563241302,-0.0024472331175619064,-0.6706432733289761,-0.05993775032395215,0.1868131404338253,0.3320036754178483,0.7700428290840464,0.6379714153837384,0.002694704198219727,0.0,0.6379596678671862,-0.769983682188552,-0.010646043366286509,0.0,-0.004717083912154918,0.009917212884702695,-0.9999396971857678,0.0,0.5752777948810646,0.14753843478099765,0.3044342295430721,1.0,-0.13265199999998784,-0.17434262857141264,-0.5156607529439454,2.006999999999891
0.3654403765192663,0.1517671521550377,-0.12663146441949008,-1.9369629855271104,0.034256749018400985,2.0852136083099237,0.3250112699809563,-0.20563156086043183,-0.5116924938851282,0.002556701765968873,-0.6852897130927341,-0.06228669495473781,0.17464716177852535,0.33039624515477456,0.7752236719520453,0.6316656737967085,0.002735304982221053,0.0,0.6316551345772083,-0.7751649397140993,-0.010576109941460222,0.0,-0.00456034089137114,0.00992681134232136,-0.9999403290734545,0.0,0.5731528994078027,0.1447832413495892,0.3044459035805419,1.0,-0.13444399999998763,-0.17669782857141236,-0.5237032301279445,2.022999999999889
0.36161423700039014,0.1424503704530146,-0.12665792713661814,-1.9494640634120617,0.03298992763170071,2.0883104256230727,0.3310062513144757,-0.21822543244266812,-0.5234619849618666,-0.0021725695025532226,-0.6763274802966183,-0.0724779079343034,0.17349606546007953,0.3235358271294369,0.7811799957979473,0.6242853544833056,0.00252135756698309,0.0,0.6242728066477141,-0.7811211922593224,-0.010672056257754164,0.0,-0.004693012950145903,0.0099110026450039,-0.9999398720203232,0.0,0.5706559790488925,0.14156775875307465,0.30439563942056963,1.0,-0.13645999999998742,-0.1793474285714121,-0.5327510169599435,2.040999999999887
0.3581391455147967,0.13407973218731287,-0.1267047397274402,-1.960373658415558,0.03186840886500106,2.0913092620146454,0.3364122088976286,-0.22138750942811763,-0.5181921133752055,0.0001598689425481067,-0.7082055588124588,-0.0655059140265147,0.19062460884467064,0.3478386324214163,0.7865133299466012,0.6175512617339625,0.0028227377327954746,0.0,0.6175428101755966,-0.7864543804778668,-0.010541912957816176,0.0,-0.004290299794857622,0.010034709655614774,-0.9999404471916303,0.0,0.5685403752087897,0.13870567593879932,0.3044969637127652,1.0,-0.13825199999998722,-0.18170262857141184,-0.5407934941439426,2.0569999999998854
0.35433862949355727,0.12517296289335836,-0.12673485181537691,-1.972284772772511,0.030574381292835063,2.0942022494020476,0.34227155197540854,-0.23099245711383695,-0.5125097074460018,-0.002935394904929707,-0.6943627103505867,-0.07319709532047998,0.16040117636784915,0.3466188681324579,0.7922031752590838,0.6102362610694293,0.002565479806352594,0.0,0.610225576618496,-0.792144787628729,-0.010589049743393388,0.0,-0.004429675952306256,0.00995439187671747,-0.9999406422649908,0.0,0.5661169654350752,0.1355841660463495,0.3044163692762302,1.0,-0.140155999999987,-0.18420502857141155,-0.5493386261519417,2.0739999999998835
0.35063938229102964,0.11659399296818763,-0.12684320033541474,-1.9832692080816974,0.029382043270344296,2.097066718531764,0.3477935646082691,-0.23209318661170367,-0.5240799733400856,-0.006089748284468139,-0.7036200692291615,-0.0735477421918835,0.1735930062869953,0.33856537549742666,0.7976182596986077,0.6031398807772962,0.0028535788970380513,0.0,0.6031332420988307,-0.7975601030385023,-0.010436532842624371,0.0,-0.004018865870900168,0.010045650864885333,-0.9999414650947387,0.0,0.5639423527003271,0.13258510289380282,0.3045496004683685,1.0,-0.1419479999999868,-0.1865602285714113,-0.5573811033359408,2.0899999999998817
0.3463616354160128,0.10701643659120057,-0.12688156615102927,-1.9959586573900279,0.027998038620059736,2.100049033185329,0.3541301341268116,-0.23531900644179066,-0.5257259657408501,-0.003275315069151109,-0.7056249167065055,-0.07148530206490028,0.16525843021841208,0.35545254317644415,0.8033693072871668,0.5954592917604574,0.002595162091324749,0.0,0.5954503704368228,-0.8033115180066616,-0.010498013416428382,0.0,-0.004166496252746732,0.009979264126628487,-0.9999415255886048,0.0,0.5614620955282155,0.1293618419331934,0.30445850018550535,1.0,-0.1438519999999866,-0.189062628571411,-0.5659262353439399,2.10699999999988
0.3425332025727331,0.09833088305397053,-0.12687214066426755,-2.007012136209705,0.026752004060887284,2.1027913407546985,0.35969578112663725,-0.24069200607959457,-0.5440361915806281,0.0017123971648562413,-0.6880170924907124,-0.06578486481920906,0.176141520675082,0.35293086013842395,0.8089850269627674,0.5878062816605261,0.0027835753421205024,0.0,0.5878002422640922,-0.8089275313580988,-0.010386101596596975,0.0,-0.0038533792200841077,0.01003858021439645,-0.9999421875167911,0.0,0.5590368479362872,0.12620421902322984,0.30456137836466135,1.0,-0.1457559999999864,-0.19156502857141075,-0.5744713673519389,2.123999999999878
0.33811192362985265,0.08862268061802572,-0.12685934776983146,-2.0197033011924286,0.025467189688302885,2.1057464096135634,0.36609409779494395,-0.2530873201023103,-0.5475905825685986,-0.001019991209493835,-0.7061863472388463,-0.06977454561524435,0.16117190300685158,0.35130689264800163,0.8150157659186439,0.5794161301324011,0.002645060991209437,0.0,0.5794087664788785,-0.8149573769624413,-0.010521500041840126,0.0,-0.003940790742562816,0.01010795455083896,-0.9999411479797806,0.0,0.5563462151998821,0.12281602976231783,0.30448784772284276,1.0,-0.1477719999999862,-0.19421462857141045,-0.583519154183938,2.141999999999876
0.3342236189036107,0.08036200596351546,-0.12690831510918815,-2.03017575620274,0.024242648066543367,2.108153430234915,0.37146134916939444,-0.26467416068135685,-0.5556973880097223,-0.0048695923342134285,-0.6793419050529621,-0.08330322235828175,0.16129337563014523,0.35855148887212956,0.8200908960619047,0.572210155018317,0.0026846957936464007,0.0,0.5722039945312973,-0.8200330551822061,-0.010446241054678852,0.0,-0.003775978618647313,0.010103255363209704,-0.9999418314164767,0.0,0.5541407612035045,0.11985743907554786,0.30454419338224814,1.0,-0.149451999999986,-0.1964226285714102,-0.5910589765439371,2.1569999999998744
0.3292258585406732,0.0699004391536544,-0.12694694407815446,-2.043511719807301,0.022757225298069055,2.1112506700812896,0.37832783709046425,-0.26549670434032663,-0.5500802957839617,-0.0009572593605256517,-0.6985523572347612,-0.07769881143664147,0.15486964069798648,0.36150202762762906,0.8265028937036525,0.5629087123532052,0.002737728539168564,0.0,0.5629038406582363,-0.8264450645211315,-0.010419616215497805,0.0,-0.0036027798725628557,0.010153116341720073,-0.9999419654188644,0.0,0.5513022362466542,0.11612187644867318,0.3045569412208802,1.0,-0.15157999999998575,-0.1992194285714099,-0.6006094181999361,2.1759999999998723
0.32482070455679635,0.0609957232767096,-0.12706358344633625,-2.054867682762741,0.02142934754518609,2.113675768675724,0.3841845789974484,-0.27212792721417584,-0.5638110771108554,-0.011856843650071048,-0.6797168526101284,-0.08313337061708839,0.16132354008744554,0.37238513662080985,0.8319863090445505,0.5547728830821577,0.0025645000183826113,0.0,0.5547667794903894,-0.8319289352842285,-0.010431390699229468,0.0,-0.003653641266854857,0.010101668150669582,-0.9999423019385003,0.0,0.5488378343750323,0.11282670062928958,0.3045217117287667,1.0,-0.15337199999998558,-0.20157462857140965,-0.6086518953839352,2.1919999999998705
0.3197876412418618,0.05090427692389762,-0.12714781693619973,-2.0674708557442267,0.019956126250963397,2.116575932149109,0.3907639484731612,-0.2745119156822456,-0.5635095456157384,-0.0023916203375576395,-0.7121997555295352,-0.08204595545786693,0.14899952872357647,0.3694174616184775,0.8380657748014684,0.5455445291233619,0.0027696121014252474,0.0,0.54554152898432,-0.8380087819074339,-0.01031835746024915,0.0,-0.003308227892145188,0.010158596244564305,-0.9999429276466502,0.0,0.5461274909377021,0.10916012386634552,0.3045882668016695,1.0,-0.15538799999998534,-0.20422422857140937,-0.6176996822159342,2.2099999999998685
0.31555135155882885,0.042462177732013134,-0.12713137092272603,-2.0782050696779115,0.018757403301408036,2.1187095082114085,0.3963281485010623,-0.27956160445460604,-0.5615466561785668,0.0008371777920280845,-0.7171077113660755,-0.0866438134004788,0.14447796469840632,0.37264949065810166,0.8430742175888868,0.5377734862639189,0.002507590406240952,0.0,0.5377679311106667,-0.8430168159301342,-0.010442568131444827,0.0,-0.0035018628113799855,0.010152557130059053,-0.9999423296073486,0.0,0.5437000866305034,0.1061356558215705,0.3045069861321975,1.0,-0.15706799999998516,-0.2064322285714091,-0.6252395045759334,2.224999999999867
0.31088365264787776,0.033319267643815875,-0.12714473225608658,-2.089335344573486,0.017388013404428547,2.1211606177778677,0.4022176226528647,-0.2937675917202171,-0.569857827977714,-0.0007128900302312739,-0.7030235576525516,-0.08624260291752849,0.1463633056092387,0.3667298646347892,0.8483734962675817,0.5293726008047838,0.0027941455056567457,0.0,0.5293710448306992,-0.8483167108625679,-0.010286003469607863,0.0,-0.0030748672842867975,0.010205708943392747,-0.9999431927345406,0.0,0.5412507253732198,0.102858056652267,0.3046338544529458,1.0,-0.15885999999998496,-0.20878742857140886,-0.6332819817599326,2.240999999999865
0.30574191347370133,0.023626286118806218,-0.1271756578410271,-2.101475178758003,0.015937632884236597,2.1235402022693903,0.40855077609009194,-0.30193144424414486,-0.5794192656352639,-0.0013427479564403994,-0.7084272372919918,-0.08472015995005,0.14124566057072463,0.3668049433083808,0.8540483511548508,0.5201687227724584,0.002580821605380041,0.0,0.5201654652503659,-0.8539917433893901,-0.01033140284904244,0.0,-0.0031701333171684776,0.010166167569660475,-0.9999432980382923,0.0,0.5384833660149977,0.09927483346990634,0.3045658291657542,1.0,-0.15998000000000004,-0.21025942857142865,-0.6383085300000002,2.2579999999998632
0.3004838735595581,0.013865262816815757,-0.12721804265888748,-2.113249562742561,0.0144819007685379,2.126004810848739,0.41485954135801095,-0.31423080629070854,-0.5680947255045143,-0.0015755228220913106,-0.6926669316330487,-0.08587467576604856,0.14317685667835675,0.3614945684888322,0.8596642366297721,0.510832649516763,0.002855056679596386,0.0,0.5108331982652216,-0.859608164788022,-0.010197719406918392,0.0,-0.0027551510361458753,0.010225269272299276,-0.999943924933332,0.0,0.5358370813138924,0.09568535728451556,0.3046807181171063,1.0,-0.15998000000000004,-0.21025942857142865,-0.6383085300000002,2.2749999999998614
0.2954359889141982,0.00480883341243851,-0.12730806173989154,-2.124442345282203,0.01316904847159956,2.1280453307142144,0.42077738952469956,-0.3148077660135378,-0.5687727951701081,-0.006336581069159957,-0.6856859322614668,-0.07572450784621006,0.11847495210105254,0.3580779066757064,0.8649288518996949,0.5018683558058203,0.0026422515865299747,0.0,0.5018670472715905,-0.8648724106651264,-0.010292086007998337,0.0,-0.0028801172346018533,0.010228178060554066,-0.999943543055445,0.0,0.5332290934643711,0.09225183257520923,0.30461699712556933,1.0,-0.15998000000000004,-0.21025942857142865,-0.6383085300000002,2.2909999999998596
0.29008790777895765,-0.004845408339960716,-0.12729384035742697,-2.1360033812004406,0.011766328950576097,2.130313861575241,0.4269433906673502,-0.31276944987662764,-0.5818275549069091,0.0021099611426086584,-0.6652739111050371,-0.08432617527696463,0.14691670067446436,0.35096161966781453,0.8702875852749686,0.49251612166898273,0.002852317236232419,0.0,0.4925177447191057,-0.8702312026823354,-0.010230929384479823,0.0,-0.0025567714283681875,0.010308866159168886,-0.9999435935083416,0.0,0.5305482221971388,0.08872897304790425,0.3046989626272452,1.0,-0.15998000000000004,-0.21025942857142865,-0.6383085300000002,2.3079999999998577
0.2846893295019671,-0.014388435693939884,-0.1272746708072444,-2.147530619311088,0.010297133170664045,2.132438267698619,0.4331310447932948,-0.3162849315500527,-0.5599391534084274,0.000763534646434377,-0.6734812928816065,-0.0893508547951252,0.12762731557640938,0.35855550313177126,0.8755524436393431,0.4830948512643372,0.0028337290397483406,0.0,0.4830970047094949,-0.8754966070307766,-0.010184400793381404,0.0,-0.0024391583883082157,0.01028614105299814,-0.9999441213430851,0.0,0.5278189456021581,0.08520698015023179,0.30469598744659804,1.0,-0.15998000000000004,-0.21025942857142865,-0.6383085300000002,2.324999999999856
0.2787729400642231,-0.024456405792944245,-0.1272994763668472,-2.1596227289879906,0.008758142860685873,2.13445825520289,0.4395059820941504,-0.3214762164205277,-0.5702500426610314,-0.0003601162139867045,-0.6446436578514906,-0.08065949124598347,0.12215801642847644,0.3525890206850669,0.881043385235697,0.4730075307537126,0.002678821365225518,0.0,0.4730086971458195,-0.8809877963020084,-0.010199122146227676,0.0,-0.002464300096419181,0.010253172311335955,-0.9999443982955196,0.0,0.5249040550571752,0.08139108539722574,0.30467462251982264,1.0,-0.15998000000000004,-0.21025942857142865,-0.6383085300000002,2.342999999999854
0.27306426777765314,-0.03391261247858801,-0.12735680785933828,-2.1707904864588325,0.007304592951764298,2.1365152225049457,0.44545347875949143,-0.33368163855576427,-0.5453781550221745,0.0008487904293296136,-0.6650104279025721,-0.08689613613410058,0.1050640357476383,0.3308707860070235,0.8864388714858003,0.46281617858910146,0.0028388124929251573,0.0,0.4628198482881636,-0.8863839357958896,-0.010102143075506767,0.0,-0.002159199034573289,0.010268988784590018,-0.999944941348708,0.0,0.5220798053779899,0.07755330915098296,0.30471732933525825,1.0,-0.15998000000000004,-0.21025942857142865,-0.6383085300000002,2.360999999999852
0.26663961747679826,-0.044392770221452806,-0.12736922762501424,-2.183355054513037,0.005815812183216809,2.1384423630882585,0.45207855217696225,-0.33809132434894984,-0.5498288002891384,0.0004539497388211949,-0.6414218134544144,-0.08525537500264584,0.09671341394996834,0.35907030326237493,0.8917494321308536,0.45250079820542966,0.002593225589342638,0.0,0.45250224319578936,-0.8916935171349403,-0.010253697065282731,0.0,-0.0023274884714772903,0.01031736757279509,-0.999944065797574,0.0,0.5191252366924277,0.07376103852068541,0.30463534671443665,1.0,-0.15998000000000004,-0.21025942857142865,-0.6383085300000002,2.37899999999985
0.26124380114476653,-0.05325221988611214,-0.12734675073706747,-2.1934622603508624,0.004436215578288373,2.1402083390838382,0.4575841349146969,-0.3373763824548625,-0.5513211531287945,0.003419601069817059,-0.6302034854886828,-0.08586022565580972,0.10383131518723497,0.33977283901977834,0.8962690618896898,0.4434792106556876,0.002950477383797247,0.0,0.44348526270046107,-0.8962142182922497,-0.010081845045602318,0.0,-0.0018268640734622754,0.01034473820705098,-0.9999448229572894,0.0,0.5166596278270841,0.07046292668487848,0.30477809545944573,1.0,-0.15998000000000004,-0.21025942857142865,-0.6383085300000002,2.394999999999848
0.2553798722794688,-0.06252314600069228,-0.12734032991353905,-2.204506605784295,0.0030340462030777273,2.1417374180870072,0.46337800896593156,-0.3432005414270498,-0.5432351498153035,0.002306020664916703,-0.6480566272892223,-0.08081577731102202,0.09433224404221617,0.335039849099108,0.9010196279700473,0.43374838087171874,0.0025921043744765817,0.0,0.4337511175513227,-0.9009644178111497,-0.010189836230436749,0.0,-0.002084471290175416,0.010305769036652118,-0.9999447215241468,0.0,0.5138374423632269,0.06690483096626133,0.3046601549550625,1.0,-0.15998000000000004,-0.21025942857142865,-0.6383085300000002,2.4119999999998463
0.24940103419580367,-0.0718527198345435,-0.12738108880086543,-2.215146184551934,0.0015892464869469336,2.143329241535649,0.4690507411874465,-0.35099702222265877,-0.5513240265428722,-0.004873508177466422,-0.6135623298014741,-0.08603647361643046,0.09260708950631397,0.34036534782131034,0.9056660353468038,0.4239603064906574,0.0027272405024087428,0.0,0.42396518995918026,-0.9056114421924797,-0.010108430844674509,0.0,-0.0018157881940050746,0.010311316049128369,-0.9999451883351255,0.0,0.5111504835368033,0.06331723169921889,0.30473496599445077,1.0,-0.15998000000000004,-0.21025942857142865,-0.6383085300000002,2.4289999999998444
0.24323608804829652,-0.08102866183916899,-0.1274666515222146,-2.225716910332808,0.00020991038037154958,2.1448882458691165,0.47470420321340173,-0.35106991660612324,-0.5355900408095545,-0.0018945473545741486,-0.6224955821875492,-0.0904527509176131,0.0872513465588878,0.32357166606762966,0.910302930313856,0.4139102239974757,0.0027655801515419445,0.0,0.41391611586679933,-0.9102483800996493,-0.010103586141331276,0.0,-0.0016646447995300462,0.010342241385772014,-0.9999451319951559,0.0,0.5084583978410959,0.05966163072308214,0.30473271982207734,1.0,-0.15998000000000004,-0.21025942857142865,-0.6383085300000002,2.4459999999998425
0.23716805073789266,-0.09016683251732074,-0.12742950585872395,-2.236264785807333,-0.0011501823404813317,2.1462130921551887,0.4802058260778244,-0.35832205919254123,-0.5433217166878799,0.0027451223632612557,-0.6021931413228769,-0.08004804362706397,0.07340129455207431,0.3162615465003862,0.9146767547902439,0.40415413999118066,0.0025714345383478715,0.0,0.40415848414960814,-0.9146218396483242,-0.010176297431489512,0.0,-0.001760936452202544,0.010347489016752032,-0.9999449127696283,0.0,0.5056801646854678,0.05615582589206299,0.3046754683287386,1.0,-0.15998000000000004,-0.21025942857142865,-0.6383085300000002,2.4629999999998407
0.23136659058106862,-0.09879981957162147,-0.1274325894433931,-2.245861040136177,-0.0025311632650226023,2.147565440765665,0.48534986614275666,-0.3668105943183115,-0.5338005682195689,0.0004620024031307072,-0.6010236749492228,-0.0937979492851983,0.07902461510311501,0.3136156262804995,0.918957786638807,0.394321461425824,0.002813953822574625,0.0,0.394329130382864,-0.9189041146040305,-0.010025567140329785,0.0,-0.0013675688704664068,0.01032289570060034,-0.999945782320091,0.0,0.503029452295958,0.05261974849915954,0.3047708133229704,1.0,-0.15998000000000004,-0.21025942857142865,-0.6383085300000002,2.4799999999998388
0.22543226655931983,-0.10735459584716092,-0.12743724432246387,-2.255591992387399,-0.0038415724725277506,2.1487158954363306,0.4904529669775865,-0.3648821336670932,-0.5346696825938823,-0.0005222410321689571,-0.6037553037078653,-0.07687964317656086,0.06868272516071873,0.31455956324387574,0.9226938252386478,0.38549925544111047,0.0026787724854773006,0.0,0.3855060012300951,-0.9226400898359473,-0.010056567222731938,0.0,-0.0014052833460648229,0.010312013886815803,-0.9999458423076297,0.0,0.5005788390695577,0.049470834986483886,0.30472985795968766,1.0,-0.15998000000000004,-0.21025942857142865,-0.6383085300000002,2.494999999999837
0.21933042159131333,-0.11587918968850812,-0.1275094359688439,-2.2650662554033607,-0.005174394999102422,2.1497802793973078,0.49548131393187056,-0.37808163809284007,-0.5449275120331913,-0.008063789729227912,-0.5665542827504582,-0.08392077210418675,0.07688548364687398,0.3140565790697431,0.9266340583709055,0.37592940426050664,0.002674281326723081,0.0,0.37593669811744224,-0.9265807089695957,-0.010026747985512565,0.0,-0.0012914367733244392,0.010296684912975078,-0.9999461537857242,0.0,0.49802810817691906,0.0460353780076565,0.30475683415674526,1.0,-0.15998000000000004,-0.21025942857142865,-0.6383085300000002,2.5109999999998354
0.21361504934924663,-0.12378512986059123,-0.12753250870753685,-2.273827870059603,-0.006353711576809072,2.1508875094016395,0.5001213463447094,-0.37391875372159455,-0.5283262307285135,-1.0766523638739952e-05,-0.5915340350810362,-0.08398347589806616,0.05724552557220633,0.2975886412020892,0.9302036154277568,0.3670068249919052,0.002823323520147009,0.0,0.3670162000020244,-0.9301504504223532,-0.00999977081615461,0.0,-0.0010438885920210361,0.010338227479291674,-0.9999460142173645,0.0,0.4956721468238414,0.042886535631141615,0.3047836163139467,1.0,-0.15998000000000004,-0.21025942857142865,-0.6383085300000002,2.5259999999998337
0.20712889433173384,-0.13273599038602268,-0.1275125040383111,-2.2837899270217563,-0.007725403942659418,2.151869029753921,0.5053092265867446,-0.3873930989775941,-0.5249370801958144,0.0006133273166570049,-0.585160703326891,-0.08150532160175779,0.052731670114809254,0.3010491148046578,0.9340953326574672,0.35698663580080275,0.0026829588832119537,0.0,0.3569951078249345,-0.9340421718802827,-0.010023025463197957,0.0,-0.001072110039752605,0.01032046320097986,-0.9999461678607404,0.0,0.4929045498531745,0.03936521309064122,0.3047471642105736,1.0,-0.15998000000000004,-0.21025942857142865,-0.6383085300000002,2.542999999999832
0.2004847677405857,-0.14169164249661684,-0.12753105824082497,-2.293443457487991,-0.009108604157077219,2.152853887079273,0.5104535508556485,-0.3815786845896665,-0.5286629131855627,-0.0008376720280283477,-0.5552077752372767,-0.0705419130136901,0.06560859957568647,0.30474337930322193,0.937926596122759,0.3467943816604788,0.0028467587725734098,0.0,0.34680518393721854,-0.9378741027882544,-0.009953824119760361,0.0,-0.0007820440078579738,0.010323425832736089,-0.9999464062069756,0.0,0.49022511685878783,0.03579443408167107,0.30482770177350615,1.0,-0.15998000000000004,-0.21025942857142865,-0.6383085300000002,2.55999999999983
0.19372568636201407,-0.15051829327130206,-0.12759263544747082,-2.3030768907154244,-0.010447851377508442,2.153742372476657,0.5153850681910216,-0.4045094244783835,-0.511560855551599,-0.00598050008557585,-0.5699340864037603,-0.08434905219779823,0.042234416330427196,0.2845760739013553,0.9416325568398085,0.33660199009308617,0.0028240159183222477,0.0,0.3366131170486483,-0.9415800635588358,-0.009966957436439513,0.0,-0.0006958740181448597,0.010336011415898433,-0.9999463398739762,0.0,0.48750473251557186,0.03219288367151033,0.3048205084577191,1.0,-0.15998000000000004,-0.21025942857142865,-0.6383085300000002,2.576999999999828
0.18768628051119218,-0.1582528048859011,-0.12763284263704663,-2.3115655153313073,-0.011691812781946233,2.154405661761364,0.5198006266423234,-0.40206906374635487,-0.508683501884527,0.0007760461803887791,-0.5584810857355667,-0.07289426059373823,0.04108514595392214,0.2841602142929095,0.9448373928204172,0.32749980093003744,0.00263218926195524,0.0,0.327509458958609,-0.944785179921448,-0.009963181953809882,0.0,-0.0007761016434204016,0.0102758515844785,-0.9999469008604671,0.0,0.48505965290205516,0.029011505130221972,0.30476230297280976,1.0,-0.15998000000000004,-0.21025942857142865,-0.6383085300000002,2.5919999999998264
0.17928552068431947,-0.16912472333155723,-0.12759916418574993,-2.3229955057725,-0.01329231727895872,2.155470297256877,0.5257098109671483,-0.4007665320700847,-0.5051137008620771,0.00028601571485017935,-0.5377544630406009,-0.07623152387831095,0.04937403136602617,0.2892814929569367,0.9488644844948365,0.3156387916481707,0.0030149912834576444,0.0,0.31565308262243785,-0.948812960308336,-0.009891647137501701,0.0,-0.0002615297801886185,0.01033772298783553,-0.9999465301132859,0.0,0.48194486695371797,0.02491061960531056,0.304891750983174,1.0,-0.15998000000000004,-0.21025942857142865,-0.6383085300000002,2.6119999999998242
0.17269980727350093,-0.17726693552785186,-0.12761372773013246,-2.3317920865587993,-0.014529339297535106,2.1559786808499237,0.5302302739666744,-0.4132043147697316,-0.5056263674677708,-0.0010173503172582537,-0.5382568340433768,-0.08819165657287474,0.03266420347059914,0.28285254277406213,0.9522465956011552,0.30528587555090086,0.002775293919258601,0.0,0.30529823343372287,-0.9521946615965371,-0.009952989024043455,0.0,-0.00039589453647070894,0.010325191036933124,-0.9999466154238268,0.0,0.4791670937884,0.02135715454548502,0.3048256427519013,1.0,-0.15998000000000004,-0.21025942857142865,-0.6383085300000002,2.6289999999998224
0.16591426695178652,-0.18541569999192314,-0.1277294943272501,-2.3404268341312267,-0.015842266703800026,2.156517940211476,0.5345991075129326,-0.41666956845393727,-0.5125481685231172,-0.009634775618450806,-0.5264422733570662,-0.0728685744388788,0.025534603326126153,0.2658015652668434,0.9553553568357647,0.29541405798093917,0.0027245942176494487,0.0,0.2954264413756696,-0.9553039400614154,-0.009916992510414793,0.0,-0.0003268097013784388,0.01027936700210626,-0.9999471125061841,0.0,0.4765947024319048,0.017894956863682306,0.30481936105825813,1.0,-0.15998000000000004,-0.21025942857142865,-0.6383085300000002,2.6449999999998206
