nelsonifechukwu/NELSON_IML_WORK/CNN-GradCAM/train2dof/data_sample_2022-02-21-10-16-28/robot_state.csv
position_joint1,position_joint2,position_joint3,position_joint4,position_joint5,position_joint6,position_joint7,velocity_joint1,velocity_joint2,velocity_joint3,velocity_joint4,velocity_joint5,velocity_joint6,velocity_joint7,ee_T_00,ee_T_10,ee_T_20,ee_T_30,ee_T_01,ee_T_11,ee_T_21,ee_T_31,ee_T_02,ee_T_12,ee_T_22,ee_T_32,ee_T_03,ee_T_13,ee_T_23,ee_T_33,v_x,v_y,time
0.465091405521,0.547657136014,-0.123941998021,-1.35575172996,0.0794547611232,1.89408863661,0.159164855482,0.000434522721736,-0.000924650105235,0.000417538690827,0.00132269967706,0.00158841025101,0.000195745685376,-1.77604067803e-05,0.573746640871,0.819018400961,0.00209711152728,0.0,0.818977414682,-0.573687726158,-0.0117955075047,0.0,-0.00845781339052,0.00848528315308,-0.999928230106,0.0,0.661683868402,0.260932297008,0.30333828261,1.0,0.0,0.0,0.0
0.465091405521,0.547659642382,-0.123941997369,-1.35576003763,0.0794549980701,1.89408876066,0.159163251712,-0.00594935266622,0.000150666823736,0.000277318240645,-0.00171665599015,0.00119795488101,-0.000649396539611,-0.000283107632298,0.573745849492,0.819018977818,0.00208831637923,0.0,0.818977866249,-0.573686958508,-0.011801488602,0.0,-0.00846776629026,0.00848150329075,-0.999928177939,0.0,0.66168190811,0.260931323233,0.303332563843,1.0,-0.0,-0.0,0.001
0.46508790408,0.547650026572,-0.123944132888,-1.35575249808,0.0794553699941,1.89408697404,0.159169564651,-0.000517687631536,-0.00358322483749,0.000147406489404,0.000568402108379,0.000251638058,2.84999636329e-05,0.000214553026468,0.573755035569,0.819012509832,0.00210114232099,0.0,0.818971579229,-0.573696107293,-0.0117930400418,0.0,-0.00845339290681,0.00848725535944,-0.999928250748,0.0,0.661684918777,0.260928733351,0.303342880827,1.0,-0.00032,-0.000420571428571,0.017
0.465085169186,0.547653910813,-0.123942153032,-1.35576350321,0.0794543913023,1.8940916151,0.15916753804,1.14319754336e-05,-0.00049120091505,0.00143523746874,-0.000317308638747,-0.000269741913573,8.0490216213e-05,0.00103594783877,0.573754613933,0.819012827597,0.00209239643761,0.0,0.818971776395,-0.573695713147,-0.0117985205206,0.0,-0.00846290372374,0.00848323254225,-0.999928204436,0.0,0.661683532002,0.260926867056,0.303335226723,1.0,-0.00064,-0.000841142857143,0.033
0.465084344357,0.547609827508,-0.123944630121,-1.35580592165,0.0794544044665,1.89409394556,0.159169049976,0.000226457101727,-0.00111600755167,0.00157312704258,-0.0069198242102,-0.000262747410517,0.00155907823722,-0.00290203767707,0.57376051474,0.819008680637,0.00209753868202,0.0,0.818967669195,-0.573701565835,-0.0117990284597,0.0,-0.00846030839247,0.00848779642432,-0.999928187668,0.0,0.661676221464,0.260920592228,0.303346549981,1.0,-0.001,-0.00131428571429,0.051
0.465078620666,0.547466451027,-0.123942731681,-1.35595065684,0.0794516408786,1.89412464764,0.159157840361,-0.00157087404848,-0.00852490611156,-0.000884329232355,-0.00752553442386,0.000143669555893,0.00418600219234,-0.00187549488042,0.57376181766,0.819007687931,0.00212852205492,0.0,0.818966988144,-0.573702655425,-0.0117933197515,0.0,-0.00843784324233,0.00850990971554,-0.999928189541,0.0,0.66165416661,0.260904247585,0.303381825231,1.0,-0.00134,-0.00176114285714,0.068
0.465074384347,0.547358649276,-0.123948036405,-1.35611980002,0.0794492524481,1.89416379567,0.159161114708,-0.00313303215675,-0.00566306358181,2.7020193661e-05,-0.012855939909,-3.98062325983e-05,0.00534507182508,-0.00124784834843,0.573781690053,0.818993804197,0.00211370503406,0.0,0.818952829301,-0.573722500493,-0.0118111265216,0.0,-0.00846072219947,0.00850819666411,-0.999928010793,0.0,0.661628598986,0.260875200413,0.303381153253,1.0,-0.00166,-0.00218171428571,0.084
0.465048314757,0.547184915466,-0.12394050245,-1.35634521441,0.0794422362707,1.89429006761,0.159151280785,-0.000759174500652,-0.00623194923653,0.0014049733325,-0.0109182001646,-0.0043181192009,0.00239884581819,-0.00318947208565,0.573799385823,0.818981230093,0.00218093708164,0.0,0.818941100372,-0.573739902522,-0.0117790185067,0.0,-0.00839566607983,0.00854501711625,-0.999928245162,0.0,0.661612054877,0.260852068812,0.303407728962,1.0,-0.002,-0.00262857142857,0.101
0.465020526416,0.546939819595,-0.123940707198,-1.35662149286,0.0794388873884,1.89443769395,0.159135640258,-0.000516652168554,-0.00654530336171,-0.000163217702738,-0.015276927172,-0.00217478636702,0.00972733492431,-0.000343220095876,0.573824226407,0.818963536008,0.00228708960384,0.0,0.818924733509,-0.573764282725,-0.0117292633116,0.0,-0.00829374831068,0.00860365533744,-0.999928592877,0.0,0.661592099397,0.260813490263,0.303462653761,1.0,-0.00242,-0.00318057142857,0.122
0.464999890333,0.546771846273,-0.123940648887,-1.35683537084,0.079433201993,1.89453662027,0.159120880724,-0.00252863396209,-0.0126030711259,-0.000138892820988,-0.0197653058173,-0.000424989667559,0.00975710337705,-0.00036922856583,0.57383952957,0.818952675124,0.00233604597841,0.0,0.818914473226,-0.573779365286,-0.0117077928682,0.0,-0.00824791210828,0.00863158239833,-0.999928731326,0.0,0.66157289637,0.260782493769,0.303488401782,1.0,-0.00266,-0.003496,0.134
0.464960200432,0.546526699284,-0.12394027596,-1.35719900101,0.0794259473739,1.89465814894,0.159069263734,-0.00236182381111,-0.0133758520844,0.0011830898158,-0.0244298147112,-0.000121381819445,0.00730341538808,-0.0115363266959,0.573847811573,0.818946838842,0.00234759548664,0.0,0.818908638685,-0.5737874483,-0.0117197509575,0.0,-0.00825099103193,0.00864798616385,-0.99992856419,0.0,0.661530853163,0.260723585171,0.303499463883,1.0,-0.003,-0.00394285714286,0.151
0.464925368914,0.546237130796,-0.123945596459,-1.3576446914,0.0794116678588,1.89482057761,0.158950902567,0.00211792870802,-0.0197516618623,-0.000734792834875,-0.0276867050601,-0.000412441437945,0.00407262403223,0.000341495873244,0.57380424362,0.818977332103,0.00235932337857,0.0,0.818939188781,-0.573743742148,-0.0117247740418,0.0,-0.00824883595578,0.00866003420689,-0.999928477699,0.0,0.661479718387,0.260657078784,0.303506637205,1.0,-0.00336,-0.004416,0.169
0.46487638179,0.54596914304,-0.123943099927,-1.35810693852,0.0793933597747,1.89497899248,0.158933955938,-0.00275175375762,-0.0105696034794,-8.91719620041e-05,-0.0302944773289,-0.00804519597868,0.0103036230457,0.00108128298545,0.573849698412,0.818945556431,0.00233369557855,0.0,0.818906965717,-0.573789167008,-0.0117524561427,0.0,-0.00828573201914,0.00865538962128,-0.999928212861,0.0,0.661425497633,0.260582557466,0.303490015363,1.0,-0.00368,-0.00483657142857,0.185
0.464819267518,0.545630305368,-0.123945993794,-1.35865568618,0.0793149569928,1.89516537861,0.158839640461,-0.00909175781339,-0.0204497557672,0.000383910715626,-0.0330283927347,-0.0131310887766,0.01060466814,-0.0103215292199,0.573831018572,0.818958773545,0.00228828747921,0.0,0.818919975073,-0.573771057601,-0.0117300804344,0.0,-0.0082936588377,0.00860517400528,-0.999928580551,0.0,0.661365540737,0.260482373166,0.303484861621,1.0,-0.00402,-0.00528342857143,0.202
0.46476453826,0.545271780016,-0.123947977268,-1.3592815662,0.079249009274,1.89537491383,0.158772699392,-0.00274328040109,-0.0246474033909,0.000461679874708,-0.0414462847646,-0.000216973653543,0.0103275288164,-0.00714231906133,0.573839769091,0.818952823986,0.00222225020922,0.0,0.818913390541,-0.573780285709,-0.0117383740032,0.0,-0.00833825171617,0.00855594100935,-0.999928632169,0.0,0.661291412094,0.26037898732,0.303458911079,1.0,-0.00436,-0.00573028571429,0.219
0.464701694889,0.544857789688,-0.123951915211,-1.35997654452,0.0792384598266,1.895607159,0.158682265958,-0.00692824542551,-0.0279928547418,0.000155010149646,-0.0393116298181,-0.000540767009731,0.0132321521932,-0.00391076640559,0.573855802107,0.818941657749,0.00219692792292,0.0,0.818901596535,-0.57379610804,-0.0117876414833,0.0,-0.00839296355599,0.00856363911847,-0.99992810854,0.0,0.661206779768,0.260272148085,0.303441442125,1.0,-0.0047,-0.00617714285714,0.236
0.464636680078,0.544464883762,-0.123952001403,-1.36065783004,0.0792154795667,1.89584035245,0.158602095747,-0.00571823389173,-0.0244119872375,-0.00120808458511,-0.0426555465817,-0.0002425313069,0.017331702391,-0.00309666563642,0.573875291595,0.818928101265,0.00215906398107,0.0,0.81888735315,-0.573815545239,-0.0118308831098,0.0,-0.00844990085264,0.00855764644439,-0.999927680316,0.0,0.661125221383,0.260165507395,0.303415466086,1.0,-0.00502,-0.00659771428571,0.252
0.464575319566,0.543994262186,-0.123953030814,-1.36142204851,0.0791808103831,1.89611696957,0.158491860037,-0.004828114257,-0.024691122742,0.000310853743606,-0.0436619305445,-0.000134576321853,0.0190517520365,-0.00965305631368,0.573869347961,0.818932289688,0.00215018100603,0.0,0.818891311049,-0.573809521186,-0.0118490922215,0.0,-0.00846997296336,0.00856076019126,-0.999927483842,0.0,0.661035130994,0.260052977022,0.303408755242,1.0,-0.00536,-0.00704457142857,0.269
0.464505713191,0.543518752825,-0.123955613164,-1.36220829131,0.0791397351147,1.89639012895,0.158415280043,-0.00226425656338,-0.031909225994,7.40393895186e-05,-0.0471329877434,5.10550750977e-06,0.0131716369145,-0.0043904291765,0.573898223883,0.818912131777,0.0021203664973,0.0,0.818870689528,-0.573838436442,-0.0118739039597,0.0,-0.00850709999671,0.00855088299973,-0.999927253179,0.0,0.660942162599,0.259930277427,0.303394710812,1.0,-0.00568,-0.00746514285714,0.285
0.464421918275,0.542951932735,-0.123958496084,-1.36312097296,0.0790774717428,1.89671108107,0.158294382652,0.000774441927212,-0.0330291932203,-0.000136012717626,-0.0560056648463,-0.00804873159725,0.0178921977405,-0.00758904909905,0.573903963854,0.818908176175,0.00209431769364,0.0,0.818866441119,-0.573844327102,-0.0118822036258,0.0,-0.00852878557805,0.00853437454968,-0.999927209485,0.0,0.660836836738,0.259784041203,0.303389147648,1.0,-0.00604,-0.00793828571429,0.303
0.464357430212,0.542363635625,-0.123964666347,-1.36402670606,0.0790261634671,1.89703180914,0.158167210722,-0.00778222609587,-0.032014264048,-0.00017801369608,-0.0523727778215,-0.00227823694409,0.0229529305265,-0.00633947086361,0.573893505248,0.818915496129,0.00209803143412,0.0,0.818873781454,-0.57383382679,-0.0118834414332,0.0,-0.00852777711655,0.00853801717586,-0.999927186989,0.0,0.660728617473,0.259651532942,0.303402114575,1.0,-0.00638,-0.00838514285714,0.32
0.464275217221,0.541841371894,-0.123965725184,-1.36486131638,0.0789797443691,1.89734500433,0.158052904426,-0.00389444827283,-0.0340172205409,-0.000822258509517,-0.0543827300288,-0.0032378857853,0.0208543790225,-0.00576702693488,0.573909962369,0.818903949187,0.00210333070353,0.0,0.818862277779,-0.573850234691,-0.0118838157877,0.0,-0.00852487099231,0.00854274291662,-0.999927171407,0.0,0.660631222695,0.259509514587,0.303403099082,1.0,-0.0067,-0.00880571428571,0.336
0.464192959975,0.541119219995,-0.123970437915,-1.36596993138,0.0789177855452,1.89775319407,0.157915859679,-0.00439827796709,-0.036049163882,4.15580960512e-07,-0.0636563438509,-0.00379331503236,0.0210159000272,-0.00929632873104,0.573905348689,0.818907139934,0.00211986132953,0.0,0.818865643394,-0.57384551444,-0.011879836969,0.0,-0.00851217428575,0.00855394827961,-0.999927183778,0.0,0.660507099106,0.259356632309,0.303419770051,1.0,-0.00706,-0.00927885714286,0.354
0.464114721198,0.540453644507,-0.123966244558,-1.36696189057,0.0788553906585,1.89812678121,0.157793137233,-0.00405370111728,-0.0416940467808,0.0012998067831,-0.0584158635376,-0.00313779980907,0.0252614380962,-0.012250894155,0.57390425961,0.818907798789,0.00215981121545,0.0,0.818866827213,-0.573844270622,-0.0118582994907,0.0,-0.00847162174667,0.00857429142849,-0.999927353937,0.0,0.660392909756,0.259213643439,0.303450301771,1.0,-0.00738,-0.00969942857143,0.37
0.464016853393,0.539769582604,-0.123969032176,-1.36799879874,0.0787893430593,1.89852143535,0.157658623989,-0.00792620728329,-0.0399390426808,0.000662682225488,-0.0604990403728,-0.00246991436447,0.0196617392691,-0.0093169700194,0.573915973077,0.818899502743,0.00219252275441,0.0,0.818859009377,-0.57385590664,-0.0118350360425,0.0,-0.00843367537147,0.00858784858014,-0.999927558364,0.0,0.660279735737,0.259049397992,0.303474458134,1.0,-0.0077,-0.01012,0.386
0.46391955677,0.53902356577,-0.12398023425,-1.36915663071,0.0787293161292,1.89895885512,0.157522299479,-0.00526315657941,-0.0415893888734,-0.00147131122072,-0.0680680310529,-0.00225160394693,0.025501719302,-0.0107056913325,0.57393473989,0.818886263597,0.0022245316302,0.0,0.818846192952,-0.573874552394,-0.0118176691036,0.0,-0.00840088654616,0.00860428575871,-0.999927693072,0.0,0.660145666622,0.258860070037,0.30349215429,1.0,-0.00806,-0.0105931428571,0.404
0.463793128667,0.538179116944,-0.123977936441,-1.370486534,0.0786578839669,1.89947724989,0.157343986899,-0.0048647246126,-0.0427306741452,0.000208915038054,-0.0682570448163,-0.0037228142078,0.0236553130195,-0.0149991088866,0.573950284197,0.818875304846,0.00224795135115,0.0,0.818835435054,-0.573889897266,-0.0118179108577,0.0,-0.00838748027122,0.0086237615521,-0.999927637838,0.0,0.660004019272,0.258665711184,0.303497074481,1.0,-0.00842,-0.0110662857143,0.422
0.463706035911,0.537479814041,-0.123986727549,-1.37158657597,0.0785847179001,1.89989124557,0.157212178237,-0.000128193292858,-0.0408231418863,-0.00036747942039,-0.0770994656311,-0.00853460398218,0.0275565794638,-0.0165238158496,0.573960938941,0.818867824575,0.00225240909369,0.0,0.818828113325,-0.573900636892,-0.0118036733324,0.0,-0.00837315049941,0.00861934926664,-0.999927795978,0.0,0.659878806393,0.258497995476,0.303503465471,1.0,-0.00872,-0.0114605714286,0.437
0.463583699299,0.536643682875,-0.123989622875,-1.37288937524,0.0785166099269,1.90038024885,0.157064262524,-0.00670336259708,-0.0505207018197,0.000181569013748,-0.0782976216997,-0.00748014456273,0.0355804590025,-0.00715287460346,0.573995554514,0.818843496582,0.00227561074636,0.0,0.818804006572,-0.57393507577,-0.0118014628332,0.0,-0.00835765917587,0.0086374326969,-0.999927769536,0.0,0.65973240064,0.258294088257,0.303516167008,1.0,-0.00906,-0.0119074285714,0.454
0.463469101776,0.535781606809,-0.124001936733,-1.37422997121,0.0784258606823,1.90087406023,0.156892240857,-0.00805668964629,-0.0525503370784,-0.000669897348486,-0.0796552802859,-0.00397903172294,0.0198277681955,-0.0105582590196,0.574006508831,0.818835805595,0.00227995524626,0.0,0.818796500713,-0.573946145107,-0.0117838804663,0.0,-0.00834065231346,0.00863100963805,-0.999927967001,0.0,0.659579970179,0.258082365423,0.3035297151,1.0,-0.0094,-0.0123542857143,0.471
0.463358860072,0.53493978641,-0.123996643238,-1.37555532835,0.0783644662473,1.90135171382,0.156724227052,-0.00771689157691,-0.0553797172462,0.000140082121483,-0.0801882288611,-0.000734564332887,0.0344568532514,-0.0122254633478,0.574011706095,0.818832144272,0.00228641067888,0.0,0.81879270031,-0.573951086157,-0.011807265565,0.0,-0.00835604156773,0.00864977155996,-0.999927676395,0.0,0.659420231007,0.257888938303,0.303534137237,1.0,-0.00972,-0.0127748571429,0.487
0.463233948397,0.534046714529,-0.124005886001,-1.37702811127,0.0782794674273,1.90189325945,0.156548255864,-0.00828000738006,-0.0551798504152,-0.000508406307657,-0.0883605929051,-0.00928540425681,0.0289972682064,-0.0152481411975,0.574034371338,0.818816350618,0.0022519736098,0.0,0.818776440796,-0.573973863316,-0.0118275580008,0.0,-0.00839218546163,0.00863345397921,-0.999927514721,0.0,0.659248402055,0.257661108131,0.303510383813,1.0,-0.01006,-0.0132217142857,0.504
0.463099999559,0.533083927679,-0.124005499143,-1.37859484339,0.0781833571276,1.90248161463,0.156351544093,-0.00673790561271,-0.0513747079308,0.000789875572434,-0.0881499629461,-0.000557304736054,0.0369722578902,-0.00519314339043,0.574042718196,0.818810542884,0.0022359448763,0.0,0.818770423254,-0.573982270342,-0.0118361411792,0.0,-0.0084083263545,0.00862534225279,-0.999927449128,0.0,0.659066235459,0.257424078532,0.303494626417,1.0,-0.01042,-0.0136948571429,0.522
0.462978571271,0.53218124591,-0.124003822155,-1.38005440529,0.0781035741204,1.90303178484,0.156173368988,-0.00250509906431,-0.0562535335376,0.00092415288384,-0.0950863808727,-0.00502596815926,0.0383683370453,-0.0137720132547,0.574053467984,0.818803013357,0.00223340874085,0.0,0.818762770251,-0.57399293595,-0.0118483092613,0.0,-0.00841963259005,0.00863036111017,-0.999927310685,0.0,0.658895004546,0.257208048635,0.303483969756,1.0,-0.01074,-0.0141154285714,0.538
0.462854796588,0.53126198862,-0.124006327813,-1.38154064005,0.0780215353571,1.90357002474,0.155981459707,-0.00768160365605,-0.0547408347157,-0.00298886196844,-0.0980899667422,-0.00523508091822,0.0352707476097,-0.0147993200366,0.574056919542,0.818800640514,0.0022161050323,0.0,0.818760080847,-0.573996361856,-0.0118681712838,0.0,-0.00844579263053,0.00862763029178,-0.999927113635,0.0,0.658704741786,0.256971363267,0.303474380586,1.0,-0.01108,-0.0145622857143,0.555
0.462714181104,0.530173077755,-0.124006354132,-1.38329155997,0.07790230984,1.90418638258,0.155753120736,-0.00727797617063,-0.0590749371988,0.000291013754357,-0.0971525480743,-0.00416731854945,0.0359098943953,-0.0129029171139,0.574049541379,0.818805948475,0.00216556816754,0.0,0.818764769824,-0.573989225806,-0.0118897962469,0.0,-0.00849258660579,0.00859858855432,-0.999926967457,0.0,0.658502463501,0.256720347798,0.303458450987,1.0,-0.01142,-0.0150091428571,0.572
0.462587616477,0.529185097468,-0.124006989072,-1.38484165452,0.0778128816843,1.90475613463,0.155537664897,-0.00722431291686,-0.0643727765901,0.000979852561561,-0.102346761391,-0.00587140682224,0.0325492179027,-0.00759183817309,0.574037268708,0.818814529834,0.00217411325097,0.0,0.818773398209,-0.573976855274,-0.0118928085904,0.0,-0.00849027725172,0.00860718717013,-0.99992691309,0.0,0.658317398449,0.256489816532,0.303465936114,1.0,-0.01174,-0.0154297142857,0.588
0.462449933315,0.528103987063,-0.124004512817,-1.38654335967,0.0777084552642,1.90540389712,0.155306733743,-0.00807059707249,-0.0685809812037,0.0017291097625,-0.103573223319,-0.00600112003007,0.0377481735204,-0.0121765269613,0.574023358201,0.81882422416,0.00219569346284,0.0,0.818783374343,-0.573962860964,-0.0118813734458,0.0,-0.00846867294017,0.008618149114,-0.999927001878,0.0,0.658117410859,0.256239889856,0.303473260489,1.0,-0.01208,-0.0158765714286,0.605
0.462300080352,0.526949868112,-0.124009842948,-1.38831026617,0.0775904965217,1.90607274567,0.155067408478,-0.0127318243267,-0.0760872278521,-0.000780575996837,-0.106406942601,-0.0109252442788,0.0352085809627,-0.0124735236282,0.574017593125,0.818828157368,0.00223570686002,0.0,0.818787951358,-0.573957063922,-0.0118459438976,0.0,-0.00841675471741,0.00863051620833,-0.999927333575,0.0,0.657913407138,0.255969917968,0.303502707264,1.0,-0.01242,-0.0163234285714,0.622
0.462157235755,0.525857806514,-0.124015496036,-1.3900162295,0.0774867302596,1.90670999105,0.154832002819,-0.0114421271709,-0.0738497215711,-0.000512140133782,-0.108779889586,-0.00609314433783,0.0422716660346,-0.00972659142578,0.574009874716,0.818833519473,0.00225344570935,0.0,0.818793558434,-0.573949291627,-0.0118349570998,0.0,-0.00839765768719,0.00863865539412,-0.999927423856,0.0,0.657712718769,0.255710963948,0.303514509775,1.0,-0.01274,-0.016744,0.638
0.461985567302,0.524615162696,-0.124020488635,-1.39195861512,0.0773668965221,1.90740063749,0.15456785284,-0.0145883099437,-0.0694323539347,-0.00293369709482,-0.1099288295,-0.00951354305115,0.0365525554732,-0.0126671255864,0.57400968231,0.818833679768,0.00224419095865,0.0,0.818793572338,-0.573949108716,-0.0118428629504,0.0,-0.00840944555604,0.00863561339416,-0.999927351064,0.0,0.657478671923,0.255408440313,0.303524001506,1.0,-0.0131,-0.0172171428571,0.656
0.461826696957,0.523424858197,-0.124029785035,-1.39385787161,0.0772405782685,1.90809366796,0.15431277264,-0.00826949697561,-0.0672868726728,-0.00238224905034,-0.11401577936,-0.00972410775994,0.0455701307501,-0.0156103064875,0.574005275787,0.81883683035,0.00222160586808,0.0,0.818796525219,-0.573944889881,-0.0118431655179,0.0,-0.00842270294178,0.00861724856321,-0.999927397916,0.0,0.657251281217,0.255115413376,0.303517236575,1.0,-0.01344,-0.017664,0.673
0.461675472866,0.522287026254,-0.124028277633,-1.39569931575,0.0771303302599,1.90880198393,0.154057455515,-0.00906877686719,-0.0698364662561,-0.000703228362943,-0.119110329927,-0.00983955163225,0.0417042525787,-0.0157748896337,0.573988093053,0.81884886811,0.00222421430918,0.0,0.818808579013,-0.573927680724,-0.011843780402,0.0,-0.0084218901639,0.00861956063866,-0.999927384834,0.0,0.657033279047,0.254843507166,0.303501822876,1.0,-0.01376,-0.0180845714286,0.689
0.461510888396,0.521033773978,-0.124036351642,-1.39768698704,0.0770105993193,1.90957396085,0.153785920112,-0.0106674016935,-0.0771547821951,-0.00141138113463,-0.119972122372,-0.000663136457211,0.0406778599805,-0.0150066378912,0.573980381574,0.818854196751,0.00225231739304,0.0,0.818814320748,-0.573919909139,-0.0118234061672,0.0,-0.00838915748363,0.00863079908928,-0.999927563048,0.0,0.656802041849,0.254544217969,0.303503399212,1.0,-0.0141,-0.0185314285714,0.706
0.461345788146,0.51973599847,-0.12403729672,-1.39973146801,0.0768841890158,1.91031723692,0.153507916133,-0.0125886427422,-0.07960444307,-0.000526247398701,-0.121494499734,-0.00721604274212,0.0436706848425,-0.0158369050023,0.573963296598,0.818866184474,0.00224788440869,0.0,0.818826220963,-0.573902812857,-0.0118291233492,0.0,-0.00839656357737,0.00863027548845,-0.999927505405,0.0,0.656551001773,0.254239651289,0.303506100394,1.0,-0.01444,-0.0189782857143,0.723
0.461187636402,0.518460599031,-0.124040677396,-1.40167546874,0.0767509333914,1.9110136755,0.153253830281,-0.01351103229,-0.0800831168525,0.00032559010248,-0.119432689733,-0.00911749141402,0.0490188090022,-0.0165258518718,0.573954101824,0.818872585274,0.00226384342178,0.0,0.81883291934,-0.573893649961,-0.0118099805687,0.0,-0.00837182513964,0.00863226250565,-0.99992769568,0.0,0.656312231284,0.253945650936,0.303536491892,1.0,-0.01476,-0.0193988571429,0.739
0.460996641353,0.517023911099,-0.124042147311,-1.40394253828,0.0766031951657,1.9118200024,0.152937900251,-0.00870480552237,-0.0835294090885,0.00156956155035,-0.128403998785,-0.0100238215065,0.0465512431098,-0.0190847263955,0.573932762166,0.818887612082,0.00223834585691,0.0,0.818847620967,-0.573872418463,-0.011822346007,0.0,-0.00839680940525,0.00861826180718,-0.999927606957,0.0,0.6560311318,0.253600160211,0.303535406425,1.0,-0.01512,-0.019872,0.757
0.460819067414,0.515746172538,-0.124053126484,-1.40596139838,0.0764794520026,1.91258929326,0.152669695394,-0.0134687457904,-0.0792785319555,-0.000837475927228,-0.126193835128,-0.00940661642266,0.0510070281219,-0.014310588089,0.573939741272,0.818882668135,0.00225745815366,0.0,0.818842981224,-0.573879379818,-0.0118057791596,0.0,-0.00837220044321,0.00862447564876,-0.99992775973,0.0,0.655793928473,0.253286650573,0.303537666692,1.0,-0.01544,-0.0202925714286,0.773
0.460640816888,0.514426055707,-0.124058153466,-1.40805669407,0.0763630351556,1.91336105898,0.152369645732,-0.0113625865473,-0.0870659590393,-0.00193253582563,-0.133607241552,-0.0100667972334,0.0456469131719,-0.0183079827239,0.573922624956,0.818894660142,0.00225899466004,0.0,0.818854872909,-0.573862135772,-0.0118191853599,0.0,-0.00838247766682,0.00863325288872,-0.999927597885,0.0,0.655537880038,0.252969066194,0.303532928359,1.0,-0.01576,-0.0207131428571,0.789
0.460441630259,0.512938285805,-0.124059553588,-1.41046146163,0.0762163526979,1.91419617763,0.152043643267,-0.0125476333748,-0.0848710857381,-0.000940229286433,-0.133854353189,-0.0131178363812,0.0450110558517,-0.0233729168973,0.57390616227,0.818906386248,0.00218960541629,0.0,0.818865573612,-0.573845822366,-0.0118697686294,0.0,-0.00846389636936,0.00860529153484,-0.999927153055,0.0,0.655230579818,0.252604906865,0.303503335131,1.0,-0.01612,-0.0211862857143,0.807
0.460248550247,0.511530494796,-0.12406095535,-1.41274359554,0.0760819464061,1.91503111399,0.151711963939,-0.011290631696,-0.0845156499618,-0.00308110075913,-0.137506581537,-0.0023564216049,0.0498255318772,-0.0199915260257,0.57387690065,0.818926978316,0.00215731045592,0.0,0.818885642947,-0.573816590113,-0.0118983859237,0.0,-0.00850617247185,0.00859496487605,-0.999926883131,0.0,0.654947180329,0.252260232602,0.303475618223,1.0,-0.01646,-0.0216331428571,0.824
0.460058156609,0.510147689161,-0.124061361696,-1.41491942966,0.0759418128777,1.91587114933,0.151406910273,-0.0143680863187,-0.0805825921052,0.00158909232259,-0.135277031116,-0.0115756516514,0.0549825777151,-0.0223036417705,0.573859153219,0.818939325113,0.00219110732454,0.0,0.818898506,-0.57379878674,-0.0118716514041,0.0,-0.00846507044324,0.00860711605028,-0.999927127413,0.0,0.65468804177,0.251929641721,0.303480899844,1.0,-0.01678,-0.0220537142857,0.84
0.459840507828,0.508539900942,-0.124063843374,-1.41744149967,0.0757777830724,1.91677315762,0.151064802169,-0.0130553431231,-0.0941573510933,0.000583183789986,-0.135719136508,-0.00751399774628,0.0486457880078,-0.0139072143705,0.573845542078,0.818948904527,0.00217543376129,0.0,0.818907888256,-0.573785246815,-0.0118788884653,0.0,-0.00848013416687,0.00859829260192,-0.999927075685,0.0,0.654372196972,0.251542386004,0.303483758939,1.0,-0.01714,-0.0225268571429,0.858
0.459634314861,0.50709585657,-0.124069826649,-1.41970499482,0.0756316369751,1.91759378517,0.150751547491,-0.0104148119894,-0.0917467874053,-1.49936014819e-05,-0.13709459564,-0.0114676255057,0.0509445931069,-0.0148734980633,0.573839782748,0.818952951544,0.00217112769639,0.0,0.818911908351,-0.573779534954,-0.0118776483419,0.0,-0.00848164982506,0.00859399493022,-0.999927099776,0.0,0.654093562316,0.25118653912,0.303487673116,1.0,-0.01746,-0.0229474285714,0.874
0.459415618583,0.505527246017,-0.124087205162,-1.42215388001,0.0754773166568,1.91851263843,0.150404567073,-0.0121135969084,-0.0964395880097,-0.00452331716452,-0.144859821946,-0.00502150417851,0.0625641961484,-0.0197536174074,0.573832013325,0.818958327325,0.00219669975686,0.0,0.818917709469,-0.573771758755,-0.0118533064784,0.0,-0.00844712239715,0.0086008886481,-0.999927332779,0.0,0.653798628536,0.250800872911,0.30349880574,1.0,-0.0178,-0.0233942857143,0.891
0.459186224455,0.503887598917,-0.124085780381,-1.42462889779,0.0753213723551,1.91946206898,0.150067090962,-0.0134734870341,-0.0968178609753,-0.00303436701546,-0.144045229186,-0.00375565106077,0.0624945052878,-0.0199662368221,0.573827823706,0.818961003873,0.00229123920665,0.0,0.81892166027,-0.573767247054,-0.0117986206836,0.0,-0.00834813295482,0.00864688872418,-0.999927767387,0.0,0.653502884631,0.250418911297,0.303548527198,1.0,-0.01814,-0.0238411428571,0.908
0.458952201692,0.502204746296,-0.124094666903,-1.42710414084,0.0751652188538,1.92039034214,0.149713240529,-0.0162477834368,-0.10011293412,-0.00100505303344,-0.145390220936,-0.00241610665567,0.0534392006781,-0.0182492264589,0.573820665843,0.818965695335,0.00240420840907,0.0,0.818927887797,-0.573759735804,-0.0117314559554,0.0,-0.00822838042404,0.00870079269914,-0.99992829241,0.0,0.65320641125,0.250027090432,0.303626094657,1.0,-0.01848,-0.024288,0.925
0.458734906832,0.500593397991,-0.124098494034,-1.42953415533,0.0750148754863,1.92124200201,0.149379966985,-0.0113714147571,-0.0979464257634,0.000363253404761,-0.151274262161,-0.0133090268592,0.0552129751231,-0.0138014555808,0.573811581011,0.818971972586,0.00243403312292,0.0,0.818934477332,-0.573750462657,-0.0117249877925,0.0,-0.0082060667428,0.00872141534016,-0.999928296121,0.0,0.652896919943,0.249649514881,0.303667906579,1.0,-0.0188,-0.0247085714286,0.941
0.458488233725,0.498907963604,-0.124103968625,-1.43215538477,0.0748444328958,1.92220055241,0.149018106648,-0.0141978523869,-0.102512876827,-0.00138615776984,-0.160532642268,-0.00855469007995,0.0566585981592,-0.0243383373539,0.573808398565,0.818974162905,0.00244727021413,0.0,0.818936881095,-0.573747276353,-0.011713008174,0.0,-0.00818869410224,0.00872535028905,-0.999928404213,0.0,0.652572323119,0.249234178254,0.30367916982,1.0,-0.01914,-0.0251554285714,0.958
0.458230331055,0.497236714029,-0.124098978239,-1.43480457961,0.0746784360219,1.92317550827,0.148611184104,-0.012309787548,-0.100125643751,0.000565795417138,-0.157854279358,-0.0100358669482,0.0513019631111,-0.0213206027121,0.573772304124,0.818999461203,0.00244386392057,0.0,0.818962073844,-0.573711133584,-0.0117219327691,0.0,-0.00819834252545,0.00872732026626,-0.999928307961,0.0,0.652242871899,0.248816075938,0.303667754927,1.0,-0.01948,-0.0256022857143,0.975
0.45798185454,0.49566437796,-0.124093994264,-1.4373486497,0.0745245972622,1.9240486578,0.148246042066,-0.0200674794416,-0.0981839681876,0.000862227430479,-0.160687927082,-0.00941690192684,0.0500239380421,-0.0250104983358,0.573759918422,0.819008372059,0.00236419343023,0.0,0.818969742482,-0.573698827701,-0.0117882524131,0.0,-0.00829850219074,0.0086999971295,-0.999927719843,0.0,0.651911699211,0.24841057539,0.303628072847,1.0,-0.0198,-0.0260228571429,0.991
0.457705653227,0.493986954618,-0.124104302059,-1.44008802263,0.0743436798808,1.92502302637,0.147856938231,-0.0158174192963,-0.102300528811,0.000483598170517,-0.162421083981,-0.0128754292954,0.0611850739869,-0.0278256340808,0.573763605639,0.819006027024,0.00228022880699,0.0,0.818966328861,-0.573702860899,-0.0118290527821,0.0,-0.00838005307445,0.00865467721994,-0.999927433003,0.0,0.651566736069,0.247958904547,0.303577313978,1.0,-0.02088,-0.0274422857143,1.008
0.457393487538,0.491907399749,-0.124130928833,-1.44340689136,0.0741359385159,1.92626629028,0.147393050828,-0.0160346595956,-0.11118747565,-0.000653244895075,-0.183232483983,-0.0132418668744,0.0666894900137,-0.0256433363207,0.573768933502,0.819002312966,0.00227358875499,0.0,0.818962620795,-0.573708309213,-0.0118215304264,0.0,-0.00837764529716,0.00864497755311,-0.999927537086,0.0,0.651157844672,0.247424784589,0.30355367352,1.0,-0.0233228571429,-0.0306528979592,1.027
0.457127549313,0.490241879215,-0.124136639271,-1.44610193127,0.0739743743398,1.92719545302,0.147001734683,-0.0156951433454,-0.119725714216,0.000908634230118,-0.194310700151,-0.0155162569419,0.0691713649748,-0.0189137003995,0.573769321574,0.81900226138,0.00219280114765,0.0,0.818961272452,-0.573708764524,-0.0118926293681,0.0,-0.00848222441803,0.00861961105657,-0.999926874413,0.0,0.650780078565,0.246957116101,0.303509529986,1.0,-0.0252514285714,-0.0331875918367,1.042
0.45669925077,0.487580099012,-0.124158514532,-1.450284094,0.0737179054125,1.9287389467,0.146403076361,-0.0240672182429,-0.140915170509,-0.00125563542663,-0.214954108065,-0.0173130247738,0.0904124354484,-0.034422179098,0.573775734562,0.818997731489,0.00220661395211,0.0,0.818956961938,-0.573715161707,-0.0118808510526,0.0,-0.00846458514938,0.00862423194151,-0.999926984045,0.0,0.650288988897,0.246299411573,0.30350427324,1.0,-0.0276942857143,-0.0363982040816,1.061
0.45637927812,0.48554389604,-0.124169991512,-1.45336714641,0.0735292580928,1.92992900732,0.145947658845,-0.0202304290679,-0.149614885345,-0.00166528581953,-0.226660455053,-0.00647823051476,0.0878019206786,-0.0352135525858,0.57376996916,0.819001461189,0.00231861209097,0.0,0.818962171733,-0.573708981283,-0.0118200239397,0.0,-0.0083505690715,0.00868099750086,-0.999927451508,0.0,0.649887119997,0.245759087292,0.303546452731,1.0,-0.0296228571429,-0.0389328979592,1.076
0.455941015515,0.482949999866,-0.124200160629,-1.45740766475,0.0732733512734,1.93133638956,0.145319860081,-0.0233467322992,-0.157476441181,-0.000713641613284,-0.24602210244,-0.010734804392,0.0913587884371,-0.0341566253982,0.573769993929,0.819001530275,0.00228787581425,0.0,0.818961832653,-0.573709116428,-0.0118369458358,0.0,-0.00838206292207,0.00866553414843,-0.999927322129,0.0,0.649404485479,0.245104160543,0.303554217603,1.0,-0.03168,-0.0416365714286,1.092
0.455487472531,0.480132046637,-0.124250444371,-1.46179983538,0.0730087375577,1.93288723167,0.144676787699,-0.0300476847883,-0.16745502711,-0.000680361754008,-0.264563195899,-0.0155411265504,0.0995954541638,-0.0380500897937,0.573793924529,0.818984828286,0.00226497523603,0.0,0.818944774305,-0.573733073317,-0.0118559741191,0.0,-0.00841053365375,0.00865794224459,-0.999927148826,0.0,0.648845065248,0.244360088733,0.303553473746,1.0,-0.0338657142857,-0.0445092244898,1.109
0.45498781788,0.477136679339,-0.124272544879,-1.46635004641,0.0727265441371,1.93456326803,0.14401557308,-0.0343729809311,-0.176813385024,-0.00115765624685,-0.265747325515,-0.0152089226504,0.101607853735,-0.0395514748453,0.573821953174,0.818964904825,0.00236592924667,0.0,0.818926161832,-0.573760705511,-0.0118042865201,0.0,-0.00830997914557,0.00871124782245,-0.999927526578,0.0,0.648278830399,0.243592253114,0.303608260385,1.0,-0.0360514285714,-0.047381877551,1.126
0.454481118631,0.474161997787,-0.124291712743,-1.47092239157,0.0724390845501,1.93625233232,0.143362793115,-0.0321147510203,-0.187315338897,-0.000384844240845,-0.29074802418,-0.0121946096988,0.108347867835,-0.0381441490029,0.57385867222,0.818938961205,0.00243906528858,0.0,0.818901181131,-0.573797157234,-0.0117654066697,0.0,-0.00823577975159,0.0087492025445,-0.999927809088,0.0,0.647706810934,0.242819242391,0.303637240962,1.0,-0.0381085714286,-0.0500855510204,1.142
0.453921994601,0.470856515209,-0.12429756879,-1.47604466049,0.0721300962447,1.93803241213,0.142587977686,-0.0329892482806,-0.202333529403,0.000427143224386,-0.303992369705,-0.0082257174549,0.100628873895,-0.0452439377914,0.573847211839,0.81894705078,0.00241917010411,0.0,0.818908655306,-0.573785395197,-0.0118186896208,0.0,-0.00829095616144,0.00876337014546,-0.999927229047,0.0,0.647032163469,0.241963024494,0.303638509074,1.0,-0.0402942857143,-0.0529582040816,1.159
0.453349542796,0.467332028265,-0.124302671586,-1.48131875992,0.0717865558708,1.94006422992,0.141739633507,-0.0400820667529,-0.212336211007,-0.00133493140937,-0.322063336847,-0.0176704310693,0.11995343728,-0.0435589428377,0.5737820864,0.818991964172,0.00265082031507,0.0,0.818956758804,-0.573719624993,-0.0116775857365,0.0,-0.00804317609809,0.00887146752464,-0.999928299621,0.0,0.646376093043,0.241095250736,0.303737476561,1.0,-0.04248,-0.0558308571429,1.176
0.452766058103,0.463879021684,-0.124297857185,-1.48663473024,0.0714320875793,1.94188591472,0.14092367379,-0.0365661895116,-0.215761989103,-0.000429751658252,-0.342033096158,-0.022354084936,0.119903583489,-0.0553477130362,0.573740661776,0.819021103424,0.00261382343157,0.0,0.818985240914,-0.573678142665,-0.0117179646183,0.0,-0.00809792285022,0.00886392624564,-0.999927924631,0.0,0.645661589533,0.240205839698,0.303746068615,1.0,-0.0445371428571,-0.0585345306122,1.192
0.452065121644,0.459857772874,-0.124299983101,-1.49290756383,0.0710024723158,1.9440647255,0.14000595044,-0.0427971823589,-0.230645656419,0.00220848695639,-0.351283381846,-0.028328049005,0.126879819485,-0.0519515485823,0.573738692281,0.819022718489,0.0025389919491,0.0,0.818985821499,-0.573676377519,-0.0117637138097,0.0,-0.00817834661859,0.00882886616782,-0.999927580262,0.0,0.644821775553,0.239144214378,0.3037188801,1.0,-0.0468514285714,-0.0615761632653,1.21
0.4513576447,0.455937801751,-0.124322273486,-1.4990454047,0.0705986387433,1.94626352372,0.139042387161,-0.0463164107817,-0.230435171388,-0.00264649631112,-0.370326501729,-0.0232093751504,0.131569125696,-0.0564704825258,0.573718166508,0.81903717834,0.00251253202086,0.0,0.818999904548,-0.573655916785,-0.0117810182021,0.0,-0.00820792107423,0.00881691740072,-0.999927443367,0.0,0.644015067849,0.238087406335,0.303684977359,1.0,-0.0490371428571,-0.0644488163265,1.227
0.45063984029,0.452046096824,-0.124358375832,-1.50500976918,0.0701843981553,1.94837953107,0.138085038936,-0.0476635165208,-0.252636067206,-0.0011541421224,-0.370561404861,-0.0187420780428,0.139411125351,-0.0564636834649,0.573706771049,0.819045112775,0.00252804135363,0.0,0.819008232789,-0.573644672416,-0.0117495248246,0.0,-0.00817335079323,0.00881143827745,-0.999927774838,0.0,0.643234190502,0.237029887925,0.303703470295,1.0,-0.0510942857143,-0.0671524897959,1.243
0.44985766047,0.447693897699,-0.124422773901,-1.5115624125,0.0697472363901,1.95074389051,0.137104051773,-0.0480988480405,-0.261066816717,-0.00223264496617,-0.39616933277,-0.0264916692357,0.128843118998,-0.0590878373086,0.573767720759,0.819002037034,0.00264817874871,0.0,0.818966955092,-0.573705444388,-0.0116591786694,0.0,-0.00802977111247,0.00885860181295,-0.99992852142,0.0,0.642381859297,0.235865208049,0.303776029335,1.0,-0.05328,-0.0700251428571,1.26
0.449026479395,0.443236672735,-0.124435106709,-1.51847953454,0.0692765756907,1.95303924184,0.136066762147,-0.0491652118977,-0.260998043616,-3.45305414295e-05,-0.408926685545,-0.0271621291527,0.135513313455,-0.0681897769555,0.573786793754,0.818989131122,0.00250306171599,0.0,0.818951888588,-0.573724736162,-0.0117676758921,0.0,-0.00820168813949,0.00880219360911,-0.999927624231,0.0,0.641419440967,0.234650706079,0.303735469936,1.0,-0.0554657142857,-0.0728977959184,1.277
0.448215573169,0.438952160025,-0.124450851279,-1.52513199812,0.0688182528525,1.95536017462,0.134973966897,-0.0548950782011,-0.265161616413,0.000301469640593,-0.41471374045,-0.0288184767902,0.141206410731,-0.0721533428971,0.57373498894,0.81902558403,0.00244991261652,0.0,0.818987602143,-0.57367308469,-0.0118002686276,0.0,-0.00825943199614,0.00877684403126,-0.999927371759,0.0,0.640512324112,0.233480886623,0.303700508905,1.0,-0.0575228571429,-0.0756014693877,1.293
0.447293957141,0.434158160893,-0.124464703645,-1.53230265187,0.0683461319266,1.95798229425,0.133813672818,-0.056996882835,-0.283558952861,-0.00172703576775,-0.418871234463,-0.0297075541467,0.157088851435,-0.0633681954381,0.573733636251,0.81902589239,0.00265501977985,0.0,0.818990578205,-0.573670986068,-0.011695274928,0.0,-0.00805578026821,0.00888457985172,-0.999928081736,0.0,0.639563828345,0.232206358719,0.303787348766,1.0,-0.0597085714286,-0.078474122449,1.31
0.446256213025,0.429012344482,-0.124505835227,-1.54025883743,0.0677572906923,1.96073889751,0.132554899402,-0.0594143633891,-0.288855259114,-0.00142220950284,-0.453527652516,-0.0399133227107,0.146998017839,-0.0678795839297,0.57376149786,0.819006648433,0.00256910442264,0.0,0.818970529387,-0.573699489954,-0.0117010308804,0.0,-0.00810948432039,0.00881779158334,-0.999928238833,0.0,0.638477471196,0.230747758123,0.30374741345,1.0,-0.0620228571429,-0.081515755102,1.328
0.445299084402,0.424232678662,-0.124570992514,-1.54760980411,0.0672210412856,1.96314111173,0.131325877658,-0.0610031318742,-0.304587209037,-0.00407228727293,-0.455351098108,-0.0341721334895,0.152519274687,-0.0753397044671,0.573749115478,0.819015842891,0.00239759940704,0.0,0.818977572027,-0.573687820501,-0.0117799841489,0.0,-0.00827267934344,0.00872250356209,-0.999927737743,0.0,0.637440093044,0.229379848828,0.303710117223,1.0,-0.06408,-0.0842194285714,1.344
0.444174805983,0.418700849261,-0.124617010778,-1.55598793436,0.0666341382515,1.96603302961,0.12999972094,-0.0607974078224,-0.317821758988,-0.00213096653102,-0.457245013116,-0.0340398403399,0.175975661728,-0.0734905337261,0.573805872727,0.818976020972,0.00241751883805,0.0,0.818938046938,-0.573744536,-0.0117656104018,0.0,-0.00824887338353,0.00873114260199,-0.999927859016,0.0,0.636279412947,0.227833414526,0.303730217907,1.0,-0.0663942857143,-0.0872610612245,1.362
0.443122593763,0.413632169998,-0.124629816201,-1.56346975411,0.0661355770599,1.96881962624,0.128732208114,-0.0616264109094,-0.321946287455,-0.00109402328883,-0.474066727516,-0.0332030572485,0.169639063219,-0.0797054358797,0.573811359451,0.818971192267,0.00273073291588,0.0,0.818937357352,-0.573748990871,-0.0115951330011,0.0,-0.00792947731059,0.00888988938606,-0.999929044111,0.0,0.635280315261,0.226459261282,0.30384521396,1.0,-0.0684514285714,-0.0899647346939,1.378
0.441957438472,0.408173247611,-0.124667420306,-1.57185502155,0.0655191177236,1.97153268416,0.127332363869,-0.0677374676047,-0.325162927257,-0.00201862240297,-0.499128417871,-0.0373757625912,0.16084218571,-0.0724396642852,0.573814493836,0.818969646431,0.00252819904802,0.0,0.818933051688,-0.573752686534,-0.0117157351124,0.0,-0.00814442725222,0.00879325367246,-0.999928170918,0.0,0.634064423852,0.224880389925,0.303783001133,1.0,-0.0706371428571,-0.0928373877551,1.395
0.440752193598,0.402588431697,-0.124720983156,-1.58047535782,0.0649346264781,1.97439132631,0.125913797684,-0.0724605853238,-0.339702567852,-0.000516956928902,-0.500826317205,-0.0351998571055,0.178737542207,-0.0905450164034,0.573862577251,0.818936405936,0.00237747011741,0.0,0.818897431567,-0.573800880152,-0.0118445519494,0.0,-0.00833590084939,0.00874421763413,-0.999927023045,0.0,0.63281681196,0.223258654506,0.30369991465,1.0,-0.0728228571429,-0.0957100408163,1.412
0.439485354894,0.396711483989,-0.124743051798,-1.58899743008,0.0643087509932,1.97748565843,0.124431611804,-0.0753075877444,-0.344391549282,-0.000673705513892,-0.509807903048,-0.0441717083215,0.178018045288,-0.0881009686332,0.5738627757,0.818935165151,0.00273072268584,0.0,0.818901226249,-0.573800284225,-0.0116087196724,0.0,-0.00794005217946,0.00889817556698,-0.999928886493,0.0,0.631646123895,0.221643203826,0.303869657399,1.0,-0.0750085714286,-0.0985826938775,1.429
0.438326079876,0.391515665571,-0.124744521662,-1.59687014535,0.0637208852434,1.98007316974,0.123121118092,-0.0809141927264,-0.347982843753,0.00274547296362,-0.521808419626,-0.0435989211616,0.160866107914,-0.0850355723605,0.573878174024,0.818924675102,0.00263908873199,0.0,0.818889398595,-0.573815831026,-0.0116744093154,0.0,-0.00804626587731,0.00886098108668,-0.999928367744,0.0,0.630485971181,0.220151388522,0.303839726219,1.0,-0.0769371428571,-0.101117387755,1.444
0.436911151278,0.385155507831,-0.124770000759,-1.60655379856,0.0629948361596,1.98319818968,0.12139681131,-0.0822377351479,-0.356632409788,0.000233255875394,-0.534344949533,-0.0435278416934,0.177263409939,-0.10345201185,0.573805794098,0.818975976198,0.00245111618571,0.0,0.818938020893,-0.573743887962,-0.0117989772471,0.0,-0.00825692495026,0.00877780274683,-0.999927384048,0.0,0.629033572912,0.218309514033,0.303768975065,1.0,-0.0792514285714,-0.104159020408,1.462
0.43553852156,0.3789015931,-0.124768644853,-1.61562981404,0.0623593792155,1.9863822937,0.11980042741,-0.0787560221834,-0.355535196457,0.000306751847235,-0.540469715334,-0.0388968355857,0.183700012386,-0.0908983507789,0.573782142135,0.81899156181,0.00276078823582,0.0,0.81895751221,-0.573718996543,-0.0116556038903,0.0,-0.00796207787229,0.00894891792779,-0.999928258519,0.0,0.627718923158,0.216599364605,0.303908649268,1.0,-0.0814371428571,-0.107031673469,1.479
0.434144685128,0.373032549884,-0.12479241268,-1.62451930036,0.0616652463704,1.98928898029,0.118184817278,-0.0896780851746,-0.379808100512,-0.00369840687946,-0.56059430261,-0.0464444017265,0.18477492163,-0.0952346423246,0.573744668527,0.819018236714,0.00263252146425,0.0,0.818982550094,-0.573682008575,-0.0117167649269,0.0,-0.00808616963303,0.00887859149157,-0.999927889637,0.0,0.626386145696,0.214856278075,0.303849140702,1.0,-0.0834942857143,-0.109735346939,1.495
0.432632690725,0.366604543415,-0.124863152222,-1.63412401966,0.0609210620234,1.99235294582,0.116569271005,-0.0906420935891,-0.383388868364,-0.00810971237329,-0.567310643309,-0.0435820776022,0.190320275973,-0.0971289986245,0.573843976087,0.818949062012,0.00250436395667,0.0,0.818911728481,-0.573781790587,-0.0117806896496,0.0,-0.00821098438994,0.0088113004509,-0.999927467729,0.0,0.624926686551,0.212945141416,0.303826656991,1.0,-0.08568,-0.112608,1.512
0.431053282481,0.360012015288,-0.124879447899,-1.64368255741,0.0601706825258,1.99569518412,0.114744532466,-0.0972382123303,-0.386218498523,-0.000233802106124,-0.564818044433,-0.0410486759872,0.186693901132,-0.111234542522,0.57377552474,0.818996119095,0.00278406491646,0.0,0.818962903121,-0.573712901159,-0.011576582271,0.0,-0.00788407378494,0.00892257724096,-0.999929111985,0.0,0.623526980667,0.211052611022,0.303946025776,1.0,-0.0878657142857,-0.115480653061,1.529
0.42938271129,0.353386724311,-0.124904970212,-1.65365421476,0.0594392170087,1.99883521509,0.112924680891,-0.0959645330051,-0.400079271207,-0.00119533552219,-0.59433220185,-0.0485296682982,0.188113238963,-0.0943766957023,0.573806014792,0.818975315752,0.00261466619565,0.0,0.818939257957,-0.573743258639,-0.0117435873599,0.0,-0.00811771735402,0.00887996482327,-0.999927621826,0.0,0.621976086033,0.209049277683,0.303864355574,1.0,-0.0900514285714,-0.118353306122,1.546
0.42766354727,0.346578188879,-0.124985720321,-1.66364794298,0.0586920737575,2.00209785951,0.111025720313,-0.101545816049,-0.418482406318,-0.00592959681723,-0.576986960449,-0.0464029939229,0.20384025852,-0.110211040947,0.573841736314,0.81895011963,0.00266648138936,0.0,0.818914629589,-0.573778673269,-0.0117307479657,0.0,-0.00807708280486,0.00891538504897,-0.999927635703,0.0,0.62045195555,0.206994363973,0.303892399566,1.0,-0.0922371428571,-0.121225959184,1.563
0.425887136871,0.339639578707,-0.124996665187,-1.67374035999,0.0578790514526,2.00540811295,0.10915806454,-0.104907476759,-0.413401277713,-0.000847611094638,-0.606205723562,-0.0542828949555,0.186626282148,-0.121246376848,0.573868765448,0.818930850581,0.00276566641681,0.0,0.818896825331,-0.573805548178,-0.0116588697189,0.0,-0.00796100663542,0.00895562904439,-0.999928206964,0.0,0.618895298417,0.204936062059,0.303949010487,1.0,-0.0944228571428,-0.124098612245,1.58
0.424183782429,0.333068888386,-0.125007895615,-1.68359128814,0.0570730648574,2.00839825273,0.107258474428,-0.110932213644,-0.417780792363,-0.0028704051664,-0.624264773545,-0.0476731516618,0.192304852485,-0.117213752738,0.573794685661,0.818983538675,0.00252368527689,0.0,0.818946010492,-0.573731955263,-0.0118246484436,0.0,-0.00823643211442,0.00885185285161,-0.999926900272,0.0,0.617399305832,0.20305993823,0.303852529955,1.0,-0.0963514285714,-0.126633306122,1.595
0.422334331488,0.325817511249,-0.124996300222,-1.69386170196,0.0562587147847,2.01180526322,0.105212454744,-0.109334023882,-0.42548500805,0.00226627780473,-0.602479163966,-0.0476509751018,0.205879743724,-0.121400146683,0.57370596802,0.819044763931,0.00280781689343,0.0,0.819011068509,-0.573642381902,-0.0116633720058,0.0,-0.00794229391421,0.00899115234858,-0.999928036984,0.0,0.61569145586,0.200848906996,0.303999408601,1.0,-0.0986657142857,-0.129674938775,1.613
0.420363919994,0.318577307399,-0.125020326836,-1.70446387732,0.0554106685637,2.0151664872,0.103196739416,-0.11961233566,-0.427847249665,-0.00373492495169,-0.630003798949,-0.045272300035,0.201742762877,-0.111117714789,0.573759648833,0.8190072291,0.00278764309918,0.0,0.818973094398,-0.573695925123,-0.0116962836564,0.0,-0.00798023502577,0.00899403346138,-0.999927708993,0.0,0.613993998881,0.198632540596,0.303978366381,1.0,-0.100851428571,-0.132547591837,1.63
0.418477155284,0.311662180573,-0.125081773491,-1.71454153124,0.054576670764,2.01826174812,0.101102460952,-0.120501318443,-0.437170207223,-0.00443657212054,-0.617003442015,-0.0555570554327,0.191758941171,-0.135556557982,0.573686584936,0.819058696109,0.00270212768471,0.0,0.819023382745,-0.573623097158,-0.0117468218826,0.0,-0.00807148916433,0.00895227224558,-0.999927351303,0.0,0.612352732364,0.196493516482,0.30395907196,1.0,-0.102908571429,-0.135251265306,1.646
0.416248631296,0.303692448081,-0.125097501951,-1.72594032717,0.0536015041627,2.02189362799,0.0987587088441,-0.121282422718,-0.441873606658,0.00167139990238,-0.633136693397,-0.0466133927333,0.196370412431,-0.13743026634,0.573638422013,0.819092008586,0.00282651043471,0.0,0.819058652415,-0.573574890517,-0.01164112426,0.0,-0.00791408880991,0.00899304712267,-0.999928243576,0.0,0.610513094768,0.194062751545,0.304026693182,1.0,-0.105222857143,-0.138292897959,1.664
0.414028999519,0.296156372697,-0.125164964863,-1.73703931546,0.0526968650189,2.02514464289,0.0965819112162,-0.133052552462,-0.439169398121,-0.00813884564844,-0.654456685993,-0.0486637141538,0.189335667754,-0.129640728309,0.573763580643,0.819005235501,0.00255433969922,0.0,0.818967703417,-0.573700304512,-0.0118578355223,0.0,-0.00824636267922,0.00889568715471,-0.99992642942,0.0,0.608651567269,0.191633629739,0.303910690926,1.0,-0.107408571429,-0.14116555102,1.681
0.412046170081,0.289254483374,-0.125254813742,-1.74660080666,0.0519018776064,2.02830747242,0.0945122288779,-0.128460397254,-0.460314751118,-0.00376111428147,-0.640258144365,-0.0587921768347,0.206658883551,-0.149251804058,0.57378215791,0.818990924679,0.00294065628721,0.0,0.818959043462,-0.57371822173,-0.0115859435537,0.0,-0.00780182473779,0.00905625911483,-0.999928555299,0.0,0.60713337038,0.189510848762,0.30408996647,1.0,-0.109337142857,-0.143700244898,1.696
0.409572173098,0.281033826294,-0.125281599301,-1.75852933383,0.0508735886205,2.03178816685,0.091993688212,-0.133404783287,-0.462970184197,-0.00458488217431,-0.669486064347,-0.0559903708031,0.192183130646,-0.149244010012,0.573764442683,0.819004080174,0.00272541235188,0.0,0.818968988032,-0.573700771011,-0.0117460156602,0.0,-0.00805661869879,0.00897164705683,-0.999927297579,0.0,0.605095150261,0.186889237407,0.304008087563,1.0,-0.111651428571,-0.146741877551,1.714
0.407142822448,0.273080654065,-0.125354309636,-1.76978431478,0.0498790273668,2.03520915228,0.0895685673967,-0.142856676641,-0.476682441317,-0.00543486349339,-0.660055157973,-0.0583478275452,0.212614638184,-0.148380944746,0.573802910236,0.818976951564,0.0027784731643,0.0,0.818942838645,-0.573739371468,-0.0116836450118,0.0,-0.00797467006512,0.00897969309713,-0.999927882274,0.0,0.603207105469,0.184349202346,0.304050512874,1.0,-0.113837142857,-0.149614530612,1.731
0.404781379304,0.265542232217,-0.125438807412,-1.78045635029,0.0489583492582,2.03846708551,0.087215340391,-0.15312908043,-0.478137991083,-0.00297665158717,-0.67712154902,-0.0568520223145,0.194943815482,-0.141142810932,0.573853380359,0.818941338316,0.0028511663949,0.0,0.818908286596,-0.573789720268,-0.0116327966995,0.0,-0.00789076005083,0.00901053697702,-0.999928270492,0.0,0.601409207463,0.181912458709,0.304074816923,1.0,-0.115894285714,-0.152318204082,1.747
0.402172959252,0.257456826716,-0.125549105472,-1.79201970257,0.0479092672555,2.0417399713,0.0846857174791,-0.155070401531,-0.48298492123,-0.00727767249502,-0.675503479449,-0.0624789052344,0.19952747277,-0.148138243718,0.573948370197,0.818875494415,0.00263436810322,0.0,0.81883954924,-0.573885367381,-0.0117526425711,0.0,-0.00811228187595,0.00890270624406,-0.999927463721,0.0,0.599395303437,0.17922283734,0.304010378457,1.0,-0.11808,-0.155190857143,1.764
0.399538106045,0.249199470821,-0.125560504468,-1.80350180055,0.0468528326145,2.04521684832,0.0820937850621,-0.158671017941,-0.480690665006,0.000685737471071,-0.69092833217,-0.0701782908041,0.205744044178,-0.154588788709,0.57391960738,0.818895117979,0.0027958747327,0.0,0.818861674119,-0.573856494633,-0.0116202034132,0.0,-0.00791144929137,0.00895866972698,-0.999928573053,0.0,0.597413065194,0.176609792685,0.304088552732,1.0,-0.120265714286,-0.158063510204,1.781
0.396667844164,0.240434673665,-0.125563383486,-1.81596834725,0.0457977287386,2.0487134156,0.0792070703588,-0.160753664039,-0.490469123991,-0.00466223094354,-0.685778673254,-0.0588082251239,0.19531037219,-0.166695215863,0.573849531272,0.818944720873,0.00264698220974,0.0,0.818908237255,-0.573785724375,-0.011831667695,0.0,-0.00817083850732,0.00895740495419,-0.999926498446,0.0,0.595166129655,0.17378530892,0.304004652503,1.0,-0.12258,-0.161105142857,1.799
0.394050713734,0.232421799281,-0.12556730468,-1.82684572261,0.0448340892635,2.05201180394,0.0766950607534,-0.163012607501,-0.484165293755,0.0033662710257,-0.691222048366,-0.0616351638142,0.203707617431,-0.152991557143,0.57386029192,0.818935991563,0.00299232044863,0.0,0.818904208334,-0.573795509296,-0.01163434511,0.0,-0.00781095429811,0.0091270882139,-0.999927840023,0.0,0.59326255911,0.171278263124,0.304160086397,1.0,-0.124637142857,-0.163808816327,1.815
0.391184790023,0.223907522307,-0.125562113922,-1.83884303541,0.0436786761823,2.05528089529,0.0737917438793,-0.170816498817,-0.504559264391,-0.00218452905537,-0.704091046378,-0.0691204976738,0.188429026748,-0.173355257316,0.573689618649,0.819056335392,0.00277269012864,0.0,0.819021446083,-0.573625327219,-0.0117729235729,0.0,-0.00805235738895,0.00902507047417,-0.999926851146,0.0,0.591050186278,0.168511470132,0.304080974173,1.0,-0.126822857143,-0.166681469388,1.832
0.388171734221,0.215214239706,-0.125637556621,-1.85064991924,0.0425953054261,2.05869023628,0.070923893046,-0.174109321672,-0.516061535365,-0.00430591724662,-0.697761505006,-0.0623455382283,0.204540831018,-0.167961859434,0.573743303489,0.81901796038,0.00299151744853,0.0,0.818986114476,-0.57367847785,-0.0116402426564,0.0,-0.00781754913448,0.00912869828238,-0.999927773788,0.0,0.588936594628,0.165666029942,0.304192691145,1.0,-0.129008571429,-0.169554122449,1.849
0.385076103619,0.20652946046,-0.125696889721,-1.86269772217,0.0414724781404,2.06199311826,0.0679612126494,-0.187665270629,-0.516985880491,-0.00458303899709,-0.707360588189,-0.062147724221,0.189565641844,-0.179845322198,0.573751332824,0.819012587621,0.00292169517001,0.0,0.818979502994,-0.573686357933,-0.0117167955995,0.0,-0.00792021891022,0.00911551105168,-0.999927086137,0.0,0.58671095275,0.16276561975,0.304156892393,1.0,-0.131194285714,-0.17242677551,1.866
0.382069673578,0.198207771856,-0.125744067643,-1.87408512489,0.0403754380222,2.06501923073,0.0650691656844,-0.189594654226,-0.531155990791,-0.00183458831545,-0.69294904049,-0.0685728884079,0.202923868228,-0.175364974701,0.57371556941,0.819037844525,0.00286383567623,0.0,0.819003782607,-0.573650544562,-0.0117730073116,0.0,-0.00799985165879,0.00910002504872,-0.999926593265,0.0,0.584576564144,0.159991464922,0.304163314284,1.0,-0.133251428571,-0.17513044898,1.882
0.378946066699,0.189863026204,-0.125853716993,-1.88549335294,0.0392952738939,2.06822340717,0.062147693574,-0.195321404159,-0.523953218801,-0.00694564325155,-0.711812205427,-0.0651610527222,0.198800895772,-0.187907766118,0.573798159959,0.818979679055,0.00295022440693,0.0,0.818946848819,-0.573732946209,-0.0117180265238,0.0,-0.00790433684361,0.00914003501306,-0.999926987944,0.0,0.58247425101,0.157140144039,0.304170814293,1.0,-0.135308571429,-0.177834122449,1.898
0.375484740701,0.180852181277,-0.126000954244,-1.89773720002,0.0381289934806,2.07138305952,0.0589243854576,-0.205947575246,-0.527477106682,-0.0070499103128,-0.697883527713,-0.0720001055084,0.190812477102,-0.190111375162,0.573910253886,0.81890138828,0.00287813448291,0.0,0.818867176173,-0.573844769377,-0.0118099681277,0.0,-0.00801975128181,0.00913484753735,-0.999926116346,0.0,0.580153639821,0.154006693911,0.304165837235,1.0,-0.137494285714,-0.18070677551,1.915
0.371792047571,0.17123187564,-0.126031701655,-1.91068070139,0.0367942537839,2.07489932811,0.0555155400436,-0.202014941265,-0.534344193983,-0.000248878136703,-0.728822523336,-0.0690357127846,0.182928370982,-0.192161773039,0.573899800076,0.81890838379,0.00297074606187,0.0,0.818875925252,-0.573834624334,-0.0116957197056,0.0,-0.00787315755368,0.00914501970089,-0.999927188352,0.0,0.577694343926,0.150766359476,0.304205206524,1.0,-0.139808571429,-0.183748408163,1.933
0.368628995641,0.163188354165,-0.126043720627,-1.92166115361,0.0357032249445,2.07762097851,0.0524934127197,-0.221510005526,-0.543643959512,-0.00582890802095,-0.717330699878,-0.0670426535323,0.19038145995,-0.206551040134,0.573800690207,0.818978478497,0.0027868579709,0.0,0.818942932299,-0.573735389981,-0.0118710918713,0.0,-0.00812340611485,0.00909409343733,-0.999925651105,0.0,0.575525214885,0.148020126483,0.304125708462,1.0,-0.141737142857,-0.186283102041,1.948
0.364727306129,0.153323479904,-0.126079321644,-1.93459128498,0.0343520396164,2.08113663609,0.0488890268304,-0.225453215182,-0.531176897656,-0.00627656591861,-0.724221044516,-0.0782963973589,0.185716534847,-0.205043201699,0.573768311152,0.819000070069,0.00309147961073,0.0,0.818969389318,-0.573702998774,-0.0116084218703,0.0,-0.00773385610252,0.00919254876559,-0.999927839655,0.0,0.573044728327,0.144705892514,0.304266464022,1.0,-0.144051428571,-0.189324734694,1.966
0.36090887284,0.144014293894,-0.126128882677,-1.94719773571,0.0330924678186,2.08407587259,0.0453873656258,-0.224757379377,-0.54912597853,-0.00807467577995,-0.752506150958,-0.0740120653042,0.169572367072,-0.20746266961,0.573776969326,0.818995027085,0.00280748695959,0.0,0.818959482583,-0.573711295886,-0.0118937698793,0.0,-0.00813040793822,0.00912376496374,-0.999925323902,0.0,0.570486124793,0.141466647938,0.304154277183,1.0,-0.146237142857,-0.192197387755,1.983
0.357208899581,0.13504275971,-0.126223715426,-1.95879749067,0.0319161470279,2.08711240974,0.0419435896603,-0.230011015803,-0.546229623676,-0.00824280894652,-0.736445579203,-0.0752957384482,0.186340232816,-0.219331998072,0.57377660644,0.818994153116,0.00311928905798,0.0,0.81896309235,-0.573710320084,-0.0116905473942,0.0,-0.00778507152543,0.0092625235564,-0.99992679648,0.0,0.56821517218,0.138392356202,0.304294006436,1.0,-0.148294285714,-0.194901061224,1.999
0.353137478705,0.125556521064,-0.126328817426,-1.97144796151,0.0305563345289,2.09006874162,0.0382474595955,-0.24187470845,-0.55638739551,-0.00537864458353,-0.741837084602,-0.0824695913249,0.16080607362,-0.216220347406,0.573808900734,0.818972293275,0.0029112175963,0.0,0.818938184777,-0.573742936948,-0.0118337955886,0.0,-0.00802141461467,0.00917462113193,-0.99992573886,0.0,0.565631566787,0.135016017145,0.304216572155,1.0,-0.15048,-0.197773714286,2.016
0.348920917606,0.115843040327,-0.126479254434,-1.98388514653,0.0292109008507,2.09317512028,0.0344675384165,-0.249683268561,-0.567423480803,-0.00754899321263,-0.737246376799,-0.0818195867432,0.174631092308,-0.230856056162,0.573915995395,0.818896287971,0.00316964955385,0.0,0.81886630506,-0.573850032483,-0.0116129909309,0.0,-0.00769107974321,0.00926057876293,-0.999927541862,0.0,0.563144290183,0.131589389002,0.304354996544,1.0,-0.152665714286,-0.200646367347,2.033
0.344872695814,0.106758518994,-0.126518384401,-1.99586278552,0.0279139792043,2.09589881832,0.0307959169421,-0.25337271776,-0.565329732641,-0.00254070759931,-0.746213136335,-0.0784238236608,0.16032827488,-0.226189505106,0.57388187397,0.818920794264,0.00301236666422,0.0,0.81888827528,-0.573815857406,-0.0117516509022,0.0,-0.00789527953911,0.00921102852503,-0.999926408049,0.0,0.560638493709,0.128369499639,0.304283689836,1.0,-0.154722857143,-0.203350040816,2.049
0.340518622135,0.0969160596522,-0.12652024752,-2.00838549131,0.026530656987,2.09884963558,0.0267694246495,-0.261293078022,-0.582249714618,-5.00694734238e-05,-0.738649004019,-0.0700004151958,0.172419785968,-0.24193321346,0.573733507059,0.819024046509,0.00319703281085,0.0,0.81899427556,-0.573667307509,-0.0116165311797,0.0,-0.00768033303878,0.00928332347718,-0.99992741356,0.0,0.558027377891,0.124990423683,0.304387607917,1.0,-0.156908571429,-0.206222693878,2.066
0.335739208112,0.0865291749242,-0.126548508995,-2.02194255928,0.0251507917312,2.10180802162,0.0224315974833,-0.263079406071,-0.579603243846,-0.0036440788328,-0.766718221293,-0.0813307502979,0.151246139825,-0.248990235848,0.573697020836,0.819050055524,0.00307924191619,0.0,0.819017248402,-0.573629437003,-0.0118643467451,0.0,-0.00795130314081,0.00932867222906,-0.999924873504,0.0,0.555114408845,0.121319658408,0.304296140942,1.0,-0.159222857143,-0.209264326531,2.084
0.331305294685,0.0770685611826,-0.126667807847,-2.0337415051,0.0237424918039,2.1045053537,0.0184385972664,-0.273211201925,-0.601947883539,-0.00307555670546,-0.73856157898,-0.0927431282244,0.176873047747,-0.24527192107,0.573686818565,0.819056395945,0.00328654325561,0.0,0.819027455655,-0.573619935753,-0.011616500803,0.0,-0.00762948944139,0.00935618268459,-0.999927123713,0.0,0.552632840946,0.117932451181,0.30443751456,1.0,-0.16128,-0.211968,2.1
0.326478489513,0.0671159869563,-0.12680143122,-2.04656457863,0.0223120998095,2.10724037674,0.014173839961,-0.291499055049,-0.595329467874,-0.0045307765434,-0.757081501199,-0.0886659624808,0.151284992773,-0.250988961643,0.573773386512,0.818996225449,0.00316710164009,0.0,0.818965190656,-0.573706228608,-0.0117442177846,0.0,-0.00780163430449,0.00933244528718,-0.999926017247,0.0,0.549848730698,0.114281861198,0.304360232967,1.0,-0.163465714286,-0.214840653061,2.117
0.321434050559,0.0569449524154,-0.12695327081,-2.05924637171,0.0208168320538,2.10987036219,0.00969258555727,-0.295247247855,-0.602708481554,-0.00419953811514,-0.746305657139,-0.0879784680466,0.169406993857,-0.268438359168,0.573829664439,0.818956588592,0.00322011083727,0.0,0.818926530879,-0.573762667519,-0.0116826917073,0.0,-0.00772018660001,0.00934108910407,-0.999926568691,0.0,0.547086150989,0.110538109206,0.304429940482,1.0,-0.165651428571,-0.217713306122,2.134
0.316653551859,0.0474183083876,-0.12701261211,-2.07128095579,0.0194749249161,2.11237069425,0.00545407218176,-0.298225102641,-0.605908631313,-0.00388505623639,-0.741561485655,-0.0812311602554,0.151484131508,-0.260902725855,0.573838443514,0.818950412755,0.00322631277335,0.0,0.818919883082,-0.573770756686,-0.0117512027811,0.0,-0.00777263809405,0.00938556429366,-0.999925745883,0.0,0.544415278946,0.107079662919,0.304398364205,1.0,-0.167708571429,-0.220416979592,2.15
0.311429485567,0.0371322166887,-0.12704375751,-2.08405303785,0.0180072201032,2.11490537496,0.000807299064406,-0.313137367561,-0.616896389401,-0.00511383589375,-0.739347915125,-0.085506749531,0.156618737948,-0.276250237172,0.573788030355,0.818985560558,0.00327027839189,0.0,0.818955219434,-0.573719736008,-0.0117796425564,0.0,-0.00777128352785,0.00943741115818,-0.999925268419,0.0,0.541538082952,0.103373863231,0.304420627257,1.0,-0.169894285714,-0.223289632653,2.167
0.305721055983,0.0262653555499,-0.127130896454,-2.09752349593,0.0163310338513,2.1175594469,-0.00423625494083,-0.317651088176,-0.608846834375,-0.00320164890962,-0.740354951711,-0.0934897171549,0.137850313829,-0.289636028759,0.573752287024,0.819010697003,0.00324626406483,0.0,0.818980463747,-0.573684589126,-0.0117362303324,0.0,-0.00774991572836,0.00939249667815,-0.999925857158,0.0,0.538487685504,0.0993548447486,0.304417612378,1.0,-0.16998,-0.223402285714,2.185
0.300847826344,0.0172205463368,-0.127267384513,-2.10863583244,0.0150169014334,2.11959310664,-0.00851313625337,-0.332240911229,-0.613369094656,-0.0120027186092,-0.720535253283,-0.0870994767055,0.140810289422,-0.279554933178,0.573829561644,0.818956635216,0.00322656465025,0.0,0.818925680669,-0.573761358792,-0.0118059137379,0.0,-0.00781740378171,0.00941708026541,-0.999925100594,0.0,0.535929185268,0.0959561772942,0.304418131837,1.0,-0.16998,-0.223402285714,2.2
0.294879713884,0.0064152436407,-0.127408115273,-2.1217921504,0.0134043836464,2.12197691128,-0.0137168022203,-0.334670686751,-0.599873242617,-0.000235455996903,-0.734910220141,-0.0791198857308,0.127992065655,-0.295355830154,0.573910831542,0.818899645097,0.00323660320934,0.0,0.818868706349,-0.573842443957,-0.0118168599066,0.0,-0.00781967264081,0.00943235858032,-0.999924938849,0.0,0.532876334132,0.0918733885079,0.304436119847,1.0,-0.16998,-0.223402285714,2.218
0.289215892854,-0.00374570222838,-0.127422696334,-2.13405079861,0.0119632786063,2.12415838023,-0.0187085866915,-0.339167105301,-0.592695417206,0.000795123942146,-0.697119514607,-0.0897587149206,0.133133919407,-0.294819994867,0.573868583226,0.818928856912,0.00333517688241,0.0,0.818898686383,-0.573799230755,-0.011837699407,0.0,-0.0077806615161,0.00952463913401,-0.999924368418,0.0,0.52998497755,0.0881274601282,0.304466775467,1.0,-0.16998,-0.223402285714,2.235
0.28384086851,-0.0132335684589,-0.127429807572,-2.14539986114,0.0104804250722,2.12620758279,-0.0234162923123,-0.337135049017,-0.588111346629,0.00100567474479,-0.723682743602,-0.089928059936,0.112763933376,-0.291757475976,0.573782785686,0.818988608375,0.0034236097558,0.0,0.818960347386,-0.573714084636,-0.0116980939193,0.0,-0.00761657916513,0.0095161487665,-0.999925712558,0.0,0.5272977358,0.0846133161957,0.304512095162,1.0,-0.16998,-0.223402285714,2.251
0.277983757923,-0.0232623690197,-0.127488254196,-2.15752302616,0.00894715105725,2.12800487607,-0.0285749906869,-0.350156004053,-0.590703486864,-0.00591184863468,-0.708241631226,-0.0818510423623,0.11288154589,-0.301434627855,0.573726734128,0.81902877286,0.00320166758585,0.0,0.818996584075,-0.573657543919,-0.0119316587465,0.0,-0.00793586384753,0.00946784870691,-0.999923688041,0.0,0.524320138154,0.0808075883859,0.304439987401,1.0,-0.16998,-0.223402285714,2.268
0.271613289413,-0.0338683965857,-0.127673211124,-2.16991461591,0.00731351718753,2.13016071775,-0.0340367549088,-0.359054672432,-0.581307111313,-0.0041482808959,-0.705817467497,-0.0896848887595,0.114747362378,-0.309288631914,0.57388735409,0.818915279203,0.00343761596178,0.0,0.818887288876,-0.573818703852,-0.0116811869399,0.0,-0.00759348032679,0.0095188887488,-0.999925862159,0.0,0.521355540755,0.076701870112,0.304547152175,1.0,-0.16998,-0.223402285714,2.286
0.266289258394,-0.0425878898047,-0.127719061345,-2.18035563568,0.0060684484465,2.13163873034,-0.0387324519564,-0.349842890067,-0.570655511281,-0.00197999280077,-0.695638925953,-0.0826347649374,0.103423136693,-0.31951096699,0.573864611207,0.818931699137,0.00332070086078,0.0,0.818900664462,-0.573794486728,-0.0119304503172,0.0,-0.00786497552887,0.00956597154875,-0.999923314234,0.0,0.518735202824,0.073366578444,0.304468480101,1.0,-0.16998,-0.223402285714,2.301
0.260208333328,-0.0525329857931,-0.127733416716,-2.19171452775,0.00455383843409,2.13345068368,-0.0440100908903,-0.361671007765,-0.581284708955,0.000302293293875,-0.663282469027,-0.0893115106684,0.107593905912,-0.317388528767,0.573825221652,0.818958162454,0.00359027120286,0.0,0.818931751156,-0.573755577237,-0.0116649663456,0.0,-0.00749332554681,0.00963402446696,-0.999925515048,0.0,0.51592886417,0.0696353510552,0.304610788455,1.0,-0.16998,-0.223402285714,2.318
0.25290366913,-0.0640047583233,-0.127793596499,-2.20530878029,0.00278516234077,2.1352339649,-0.050417021529,-0.365615662112,-0.575609942333,-0.00195012418264,-0.674783224106,-0.0903462879952,0.0916655767667,-0.3184350244,0.573762477759,0.819003112132,0.00335683401146,0.0,0.818972366048,-0.573692013596,-0.0119366698475,0.0,-0.0078505320373,0.00959815235484,-0.999923119354,0.0,0.512436960359,0.0651835363652,0.304486320806,1.0,-0.16998,-0.223402285714,2.338
0.248050501676,-0.0715256405082,-0.127890353375,-2.21385175412,0.00162144867074,2.13640347808,-0.0546345267248,-0.37678015373,-0.591155055655,-0.011047185778,-0.653385709488,-0.0965917043529,0.0972919526369,-0.329520732276,0.573796045055,0.818979184855,0.00345548179724,0.0,0.818950116969,-0.573725709667,-0.0118432632518,0.0,-0.00771703591445,0.00962567016041,-0.999923894019,0.0,0.510257551674,0.0622512091009,0.304549971238,1.0,-0.16998,-0.223402285714,2.351
0.241201387975,-0.0817705518285,-0.128045492603,-2.22560217926,6.64901916776e-05,2.13793725212,-0.0605844954149,-0.380750379366,-0.562351801077,-0.00681234359365,-0.658033036046,-0.0866857647535,0.070977889068,-0.333523821175,0.573888279006,0.818914365907,0.0035002045082,0.0,0.818885580495,-0.573817398901,-0.0118636283167,0.0,-0.00770696579682,0.00967485050887,-0.999923497047,0.0,0.507218731148,0.0581658337852,0.304551354145,1.0,-0.16998,-0.223402285714,2.369
0.234812947128,-0.0914158221487,-0.128048422267,-2.23666465722,-0.0013749735235,2.13918779883,-0.0662363925487,-0.374333877323,-0.565340329697,-0.000278195090904,-0.631115856399,-0.0867050222857,0.078851762858,-0.332410258732,0.573764137282,0.819001666188,0.00342526660148,0.0,0.818970824277,-0.57369220639,-0.0120327973278,0.0,-0.00788998421298,0.00970936792531,-0.999921735099,0.0,0.504270008751,0.0544678028828,0.304506590909,1.0,-0.16998,-0.223402285714,2.386
0.228211987363,-0.101052784623,-0.128111588338,-2.24736102348,-0.00292555020633,2.14051392654,-0.0719697926254,-0.386829610602,-0.560541141654,-0.00640840961102,-0.634993910413,-0.0937853726902,0.0728155566094,-0.341123308081,0.573738076731,0.819019291934,0.00357290497787,0.0,0.818991546124,-0.573667084167,-0.0118182410684,0.0,-0.00762985634951,0.00970694076162,-0.999923777392,0.0,0.501447709346,0.0506774299424,0.304600474633,1.0,-0.16998,-0.223402285714,2.403
0.221899918094,-0.110024662784,-0.12824428642,-2.25757996009,-0.00430226763749,2.14152321103,-0.0774074173023,-0.398692464507,-0.557153036973,-0.0134710944771,-0.644805603712,-0.0917105321728,0.0614822471154,-0.341622429517,0.573844437912,0.818945327745,0.00344356536415,0.0,0.818914695647,-0.57377239051,-0.0120296318769,0.0,-0.00787593972545,0.00972331082867,-0.999921710335,0.0,0.49866181618,0.047067401032,0.304523305225,1.0,-0.16998,-0.223402285714,2.419
0.215057768756,-0.119604940841,-0.128384583392,-2.26801654533,-0.0058259194515,2.14265548108,-0.0833446218756,-0.398950712495,-0.562277929092,-0.00385007283278,-0.610805578052,-0.084639393948,0.0697625209677,-0.350695080895,0.573901678618,0.818904455085,0.00361989255565,0.0,0.818877139827,-0.573830270509,-0.0118235957656,0.0,-0.00760533774945,0.00975001643765,-0.999923545086,0.0,0.495836985003,0.0432158039384,0.304632773522,1.0,-0.16998,-0.223402285714,2.436
0.208649471057,-0.128417717765,-0.128420757789,-2.277844768,-0.00714330858952,2.14356830884,-0.0890093243149,-0.396750173437,-0.552918825341,-0.0034997515895,-0.616319373467,-0.0933474540214,0.0469137912597,-0.354182931624,0.573830698836,0.81895427058,0.00360259254312,0.0,0.818925860838,-0.573758252518,-0.0119435765234,0.0,-0.0077143743234,0.00980403582073,-0.999922181627,0.0,0.493101343378,0.0397070665829,0.304594194631,1.0,-0.16998,-0.223402285714,2.452
0.201246288946,-0.138353115368,-0.128501322188,-2.28879771537,-0.00875907109996,2.14447591925,-0.0954945879704,-0.405571757926,-0.548817093032,-0.00787059149562,-0.597854896248,-0.0849049912159,0.0533003877949,-0.356835173539,0.573778201765,0.818991449826,0.00351101019503,0.0,0.818961638969,-0.573705838381,-0.0120079892351,0.0,-0.00782030403071,0.00976549314987,-0.999921735932,0.0,0.490011645167,0.0356784222006,0.304567766947,1.0,-0.16998,-0.223402285714,2.47
0.193742087397,-0.148320860825,-0.128666200289,-2.29941889112,-0.0102520634026,2.14550523923,-0.102022944662,-0.419457807264,-0.544160901234,-0.00989623986445,-0.593771381264,-0.0880455562435,0.049378168421,-0.36261723245,0.573888372955,0.818912875094,0.00381906966698,0.0,0.818887894083,-0.573815961543,-0.0117731093843,0.0,-0.00744985115428,0.00988403080435,-0.999923399893,0.0,0.487033331203,0.03163741165,0.304685681107,1.0,-0.16998,-0.223402285714,2.488
0.187358711627,-0.156486362912,-0.128770090653,-2.30835044366,-0.0115932219234,2.14602870294,-0.107614823772,-0.418491684978,-0.546896188023,-0.00479742092933,-0.59830079348,-0.0857125060176,0.0464235502174,-0.364447088002,0.573880225392,0.818919354475,0.00365029740838,0.0,0.818891434387,-0.573807431285,-0.0119414149433,0.0,-0.00768463599064,0.00984232867519,-0.999922034429,0.0,0.48442409781,0.0282452680233,0.304626604784,1.0,-0.16998,-0.223402285714,2.503
0.180144902679,-0.165724432318,-0.128778750483,-2.31813446041,-0.0129959507477,2.146698562,-0.113923158742,-0.429100291086,-0.545489402891,-0.00222531282141,-0.564366986292,-0.0775746486204,0.0476825325584,-0.374938540197,0.573837338088,0.818948857809,0.00377155274748,0.0,0.81892268322,-0.573764336877,-0.0118689315985,0.0,-0.00755621099535,0.00989963680901,-0.999922447426,0.0,0.481567150585,0.0245284583167,0.304687194029,1.0,-0.16998,-0.223402285714,2.52
0.17280255064,-0.174877543684,-0.128846226403,-2.32787058429,-0.014392658212,2.14731109513,-0.120428566677,-0.432531288008,-0.5345959986,-0.00435629442652,-0.583290465915,-0.0861067160064,0.0264801666739,-0.375917522629,0.573779241938,0.818989245862,0.00383973757689,0.0,0.818963728604,-0.573705709601,-0.0118708426202,0.0,-0.00751935784497,0.00995604056724,-0.999922165228,0.0,0.478685582528,0.0207701369988,0.304696275577,1.0,-0.16998,-0.223402285714,2.537
0.16568458268,-0.18343933103,-0.129051571731,-2.33701508346,-0.0158223160273,2.14771487645,-0.126632655275,-0.450446440914,-0.534061934833,-0.0151568230992,-0.571306397666,-0.088289786869,0.0309054759312,-0.397870861286,0.573880643769,0.818918758688,0.0037175634857,0.0,0.818891135055,-0.573806858862,-0.0119893516109,0.0,-0.00768528947799,0.00992492768891,-0.999921212964,0.0,0.4759201408,0.0170965090704,0.30464723889,1.0,-0.16998,-0.223402285714,2.553
0.157690122812,-0.193070226873,-0.129105004557,-2.34689192403,-0.0172796453774,2.14825607471,-0.133688123193,-0.442588152476,-0.528376075745,-0.000874564743937,-0.542704658263,-0.0905115588587,0.0295857210303,-0.393432765274,0.573843311893,0.818943786135,0.00395922306372,0.0,0.818920127737,-0.573769772803,-0.0117821519992,0.0,-0.0073773796867,0.0100035891816,-0.999922748252,0.0,0.472934208264,0.0131263430096,0.304758870167,1.0,-0.16998,-0.223402285714,2.571
0.150022031396,-0.202005702711,-0.129166902015,-2.35629870323,-0.0187088307603,2.14854089364,-0.140490134051,-0.453058407823,-0.524230845557,-0.00774179550482,-0.554929919986,-0.0738102446362,0.00247367643707,-0.3944192215,0.573765105526,0.818999053482,0.00386017843504,0.0,0.818973391484,-0.573690959462,-0.0119169615945,0.0,-0.00754557607192,0.00999911266543,-0.999921537936,0.0,0.470003618177,0.00935718034532,0.304706926206,1.0,-0.16998,-0.223402285714,2.588
0.142676290381,-0.210386147074,-0.129321456374,-2.36503656783,-0.0199828797321,2.14874244938,-0.146964473591,-0.460400481609,-0.520292742977,-0.0131816353638,-0.538917851254,-0.0789669858309,0.00459148363415,-0.407171912344,0.573840206917,0.818946527988,0.00384032847676,0.0,0.818919470075,-0.573764623424,-0.0120749881913,0.0,-0.00768547300164,0.0100742274434,-0.999919718501,0.0,0.467243991379,0.00576013122355,0.304666426136,1.0,-0.16998,-0.223402285714,2.604
0.134297801345,-0.219805506585,-0.129437623471,-2.37444021021,-0.0214371352327,2.14905225623,-0.154300992482,-0.45847282765,-0.516271253038,0.000522647911279,-0.52915709992,-0.0802392688461,0.015501382894,-0.406616305414,0.573918119376,0.818890717555,0.004090459037,0.0,0.818868060384,-0.573843164745,-0.0118266165845,0.0,-0.00733756585298,0.01013725098,-0.999921695069,0.0,0.464274317365,0.00173419922912,0.304790504326,1.0,-0.16998,-0.223402285714,2.622
0.126831489561,-0.227984882184,-0.129463644764,-2.38295063744,-0.0227935325823,2.14913798317,-0.160969324998,-0.472609711594,-0.508425955701,-0.000569660652744,-0.525475557588,-0.0799959895185,0.000848232733659,-0.41640959669,0.573780771033,0.81898775483,0.00392824800872,0.0,0.818962305443,-0.573705481795,-0.0119795376426,0.0,-0.00755758272826,0.010090909672,-0.999920525085,0.0,0.461506007045,-0.00177963082094,0.304704427414,1.0,-0.16998,-0.223402285714,2.638
0.119169511677,-0.236183508038,-0.129581818716,-2.39127871355,-0.0240971563197,2.14915157872,-0.167744654917,-0.481627459028,-0.509801510617,-0.007621474765,-0.511592472785,-0.0820251738567,-0.000811044421493,-0.424041598555,0.573809116383,0.818968050271,0.00389583003971,0.0,0.818941604851,-0.5737331809,-0.0120678034248,0.0,-0.00764812573107,0.0101152676751,-0.999919590533,0.0,0.458759158632,-0.00537486023349,0.30468063386,1.0,-0.16998,-0.223402285714,2.654
0.110901848659,-0.244905011433,-0.12975954226,-2.39976657301,-0.0254838909195,2.14923739065,-0.175057135379,-0.482047469003,-0.502698793847,-0.00448343783628,-0.508160769665,-0.0785361983887,0.00605431218203,-0.425553026347,0.573890504577,0.81890990399,0.00412368808463,0.0,0.818887744806,-0.573815533992,-0.0118042897837,0.0,-0.00730055409142,0.010151402902,-0.999921822409,0.0,0.45595145126,-0.00923212227771,0.304804767543,1.0,-0.16998,-0.223402285714,2.671
0.102669700962,-0.253428174254,-0.129817717411,-2.40839448609,-0.0267849989283,2.14919811896,-0.182441980328,-0.487165338641,-0.49259829146,-0.00183355284408,-0.508055982887,-0.0794263218841,-0.0132967810133,-0.433079580749,0.57381657778,0.81896179053,0.00410702056709,0.0,0.818938546985,-0.573740475555,-0.011927693549,0.0,-0.0074121040385,0.0102079022825,-0.999920426556,0.0,0.453032066414,-0.0129570261836,0.304743107052,1.0,-0.16998,-0.223402285714,2.688
0.0947087836164,-0.261423961489,-0.129914981461,-2.41637908997,-0.0280819948921,2.14906726369,-0.18950382741,-0.498462705765,-0.498677730536,-0.003109278609,-0.49205020891,-0.0791943961352,-0.0130906386084,-0.439345564242,0.573826733804,0.818954919808,0.00405780671568,0.0,0.818930638662,-0.573750264117,-0.0119995994492,0.0,-0.00749910771084,0.010208949758,-0.999919767146,0.0,0.450280148212,-0.016542583966,0.30470466765,1.0,-0.16998,-0.223402285714,2.704
0.0856320517395,-0.270415458827,-0.130104877522,-2.42489298563,-0.0294819708809,2.14897540241,-0.197578446316,-0.513953866233,-0.491741063778,-0.00917849444781,-0.46944133803,-0.0732106738355,-0.00484958987556,-0.450594757746,0.573924145603,0.818885185207,0.00434458792386,0.0,0.818866146739,-0.573848811509,-0.0116842695787,0.0,-0.00707507485851,0.0102637180157,-0.999922296685,0.0,0.447324516357,-0.0206154489648,0.304850551137,1.0,-0.16998,-0.223402285714,2.722
0.0776079356358,-0.278239012177,-0.130151074717,-2.43260448687,-0.0307303677533,2.1487446736,-0.204852303838,-0.504185414376,-0.489466513735,-0.00150872620489,-0.485637278528,-0.0738108243794,-0.0153957361317,-0.458635930557,0.573786988231,0.81898151864,0.00430246024846,0.0,0.818961549521,-0.573711256768,-0.0117524961575,0.0,-0.00715684506599,0.0102671765612,-0.99992167926,0.0,0.444584167639,-0.0241118997424,0.30480807984,1.0,-0.16998,-0.223402285714,2.738
0.0688364735031,-0.286499781429,-0.130247720095,-2.44065107214,-0.0320741658089,2.14841302584,-0.212704262482,-0.520010886881,-0.493376382884,-0.00869259309519,-0.47027222984,-0.0785093677317,-0.0150355688491,-0.465732734088,0.573767785506,0.818995214876,0.00425596365848,0.0,0.818974334296,-0.573691772192,-0.0118125858375,0.0,-0.00723297919985,0.0102634038234,-0.99992117017,0.0,0.441667578011,-0.0279122329051,0.304776852174,1.0,-0.16998,-0.223402285714,2.755
0.059913558951,-0.294722264084,-0.130449200221,-2.44837208422,-0.0332641422729,2.14810394236,-0.220693435678,-0.523933914801,-0.489070649459,-0.0115442719248,-0.450124490474,-0.0734976884661,-0.0256762772477,-0.474233498046,0.573913875534,0.81889153868,0.00450091643851,0.0,0.818874051748,-0.573837350297,-0.0116931466715,0.0,-0.00699275953912,0.0103967429735,-0.999921501444,0.0,0.438831140955,-0.0317630476932,0.304854500134,1.0,-0.16998,-0.223402285714,2.772
0.0510437574269,-0.302826710001,-0.130526706127,-2.45599624938,-0.0345800055323,2.14773210578,-0.228775750917,-0.526511973454,-0.476934329403,-0.00511612139038,-0.450265699115,-0.0790129492032,-0.0259232192013,-0.47595795427,0.573782439287,0.818983246792,0.00457173287664,0.0,0.818967447463,-0.573706874967,-0.0115537229429,0.0,-0.00683960263003,0.0103736234619,-0.999922800906,0.0,0.435985357392,-0.0355075370448,0.30489955785,1.0,-0.16998,-0.223402285714,2.789
0.0424533879782,-0.310308771402,-0.130619970036,-2.4632458054,-0.0358141839185,2.14716278627,-0.236416902669,-0.538624127717,-0.470497362768,-0.00200939290935,-0.445755360451,-0.0734433345206,-0.0326119298261,-0.483726029346,0.573839045258,0.818944506533,0.00440366411007,0.0,0.818925302432,-0.573762178822,-0.0117922894794,0.0,-0.00713071206233,0.0103733478185,-0.999920770162,0.0,0.433192781022,-0.0390915742892,0.304807307721,1.0,-0.16998,-0.223402285714,2.805
0.0326822517755,-0.318713345223,-0.130817002091,-2.471093531,-0.03711924498,2.14663185017,-0.245217919213,-0.547289840413,-0.459518649951,-0.00611020762913,-0.431126346368,-0.0753052307714,-0.0309890225462,-0.498097425586,0.573934571795,0.818877009909,0.00450520168459,0.0,0.81885906796,-0.573857271602,-0.011764588852,0.0,-0.00704854430152,0.0104414305474,-0.999920644127,0.0,0.43014099367,-0.0431557162194,0.304823740993,1.0,-0.16998,-0.223402285714,2.823
0.0235319891799,-0.326563230726,-0.130889667463,-2.47816009363,-0.0383197003705,2.14616017759,-0.253651500005,-0.544870448701,-0.455893152515,-0.00608742782235,-0.413802675429,-0.0695458276347,-0.0293117256147,-0.490846185287,0.573792140144,0.818975563945,0.00472783996818,0.0,0.818961941925,-0.57371636822,-0.0114722890398,0.0,-0.00668321388263,0.0104548315699,-0.999923012611,0.0,0.427359432336,-0.0468762208305,0.304941740111,1.0,-0.16998,-0.223402285714,2.84
0.0146019690966,-0.3337830014,-0.131001130921,-2.48502082946,-0.0394663151278,2.14547670391,-0.261674874762,-0.560961175397,-0.449768536243,-0.00683082606342,-0.430543037965,-0.0597164361446,-0.052650775144,-0.505580084464,0.573862697485,0.81892678184,0.00461273467769,0.0,0.818910264496,-0.573785102631,-0.0117209898714,0.0,-0.00695204792338,0.0105038568715,-0.999920665863,0.0,0.424567186631,-0.0504699421246,0.304847179861,1.0,-0.16998,-0.223402285714,2.856
0.00504229514925,-0.341448716647,-0.131161123675,-2.49201512495,-0.040650514783,2.14478015762,-0.270284812445,-0.556299680746,-0.456363748435,-0.00453230039984,-0.398343379332,-0.0691389399922,-0.041558405766,-0.500386217529,0.573977653955,0.818845816939,0.00468270679766,0.0,0.818830005283,-0.573899507222,-0.011727103683,0.0,-0.00691541981529,0.0105656397128,-0.999920268935,0.0,0.421672931234,-0.0542957826957,0.304861493537,1.0,-0.16998,-0.223402285714,2.873
-0.00445411649933,-0.348987236009,-0.13125178244,-2.49883149553,-0.0418536161462,2.14404819707,-0.279097207996,-0.569431110273,-0.447806237433,-0.0091238550182,-0.393325993707,-0.0732296724872,-0.0486658586497,-0.524062464853,0.573813810403,0.818960456689,0.00471468676161,0.0,0.818945241139,-0.57373586622,-0.011687374841,0.0,-0.00686664514834,0.010567650838,-0.999920583817,0.0,0.418804580834,-0.058028209781,0.304882431963,1.0,-0.16998,-0.223402285714,2.89
-0.013705706937,-0.356013869963,-0.131381114119,-2.50500256434,-0.0429617398289,2.14336950384,-0.287478488146,-0.580865215387,-0.430993241823,-0.00592713456816,-0.383811426155,-0.0600899532172,-0.045338386567,-0.515098408389,0.573893580756,0.818903754092,0.00485246345816,0.0,0.818891286846,-0.573816717096,-0.0114970609167,0.0,-0.00663068935564,0.0105719330458,-0.999922131063,0.0,0.416140381971,-0.0616550514647,0.304967618032,1.0,-0.16998,-0.223402285714,2.906
-0.0235109919506,-0.363301418281,-0.131502932877,-2.51169553228,-0.0441611888605,2.14249059053,-0.296510432813,-0.56834402648,-0.430493711806,-0.000702795492759,-0.387632966558,-0.0742899301163,-0.0521065184636,-0.542398739059,0.573823746077,0.81895334124,0.00474133014932,0.0,0.818938401019,-0.573745607404,-0.0116884653627,0.0,-0.00685212234092,0.0105901802053,-0.999920445087,0.0,0.413194661578,-0.0654304858231,0.304892121989,1.0,-0.16998,-0.223402285714,2.923
-0.0333529860292,-0.370543080802,-0.13157759651,-2.51816265449,-0.0452872803664,2.14165991329,-0.305633102265,-0.588562026314,-0.414366855504,-0.0041843185335,-0.370425419314,-0.06798889614,-0.0506123810056,-0.537572365016,0.573709751188,0.81903303383,0.0047705124071,0.0,0.819018359545,-0.573631364288,-0.0116932259934,0.0,-0.00684075452588,0.0106158594093,-0.999920250623,0.0,0.410305759568,-0.0691585741046,0.304888155722,1.0,-0.16998,-0.223402285714,2.94
-0.0435502764888,-0.377638464418,-0.131756274632,-2.52439848029,-0.046362231406,2.14073334459,-0.314833917416,-0.599807695263,-0.426137845788,-0.0127382764491,-0.360262094617,-0.0680760167345,-0.0541548083715,-0.545492133717,0.573928871056,0.818879052717,0.00484715293954,0.0,0.81886491928,-0.573849492713,-0.0117367196449,0.0,-0.00682954909931,0.0107054118686,-0.999919372458,0.0,0.407409252129,-0.0730263442353,0.304901865797,1.0,-0.16998,-0.223402285714,2.957
-0.0535812085608,-0.384601669052,-0.131840160469,-2.53037573745,-0.0474841733658,2.13991105932,-0.324210222789,-0.586347353652,-0.395152009027,-0.00641762616576,-0.350317965579,-0.0713738674165,-0.0591350035073,-0.549658971549,0.573780736621,0.818982261743,0.00494652747896,0.0,0.81897059253,-0.573702947108,-0.0115257950983,0.0,-0.00660171144879,0.0106645450676,-0.999921339348,0.0,0.404604168043,-0.0767690762468,0.304973532096,1.0,-0.16998,-0.223402285714,2.974
-0.0638928184828,-0.391466637652,-0.13197636222,-2.53647639363,-0.0486242464593,2.13890736042,-0.333727721225,-0.609829029544,-0.415561318127,-0.0045637234589,-0.356579693831,-0.06253163819,-0.0572987876621,-0.561553116013,0.573770119025,0.81899019206,0.00486443463576,0.0,0.818976650791,-0.573691290559,-0.01167456628,0.0,-0.00677080185475,0.0106825813428,-0.99992001615,0.0,0.401657833066,-0.0805782951684,0.304917450519,1.0,-0.16998,-0.223402285714,2.991
-0.0737401627728,-0.397834877264,-0.132127756814,-2.54197821048,-0.0496293932289,2.13796496862,-0.342741726423,-0.611609980081,-0.389038218081,3.62112770244e-05,-0.337558582779,-0.0593000082155,-0.0549273701326,-0.572964200361,0.573883863398,0.818910286486,0.00489907340553,0.0,0.818896932929,-0.573804491625,-0.0117032273839,0.0,-0.00677291336444,0.010728336085,-0.999919511986,0.0,0.398921896911,-0.0841919461817,0.30492190249,1.0,-0.16998,-0.223402285714,3.007
-0.0846659969373,-0.404835549664,-0.132214271091,-2.54802271633,-0.050744488486,2.13690490936,-0.35304267049,-0.622499714278,-0.383046063886,-0.00895292311031,-0.330631196269,-0.0664489981129,-0.0642953460414,-0.573685375628,0.57370187291,0.819037797713,0.00489835053194,0.0,0.8190242306,-0.57362221141,-0.0117309491693,0.0,-0.00679841899894,0.0107421421046,-0.999919190676,0.0,0.39587324195,-0.0881219523534,0.304913342655,1.0,-0.16998,-0.223402285714,3.025
-0.0947608987176,-0.410896070815,-0.132392766585,-2.5531157171,-0.0517169501649,2.13601168438,-0.36229122658,-0.64207344166,-0.374602679672,-0.017985247244,-0.311265976788,-0.0489170999914,-0.0603220454568,-0.577769678294,0.573871406318,0.818918435191,0.00499523932601,0.0,0.818906674295,-0.57379228686,-0.0116196917415,0.0,-0.00664947800512,0.0107590508095,-0.999920010435,0.0,0.393190434764,-0.0917796126975,0.304956625367,1.0,-0.16998,-0.223402285714,3.041
-0.105392722425,-0.417264561828,-0.132469658174,-2.55846941472,-0.0526717804535,2.13500161946,-0.372278538187,-0.619238607066,-0.374540659265,-0.000642644730804,-0.316595447211,-0.0515900740585,-0.0694499717078,-0.603126773145,0.573792339581,0.818973311948,0.00508057635103,0.0,0.818962804732,-0.573713214865,-0.0115679927326,0.0,-0.00655920981423,0.0107986365796,-0.999920179922,0.0,0.390331086203,-0.0955322715895,0.304985160769,1.0,-0.16998,-0.223402285714,3.058
-0.115501940564,-0.423173267126,-0.132602472181,-2.56352850299,-0.053635754961,2.13390151365,-0.381763393753,-0.641730621792,-0.363727286121,-0.0130320647054,-0.317976259309,-0.0664282733844,-0.0719450550265,-0.598015792897,0.573751560451,0.819002245551,0.00502151013176,0.0,0.818989876474,-0.573670846014,-0.0117511517127,0.0,-0.00674365551126,0.0108550165875,-0.999918342529,0.0,0.387375743999,-0.099306226998,0.304938451416,1.0,-0.16998,-0.223402285714,3.075
-0.127139958413,-0.429607469949,-0.132766487208,-2.56895080614,-0.0547030346802,2.13279022062,-0.392511307882,-0.633904855739,-0.3519420121,-0.00190665452708,-0.295597918849,-0.057670078562,-0.0587879781269,-0.603721469763,0.573873208353,0.818916964536,0.00502919784495,0.0,0.81890463376,-0.573792348117,-0.0117596322175,0.0,-0.00674457693302,0.0108671805159,-0.99991820419,0.0,0.384472564116,-0.103148008426,0.304931332491,1.0,-0.16998,-0.223402285714,3.092
-0.137342137032,-0.435116109356,-0.132828190397,-2.57356741353,-0.0555281673047,2.13182491985,-0.402229066478,-0.647971364463,-0.339984643435,-0.00678688535116,-0.287537157144,-0.0521863375904,-0.0637075474404,-0.599790123468,0.573734478268,0.81901383674,0.00508237902885,0.0,0.819001951724,-0.573653067994,-0.0117774171011,0.0,-0.00673047482676,0.0109197988399,-0.999917725966,0.0,0.381794676431,-0.106641563091,0.304923219243,1.0,-0.16998,-0.223402285714,3.108
-0.149902635611,-0.441584951721,-0.133033374962,-2.5787994826,-0.0566160166405,2.13059285233,-0.413886963577,-0.667704674345,-0.342007034729,-0.0104503675825,-0.266139631362,-0.0558273491359,-0.0623377769789,-0.607709952738,0.573895599114,0.818900635594,0.00513198225217,0.0,0.818889840704,-0.573814725251,-0.0116977253274,0.0,-0.00663459545609,0.010916011381,-0.999918408091,0.0,0.378573669857,-0.110983341073,0.304975745826,1.0,-0.16998,-0.223402285714,3.127
-0.160307758132,-0.446965670629,-0.133080333911,-2.58312873594,-0.0574684965926,2.12961344233,-0.423811765932,-0.650128813623,-0.334822205958,-0.00474562468831,-0.270847264157,-0.0510611473579,-0.0615312870285,-0.62000258718,0.573738476136,0.819010356386,0.00519076434131,0.0,0.819001100986,-0.573658736988,-0.0115584152128,0.0,-0.00648885937733,0.0108829587719,-0.999919724734,0.0,0.375895215247,-0.114487108862,0.305026629316,1.0,-0.16998,-0.223402285714,3.143
-0.170271349482,-0.451822979433,-0.133239220482,-2.58720876363,-0.058226075742,2.12859826935,-0.433208654336,-0.670473214538,-0.323318714965,-0.0107989760445,-0.270549299062,-0.0536523607495,-0.0673565204808,-0.636554266171,0.573784065576,0.818978343375,0.00520250664057,0.0,0.818967961557,-0.573702149126,-0.0117502737247,0.0,-0.00663865828343,0.01100301793,-0.999917427497,0.0,0.373114841726,-0.118059324677,0.304970578301,1.0,-0.16998,-0.223402285714,3.159
-0.182335063401,-0.45747503883,-0.133349556064,-2.59179519194,-0.059128990653,2.1274263638,-0.444604695474,-0.655630711638,-0.314671508949,-0.00335207988703,-0.250924806396,-0.0446835931423,-0.0628861975998,-0.629674045996,0.573791766708,0.818972779006,0.00522901582535,0.0,0.818962571351,-0.573709477104,-0.0117681565405,0.0,-0.00663799173274,0.0110350520372,-0.999917078908,0.0,0.370227458889,-0.121848443457,0.304976943382,1.0,-0.16998,-0.223402285714,3.176
-0.193723002908,-0.46253500224,-0.133428927007,-2.59591882385,-0.0599457912547,2.12642874244,-0.455497795606,-0.68148826144,-0.288581028104,-0.00605099356511,-0.249222160226,-0.0492531854135,-0.0605581388222,-0.640902195958,0.573690808369,0.819043314525,0.00525853847879,0.0,0.81903353314,-0.573608508527,-0.0117514867138,0.0,-0.00660876145397,0.0110488519865,-0.999917120136,0.0,0.367384517488,-0.125606491408,0.304968959333,1.0,-0.16998,-0.223402285714,3.193
-0.204740370371,-0.467239155406,-0.133597037258,-2.59975767328,-0.0607595505891,2.12539437553,-0.465811469806,-0.680867221696,-0.298317107407,-0.000805775457234,-0.237146269033,-0.0524967615334,-0.0566911656196,-0.6562968071,0.573839685577,0.818939084774,0.00524762683219,0.0,0.818928586338,-0.573756438506,-0.0118434223232,0.0,-0.00668831052679,0.0110938709568,-0.999916092745,0.0,0.364617875594,-0.129242228881,0.304940615344,1.0,-0.16998,-0.223402285714,3.209
-0.2162504968,-0.472166569902,-0.133677312102,-2.60356311685,-0.0615311291863,2.12435398207,-0.476860665815,-0.682875020316,-0.295939570777,-0.00548390575681,-0.217186255384,-0.0424850585656,-0.0595314779406,-0.659790693022,0.573742709864,0.819006446321,0.00533766460755,0.0,0.818997912003,-0.573660507664,-0.0116956822234,0.0,-0.00651695721819,0.0110820619451,-0.999917355171,0.0,0.361779338052,-0.132983091451,0.305007454113,1.0,-0.16998,-0.223402285714,3.226
-0.228093089056,-0.476897373255,-0.133867522484,-2.60720740412,-0.0623305927266,2.1233469017,-0.488071422054,-0.702568434396,-0.269598289344,-0.0102338590604,-0.215821990599,-0.0505630514664,-0.0556636535924,-0.659691360546,0.573860406454,0.818923388922,0.00542806440281,0.0,0.818916787247,-0.573779205325,-0.0115527487216,0.0,-0.00634642784337,0.0110750113671,-0.99991853017,0.0,0.358897277096,-0.136856284147,0.305065381827,1.0,-0.16998,-0.223402285714,3.243
-0.239081760701,-0.481099856304,-0.133898610064,-2.61060111029,-0.0629963387433,2.12238004253,-0.498716813676,-0.686896236231,-0.256478458498,-0.00398521027848,-0.21206607944,-0.0420028055466,-0.0520127137546,-0.670449539679,0.573697085656,0.819037793884,0.00543074576423,0.0,0.819030718191,-0.573615020577,-0.0116291757589,0.0,-0.00640970052158,0.0111197859354,-0.999917629658,0.0,0.356193363583,-0.140346450356,0.305037246295,1.0,-0.16998,-0.223402285714,3.259
-0.251030632956,-0.485402001372,-0.134026977577,-2.61405527632,-0.0637715195461,2.12133647249,-0.51007382777,-0.711479285579,-0.253463002918,-0.0146142108867,-0.194959059756,-0.0373104900384,-0.0634452735755,-0.674242186494,0.573755819056,0.818996880483,0.00539599469569,0.0,0.818988760856,-0.573672835591,-0.0117317602425,0.0,-0.00651286485613,0.0111506394007,-0.99991661944,0.0,0.353270803128,-0.144162228976,0.305004867775,1.0,-0.16998,-0.223402285714,3.276
-0.262964729563,-0.489458025537,-0.134098165636,-2.61733946349,-0.0644449667281,2.12033518245,-0.52156165231,-0.695565718146,-0.235848720992,-0.00297465636767,-0.187758433632,-0.0390002448814,-0.0542046484868,-0.683588807415,0.573703705909,0.819033391842,0.00539516218928,0.0,0.819024307147,-0.573619110146,-0.0118763495294,0.0,-0.00663248639957,0.011232490972,-0.999914917016,0.0,0.350209484161,-0.148141953204,0.304957384423,1.0,-0.16998,-0.223402285714,3.294
-0.274288333719,-0.4931526238,-0.134225162764,-2.6202438658,-0.0650536127213,2.1194717715,-0.532475416558,-0.709767079082,-0.234640150594,-0.0173022494598,-0.183353406395,-0.0265031565486,-0.0578378127763,-0.683821373701,0.573713654668,0.81902604178,0.00545272724742,0.0,0.81901756953,-0.573628615449,-0.0118818870386,0.0,-0.00660386167357,0.0112828974855,-0.999914538966,0.0,0.347669760555,-0.151494812546,0.304950054416,1.0,-0.16998,-0.223402285714,3.309
-0.287155536302,-0.497207130342,-0.134326051607,-2.6233352448,-0.0657303525958,2.11846849581,-0.54481075221,-0.700569410693,-0.221791948743,0.000178953103331,-0.175500657957,-0.0295989641378,-0.0460605261897,-0.689621345461,0.573761025727,0.818992477984,0.00550937954318,0.0,0.818984923188,-0.573676082514,-0.0118403903491,0.0,-0.00653671721094,0.0113058709667,-0.999914720669,0.0,0.344612226046,-0.155521111569,0.3049780265,1.0,-0.16998,-0.223402285714,3.327
-0.299257722511,-0.500795504086,-0.134384222825,-2.62607029615,-0.0663239508338,2.11755803044,-0.55656852871,-0.713821776458,-0.20602689174,-0.00682469615727,-0.158925715334,-0.0375675189602,-0.0535445635077,-0.692168338041,0.573678673011,0.819049865525,0.00555381099569,0.0,0.819042961034,-0.573593712051,-0.0118164451652,0.0,-0.00649275176405,0.0113278704816,-0.999914758129,0.0,0.341755522894,-0.159272744477,0.304997872863,1.0,-0.168737142857,-0.221768816327,3.344
-0.310840180233,-0.50393091802,-0.134474960477,-2.62848461774,-0.0668925363621,2.11678085146,-0.567607238645,-0.717225264937,-0.188512829988,-0.00160353572458,-0.142910551944,-0.0352009251276,-0.0485903425181,-0.690115530689,0.573810976303,0.818957019405,0.0055777005732,0.0,0.818950545617,-0.573726115502,-0.0117938597029,0.0,-0.00645871605657,0.0113355253222,-0.999914891805,0.0,0.339051323802,-0.162869645342,0.305001414829,1.0,-0.16668,-0.219065142857,3.36
-0.322860594791,-0.507061812152,-0.134468351379,-2.63084798069,-0.067394589535,2.11603044611,-0.579320817635,-0.712959032842,-0.176745974217,-0.00117803483229,-0.133115893903,-0.0309457316247,-0.0431203687812,-0.690105662167,0.573710194158,0.819027252661,0.00563199948252,0.0,0.819022019521,-0.573626111403,-0.01169456105,0.0,-0.00634762445674,0.0113222384689,-0.999915753741,0.0,0.336275124312,-0.166548032587,0.305028232208,1.0,-0.164494285714,-0.216192489796,3.377
-0.33504098348,-0.51002978539,-0.134507667244,-2.6330786364,-0.0678770521223,2.11527043289,-0.590964724219,-0.707620721062,-0.173776512995,0.00236281373135,-0.133448602923,-0.0323652665047,-0.0505412681651,-0.694930895813,0.573845605468,0.818931944327,0.00569548471765,0.0,0.818927785712,-0.573761734595,-0.0116404726955,0.0,-0.00626502436756,0.0113442432021,-0.999916025282,0.0,0.333460544885,-0.170268355794,0.305050026297,1.0,-0.162308571429,-0.213319836735,3.394
-0.346139391457,-0.512537800621,-0.134447385075,-2.63502005433,-0.0682518352018,2.11457361058,-0.601837706367,-0.697721089466,-0.145493248571,0.00232913089831,-0.117828780857,-0.0241009822653,-0.041123572345,-0.672434155246,0.573717696539,0.819021351188,0.00572519674114,0.0,0.819017198049,-0.573633061629,-0.0116913133747,0.0,-0.00629139427113,0.0113967673952,-0.999915262435,0.0,0.330899585156,-0.173599936448,0.305038405326,1.0,-0.160251428571,-0.210616163265,3.41
-0.358131438029,-0.514978781123,-0.134477689738,-2.63693651487,-0.0686599457257,2.11386488147,-0.61332960748,-0.707307360885,-0.13924074866,-0.00269220857803,-0.109255889937,-0.0221337286732,-0.0394650306487,-0.665696503616,0.573868685614,0.818915314589,0.0057607382471,0.0,0.818910871125,-0.573782535553,-0.0118039802009,0.0,-0.00636117163385,0.0114916870298,-0.999913734591,0.0,0.32797611982,-0.177432348266,0.305007580933,1.0,-0.157937142857,-0.207574530612,3.428
-0.370458869052,-0.517276505833,-0.134392321852,-2.63875556867,-0.068999569133,2.11320733087,-0.625361357716,-0.683960113837,-0.120965608763,0.00314695108594,-0.0921158414735,-0.0192999026162,-0.0379394600134,-0.666153578718,0.573800038623,0.818963154183,0.00579781585875,0.0,0.818958591366,-0.573712677719,-0.0118884798764,0.0,-0.00641006993051,0.0115700040794,-0.999912519178,0.0,0.325328300267,-0.180891789305,0.304974901447,1.0,-0.155751428571,-0.204701877551,3.445
-0.380794185021,-0.51909225222,-0.134370135373,-2.64016786971,-0.0693217564153,2.11267577846,-0.635322628203,-0.692908915019,-0.122054079473,-0.000214202719314,-0.0938889909962,-0.0157522688214,-0.0325552579024,-0.669021703351,0.573872876603,0.818912029345,0.00581004260452,0.0,0.81890726337,-0.573784800764,-0.011943337628,0.0,-0.00644695283967,0.0116120671784,-0.999911794457,0.0,0.322966801504,-0.183977094665,0.304956740977,1.0,-0.153822857143,-0.202167183674,3.46
-0.392945098469,-0.521073652423,-0.134272130804,-2.64164325026,-0.069646535523,2.11210384266,-0.647162736542,-0.664263541826,-0.103853552816,0.0128386302689,-0.0785415771564,-0.0138229965783,-0.0328925425736,-0.648630147781,0.573834926356,0.81893847382,0.00583097699061,0.0,0.818934094079,-0.573746981825,-0.011920457305,0.0,-0.00641673920522,0.011615784239,-0.99991194563,0.0,0.320226945093,-0.187580669932,0.304968273782,1.0,-0.151508571429,-0.19912555102,3.478
-0.404285405577,-0.522745835777,-0.134194980111,-2.64285711856,-0.0699128525852,2.11160372298,-0.658247703236,-0.675702836966,-0.0965365172179,0.00442544773483,-0.0643204765073,-0.0123087148879,-0.0353038219657,-0.650609431122,0.573806023491,0.818958438241,0.00587117877446,0.0,0.818954760625,-0.573718255038,-0.0118832145185,0.0,-0.00636357888049,0.011627113735,-0.999912153687,0.0,0.317681835761,-0.190941418895,0.304989685427,1.0,-0.149322857143,-0.196252897959,3.495
-0.414995254512,-0.524159824482,-0.134171702429,-2.64387860707,-0.0701762118648,2.11118499357,-0.668585843193,-0.657937555845,-0.0870921286663,0.00323465412308,-0.0591673541926,-0.0187229846611,-0.0214827984182,-0.643092884294,0.573922850293,0.818876325115,0.00590533476039,0.0,0.818873346874,-0.573835396801,-0.0118374853045,0.0,-0.0063048677375,0.0116297484546,-0.999912494968,0.0,0.31527804433,-0.194127488025,0.305008654763,1.0,-0.147265714286,-0.19354922449,3.511
-0.426652375729,-0.525484733948,-0.134047831744,-2.64489900818,-0.0704002451625,2.1107919431,-0.680084840746,-0.650454760651,-0.0722721295876,0.00290551184417,-0.0584547128686,-0.00935575526434,-0.0293088799691,-0.629525242234,0.573810941364,0.818954621478,0.00592270477913,0.0,0.81895181309,-0.573723341245,-0.0118407114463,0.0,-0.00629913266328,0.0116449638003,-0.999912354032,0.0,0.312677514329,-0.197551599959,0.304999671039,1.0,-0.144951428571,-0.190507591837,3.529
-0.43580560336,-0.526439005191,-0.134028401235,-2.64561735585,-0.0705447718349,2.1104955556,-0.688932194092,-0.652237316675,-0.0697475199903,0.00519383053451,-0.0461675585607,-0.0138948876135,-0.0177794878795,-0.634871003455,0.57394492642,0.818860232485,0.00599065881077,0.0,0.81885820731,-0.573856853544,-0.0118446132319,0.0,-0.00626142268074,0.0117038811402,-0.999911902996,0.0,0.310621647983,-0.200249911084,0.304997536922,1.0,-0.143151428571,-0.188141877551,3.543
-0.447795639579,-0.527490138836,-0.133878221619,-2.6464301561,-0.0707200747586,2.11015367625,-0.700817593478,-0.616255128197,-0.0517218154671,0.0135456260106,-0.0386130194434,-0.00709037286486,-0.0123791209708,-0.629443641585,0.573803371884,0.818959278981,0.00601137974299,0.0,0.818957381178,-0.573714982191,-0.0118606039205,0.0,-0.00626465362684,0.0117289441523,-0.999911589084,0.0,0.307954231462,-0.203748715418,0.304987007919,1.0,-0.140708571429,-0.184931265306,3.562
-0.458558622288,-0.528280411927,-0.133799113647,-2.64703365697,-0.070875608568,2.10989328586,-0.71125253586,-0.636962815173,-0.0436482830538,0.0016689709423,-0.0343444682528,-0.00759668744912,-0.0155281231139,-0.624750461022,0.573915363649,0.818880575115,0.00604201697395,0.0,0.818879045975,-0.573826776065,-0.0118611144395,0.0,-0.00624588534525,0.0117551832259,-0.999911398367,0.0,0.305555617813,-0.206903296676,0.304981161168,1.0,-0.138522857143,-0.182058612245,3.579
