nelsonifechukwu/NELSON_IML_WORK/CNN-GradCAM/train2dof/data_sample_2022-02-22-15-13-14/robot_state.csv
position_joint1,position_joint2,position_joint3,position_joint4,position_joint5,position_joint6,position_joint7,velocity_joint1,velocity_joint2,velocity_joint3,velocity_joint4,velocity_joint5,velocity_joint6,velocity_joint7,ee_T_00,ee_T_10,ee_T_20,ee_T_30,ee_T_01,ee_T_11,ee_T_21,ee_T_31,ee_T_02,ee_T_12,ee_T_22,ee_T_32,ee_T_03,ee_T_13,ee_T_23,ee_T_33,v_x,v_y,time
0.465060863257,0.547786572477,-0.123982193947,-1.35584867235,0.0796099540668,1.89410625529,0.159176673307,0.000781283099349,0.000468542199063,-0.00224530407268,0.0012351253387,-0.000109714374708,0.000174342209853,0.000692737229002,0.573856189968,0.818941907096,0.00199322300237,0.0,0.818898273547,-0.573796402509,-0.0120022060728,0.0,-0.00868557256662,0.00851995115903,-0.999925982891,0.0,0.661670199194,0.260901928057,0.30320359569,1.0,0.0,0.0,0.0
0.465057389442,0.547782789377,-0.123984900276,-1.35585651526,0.0796070996365,1.89410542762,0.159174240603,-0.000342608976416,0.000367618231811,0.00174658999541,-0.00347557053375,-0.000262149045495,0.000139465275739,-0.000147485467789,0.573858592737,0.818940238015,0.00198721002319,0.0,0.818896556275,-0.57379886018,-0.0120018781197,0.0,-0.00868872936271,0.00851486427009,-0.999925998796,0.0,0.66167002356,0.260896662155,0.303202555267,1.0,-0.00028,-0.000368,0.015
0.465062676083,0.547778264225,-0.123985741884,-1.35585683231,0.0796063927272,1.89410818908,0.159176714219,0.00238934082994,-0.00246415101697,-0.000384518243965,0.000292868013497,-6.7699441563e-05,0.000171026084333,-0.0023914241913,0.573856718286,0.818941538547,0.00199254142601,0.0,0.818897941258,-0.573796977945,-0.0119973666373,0.0,-0.00868199479912,0.00851662148956,-0.999926042327,0.0,0.661669476158,0.260899769355,0.30320587638,1.0,-0.00054,-0.000709714285714,0.028
0.465052013094,0.547742436656,-0.123981794314,-1.35589540857,0.0796070025911,1.89410995664,0.159173266879,-9.43430176731e-05,-0.00265395368501,-0.0009129249645,-0.00361914075574,6.82024425157e-05,0.00016161585432,0.000716206979323,0.57386208626,0.81893777079,0.00199510125433,0.0,0.818894143735,-0.573802272421,-0.0120033504559,0.0,-0.00868537065119,0.00852220854697,-0.999925965409,0.0,0.661663773703,0.260891109062,0.303212920661,1.0,-0.00096,-0.00126171428571,0.049
0.465058695501,0.54766326158,-0.123984416562,-1.35597998724,0.0796036853351,1.89412469313,0.159174747457,-0.000382772546142,-0.00383198027624,4.2510024445e-05,-0.00717927122117,-0.000119154937132,0.00396573080113,0.000662874515834,0.573863359797,0.818936855181,0.00200459716971,0.0,0.818893328886,-0.573803482802,-0.0120010803938,0.0,-0.00867804927826,0.00852869576921,-0.999925973665,0.0,0.6616484628,0.260885478581,0.303230113375,1.0,-0.00122,-0.00160342857143,0.062
0.465044560068,0.547501173188,-0.123980352616,-1.35620177411,0.0796035268458,1.89416361302,0.159171918032,0.00111098791046,-0.0101617107236,-0.00116043983205,-0.010607373189,-0.000194038779672,0.00613709739521,0.000865786325515,0.573881829736,0.818923930416,0.0019971458487,0.0,0.81888010669,-0.573821785588,-0.0120281400278,0.0,-0.00870429349483,0.00853831840224,-0.999925663434,0.0,0.66161241858,0.260856893564,0.303242618543,1.0,-0.00162,-0.00212914285714,0.082
0.465024854808,0.547364973583,-0.123987489834,-1.35637672445,0.0796014829296,1.89423180192,0.159161643444,-0.00363709713525,-0.0152192283766,-0.00137888363404,-0.0147756637269,6.69012389531e-05,0.000929246686395,-0.000528019653944,0.573903784752,0.818908474887,0.00202546456218,0.0,0.818864988787,-0.573843585705,-0.0120173285393,0.0,-0.00867895943615,0.00855553706793,-0.999925736467,0.0,0.661596398141,0.260825052175,0.303261981006,1.0,-0.0019,-0.00249714285714,0.096
0.465000892098,0.547179814535,-0.123982859262,-1.35659153555,0.0795982712449,1.89436172463,0.159144821262,-8.52435371605e-05,-0.00857048972841,-0.000172451404792,-0.0164846700248,-0.00343299211423,0.00810324517198,-0.00197914707558,0.5739178475,0.818898389308,0.00211641451753,0.0,0.818856058303,-0.573857233642,-0.0119740585229,0.0,-0.00859118286451,0.00860533042214,-0.9999260672,0.0,0.661583318214,0.260797131623,0.303302016062,1.0,-0.00224,-0.002944,0.113
0.464970360709,0.546981544706,-0.123982867035,-1.35683419585,0.0795951586461,1.89448772875,0.15913769904,-0.00117387469846,-0.0138278242774,-0.000162021930574,-0.0183236899956,-7.6083741606e-05,0.00661501799042,-0.00102053585386,0.573949960635,0.818875684402,0.00219159386406,0.0,0.818834291132,-0.573888991091,-0.0119405390034,0.0,-0.00852024949824,0.00864799059972,-0.999926306088,0.0,0.661566174866,0.260758792661,0.303337888584,1.0,-0.00256,-0.00336457142857,0.129
0.464928910531,0.546696645626,-0.123982861204,-1.35725075924,0.0795898871895,1.89464598851,0.159089956955,-0.00591192762593,-0.0204270268645,-0.000141171723018,-0.0237495609121,2.0933992281e-05,0.00269686818939,-0.00352846430894,0.573966731733,0.818863838441,0.00222527720886,0.0,0.818822714498,-0.573905450503,-0.0119433247048,0.0,-0.00850302170202,0.00867734563733,-0.999926198424,0.0,0.66152079822,0.260695563893,0.30335512849,1.0,-0.00296,-0.00389028571429,0.149
0.464900486219,0.546465020115,-0.123983173234,-1.35758348656,0.0795787930389,1.89477222273,0.158963892638,-0.00427494672597,-0.0193552369151,7.03621916539e-05,-0.0241184016417,0.000310994107283,0.0115256636771,-0.00807238020301,0.573902669811,0.818908662439,0.00225279116459,0.0,0.818867817166,-0.573841203573,-0.011938090005,0.0,-0.0084836242608,0.00869620733871,-0.999926199325,0.0,0.661483842219,0.260646902807,0.303371746027,1.0,-0.00324,-0.00425828571429,0.163
0.46485436566,0.546131544198,-0.123983177608,-1.35813652907,0.0795648970557,1.89496596446,0.158945816225,-0.000950984031994,-0.0189856392485,-0.00051470547252,-0.0284090648408,-0.000323594236614,0.00962988390175,6.13244540503e-05,0.573952871596,0.818873511739,0.00224050436189,0.0,0.818832313969,-0.573891251997,-0.0119674300668,0.0,-0.00851416955607,0.00870350579302,-0.999925876205,0.0,0.661417133756,0.260566021849,0.303361455823,1.0,-0.00364,-0.004784,0.183
0.464815388763,0.545876271231,-0.123986020851,-1.35855301579,0.0795521227357,1.89510453686,0.158905866184,-0.00814939646028,-0.016596365746,-0.00078322645886,-0.0342701938114,4.62591734847e-05,0.0111048569041,-0.00797649878858,0.573973889625,0.818858815715,0.00222729781764,0.0,0.818817322927,-0.57391219614,-0.0119887321273,0.0,-0.00853897001133,0.00870513684803,-0.999925650528,0.0,0.661367395076,0.260499844032,0.303356072616,1.0,-0.0039,-0.00512571428571,0.196
0.464747109921,0.545437102348,-0.123983567459,-1.35929273702,0.0795068637128,1.89535575852,0.158767090732,-0.00440000002969,-0.0256109046047,-0.00252706542304,-0.0374959657485,-0.00401932843037,0.0093203515191,-0.00429346458205,0.573943701006,0.818880087562,0.00218567410013,0.0,0.818837994708,-0.573882125951,-0.0120162738695,0.0,-0.00858573340116,0.0086865449371,-0.999925411778,0.0,0.661278914515,0.26038378433,0.30333656351,1.0,-0.00432,-0.00567771428571,0.217
0.464705317645,0.545133038098,-0.123981476478,-1.35982655619,0.0794443096221,1.89552342184,0.158726969452,-0.00321714594743,-0.0227329644749,0.000649199590075,-0.0397898542722,-0.00231914014743,0.0136367796615,0.000707774402276,0.573956666081,0.818871182972,0.00211614291007,0.0,0.818828391551,-0.573895591168,-0.0120275737049,0.0,-0.00863475466747,0.00863623027427,-0.999925425489,0.0,0.661211591526,0.260299228558,0.303312105487,1.0,-0.00458,-0.00601942857143,0.23
0.464626410987,0.544623563449,-0.12398426055,-1.36066279455,0.0794183361472,1.89580630126,0.158621450176,-0.0025390506331,-0.0307922721618,-0.000582596981761,-0.0415421351428,-0.00125730234815,0.00733015728246,-0.00165143367749,0.573976475126,0.818857361367,0.00209156362245,0.0,0.818813990244,-0.573915244037,-0.0120701675257,0.0,-0.00868353246945,0.00864076012754,-0.999924963949,0.0,0.661111802492,0.26016785956,0.303299305103,1.0,-0.00498,-0.00654514285714,0.25
0.464571011133,0.544282488261,-0.123984340486,-1.36124638831,0.0793973870964,1.896022118,0.158529417967,-0.00687455966353,-0.0277642075636,-0.000258897789809,-0.0443882502555,-0.000218067504628,0.0176938460674,-0.00707993380244,0.573973589148,0.81885942464,0.00207570228267,0.0,0.818815703443,-0.573912284773,-0.0120946303417,0.0,-0.00871269874971,0.00864178239244,-0.999924701404,0.0,0.661045193924,0.260077643736,0.303281627636,1.0,-0.00524,-0.00688685714286,0.263
0.464485629942,0.543656933199,-0.123983953718,-1.36226245177,0.0793586047035,1.89637894807,0.158429678535,-0.0117464114642,-0.0316203704587,0.000642052090128,-0.0475190745124,-0.00265630317884,0.0211211709698,-0.0057715322616,0.574007805576,0.818835482426,0.00205882458324,0.0,0.81879129271,-0.573946324826,-0.0121318631084,0.0,-0.00875251369106,0.00864969829585,-0.999924285245,0.0,0.660923278008,0.259926968172,0.303271568846,1.0,-0.00566,-0.00743885714286,0.284
0.464427434406,0.543240119192,-0.123989253176,-1.36291071769,0.0793212059201,1.89660848032,0.158326763532,-0.00372776928996,-0.0327836233331,-0.000190875661347,-0.0504102711253,-0.00176157705916,0.018820591154,-0.00414032461965,0.574000976086,0.818840273768,0.00205728176836,0.0,0.818796053151,-0.573939492369,-0.0121338099895,0.0,-0.00875506560203,0.00864947949908,-0.999924264797,0.0,0.66084918831,0.259823481323,0.303277944796,1.0,-0.00592,-0.00778057142857,0.297
0.464333542985,0.542584457422,-0.123995635664,-1.36396196365,0.0792598571793,1.89698400084,0.158199159496,-0.00426611192211,-0.0301485183004,-0.00228461788038,-0.0501771305671,-0.00183387233819,0.0288738964853,-0.010467830854,0.574019939336,0.818827025262,0.00203932501527,0.0,0.818782550717,-0.573958513239,-0.0121452304412,0.0,-0.00877452389628,0.00864153455513,-0.99992416293,0.0,0.66072841241,0.259657112199,0.303274092884,1.0,-0.00632,-0.00830628571429,0.317
0.46426926466,0.542084673279,-0.123996585325,-1.36473039701,0.079216872567,1.89727564671,0.158089642629,-0.00543890137674,-0.0315855922133,-5.00394998572e-05,-0.0560037600755,-0.00524922330412,0.0138674288757,-0.00292067461296,0.574014867098,0.818830528562,0.00206027807911,0.0,0.818786308084,-0.573953329886,-0.0121368739152,0.0,-0.00875570799361,0.00865384016269,-0.999924221443,0.0,0.660641888333,0.259542274646,0.303287088571,1.0,-0.0066,-0.00867428571429,0.331
0.464161052696,0.541343575017,-0.123996360373,-1.36586114627,0.0791547933241,1.89769130218,0.157937737852,-0.00276309248927,-0.0368841328476,-0.000114184433233,-0.0568730288175,-9.77205372305e-05,0.0226792416431,-0.0108272782826,0.574025129773,0.818823268745,0.00208610917367,0.0,0.818779319907,-0.573963412733,-0.0121314894873,0.0,-0.00873636373819,0.00867200984085,-0.999924233227,0.0,0.660514932045,0.259364588911,0.303308890963,1.0,-0.007,-0.0092,0.351
0.464097821924,0.540817169273,-0.123999169631,-1.36666135406,0.0791089077596,1.89798995372,0.157833960713,-0.00235743594485,-0.0371354547514,-8.74765751105e-06,-0.0602378042093,-0.00488551144069,0.0183416208786,-0.0104738687609,0.574026043611,0.818822572299,0.00210790191438,0.0,0.818778901615,-0.573964224834,-0.0121212945528,0.0,-0.00871549709732,0.00868401156388,-0.999924311162,0.0,0.660423228286,0.259245962747,0.303326105324,1.0,-0.00726,-0.00954171428571,0.364
0.463974018003,0.539957625864,-0.123999522976,-1.36796083895,0.0790314536075,1.89846274702,0.157681290195,-0.00563426929403,-0.0512836255539,-8.94697168563e-05,-0.0659976129368,-0.00667631023545,0.020411179666,-0.0122691169376,0.574043514852,0.818810260915,0.00213227049672,0.0,0.81876691242,-0.573981591989,-0.0121087606859,0.0,-0.00869106081218,0.00869695551903,-0.999924411357,0.0,0.660268831102,0.25902955393,0.303354065771,1.0,-0.00768,-0.0100937142857,0.385
0.463902232573,0.539349386368,-0.124009858146,-1.36891685852,0.0789724121578,1.89882817327,0.157546864045,-0.00983837665793,-0.0425481461309,-0.000710124228801,-0.0711955714807,-0.00362752293138,0.0282535783141,-0.0109109186226,0.57404705966,0.818807735348,0.00214772690279,0.0,0.818764635745,-0.573985116827,-0.0120956114736,0.0,-0.00867138391216,0.00870210057885,-0.999924537426,0.0,0.660168538457,0.258896939654,0.303362779495,1.0,-0.00794,-0.0104354285714,0.398
0.463761262833,0.538408581849,-0.124016224345,-1.37037850143,0.0788911231554,1.89938928889,0.157371035219,-0.00883467536325,-0.0438801601605,-0.00430092285995,-0.0716294280191,-0.00584800484041,0.0242498560458,-0.0051121453497,0.574082179372,0.818783019554,0.00218291520648,0.0,0.818740371053,-0.574020072987,-0.0120792183807,0.0,-0.00863738804998,0.00872187274234,-0.999924659394,0.0,0.660009468044,0.258663955964,0.303380519163,1.0,-0.00836,-0.0109874285714,0.419
0.463689873565,0.537859995086,-0.124017345567,-1.37124113184,0.0788367697702,1.89972867312,0.157257765501,-0.00218875159044,-0.0408105418475,-0.00152101422947,-0.0738112992317,-0.00289805226371,0.0226012323641,-0.0106011479531,0.574081893279,0.818783169774,0.00220172805742,0.0,0.818740815118,-0.574019755843,-0.0120641809756,0.0,-0.00861427878954,0.00872864053311,-0.99992479969,0.0,0.659913573522,0.258535224874,0.303386813857,1.0,-0.0086,-0.0113028571429,0.431
0.463556835165,0.536837893791,-0.12401977956,-1.37283295846,0.0787494245645,1.90031347506,0.15706829633,-0.01156757657,-0.0469225673015,0.00339665955252,-0.0729906518998,-0.00698599670793,0.0302342764264,-0.0107675264267,0.574101736962,0.818769211346,0.00221834850675,0.0,0.818726987697,-0.574039439465,-0.0120660041614,0.0,-0.00860601887053,0.00874350407741,-0.999924740956,0.0,0.659727955031,0.258296035662,0.303401591217,1.0,-0.00902,-0.0118548571429,0.452
0.463471505281,0.536193765805,-0.124023704662,-1.37384739025,0.0786929828777,1.90069659885,0.156947943654,-0.00747792615026,-0.0538293723852,-0.00119365269062,-0.0766051560929,-0.000559569200874,0.0336489759714,-0.00667130425036,0.574116607945,0.818758752225,0.00223003089874,0.0,0.818716659111,-0.57405423687,-0.0120628407304,0.0,-0.00859656324944,0.00875140914121,-0.999924753138,0.0,0.659612056363,0.258142363031,0.303406768318,1.0,-0.00928,-0.0121965714286,0.465
0.463337517809,0.535087897764,-0.124025092935,-1.37558223163,0.0786018019643,1.90131536107,0.15673794953,-0.00354966020316,-0.0524100990987,0.000766663582418,-0.0800042419447,-0.000361172930891,0.0280153958239,-0.00471512493833,0.574126123123,0.818752083835,0.00222864644863,0.0,0.818709802839,-0.574063583881,-0.0120833479818,0.0,-0.0086140474194,0.00876214912422,-0.999924508615,0.0,0.659401677192,0.257889000959,0.303415113563,1.0,-0.0097,-0.0127485714286,0.486
0.463247770225,0.534471377718,-0.124032898804,-1.37660992241,0.0785470238405,1.90169305897,0.156606684498,-0.00705245325014,-0.054443351345,-0.00286151978106,-0.0839780663599,-0.00533484359665,0.0275254096877,-0.0113894236844,0.574139400516,0.818742848332,0.00220090470318,0.0,0.818700150572,-0.574076922594,-0.0121036069104,0.0,-0.00864641946838,0.00875120711537,-0.999924325039,0.0,0.659282326618,0.257728148197,0.303393927734,1.0,-0.00994,-0.013064,0.498
0.463090176107,0.533329802178,-0.124025523084,-1.37844715996,0.0784459269297,1.90236704437,0.156372228039,-0.00445328207512,-0.0590308294851,0.000281970789834,-0.0903750250456,-0.00275595156834,0.0295203220026,-0.00666037835816,0.574144831685,0.818739073201,0.00218841596448,0.0,0.818696046524,-0.574082239262,-0.0121290094973,0.0,-0.0086743302651,0.00875562418752,-0.999924044635,0.0,0.659063860858,0.257454809202,0.30338280259,1.0,-0.01036,-0.013616,0.519
0.462989012691,0.532614896166,-0.124030795645,-1.3796122646,0.078381119742,1.90281757558,0.156231954336,-0.00553155943877,-0.0524989380831,-0.000344087819739,-0.0855969317065,-0.00295264592741,0.0308527341884,-0.00846145035481,0.574163041708,0.818726303167,0.00218836491894,0.0,0.818683260981,-0.574100432163,-0.0121309059976,0.0,-0.00867571761024,0.00875686421108,-0.99992402174,0.0,0.658932017907,0.25727622663,0.303371562584,1.0,-0.01062,-0.0139577142857,0.532
0.462822760526,0.531407184759,-0.124031770635,-1.38156119698,0.078271190998,1.90352192017,0.155973611259,-0.00588943482084,-0.0602788152357,-0.000705391170952,-0.0934680489554,-0.00612391897414,0.035642340969,-0.0101892973804,0.574165148368,0.818724900474,0.00216024156031,0.0,0.818681360869,-0.57410253019,-0.0121598148361,0.0,-0.00871551084648,0.00875045986337,-0.999923731753,0.0,0.658698942239,0.256980636718,0.303356313895,1.0,-0.01104,-0.0145097142857,0.553
0.462725237388,0.530681436775,-0.12403327516,-1.38273581293,0.0781964452961,1.90392866569,0.155828894836,-0.00830575559601,-0.0621063352053,0.000126639655949,-0.0933656760082,-0.0106016416892,0.0383066535427,-0.0177819212596,0.574172312303,0.818719983405,0.00211930625894,0.0,0.818675890642,-0.574109855371,-0.0121822390653,0.0,-0.00875729656067,0.00872989738982,-0.999923546402,0.0,0.65854194858,0.256786738871,0.303344574296,1.0,-0.0113,-0.0148514285714,0.566
0.462554093685,0.529411616232,-0.124039570664,-1.38475012742,0.0780700497189,1.90466840511,0.155555140749,-0.00804639278276,-0.0626443542455,-0.000343619582281,-0.0929522284864,-0.00667830511429,0.0377467018237,-0.020457733013,0.574167234535,0.818723559954,0.00211330632412,0.0,0.818679411005,-0.574104827009,-0.0121826312117,0.0,-0.00876111651226,0.00872515603517,-0.999923554323,0.0,0.658317182326,0.256492107687,0.303343997183,1.0,-0.0117,-0.0153771428571,0.586
0.462436105586,0.528494959701,-0.124037180427,-1.38615464334,0.0779820243811,1.90520451574,0.155360815047,-0.00949228389249,-0.0712864395202,0.000173723505836,-0.099637579838,-0.0116031067868,0.0442410580143,-0.0186187243212,0.574155625327,0.818731598251,0.0021528659194,0.0,0.818687996647,-0.574093075212,-0.0121594424428,0.0,-0.00871954220705,0.00874410611712,-0.999923752189,0.0,0.658154259755,0.256283278291,0.303367353249,1.0,-0.01198,-0.0157451428571,0.6
0.462263701962,0.527108994892,-0.124041896234,-1.38831336559,0.0778567255603,1.90602620731,0.155061315548,-0.00531834128724,-0.0743044892579,-0.00112429898542,-0.109332471582,-0.00502588190806,0.0418470541078,-0.0164457107879,0.574138198511,0.818743706534,0.0021952043888,0.0,0.818700642677,-0.574075450446,-0.0121400896652,0.0,-0.00867957617057,0.00876747325509,-0.999923895289,0.0,0.657901187198,0.255964500593,0.30338685617,1.0,-0.0124,-0.0162971428571,0.621
0.462155869539,0.526293451917,-0.124038210776,-1.38956555051,0.0777749491335,1.90650180689,0.154883901861,-0.0094703663818,-0.0677282852812,-0.000209770658056,-0.106426659778,-0.00674492494663,0.0416821734959,-0.0158434401263,0.574124261486,0.818753397245,0.00222570757691,0.0,0.818710775071,-0.574061427274,-0.0121198762163,0.0,-0.00864566341383,0.00878069481297,-0.999924073069,0.0,0.657755161017,0.255776821664,0.303405810916,1.0,-0.01264,-0.0166125714286,0.633
0.461960381609,0.52483685205,-0.124041066438,-1.39184130514,0.0776297643657,1.90732080449,0.154587653162,-0.00832531074085,-0.0670097316022,0.000263780571357,-0.109410266506,-0.00949049709458,0.0359997498614,-0.0112361177547,0.574127107418,0.818751413467,0.00222134539097,0.0,0.818708746398,-0.574064303858,-0.012120664543,0.0,-0.00864878264711,0.00877760597052,-0.999924073214,0.0,0.657481182992,0.255427706675,0.303418274048,1.0,-0.01306,-0.0171645714286,0.654
0.461844411318,0.523940106425,-0.12405164815,-1.39330093578,0.0775430072204,1.90783869681,0.15439088257,-0.00306787537659,-0.073262959226,-0.000276825870132,-0.109910113633,-0.00147268470508,0.0458188673459,-0.0154941580271,0.574123464174,0.818754076195,0.00218116928766,0.0,0.818710849912,-0.574060800139,-0.0121445000775,0.0,-0.00869140249176,0.00875835804201,-0.999923872446,0.0,0.657301750501,0.255204945081,0.303399341359,1.0,-0.01332,-0.0175062857143,0.667
0.461644274586,0.522431361188,-0.124052787162,-1.3956803397,0.0773997139422,1.90876635235,0.154060216842,-0.0125128982085,-0.0657081448288,0.00106270109281,-0.115959520284,-0.013593067102,0.0454145713901,-0.018872932361,0.574106739014,0.818765679829,0.00222725235028,0.0,0.818723090135,-0.57404391294,-0.0121175326078,0.0,-0.0086430455746,0.00878042910754,-0.999924098033,0.0,0.657025644329,0.25484986734,0.303407747628,1.0,-0.01374,-0.0180582857143,0.688
0.461516884954,0.521491571044,-0.124058061667,-1.39718858841,0.0773070505188,1.90935395689,0.153857764351,-0.00899569688077,-0.0679498177929,-0.00132423785604,-0.112462602397,-0.00363630109064,0.0452404906581,-0.0190667406875,0.574104962923,0.818766892026,0.00223941294336,0.0,0.818724514708,-0.574042139461,-0.0121052897187,0.0,-0.00862605912124,0.00878333828687,-0.999924219165,0.0,0.656850866206,0.254621283906,0.303401295395,1.0,-0.014,-0.0184,0.701
0.461317342861,0.519979482162,-0.124059554549,-1.39958876277,0.0771644957359,1.91023037682,0.153538212098,-0.00961694147112,-0.0775887968339,0.00191130161412,-0.128406693676,-0.0048064390784,0.0452863378766,-0.0182794612805,0.57410258366,0.818768568853,0.00223629024962,0.0,0.818726116148,-0.574039738637,-0.0121108259,0.0,-0.00863241031997,0.00878393478804,-0.999924159115,0.0,0.656544587784,0.254239488525,0.303404281702,1.0,-0.01442,-0.018952,0.722
0.461189183583,0.51895109731,-0.12406274778,-1.40117241676,0.0770616631773,1.9107956839,0.153332006006,-0.0111470219096,-0.0881850557723,-0.000524775597378,-0.125919977973,-0.00598208437898,0.0466927219574,-0.0167871254807,0.5740920367,0.818775966354,0.00223544628978,0.0,0.818733475887,-0.574029169458,-0.0121142467213,0.0,-0.00863580895486,0.00878509642463,-0.999924119563,0.0,0.656362490343,0.254022071176,0.303414172083,1.0,-0.01466,-0.0192674285714,0.734
0.460979357207,0.517362086073,-0.124068780665,-1.40367256849,0.0769000435303,1.91169255786,0.152980980133,-0.010700343487,-0.0792302668416,0.000861184952728,-0.124060056697,-0.0115519821638,0.0478670884162,-0.0169152459419,0.574069528918,0.818791796746,0.00221730707315,0.0,0.818749094261,-0.574006767793,-0.0121201516449,0.0,-0.0086512980402,0.00877339681812,-0.999924088394,0.0,0.656055042205,0.253639762464,0.303417174692,1.0,-0.01506,-0.0197931428571,0.754
0.46084291212,0.516333192133,-0.124071615413,-1.40530433883,0.0767987179116,1.9123025243,0.152749530432,-0.0103461210461,-0.0803966435284,-0.00236207923172,-0.127240643536,-0.00305966266573,0.0489983073301,-0.0158982927417,0.574052822125,0.818803500618,0.00222074046386,0.0,0.818760853113,-0.573990058688,-0.0121171299349,0.0,-0.00864703194108,0.00877429692429,-0.999924117397,0.0,0.655857895975,0.2533934576,0.303415193058,1.0,-0.01532,-0.0201348571429,0.767
0.460616464676,0.514718124753,-0.124077759012,-1.40791322316,0.0766358991075,1.91327513509,0.152403023031,-0.0110860161855,-0.0850560919731,-0.000132902028593,-0.13307915096,-0.00593244997747,0.0518659909292,-0.0146255832722,0.57405800049,0.81879993443,0.00219689617841,0.0,0.818756977552,-0.57399534127,-0.0121287597222,0.0,-0.00867018642152,0.00876150431566,-0.999924029069,0.0,0.655526585613,0.252971088833,0.303391833496,1.0,-0.01574,-0.0206868571429,0.788
0.460456009162,0.513555793559,-0.124080489455,-1.40978625538,0.0765299477514,1.91390903424,0.152138056778,-0.0118464718885,-0.0838352320842,-0.00127735348229,-0.133466793746,-0.00665830977026,0.0509501206939,-0.0262170720109,0.574038784307,0.818813565368,0.0021368626639,0.0,0.818769634718,-0.573976199799,-0.0121800750893,0.0,-0.00874687080337,0.00874160206273,-0.999923535399,0.0,0.655301762438,0.252704818545,0.303368590521,1.0,-0.016,-0.0210285714286,0.801
0.460229494414,0.511890880135,-0.124081237536,-1.41246642551,0.076362382403,1.91486944743,0.151760015679,-0.00671336419875,-0.0838515726296,-0.00031970742105,-0.13114446023,-0.00704411755461,0.0492006214228,-0.0247509747696,0.574010406733,0.818833586101,0.00208761519476,0.0,0.818788934283,-0.57394796831,-0.0122130122918,0.0,-0.00880241162601,0.00871988025826,-0.999923237673,0.0,0.654965690644,0.252297931658,0.303342539372,1.0,-0.0164,-0.0215542857143,0.821
0.460078991015,0.510794655503,-0.12408161151,-1.41422733976,0.076254772408,1.91554636492,0.151509127806,-0.00880852323897,-0.0842617472943,0.000601528772883,-0.136397154206,-0.00557158407665,0.0475817214439,-0.0133219639267,0.573991731099,0.818846656677,0.00209580072037,0.0,0.818802115433,-0.573929261925,-0.0122083974715,0.0,-0.00879413340664,0.00872373322085,-0.999923276905,0.0,0.654753721649,0.252033106213,0.303330714179,1.0,-0.01666,-0.021896,0.834
0.459823955553,0.508937021452,-0.124085117056,-1.41716114487,0.0760681888509,1.91662688013,0.151101356146,-0.0149989881721,-0.085718571608,3.84205401753e-05,-0.13878662715,-0.0109548661762,0.0480177172206,-0.0264763545203,0.573971601239,0.818860771394,0.00209402571233,0.0,0.818816223757,-0.573909159309,-0.012207189458,0.0,-0.00879437735899,0.00872137021945,-0.999923295372,0.0,0.654392867354,0.251583597623,0.303328199292,1.0,-0.01708,-0.022448,0.855
0.459661800147,0.50778359784,-0.124087958767,-1.41896484753,0.0759604998016,1.91727177484,0.150853005713,-0.0177115294578,-0.0947228260577,0.000904933932361,-0.140865140158,-0.0130125296964,0.0523683391383,-0.0179242416441,0.573967540458,0.818863625418,0.00209102080127,0.0,0.818818958981,-0.573905033715,-0.0122176753902,0.0,-0.00880473211909,0.00872488455057,-0.99992317359,0.0,0.65416781521,0.25130337394,0.303332535019,1.0,-0.01734,-0.0227897142857,0.868
0.459413899557,0.505942745445,-0.124096409687,-1.42183906155,0.075776296765,1.91833360392,0.150462546151,-0.0117385545036,-0.0980694044359,-0.000997878649566,-0.147295351682,-0.0142614090796,0.0494375449671,-0.0193685740063,0.573957052668,0.818870906215,0.00211838339747,0.0,0.818826729359,-0.573894556025,-0.0121890423694,0.0,-0.00876569223828,0.00873074387594,-0.999923465447,0.0,0.653799989257,0.250836188967,0.303349761447,1.0,-0.01776,-0.0233417142857,0.889
0.459237055838,0.504682165143,-0.124102534199,-1.42372712424,0.0756517501052,1.91908017345,0.150202534106,-0.0102492290292,-0.101682591238,0.00024711721823,-0.146478191659,-0.0113590401569,0.0548524981568,-0.0213444933234,0.573955978604,0.818871437479,0.0022023636827,0.0,0.818828468726,-0.573893224779,-0.012134754127,0.0,-0.0086730489425,0.00876834157971,-0.999923944312,0.0,0.653595590551,0.250565690758,0.30339096157,1.0,-0.018,-0.0236571428571,0.901
0.45896048492,0.502621826961,-0.124112088669,-1.4267811807,0.0754631597287,1.920221876,0.149766413626,-0.00859466657093,-0.0971251377503,-0.00348684573809,-0.144765994112,-0.00913496465301,0.0523108782615,-0.0212989475695,0.573938128052,0.818883603008,0.00232740085215,0.0,0.818842330791,-0.573874909573,-0.0120653374749,0.0,-0.00854463458006,0.00883070156148,-0.999924501115,0.0,0.653225414064,0.250091173872,0.303475440511,1.0,-0.01842,-0.0242091428571,0.922
0.458783646755,0.501298786361,-0.124115977449,-1.42874634156,0.0753294493958,1.92092526811,0.14949551141,-0.0148476501861,-0.107785468796,-0.000531351936174,-0.158968911247,-0.0115041662194,0.0557107397718,-0.0157441803405,0.573927961945,0.818890594491,0.00237395304745,0.0,0.818850014759,-0.573864639845,-0.0120322635088,0.0,-0.00849094318414,0.00884973434591,-0.999924790215,0.0,0.652979897415,0.249783908155,0.3035245882,1.0,-0.01868,-0.0245508571429,0.935
0.458483961475,0.49920030892,-0.124111407704,-1.43195507269,0.0751318252067,1.92208115939,0.149040089562,-0.0173074088316,-0.0946814953726,-0.000353652843804,-0.155630257869,-0.014059796971,0.0606239228212,-0.0212820902811,0.573907238542,0.818904995556,0.00241592700489,0.0,0.818864856482,-0.573843635107,-0.0120239830347,0.0,-0.0084602983259,0.00887913957078,-0.999924789288,0.0,0.65257658078,0.249284561416,0.303561322588,1.0,-0.0191,-0.0251028571429,0.956
0.458292164169,0.497920402547,-0.124117369724,-1.4339824359,0.0750111795048,1.92283476503,0.148743207589,-0.0142467706699,-0.102175493401,-0.000837231940346,-0.159059392575,-0.0046761917561,0.055186877139,-0.0300924564549,0.57389610747,0.818912780401,0.00242132779023,0.0,0.818872666378,-0.573832435736,-0.0120265896091,0.0,-0.00845945438265,0.00888494316925,-0.999924744877,0.0,0.652326653818,0.24896398298,0.303554361305,1.0,-0.01936,-0.0254445714286,0.969
0.457972949585,0.495854469386,-0.124114567067,-1.4372870416,0.0748110199808,1.92399582709,0.148261641416,-0.0127508481058,-0.0967566465748,0.000254585214581,-0.157783629846,-0.0131196508594,0.0554462430131,-0.024002312265,0.57387222919,0.818929672627,0.00236701426961,0.0,0.818888663078,-0.573808590006,-0.0120750328819,0.0,-0.00853055384399,0.00886801792506,-0.999924291089,0.0,0.651925630578,0.248464397162,0.303525360437,1.0,-0.01976,-0.0259702857143,0.989
0.457778460627,0.494681429389,-0.124119206833,-1.4392309493,0.0746828991324,1.92466916278,0.14798471909,-0.0138025272185,-0.0952866308506,0.000130736818308,-0.159264338524,-0.0174088325124,0.0538251838838,-0.0251668528864,0.573873225359,0.818929247176,0.00227073509444,0.0,0.818886890741,-0.573809901835,-0.0121327502623,0.0,-0.00863305997,0.00882230558341,-0.999923815698,0.0,0.651653022668,0.248120000404,0.303472307694,1.0,-0.0208942857143,-0.0274610612245,1.002
0.457359862725,0.491465852636,-0.124219429092,-1.44405609907,0.0744245473643,1.92646595475,0.147277369357,-0.0217283160133,-0.180969732411,-0.00578743902043,-0.27355295776,-0.0119137858583,0.109038881579,-0.0426979230947,0.573882163334,0.818922521709,0.0024316548774,0.0,0.818882360026,-0.573818259417,-0.0120429439063,0.0,-0.00846707304067,0.00890264139005,-0.999924522977,0.0,0.651064388536,0.247338968247,0.303572434924,1.0,-0.0410085714286,-0.0538969795918,1.024
0.457036648453,0.488894874915,-0.12424176255,-1.44814093823,0.0742266503405,1.92806030178,0.146646091838,-0.0349216537049,-0.227915883884,-0.00028600052656,-0.359449672692,-0.0178525240472,0.144198012485,-0.0525220368835,0.573798274643,0.8189810338,0.0025205540725,0.0,0.818941700458,-0.573733667251,-0.012038156608,0.0,-0.00841305718974,0.00897183306535,-0.999924360479,0.0,0.650550801823,0.246741076546,0.303555016527,1.0,-0.05198,-0.0683165714286,1.036
0.456198650857,0.483085573323,-0.124359114522,-1.45733648477,0.0737012350656,1.93149021121,0.145233446275,-0.0441616278609,-0.326900450795,-0.011416594813,-0.522532590596,-0.0322991977811,0.186025227666,-0.0799914003829,0.573726893155,0.819030939367,0.0025532982268,0.0,0.818991995321,-0.573662121979,-0.0120261509709,0.0,-0.00838522068929,0.00899103014773,-0.999924421869,0.0,0.649399242903,0.245262116702,0.303513302981,1.0,-0.0702657142857,-0.0923492244898,1.056
0.455403586887,0.477935039533,-0.124508146309,-1.46558351638,0.0732069491392,1.93431227598,0.144008903254,-0.0603571246715,-0.395479296138,-0.00580722792401,-0.623369946732,-0.0376955863421,0.215708142615,-0.0927308861909,0.573751940412,0.819014129009,0.00230526766367,0.0,0.818971797921,-0.573688047716,-0.0121640872714,0.0,-0.00864022118741,0.00886728860132,-0.999923355948,0.0,0.648322980332,0.24386206489,0.30340741398,1.0,-0.0830657142857,-0.109172081633,1.07
0.453998642372,0.468992369721,-0.12469826368,-1.47947689445,0.0723781633383,1.93924519553,0.141958211104,-0.0757186480859,-0.481028454963,-0.0119132787916,-0.733316196955,-0.0436100172838,0.274175728497,-0.114099860956,0.573805273244,0.81897682852,0.00228246487078,0.0,0.818934025196,-0.573741294457,-0.0121957497856,0.0,-0.0086786592224,0.00886734440599,-0.999923022576,0.0,0.64652775495,0.241515832098,0.30341146276,1.0,-0.101351428571,-0.133204734694,1.09
0.452920089394,0.462247826359,-0.124783025817,-1.48977209985,0.0717577293403,1.9430750697,0.140278569445,-0.0903968928248,-0.529635729607,-0.00066924871956,-0.799709302411,-0.0478042219802,0.294158842832,-0.125358639979,0.573694070867,0.819054029346,0.002521302224,0.0,0.819014348759,-0.573629093788,-0.0120791633969,0.0,-0.00844735777923,0.00899490030054,-0.999923864059,0.0,0.645210601963,0.23980079067,0.303496574413,1.0,-0.113237142857,-0.148825959184,1.103
0.450785880172,0.449909009131,-0.125008090927,-1.50878863786,0.0705091277213,1.94975070092,0.137320053619,-0.107034509452,-0.629286722206,-0.0106396888578,-0.949239132059,-0.0680515122495,0.352871594164,-0.145874891451,0.573719944281,0.819036058496,0.00247129900915,0.0,0.818996015948,-0.573655478606,-0.0120691602383,0.0,-0.00846756624197,0.00894847426802,-0.999924109685,0.0,0.64269912258,0.236465391893,0.303511341014,1.0,-0.132437142857,-0.174060244898,1.124
0.449271131901,0.441342450003,-0.125124180125,-1.5218952597,0.0696174032825,1.95435948762,0.135303259251,-0.117412406878,-0.669174686149,-0.0100697108322,-1.03984686911,-0.0664422597152,0.36674339991,-0.161140489775,0.573738278426,0.819023151605,0.00249236944794,0.0,0.818983650428,-0.573674006226,-0.0120275439119,0.0,-0.00842119148861,0.00894204432845,-0.999924558843,0.0,0.640937076383,0.234164403735,0.303542258579,1.0,-0.144322857143,-0.189681469388,1.137
0.446603528873,0.426760368049,-0.125300070951,-1.54393668503,0.0681493581037,1.96198959878,0.131708620214,-0.144220203216,-0.763040815987,-0.00810021653674,-1.15013028268,-0.0845532837908,0.393459420335,-0.188480441859,0.573667089835,0.819072628443,0.00261653918782,0.0,0.819034558085,-0.573602126302,-0.01198917281,0.0,-0.00831931101714,0.00902100357511,-0.999924702444,0.0,0.637907206646,0.230242127664,0.303662117095,1.0,-0.162608571429,-0.213714122449,1.157
0.444599978802,0.416545602599,-0.125425309022,-1.55925403106,0.0670660839901,1.96728706877,0.129144213303,-0.162924214137,-0.800836440875,-0.00763968613776,-1.18575774294,-0.0791704150512,0.423877828812,-0.187783949618,0.573646541764,0.81908661595,0.00273999905474,0.0,0.819050489826,-0.573581471422,-0.0118885515897,0.0,-0.00816629802718,0.00906419858783,-0.999925573171,0.0,0.6357893757,0.227421168841,0.303769084135,1.0,-0.174494285714,-0.229335346939,1.17
0.440977136689,0.398706297432,-0.12564524626,-1.58587058233,0.0652257609339,1.97650339707,0.124657550898,-0.187839271988,-0.896659369323,-0.0125677203323,-1.28973936127,-0.0799819109147,0.456878401137,-0.219286036749,0.573674331398,0.819065964455,0.00307477913117,0.0,0.819034310571,-0.573608191369,-0.0117127196885,0.0,-0.00782992230203,0.00923781409856,-0.999926674865,0.0,0.632042803742,0.222460644806,0.303954696176,1.0,-0.193694285714,-0.254569632653,1.191
0.438462575134,0.386969128255,-0.125808387296,-1.60346662889,0.0639283116904,1.98252269865,0.121613427437,-0.196334064663,-0.912191006121,-0.0189575178651,-1.39467074848,-0.10576458813,0.463027977154,-0.238244455,0.573683532638,0.819059237823,0.00314900272893,0.0,0.819029000186,-0.573617683229,-0.0116188314275,0.0,-0.00771033601141,0.00924483480682,-0.999927539249,0.0,0.629512728183,0.219096287943,0.303990699632,1.0,-0.20558,-0.270190857143,1.204
0.433942448794,0.366801667176,-0.126023835347,-1.63342839012,0.0616800863871,1.99241514106,0.116232521755,-0.22743362729,-0.974257184914,-0.00507705018365,-1.45016996163,-0.108944418043,0.465162074238,-0.259909159563,0.57361364802,0.819108142143,0.00315930069714,0.0,0.819078081074,-0.573547826243,-0.0116075414161,0.0,-0.00769596980818,0.00924613614557,-0.999927637889,0.0,0.625047190735,0.213267930668,0.304059688105,1.0,-0.22478,-0.295425142857,1.225
0.430812249291,0.353592010942,-0.126194682711,-1.65285713454,0.0601581414559,1.99882341519,0.112670015937,-0.252297549221,-1.01427693288,-0.0162419259278,-1.49724372468,-0.113577202951,0.487803172405,-0.276789285941,0.573634614407,0.81909312491,0.00324480825344,0.0,0.819064671027,-0.573569127457,-0.0115007654371,0.0,-0.00755922160048,0.00925512314135,-0.999928597883,0.0,0.622116515154,0.209365885663,0.304135852292,1.0,-0.236665714286,-0.311046367347,1.238
0.425459790373,0.332354925152,-0.126463563414,-1.68415392007,0.0577618801171,2.0089408334,0.106695110958,-0.278904064711,-1.08913343797,-0.00791183639186,-1.58386423691,-0.135494357499,0.507850973173,-0.306850862731,0.573678103692,0.81906268771,0.00323942081789,0.0,0.819033814936,-0.573612200746,-0.0115498938498,0.0,-0.00760206215817,0.00927929504746,-0.999928049079,0.0,0.617265128672,0.202940156933,0.304119788999,1.0,-0.254951428571,-0.335079020408,1.258
0.421770421495,0.317886117141,-0.126566726919,-1.70511589234,0.0560855030978,2.01559991416,0.102571102723,-0.285669350482,-1.11930112678,-0.00792060948186,-1.61126086733,-0.127310529291,0.498862666767,-0.317280947953,0.573561849062,0.819143690019,0.00334175170143,0.0,0.819115962112,-0.573495424051,-0.011523285456,0.0,-0.0075228920995,0.00934677902794,-0.999928019318,0.0,0.613904932279,0.198642862157,0.304188951722,1.0,-0.266837142857,-0.350700244898,1.271
0.41513328485,0.2935809786,-0.126851211525,-1.74035218004,0.0530900108321,2.02643111322,0.0953276605058,-0.335100422142,-1.1786808845,-0.0150487816196,-1.68713968435,-0.148539943788,0.495405962646,-0.358140860285,0.573405396778,0.819254056821,0.00312861476714,0.0,0.819223757841,-0.573339893369,-0.0115994897645,0.0,-0.0077093178179,0.0092144229834,-0.99992782781,0.0,0.608110467172,0.19111989049,0.304141997766,1.0,-0.286037142857,-0.375934530612,1.292
0.410631810411,0.277840106798,-0.127034514077,-1.76286003003,0.0512424316823,2.03332261932,0.0905831267576,-0.355332713219,-1.20512327896,-0.0197542038151,-1.74930548684,-0.15002247416,0.510654774054,-0.372161167523,0.573392942349,0.819262452902,0.00321151540371,0.0,0.819232723475,-0.573326564745,-0.0116250525535,0.0,-0.00768286989508,0.00929688059302,-0.999927268116,0.0,0.604333216612,0.186222173919,0.304163629123,1.0,-0.297922857143,-0.391555755102,1.305
0.402951902325,0.252812890813,-0.127435168568,-1.79803755455,0.0481330800058,2.04388637649,0.0828123989964,-0.408571978361,-1.28102337085,-0.0211794287537,-1.77981565755,-0.157711692138,0.548904021141,-0.396777368045,0.573528873302,0.81916639597,0.0034342545874,0.0,0.819140192066,-0.5734625884,-0.0114346993517,0.0,-0.00739764735966,0.00937144662745,-0.999928722861,0.0,0.598349888426,0.178173630013,0.304312251712,1.0,-0.316208571429,-0.415588408163,1.325
0.397132079801,0.23471681082,-0.127712464806,-1.82331251333,0.0458355885743,2.05122109558,0.0769677652663,-0.418200600657,-1.29932048111,-0.0146116591111,-1.77099857125,-0.161303327825,0.505963903413,-0.419318757494,0.573558962048,0.819145109983,0.0034860790989,0.0,0.819119708303,-0.573492693953,-0.011392118063,0.0,-0.00733269808703,0.00938974828809,-0.999929029565,0.0,0.593904764894,0.172278428889,0.304361173086,1.0,-0.329008571429,-0.432411265306,1.339
0.388231726167,0.20797890617,-0.128018742711,-1.86021735214,0.0424042084814,2.06171265622,0.0680063430852,-0.46666834276,-1.36011705187,-0.0150712286652,-1.86500399096,-0.179465076307,0.50380891511,-0.459915340563,0.573370034242,0.819276566426,0.00366857458579,0.0,0.819253437685,-0.573303184868,-0.011314148798,0.0,-0.00716634945973,0.00949286899168,-0.999929261935,0.0,0.587205006287,0.163607673671,0.304440641037,1.0,-0.347294285714,-0.456443918367,1.359
0.381899518998,0.1901137148,-0.128290966776,-1.88469620914,0.0400235920047,2.06837715467,0.0617947535156,-0.495452321983,-1.39965849256,-0.0236736148131,-1.89885149591,-0.187138479804,0.520113493015,-0.487981417508,0.57332110709,0.819310957171,0.00363462874892,0.0,0.819287373331,-0.573254332454,-0.011332127944,0.0,-0.00720110855903,0.00947493600114,-0.999929182304,0.0,0.582638768549,0.157633854389,0.30443646076,1.0,-0.35918,-0.472065142857,1.372
0.371207539778,0.161859673551,-0.128867838916,-1.92288713448,0.0362423439537,2.07829552236,0.0516157602868,-0.552116182983,-1.44330159446,-0.0258756999991,-1.91375760122,-0.196400925374,0.4863093324,-0.529669343002,0.573493271421,0.819190890299,0.00353550391182,0.0,0.819165500744,-0.573426066692,-0.0114531799235,0.0,-0.00735513216541,0.00946466667894,-0.999928158477,0.0,0.575331506528,0.14789899367,0.304434807669,1.0,-0.377465714286,-0.496097795918,1.392
0.363829986388,0.14305757956,-0.129157001399,-1.9479852306,0.0335932474859,2.08466400744,0.0446147279331,-0.585586852947,-1.45936481853,-0.0157545159851,-1.93315673899,-0.218079029989,0.458744163862,-0.543846784749,0.573453921441,0.81921851994,0.0035161729339,0.0,0.819193107828,-0.573387070025,-0.0114309630341,0.0,-0.00734847000287,0.00943573687833,-0.999928480872,0.0,0.570007546733,0.140938210353,0.304447877166,1.0,-0.390265714286,-0.512920653061,1.406
0.350778022874,0.111737739771,-0.129847857952,-1.9889150949,0.0292158771965,2.09470411522,0.0324618306028,-0.643045709477,-1.52537298292,-0.0447126803126,-1.97060421712,-0.230291690731,0.487380930196,-0.603810720229,0.573566701182,0.819138594783,0.00373480033133,0.0,0.81911634902,-0.573499690031,-0.0112809221167,0.0,-0.0070988685334,0.0095297807743,-0.999929392179,0.0,0.562141736253,0.130444323115,0.304554644726,1.0,-0.408551428571,-0.536953306122,1.426
0.342066349829,0.0919076569807,-0.130251076771,-2.01452150792,0.026290970154,2.10058485728,0.0243841955299,-0.668013989385,-1.53687156306,-0.0282842100131,-1.98932718053,-0.229337072628,0.460801525242,-0.633846530616,0.573528218756,0.819165637978,0.00371305101568,0.0,0.81914348689,-0.573461771454,-0.0112379477165,0.0,-0.00707658404395,0.00948698434613,-0.99992995709,0.0,0.556795887228,0.123390825418,0.304582764087,1.0,-0.41998,-0.551973714286,1.439
0.327077524922,0.0598623400768,-0.130842103183,-2.05546933306,0.0216274723903,2.10933293025,0.0106991421112,-0.742828671749,-1.48677100422,-0.0347272978639,-1.89183199637,-0.225459300919,0.389710176204,-0.659979936643,0.573526289158,0.819167708194,0.00355083063665,0.0,0.819142149671,-0.573458562414,-0.0114962049078,0.0,-0.00738120770611,0.00950219372768,-0.999927610423,0.0,0.547936080775,0.111819084173,0.304512666611,1.0,-0.41998,-0.551973714286,1.46
0.317190186123,0.0400692156631,-0.131287161804,-2.08023690986,0.0186032757673,2.11428290124,0.00199910250678,-0.764822313236,-1.48703221554,-0.0263609625082,-1.86809557362,-0.232236989882,0.370227880201,-0.671678733458,0.573751847178,0.819010150504,0.00345516033605,0.0,0.818983285129,-0.573684290164,-0.0115525235008,0.0,-0.0074796068119,0.00945818236013,-0.999927296491,0.0,0.542436375279,0.104472441652,0.304515718629,1.0,-0.41998,-0.551973714286,1.473
0.300738661158,0.00854059073897,-0.131828643191,-2.11868631799,0.0138128866473,2.12164846444,-0.0125965671194,-0.79592727095,-1.48201321481,-0.030593742401,-1.81693861633,-0.241078306844,0.341967088356,-0.700729573399,0.573819338848,0.818961672431,0.00372724489375,0.0,0.818938736981,-0.573751520136,-0.0113703612685,0.0,-0.00717351576933,0.00957710280019,-0.999928407324,0.0,0.533661356392,0.0928448890893,0.304686757015,1.0,-0.41998,-0.551973714286,1.494
0.290073016722,-0.010687374956,-0.132194936816,-2.14166012264,0.0109062251909,2.12577504227,-0.0219973523022,-0.824357459964,-1.49135003665,-0.0218579791506,-1.76759954194,-0.232269465354,0.343265157609,-0.734010685632,0.573926772617,0.818885048653,0.00401044470241,0.0,0.818865989137,-0.57385851985,-0.0112088327644,0.0,-0.00687745011495,0.00971725306861,-0.999929135325,0.0,0.528280249387,0.0856107590904,0.304825847702,1.0,-0.41998,-0.551973714286,1.507
0.273208494424,-0.0398511662826,-0.132674768892,-2.17616832313,0.00629080363272,2.13131397201,-0.0368287456533,-0.872179209572,-1.45470253806,-0.0357303751273,-1.7326990754,-0.220385678201,0.2577895757,-0.750407784778,0.573921297146,0.818888489798,0.00409058187641,0.0,0.8188706652,-0.573853146681,-0.0111421102421,0.0,-0.00677688302382,0.00974453947789,-0.999929556422,0.0,0.519883568071,0.0745857202576,0.304908491304,1.0,-0.41998,-0.551973714286,1.527
0.261785030004,-0.0585092278762,-0.133044746796,-2.19794892303,0.0033382232282,2.13450350058,-0.0468684754649,-0.870395123564,-1.4079801382,-0.0209843979643,-1.64730364116,-0.242036258873,0.241279642469,-0.777647734788,0.573969358481,0.818854586044,0.00413392569493,0.0,0.818837078653,-0.573900754587,-0.0111583784098,0.0,-0.00676475650046,0.0097897674203,-0.999929196755,0.0,0.514430221769,0.0673739052499,0.304926117954,1.0,-0.41998,-0.551973714286,1.54
0.243623328087,-0.0867696002025,-0.133651681803,-2.23055338801,-0.00118153231831,2.13870558142,-0.0628511754055,-0.927821494743,-1.39389969633,-0.0391945534404,-1.57724754053,-0.224007040019,0.203051616426,-0.807195323752,0.574028159313,0.818813759036,0.00405551849452,0.0,0.81879409076,-0.573958097855,-0.0113615907545,0.0,-0.00697546345267,0.00984269710837,-0.999927229464,0.0,0.50598806087,0.0562965617381,0.304864597507,1.0,-0.41998,-0.551973714286,1.56
0.231460245615,-0.104991236404,-0.133929357007,-2.25104134936,-0.00413999587654,2.14103312419,-0.0735945843247,-0.935146482121,-1.40315062687,-0.0212954724239,-1.56270341138,-0.225897351537,0.160696090647,-0.832621198985,0.573906056618,0.818899129881,0.00409879958731,0.0,0.818879906909,-0.573835737883,-0.0113574156028,0.0,-0.00694867385271,0.00987470434512,-0.999927100416,0.0,0.500516239963,0.0491953829543,0.304901333434,1.0,-0.41998,-0.551973714286,1.573
0.209006893737,-0.136340595887,-0.134576813671,-2.28619146772,-0.00937900625166,2.1443454324,-0.0932957476085,-0.988731056739,-1.34157669672,-0.0246122234594,-1.5017311277,-0.223282603122,0.123480099744,-0.88958616535,0.573909453368,0.818898381903,0.0037585040249,0.0,0.818872966498,-0.573837705108,-0.0117515886297,0.0,-0.00746672934703,0.00982227425636,-0.999923882544,0.0,0.490785017492,0.0365101129303,0.304701054206,1.0,-0.41998,-0.551973714286,1.596
0.197950455749,-0.151326931227,-0.134862616823,-2.30242365597,-0.0118698417634,2.14572822482,-0.103133222093,-1.01395736919,-1.36650897022,-0.030712824929,-1.48095197297,-0.232147755355,0.109258483916,-0.904024343638,0.573775975054,0.818991443052,0.00385921743642,0.0,0.818967635154,-0.573704320019,-0.0116667332267,0.0,-0.00734104630376,0.00985485514679,-0.999924492584,0.0,0.48617296161,0.0304986028705,0.30473619853,1.0,-0.41998,-0.551973714286,1.607
0.176078766083,-0.179253628141,-0.135514029224,-2.33248576533,-0.0165047242896,2.14746921028,-0.12247020775,-1.05089406197,-1.31714113486,-0.0309320956881,-1.41941687642,-0.209488070522,0.0579280862358,-0.941011381551,0.573760763335,0.819002861836,0.00369400377314,0.0,0.818974619892,-0.573686683326,-0.0120377841746,0.0,-0.00773992793397,0.00993229480033,-0.999920718375,0.0,0.477281245132,0.0189600494233,0.304620598286,1.0,-0.41998,-0.551973714286,1.628
0.161942709385,-0.196435594017,-0.136004540754,-2.35040874115,-0.0194785713472,2.14830838438,-0.134924519332,-1.097564836,-1.33037701013,-0.0351232927752,-1.37599997366,-0.227484904524,0.075991342119,-0.961381124564,0.573825758213,0.818957047112,0.00375514274349,0.0,0.818930098603,-0.573752085266,-0.0119492743176,0.0,-0.00763156836211,0.0099321920381,-0.999921552286,0.0,0.471829411907,0.0117122911887,0.304662793968,1.0,-0.41998,-0.551973714286,1.641
0.138477666506,-0.223611847882,-0.136800547342,-2.37832965131,-0.0240298679886,2.14900159423,-0.155779296431,-1.14662495884,-1.31119341047,-0.0507012481202,-1.3122636513,-0.223106809633,0.0278503036731,-1.00036023174,0.5739012167,0.818903659974,0.003864718963,0.0,0.818877005754,-0.573825644166,-0.0120551418736,0.0,-0.00765447232563,0.0100833842176,-0.999919863997,0.0,0.462993679432,0.000112106414154,0.304673618807,1.0,-0.41998,-0.551973714286,1.662
0.12466190882,-0.238791554394,-0.137214538885,-2.39373076091,-0.0266551823547,2.14904591727,-0.168099333716,-1.15887746029,-1.25983002069,-0.0371854001306,-1.26088496429,-0.192571195675,-0.00521985180021,-1.03583176734,0.573860064595,0.818932682576,0.00382551600475,0.0,0.818904844995,-0.573783768977,-0.012156817176,0.0,-0.00776074532845,0.010109240115,-0.99991878375,0.0,0.457521041185,-0.00702529612699,0.304651722732,1.0,-0.41998,-0.551973714286,1.675
0.0995597392271,-0.264995848054,-0.138080199699,-2.41957751419,-0.031134262121,2.1489022154,-0.190494810032,-1.21203145335,-1.23153522124,-0.0369207231666,-1.19781805048,-0.203832410245,-0.0333216057539,-1.08095850768,0.574024785661,0.818816055973,0.00406925403815,0.0,0.818791628656,-0.573947840452,-0.0120371169059,0.0,-0.00752078982125,0.0102416717771,-0.999919269681,0.0,0.449148774087,-0.018140358702,0.304705500692,1.0,-0.41998,-0.551973714286,1.695
0.0835629891874,-0.280864366894,-0.138649803328,-2.43486804912,-0.0338858341967,2.1485931982,-0.204874790857,-1.22594984802,-1.20749672657,-0.0427321075925,-1.17632874093,-0.209812679898,-0.0499240013733,-1.11690742219,0.574084218141,0.818773187299,0.0043040843591,0.0,0.818752851893,-0.574007879353,-0.0118096934648,0.0,-0.00719902062713,0.0103039383658,-0.999920998357,0.0,0.443753663711,-0.0253495769217,0.304784012479,1.0,-0.41998,-0.551973714286,1.708
0.0569736802922,-0.305849988695,-0.139481357831,-2.4585015247,-0.0382568766491,2.14741694604,-0.228965793499,-1.28229952647,-1.16142418325,-0.0360680332156,-1.11722360284,-0.204529516264,-0.0675935079253,-1.14985875214,0.574021233907,0.818816226254,0.00451193398889,0.0,0.818799423363,-0.57394546489,-0.0116126884683,0.0,-0.00691918691328,0.0103604981836,-0.999922389453,0.0,0.434997845322,-0.0369211244842,0.304884511927,1.0,-0.41998,-0.551973714286,1.729
0.0400288148226,-0.320840931286,-0.139947471261,-2.47258804416,-0.0408558349907,2.14636023527,-0.244344728686,-1.31482017618,-1.14516242032,-0.0383861831141,-1.05891039511,-0.204442261744,-0.0833838294253,-1.20303378759,0.573991384686,0.818837085811,0.00452372725855,0.0,0.818819722029,-0.573914517223,-0.011710535361,0.0,-0.00699292253805,0.0104260642377,-0.999921195004,0.0,0.429525119164,-0.0440382612549,0.304861018316,1.0,-0.41998,-0.551973714286,1.742
0.0132008426091,-0.343289089347,-0.140780239289,-2.49323226911,-0.0448814340905,2.14448672251,-0.268883028686,-1.358328256,-1.10261669371,-0.0396572097751,-1.02078727997,-0.209220811253,-0.0994498756648,-1.26664638547,0.57391308204,0.818891653625,0.00458047895191,0.0,0.818875107417,-0.573836169488,-0.0116771546583,0.0,-0.00693401349287,0.0104527132603,-0.999921327026,0.0,0.421136828258,-0.055045546287,0.304866452131,1.0,-0.41998,-0.551973714286,1.762
-0.00478460906432,-0.357452450659,-0.141371669588,-2.50590172377,-0.0473887906676,2.14301615374,-0.285355180546,-1.38827381905,-1.06347825556,-0.0466324073673,-0.95975847079,-0.186716346231,-0.113225713215,-1.26618371651,0.573968592561,0.818852074419,0.00469913549092,0.0,0.818837209023,-0.573891521556,-0.0116143663843,0.0,-0.00681378517644,0.0105143109503,-0.999921507718,0.0,0.415704529912,-0.0622379302673,0.304921532197,1.0,-0.41998,-0.551973714286,1.775
-0.0345525045625,-0.379451561976,-0.142315832244,-2.52551902168,-0.0513800589015,2.14029160432,-0.312914594857,-1.42219817723,-1.03850146465,-0.0485033485122,-0.886094432606,-0.172268107836,-0.135351695317,-1.33014275234,0.573873143,0.818919120897,0.00467290858636,0.0,0.818902645794,-0.573794229451,-0.0118061789371,0.0,-0.00698715221905,0.0106021103419,-0.999919384231,0.0,0.406836920858,-0.0737906406555,0.304869415771,1.0,-0.41998,-0.551973714286,1.796
-0.0535885668204,-0.392572922067,-0.142897079085,-2.53687450549,-0.0536895301734,2.13856161402,-0.33046909692,-1.47600702334,-0.998556826823,-0.0357420521966,-0.850226660602,-0.170049324698,-0.148091319881,-1.37797876882,0.5739850029,0.81883977312,0.0048362489064,0.0,0.818825588402,-0.573905791967,-0.0117279421301,0.0,-0.0068278856722,0.0106919131065,-0.999919528248,0.0,0.401401431762,-0.0809815660711,0.304911887905,1.0,-0.41998,-0.551973714286,1.809
-0.0835283297991,-0.411797239321,-0.14384401589,-2.55337229111,-0.0572582157051,2.13558345643,-0.358365999281,-1.51282162551,-0.933862241551,-0.0518636248161,-0.797955665988,-0.179105652583,-0.130652368218,-1.40913027599,0.574006200096,0.818824753184,0.00486340689881,0.0,0.818810207438,-0.573925778549,-0.0118233588152,0.0,-0.0068901569297,0.010769095816,-0.999918272817,0.0,0.392985497294,-0.0920327763199,0.304898152594,1.0,-0.41998,-0.551973714286,1.829
-0.104964520923,-0.424673538278,-0.144439790589,-2.56408008094,-0.059581601135,2.13351468986,-0.378516374448,-1.52828780404,-0.878799594579,-0.0258401990131,-0.767485275419,-0.174953927569,-0.168308787533,-1.4498924009,0.573947176841,0.818865056589,0.00504025741985,0.0,0.818853610592,-0.57386746823,-0.0116464685258,0.0,-0.00664457427237,0.0108118988797,-0.999919472995,0.0,0.387160787953,-0.099729999038,0.304973365436,1.0,-0.41998,-0.551973714286,1.843
-0.136293911296,-0.441944222332,-0.145343900807,-2.57844345555,-0.0628161963658,2.13027459384,-0.408039992017,-1.57240844249,-0.840601812088,-0.0508356918737,-0.668869778785,-0.156797834171,-0.150050524628,-1.49265612885,0.573933711527,0.818874287375,0.00507377081814,0.0,0.81886214427,-0.57385205845,-0.0118046853056,0.0,-0.00675508949559,0.0109300361396,-0.999917448131,0.0,0.378740034344,-0.110718929988,0.304949329813,1.0,-0.41998,-0.551973714286,1.863
-0.157134679771,-0.452505893237,-0.145873512407,-2.58695264199,-0.0648260531633,2.12833233625,-0.427782119012,-1.58744208377,-0.768521592904,-0.0200260376543,-0.651544541867,-0.164917432708,-0.156071493977,-1.52858173409,0.573888171825,0.818905483038,0.00518873693207,0.0,0.818896054352,-0.573808166308,-0.011583926173,0.0,-0.00650892635071,0.0108971242181,-0.999919440036,0.0,0.373351052185,-0.117882175964,0.305017032892,1.0,-0.41998,-0.551973714286,1.876
-0.191113458985,-0.467972413222,-0.146511642662,-2.59960425342,-0.0676362299409,2.12503033864,-0.46018117336,-1.60992868785,-0.692328716222,-0.024416216579,-0.569510265625,-0.124147977256,-0.144153254443,-1.53885883225,0.57372656232,0.819018435274,0.00523271169702,0.0,0.819007611224,-0.573643170676,-0.0118655971371,0.0,-0.00671656278633,0.0110934525459,-0.999915908012,0.0,0.364657278284,-0.129193541098,0.304931574871,1.0,-0.40078,-0.526739428572,1.897
-0.212165155257,-0.476568506655,-0.146667281981,-2.60631806004,-0.0691323862052,2.12312223365,-0.479956715201,-1.61098940593,-0.640132445467,0.0022666068135,-0.498021029879,-0.112229197692,-0.152911066498,-1.51816171846,0.573853110427,0.818929224034,0.00531794859763,0.0,0.818920064603,-0.57377032883,-0.0117594407537,0.0,-0.006578995242,0.011103380237,-0.999916712416,0.0,0.359506039682,-0.136032649781,0.304995297954,1.0,-0.388894285714,-0.511118204082,1.91
-0.245496583496,-0.488798086488,-0.146800765735,-2.61599056017,-0.0710926875278,2.12029255174,-0.511542565357,-1.56420561227,-0.541666060459,-0.00214970338002,-0.448168227539,-0.0817594247124,-0.131885038052,-1.48671712703,0.573970376983,0.818845790756,0.00550674205381,0.0,0.818838234586,-0.573885460725,-0.0118393602133,0.0,-0.00653449688459,0.0113047906388,-0.999914747396,0.0,0.351435097344,-0.146601635278,0.304984953728,1.0,-0.369694285714,-0.485883918367,1.931
-0.265830246718,-0.495380457881,-0.146675863467,-2.6211721618,-0.0720534674236,2.11864028769,-0.530760259835,-1.54617900383,-0.483880290156,0.0107341495992,-0.383725943435,-0.0718422349791,-0.114808721075,-1.46390237909,0.574074064257,0.818772492759,0.00559649447215,0.0,0.818765194801,-0.573987216137,-0.0119573573423,0.0,-0.00657816564588,0.0114468440012,-0.999912844952,0.0,0.346616373807,-0.152886355945,0.304965958638,1.0,-0.357808571429,-0.470262693878,1.944
-0.296051171278,-0.504036922071,-0.146360898921,-2.62788735345,-0.0732025662445,2.11654709061,-0.55957648981,-1.48098244596,-0.402691481704,0.0162862673223,-0.298731283672,-0.0558494248545,-0.096139441597,-1.41321485564,0.5741025845,0.818750930524,0.00582092241152,0.0,0.818746498045,-0.574014766899,-0.0119149579032,0.0,-0.00641421094265,0.0116064914272,-0.999912069762,0.0,0.339626571814,-0.16209638654,0.304977149585,1.0,-0.339522857143,-0.446230040816,1.964
-0.315233696872,-0.508868610886,-0.146039783194,-2.63151432564,-0.0738808188482,2.11536358116,-0.577858260104,-1.46005489597,-0.3573487317,0.0362622661188,-0.265869030197,-0.0558965399095,-0.0858694369702,-1.4099489384,0.574099747854,0.818752446482,0.0058870872038,0.0,0.818749864727,-0.574013498052,-0.0117435073366,0.0,-0.00623587790291,0.0115622190612,-0.999913710736,0.0,0.335286644845,-0.167876681088,0.305031262775,1.0,-0.327637142857,-0.430608816327,1.977
-0.345183865951,-0.515315137009,-0.145426900803,-2.63654743238,-0.0746237168076,2.11358310221,-0.606450473319,-1.39989907179,-0.276010179118,0.0289892032852,-0.219854749763,-0.0304550610923,-0.0772326560281,-1.34702292401,0.574119506363,0.818737918019,0.00598004289654,0.0,0.818735669067,-0.574031278781,-0.0118634767053,0.0,-0.00628046746552,0.0117073532145,-0.99991174291,0.0,0.328836519028,-0.176322507527,0.305000546669,1.0,-0.309351428572,-0.406576163265,1.997
-0.363004385633,-0.518592683039,-0.144948933253,-2.63915147647,-0.0749434996908,2.11263810529,-0.62354018928,-1.34235863171,-0.229371586529,0.0428442296873,-0.190237034709,-0.0259869868435,-0.0691098571506,-1.30473231706,0.574115149447,0.818740554519,0.0060370906791,0.0,0.81873806654,-0.574024866669,-0.0120074037166,0.0,-0.00636563076325,0.0118366562217,-0.999909682079,0.0,0.32453254395,-0.181920352745,0.30494869047,1.0,-0.296551428572,-0.389753306123,2.011
-0.389305777407,-0.522608279073,-0.144070944611,-2.64228661105,-0.0752693339976,2.1114550912,-0.648730060671,-1.28502903502,-0.179601814255,0.0513495324105,-0.140060577202,-0.0215586313619,-0.0573402765373,-1.22182608389,0.574072417639,0.818770350621,0.00605963294372,0.0,0.818767636824,-0.573981083571,-0.012083852582,0.0,-0.00641590905848,0.0118986668977,-0.999908624744,0.0,0.318752848064,-0.189508537158,0.304921687453,1.0,-0.278265714286,-0.365720653061,2.031
-0.405646719558,-0.524702863292,-0.143435428674,-2.64388675343,-0.0753467947955,2.11083028486,-0.664477228145,-1.24247476225,-0.156906229102,0.0482418615823,-0.115784253209,-0.00406971839495,-0.0446104986808,-1.17090313045,0.573978004788,0.818836268045,0.00609615080862,0.0,0.818834039437,-0.573886550235,-0.0120743621103,0.0,-0.00638854965154,0.0119223836076,-0.999908517417,0.0,0.315203344367,-0.19417372642,0.304925929516,1.0,-0.26638,-0.350099428572,2.044
-0.430851002872,-0.527186222139,-0.14242409316,-2.64586964388,-0.0754381810753,2.11006411103,-0.688705876167,-1.17445786087,-0.109783071497,0.0509977520323,-0.0841461024955,-0.0108192207372,-0.0378645245,-1.12774765765,0.573902914624,0.818889092716,0.00607003446712,0.0,0.818886262756,-0.573811104513,-0.0121182469247,0.0,-0.0064405710484,0.0119255946744,-0.999908145399,0.0,0.309753456065,-0.201344573915,0.304895061418,1.0,-0.24718,-0.324865142857,2.065
-0.444530302335,-0.528236253827,-0.141856961816,-2.64670755919,-0.0754483953287,2.10970546151,-0.701871346498,-1.11137168109,-0.0785521852096,0.054514329317,-0.0612851319269,7.1869709882e-05,-0.0291426913247,-1.08676823633,0.573868238123,0.818913567078,0.00604663799381,0.0,0.81891027501,-0.573776248387,-0.012145994073,0.0,-0.00647722677524,0.0119220837384,-0.99990795049,0.0,0.30680078557,-0.205218005983,0.304882476189,1.0,-0.236208571429,-0.310445551021,2.077
-0.467237527605,-0.529487362306,-0.140816153717,-2.64771617608,-0.075403794843,2.10923073789,-0.723540991609,-1.04162675406,-0.0546874828046,0.0555605935418,-0.0353822909653,-0.000155510075366,-0.028669486243,-0.999161138813,0.573941879946,0.818862627101,0.0059551055839,0.0,0.818858029247,-0.573850075303,-0.01218055476,0.0,-0.00655698952494,0.0118675450071,-0.999908079407,0.0,0.301926226217,-0.211611827389,0.304868129135,1.0,-0.217008571429,-0.285211265306,2.098
-0.480361805239,-0.529964662701,-0.140096795689,-2.64808996144,-0.0753114859002,2.10905477837,-0.736204537134,-0.992434997689,-0.0334695677764,0.0586245312459,-0.023647290454,-0.00372295713204,-0.0104058420521,-0.962383713837,0.573828743778,0.818942475385,0.0058772209198,0.0,0.818937235108,-0.573737975231,-0.012136211619,0.0,-0.00656700078962,0.0117774088693,-0.999909079437,0.0,0.299140573532,-0.215272783409,0.304876598122,1.0,-0.205122857143,-0.269590040816,2.111
-0.499346786724,-0.530267715819,-0.138969889345,-2.64831059241,-0.0750315693353,2.10885187433,-0.754379690243,-0.900070819126,-0.00930991145704,0.0647032231601,-0.00870856527258,0.0290749170419,-0.00627464895691,-0.873163228926,0.573803211449,0.818960925735,0.00579858175743,0.0,0.818955039709,-0.57371345938,-0.0120936497158,0.0,-0.00657762880693,0.011688377836,-0.999910054266,0.0,0.295142029157,-0.220539124816,0.304899642398,1.0,-0.186837142857,-0.245557387755,2.131
-0.511668378583,-0.530306411592,-0.138167216778,-2.64834300561,-0.0747085584514,2.10880098042,-0.766157341211,-0.870408126726,0.000169650330421,0.0540564024273,0.00101295452638,0.0279949028665,0.000693106009158,-0.824081464075,0.573818274512,0.818950251728,0.00581549073919,0.0,0.81894494812,-0.573729095145,-0.0120351250141,0.0,-0.0065197779462,0.0116687660907,-0.999910662206,0.0,0.292559984507,-0.223917120322,0.304916104901,1.0,-0.174037142857,-0.228734530612,2.145
-0.527866240851,-0.530095131087,-0.136928329123,-2.64824607462,-0.0741697594797,2.10880400577,-0.781659467538,-0.777591031175,0.0140833606811,0.0583884749842,0.00998131327567,0.0400761134964,-0.0015138441774,-0.738300726405,0.573749881766,0.818998169691,0.0058153347415,0.0,0.81899304976,-0.573661049498,-0.0120054835319,0.0,-0.00649656308687,0.0116510878118,-0.999911019452,0.0,0.289191833933,-0.228292493155,0.304916228213,1.0,-0.155751428572,-0.204701877551,2.165
-0.538309282382,-0.529822121102,-0.136096348899,-2.64807902657,-0.0737412270834,2.10881903416,-0.791544015962,-0.731002828346,0.0239515137451,0.0544907479837,0.0170881107303,0.0382470027478,0.0040184312019,-0.696104925037,0.573812900321,0.818953756478,0.00585210018384,0.0,0.818949065574,-0.573723817032,-0.0120065259822,0.0,-0.00647542497225,0.0116822963942,-0.999910792432,0.0,0.287023687822,-0.231093786721,0.30491579478,1.0,-0.142951428572,-0.187879020408,2.179
-0.551714541509,-0.529237475186,-0.134832264888,-2.64774678168,-0.0730803586206,2.10888261801,-0.80434832184,-0.635607752735,0.0286388306802,0.0668148609008,0.0153319481332,0.0300825226429,0.00563634001678,-0.62801821266,0.573714601554,0.819022450055,0.00587615272099,0.0,0.819017598727,-0.573624584977,-0.0120729195896,0.0,-0.00651741199616,0.0117393087613,-0.999909851922,0.0,0.284279317046,-0.234631449636,0.304891958495,1.0,-0.124665714286,-0.163846367347,2.199
-0.559611956798,-0.528791561322,-0.134038637236,-2.64753318123,-0.0726581471528,2.10894441748,-0.811784309191,-0.594201910676,0.031721693976,0.0549376027785,0.0154604734936,0.0308669962313,0.00205314094847,-0.563223929288,0.57372533076,0.819014855458,0.00588712881818,0.0,0.819009492848,-0.573634089666,-0.0121708133741,0.0,-0.00659114607598,0.0118045455904,-0.999908600571,0.0,0.282660590677,-0.236691181583,0.304852121182,1.0,-0.11278,-0.148225142857,2.212
-0.570075731203,-0.528153877828,-0.132961663974,-2.64710633081,-0.0720424982957,2.10906882603,-0.821412718241,-0.51202813098,0.0343291488707,0.0577366795731,0.0256774711692,0.0365070531709,0.00816844606507,-0.486402293428,0.573936130696,0.818866886175,0.00592347092578,0.0,0.818862034598,-0.573844753597,-0.012161988503,0.0,-0.00656002324208,0.0118309378594,-0.999908493315,0.0,0.280544052361,-0.23943029384,0.304851606315,1.0,-0.0954085714287,-0.125394122449,2.231
-0.577029642678,-0.527598421523,-0.132012293013,-2.64676623241,-0.0715056316763,2.10918130661,-0.828020751373,-0.443862383375,0.0395779626897,0.0593090928864,0.0202668141517,0.0354832345487,0.00401103205421,-0.408893755437,0.573797468228,0.818963995285,0.00593184483568,0.0,0.818959025699,-0.573705673473,-0.0121926761495,0.0,-0.00658235646694,0.0118542928046,-0.999908069937,0.0,0.279195976195,-0.241188263889,0.304837073513,1.0,-0.0816942857144,-0.107369632653,2.246
-0.585186817189,-0.52701327907,-0.130848094067,-2.6463484172,-0.0708235037172,2.10927965773,-0.835368679749,-0.381405028231,0.0304651073602,0.0604229063235,0.0228471243385,0.0367786732826,0.0126320039016,-0.333937369359,0.573952065691,0.818855455847,0.00595949823969,0.0,0.818850931044,-0.573860268004,-0.0121775381536,0.0,-0.00655185044228,0.0118694923849,-0.999908089979,0.0,0.277615911691,-0.243224781136,0.304850956516,1.0,-0.0634085714287,-0.083336979592,2.266
-0.589588390783,-0.526641549325,-0.130051815425,-2.64607458004,-0.0703516403581,2.10938785237,-0.839255128908,-0.31685166543,0.0290238360425,0.0646781399982,0.0205983040633,0.0396884258042,0.0131598906697,-0.280437239518,0.574027627862,0.81880241681,0.00596921915376,0.0,0.818798413193,-0.573936488776,-0.0121166127946,0.0,-0.00649528421225,0.0118430856874,-0.999908772141,0.0,0.276819653783,-0.244288184199,0.304868722719,1.0,-0.051522857143,-0.0677157551022,2.279
-0.595145535792,-0.526087416326,-0.128762274153,-2.64573038074,-0.069566016333,2.10948796814,-0.844183656255,-0.231824441685,0.0245504629378,0.0633556205117,0.0140619733046,0.038500547066,0.001576513112,-0.210355934355,0.573985344409,0.81883182182,0.00600157311403,0.0,0.818827971514,-0.57389358284,-0.0121513597227,0.0,-0.00650578097871,0.011889187238,-0.999908156803,0.0,0.275874365945,-0.245535860237,0.304863130234,1.0,-0.032322857143,-0.0424814693879,2.3
-0.597645610556,-0.525864783893,-0.127886123828,-2.64560363922,-0.0690898044913,2.10952106966,-0.846217578586,-0.178210537849,0.0127489403007,0.0670292083159,0.0103461164915,0.0406169848756,0.00426312488869,-0.152861628161,0.573957974406,0.81885120815,0.0059740630209,0.0,0.818846884516,-0.573866131324,-0.0121733290048,0.0,-0.00653995864321,0.0118790508585,-0.999908054319,0.0,0.275510188666,-0.246007827767,0.30486371578,1.0,-0.0204371428573,-0.0268602448981,2.313
-0.600480715932,-0.525651894942,-0.126828447958,-2.6454432592,-0.0685073586166,2.10954585658,-0.848508596227,-0.129176439451,0.0110941966559,0.0440568191301,0.0143259827341,0.024398218808,9.04834506463e-05,-0.109820097185,0.573912825515,0.818883052005,0.00594665861806,0.0,0.818878532002,-0.573821404519,-0.0121528780204,0.0,-0.00653959175096,0.0118445116858,-0.999908466452,0.0,0.275115870639,-0.246526384316,0.304886722756,1.0,-0.01959,-0.0257468571429,2.333
-0.601889293187,-0.525489567369,-0.126335758863,-2.64531020354,-0.0683220978568,2.10960808774,-0.849803112689,-0.100933687677,0.0155925125641,0.0328955449477,0.00823853074382,0.00967632158344,0.00502034365795,-0.0976138806006,0.57374399211,0.819002020798,0.00585391734494,0.0,0.81899672617,-0.573653787453,-0.0121013042709,0.0,-0.00655299696127,0.0117376157483,-0.999909639221,0.0,0.274923830604,-0.2468210148,0.304905008274,1.0,-0.01933,-0.0254051428571,2.346
-0.603991407443,-0.525210127359,-0.125965352444,-2.64509554213,-0.0680971537229,2.10967717917,-0.851768112269,-0.0943400923564,0.0138248911664,0.0105077179904,0.0110077655405,0.00863033731803,0.000245002694836,-0.0832350884971,0.573701719218,0.819031627159,0.00585474004828,0.0,0.819026518011,-0.573611833056,-0.0120737183369,0.0,-0.00653053473723,0.0117221260101,-0.999909967886,0.0,0.274556269777,-0.247348503558,0.304915107721,1.0,-0.01891,-0.0248531428571,2.367
-0.605313465651,-0.525044375262,-0.125856011719,-2.6449873703,-0.0679985065518,2.10967787872,-0.852996054613,-0.0933819784036,0.0094306980491,0.00829253912582,0.0052478760931,0.00819696652095,-0.000624178733447,-0.0897480675474,0.573749417258,0.818997986966,0.00588646270908,0.0,0.818992963217,-0.573658797767,-0.0121184507042,0.0,-0.00654829168601,0.0117741522555,-0.999909240489,0.0,0.274282222119,-0.247700257876,0.304906269399,1.0,-0.01863,-0.0244851428571,2.381
-0.607139827384,-0.524875712095,-0.125768431386,-2.64483358156,-0.0679511542629,2.10969723854,-0.854711879247,-0.0901066290866,0.00939757817715,0.00261168519758,0.00662269586335,0.00576208421817,0.00334129626956,-0.0867942958508,0.573806245041,0.81895818024,0.00588549679156,0.0,0.818953257731,-0.573715822825,-0.0121021978819,0.0,-0.00653471713333,0.0117644899971,-0.999909443023,0.0,0.273887662511,-0.248213853626,0.304918125917,1.0,-0.01823,-0.0239594285714,2.401
-0.608235689454,-0.52476102986,-0.125715378913,-2.64470812251,-0.0679182088078,2.10973905638,-0.855769466593,-0.0822233021093,0.00879220907315,0.00255166001269,0.0113050741653,0.00175213178331,0.0074515807508,-0.0812590324443,0.573820550613,0.818948173422,0.00588318313344,0.0,0.818943614242,-0.573730845073,-0.0120424667001,0.0,-0.00648691736995,0.0117284359399,-0.999910177813,0.0,0.273663537803,-0.24853313938,0.304937969052,1.0,-0.01797,-0.0236177142857,2.414
-0.60991480742,-0.524595430947,-0.125698947712,-2.64452235789,-0.0678749829607,2.10979886288,-0.857466135746,-0.0793047494138,0.0123198605825,-0.00243465514608,0.00773397671973,0.00359173147787,0.000418098241417,-0.0786886583169,0.573822477833,0.818946646789,0.00590766856333,0.0,0.818942960406,-0.573733679465,-0.011951550118,0.0,-0.00639837665974,0.0116963368757,-0.99991112429,0.0,0.273303326581,-0.249035324326,0.304967221621,1.0,-0.01755,-0.0230657142857,2.435
-0.610861508029,-0.524484071911,-0.125693929358,-2.64443104288,-0.0678604554084,2.10981136888,-0.858371390092,-0.0792920773572,0.0127046323358,0.000482019165367,0.0087517014382,-0.000581232286961,0.00220045502087,-0.0725989977042,0.573863883759,0.818917561875,0.0059174886582,0.0,0.818913981653,-0.573774998168,-0.0119536200583,0.0,-0.00639384545105,0.0117058904048,-0.999911041478,0.0,0.273091022062,-0.249313771282,0.304969093128,1.0,-0.01731,-0.0227502857143,2.447
-0.612503017991,-0.524304553607,-0.125698562018,-2.64426744212,-0.0678296180009,2.10982473386,-0.860045149812,-0.0771503213455,0.0119987095367,-4.47861250118e-06,0.00628961959949,0.00232967878858,9.72081161387e-06,-0.0775269767539,0.57386243372,0.818918362194,0.00594727899108,0.0,0.818915181261,-0.573773450551,-0.0119457207358,0.0,-0.00637030192011,0.0117257431839,-0.999910959136,0.0,0.272720151414,-0.249798964079,0.304978676097,1.0,-0.01689,-0.0221982857143,2.468
-0.613501640951,-0.524194466161,-0.125691882059,-2.64415120923,-0.0678146535248,2.10985470281,-0.861019545418,-0.077137083006,0.00764983805817,0.000481703229025,0.0108487990552,0.00261237535014,0.00407529249406,-0.0722658128255,0.573889900758,0.818899069355,0.00595339558596,0.0,0.818896228549,-0.573801368384,-0.0119039241567,0.0,-0.00633216779373,0.011706980441,-0.999911421207,0.0,0.272503288708,-0.250099198335,0.304993861883,1.0,-0.01663,-0.0218565714286,2.481
-0.614973144106,-0.523991797576,-0.125659178282,-2.64399175539,-0.0677856939262,2.10989730921,-0.862482713841,-0.071854626198,0.0125381002447,0.0042710808913,0.00926943716724,3.64596201685e-05,0.00170981894559,-0.0685915055024,0.573894376435,0.818895894746,0.00595862113721,0.0,0.818893168936,-0.573805909663,-0.011895495248,0.0,-0.00632220192456,0.0117064573589,-0.999911490392,0.0,0.272184519669,-0.25053162121,0.304996436302,1.0,-0.01623,-0.0213308571429,2.501
-0.615904577292,-0.523867211078,-0.125594505358,-2.6439007464,-0.0677678026602,2.10991933387,-0.863464623204,-0.0673966739624,0.00646991943476,0.0113889729013,0.00384483060169,0.000382445718636,0.00623847187882,-0.0721647144088,0.573819776701,0.818948293137,0.00594171162986,0.0,0.818945326347,-0.57373135242,-0.0119010338393,0.0,-0.00633750711681,0.011695210719,-0.999911525111,0.0,0.271988472424,-0.250792249848,0.304995530291,1.0,-0.01597,-0.0209891428571,2.514
-0.617361677085,-0.523652551447,-0.125483354465,-2.64377879538,-0.0677380869763,2.10995487081,-0.864883439252,-0.0705322967865,0.010953329548,0.00775073844716,0.00169699975336,6.19744159979e-05,0.00103825512374,-0.0683997657784,0.573791890051,0.818968041452,0.00591277368516,0.0,0.818964425704,-0.57370308519,-0.0119493252906,0.0,-0.00639406213021,0.0116990024908,-0.999911120705,0.0,0.271678409989,-0.251191990035,0.304977899452,1.0,-0.01555,-0.0204371428571,2.535
-0.618297154576,-0.52352355616,-0.125407971869,-2.64369819628,-0.0677192500091,2.10997794993,-0.865886181594,-0.0669117931131,0.00655464847576,0.00361564641158,0.00338211913816,0.000590941645623,-1.4271525113e-05,-0.0749411244111,0.573695872769,0.819035449214,0.0058928261329,0.0,0.819031466787,-0.573606971798,-0.0119685094824,0.0,-0.00642259104173,0.0116929196494,-0.999911009017,0.0,0.27148065424,-0.251448304154,0.304970973829,1.0,-0.01527,-0.0200691428571,2.549
-0.619625220773,-0.523318079163,-0.125367674265,-2.64359719786,-0.067686792761,2.11000629692,-0.867288412289,-0.0658190711785,0.00897121167499,-0.000334209111347,0.00620833686155,0.000218916705677,0.000389770124539,-0.0659108786208,0.573626143299,0.819084201688,0.00590467354067,0.0,0.819079919596,-0.573536383232,-0.0120353364977,0.0,-0.00647153347764,0.0117404092267,-0.999910136985,0.0,0.271181575615,-0.251821921927,0.304944869984,1.0,-0.01487,-0.0195434285714,2.569
-0.620499546857,-0.523198259337,-0.125363775925,-2.6435455752,-0.0676689398921,2.11003010565,-0.868137567845,-0.0644707285583,0.00944413963048,0.000330210928304,0.00310658712828,-0.000466145767043,0.000652167182515,-0.0687452016051,0.573654590241,0.81906415955,0.00592119390822,0.0,0.81905982388,-0.573564267704,-0.0120740473695,0.0,-0.00649335923042,0.0117763714675,-0.999909572592,0.0,0.270977007724,-0.252070355774,0.304926492774,1.0,-0.01461,-0.0192017142857,2.582
-0.621849826239,-0.523034819827,-0.12537092746,-2.6434502717,-0.0676401804283,2.11003829994,-0.869449008633,-0.0689949162158,0.00972462484006,0.000102553648383,0.00392068280612,0.00422838922957,-0.000199388402643,-0.0704011242592,0.573708963226,0.819025831994,0.0059547411027,0.0,0.819021566482,-0.573617819799,-0.0121250710504,0.0,-0.00651512623259,0.0118335511598,-0.999908755936,0.0,0.270657505031,-0.25245688578,0.304910364984,1.0,-0.01421,-0.018676,2.602
-0.622699154242,-0.52294078193,-0.125375697221,-2.64334233754,-0.0676287733095,2.11004725876,-0.870293220649,-0.0610508313393,0.0123130467136,-0.000241920633918,0.00719009573806,0.000273528337068,0.000200573761102,-0.0633309406315,0.573726887269,0.819013205775,0.00596443559224,0.0,0.819009236967,-0.573636008317,-0.0120973809508,0.0,-0.00648662461664,0.0118257482427,-0.999909033552,0.0,0.270467766874,-0.252713227689,0.304925557251,1.0,-0.01395,-0.0183342857143,2.615
-0.62398929831,-0.522836930343,-0.125357394999,-2.643112352,-0.0675961849686,2.11012891591,-0.871531584026,-0.0573508218709,0.00253502295613,0.00115427579981,0.0104421038184,0.000836688303492,0.0060798529973,-0.0621327121592,0.573781430269,0.818974995454,0.00596439444416,0.0,0.818972407329,-0.573693079916,-0.0118824656945,0.0,-0.00630983195344,0.0117028379534,-0.999911610896,0.0,0.270213282001,-0.253121511683,0.304999384778,1.0,-0.01353,-0.0177822857143,2.636
-0.624760090033,-0.52275953624,-0.125323714383,-2.64297457419,-0.0675768697157,2.11021345632,-0.872329027823,-0.0599466607018,0.00497592858631,0.00368728121333,0.0127309965529,0.00127730499451,0.00665401466504,-0.0616557943435,0.573750754265,0.81899658847,0.00595037442499,0.0,0.818994766758,-0.573664230735,-0.0117332561447,0.0,-0.00619609908113,0.0116055135194,-0.999913456461,0.0,0.270071268208,-0.253364986985,0.305041623947,1.0,-0.01327,-0.0174405714286,2.649
-0.625936610867,-0.522668496287,-0.125245723389,-2.64275971358,-0.067552273903,2.11022514643,-0.873549652732,-0.0555875865989,0.00892397533236,0.00211544758595,0.0137371224924,0.000943419621128,0.000431278360147,-0.0552884329737,0.573682739674,0.819044466048,0.00591808569143,0.0,0.819043148401,-0.573598076173,-0.0115894335107,0.0,-0.00609777621544,0.0114960468394,-0.999915325431,0.0,0.269830729332,-0.253734063181,0.305110972737,1.0,-0.01285,-0.0168885714286,2.67
-0.626707743279,-0.522599885957,-0.125204546274,-2.64261142817,-0.0675427104018,2.11024170764,-0.874319917707,-0.0578434132752,0.00193030737936,0.00674669735415,0.00784691451484,-0.000313577349137,-0.000723625404754,-0.0540181503281,0.573663237762,0.819058268379,0.00589826603133,0.0,0.819057314274,-0.573579814609,-0.0114916973258,0.0,-0.00602935945953,0.0114236021696,-0.999916570589,0.0,0.269691825544,-0.253952856703,0.30515333589,1.0,-0.01259,-0.0165468571429,2.683
-0.627806715491,-0.522572841479,-0.125169296564,-2.64234033436,-0.0675354847923,2.11035559917,-0.875463341611,-0.0595574635774,0.000610333043767,0.00266979532416,0.0202847263044,2.59306212604e-05,0.00319245589417,-0.0552109958031,0.57361767543,0.819090479227,0.0058562935631,0.0,0.819091178579,-0.573538589104,-0.0111299094231,0.0,-0.0057577033492,0.0111813664437,-0.999920909821,0.0,0.269502081358,-0.254323705975,0.305277246093,1.0,-0.01219,-0.0160211428571,2.703
-0.628550477161,-0.522605620725,-0.125158511126,-2.64206576554,-0.0675254513352,2.1104778772,-0.876186330403,-0.0515144137274,-0.00475524333819,0.000345293788017,0.0230403347822,0.00254814829724,0.00943291683098,-0.0520892931212,0.573643934219,0.819072338588,0.00582132246317,0.0,0.819075065525,-0.573569806482,-0.0106986461186,0.0,-0.0054241347288,0.0109055234934,-0.999925821409,0.0,0.269400829733,-0.25460687529,0.305424903502,1.0,-0.01193,-0.0156794285714,2.716
-0.62970606884,-0.522695483953,-0.125145800264,-2.64162241833,-0.0675053325333,2.11056584822,-0.877274281689,-0.0551025092214,-0.000877522515579,6.73376787319e-05,0.0188621133066,0.00128923093098,0.000117461415031,-0.0459525729169,0.573719152508,0.819019961931,0.00577779419726,0.0,0.819025462372,-0.573651934121,-0.0100745901795,0.0,-0.00493694270054,0.0105123482988,-0.999932556291,0.0,0.269230791045,-0.255038050524,0.305667519036,1.0,-0.01151,-0.0151274285714,2.737
-0.630408450913,-0.522718702288,-0.125143846044,-2.64139070872,-0.0674919546758,2.1105751557,-0.877918851394,-0.0540474729416,0.000254655202192,0.000417610363938,0.0166625206957,0.000927401484076,0.00317867214205,-0.0531687346936,0.573781525486,0.818976364535,0.00576387412977,0.0,0.818983012744,-0.573717155362,-0.00980802634738,0.0,-0.00472579927792,0.0103483785578,-0.999935286847,0.0,0.26910933257,-0.25528517265,0.305782372007,1.0,-0.01125,-0.0147857142857,2.75
-0.631460306598,-0.522703593838,-0.125153067359,-2.6411483305,-0.0674732144503,2.11062668082,-0.878962929132,-0.0581308866837,0.000980126694781,0.000469889924795,0.0127850240209,0.0018747692698,0.00195696819795,-0.0507821997803,0.573813765675,0.818953809944,0.00575902779732,0.0,0.81896171878,-0.573752329971,-0.0095243859385,0.0,-0.00449586309393,0.0101818430965,-0.999938056725,0.0,0.268904835944,-0.255636010169,0.305891366372,1.0,-0.01085,-0.01426,2.77
-0.632104707554,-0.522713941609,-0.125134838887,-2.64102539132,-0.0674671182537,2.11063356512,-0.879633742599,-0.0490120238058,-0.00823365079444,-0.00185289442873,-0.000881640018085,-2.28518790793e-05,0.0216797502699,-0.0513953095087,0.573787516371,0.818972301401,0.00574477996479,0.0,0.818980699117,-0.573727593186,-0.00938137476806,0.0,-0.00438723176933,0.0100879738649,-0.99993949066,0.0,0.268774466543,-0.255836614175,0.305952175694,1.0,-0.01059,-0.0139182857143,2.783
-0.633065660727,-0.52242276676,-0.125097780298,-2.64096227821,-0.0674078977072,2.11071600291,-0.880544080631,-0.0439976126393,0.0173937385436,-0.00936897660694,0.00288623049548,0.0100060601765,0.00743187209307,-0.045407641503,0.573832148732,0.818940813606,0.00577544742632,0.0,0.818948917626,-0.57377069972,-0.00951847486857,0.0,-0.00448137132244,0.0101919995326,-0.999938018307,0.0,0.268563188848,-0.256103024185,0.305881752691,1.0,-0.01019,-0.0133925714286,2.803
-0.633670691903,-0.522376082651,-0.125031455514,-2.64091333268,-0.0673766361451,2.1107215093,-0.881176715782,-0.0418680034962,0.00254856693343,-0.00117798285666,-0.00391078438328,-0.00140911075441,0.0202024137285,-0.0493193690033,0.573778360087,0.818978545701,0.00576906220841,0.0,0.81898663717,-0.57371706769,-0.00950585501806,0.0,-0.00447536802951,0.010179234743,-0.999938175219,0.0,0.268436390594,-0.256259889613,0.305888921521,1.0,-0.00991,-0.0130245714286,2.817
-0.634592269125,-0.522198944614,-0.125021451416,-2.64081922294,-0.0673384490795,2.11068523198,-0.882114464908,-0.0473862346002,0.00131992721074,0.000509509122354,0.00648682228485,-0.00158205582707,-0.00243212421152,-0.0471914719274,0.573779484089,0.818977534765,0.00580069732707,0.0,0.818985445596,-0.57371690649,-0.00961758862618,0.0,-0.00454871847441,0.0102692594404,-0.999936923746,0.0,0.268217821123,-0.256516919648,0.30586371296,1.0,-0.00949,-0.0124725714286,2.838
-0.635113975046,-0.522113697336,-0.12501325564,-2.64077032969,-0.0673449061804,2.11070287853,-0.882637112393,-0.0410988125667,0.00408575961794,0.00479907566769,-0.000358284683806,-0.0034701448626,0.00148785908479,-0.0471887850954,0.573772833659,0.818982269447,0.00579004206398,0.0,0.818989993421,-0.573710131295,-0.0096344603532,0.0,-0.00456873437452,0.0102701758622,-0.999936823081,0.0,0.268097478726,-0.256669061088,0.305856297343,1.0,-0.00925,-0.0121571428571,2.85
-0.635967140167,-0.52194545227,-0.124967125313,-2.64063533463,-0.0673107167779,2.1107120261,-0.883475052163,-0.0424559994943,0.000500277929312,0.000139363672665,0.00148097199059,0.0046075239644,-0.0011593977099,-0.0454045598374,0.573774233778,0.818981292327,0.00578950535348,0.0,0.81898892623,-0.573711343795,-0.00965295883648,0.0,-0.00458417606602,0.0102803577617,-0.99993664778,0.0,0.267920461736,-0.25691662357,0.305857716853,1.0,-0.00883,-0.0116051428571,2.871
-0.636442141797,-0.521856031493,-0.124927105792,-2.64059679147,-0.067313910017,2.11072917766,-0.883968030676,-0.0426877040326,0.00449553032821,0.000801511150199,0.00252416878871,0.00224902018332,0.0105307062978,-0.0408339576215,0.573732011705,0.819011029658,0.00576705685509,0.0,0.81901828169,-0.573668894589,-0.00968506782697,0.0,-0.0046238852663,0.0102801563686,-0.999936467017,0.0,0.267816451718,-0.257045991741,0.305844760982,1.0,-0.00857,-0.0112634285714,2.884
-0.637251550724,-0.52174642292,-0.124890802207,-2.64052357077,-0.0672924377507,2.11075517008,-0.88476053975,-0.0381805860831,0.00522877508182,0.00053812633445,0.00233088525367,0.00247980311919,-0.00359803384059,-0.0385591937638,0.573733169111,0.819010230933,0.00576534391578,0.0,0.819017440336,-0.57367000414,-0.00969049419661,0.0,-0.00462929815012,0.0102818731202,-0.999936424321,0.0,0.267636759922,-0.257272783625,0.305840841732,1.0,-0.00815,-0.0107114285714,2.905
-0.637719674081,-0.521698357256,-0.124884726457,-2.64048287997,-0.0672916170076,2.1107788957,-0.885259135387,-0.0311472485153,0.00199721168045,-0.00204056725959,0.00373712105109,0.00147670384357,-0.0025963760384,-0.0397250615656,0.573706361859,0.819029037813,0.00576129173787,0.0,0.819036289796,-0.573643407148,-0.00967183194801,0.0,-0.00461667307744,0.0102676962138,-0.999936628364,0.0,0.26752985526,-0.257409409101,0.305843847776,1.0,-0.00789,-0.0103697142857,2.918
-0.638456380639,-0.521573150623,-0.124884025517,-2.64039502694,-0.0672743244398,2.11076864173,-0.885977945353,-0.0377262754727,0.0075825644327,0.00136208069648,0.00373607165587,0.00358106817669,-0.000917216240487,-0.0323619440893,0.573732547199,0.819010597501,0.00577515069444,0.0,0.819017795364,-0.573669087146,-0.00971474294635,0.0,-0.00464354140062,0.010303813786,-0.999936132433,0.0,0.267357816615,-0.257623297345,0.305836882207,1.0,-0.00749,-0.00984400000001,2.938
-0.638934686495,-0.521501127785,-0.12488681461,-2.64032657264,-0.0672702720396,2.11078326013,-0.886407270997,-0.0385286416431,0.00232997879503,-0.000313007231516,-0.000457532624852,0.003785336895,-0.000976601654029,-0.0343226577115,0.573779873587,0.818977440685,0.0057753975361,0.0,0.818984705488,-0.573716547692,-0.00970164845847,0.0,-0.00463207927086,0.010296771121,-0.999936258142,0.0,0.267250940891,-0.257769539272,0.305842711247,1.0,-0.00723,-0.00950228571429,2.951
-0.639634171336,-0.521396403026,-0.124880256808,-2.6402301828,-0.0672633488751,2.11079209889,-0.887074466126,-0.0308596953026,0.00364878163203,0.00061446623959,0.00119368636666,-0.000615656311008,0.000505668108955,-0.0347878491507,0.573809581623,0.818956640137,0.00577343176653,0.0,0.818963904405,-0.573746303793,-0.00969788983006,0.0,-0.00462975527253,0.0102931725028,-0.999936305955,0.0,0.267094035245,-0.257978209941,0.305848938246,1.0,-0.00681,-0.00895028571429,2.972
-0.640050405942,-0.521327909758,-0.124872702729,-2.64020052301,-0.0672433411953,2.11081965849,-0.887481750558,-0.0304491782111,0.0121494941979,0.00433016527031,0.00288225444532,-0.000894133005765,-0.00230671812813,-0.0342276307177,0.573836383937,0.818937744783,0.00578977895587,0.0,0.818945189932,-0.573773054008,-0.00969563216705,0.0,-0.00461818890204,0.0103054165406,-0.999936233328,0.0,0.267005960475,-0.258090374371,0.305842863019,1.0,-0.00657,-0.00863485714286,2.984
-0.640633746706,-0.521235479813,-0.124817918188,-2.64012627302,-0.0672348614377,2.11085718909,-0.888083198625,-0.0299324103965,-0.000332952612703,0.00114979345207,0.00604134788379,0.00170207010164,0.0026453543825,-0.0218909171015,0.573775571168,0.818980562286,0.00576015884331,0.0,0.818987751993,-0.573712497925,-0.00968394092797,0.0,-0.00462637333991,0.0102741060877,-0.999936517692,0.0,0.266882913767,-0.258261166419,0.305844049001,1.0,-0.00613,-0.00805657142858,3.006
-0.640953048447,-0.521144466873,-0.124765702768,-2.64009660372,-0.0672186556961,2.11086370939,-0.888453888079,-0.0264012341096,0.0173229364015,0.00442328242145,0.00545786390447,-0.000440619061075,0.000420270927384,-0.0245253426277,0.573705171391,0.819029954744,0.00574947405221,0.0,0.819036785302,-0.573641608151,-0.00973635567247,0.0,-0.00467631943811,0.0102950265559,-0.999936070189,0.0,0.266819065087,-0.258340150469,0.305825836142,1.0,-0.00587,-0.00771485714286,3.019
-0.641464263236,-0.521088814413,-0.124694021362,-2.64004121061,-0.067208970384,2.11088226728,-0.888991037018,-0.0193759175148,0.000241716171773,0.00180889922313,0.00147205071779,-0.000181864711008,0.00257599452923,-0.0278547807232,0.573640073409,0.819075760733,0.00571937582357,0.0,0.819082372426,-0.573576860236,-0.00971593966708,0.0,-0.00467767910648,0.0102582897661,-0.999936441385,0.0,0.266717855983,-0.258475454636,0.305833843978,1.0,-0.00547,-0.00718914285715,3.039
-0.641790359974,-0.521010999598,-0.124688790946,-2.64002552377,-0.0671981358176,2.110872841,-0.889314780733,-0.0262812595446,0.00166377923689,0.000696985510102,0.00223036639836,-0.000860690588614,0.000379297260961,-0.022835274473,0.573643990003,0.8190729413,0.00573031101846,0.0,0.819079341515,-0.573580016508,-0.00978487951923,0.0,-0.00472782918488,0.0103068151429,-0.99993570653,0.0,0.266636073241,-0.258561565335,0.305811641225,1.0,-0.00521,-0.00684742857143,3.052
-0.642294159512,-0.520977928715,-0.124704082451,-2.64000387915,-0.0671876516011,2.1108841185,-0.889779529541,-0.0222599517335,0.00111428498755,-0.00103003093907,-0.00028988165217,-0.000490566929137,-0.0072098825039,-0.0213523302972,0.573689812619,0.819040710096,0.00574986995064,0.0,0.819047288016,-0.573625686664,-0.0097907351336,0.0,-0.0047208284481,0.0103264592101,-0.999935536932,0.0,0.266504613822,-0.258709433557,0.305805954792,1.0,-0.00479,-0.00629542857143,3.073
-0.642617992388,-0.520935722493,-0.124714305802,-2.63998232045,-0.0671768475569,2.11087957038,-0.890056144312,-0.0264084034448,0.00359468506049,-0.0033217115504,0.00169773734667,0.000879970902591,-0.00114511512584,-0.0258337845933,0.57374412807,0.819002563542,0.00576396717692,0.0,0.819009227715,-0.573679796492,-0.0098042294406,0.0,-0.00472310846284,0.0103460605717,-0.999935323547,0.0,0.26642776224,-0.258796285584,0.305803562622,1.0,-0.00455,-0.00598000000001,3.085
-0.643107704255,-0.520929868078,-0.124704371924,-2.63993765077,-0.067161153793,2.11089680701,-0.890473824584,-0.0210286732802,0.000509633042364,0.00205139024941,0.0024360262646,-0.000296239322872,0.000877815048673,-0.0203884525785,0.573814879569,0.818952959178,0.00576901540309,0.0,0.818959984386,-0.573751192352,-0.0097396175662,0.0,-0.00466639900352,0.0103135288126,-0.999935925869,0.0,0.26631284783,-0.258944013949,0.305825807471,1.0,-0.00411,-0.00540171428572,3.107
-0.643371179303,-0.520915773857,-0.124685565191,-2.63988539794,-0.0671509822097,2.1109020434,-0.890713882657,-0.0138184879553,0.00129873155478,0.00197198671588,0.00165818462736,-0.000464190111667,6.3472395866e-05,-0.0174549388102,0.573817510423,0.818951159698,0.00576278249248,0.0,0.818958303111,-0.573754255616,-0.00970045512287,0.0,-0.00463786728654,0.0102859676166,-0.999936342502,0.0,0.266266780363,-0.259015359123,0.305842952692,1.0,-0.00385,-0.00506000000001,3.12
-0.643687314323,-0.520825197832,-0.124615147946,-2.6397945246,-0.0671316412778,2.11093713391,-0.891066247995,-0.0157755364772,0.00990271071182,0.00109555161138,0.00431548144905,0.00160204540101,-0.000675794263173,-0.0190674835322,0.573750779994,0.818998113264,0.00573409341998,0.0,0.819005127282,-0.573688034654,-0.00966370956204,0.0,-0.0046250681607,0.0102410099813,-0.999936863236,0.0,0.266226421515,-0.259108564223,0.305855632926,1.0,-0.00345,-0.00453428571429,3.14
-0.643870595511,-0.520754649139,-0.124574259508,-2.63975559192,-0.0671224085237,2.11094557845,-0.891252327564,-0.0154982035073,0.00456789143325,-0.00185859864221,0.00262644573307,-4.27695975677e-05,0.00262064381443,-0.00908831882332,0.57372556181,0.819015882454,0.00571934559904,0.0,0.819022639438,-0.57366265493,-0.0096861410689,0.0,-0.00465221796392,0.0102416574386,-0.999936730659,0.0,0.26619739435,-0.259157339268,0.305849056135,1.0,-0.00321,-0.00421885714286,3.152
-0.644167455416,-0.520708704908,-0.124554606615,-2.63974065153,-0.0671025610675,2.11094766903,-0.8915598422,-0.017052790254,0.00319843559453,-0.00112714400205,0.00106152610185,-0.000373431430146,-0.00120043011428,-0.0115827807689,0.573712246113,0.819025145502,0.00572857725458,0.0,0.819031875426,-0.57364903058,-0.00971203645086,0.0,-0.00466829915782,0.0102639992327,-0.999936426631,0.0,0.266129251135,-0.259233346301,0.305839583375,1.0,-0.00279,-0.00366685714286,3.173
-0.644354312031,-0.520695401127,-0.124543877442,-2.63975626725,-0.0670886179823,2.11094819885,-0.891731571324,-0.0169874228169,0.000421440630058,0.00312531507388,-0.000986636256355,0.00561149032958,0.000240660792844,-0.0139553104923,0.573722294207,0.819018031731,0.00573931447658,0.0,0.819024750423,-0.573658759669,-0.00973820056703,0.0,-0.00468344400784,0.0102878614508,-0.999936110589,0.0,0.266080568774,-0.259275172929,0.305827881321,1.0,-0.00253,-0.00332514285715,3.186
-0.644632339782,-0.52067920693,-0.124541627867,-2.63975105411,-0.0670718907189,2.11094703176,-0.891991055485,-0.0133152424668,0.0011697458165,-0.000950201545823,-7.37129769246e-05,0.00314527990354,-0.000150757312325,-0.0110283837937,0.573743314645,0.8190031976,0.00575483468333,0.0,0.819010034352,-0.573679612192,-0.00974746569869,0.0,-0.00468186438675,0.0103060090537,-0.999935931109,0.0,0.266011111649,-0.259347841949,0.305824250511,1.0,-0.00211,-0.00277314285715,3.207
-0.644778520286,-0.520681272457,-0.124544627695,-2.63973757417,-0.0670640327715,2.11095205811,-0.89212565874,-0.0107008735744,0.0012620302262,-0.000307927173835,0.000721901946964,0.000458582503452,0.000743606189713,-0.0144280721629,0.573758876225,0.818992246975,0.00576179213476,0.0,0.818999258912,-0.57369536704,-0.00972556630823,0.0,-0.00465973966475,0.0102992317762,-0.999936104284,0.0,0.265977194043,-0.259390748832,0.305831512563,1.0,-0.00185,-0.00243142857143,3.22
-0.64502313162,-0.520687639602,-0.124530445982,-2.63971927748,-0.06704575232,2.11096213301,-0.89233447775,-0.011375817589,-0.000962116088151,0.00064443268585,0.00093447502925,-0.00028725172463,-0.00023114697949,-0.00692773231995,0.573786723723,0.818972690776,0.00576839164635,0.0,0.818979944753,-0.573723565351,-0.00968852695544,0.0,-0.00462526581937,0.0102835432014,-0.999936425807,0.0,0.265924391048,-0.259456987744,0.305843397796,1.0,-0.00141,-0.00185314285715,3.242
-0.64513274076,-0.520680922623,-0.124515227113,-2.63971559329,-0.0670370354025,2.11096419469,-0.892401841233,-0.00902419128215,-0.000447421592896,0.000747465015766,0.00269753700843,-0.000149287001503,0.000376757006079,-0.00144798987197,0.57381444179,0.818953270575,0.00576835400103,0.0,0.81896052575,-0.573751282609,-0.00968864640647,0.0,-0.00462503720169,0.0102837374486,-0.999936424867,0.0,0.265901058165,-0.259483015905,0.30584314132,1.0,-0.00119,-0.00156400000001,3.253
-0.645311256284,-0.520658222457,-0.12446488648,-2.63969798852,-0.0670210710731,2.11097690753,-0.892517078392,-0.00706522446187,-0.000903339340326,0.00252727829219,0.00142801282509,0.000104454105611,0.000578666076712,-0.0026575673783,0.573838287716,0.818936656637,0.00575489957927,0.0,0.81894381504,-0.573775279072,-0.00968007412543,0.0,-0.00462543748215,0.0102679342673,-0.999936585416,0.0,0.265872656722,-0.259523670413,0.305845078843,1.0,-0.000770000000005,-0.00101200000001,3.274
-0.645405819114,-0.520603685261,-0.124428632788,-2.63968907105,-0.0670095592348,2.11097649225,-0.89256391924,-0.00320730499759,0.00324149758991,0.00664311610138,0.000728400903712,0.00562919701822,0.000354599248286,0.000316974910471,0.573857233576,0.818923431054,0.00574773381742,0.0,0.818930306185,-0.573793791419,-0.00972550476034,0.0,-0.00466651959288,0.0102882427524,-0.999936185792,0.0,0.265857810374,-0.259540990949,0.305829867572,1.0,-0.000510000000005,-0.000670285714292,3.287
-0.645430891097,-0.520599707471,-0.124412108825,-2.63970497928,-0.0669957604211,2.11097186863,-0.892602138591,-0.00017852906302,5.786219838e-05,-0.00676135430736,-0.000420094695803,0.00347389861049,-0.000122745184512,-0.00100667612691,0.573839905387,0.818935526131,0.00575447015945,0.0,0.818942361189,-0.573776193449,-0.00974862976608,0.0,-0.00468181140252,0.0103069306028,-0.999935921859,0.0,0.265851633526,-0.259537859751,0.305821162726,1.0,-9.00000000051e-05,-0.000118285714292,3.308
-0.64542815531,-0.520602495783,-0.124404625895,-2.63970019127,-0.066986297375,2.11097171552,-0.892614188649,-0.0010208980119,-0.00179936901758,8.82202784842e-05,0.000820899986795,0.00105741901453,0.00052115493721,0.000975684563956,0.573826725777,0.818944735375,0.00575813215018,0.0,0.818951645259,-0.573763080563,-0.00974048308605,0.0,-0.00467320367621,0.0103051797214,-0.99993598017,0.0,0.265855948195,-0.259535767628,0.305824538751,1.0,0.0,0.0,3.321
-0.645434722419,-0.520605981815,-0.124398963063,-2.6396868457,-0.066973568456,2.11097755334,-0.892621220165,-0.000577251967483,0.000191268403461,0.00021390439806,0.000571495071459,0.000227148720981,-5.19565655711e-05,0.000105697043425,0.573828343365,0.81894356389,0.00576354189418,0.0,0.818950639406,-0.573764915504,-0.00971693644933,0.0,-0.00465079398018,0.0102961080968,-0.9999361781,0.0,0.265860680951,-0.259539241563,0.305832540252,1.0,0.0,0.0,3.341
-0.645430267169,-0.520608019502,-0.124393301701,-2.63967995388,-0.0669669958966,2.11098110196,-0.892625374147,7.03307448002e-05,-0.000839083860942,0.00157966314307,0.000267174523197,0.000308813557214,-3.35971625141e-05,0.000631805135781,0.573820383025,0.818949131932,0.00576491405178,0.0,0.818956280809,-0.573757081345,-0.00970405229458,0.0,-0.0046395542681,0.010289793686,-0.999936295312,0.0,0.265865845335,-0.259538426036,0.30583687025,1.0,0.0,0.0,3.355
-0.645435474716,-0.520594691548,-0.124395075177,-2.63968431182,-0.0669591705416,2.11097963301,-0.892633775946,0.000672746695128,-0.000520657264478,-0.000783673351503,-0.00150451244512,-7.79225549221e-05,4.03892755066e-05,0.000817450590897,0.573822211055,0.818947788885,0.00577374070301,0.0,0.818954943756,-0.573758679797,-0.00972236370851,0.0,-0.00464946393515,0.0103075401847,-0.999936066506,0.0,0.265863279208,-0.25953787198,0.305829812344,1.0,0.0,0.0,3.376
-0.645440400314,-0.520591161577,-0.124395362129,-2.63969009231,-0.0669580848605,2.11097647953,-0.892634956051,-4.39039104604e-05,0.00228028375293,-0.00127299369027,-0.000359469333999,-9.43176727502e-05,-0.000196788127679,-0.00153109246175,0.573825693358,0.818945332307,0.00577609168823,0.0,0.818952454609,-0.573762024699,-0.0097346291858,0.0,-0.00465811675476,0.0103165234333,-0.999935933594,0.0,0.265860126745,-0.259537165162,0.305825603806,1.0,0.0,0.0,3.388
-0.64543522652,-0.520597844323,-0.124375842472,-2.63967902621,-0.0669512656431,2.1109796461,-0.892634995298,0.0005496019826,0.000191904831577,0.00211328178865,0.00113829781922,0.000168954356133,-1.20364678016e-05,-0.000681147462877,0.573810969473,0.818955691665,0.00577003496691,0.0,0.818962848222,-0.573747545671,-0.00971359715576,0.0,-0.00464455169856,0.0102994111674,-0.999936173098,0.0,0.265869508485,-0.259534172208,0.305833839479,1.0,0.0,0.0,3.408
-0.645428221827,-0.520599910141,-0.124371990278,-2.63966848866,-0.0669476878585,2.11098246688,-0.892631639441,0.000645066551486,0.00067128952187,0.000672840769841,0.00153331011036,-0.000199652037012,-3.93592091189e-05,0.00137196076862,0.573807249456,0.818958303614,0.00576925594922,0.0,0.81896552382,-0.573743988936,-0.00969808514392,0.0,-0.00463234062319,0.0102898513935,-0.999936328162,0.0,0.265875399941,-0.259534208399,0.305839732207,1.0,0.0,0.0,3.421
-0.645432860246,-0.520603134026,-0.124368102897,-2.63966811879,-0.0669470717914,2.11098091777,-0.892637655848,0.000335913253101,-0.00139850012296,0.000189714501485,0.00301788406237,-0.000261301216657,0.000129012525364,-0.00622411643146,0.573803630726,0.818960848585,0.00576790707555,0.0,0.818968064223,-0.573740397722,-0.0096960149592,0.0,-0.00463146450937,0.0102875383464,-0.99993635602,0.0,0.265875003683,-0.25953445519,0.305841047657,1.0,0.0,0.0,3.442
-0.645432721934,-0.520597120237,-0.124368394139,-2.63968121238,-0.0669414909416,2.11097963495,-0.892632841054,0.000602491165261,-0.000730038801395,-0.000649876446663,-0.00124194217499,8.91616252624e-05,-0.000171123278741,0.00125314181979,0.573809461422,0.818956713777,0.00577493228049,0.0,0.818963910613,-0.573745992547,-0.00971576306986,0.0,-0.0046435345448,0.0103046562949,-0.999936123783,0.0,0.265872123784,-0.259530304,0.305832758431,1.0,0.0,0.0,3.455
-0.645441219284,-0.520596451182,-0.124367305373,-2.63968578432,-0.0669400364067,2.11097883714,-0.892633945601,-0.000580798394731,0.000370959163749,-0.000218918755397,-0.00102291658953,0.000364876641084,0.000145708630588,0.00157627723646,0.573815154216,0.818952714759,0.00577639012357,0.0,0.81895989983,-0.573751618198,-0.00972162471027,0.0,-0.00464742724498,0.0103092459443,-0.99993605839,0.0,0.26586909019,-0.259530889701,0.30583038905,1.0,0.0,0.0,3.476
-0.64543895209,-0.520602141111,-0.124365704657,-2.63968049461,-0.066940959126,2.11097998623,-0.892644731927,0.000554306233562,-0.000865556115817,0.000705232936729,0.00035976478618,-0.000152714271845,0.000113938688009,-0.00157037071717,0.573803155324,0.818961139794,0.00577385039913,0.0,0.818968353522,-0.573739754738,-0.00970961711134,0.0,-0.00463920090357,0.0103002080013,-0.999936189729,0.0,0.265871467874,-0.259531628741,0.305835029243,1.0,0.0,0.0,3.489
-0.645436653735,-0.520602486793,-0.124362407404,-2.63966994702,-0.0669396362106,2.11098046428,-0.892638999628,-0.000423660775521,0.00152034339737,0.000329159431261,0.000184414711277,-8.65471717606e-05,0.000263741224131,-0.00149700228983,0.573804679983,0.818960086553,0.00577172105677,0.0,0.818967330713,-0.573741405317,-0.00969834785279,0.0,-0.00463117361118,0.0102920065265,-0.999936311388,0.0,0.265875409758,-0.259532915617,0.305840077055,1.0,0.0,0.0,3.509
-0.645441901417,-0.520602415179,-0.124365700707,-2.63967283314,-0.0669358212259,2.11098469847,-0.892641434562,7.10662842021e-05,-0.00492916632058,0.000555727908418,-0.000771381664595,0.000190269588537,-0.000177277674433,-0.00186949948155,0.573810803987,0.818955761522,0.00577657327174,0.0,0.818963063953,-0.57374752437,-0.00969665205662,0.0,-0.00462692353785,0.0102950420698,-0.999936299815,0.0,0.265873678833,-0.259534500851,0.30583902526,1.0,0.0,0.0,3.522
-0.645441932323,-0.520597394823,-0.124370202747,-2.63968095596,-0.0669352336614,2.11098199813,-0.892647211197,0.000778532396851,0.00014036128697,-0.000999800700249,-0.000173177728024,-0.000130850888071,-0.000167840387968,0.00364673058294,0.573809187214,0.818956863262,0.00578097613818,0.0,0.818964138826,-0.573745726845,-0.00971221625965,0.0,-0.00463716508686,0.0103075695152,-0.999936123315,0.0,0.265870337925,-0.259532912717,0.30583314051,1.0,0.0,0.0,3.543
-0.645439148263,-0.520597734097,-0.124367418675,-2.63967559641,-0.0669342467719,2.11097822536,-0.892642865414,-0.00284018559122,-0.000556155469129,-0.000298357003045,-8.420226405e-05,9.83032558588e-05,-0.000496348045811,-0.00067182269861,0.573809161209,0.818956888232,0.00578002005403,0.0,0.818964162741,-0.573745724838,-0.00971031807457,0.0,-0.00463615933904,0.0103056971702,-0.999936147278,0.0,0.265872394808,-0.259532304176,0.305835447396,1.0,0.0,0.0,3.556
-0.645439148299,-0.52059716258,-0.124370489526,-2.63967589616,-0.0669355501142,2.11098080005,-0.892643784081,0.0017139838588,0.000904287208301,0.000408707972669,-0.000249877468609,-0.000370875518789,0.000189865398044,0.000297532133311,0.573810018672,0.81895628591,0.00578023715761,0.0,0.8189635703,-0.573746598146,-0.00970868368707,0.0,-0.00463468535983,0.0103049420296,-0.999936161893,0.0,0.265871939844,-0.259533385171,0.305835248134,1.0,0.0,0.0,3.573
-0.645439866935,-0.520591490679,-0.124364913884,-2.63966526599,-0.0669342276851,2.11098456165,-0.892643197486,0.000482803996904,0.00209886400778,0.000569607179039,0.00170488744117,-3.36436059e-05,-6.89380052309e-05,0.00072949417414,0.573808214911,0.818957573504,0.00577686785701,0.0,0.818964862849,-0.573744898494,-0.00970009133119,0.0,-0.00462960393135,0.0102972421373,-0.999936264755,0.0,0.265876003032,-0.25953535367,0.305838451512,1.0,0.0,0.0,3.59
