nelsonifechukwu/NELSON_IML_WORK/CNN-GradCAM/train2dof/data_sample_2022-02-21-09-13-19/robot_state.csv
position_joint1,position_joint2,position_joint3,position_joint4,position_joint5,position_joint6,position_joint7,velocity_joint1,velocity_joint2,velocity_joint3,velocity_joint4,velocity_joint5,velocity_joint6,velocity_joint7,ee_T_00,ee_T_10,ee_T_20,ee_T_30,ee_T_01,ee_T_11,ee_T_21,ee_T_31,ee_T_02,ee_T_12,ee_T_22,ee_T_32,ee_T_03,ee_T_13,ee_T_23,ee_T_33,v_x,v_y,time
0.465089225103,0.547598280405,-0.1239849517,-1.35574503273,0.0794471331063,1.89408522366,0.159183131295,-0.000487339352892,0.00113701491321,-0.000488313227914,-5.65523913966e-05,-0.000107094463817,4.94731765263e-05,-0.00155743935618,0.573790253298,0.818987740948,0.00213829311756,0.0,0.818947551213,-0.573731436706,-0.011742819038,0.0,-0.00839058039855,0.00848922846662,-0.999928763043,0.0,0.66169786221,0.260906870643,0.303382510082,1.0,0.0,0.0,0.0
0.465091485012,0.547591884523,-0.123984960469,-1.35574534701,0.0794494481969,1.89408684739,0.159188341488,0.000916477781211,-0.00357291764144,-0.000706570245399,0.000251627404143,-0.000267235596113,-3.90045884087e-05,0.000596240049209,0.573793937187,0.818985143684,0.00214452150649,0.0,0.818945045311,-0.573735106865,-0.0117382627327,0.0,-0.00838323691837,0.00849175274401,-0.999928803203,0.0,0.661696848802,0.260908129509,0.303388803595,1.0,-0.00036,-0.000473142857143,0.019
0.465088220615,0.547588351728,-0.123983118963,-1.35575740353,0.0794482843522,1.89408522415,0.159183176432,-0.000106958080298,-6.15705582205e-05,0.000252827820634,-0.00361579518408,0.000416987237779,-0.000168022863666,-0.0007146475674,0.573791427896,0.818986923311,0.00213626311043,0.0,0.818946704217,-0.573732615931,-0.0117442739504,0.0,-0.00839292455628,0.00848841278147,-0.999928750295,0.0,0.661694348032,0.260905349715,0.303385363119,1.0,-0.00066,-0.000867428571429,0.034
0.465090344114,0.547550181047,-0.123982147997,-1.35578702807,0.0794469614362,1.89409235599,0.159187787791,0.00138352971003,0.000338866375461,0.00522345524151,-0.00417600849681,0.000128578915787,-0.000318688223973,0.00133148108911,0.573794033123,0.818985060259,0.00215070364348,0.0,0.818945015597,-0.573735152187,-0.0117381206202,0.0,-0.00837957247401,0.00849673518929,-0.999928791593,0.0,0.661689285807,0.260904573578,0.303398887826,1.0,-0.00098,-0.001288,0.05
0.465091787838,0.547418475157,-0.12398036138,-1.35592522549,0.0794444796973,1.89411707231,0.159182136559,-0.000361583827386,-0.00633109243359,-0.000793695950922,-0.0113754571728,5.6724653325e-05,0.00370051611462,-0.00555221001603,0.573793795051,0.818985170821,0.00217201257548,0.0,0.818945308777,-0.57373473711,-0.0117379541371,0.0,-0.00836721240486,0.00851408868237,-0.999928747487,0.0,0.661665365213,0.260893165232,0.303428489959,1.0,-0.00132,-0.00173485714286,0.067
0.46508361174,0.547275189147,-0.123985363603,-1.35611515808,0.0794391953108,1.8941731887,0.159178714743,0.00111900913866,-0.00817359324146,-0.000569175653875,-0.0120318294841,-1.61109709076e-05,0.00595773069129,0.00132277111533,0.573810283732,0.818973588836,0.00218311120274,0.0,0.818933823768,-0.573751133423,-0.0117378058412,0.0,-0.00836055141435,0.00852326140427,-0.999928725057,0.0,0.661640374825,0.260867151299,0.303444612919,1.0,-0.00166,-0.00218171428571,0.084
0.465066729409,0.547111279345,-0.123977568464,-1.35631708103,0.0794352385859,1.89426396015,0.15917035265,0.00141538464039,-0.0143714296185,0.00177995970234,-0.0136980753021,-0.00039950861498,0.0050274663625,0.00120660110554,0.573824525289,0.818963469974,0.00223515688629,0.0,0.818924285531,-0.573765078662,-0.011721603007,0.0,-0.00831726983879,0.00855673228088,-0.999928800143,0.0,0.66161918148,0.260840384103,0.303468987605,1.0,-0.002,-0.00262857142857,0.101
0.4650388977,0.546924665915,-0.123977647637,-1.35653529103,0.0794363984676,1.89439410067,0.159157853581,-0.00268976962349,-0.00706093398019,0.000599767635319,-0.0141459287887,0.000123450646148,0.0157586026385,-0.000285316242981,0.573846955531,0.818947500775,0.00232583394659,0.0,0.818909478809,-0.573787154776,-0.0116753343465,0.0,-0.0082271106385,0.00860466820109,-0.999929134657,0.0,0.661606675899,0.260809866226,0.303511091852,1.0,-0.00234,-0.00307542857143,0.118
0.46501553039,0.5467098295,-0.123982858286,-1.35681499193,0.0794257038688,1.89452271578,0.159136968362,-0.00356384170587,-0.0172785538043,-0.000357139801068,-0.0178344826103,0.000153501391618,0.00511469092803,-0.00234530818808,0.57386607185,0.818933945695,0.00238140068497,0.0,0.818896612123,-0.573806033157,-0.0116499728161,0.0,-0.00817425350482,0.00863581135628,-0.999929299672,0.0,0.661582465822,0.260769488427,0.30354220007,1.0,-0.00266,-0.003496,0.134
0.46497503697,0.546458574029,-0.123983188172,-1.35719189592,0.0794124890177,1.89465782981,0.159044191745,-0.00221513461441,-0.0160252466353,-0.000248497270376,-0.0233491493531,-0.000182507783662,0.00354235330118,-0.00777976017656,0.573841025345,0.818951455507,0.00239542388404,0.0,0.818914211975,-0.57378084219,-0.0116535600756,0.0,-0.00816940893858,0.00864910404709,-0.999929224374,0.0,0.661540954251,0.26070810158,0.303552458432,1.0,-0.003,-0.00394285714286,0.151
0.464936047953,0.546183050622,-0.123983886119,-1.35761443057,0.0793901634194,1.89480919658,0.158961511109,-0.00263000740522,-0.0188586068611,-0.000107127120052,-0.029685092692,-0.000726858009313,0.00777391564078,-0.000231430404948,0.573823404966,0.818963785025,0.00240117311745,0.0,0.818926580682,-0.573763165846,-0.0116546931272,0.0,-0.00816722415153,0.00865428680663,-0.999929197378,0.0,0.661493029964,0.260642027745,0.30355957398,1.0,-0.00334,-0.00438971428571,0.168
0.464894412085,0.545896613055,-0.123983269143,-1.35810610428,0.0793499626607,1.89498140845,0.158942824307,-0.00166138638631,-0.0180951673113,0.000283035902243,-0.0276367959962,-0.00260951902113,0.0123598765551,0.000165137428903,0.573858586805,0.818939234794,0.00236621363667,0.0,0.818901651079,-0.573798547783,-0.0116644470169,0.0,-0.00819490114308,0.00863160552001,-0.999929166982,0.0,0.661435038009,0.260565419322,0.303543223716,1.0,-0.00368,-0.00483657142857,0.185
0.464841351033,0.545585930941,-0.123987844155,-1.35862572515,0.0792708949943,1.89515931487,0.158855665344,-0.00613979106886,-0.0223793875531,0.00398835803747,-0.0376102427849,-0.00369071184059,0.0123582907971,-0.00861173054279,0.573841858633,0.818951110628,0.00231226787656,0.0,0.818913239742,-0.573782449711,-0.0116427265046,0.0,-0.00820824310917,0.00857479568627,-0.99992954633,0.0,0.661378704209,0.260469343649,0.303531311889,1.0,-0.004,-0.00525714285714,0.201
0.464786523639,0.545222557938,-0.123986758437,-1.35925210286,0.0792625572588,1.89536185093,0.158771351019,-0.00374757406435,-0.0191435910245,0.000258912765482,-0.0394272308808,-0.000268627573862,0.0144156068026,-0.00306522397277,0.573849598782,0.818945785337,0.00227718190891,0.0,0.818907152416,-0.573789998191,-0.0116987434808,0.0,-0.00827417176739,0.00857828496384,-0.999928973032,0.0,0.66129929149,0.260376525369,0.303507946901,1.0,-0.00434,-0.005704,0.218
0.464716665446,0.544818048267,-0.123986711436,-1.35994452053,0.0792429221189,1.89558530931,0.158693762109,-0.00094774020114,-0.023301228969,0.000143815756383,-0.0418144257926,-0.000455421435593,0.0209052971568,-0.00594066133312,0.573876521451,0.818927037541,0.00223432624668,0.0,0.818887604098,-0.573816826625,-0.0117510951649,0.0,-0.00834135615167,0.00857350474991,-0.999928455838,0.0,0.661214669748,0.26026546173,0.303484067815,1.0,-0.00468,-0.00615085714286,0.235
0.464656605528,0.544391769358,-0.123991725071,-1.36066486086,0.0792009845577,1.8958349671,0.15862008037,-0.00276471195983,-0.0243780757831,0.000246513425714,-0.0415166717293,-0.0035096689634,0.015468964616,-0.00814884802404,0.573897854455,0.818912193299,0.00219527223725,0.0,0.818872234677,-0.573838288248,-0.011774086687,0.0,-0.00838237327677,0.00855493527951,-0.999928271878,0.0,0.661129200998,0.260153092126,0.3034646718,1.0,-0.00502,-0.00659771428571,0.252
0.464584910761,0.543914660673,-0.123998132469,-1.36143695284,0.0791683486372,1.89611192102,0.158497063764,-0.00548527944093,-0.0287073684571,-0.0017885039497,-0.0466377703683,-0.000553930342872,0.0239609135632,-0.00507760391034,0.573894638589,0.818914472198,0.0021858462697,0.0,0.818874277646,-0.573834993582,-0.0117925591963,0.0,-0.00840294409267,0.00855778454702,-0.99992807484,0.0,0.661041343696,0.260030113173,0.303459003769,1.0,-0.00536,-0.00704457142857,0.269
0.464510030947,0.543407746405,-0.123998791952,-1.36226119405,0.0791240142597,1.8963985677,0.158416870729,-0.00279622780469,-0.0325163850296,-0.0012688470882,-0.0486541115062,-0.00102941156825,0.0163807501299,-0.0150052627142,0.573924763609,0.818893422976,0.00216204161873,0.0,0.818852843332,-0.573865130906,-0.0118143725607,0.0,-0.00843415407355,0.00855111954151,-0.999927869098,0.0,0.660944254592,0.259901329224,0.303450181433,1.0,-0.0057,-0.00749142857143,0.286
0.46443404494,0.542901424838,-0.12399883875,-1.36307320395,0.0790725346588,1.89668512506,0.158302863679,-0.00456001460976,-0.0300951093853,0.000180622788314,-0.0588426511872,-0.00294583001656,0.0190617190012,-0.00992478348808,0.573925058645,0.818893262786,0.00214432367814,0.0,0.818852447429,-0.573865490194,-0.0118243564693,0.0,-0.00845249522751,0.00854234363859,-0.999927789238,0.0,0.660850376216,0.259772459835,0.303446663308,1.0,-0.00602,-0.007912,0.302
0.464361196426,0.542292652297,-0.123999522974,-1.36402041347,0.0790152538936,1.89702193487,0.158171939,-0.00419090227172,-0.034005756053,0.000666136627245,-0.0478965639807,-0.00433975052183,0.0170888430508,-0.00738906444581,0.573915266013,0.818900129259,0.0021430438551,0.0,0.818859273461,-0.573855679773,-0.0118277622503,0.0,-0.00845612095391,0.00854314913451,-0.999927751701,0.0,0.660737595208,0.25963307227,0.303455566502,1.0,-0.00638,-0.00838514285714,0.32
0.464285901787,0.54168058767,-0.12400454316,-1.36496367615,0.0789545491218,1.89737382748,0.158055845806,-0.00789601387134,-0.0382162726524,-0.000753081618809,-0.0536579052595,-0.000647698749537,0.0211351787066,-0.0141517416665,0.573921564575,0.818895678316,0.0021570008789,0.0,0.818855058603,-0.573861977854,-0.0118139863985,0.0,-0.00843676404863,0.00854673718994,-0.999927884548,0.0,0.660630486681,0.259490544603,0.303470039273,1.0,-0.00672,-0.008832,0.337
0.464201162877,0.541088626907,-0.124000049536,-1.36589818288,0.0789029098451,1.89772158697,0.157916369098,-0.00709997692808,-0.0407051278194,0.00440354604979,-0.0631423304199,-0.00127020525554,0.0144607086533,-0.0128567236846,0.573911674894,0.818902588946,0.00216474912854,0.0,0.818861996771,-0.57385198478,-0.0118184901415,0.0,-0.00843610901155,0.00855556498685,-0.999927814581,0.0,0.660523652917,0.259349260008,0.303473731299,1.0,-0.00704,-0.00925257142857,0.353
0.464122327138,0.540385770042,-0.124009944387,-1.36696658263,0.0788379244508,1.89811867475,0.157786926937,-0.000865140234105,-0.0403605278188,-0.000605607777238,-0.0631372607594,-0.00570869903643,0.0200553418827,-0.00444533941978,0.573918996289,0.81889739379,0.00218884524968,0.0,0.818857162001,-0.573859258987,-0.0118002549265,0.0,-0.00840727075836,0.00856490697357,-0.99992797749,0.0,0.660401010392,0.25919029386,0.303496725224,1.0,-0.00738,-0.00969942857143,0.37
0.464018960833,0.539665052685,-0.124008412458,-1.36808073184,0.078769488744,1.89853260452,0.157650983236,-0.00561256466452,-0.0450002298093,0.00122501276558,-0.0697547180269,-0.00617283938234,0.0242403277095,-0.0104327780568,0.573934611885,0.818886404436,0.00220563180888,0.0,0.818846386681,-0.573874803268,-0.0117920352357,0.0,-0.00839074236254,0.0085740958813,-0.999928037572,0.0,0.660275353457,0.259017151231,0.303511537385,1.0,-0.00772,-0.0101462857143,0.387
0.463928851804,0.538964827182,-0.124016341694,-1.36916544475,0.0787078560357,1.89893987141,0.157527147865,-0.00720777757573,-0.0434151984617,0.000607627989476,-0.0724675393415,-0.00138622238394,0.031209815437,-0.00796028554457,0.573956070144,0.81887131341,0.00222452704012,0.0,0.818831544797,-0.573896189609,-0.0117818376545,0.0,-0.0083713224564,0.00858393541931,-0.999928115923,0.0,0.66015277365,0.258851157907,0.303525512116,1.0,-0.00804,-0.0105668571429,0.403
0.463817632536,0.538198392201,-0.124012308136,-1.37036103316,0.0786469714157,1.89940271922,0.157370798548,-0.0093429647839,-0.0466533337174,0.000999248734837,-0.0706168787967,-0.00820400020306,0.0210078525199,-0.00688385727912,0.573966142318,0.818864158745,0.00225918048594,0.0,0.818824736624,-0.573906020834,-0.0117761133,0.0,-0.00834664052638,0.00860912894111,-0.999928105661,0.0,0.660019833034,0.258669776096,0.303537807126,1.0,-0.00838,-0.0110137142857,0.42
0.463716413458,0.537406612605,-0.12402370418,-1.37160285347,0.0785875179685,1.89987712008,0.15722236212,-0.00252585603325,-0.0450014572868,-0.000202208071534,-0.0700355228024,-0.00366686335961,0.0264643222379,-0.00720729667268,0.573988159248,0.818848655998,0.00228440689943,0.0,0.818809488215,-0.573927862874,-0.0117718786809,0.0,-0.00832846261542,0.00862757912678,-0.99992809821,0.0,0.659879764199,0.258481913038,0.303547375166,1.0,-0.00872,-0.0114605714286,0.437
0.463601373634,0.536583720565,-0.124024744701,-1.37290572567,0.0784878161251,1.90036255302,0.157058075687,-0.00735954621811,-0.0483695767281,0.000516039606185,-0.0781457638415,-0.00482422521836,0.0285798600009,-0.00694455982144,0.573993591043,0.818844871244,0.00227622051608,0.0,0.818805776143,-0.573933510469,-0.0117547189227,0.0,-0.00831905223892,0.0086110816225,-0.999928318752,0.0,0.659731717918,0.258278368706,0.303550254396,1.0,-0.00906,-0.0119074285714,0.454
0.463486361153,0.535725191798,-0.12403607188,-1.37425265594,0.0784099275158,1.90085893666,0.156886154571,-0.00192736233487,-0.0487883977802,-0.000403735679504,-0.0816050741938,-0.00459624793518,0.0336926726774,-0.0140982704256,0.574008112005,0.818834676987,0.00228166996199,0.0,0.818795658995,-0.573948015568,-0.0117512185813,0.0,-0.00831290537351,0.00861368209181,-0.999928347475,0.0,0.659577400799,0.258068389237,0.303558487908,1.0,-0.0094,-0.0123542857143,0.471
0.463359270546,0.534829002347,-0.124031482521,-1.37565638855,0.0783416745889,1.90136621199,0.156707380975,-0.00605394652803,-0.0551158764034,0.00059396768758,-0.0820785998467,-0.00812868609737,0.0328364384848,-0.0136073637665,0.574021243543,0.818825443682,0.00229164597279,0.0,0.818786355675,-0.573960900725,-0.0117700934712,0.0,-0.00832249705592,0.00863281835401,-0.99992810266,0.0,0.659411670837,0.257855749119,0.303566534356,1.0,-0.00974,-0.0128011428571,0.488
0.463246456768,0.533987873505,-0.124045406481,-1.37703705156,0.0782566927685,1.90187658302,0.156545647888,-0.00633648242047,-0.0479932519852,-0.00394250954745,-0.0833810775422,-0.00375449072819,0.0269514988508,-0.00290384337074,0.574043908491,0.818809640261,0.00226076108787,0.0,0.81877021094,-0.573983742708,-0.0117792905419,0.0,-0.00834751725614,0.00861303964243,-0.999928064665,0.0,0.659251607814,0.257641315728,0.303547405699,1.0,-0.01006,-0.0132217142857,0.504
0.463116111298,0.533067973774,-0.124046078562,-1.37852621707,0.0781681152565,1.90243524836,0.156353060466,-0.0113332205005,-0.0524191112595,-0.000665073798523,-0.0910316608174,-0.00530997287014,0.0353333476252,-0.00901261490164,0.574051205586,0.818804552331,0.0022506329023,0.0,0.818764970421,-0.573991056118,-0.0117871798964,0.0,-0.0083597143522,0.00860934996833,-0.999927994542,0.0,0.659079344362,0.257413887052,0.303535775547,1.0,-0.0104,-0.0136685714286,0.521
0.46298990578,0.532118479135,-0.124051978697,-1.38006412527,0.0780886730352,1.90301522514,0.156162540508,-0.00753114795109,-0.0567981683992,-0.00100725571231,-0.0922602976084,-0.00828669299283,0.033532811682,-0.00878987124096,0.574065507886,0.818794533667,0.00224748600195,0.0,0.818754812065,-0.574005267071,-0.0118007624941,0.0,-0.00837249221693,0.00861471655377,-0.999927841413,0.0,0.658899987542,0.257183687447,0.303523660349,1.0,-0.01074,-0.0141154285714,0.538
0.46286426386,0.531180872675,-0.124041465462,-1.38155294934,0.0779934046161,1.90355421936,0.155962614325,-0.0100573797428,-0.0595039304752,0.00235875595052,-0.0957121873593,-0.00861430834335,0.0348002591252,-0.0107891752847,0.57405273165,0.818803521287,0.00223645132929,0.0,0.818763613003,-0.57399249071,-0.0118115846304,0.0,-0.00838782231005,0.00861176319598,-0.999927738375,0.0,0.658720159477,0.256963775805,0.303522194364,1.0,-0.01106,-0.014536,0.554
0.462720741479,0.530084354925,-0.124049735785,-1.38328792631,0.0778837352919,1.90415895719,0.155738921902,-0.0126992577644,-0.0672726916664,-0.000605715285148,-0.0940548019335,-0.0107917415876,0.0358649604468,-0.0117674642544,0.574057549874,0.818800231675,0.00220384745118,0.0,0.818759904433,-0.573997440598,-0.0118281013276,0.0,-0.00842001142215,0.00859459826893,-0.999927615524,0.0,0.658509411002,0.256696206893,0.303521617986,1.0,-0.01142,-0.0150091428571,0.572
0.462580295056,0.529044800979,-0.124050008108,-1.38493882153,0.0777917902817,1.90476897958,0.155520753801,-0.00803049250116,-0.0584219628363,0.000121126552628,-0.101297598919,-0.00650149945357,0.0296334949999,-0.0137870956677,0.57405902385,0.818799191918,0.00220620766266,0.0,0.818758799893,-0.573998807665,-0.0118382135081,0.0,-0.00842692133067,0.00860235085067,-0.99992749065,0.0,0.658313778582,0.256447774189,0.303520912018,1.0,-0.01176,-0.015456,0.589
0.4624446445,0.528018845827,-0.124053160626,-1.38653183167,0.0776849639104,1.905395126,0.155303003182,-0.00965036574809,-0.0656453835903,0.000301626189412,-0.101149559327,-0.00640578326769,0.04066934044,-0.0140593307657,0.574051749799,0.81880417721,0.00224829679698,0.0,0.818764468621,-0.573991510107,-0.0117999215975,0.0,-0.00837148299808,0.00861475703357,-0.999927849514,0.0,0.658134340569,0.256206228827,0.303539393563,1.0,-0.01208,-0.0158765714286,0.605
0.462307058732,0.526854751485,-0.124052822265,-1.38829720069,0.077568797076,1.90606557423,0.155060312562,-0.0100756056028,-0.0759044647798,0.00139150849467,-0.105252276785,-0.0123944477412,0.0383132869547,-0.0139670871018,0.574029584684,0.818819567089,0.00230203383468,0.0,0.818780638158,-0.573969226481,-0.0117618251977,0.0,-0.00830967602414,0.0086366626481,-0.999928176092,0.0,0.657926743098,0.255948328755,0.303576515971,1.0,-0.01242,-0.0163234285714,0.622
0.462144995471,0.525645121949,-0.12406698346,-1.39021876934,0.0774638095466,1.90677374996,0.154796824381,-0.00777584428405,-0.0711981516828,-0.00037745970271,-0.104959565673,-0.00189511321626,0.0372193943688,-0.019636616167,0.574031965775,0.818817900788,0.00230098221463,0.0,0.818778890393,-0.573971540809,-0.0117705518227,0.0,-0.00831740036322,0.00864083502842,-0.999928075824,0.0,0.657699616438,0.255652333372,0.303574826361,1.0,-0.01278,-0.0167965714286,0.64
0.462003048556,0.524541956518,-0.12407373332,-1.39195826963,0.0773375285769,1.90739807246,0.154558766609,-0.007847399292,-0.0709332729513,-0.00234838825151,-0.1119089347,-0.0119406411721,0.0397424420061,-0.0145896944567,0.574017374844,0.818828194132,0.00227788776209,0.0,0.818789042958,-0.573957204541,-0.0117633918914,0.0,-0.00832494712814,0.00861766679023,-0.999928212961,0.0,0.65748943207,0.255385048258,0.303577026941,1.0,-0.0131,-0.0172171428571,0.656
0.4618487765,0.523339998471,-0.124072407807,-1.39386306115,0.07721841909,1.90808773922,0.15429746088,-0.00498483362294,-0.0749619675331,-0.0010961115969,-0.11189448955,-0.00740281210192,0.0402791338952,-0.0152637942277,0.573998822019,0.818841235825,0.00226489196234,0.0,0.818801887443,-0.573938674175,-0.0117734577657,0.0,-0.00834084420389,0.00861261452174,-0.999928124011,0.0,0.657256387009,0.255101647182,0.303575164801,1.0,-0.01344,-0.017664,0.673
0.461692963058,0.522206451555,-0.124078032944,-1.39569762971,0.0771156826492,1.9087983814,0.15404613327,-0.014383189895,-0.0652918362795,-0.00024275776111,-0.117853643793,-0.00782107683499,0.0503827117383,-0.0207778647224,0.573995465931,0.818843564058,0.00227367372305,0.0,0.818804290871,-0.57393524479,-0.0117734846213,0.0,-0.00833586111506,0.00861978654892,-0.999928103765,0.0,0.65704273914,0.254824678933,0.303560430479,1.0,-0.01376,-0.0180845714286,0.689
0.461536678975,0.521019778785,-0.124081233942,-1.39756889039,0.0769970889035,1.90952973044,0.153792403184,-0.00945038437537,-0.0756794883652,-0.000764397463459,-0.117859743792,-0.00505422749757,0.0497966889376,-0.017261374486,0.573986150097,0.818849999291,0.0023076089236,0.0,0.818811248094,-0.573925885785,-0.0117458299989,0.0,-0.0082938360728,0.00863160606878,-0.999928351263,0.0,0.656825819195,0.254544046164,0.303566926395,1.0,-0.01408,-0.0185051428571,0.705
0.461354759921,0.519660390642,-0.124092537921,-1.39973965529,0.07686729941,1.91031685517,0.153503257438,-0.0143157961485,-0.0707181434049,-0.00104213400231,-0.125636016956,-0.00215149956897,0.0431304367894,-0.0201166675107,0.573986959032,0.818849495966,0.00228488908748,0.0,0.81881042355,-0.573926753297,-0.011760911427,0.0,-0.00831921758916,0.00862166678069,-0.999928226165,0.0,0.656562172209,0.254210630355,0.30355692519,1.0,-0.01444,-0.0189782857143,0.723
0.461197902308,0.518399879488,-0.124102126492,-1.40168559809,0.0767362950442,1.91100879498,0.15323666843,-0.0132814167352,-0.0741707884753,-0.000565946423138,-0.125144027822,-0.00880398714117,0.0424425397025,-0.0193096554179,0.5739716247,0.818860251315,0.00228248908379,0.0,0.818821233858,-0.573911519211,-0.011751680775,0.0,-0.00831319754994,0.0086142476862,-0.999928340174,0.0,0.656322599387,0.253913482749,0.303575745062,1.0,-0.01476,-0.0193988571429,0.739
0.461016181598,0.517043330396,-0.124103588112,-1.40383276372,0.0765886783173,1.91177749689,0.152941685063,-0.0113161755152,-0.0804414277388,-0.000324143110221,-0.13194946804,-0.00662255315091,0.0504606114062,-0.0183794922968,0.573956851942,0.818870691928,0.00225142430105,0.0,0.818831371302,-0.573896969731,-0.0117558669018,0.0,-0.00833460974722,0.0085910626112,-0.999928361396,0.0,0.656075342404,0.253604302306,0.303567380654,1.0,-0.01508,-0.0198194285714,0.755
0.460836785228,0.515707400691,-0.124115168582,-1.40597066028,0.0764586707091,1.91259061419,0.152651791497,-0.0110775690682,-0.0795479725415,-0.000865993512721,-0.126403281618,-0.00521710954601,0.0500000346443,-0.0177640682356,0.573949351151,0.818875928241,0.0022590620814,0.0,0.818836729771,-0.573889464557,-0.0117490148165,0.0,-0.00832469376167,0.0085933078855,-0.999928424705,0.0,0.655803724889,0.253258246528,0.303562465148,1.0,-0.01544,-0.0202925714286,0.773
0.460645571177,0.514315146131,-0.124113883707,-1.40819428533,0.0763276110496,1.9134015585,0.152358685035,-0.00863337543847,-0.0830430245989,0.000883026498513,-0.125902478431,-0.0139056639424,0.0393715142745,-0.0168054260824,0.573946751894,0.818877792422,0.00224365123246,0.0,0.818838290702,-0.573886818054,-0.0117694793862,0.0,-0.00835032420073,0.00859240743578,-0.999928218734,0.0,0.655529537872,0.252921867759,0.30355038103,1.0,-0.01578,-0.0207394285714,0.79
0.460464464144,0.512997457353,-0.124125806711,-1.41033958793,0.0762007554317,1.91414456657,0.152054252419,-0.0148853565053,-0.0837560374715,-0.00271079669415,-0.139201623676,-0.0121836396076,0.0472884588123,-0.0151693898358,0.573932470492,0.818887996143,0.00217163263722,0.0,0.818847461435,-0.573872718283,-0.011818841415,0.0,-0.00843222898498,0.0085616175615,-0.999927795503,0.0,0.655257797777,0.252588900947,0.303517457378,1.0,-0.0161,-0.02116,0.806
0.460266594833,0.511589530961,-0.124127768832,-1.41260584246,0.0760606638404,1.91497710482,0.151733550212,-0.0119904517864,-0.0874539375306,-0.000516661390437,-0.137384351881,-0.00368130434596,0.0524535503931,-0.0268796096431,0.573909936172,0.818903882142,0.00213632324983,0.0,0.81886289753,-0.573850335372,-0.0118361540571,0.0,-0.00846690570777,0.00854240673364,-0.999927666781,0.0,0.654961014506,0.252217906935,0.303492512783,1.0,-0.01646,-0.0216331428571,0.824
0.460065319646,0.510112264292,-0.124123781322,-1.41493409149,0.0759197386207,1.91586187456,0.15140033279,-0.00869494658184,-0.0853596170539,0.00056181015884,-0.135334354143,-0.0172979376302,0.0580990619844,-0.0184603496675,0.573886885187,0.818919931991,0.00217598248704,0.0,0.818879379113,-0.573827045641,-0.0118250182197,0.0,-0.0084352679194,0.00856825502679,-0.999927713018,0.0,0.654697124831,0.251892457133,0.303499812605,1.0,-0.01678,-0.0220537142857,0.84
0.459875651457,0.508678622863,-0.12413444448,-1.4171797371,0.0757671026473,1.91667111024,0.151093537529,-0.0124889206041,-0.0922643788431,-0.00154675754105,-0.145725948474,-0.0180543149001,0.0494216040259,-0.0256622350299,0.573873864295,0.818929090589,0.00216318433758,0.0,0.818888483712,-0.573814190717,-0.0118183195291,0.0,-0.00843726223763,0.0085537961269,-0.999927819984,0.0,0.654418437483,0.251544773306,0.303504600369,1.0,-0.0171,-0.0224742857143,0.856
0.459652347143,0.507065226963,-0.124126661906,-1.41969740936,0.0756096119096,1.91757947381,0.150734676478,-0.017398708592,-0.0944375111309,0.00162369250029,-0.139324415645,-0.00797669346961,0.0521365589933,-0.0215847674997,0.573845080995,0.818949248718,0.00216747388108,0.0,0.818908610199,-0.573785305462,-0.0118261692779,0.0,-0.00844153030802,0.00856151692645,-0.999927717885,0.0,0.654102818027,0.251161947768,0.303513156502,1.0,-0.01746,-0.0229474285714,0.874
0.459426975905,0.505480477279,-0.124134906358,-1.42215050994,0.0754560708653,1.91850355552,0.15041239675,-0.0112319096359,-0.0986151587995,-7.22187521341e-05,-0.146374678483,-0.0130705844472,0.0521617514349,-0.0145277823886,0.573856925963,0.818940834372,0.00221025440814,0.0,0.818900800566,-0.573797031224,-0.0117979952662,0.0,-0.00839378427592,0.00858050560158,-0.999927957059,0.0,0.653807913027,0.25077742919,0.303533690736,1.0,-0.0178,-0.0233942857143,0.891
0.459217837767,0.50393826327,-0.124140751967,-1.42448213985,0.0753150029827,1.91939357544,0.150081909693,-0.020604308198,-0.0974671591279,-0.00205565291491,-0.143483035354,-0.0141079132488,0.0552149048428,-0.0180796159982,0.573843799342,0.818949798311,0.00229536575523,0.0,0.818910882535,-0.573783593017,-0.0117516701911,0.0,-0.00830714466075,0.0086234890963,-0.999928310822,0.0,0.653527944342,0.250418535138,0.303578679207,1.0,-0.01812,-0.0238148571429,0.907
0.458984825422,0.502263241656,-0.124144307964,-1.42696424621,0.0751556218942,1.92032756478,0.149734722027,-0.0167747806444,-0.098026506968,-0.00084497871601,-0.146625289911,-0.00714332379704,0.0570414072389,-0.0227644071398,0.573836980841,0.818954276557,0.00239983944462,0.0,0.818916783557,-0.57377645752,-0.0116886828228,0.0,-0.00819568320223,0.00867283423903,-0.999928803827,0.0,0.653229531034,0.25002942631,0.303647871775,1.0,-0.01846,-0.0242617142857,0.924
0.458752283375,0.500541137679,-0.124139458708,-1.42954257382,0.0749870913983,1.92122910461,0.14936640401,-0.00690442085713,-0.102530997137,0.00108391827875,-0.151167177697,-0.00753953907479,0.0532270942049,-0.0312239849617,0.573807946014,0.818974507809,0.00243793992343,0.0,0.818937463006,-0.573747239243,-0.0116740758542,0.0,-0.00816216637327,0.00869536523607,-0.999928882303,0.0,0.65290004956,0.249631301157,0.30370039119,1.0,-0.0188,-0.0247085714286,0.941
0.458503107293,0.498855569175,-0.12414203205,-1.43215233863,0.0748187246131,1.92218820046,0.14899959508,-0.0163112761873,-0.0940788897394,3.46615572007e-05,-0.156132005985,-0.00837170609572,0.0628372787504,-0.0233278813803,0.573800696296,0.818979512215,0.00246300690153,0.0,0.818942816098,-0.573739925597,-0.011657986077,0.0,-0.00813468297215,0.00870658996522,-0.999929008592,0.0,0.652578187746,0.249217739971,0.303717124851,1.0,-0.01914,-0.0251554285714,0.958
0.458268638679,0.497283967221,-0.124146907177,-1.43464808889,0.0746657090866,1.92311086821,0.148633545224,-0.0136978190853,-0.0958187394409,-0.000817038629249,-0.161062335751,-0.0136234811273,0.0566293450691,-0.0186634371734,0.573781813412,0.818992750393,0.00246014297322,0.0,0.8189559798,-0.573721015363,-0.011663900839,0.0,-0.00814137125056,0.00870745061936,-0.999928946665,0.0,0.65226847414,0.248824547315,0.303705052788,1.0,-0.01946,-0.025576,0.974
0.457979716429,0.495516124709,-0.124145565504,-1.43751137805,0.0744877053305,1.92409634665,0.14821964526,-0.0180806156433,-0.101673384183,-0.00130654013361,-0.163824932591,-0.0124134910826,0.0519258823104,-0.0154558992048,0.573774768062,0.818997959248,0.00236752683307,0.0,0.818959822189,-0.573714134485,-0.0117323669078,0.0,-0.00825065979752,0.0086708123956,-0.999928369247,0.0,0.65189977139,0.248358999487,0.303659487829,1.0,-0.01982,-0.0260491428571,0.992
0.457717011317,0.493944352299,-0.124147933149,-1.44009969895,0.074325317924,1.92501505022,0.147846999476,-0.0171975735259,-0.101208571791,-0.00137994449209,-0.163129620908,-0.00819696055181,0.0667604467558,-0.0299161376481,0.573772749152,0.818999617512,0.00228161071605,0.0,0.818960275436,-0.57371234741,-0.0117879849309,0.0,-0.00834552758709,0.00863233926047,-0.999927914846,0.0,0.651571373395,0.247936475637,0.303601970372,1.0,-0.020556,-0.0270164571429,1.008
0.457430466369,0.492144169896,-0.124149308226,-1.44298200198,0.0741442774799,1.92608245589,0.147444482461,-0.018665495154,-0.107450658713,-0.000708079761551,-0.172011745181,-0.00432450896784,0.0629401632568,-0.027765475249,0.573774427583,0.818998486487,0.00226545463069,0.0,0.818958903257,-0.573714055545,-0.0118001757336,0.0,-0.00836476394992,0.00862611939619,-0.999927807788,0.0,0.651212722445,0.24747430661,0.303575685435,1.0,-0.0219548571429,-0.028854955102,1.025
0.457124108041,0.49025264345,-0.124153298802,-1.44606128974,0.0739455867537,1.92715947904,0.147005218618,-0.0219624796413,-0.11324222728,-0.000374897004814,-0.178528177391,-0.00786209725916,0.0655202080081,-0.0257770684435,0.573768087182,0.819003196667,0.00216630596612,0.0,0.818962244238,-0.573708023073,-0.0118614364943,0.0,-0.00847189040282,0.0085800017159,-0.999927302679,0.0,0.650815316797,0.24697370169,0.303519397965,1.0,-0.0233537142857,-0.0306934530612,1.042
0.456813752195,0.48831725496,-0.124156838982,-1.44912334839,0.0737581266647,1.92827101965,0.146580523245,-0.0174018256858,-0.123787897361,0.00139830527489,-0.188894930744,-0.0125120478854,0.0736566141186,-0.0267812384818,0.573778480859,0.818995948343,0.00215369496471,0.0,0.818954729974,-0.573718362898,-0.011880119032,0.0,-0.00849431854564,0.00858050053009,-0.999927108125,0.0,0.650428821105,0.246477602607,0.303503854378,1.0,-0.0246702857143,-0.0324238040816,1.058
0.456454070063,0.486117488009,-0.12417813296,-1.45248103822,0.0735507652704,1.92958275673,0.146088513126,-0.0178022393123,-0.132781585142,-0.00120188026922,-0.200437821385,-0.00560770884649,0.073901464356,-0.0219768330524,0.573795951684,0.818983372303,0.00227785492796,0.0,0.818943902519,-0.573735479913,-0.0117995981814,0.0,-0.00835694941729,0.00863616334494,-0.999927786432,0.0,0.650032527005,0.245917837391,0.303548060743,1.0,-0.0260691428571,-0.0342623020408,1.075
0.456054741803,0.483668398518,-0.124194793928,-1.45623731484,0.0733149012501,1.93089688583,0.145500529859,-0.019344045294,-0.138198393791,0.00199798727088,-0.214745526385,-0.0133986142096,0.0638059970224,-0.0293819628102,0.57377394696,0.818998773219,0.00228345274513,0.0,0.818959288277,-0.573713365472,-0.0118070032493,0.0,-0.0083600347738,0.00864477212972,-0.999927686252,0.0,0.649553615165,0.245287296624,0.303574466533,1.0,-0.0275502857143,-0.0362089469388,1.093
0.455700202069,0.481513648169,-0.124237729909,-1.45958074658,0.0731120235011,1.9320562142,0.145010955804,-0.0243907018205,-0.147402032104,-0.00192276299103,-0.225354072642,-0.00972625295471,0.0827662464873,-0.0357005315643,0.573793769393,0.818984977856,0.00225014521477,0.0,0.81894501955,-0.573733273107,-0.0118293357721,0.0,-0.00839722678897,0.00863051054308,-0.999927497807,0.0,0.649098943515,0.244673815832,0.303575081227,1.0,-0.0288668571429,-0.0379392979592,1.109
0.455255011002,0.478839935785,-0.124260485732,-1.46370942196,0.0728582387726,1.93359401454,0.1443897023,-0.0286248087484,-0.147663621816,-0.000835340928406,-0.228521391532,-0.0164033471169,0.0794272149054,-0.0374373257099,0.573807698159,0.818975015938,0.00232286567884,0.0,0.818936009392,-0.573746926063,-0.0117908547013,0.0,-0.00832383863367,0.00866812843317,-0.999927786023,0.0,0.648616881739,0.244018205356,0.303601159454,1.0,-0.0302657142857,-0.0397777959184,1.126
0.45480322271,0.476174302894,-0.124278896739,-1.46775282862,0.0726034631227,1.93508492794,0.143815729514,-0.0262154440019,-0.160515796117,-0.000956473833868,-0.239692483427,-0.0106419266043,0.0885777144246,-0.0362133636639,0.573847513263,0.81894685133,0.00241518538836,0.0,0.818909072471,-0.573786418738,-0.0117398295049,0.0,-0.00822865426069,0.00871485698173,-0.999928167678,0.0,0.64811473857,0.243331267207,0.303651909792,1.0,-0.0316645714286,-0.0416162938775,1.143
0.454367287157,0.473586056614,-0.12428668983,-1.47175145045,0.0723539793078,1.93651741249,0.143240956557,-0.0280892446149,-0.161973007392,-0.00145030195103,-0.257623875622,-0.0134855564731,0.0913396231365,-0.0417388015696,0.573863950807,0.818935274415,0.00243499146772,0.0,0.818897634652,-0.573802655575,-0.0117440758149,0.0,-0.00822059165161,0.00873367864941,-0.999928069778,0.0,0.647600536969,0.242662544864,0.303663554146,1.0,-0.0329811428571,-0.043346644898,1.159
0.453883304258,0.470729174435,-0.124284224187,-1.47615371917,0.0720763608837,1.93805070554,0.142569814822,-0.0333846467419,-0.162642481912,0.000784196717617,-0.261262719398,-0.0132121338608,0.0974555598297,-0.0443020658939,0.573843356615,0.818949721031,0.00242968998073,0.0,0.818911786414,-0.573781843853,-0.011774066335,0.0,-0.00824841515086,0.00874633990338,-0.999927729981,0.0,0.647021234776,0.241927479085,0.303675482211,1.0,-0.03438,-0.0451851428571,1.176
0.453358930388,0.467558019726,-0.124285051774,-1.48091339787,0.0717651696916,1.93989189767,0.141802189272,-0.0268453856668,-0.173719749487,-0.000317902029108,-0.264719000206,-0.0219900520378,0.0969224372473,-0.0402848855276,0.57378621452,0.818989117936,0.00263659439841,0.0,0.818954029206,-0.573724134359,-0.011647429034,0.0,-0.00802659432874,0.00884255406685,-0.999928688968,0.0,0.64643161001,0.241141753913,0.303758799855,1.0,-0.0358611428571,-0.0471317877551,1.194
0.452863628724,0.464667053955,-0.124288586468,-1.48539427834,0.0714596177644,1.94141724973,0.141124948451,-0.032785785706,-0.185727627593,-0.0013034269268,-0.283836479221,-0.0167795992273,0.0932831643583,-0.0482998314265,0.573766480901,0.819003140464,0.00257453015247,0.0,0.818967167355,-0.573704535139,-0.011688971586,0.0,-0.00809644069496,0.00881536548158,-0.999928365924,0.0,0.64583027264,0.240383311446,0.303752261423,1.0,-0.0371777142857,-0.0488621387755,1.21
0.452298952433,0.461532444541,-0.124289591185,-1.49035069173,0.0711245647359,1.94314634595,0.140393353098,-0.0294406574519,-0.189680195794,0.000104123012433,-0.296489174856,-0.0149472591981,0.100215340071,-0.0481715368946,0.573775540742,0.8189970717,0.00248441013311,0.0,0.818959809502,-0.573713792164,-0.0117499788735,0.0,-0.00819801576839,0.00877665150893,-0.999927878862,0.0,0.64512938383,0.239484128177,0.303704709937,1.0,-0.0386588571429,-0.0508087836735,1.228
0.451715872152,0.458298260399,-0.124295033151,-1.4953886817,0.0707849268947,1.9449244236,0.13963412827,-0.0352896841969,-0.188693420335,0.000631299413114,-0.302468071854,-0.0179017228652,0.105832324311,-0.0442945555592,0.573770143454,0.819000939603,0.00245566934658,0.0,0.818963299105,-0.573708496776,-0.0117653026739,0.0,-0.00822711397264,0.00876185116533,-0.999927769671,0.0,0.644504755281,0.238673694651,0.303685420513,1.0,-0.0399754285714,-0.0525391346939,1.244
0.451122973195,0.455197293933,-0.124323002519,-1.5003429227,0.0704560717611,1.94664935526,0.138867515219,-0.0320301953264,-0.192822268021,-0.0019014114718,-0.308974453828,-0.0201263673236,0.101560213731,-0.050647957219,0.573786060721,0.818990139132,0.00233568582443,0.0,0.818950878961,-0.573724804245,-0.011834430508,0.0,-0.00835240180554,0.00870341078862,-0.999927241365,0.0,0.643847722726,0.237796617648,0.303610042235,1.0,-0.041292,-0.0542694857143,1.26
0.450483254976,0.451677147632,-0.124371494659,-1.50566467241,0.0700931894199,1.94857450888,0.138013120127,-0.0427958531589,-0.216117154499,-0.00634897641811,-0.315578908901,-0.0202894864807,0.122862993815,-0.0431176833677,0.573788844075,0.81898794063,0.00242124314438,0.0,0.818950045863,-0.57372752828,-0.0117597864336,0.0,-0.0082421481158,0.00873067954107,-0.999927918517,0.0,0.643161722864,0.236848191336,0.303662403678,1.0,-0.0426908571429,-0.0561079836735,1.277
0.44982491745,0.448025935443,-0.124399005094,-1.5111293941,0.0697195293377,1.95051233487,0.137203501997,-0.0372999226001,-0.219974714218,-0.00103142253085,-0.329646154533,-0.0212806819654,0.102138748624,-0.055881926811,0.573829077776,0.818959472762,0.00251363754362,0.0,0.81892289755,-0.57376754621,-0.0116977641326,0.0,-0.00813790778103,0.00877116141692,-0.99992841803,0.0,0.642440601332,0.235885278271,0.303733898879,1.0,-0.0440897142857,-0.0579464816326,1.294
0.449183373165,0.444543855784,-0.124405384319,-1.51648326816,0.0693495496073,1.95231117803,0.136394515831,-0.0356615331476,-0.21944758008,0.000664190414577,-0.340081788071,-0.0321843212643,0.111284206405,-0.0571719499145,0.573833713733,0.818956433518,0.00244456219291,0.0,0.818918831535,-0.57377229487,-0.0117493786146,0.0,-0.00821976540286,0.00874425593314,-0.999927984129,0.0,0.641701257515,0.234949077092,0.303726916813,1.0,-0.0454062857143,-0.0596768326531,1.31
0.448479965544,0.440813151343,-0.124408290479,-1.52224012875,0.0689460575741,1.95436148693,0.135452705037,-0.0476667002004,-0.223936750868,0.000827850581592,-0.342243287925,-0.0200228340843,0.11750621383,-0.0541222823019,0.573784521308,0.818990883546,0.00245003603956,0.0,0.818953407064,-0.573723146301,-0.0117394786308,0.0,-0.00820904164056,0.00874256481009,-0.999928087012,0.0,0.64092612293,0.233943487156,0.303717011333,1.0,-0.0468051428571,-0.0615153306122,1.327
0.447743753487,0.437014928429,-0.124417426967,-1.52815084422,0.0685638565266,1.95645631102,0.13449804797,-0.0439629412296,-0.226364653237,-0.00215172395057,-0.349881091523,-0.0216484880972,0.119933234737,-0.056533347178,0.573767461476,0.819002876184,0.00243636104925,0.0,0.818964996522,-0.573705899645,-0.0117737880664,0.0,-0.00824517032741,0.00875087939058,-0.999927717026,0.0,0.640124199545,0.232903535801,0.303680918922,1.0,-0.048204,-0.0633538285714,1.344
0.44700022381,0.433214231439,-0.124435422908,-1.53377587256,0.0681619140633,1.95849428105,0.133599037983,-0.0506445397294,-0.241817123413,0.001165689812,-0.361078178127,-0.0171826343125,0.132162860388,-0.0568949837745,0.57378647516,0.818989058696,0.00259799163609,0.0,0.818953546397,-0.573724614593,-0.0116577165484,0.0,-0.00805716567779,0.00881684430218,-0.999928670125,0.0,0.639382895334,0.231881371308,0.303773366495,1.0,-0.0495205714286,-0.0650841795918,1.36
0.446145704616,0.428963038232,-0.124471045529,-1.5404237836,0.0676756658366,1.96068480063,0.132550392704,-0.0479127201734,-0.239145141975,-0.00165261401752,-0.381448578664,-0.02606049272,0.114765628683,-0.0598963165871,0.573803534454,0.818977718577,0.00239733688879,0.0,0.818939624295,-0.573742423492,-0.0117588326893,0.0,-0.00825492702543,0.00871070163719,-0.999927987335,0.0,0.638447162452,0.230663440279,0.303696972643,1.0,-0.0510017142857,-0.0670308244898,1.378
0.445318065143,0.424769307518,-0.124509746962,-1.54679234271,0.067212422955,1.96283327182,0.131486455982,-0.054247400365,-0.25188161152,0.000823242553936,-0.373432254703,-0.0277270140889,0.138875138821,-0.0613061750599,0.573779699087,0.818994548044,0.00235246462515,0.0,0.818955988831,-0.573718883672,-0.0117676581198,0.0,-0.00828815403742,0.00867877542155,-0.999927990087,0.0,0.637559414503,0.229494975536,0.303705935082,1.0,-0.0524005714286,-0.068869322449,1.395
0.444498642552,0.420775597745,-0.12452359186,-1.55286588548,0.0668068210809,1.96492431598,0.13050251986,-0.0533360534016,-0.250797993079,-0.00341862629513,-0.381222469365,-0.0255393952203,0.133241695371,-0.0601191338676,0.573798460879,0.818981372291,0.00236326759116,0.0,0.818942726684,-0.57373736465,-0.0117895596599,0.0,-0.00829969462413,0.00870037950157,-0.99992770662,0.0,0.636714465358,0.228384770311,0.303709724671,1.0,-0.0537171428571,-0.0705996734694,1.411
0.443597092813,0.41640315768,-0.124553070895,-1.5593213933,0.0663553162085,1.96730214108,0.129454125721,-0.0538610741302,-0.264773327579,-0.00482876992635,-0.384936522985,-0.029074529339,0.141630450072,-0.0671966325415,0.573843487175,0.818949121939,0.00259514997547,0.0,0.818913760956,-0.573781835331,-0.0116363423142,0.0,-0.00804067721286,0.00880281275962,-0.999928926473,0.0,0.635854763268,0.227186415399,0.30380908075,1.0,-0.055116,-0.0724381714286,1.428
0.442677259735,0.411971479185,-0.124550540988,-1.56604899149,0.0658821973701,1.96961858374,0.128285357638,-0.0598833284607,-0.267544500204,-0.0018908682092,-0.394947875499,-0.0271924733896,0.128051908856,-0.0661885755148,0.573781918099,0.818992223837,0.0026066566782,0.0,0.818956868069,-0.573720076106,-0.0116477215124,0.0,-0.00804405694933,0.00881816115712,-0.999928764054,0.0,0.634903454377,0.225959715816,0.303808822481,1.0,-0.0565148571429,-0.0742766693877,1.445
0.441899932798,0.408254269869,-0.124576270462,-1.57173866368,0.0654737502718,1.97142124835,0.127384447082,-0.054891833503,-0.274312844392,-0.00121766878741,-0.400692585578,-0.0319856846688,0.133553806226,-0.0715652803487,0.573815549903,0.818969128147,0.00245534774468,0.0,0.81893158298,-0.573754004697,-0.0117537820669,0.0,-0.00821737726033,0.0087554333047,-0.999927905951,0.0,0.634066333669,0.224896425398,0.303771437354,1.0,-0.0576668571429,-0.0757907265306,1.459
0.440808619176,0.403187366381,-0.124585896843,-1.57953304878,0.0649430584134,1.97411561351,0.126096395486,-0.0590442389237,-0.27220884951,-0.000469939505036,-0.404484457181,-0.0318279947765,0.14337405259,-0.067893460505,0.573826663508,0.818961426362,0.00242678365373,0.0,0.818923202855,-0.573764897738,-0.011805797358,0.0,-0.0082762487122,0.008761999446,-0.999927362898,0.0,0.632953819808,0.223458645471,0.303716732641,1.0,-0.0592302857143,-0.0778455183673,1.478
0.439777061112,0.398422647056,-0.124599900111,-1.586449957,0.0644425037141,1.97662717527,0.124887247289,-0.0623286753526,-0.278398749636,-0.0011284960436,-0.406314367106,-0.03129486862,0.151446301076,-0.0738297263282,0.573824686685,0.818961911673,0.00271349955057,0.0,0.818927704096,-0.573762207806,-0.0116228765546,0.0,-0.00796194300133,0.0088918246495,-0.999928768922,0.0,0.632005297209,0.222148250894,0.303852296142,1.0,-0.0606291428571,-0.0796840163265,1.495
0.438713805508,0.393617114529,-0.124615976547,-1.59368380742,0.0638831236532,1.97900172151,0.123679933223,-0.0594604253477,-0.280136552985,-3.07720616806e-05,-0.437604973453,-0.0341197435945,0.140227415387,-0.0706140092157,0.573840722754,0.818950915752,0.0026399618391,0.0,0.818915844641,-0.57377859527,-0.0116494595124,0.0,-0.0080257364604,0.00884701117797,-0.999928656429,0.0,0.630946848247,0.220766325807,0.303848032505,1.0,-0.062028,-0.0815225142857,1.512
0.437643920669,0.388742988815,-0.124626582001,-1.6010623348,0.0633376185059,1.9813766432,0.122416949882,-0.063166373926,-0.285576718255,-0.000454310090512,-0.434898845082,-0.0366334613718,0.143868129286,-0.0793535577355,0.573818530883,0.8189668415,0.00252052380023,0.0,0.81892997141,-0.573756561539,-0.0117412486023,0.0,-0.0081696835059,0.00880164796634,-0.999927891032,0.0,0.6298415147,0.219372846263,0.303815358679,1.0,-0.0634268571429,-0.0833610122449,1.529
0.436540349973,0.383817957513,-0.124626889993,-1.60844502296,0.0627887664331,1.98387325693,0.121068527948,-0.0680961145448,-0.295391395152,0.000343626663065,-0.431905944916,-0.0348945376612,0.155804668223,-0.0763660127843,0.573741455579,0.81902077994,0.00253989713423,0.0,0.81898410265,-0.573679361749,-0.0117378196841,0.0,-0.00815658870517,0.00881477883796,-0.999927882267,0.0,0.628756444941,0.217974210971,0.303818874985,1.0,-0.0648257142857,-0.0851995102041,1.546
0.435467749423,0.379076159319,-0.124633419843,-1.61540294568,0.0622919571391,1.9863243207,0.119855953587,-0.0673881451466,-0.289378119641,-0.000934552812886,-0.442425770195,-0.0332191822259,0.150254754821,-0.076944609743,0.573751082209,0.819013416426,0.00273244919967,0.0,0.818979249244,-0.573688318309,-0.0116382835866,0.0,-0.00796448955647,0.0089154686474,-0.999928538109,0.0,0.627754573732,0.216644857552,0.303891541816,1.0,-0.0661422857143,-0.0869298612245,1.562
0.434250598942,0.374012516826,-0.124665501992,-1.62315073559,0.0616734789259,1.98879939437,0.118469025849,-0.0763572983917,-0.30013797852,-0.000894550831735,-0.45673920899,-0.0331811278692,0.142968112901,-0.079405984585,0.573741672137,0.819020690107,0.00251986754267,0.0,0.818983821677,-0.573679725889,-0.0117396267423,0.0,-0.00816955756423,0.00879941324359,-0.99992791173,0.0,0.626584353403,0.215111070965,0.303801601021,1.0,-0.0675411428571,-0.0887683591837,1.579
0.432949878739,0.36849041584,-0.124730152946,-1.6314104257,0.0610444925655,1.9914348926,0.117063268376,-0.0739698137057,-0.314124512159,-0.00491435288035,-0.466630485054,-0.0297740562479,0.14857456087,-0.0747109267883,0.573821591366,0.818965029197,0.00241021496786,0.0,0.818926685382,-0.573759989582,-0.0118027634322,0.0,-0.0082833250637,0.00874663824976,-0.99992743879,0.0,0.625332683794,0.21346578004,0.303780707318,1.0,-0.0690222857143,-0.0907150040816,1.597
0.431833249643,0.363782149513,-0.124752272631,-1.63818379366,0.0604993971352,1.99380469454,0.115810973205,-0.0730469528109,-0.314667414991,-0.00278662204984,-0.459457516062,-0.0362632499153,0.156406044856,-0.0910637938002,0.573809828637,0.818972592106,0.00263074893966,0.0,0.81893763311,-0.573747992178,-0.0116250354481,0.0,-0.00801135273556,0.00882514881978,-0.999928964965,0.0,0.624349385675,0.212117000093,0.303893119263,1.0,-0.0702565714286,-0.0923372081633,1.612
0.430511889435,0.358453290936,-0.124768945116,-1.64609363264,0.059921975425,1.99640630948,0.114323117387,-0.0807724095769,-0.307104664334,-0.00245665827551,-0.468975229585,-0.0354637474027,0.144957687317,-0.0905705784262,0.573797205546,0.818981380707,0.00264799256712,0.0,0.818946353752,-0.573734989425,-0.0116524026458,0.0,-0.008024009307,0.00885485041699,-0.9999286009,0.0,0.623151424231,0.210537060016,0.303891896145,1.0,-0.0716554285714,-0.0941757061224,1.629
0.429064598752,0.352716391763,-0.124800529671,-1.65469992003,0.0592708804487,1.9991065379,0.112776933212,-0.083445763367,-0.31774067063,-0.00213334778425,-0.488939979241,-0.0439600395151,0.148882016445,-0.0864552292356,0.573846896097,0.818947037331,0.00249735619522,0.0,0.818909676379,-0.573784804559,-0.0117765398958,0.0,-0.00821157551958,0.00880320950868,-0.999927534139,0.0,0.621812406197,0.208796881377,0.303831469591,1.0,-0.0731365714286,-0.0961223510204,1.647
0.427746490885,0.347535429278,-0.124831312524,-1.66230054665,0.058713437319,2.00161608705,0.111311651423,-0.083064321565,-0.335476915754,0.000581839869883,-0.471749406803,-0.0338733713773,0.165274428628,-0.0991103871944,0.573852618671,0.818942866039,0.00254972729907,0.0,0.818905936661,-0.573790064062,-0.0117803304646,0.0,-0.00818456698154,0.00884833066576,-0.999927357315,0.0,0.620723836374,0.2073430229,0.303845232961,1.0,-0.0743708571429,-0.097744555102,1.662
0.426310310451,0.341890109499,-0.124835766225,-1.67040649492,0.0580732999036,2.00428608635,0.109830586236,-0.0888743065799,-0.337579307716,-0.000565841176467,-0.485562465654,-0.0423996599791,0.153129408093,-0.091450277635,0.573892832734,0.818914102662,0.00273054916151,0.0,0.818879661352,-0.573829778177,-0.0116718808754,0.0,-0.00799155129591,0.00893457196977,-0.999928151685,0.0,0.619412694846,0.205594864918,0.30395238424,1.0,-0.075852,-0.0996912,1.68
0.424860878161,0.336248228328,-0.124840453258,-1.6788163297,0.0573735352964,2.00687257131,0.108188347023,-0.0885594182887,-0.334442899706,-0.000354914489065,-0.497364200007,-0.0427206746754,0.157079961925,-0.0946198556448,0.57380313888,0.818977539311,0.00254849297589,0.0,0.818940622263,-0.573740625821,-0.0117770281131,0.0,-0.00818310509973,0.00884493041382,-0.999927399363,0.0,0.618061359795,0.203890251455,0.303887857767,1.0,-0.0772508571429,-0.101529697959,1.697
0.423478545718,0.330871409635,-0.124827597006,-1.68672000087,0.0567127293663,2.00940510137,0.106696236816,-0.0866690791063,-0.342823045491,0.000766636033808,-0.486169026742,-0.0415448126615,0.164855463213,-0.0936641376588,0.573757765743,0.819009407314,0.00252267372595,0.0,0.818972240497,-0.573695446612,-0.0117792501577,0.0,-0.0082002281402,0.008824605907,-0.999927438662,0.0,0.616802824741,0.202297012118,0.303876373033,1.0,-0.0785674285714,-0.10326004898,1.713
0.421954665266,0.325041977566,-0.124831020367,-1.69503617887,0.056075145946,2.01220481068,0.105009206062,-0.0909210961194,-0.33513073514,-0.000744644685565,-0.498764644968,-0.0325180946749,0.163371268978,-0.0982894322796,0.573699168146,0.819049619973,0.00278053794833,0.0,0.819015814641,-0.573635952038,-0.0116463212527,0.0,-0.00794405141052,0.00895896185529,-0.999928311955,0.0,0.615512867371,0.200591080998,0.303979187138,1.0,-0.0799662857143,-0.105098546939,1.73
0.420345308058,0.319198370714,-0.124859451852,-1.70368395982,0.0553519332462,2.01484508105,0.103392819554,-0.0936797319097,-0.345564295436,-0.0028352215181,-0.513914057184,-0.0379776150314,0.159794986023,-0.0994819157263,0.573762034019,0.819006136089,0.00261232995378,0.0,0.818970052304,-0.573699296716,-0.0117438187445,0.0,-0.00811972408546,0.00887774825304,-0.999927625214,0.0,0.61410913181,0.198765940899,0.303913511399,1.0,-0.0813651428571,-0.106937044898,1.747
0.418816335977,0.313580590377,-0.124895949928,-1.71189062123,0.0546859004955,2.01733819378,0.101709104262,-0.0909418439,-0.34966612275,0.000336350866161,-0.516907154888,-0.0422958773701,0.160905608811,-0.108083712484,0.573708930426,0.81904362965,0.00251848777075,0.0,0.819006077062,-0.573646277011,-0.0118212312229,0.0,-0.00823754159254,0.00884477299975,-0.999926953782,0.0,0.612764580073,0.197035931026,0.303888445686,1.0,-0.0826817142857,-0.108667395918,1.763
0.417018094604,0.30714935836,-0.124927912566,-1.72095803993,0.0539029791945,2.02033821452,0.0998386709374,-0.101522840436,-0.353121839515,-0.00481148524504,-0.510529475285,-0.049374369165,0.160979837519,-0.105633428523,0.573702115099,0.819047579062,0.00277367333359,0.0,0.819014016272,-0.573639295899,-0.0116080253055,0.0,-0.00791658942493,0.00893139796376,-0.999928776335,0.0,0.611341635705,0.195078844642,0.304015313011,1.0,-0.0841628571429,-0.110614040816,1.781
0.415255127155,0.301104142504,-0.124963150287,-1.72982292355,0.0531761942454,2.02297629201,0.098013116676,-0.102120367401,-0.359670293677,-0.00531379868178,-0.530147095945,-0.0456799888239,0.142833853061,-0.10097555545,0.573710987071,0.819041901965,0.00261018033127,0.0,0.819005825756,-0.573648302882,-0.0117400545164,0.0,-0.00811842736788,0.00887332200136,-0.999927675031,0.0,0.609868896958,0.193153198001,0.303949148643,1.0,-0.0855617142857,-0.112452538776,1.798
0.413550619632,0.29535665502,-0.125040612396,-1.73824467803,0.0525095258873,2.02549467216,0.0963659889653,-0.103430467388,-0.356355938656,-0.00380576984099,-0.519291398489,-0.0423586337807,0.160551607445,-0.116484493462,0.573852104427,0.818943452849,0.0024759206208,0.0,0.818905178953,-0.573789415619,-0.0118642870851,0.0,-0.00829568290257,0.00883606045193,-0.999926550143,0.0,0.608471290433,0.191290471016,0.30388227243,1.0,-0.0868782857143,-0.114182889796,1.814
0.411713835458,0.289017444844,-0.125068494876,-1.74700464358,0.0517709121401,2.02840924414,0.0944577566157,-0.110261680948,-0.365686507635,-0.00160343463424,-0.52548795662,-0.0476008695332,0.166424401238,-0.105581963186,0.573828437402,0.818958789829,0.0028586521471,0.0,0.818926045834,-0.573764996315,-0.0116020411814,0.0,-0.00786155042603,0.00899877911541,-0.999928606451,0.0,0.607076750153,0.189366072869,0.304056140844,1.0,-0.0882771428571,-0.116021387755,1.831
0.40982530816,0.282784148462,-0.125089767387,-1.75609728022,0.0509910990107,2.03101423538,0.092553683087,-0.110307677764,-0.375677277881,-0.00011144717554,-0.542955269514,-0.0438460136071,0.155092134024,-0.105745066938,0.573832264258,0.818956872731,0.00263059023828,0.0,0.818920714878,-0.573769110737,-0.0117735809633,0.0,-0.00813286020754,0.00891047701534,-0.999927227344,0.0,0.605514454682,0.187362585071,0.303970105896,1.0,-0.089676,-0.117859885714,1.848
0.408019134069,0.276796892618,-0.125115078467,-1.76470169829,0.0502249703917,2.0335526401,0.0907097691539,-0.112361020821,-0.37990168764,-0.00176983530342,-0.52813571008,-0.0427234759483,0.170675286083,-0.109081838937,0.573804259658,0.818976803232,0.0025326405382,0.0,0.818939351123,-0.573741450818,-0.0118251299156,0.0,-0.00823158472277,0.00885955948951,-0.999926871935,0.0,0.6040442343,0.1854604361,0.303941373101,1.0,-0.0909925714286,-0.119590236735,1.864
0.405917910222,0.269942824789,-0.125142076775,-1.77424596079,0.0493934121593,2.03659908072,0.0885841538445,-0.116665340787,-0.375891643341,0.000160908986447,-0.536846006201,-0.0492045382705,0.163024243097,-0.123845590799,0.573786724174,0.818988233158,0.00279571316753,0.0,0.818954634714,-0.573723456437,-0.0116382436746,0.0,-0.00792777103656,0.00896760462322,-0.999928363691,0.0,0.602466480884,0.183318269275,0.304051602502,1.0,-0.0924737142857,-0.121536881633,1.882
0.403867781368,0.263444181813,-0.125223999941,-1.78351805881,0.0485851190467,2.03925913506,0.0865986961571,-0.122016618135,-0.389177838963,-0.00684535923418,-0.547774897994,-0.0489735085731,0.151857413345,-0.123404577464,0.573876816179,0.81892549857,0.00267853416386,0.0,0.818890179705,-0.573813721736,-0.0117231920092,0.0,-0.0080635964528,0.00892126519047,-0.999927692106,0.0,0.600862859289,0.181190061212,0.304021740552,1.0,-0.0938725714286,-0.123375379592,1.899
0.401909860262,0.257271408497,-0.125272538455,-1.79227595539,0.047801033224,2.04179999248,0.084668008137,-0.12428292969,-0.39375969538,-0.000493201589092,-0.535347827428,-0.0462357089062,0.171969744313,-0.130434786767,0.57389690246,0.818911630653,0.00261408284245,0.0,0.818875421023,-0.573833979032,-0.01176249352,0.0,-0.00813254976679,0.00889123796842,-0.999927401126,0.0,0.599338824808,0.179191256125,0.304006467767,1.0,-0.0951891428571,-0.125105730612,1.915
0.399801957778,0.250602117128,-0.125248018487,-1.80149547292,0.0469623717646,2.04462135989,0.0825779083855,-0.124432718843,-0.384765791354,0.000141404416569,-0.553647867154,-0.0528109950959,0.162090263116,-0.12524935734,0.573837360798,0.81895271085,0.00280849499274,0.0,0.818919310008,-0.573774079274,-0.0116282652034,0.0,-0.00791171000716,0.00897283655152,-0.999928443964,0.0,0.597748300247,0.177120120067,0.304096707705,1.0,-0.096588,-0.126944228571,1.932
0.397500009984,0.243566689589,-0.125258475031,-1.81152170497,0.0461109198348,2.04745056031,0.0802859993552,-0.125602160633,-0.393461006287,-4.17685420172e-05,-0.563804163367,-0.0549675058684,0.156690642973,-0.124209814872,0.573807824777,0.818973819281,0.00268522938313,0.0,0.818938029213,-0.573744097956,-0.0117881835019,0.0,-0.00811373536927,0.00896336096479,-0.999926910058,0.0,0.595951137548,0.174844434376,0.304026859364,1.0,-0.0980691428571,-0.128890873469,1.95
0.39553752418,0.237559936821,-0.12525711031,-1.819788132,0.0453944903783,2.04984633053,0.0783353943468,-0.133833357703,-0.409694878891,0.00134144564753,-0.547106629678,-0.0488235954407,0.164472594334,-0.130833909979,0.573766228035,0.819002571694,0.00280178967971,0.0,0.818968026949,-0.573701784395,-0.0117635164367,0.0,-0.00802711302192,0.00904425875027,-0.999926880747,0.0,0.594483142804,0.172947641761,0.304091362181,1.0,-0.0993034285714,-0.130513077551,1.965
0.393151895346,0.23033248559,-0.125240926339,-1.82980934052,0.0444459791364,2.05278393442,0.0760260120341,-0.13573723509,-0.409015835102,0.00182984132177,-0.572574897728,-0.0552241141954,0.150193058714,-0.132084416336,0.573716353614,0.819037239821,0.00287963245324,0.0,0.819003965097,-0.573651937224,-0.0116921758065,0.0,-0.00792457323734,0.00906659742683,-0.999927496347,0.0,0.592692503639,0.170653178906,0.304125459163,1.0,-0.100784571429,-0.132459722449,1.983
0.390777695682,0.223460455855,-0.125274785106,-1.83951464171,0.0435228967526,2.05538760419,0.0737000032635,-0.137739140927,-0.404223049215,-0.00171990390556,-0.578862510044,-0.0551489678447,0.143194466862,-0.132380047192,0.573674899247,0.819067021622,0.00265912892373,0.0,0.819030571553,-0.573610933177,-0.0118392188567,0.0,-0.00817196563959,0.00896994326624,-0.999926376838,0.0,0.590906050571,0.168361416603,0.304046730339,1.0,-0.102183428571,-0.134298220408,2.0
0.388481233169,0.216872677021,-0.125332853347,-1.84840672913,0.0427327101842,2.05806068025,0.0714938200326,-0.140120419215,-0.412679472476,-0.00411132873056,-0.553155843571,-0.0498087628356,0.169353738549,-0.14207364245,0.573711352657,0.819040485213,0.00295200185872,0.0,0.819008091941,-0.573646623403,-0.011663777027,0.0,-0.00785985102355,0.00910953009164,-0.999927616982,0.0,0.589342177439,0.166210324947,0.304166083731,1.0,-0.1035,-0.136028571429,2.016
0.38596496422,0.209903342375,-0.125387210186,-1.85805836922,0.0418267077549,2.06072557285,0.069154550493,-0.150080605639,-0.41304512363,-0.0063530904974,-0.57275822925,-0.0567066143902,0.147301020756,-0.143157533908,0.573781024142,0.818991816109,0.00291348292392,0.0,0.81895880692,-0.573716283202,-0.011698113443,0.0,-0.00790929885799,0.00909835318272,-0.99992732884,0.0,0.587577347856,0.163857484201,0.304151345875,1.0,-0.104898857143,-0.137867069388,2.033
0.38342383301,0.202918611102,-0.125473929196,-1.86789196377,0.0408452444615,2.06323259441,0.066711774788,-0.147169256948,-0.407567696314,-0.00431530438138,-0.573805567177,-0.0593324429612,0.150258735248,-0.151336441032,0.573777507765,0.818995376514,0.0025868383354,0.0,0.818957848597,-0.573713652854,-0.0118925880893,0.0,-0.00825602914336,0.0089423832812,-0.999925933139,0.0,0.585717322247,0.161448392122,0.304034719199,1.0,-0.106297714286,-0.139705567347,2.05
0.380474889542,0.194860014227,-0.125516599853,-1.87862571191,0.0398694907741,2.06638469725,0.0639700562169,-0.158897542838,-0.41886976175,-0.00391841446213,-0.576817431777,-0.0532414541709,0.162982589357,-0.137302589637,0.573842633071,0.818948439999,0.00297186717979,0.0,0.818916186718,-0.573777682689,-0.0116703418785,0.0,-0.00785236839439,0.00913082564739,-0.999927481537,0.0,0.583777875962,0.158799955121,0.304188623797,1.0,-0.107861142857,-0.141760359184,2.069
0.37821528237,0.18897536042,-0.125596224915,-1.88675288336,0.0391036468147,2.06849584008,0.0618518446842,-0.161583075146,-0.418508241063,-0.00348252769137,-0.582288224636,-0.0531935984542,0.142133302269,-0.155032247313,0.573898645919,0.81890959834,0.00285672188738,0.0,0.818875436762,-0.573833614144,-0.011779187025,0.0,-0.00800696042896,0.00909953406112,-0.999926540834,0.0,0.582243760307,0.156742964636,0.304139603555,1.0,-0.109013142857,-0.143274416327,2.083
0.375449063293,0.181733857244,-0.125705751029,-1.89659884306,0.0381465787967,2.07107844095,0.0592785722014,-0.163858694334,-0.431302169997,-0.00493339532226,-0.573753731361,-0.0556003036564,0.162788282554,-0.150234119576,0.57397503588,0.818856203316,0.00281484988638,0.0,0.818821375981,-0.5739100078,-0.0118154172372,0.0,-0.00805981235556,0.00908678873864,-0.999926232127,0.0,0.580382215533,0.1542380822,0.304136471333,1.0,-0.110412,-0.145112914286,2.1
0.372820191819,0.174845950668,-0.12568715918,-1.90575508654,0.0372024935561,2.0736582325,0.0568759194619,-0.169941840408,-0.423798652521,0.000785818187706,-0.584902291939,-0.0632704295133,0.154612738484,-0.155323864212,0.57395847161,0.818867081958,0.00302024075146,0.0,0.818835586005,-0.57389349591,-0.0116312228227,0.0,-0.00779127897536,0.00914909562833,-0.999927792404,0.0,0.578665625847,0.151960816037,0.304225450925,1.0,-0.111728571429,-0.146843265306,2.116
0.369843785328,0.167085666717,-0.125677969403,-1.91638146806,0.0361441497907,2.07624530027,0.0539970270903,-0.165160728352,-0.434073360118,-0.000293836609281,-0.604271087871,-0.0601710859182,0.149561934174,-0.153079682182,0.573817255336,0.818966880564,0.00278440654716,0.0,0.818931542665,-0.573752231019,-0.0118428345559,0.0,-0.00810148578351,0.00907603591118,-0.999925993012,0.0,0.576551447884,0.149353063991,0.304138509772,1.0,-0.113209714286,-0.148789910204,2.134
0.367105982219,0.160064596753,-0.125691827745,-1.92563675098,0.0352397637735,2.078716558,0.0514053715794,-0.169360690235,-0.449120810765,-0.000427777608482,-0.563287605713,-0.0601118972854,0.161228918846,-0.155217641522,0.57376349099,0.819003754382,0.00300892284105,0.0,0.818971455677,-0.573697811395,-0.0117184848961,0.0,-0.00787142222624,0.00918803762042,-0.99992680766,0.0,0.574659762043,0.146870929083,0.304243000479,1.0,-0.114608571429,-0.150628408163,2.151
0.364103796902,0.152596654902,-0.125684361674,-1.93556922163,0.0341973124955,2.08129192809,0.0486604412891,-0.18240412253,-0.434013574677,3.58080210907e-06,-0.59049852003,-0.061474990815,0.137621561972,-0.170467476652,0.573726561413,0.819029585185,0.00301963942606,0.0,0.818997606282,-0.573661061298,-0.0116899339466,0.0,-0.00784230318186,0.00918007981308,-0.999927109551,0.0,0.572824085497,0.144482502383,0.304250799414,1.0,-0.115925142857,-0.152358759184,2.167
0.361006613297,0.145126636073,-0.125727804451,-1.94574333129,0.0331703220431,2.08364338708,0.0458302661727,-0.180062695246,-0.433805937252,-0.00211563413618,-0.600130747095,-0.0490131614677,0.136508160431,-0.172063378156,0.573741111887,0.819020403123,0.00273179429412,0.0,0.818983715922,-0.573675557009,-0.0119488596547,0.0,-0.00821935448603,0.00909302213508,-0.999924876758,0.0,0.57075734599,0.141854341645,0.304133942457,1.0,-0.117324,-0.154197257143,2.184
0.357864834318,0.137452445998,-0.125787822402,-1.95559666557,0.032184681987,2.08629590708,0.0429579729878,-0.178893145839,-0.447660669285,-0.000552661805991,-0.585203282849,-0.0671292814104,0.15996883222,-0.182383775693,0.573774145013,0.818995945241,0.00310146643351,0.0,0.818964605955,-0.573707863146,-0.0117050783419,0.0,-0.00780722633388,0.00925624076486,-0.999926681924,0.0,0.568846347154,0.139257044518,0.304294031226,1.0,-0.118722857143,-0.156035755102,2.201
0.354799225341,0.130286234718,-0.125841102073,-1.9651011246,0.0311462824004,2.08854813179,0.0401239193597,-0.191534560798,-0.452967681247,-0.00341759916744,-0.592684973656,-0.072356425109,0.123767120648,-0.18309649638,0.573733361262,0.819024931549,0.00298974533108,0.0,0.818992149786,-0.573667479796,-0.0117570453476,0.0,-0.00791434596744,0.00919416411797,-0.999926412529,0.0,0.566920482685,0.13672250645,0.304268550758,1.0,-0.120039428571,-0.157766106122,2.217
0.351272765389,0.122169800815,-0.125977926291,-1.97586447417,0.0299965927417,2.09111162666,0.0370320878508,-0.198406743131,-0.457905421652,-0.0108955838893,-0.588342352217,-0.0613166278262,0.149866814632,-0.17675758159,0.573890889363,0.818914932122,0.00288581954335,0.0,0.818880706513,-0.573825250347,-0.011820214273,0.0,-0.00802394833303,0.00914683133299,-0.999925973125,0.0,0.56473554279,0.133801981381,0.304224113043,1.0,-0.121520571429,-0.15971275102,2.235
0.347634863995,0.113922404282,-0.126048225753,-1.98645775144,0.0288781469895,2.09381676575,0.0337175988405,-0.200617093276,-0.452913422206,-0.00460900148704,-0.596962603966,-0.0699094251337,0.147754482265,-0.185934620514,0.573903152668,0.818905370973,0.00314827740837,0.0,0.818875074797,-0.573837217404,-0.0116278416137,0.0,-0.00771565175289,0.00925147897875,-0.999927436795,0.0,0.562618023061,0.130902885935,0.304325579909,1.0,-0.123001714286,-0.161659395918,2.253
0.344772728638,0.10753281848,-0.126055276045,-1.99490909311,0.0279234619478,2.09563867979,0.0311393617604,-0.200522331606,-0.460029891732,0.00122645806186,-0.607813238161,-0.0672803146943,0.130525282961,-0.180725580523,0.573859270769,0.818936952555,0.00292437920196,0.0,0.818903393863,-0.573793686976,-0.0117806284601,0.0,-0.00796975508835,0.00915538318022,-0.999926328268,0.0,0.560826479502,0.128630869144,0.304253856346,1.0,-0.124153714286,-0.163173453061,2.267
0.340456837622,0.0977658166097,-0.126052867312,-2.00732717858,0.0265991748852,2.09861769926,0.0271548929919,-0.208317998111,-0.463061567861,-0.000506311752407,-0.590750828751,-0.0640482183454,0.137925943088,-0.198132008801,0.57373480512,0.819023215797,0.00317683508845,0.0,0.818993129645,-0.573668606657,-0.0116331522558,0.0,-0.00770551956675,0.00927632905194,-0.9999272847,0.0,0.558248963504,0.125289742623,0.304368055786,1.0,-0.125881714286,-0.165444538775,2.288
0.337479427768,0.0912795668363,-0.126060662636,-2.0157859027,0.0257264687024,2.10049418625,0.024490212128,-0.213408110642,-0.465882185269,-0.00314130145529,-0.605593316914,-0.0597563908091,0.127274498634,-0.185226307142,0.573732328992,0.81902516738,0.00312037970917,0.0,0.818993619936,-0.573665449789,-0.0117536855433,0.0,-0.00783666112004,0.00929921949336,-0.999926052896,0.0,0.556443150547,0.123001065179,0.304322251489,1.0,-0.127033714286,-0.166958595918,2.302
0.333499646393,0.0828959797571,-0.12615957056,-2.02664997316,0.0244912800638,2.10278086354,0.0209067089203,-0.223501327537,-0.469944351899,-0.00902639187868,-0.595768002207,-0.078236452474,0.134370780801,-0.198832367604,0.573738393026,0.81902160379,0.00293526755419,0.0,0.818987275334,-0.573671740389,-0.0118879780409,0.0,-0.00805278583564,0.00922471379843,-0.999925025837,0.0,0.554109502564,0.119927387109,0.304264674254,1.0,-0.128514857143,-0.168905240816,2.32
0.330161845122,0.0757385442526,-0.126222405811,-2.03548253179,0.0234905567002,2.10489050514,0.0179226145229,-0.229039381145,-0.468702790786,4.32519879437e-05,-0.592769506994,-0.0717024764619,0.131142644299,-0.196614055738,0.573748201995,0.819013550144,0.00324842861314,0.0,0.818984162445,-0.573681490758,-0.0116290896964,0.0,-0.0076609661651,0.00933276057569,-0.999927101932,0.0,0.552263547052,0.117413936734,0.30441555834,1.0,-0.129749142857,-0.170527444898,2.335
0.325759203075,0.066759408204,-0.126317723361,-2.04709232383,0.0221902733102,2.10723751763,0.0140298442481,-0.232472196409,-0.468689229373,-0.0097237671899,-0.612113245979,-0.0729360294972,0.124842966086,-0.208142534306,0.573801936916,0.818976784183,0.00301845339819,0.0,0.818943542863,-0.57373497596,-0.0118489604379,0.0,-0.00797238472061,0.00927107786658,-0.999925241304,0.0,0.549712982222,0.114102072392,0.30431454735,1.0,-0.131312571429,-0.172582236735,2.354
0.322439906336,0.0600871895251,-0.126440529805,-2.05546896853,0.0212073509876,2.10899263339,0.0111073162945,-0.235260029312,-0.482372770332,-0.00445488043191,-0.583583502203,-0.0715586090627,0.132731017533,-0.208413869533,0.573881156568,0.818921236104,0.00302887692779,0.0,0.818888308375,-0.573814354625,-0.0118225096781,0.0,-0.00794384412352,0.00926520581522,-0.999925522877,0.0,0.547894848502,0.111621666941,0.304339735609,1.0,-0.132464571429,-0.174096293878,2.368
0.317652393727,0.0504804912113,-0.126457640091,-2.06745696793,0.0198394327961,2.1116054697,0.00684912293134,-0.236954554066,-0.4760069949,0.000206023829271,-0.608101782167,-0.0698532654832,0.119736152714,-0.210164043953,0.573838125583,0.818950757145,0.0031952935243,0.0,0.818920230168,-0.57377103304,-0.0117134609501,0.0,-0.00775953024254,0.00933850077912,-0.99992628833,0.0,0.545272277914,0.108176508981,0.304392611563,1.0,-0.134110285714,-0.176259232653,2.388
0.314009423537,0.0432740392592,-0.126458598099,-2.07663830659,0.0188005328715,2.1133370238,0.00364099330154,-0.24632312447,-0.485854662803,-0.00116011592521,-0.611894016064,-0.0836325589753,0.119029376681,-0.218230403766,0.573812431155,0.818969435126,0.00301746288566,0.0,0.818935635867,-0.573744839502,-0.011917648801,0.0,-0.00802909093242,0.00930978216126,-0.999924427972,0.0,0.543177428461,0.10557002051,0.304307922365,1.0,-0.135344571429,-0.177881436735,2.403
0.309216974976,0.0339757289342,-0.12651211068,-2.08790789427,0.0174370849744,2.11575697764,-0.00065794530329,-0.25898955638,-0.487185258024,-0.00787957844671,-0.597404078796,-0.0639020139473,0.135029943321,-0.219780090938,0.573741840867,0.819017708542,0.00332265465103,0.0,0.818988982007,-0.573674521704,-0.0116334603496,0.0,-0.007622034468,0.00939600140898,-0.999926807195,0.0,0.54069424401,0.102198995458,0.304455520596,1.0,-0.136908,-0.179936228571,2.422
0.305622049866,0.0271616579529,-0.12660888605,-2.09641346278,0.0164297910272,2.11731205292,-0.00378093501339,-0.258387586888,-0.488343035693,-0.0062603689876,-0.615829084519,-0.0757674377809,0.107791721115,-0.22648880057,0.573816220091,0.818966042076,0.0032116020514,0.0,0.818935397918,-0.573748679016,-0.0117479472468,0.0,-0.00777866718817,0.00937143771612,-0.999925831495,0.0,0.538740930245,0.099648950264,0.304415289764,1.0,-0.13806,-0.181450285714,2.436
0.300338985924,0.0172977332832,-0.126738474568,-2.10850581796,0.0149727760139,2.11955367058,-0.00843056646029,-0.264086924695,-0.50206511454,-0.0103436083223,-0.592284347933,-0.0761240685101,0.120527838357,-0.224400411172,0.573861133998,0.818934585717,0.00320781902797,0.0,0.818903735478,-0.573793410846,-0.0117703267085,0.0,-0.00779865235356,0.00938160864224,-0.999925580451,0.0,0.53596176134,0.0959671702606,0.304431692733,1.0,-0.139705714286,-0.18361322449,2.456
0.296827951329,0.0108554571014,-0.126832025206,-2.11628903563,0.0140203700025,2.12104255901,-0.0115143250112,-0.273889619943,-0.492730006246,-0.00770462360718,-0.603305463801,-0.0775886687716,0.10442757327,-0.239933381647,0.57390025511,0.818906779703,0.00330609172768,0.0,0.818877497203,-0.573832548814,-0.0116874889299,0.0,-0.00767396862739,0.00941491826432,-0.999926232039,0.0,0.534177926218,0.0935539830947,0.304480726152,1.0,-0.13998,-0.183973714286,2.469
0.292163055709,0.00254543368398,-0.126847462123,-2.12660769695,0.0128292604417,2.12278493997,-0.0156025616493,-0.268873613012,-0.492879063002,-0.00231380773768,-0.612291693895,-0.0743651833487,0.099512792735,-0.2382450814,0.57389264883,0.818912764774,0.00313977876032,0.0,0.818880008222,-0.573823947438,-0.0119313193714,0.0,-0.00796918292299,0.00941857987202,-0.999923888342,0.0,0.531724804177,0.0904328152765,0.304382457836,1.0,-0.13998,-0.183973714286,2.486
0.287513899801,-0.00585969857203,-0.126836099856,-2.13657187859,0.0115864563506,2.12463418597,-0.0197582178613,-0.274221963909,-0.498958885293,0.00182546722816,-0.581811590364,-0.0777451260993,0.116748885058,-0.244892396705,0.573761284214,0.819004004645,0.00334305470869,0.0,0.818974524616,-0.573692641082,-0.0117570616959,0.0,-0.00771134319393,0.00948380605069,-0.999925293514,0.0,0.529389250763,0.0873804657461,0.304484572399,1.0,-0.13998,-0.183973714286,2.503
0.283065847995,-0.0136464906777,-0.126843739799,-2.14595429503,0.0104002688138,2.12626014897,-0.0236223373746,-0.282796721809,-0.485873115425,-0.00040915687353,-0.58993365104,-0.0710187429789,0.0965466552926,-0.249069269774,0.573733851178,0.819023211575,0.00334571599101,0.0,0.818993834697,-0.573665287215,-0.0117466537621,0.0,-0.00770160924445,0.00947975618537,-0.999925406937,0.0,0.527148311021,0.0844784676695,0.304483198871,1.0,-0.13998,-0.183973714286,2.519
0.277917340114,-0.0223709792544,-0.126926567504,-2.15651895279,0.00906283732346,2.12781527071,-0.0281384816834,-0.288050611564,-0.492448229402,-0.00907354284876,-0.575097596579,-0.0743811039641,0.0974305525676,-0.236101159882,0.573730281021,0.819026566239,0.00312975016307,0.0,0.818993442461,-0.57366136056,-0.0119637580833,0.0,-0.00800337305521,0.00942739665386,-0.999923532182,0.0,0.524557863856,0.0811203049343,0.304412405346,1.0,-0.13998,-0.183973714286,2.537
0.272984327037,-0.030687832208,-0.127062285667,-2.16607310808,0.00780364853569,2.12957399076,-0.0323633541035,-0.290944317858,-0.482739148337,-0.00783792310219,-0.56516118053,-0.0753146124672,0.0982434028922,-0.251845338206,0.573857354025,0.818936112246,0.00348255554574,0.0,0.818909096875,-0.573789058349,-0.0116083795307,0.0,-0.00750841349537,0.00951363354573,-0.999926554555,0.0,0.52230342202,0.0779435977652,0.304582132695,1.0,-0.13998,-0.183973714286,2.554
0.269467430552,-0.0364428140659,-0.127122763026,-2.17300219045,0.00693935580206,2.13056385216,-0.0353851121412,-0.296232966205,-0.485430254507,-0.00246603484083,-0.575974855203,-0.0730053613106,0.0736097514138,-0.255194361966,0.573918322273,0.818893902272,0.0033590300406,0.0,0.818864542357,-0.573849495283,-0.011762862555,0.0,-0.00770510707331,0.00950169587674,-0.999925171751,0.0,0.520577228374,0.0757055076377,0.304522614783,1.0,-0.13998,-0.183973714286,2.566
0.26328926648,-0.0464552883573,-0.127126945417,-2.18490874788,0.00549225280872,2.13232455568,-0.0408097454812,-0.294260119952,-0.478187509711,0.000675536809175,-0.553146285215,-0.0738518808821,0.0932192390153,-0.250911055572,0.573867076594,0.818930011531,0.00331081813677,0.0,0.818898910368,-0.573797063542,-0.0119269178849,0.0,-0.00786772475427,0.00955587484421,-0.999923389147,0.0,0.517599864724,0.0718850551835,0.304465889814,1.0,-0.13998,-0.183973714286,2.587
0.25825236901,-0.0546404452967,-0.127129329321,-2.19420713577,0.00420353198136,2.13382526518,-0.0452235203248,-0.295417579396,-0.474061446759,-0.00423350574151,-0.552207642979,-0.0744678021678,0.0795820959178,-0.266042477692,0.573774149618,0.81899414336,0.00354475286315,0.0,0.81896750795,-0.573705126816,-0.0116359481324,0.0,-0.0074962748085,0.00957962810081,-0.999926015558,0.0,0.515303178713,0.0688100680193,0.304599390297,1.0,-0.13998,-0.183973714286,2.604
0.253409130668,-0.0622143333258,-0.127161041636,-2.20322644501,0.00307711309869,2.13493343488,-0.0494432042073,-0.304616879117,-0.476125297553,-0.00130300019696,-0.561020489207,-0.071469429287,0.067035976299,-0.262824596423,0.573769254895,0.818998447763,0.00333640533022,0.0,0.818967645401,-0.5736991205,-0.0119189691056,0.0,-0.00784767548492,0.009571330318,-0.999923398879,0.0,0.512967708322,0.0658665074737,0.304491184338,1.0,-0.13998,-0.183973714286,2.62
0.248496932689,-0.0697702179223,-0.127284197046,-2.21193891266,0.00190354467212,2.13612624018,-0.0537128935568,-0.310606645974,-0.477348397452,-0.0100376407623,-0.529508388276,-0.0726100608657,0.0804004640594,-0.26307516358,0.573827093975,0.818957844374,0.00335592902897,0.0,0.818927355945,-0.573756953569,-0.0119033952459,0.0,-0.00782304191304,0.00957893721303,-0.999923519064,0.0,0.510745683114,0.0628770577731,0.304502140914,1.0,-0.13998,-0.183973714286,2.636
0.242561893527,-0.0787486605274,-0.127420462704,-2.22211484438,0.000561297091605,2.13752988865,-0.0588875896685,-0.312797949617,-0.469206095114,-0.00108786970377,-0.545077165979,-0.0664654842587,0.0637976959237,-0.27271354262,0.573898707111,0.81890695595,0.00352397150378,0.0,0.818878939077,-0.573828322019,-0.0117935103307,0.0,-0.00763578000242,0.00965417225015,-0.999924243041,0.0,0.508140750548,0.0593288837307,0.30457098543,1.0,-0.13998,-0.183973714286,2.655
0.237911456838,-0.0857660771994,-0.127421190093,-2.23026740131,-0.000492703536055,2.13844003866,-0.06293180248,-0.313238992726,-0.467267199728,-0.000924342520171,-0.54551620813,-0.0690471252491,0.0632689612802,-0.279787253509,0.573860889675,0.818934096391,0.00337223542529,0.0,0.81890291051,-0.57378957134,-0.0120124053132,0.0,-0.00790256692042,0.00965516889678,-0.999922160545,0.0,0.505822633499,0.0564327113713,0.304486186279,1.0,-0.13998,-0.183973714286,2.671
0.232244279872,-0.0942169751499,-0.127424909775,-2.23971320658,-0.00177385012871,2.13961129916,-0.0679196471249,-0.315455001437,-0.472173393644,-0.00354159987915,-0.51112514747,-0.0807527768111,0.0627993479515,-0.285421058958,0.573776724072,0.81899242251,0.00352557586755,0.0,0.818963748192,-0.573705495107,-0.0118798540332,0.0,-0.00770701656902,0.00970388938658,-0.999923215265,0.0,0.503482551146,0.0533636027366,0.304571604853,1.0,-0.13998,-0.183973714286,2.688
0.226785331896,-0.102109366704,-0.127440975102,-2.24856133124,-0.0030294067458,2.14063062193,-0.0726542097973,-0.319121343758,-0.464485462521,-0.00156149082062,-0.531478886691,-0.068087333992,0.054449740662,-0.274468808846,0.573741612458,0.819016921152,0.00354850684937,0.0,0.818988908255,-0.573670767072,-0.0118222697636,0.0,-0.00764711156714,0.00968930241667,-0.99992381665,0.0,0.501121578343,0.0502553647632,0.30459849133,1.0,-0.13998,-0.183973714286,2.705
0.221554221784,-0.109515965726,-0.12754748629,-2.25698697878,-0.0041770762787,2.14144335151,-0.0771494647964,-0.328679854359,-0.455117701698,-0.00577701946928,-0.524873064454,-0.0698197155347,0.0502472962383,-0.283701738025,0.573833587464,0.818953010243,0.00342458943231,0.0,0.81892247029,-0.573762031816,-0.0119943904036,0.0,-0.00785809402893,0.00968744382571,-0.999922198869,0.0,0.498821346877,0.0472656446849,0.304537417681,1.0,-0.13998,-0.183973714286,2.721
0.215591056244,-0.117830471196,-0.127657140933,-2.26607752872,-0.00548507550241,2.14246915717,-0.0822926784319,-0.327389789567,-0.462020398532,0.000253615608595,-0.498904391908,-0.0602054439207,0.0634366131341,-0.284363476101,0.573909877722,0.818898848751,0.00358812885371,0.0,0.818871324312,-0.57383883803,-0.0118105499288,0.0,-0.00761278461737,0.00971659416624,-0.999923813752,0.0,0.496371240837,0.0439129053706,0.304624734404,1.0,-0.13998,-0.183973714286,2.739
0.20999865062,-0.125585269363,-0.127655654842,-2.27467905933,-0.00662755744252,2.14330411385,-0.0872592207197,-0.331482027346,-0.459548116182,0.000302273514781,-0.520886254355,-0.0647170767667,0.0456196872789,-0.288112906932,0.573808026339,0.818970051267,0.003626422323,0.0,0.818942529134,-0.573736235329,-0.0118580414847,0.0,-0.00763091787018,0.00977425903428,-0.999923113521,0.0,0.493990276776,0.0408584823443,0.304621015746,1.0,-0.13998,-0.183973714286,2.756
0.204587527755,-0.132902338302,-0.127678924695,-2.28279588315,-0.00779399421285,2.14395497229,-0.0919630174387,-0.338868028086,-0.453765424532,-2.9016864085e-05,-0.514914859291,-0.0700550746712,0.0393843942905,-0.291858148384,0.573780238226,0.818989977914,0.00352153358567,0.0,0.818960622031,-0.573708233221,-0.0119628424073,0.0,-0.00777726496371,0.00974822758572,-0.999922240081,0.0,0.491701800948,0.0379137207899,0.304587499839,1.0,-0.13998,-0.183973714286,2.772
0.199170412829,-0.140166654338,-0.127757944286,-2.29068828977,-0.00892240694263,2.14469989226,-0.0967425384867,-0.335640768255,-0.459271332102,-0.0113132576195,-0.47521793988,-0.0684704194612,0.0605723340852,-0.300239193189,0.573753895619,0.819008036133,0.00361260485759,0.0,0.818980174242,-0.573681956467,-0.0118841880193,0.0,-0.00766090676426,0.00977743917407,-0.99992285312,0.0,0.489492616852,0.0349784728086,0.304620634169,1.0,-0.13998,-0.183973714286,2.788
0.192914439657,-0.148318207165,-0.127902295277,-2.29944102252,-0.0101723047415,2.14547553785,-0.102135849512,-0.352417444441,-0.449529516771,-0.00716490170816,-0.492688551502,-0.0736605102144,0.035553081116,-0.303333177423,0.573890403875,0.818911729831,0.00375898736259,0.0,0.818886135817,-0.573818413733,-0.0117758876121,0.0,-0.00748658046898,0.00983644091563,-0.999923594853,0.0,0.487021353787,0.0316086198159,0.304678972833,1.0,-0.13998,-0.183973714286,2.806
0.187345579397,-0.155501036158,-0.12795814092,-2.30732369522,-0.0113458603863,2.14593225043,-0.10703390786,-0.349246656828,-0.452083272276,0.000430864110133,-0.493797657437,-0.0750341694091,0.0266466649041,-0.300360257189,0.573837241559,0.818949750647,0.0035878985835,0.0,0.818921202424,-0.573764914665,-0.0119429402309,0.0,-0.00772220627589,0.00979169862091,-0.999922242061,0.0,0.484715043022,0.0286620491867,0.304616724291,1.0,-0.13998,-0.183973714286,2.822
0.181442026247,-0.163105927937,-0.127946144348,-2.31546411141,-0.0125027608056,2.14648868703,-0.112240310384,-0.351986346726,-0.447498972608,-0.00783596222094,-0.464701893007,-0.0581624038946,0.0349836994596,-0.310729291036,0.573747295549,0.819012583329,0.00362988970328,0.0,0.818984461569,-0.573674676755,-0.0119400108914,0.0,-0.00769679155007,0.00982356135598,-0.999922125489,0.0,0.48233762993,0.0256189010788,0.304632988117,1.0,-0.13998,-0.183973714286,2.839
0.175728028378,-0.170252216739,-0.127967310113,-2.32290766821,-0.0135496858344,2.14705168717,-0.117288193132,-0.35805746025,-0.443774042678,-3.84036379197e-05,-0.474995041648,-0.0652402915859,0.0322193475671,-0.324057137483,0.573712958158,0.819035619284,0.0038526467296,0.0,0.819011005287,-0.573640369186,-0.011766348602,0.0,-0.00742716791765,0.00990605745651,-0.999923350664,0.0,0.480170083979,0.0227006861166,0.304727839747,1.0,-0.13998,-0.183973714286,2.855
0.169589216194,-0.177718014861,-0.128072270478,-2.3309993056,-0.0147554534026,2.14738914545,-0.1226049142,-0.365493852887,-0.437772245206,-0.00840479582405,-0.470678332829,-0.0738563815979,0.0229116638832,-0.316474590207,0.573784684759,0.818986187565,0.00367518907688,0.0,0.818958194696,-0.573711305272,-0.011981671205,0.0,-0.00770447403341,0.00988491596207,-0.999921461674,0.0,0.477726502766,0.0195443634131,0.304644165561,1.0,-0.13998,-0.183973714286,2.872
0.16293470405,-0.1856686102,-0.128229384596,-2.33939151855,-0.0160091908484,2.14781475334,-0.128392525872,-0.365416201866,-0.444777133231,-0.00811384618158,-0.458725470112,-0.0658196409418,0.024326652526,-0.322052155778,0.573900341049,0.818905061487,0.00369401085098,0.0,0.818877101788,-0.573826602484,-0.0120028892384,0.0,-0.00770965348836,0.00991359399453,-0.999921137839,0.0,0.475195913049,0.0161496570363,0.304642379959,1.0,-0.13998,-0.183973714286,2.89
0.156761775398,-0.193150445677,-0.128226961521,-2.34702021769,-0.0171493080465,2.14826616951,-0.13389730762,-0.364133851087,-0.440551494914,0.00025184230999,-0.448999220594,-0.0629758801278,0.0191656828384,-0.32072355217,0.573783022874,0.818986256998,0.00391157412566,0.0,0.818962224123,-0.573709981301,-0.0117677404572,0.0,-0.00739365094253,0.00995575281677,-0.999923105499,0.0,0.472894063844,0.0131072896876,0.304749838415,1.0,-0.13998,-0.183973714286,2.907
0.150782334776,-0.200077174972,-0.128265488148,-2.354334907,-0.0182725532874,2.14848034148,-0.139211010718,-0.377586537365,-0.426668855096,-0.00117504327586,-0.457828913042,-0.0627974987464,0.0130312191865,-0.333265684558,0.573704558699,0.819041741074,0.00380165861802,0.0,0.819015749535,-0.573631198308,-0.0118826446003,0.0,-0.00755177732846,0.00993093686039,-0.999922170547,0.0,0.470615854066,0.0101665776831,0.304701248452,1.0,-0.13998,-0.183973714286,2.923
0.143996383574,-0.207842533678,-0.128391542753,-2.36249009636,-0.0194488902776,2.14868345815,-0.145173972227,-0.381808246804,-0.43016774955,-0.0102291968145,-0.440215166593,-0.0665991992691,0.0131986929157,-0.333085510322,0.573777236439,0.818991055103,0.00375253340051,0.0,0.818963234032,-0.573702492349,-0.0120589584359,0.0,-0.00772349002948,0.00999253512244,-0.999920245291,0.0,0.468048123787,0.00684013298049,0.304644797806,1.0,-0.13998,-0.183973714286,2.941
0.137457799192,-0.215208122328,-0.128536501737,-2.36985651053,-0.0205455822684,2.14893033301,-0.150884622727,-0.378727205561,-0.44140997276,-0.00813456917468,-0.423344809202,-0.0683329100182,0.0141259309416,-0.336738545822,0.573914334794,0.818893943915,0.00397389460599,0.0,0.818869588185,-0.573839532751,-0.0118968525053,0.0,-0.00746202631143,0.0100820697423,-0.999921331922,0.0,0.465732813557,0.00366204546402,0.304744447893,1.0,-0.13998,-0.183973714286,2.958
0.131372671031,-0.222018430171,-0.128542205408,-2.37677756356,-0.0216251818622,2.14910036807,-0.156297910902,-0.378490275282,-0.418650360829,0.00204456907354,-0.435528886609,-0.0708013758081,0.0104567631725,-0.348334570336,0.573824467558,0.818956710019,0.00401677083819,0.0,0.818933278239,-0.573750028781,-0.0118295041508,0.0,-0.00738337156922,0.0100777202586,-0.999921959644,0.0,0.4635212883,0.000785400254429,0.304767915069,1.0,-0.13998,-0.183973714286,2.974
0.12472964251,-0.229185664023,-0.128585398322,-2.38422640212,-0.0227977387142,2.14912569696,-0.162170829618,-0.393413194391,-0.424791724044,-0.00442957290989,-0.433122943776,-0.066648973782,0.00114743760141,-0.349495409101,0.573785415789,0.818984823286,0.00386040874249,0.0,0.818958504456,-0.57371039332,-0.0120041441195,0.0,-0.00761660187558,0.0100495108794,-0.999920494193,0.0,0.461082777764,-0.0023397187132,0.304688178626,1.0,-0.13998,-0.183973714286,2.991
0.117620235225,-0.236813791214,-0.12867823948,-2.39192649833,-0.0239576839675,2.14914501051,-0.168450426132,-0.399466430698,-0.424093945184,-0.00975812561401,-0.418322934158,-0.0679599587926,-0.000558064493462,-0.350109444467,0.573827651991,0.818955093508,0.00388941235786,0.0,0.818928642444,-0.573751841047,-0.0120602811578,0.0,-0.0076454183804,0.0101058685705,-0.999919706276,0.0,0.458542655538,-0.00565804973653,0.304686925321,1.0,-0.13998,-0.183973714286,3.009
0.111581239354,-0.243149939413,-0.128826225497,-2.39805044721,-0.0249698357863,2.14923364492,-0.173787275549,-0.399285681049,-0.424802703615,-0.00818377308325,-0.41632170055,-0.063646369158,0.0092481006916,-0.365091099868,0.573908860112,0.818897207543,0.00409031347703,0.0,0.818874673347,-0.573834079984,-0.0118095258638,0.0,-0.00732376748658,0.0101272406201,-0.999921897664,0.0,0.456524505722,-0.00848778286027,0.304799728058,1.0,-0.13998,-0.183973714286,3.024
0.104412310372,-0.250632595385,-0.128840917164,-2.40557258722,-0.0261021833235,2.14922386543,-0.180209105564,-0.398682706117,-0.407660832468,0.000143745408496,-0.425529491921,-0.0626493062943,-0.00254109441863,-0.361225874292,0.573815988488,0.818962139627,0.0041197226457,0.0,0.818939734373,-0.573740772605,-0.0118314926156,0.0,-0.00732603270263,0.0101630998708,-0.999921517243,0.0,0.454138788146,-0.0115461480617,0.304784803676,1.0,-0.13998,-0.183973714286,3.041
0.0974922529252,-0.257626929591,-0.128875148884,-2.41264121442,-0.0272094020123,2.14913858248,-0.186401887846,-0.40917694549,-0.410389121308,-0.000209873886925,-0.409151477799,-0.0731390180137,0.000156886680941,-0.36756572094,0.573761280925,0.81900084981,0.00404319453657,0.0,0.81897672018,-0.573685339802,-0.0119586621601,0.0,-0.00747477695273,0.0101728953795,-0.99992031678,0.0,0.451573912663,-0.0148349602557,0.304717209786,1.0,-0.13998,-0.183973714286,3.059
0.0913301588339,-0.263799288218,-0.128982798187,-2.41865808661,-0.0281769113436,2.14905331949,-0.191825727644,-0.411577455168,-0.40967217044,-0.00794571872267,-0.393463416037,-0.0639827720109,-0.00965299222251,-0.358734324206,0.573854272461,0.818935238936,0.00413464715192,0.0,0.818912645453,-0.573778469144,-0.0118783149334,0.0,-0.00735534077796,0.0102025330417,-0.999920900512,0.0,0.449359819708,-0.0177969292493,0.304758718849,1.0,-0.13998,-0.183973714286,3.075
0.0842197326211,-0.270734469495,-0.129117910573,-2.42521451315,-0.0292538458297,2.14899769909,-0.198172000193,-0.410793702484,-0.401130383133,-0.00479577603382,-0.386602135262,-0.0727315422863,-0.00790697818948,-0.374232790369,0.57390994272,0.818895111366,0.0043498424244,0.0,0.818876536671,-0.573835169746,-0.0116259431053,0.0,-0.0070244706508,0.0102344252856,-0.999922953708,0.0,0.447216221377,-0.0207897314156,0.304864589948,1.0,-0.13998,-0.183973714286,3.091
0.0772006042502,-0.27758279688,-0.12911320431,-2.43203506688,-0.0303318310905,2.14875403923,-0.204551980948,-0.41612340975,-0.397563571425,-0.000207857304898,-0.401538074973,-0.072745394987,-0.0168285362301,-0.374646210549,0.57374631528,0.819010298032,0.00424786071613,0.0,0.818989604965,-0.573670747917,-0.0117748395155,0.0,-0.00720698014352,0.0102349216089,-0.999921649839,0.0,0.444785287621,-0.0238263396515,0.304793469231,1.0,-0.13998,-0.183973714286,3.108
0.0699646883238,-0.284390319812,-0.129165156182,-2.43867540506,-0.0314236098897,2.14849631746,-0.211012717551,-0.425705551166,-0.402479522101,-0.00433604673445,-0.384369632244,-0.0708511691545,-0.00871785848584,-0.371630199779,0.57373236231,0.819020254587,0.00421259021216,0.0,0.818998888035,-0.573656610229,-0.0118178610499,0.0,-0.00726262717248,0.0102305930078,-0.999921291509,0.0,0.442386563792,-0.0269555303726,0.304768683973,1.0,-0.13998,-0.183973714286,3.125
0.0626447421811,-0.291162114053,-0.129321071033,-2.44512828721,-0.0324168860492,2.1482506882,-0.217558732505,-0.437108728801,-0.394571030638,-0.00935105325011,-0.372602692136,-0.0575278751328,-0.0144181214677,-0.382289577569,0.573843956154,0.818941336842,0.0043528953579,0.0,0.818921685239,-0.573767564441,-0.0117814406221,0.0,-0.00715089624212,0.0103255876975,-0.99992112035,0.0,0.440029277578,-0.0301237991445,0.304797555773,1.0,-0.13998,-0.183973714286,3.142
0.055278375904,-0.29788664737,-0.129413748985,-2.45137186406,-0.0334215559897,2.14801488319,-0.224141556271,-0.429600016889,-0.397060442736,0.00104784260816,-0.374396932982,-0.0583515057016,-0.0172283502,-0.379083339554,0.57390981607,0.818894083794,0.00455515606115,0.0,0.818877970772,-0.573834130516,-0.0115761193736,0.0,-0.00686584383943,0.0103739652234,-0.999922617523,0.0,0.437725101917,-0.0332609910488,0.304887573616,1.0,-0.13998,-0.183973714286,3.159
0.0483448939159,-0.304146553184,-0.129422008372,-2.45737918589,-0.0344652323108,2.14759920517,-0.230431381311,-0.442603572373,-0.390077790563,-0.0028781154491,-0.377348011877,-0.0585348835794,-0.0299775545543,-0.39254235883,0.573781146527,0.818984852016,0.00444465513614,0.0,0.818967049497,-0.573705432072,-0.0116531519273,0.0,-0.00699396676692,0.0103265837951,-0.999922220023,0.0,0.435450063348,-0.0361546315241,0.304854446935,1.0,-0.13998,-0.183973714286,3.175
0.040826358079,-0.310715638622,-0.129501128311,-2.46367570067,-0.0355008137333,2.14715647338,-0.237164362525,-0.440592147354,-0.383963080459,-0.00796155167355,-0.363743241559,-0.0577681311722,-0.0156603456571,-0.405240360378,0.573814438981,0.818961820206,0.00439016665611,0.0,0.818942617294,-0.573737877758,-0.0117721751066,0.0,-0.00712229417905,0.010350537906,-0.99992106653,0.0,0.433032710465,-0.0392835557003,0.304807924683,1.0,-0.13998,-0.183973714286,3.192
0.0332043493905,-0.317242881035,-0.12967157995,-2.46977516627,-0.0364898565184,2.14675252487,-0.244014206785,-0.453742977485,-0.384111249783,-0.00838569835569,-0.356429230334,-0.0574732014623,-0.0193963048903,-0.396107248248,0.573930560812,0.818879919817,0.00448722503502,0.0,0.818861838976,-0.573853459998,-0.0117576365791,0.0,-0.00705321868328,0.0104226849687,-0.999920806736,0.0,0.430662539862,-0.042461820518,0.304820459428,1.0,-0.13998,-0.183973714286,3.209
0.0260905683515,-0.323348833097,-0.129693384079,-2.47527751152,-0.0374386079366,2.14638976663,-0.250541258544,-0.442540524429,-0.386532279432,0.00100293830494,-0.344944811892,-0.0656493003432,-0.0244434746687,-0.411193081624,0.57381272658,0.818961668746,0.00463539002797,0.0,0.818946789256,-0.573737118753,-0.011516155331,0.0,-0.00677192484904,0.0104044545886,-0.99992294121,0.0,0.428506296246,-0.0453544572388,0.304915482476,1.0,-0.13998,-0.183973714286,3.225
0.0183631856524,-0.329749558534,-0.129726648945,-2.48121238006,-0.0384358629425,2.14588094428,-0.257557932691,-0.459027191413,-0.374486444175,-0.00620391001193,-0.354267050848,-0.0589309826427,-0.0376673748795,-0.406852872579,0.573765683892,0.818994583123,0.00464324299681,0.0,0.818979777247,-0.573690017947,-0.0115167126497,0.0,-0.00676847343142,0.0104108170654,-0.999922898355,0.0,0.426127284142,-0.0484627196368,0.304915648742,1.0,-0.13998,-0.183973714286,3.242
0.00960705624322,-0.336794693255,-0.12988432937,-2.48785001099,-0.0395329663667,2.14519888848,-0.26545817679,-0.46320346163,-0.36645061263,-0.0152602686655,-0.337555024126,-0.066904472456,-0.0337659167421,-0.412284108744,0.573860254549,0.818928705838,0.00457492126909,0.0,0.8189116797,-0.573782755007,-0.0117370272636,0.0,-0.00698691213739,0.0104820717265,-0.999920651467,0.0,0.42340299171,-0.0519875858648,0.304840412068,1.0,-0.13998,-0.183973714286,3.261
0.00313515390523,-0.34198484475,-0.129940657191,-2.49255885788,-0.040297560814,2.14475390065,-0.271306423863,-0.455434921141,-0.367937199409,0.002464459383,-0.340478789465,-0.0510926539245,-0.0358223639779,-0.426140997816,0.573900390939,0.818900120424,0.00465628070934,0.0,0.818884232114,-0.573822747851,-0.0116968091896,0.0,-0.00690677163934,0.0105259608772,-0.999920747186,0.0,0.421456217233,-0.0545471521911,0.304862813858,1.0,-0.13998,-0.183973714286,3.275
-0.00572158192133,-0.348907583317,-0.129989047781,-2.4987730318,-0.0414035184591,2.14408166937,-0.27943317583,-0.476145433797,-0.371863070663,-0.00340126575977,-0.324071628028,-0.055126864204,-0.0337327664338,-0.431816110844,0.573809412208,0.818963682262,0.0046896160677,0.0,0.818948739651,-0.573732467247,-0.011608822133,0.0,-0.00681674996736,0.0105020087689,-0.999921616794,0.0,0.41883103013,-0.0580210028551,0.304903060672,1.0,-0.13998,-0.183973714286,3.294
-0.0132720453078,-0.354688499181,-0.130077552592,-2.50385698199,-0.0422822903752,2.14354097242,-0.286331514342,-0.475107680756,-0.355100438736,-0.00584321676781,-0.325114512253,-0.0557293704461,-0.0384033595045,-0.43208554002,0.573825758726,0.818951464295,0.00482127085788,0.0,0.8189389766,-0.573749604077,-0.0114495121384,0.0,-0.00661051975833,0.0105185541269,-0.999922827546,0.0,0.416647704284,-0.0609729852128,0.304973520555,1.0,-0.13998,-0.183973714286,3.31
-0.0223328653007,-0.361434293743,-0.130231598083,-2.51007666827,-0.0433392533685,2.14270923362,-0.29464639992,-0.470273514793,-0.351388034895,-0.00208236378184,-0.319711268565,-0.0537174173966,-0.0461845072356,-0.439475544085,0.573843674296,0.818939371503,0.00474238068556,0.0,0.818924433559,-0.573765511445,-0.0116900341062,0.0,-0.00685254663701,0.0105921074717,-0.999920421766,0.0,0.41391434853,-0.0644796241409,0.304894121233,1.0,-0.13998,-0.183973714286,3.329
-0.0289943301366,-0.36637497332,-0.130249002245,-2.51452128927,-0.044159414359,2.14214442031,-0.300805854391,-0.482651225102,-0.351938389214,-0.00103652685494,-0.317118940774,-0.0524723048194,-0.0380358396622,-0.44109051043,0.573727994358,0.819020689364,0.00469529385392,0.0,0.819005233943,-0.573650143768,-0.0116912886261,0.0,-0.00688208377717,0.0105532929997,-0.999920629315,0.0,0.411946115267,-0.0670083109163,0.304882497908,1.0,-0.13998,-0.183973714286,3.343
-0.0377676127617,-0.37260042614,-0.130322774335,-2.52004792068,-0.0451243973713,2.14139639064,-0.30881705989,-0.487325954715,-0.339828000303,-0.0077887039815,-0.306582507802,-0.0484832468168,-0.0502824609723,-0.436702137814,0.573758166103,0.818999412202,0.00471980346256,0.0,0.818984196197,-0.573680112009,-0.01169454426,0.0,-0.00687029977038,0.0105754883239,-0.999920475852,0.0,0.40943472485,-0.0703308814546,0.304886129525,1.0,-0.13998,-0.183973714286,3.361
-0.0456383938178,-0.378060761499,-0.130496038478,-2.52479505185,-0.0459235258286,2.14071270242,-0.315962916654,-0.492959770635,-0.340731553165,-0.0102673511586,-0.287678658652,-0.051844575479,-0.0437096762844,-0.453713126383,0.573935400246,0.818874509452,0.00484159218503,0.0,0.818860772606,-0.573856774706,-0.0116697948845,0.0,-0.00677784758026,0.0106625036013,-0.999920182714,0.0,0.407220872002,-0.0733247011328,0.304920052206,1.0,-0.13998,-0.183973714286,3.377
-0.0534377980842,-0.383498750589,-0.130529373464,-2.52947174506,-0.0467456357639,2.1400739175,-0.32325747399,-0.491567952786,-0.333120059236,-0.000501923918909,-0.295519794024,-0.0465462399364,-0.0298303095243,-0.455538639153,0.573815850114,0.818957691557,0.0049413054074,0.0,0.818945999872,-0.573738142815,-0.0115212704489,0.0,-0.00660054474404,0.0106579550932,-0.999921417314,0.0,0.405034385766,-0.0762167992979,0.30497394746,1.0,-0.13998,-0.183973714286,3.393
-0.0624398630541,-0.389504225394,-0.130585800411,-2.53485185425,-0.0477922127545,2.13919302543,-0.331538618543,-0.504503109871,-0.332991136359,-0.000962853350009,-0.292527096149,-0.0478651912693,-0.0510922045372,-0.459326118007,0.573759907067,0.818997807002,0.00478623755798,0.0,0.818983535201,-0.573681771044,-0.0116593971568,0.0,-0.00680337444952,0.0106097486552,-0.99992057051,0.0,0.402452395928,-0.0795323478646,0.304909505771,1.0,-0.13998,-0.183973714286,3.411
-0.0704927507801,-0.394819016173,-0.130736079443,-2.53945554029,-0.0485804666034,2.13842065627,-0.338938048856,-0.505230114807,-0.335078227643,-0.00389421940599,-0.279939915041,-0.0471692409193,-0.0461264082883,-0.460634310898,0.573863727386,0.818924657731,0.00485533231121,0.0,0.818910834386,-0.5737846538,-0.0117031316001,0.0,-0.00679819875709,0.0106922928161,-0.999919726462,0.0,0.400189996935,-0.0824992538199,0.304913022674,1.0,-0.13998,-0.183973714286,3.427
-0.0789854715984,-0.400266923526,-0.1307941363,-2.54413308531,-0.0493989616202,2.13765420188,-0.346900373227,-0.507562399468,-0.312081532497,-0.00237399691357,-0.280378012044,-0.0524073009629,-0.0554359262916,-0.459251697706,0.573777902908,0.81898441672,0.00491835381323,0.0,0.818971541443,-0.573698850241,-0.0116614938831,0.0,-0.00672905739339,0.0107193056886,-0.999919904928,0.0,0.397856208274,-0.0855735155258,0.304930301388,1.0,-0.13998,-0.183973714286,3.444
-0.0877110758366,-0.405656039386,-0.130836165833,-2.54879687771,-0.050309787635,2.13678495581,-0.354970837005,-0.514326130105,-0.314837479699,-0.00208452497342,-0.273664539673,-0.0522297547124,-0.0562596395356,-0.472098262577,0.573739407255,0.81901186115,0.00483846663692,0.0,0.818997773464,-0.573660337471,-0.0117137173906,0.0,-0.00681816834814,0.0106835203659,-0.999919684261,0.0,0.395460770675,-0.0887088624282,0.304912230218,1.0,-0.13998,-0.183973714286,3.461
-0.0959995487796,-0.410680166698,-0.130978550589,-2.55299437043,-0.051106471251,2.13605512327,-0.362589057509,-0.521379133497,-0.306695643045,-0.0096567114036,-0.258395492828,-0.0546229107302,-0.0369771604709,-0.475467753923,0.573857057164,0.818928875681,0.00493167509804,0.0,0.818916634347,-0.573778687501,-0.0115892476333,0.0,-0.00666120771827,0.0106894081188,-0.999920679287,0.0,0.393253059777,-0.0917074414286,0.304960066111,1.0,-0.13998,-0.183973714286,3.477
-0.104706165809,-0.415963983728,-0.131064069567,-2.55746546745,-0.0518636454259,2.13522369981,-0.370819126845,-0.513776579217,-0.310649191012,-0.00385867551854,-0.265842421948,-0.0466439548962,-0.0544732292882,-0.483821678311,0.573776884495,0.818984500468,0.00502212244749,0.0,0.818973271394,-0.573697996849,-0.011581712138,0.0,-0.00660418829296,0.0107585098925,-0.999920316406,0.0,0.390884739555,-0.0947820981214,0.30497215734,1.0,-0.13998,-0.183973714286,3.494
-0.11416662959,-0.421489621496,-0.13112335947,-2.56213886243,-0.0527275023428,2.13422545529,-0.379594748161,-0.527832289345,-0.301139956016,-0.00199604120504,-0.250228574867,-0.0462169151536,-0.0532400634394,-0.491671397291,0.573788789367,0.818976285848,0.00500153139272,0.0,0.818964334424,-0.573709224543,-0.0116572517084,0.0,-0.00667771657724,0.0107850838195,-0.999919541797,0.0,0.388324448217,-0.0980915469826,0.304965975523,1.0,-0.13998,-0.183973714286,3.512
-0.122629828539,-0.426202441852,-0.131245745701,-2.56613398684,-0.0534495430142,2.13339592449,-0.387457563618,-0.526025970574,-0.28807589639,-0.0085873731089,-0.243531818471,-0.0468593084654,-0.0450786403914,-0.492168774451,0.573890126733,0.818905105231,0.00502970843337,0.0,0.81889291346,-0.573809475308,-0.0117400695449,0.0,-0.00672803806453,0.0108565116133,-0.999918431503,0.0,0.385935095946,-0.101246431462,0.304943619839,1.0,-0.13998,-0.183973714286,3.529
-0.132035677912,-0.431368270729,-0.131291643749,-2.57049038658,-0.0542476337626,2.13252871619,-0.396385542586,-0.524490119753,-0.280686988813,-0.000203605034282,-0.238436383847,-0.0432253258496,-0.0520423050764,-0.498107870232,0.573742431825,0.819008435033,0.00505491544924,0.0,0.818996622024,-0.573661806637,-0.0117222702507,0.0,-0.00670095529819,0.0108657317167,-0.999918513216,0.0,0.38359784555,-0.104296244362,0.304938973493,1.0,-0.13998,-0.183973714286,3.546
-0.141199394254,-0.436194769929,-0.131359068651,-2.5745827351,-0.0550581172067,2.13159435701,-0.404927910126,-0.541231299732,-0.276079110435,2.06162195475e-05,-0.233034330461,-0.0459288915001,-0.0541671845773,-0.507340085654,0.573752908129,0.819001534913,0.00498328458703,0.0,0.818988171855,-0.573671527043,-0.011836398195,0.0,-0.00683539141326,0.0108726283517,-0.999917528288,0.0,0.381182430412,-0.10743943811,0.304900454034,1.0,-0.13998,-0.183973714286,3.563
-0.149358283363,-0.440431177375,-0.131492673029,-2.57797188268,-0.0556795988139,2.13082103876,-0.41251654489,-0.540910514687,-0.283365944434,-0.00519386999365,-0.220210882229,-0.0412803750867,-0.0498377939102,-0.505260978704,0.573884242899,0.818908753731,0.0051064387686,0.0,0.818897364348,-0.573803023913,-0.0117449271476,0.0,-0.00668806241218,0.0109220881569,-0.999917985543,0.0,0.379101886768,-0.1102518282,0.304955038068,1.0,-0.13998,-0.183973714286,3.578
-0.158426728852,-0.445174459875,-0.131551231063,-2.58174744757,-0.0564173844715,2.12998166,-0.421214759257,-0.538337595078,-0.274462646681,-0.00264609203589,-0.224482260731,-0.043202231219,-0.0462034606885,-0.515627074586,0.573725075644,0.819019733403,0.00519237660169,0.0,0.819010439237,-0.573645233932,-0.0115668884764,0.0,-0.00649505287584,0.010889034255,-0.99991961838,0.0,0.376776438172,-0.113322328659,0.30502246898,1.0,-0.13998,-0.183973714286,3.595
