nelsonifechukwu/NELSON_IML_WORK/CNN-GradCAM/train2dof/data_sample_2022-02-21-10-35-18/robot_state.csv
position_joint1,position_joint2,position_joint3,position_joint4,position_joint5,position_joint6,position_joint7,velocity_joint1,velocity_joint2,velocity_joint3,velocity_joint4,velocity_joint5,velocity_joint6,velocity_joint7,ee_T_00,ee_T_10,ee_T_20,ee_T_30,ee_T_01,ee_T_11,ee_T_21,ee_T_31,ee_T_02,ee_T_12,ee_T_22,ee_T_32,ee_T_03,ee_T_13,ee_T_23,ee_T_33,v_x,v_y,time
0.465087898795,0.547653978038,-0.123970342464,-1.35575226845,0.079456713427,1.89408877497,0.159172374243,0.000791895304744,-0.000220503955417,0.00092141944139,0.000731209532421,-0.000195762233361,0.000258986596354,0.00069767335213,0.573776017433,0.818997830154,0.00209354306518,0.0,0.818956923499,-0.573717239534,-0.0117827592742,0.0,-0.00844911520223,0.00847534945532,-0.999928387888,0.0,0.661691172023,0.260913877084,0.303341217189,1.0,0.0,0.0,0.0
0.465090396436,0.547657082284,-0.12397495663,-1.35575249809,0.0794601606488,1.8940883099,0.15917004983,0.00208011454024,0.00165881341217,-0.000128558094432,5.68670242788e-05,0.00045320630903,-0.000318022690869,-0.000960064594231,0.573776220574,0.818997694245,0.00209103466101,0.0,0.818956746006,-0.573717443465,-0.0117851659455,0.0,-0.00845252341305,0.00847467808065,-0.999928364774,0.0,0.661691158852,0.260913317907,0.303339027438,1.0,-0.00022,-0.000289142857143,0.012
0.465082007218,0.547648726955,-0.123973272307,-1.35575762337,0.0794565936834,1.89409479856,0.159172812624,-0.000817838142376,-0.00112390833432,0.000370171441658,-0.000294575125893,-7.01305916528e-05,-0.000167896222967,0.000350449755816,0.573783541305,0.818992548007,0.00209784100744,0.0,0.818951715794,-0.573724764336,-0.0117783227628,0.0,-0.00844293778586,0.00847640143497,-0.999928431149,0.0,0.661693502051,0.2609081073,0.303343008488,1.0,-0.00056,-0.000736,0.029
0.465084265157,0.547617271212,-0.12397580135,-1.35577704257,0.079459791976,1.89409632965,0.159170853685,0.000381510051164,-0.00869653889333,-0.00198030500201,-0.00228550059089,0.000327612460481,0.00185092007356,-0.00126159849841,0.573783715494,0.818992389727,0.00211194310067,0.0,0.818951707344,-0.573724849899,-0.0117747419427,0.0,-0.00843191214408,0.00848589796881,-0.999928443636,0.0,0.661690000221,0.260906870176,0.303356271749,1.0,-0.00088,-0.00115657142857,0.045
0.465083832039,0.547496928944,-0.123976347776,-1.35590301197,0.0794564404503,1.89411824959,0.159168113284,0.000440765293643,-0.00556101990225,-0.000492112039596,-0.00588215767581,0.00131629628732,0.00053301154904,-0.001551516208,0.573788132842,0.818989248268,0.00212996064424,0.0,0.818948734071,-0.573729130176,-0.0117729797441,0.0,-0.00842008547553,0.00849968828393,-0.999928426168,0.0,0.661669101046,0.260893841904,0.303383478961,1.0,-0.00126,-0.001656,0.064
0.46507757213,0.54738266897,-0.123965477066,-1.35606933376,0.0794523592935,1.89416111391,0.159170676468,0.000343429905016,-0.00271274045867,0.00145236171244,-0.0128531523899,-0.000169501234461,2.5165917717e-05,-0.00027728775749,0.573799594778,0.818981224636,0.00212735209608,0.0,0.818940559342,-0.573740482615,-0.011788374558,0.0,-0.00843407179571,0.00850650323651,-0.999928250344,0.0,0.661641864621,0.260871989394,0.303390430428,1.0,-0.00158,-0.00207657142857,0.08
0.465062096436,0.547230709744,-0.123976110873,-1.35626420853,0.0794475813796,1.89423548054,0.15916192266,-0.00318245014726,-0.00916291849281,0.000324332186787,-0.00863772205869,-0.000262960303961,0.0078990798726,0.000649213927754,0.57381840161,0.818967969872,0.00215712766448,0.0,0.818927673012,-0.573759152623,-0.0117748909909,0.0,-0.00840574866611,0.00852334476699,-0.999928345424,0.0,0.661622814255,0.260846747031,0.303410293884,1.0,-0.00188,-0.00247085714286,0.095
0.465044986945,0.547053294044,-0.123970904098,-1.3564801252,0.0794474507992,1.89436780454,0.159146870938,0.00107037640668,-0.0119218458391,0.000575894399182,-0.012332134397,0.00011912305283,0.0134904612426,0.00142645482328,0.573828781388,0.818960463325,0.00224411718894,0.0,0.818921226584,-0.573769126855,-0.0117371469996,0.0,-0.00832481446331,0.00857303301816,-0.999928597735,0.0,0.6616076584,0.260824121153,0.303444512285,1.0,-0.00222,-0.00291771428571,0.112
0.465008014028,0.546805463728,-0.123973611722,-1.35678135887,0.0794391889592,1.89452263095,0.15912725548,-0.000971315307003,-0.0153774229239,-0.001960063116,-0.0146727694358,-0.00028191522843,0.00889139639769,-0.000667509117468,0.573859740364,0.818938516945,0.00233468500586,0.0,0.818900443015,-0.573799731037,-0.0116910218612,0.0,-0.0082347450205,0.00862104733731,-0.999928930733,0.0,0.661586723808,0.260774779301,0.303490187767,1.0,-0.00262,-0.00344342857143,0.132
0.464983619587,0.546606838409,-0.123973950778,-1.35707610045,0.079429615142,1.89461579879,0.159099917988,-0.00066715926593,-0.0159771595943,-0.000418000836118,-0.0207889498907,-0.000306469150742,0.000855911147871,-0.00565850257883,0.573871397573,0.81893034077,0.00233728782591,0.0,0.818892209703,-0.573811282041,-0.0117007859262,0.0,-0.00824112514914,0.00862889929771,-0.999928810443,0.0,0.661549909563,0.26073083958,0.303498650476,1.0,-0.0029,-0.00381142857143,0.146
0.464941982575,0.54630148037,-0.123969017814,-1.35753869222,0.079415222619,1.89478842604,0.15895970432,0.00069258150385,-0.0160872401409,0.000719521175479,-0.0247568010787,-0.00136977958248,0.00742084139268,-0.00702095013997,0.57380927714,0.818973803514,0.0023599844708,0.0,0.818935817513,-0.57374892881,-0.0117064249587,0.0,-0.0082333753298,0.00865009759651,-0.999928691129,0.0,0.661496782845,0.26066464109,0.303509512223,1.0,-0.00328,-0.00431085714286,0.165
0.464900492409,0.546054456562,-0.123975845368,-1.35796065287,0.0793949567935,1.89493643851,0.158938025402,-0.00513025259443,-0.014012076565,-0.00790684861376,-0.0298199838859,-0.00562851725088,0.00554088064928,0.000668647677687,0.573848491286,0.818946391945,0.00233732105771,0.0,0.818908087272,-0.573788196303,-0.0117216587968,0.0,-0.008258441946,0.00864067369238,-0.999928565896,0.0,0.661449488126,0.260593162796,0.30349662672,1.0,-0.00358,-0.00470514285714,0.18
0.464848047255,0.545747550077,-0.123971175866,-1.35845056759,0.0793580244323,1.89511175765,0.158899902473,-0.00867344490929,-0.0226552990958,0.000529082407991,-0.0288582824541,-0.00417094653341,0.0195415282144,-0.00166918817808,0.573874510674,0.818928187473,0.00232737232823,0.0,0.818889786042,-0.573814283346,-0.011723201118,0.0,-0.00826513948786,0.00863367395798,-0.999928571021,0.0,0.661394731657,0.26051297365,0.303495741972,1.0,-0.0039,-0.00512571428571,0.196
0.464784425431,0.54540446356,-0.123976465689,-1.35905543028,0.0792510580763,1.89530480413,0.15880603334,-0.00166555628564,-0.0220301250477,-0.000932804324391,-0.0369261436988,-0.00425805427304,0.00686172505179,-0.00379867757148,0.573858699778,0.818939541815,0.00222855130106,0.0,0.818900453521,-0.573799460855,-0.0117035399531,0.0,-0.00830591002626,0.00854130433799,-0.999929026471,0.0,0.661327130413,0.260396316146,0.303467474276,1.0,-0.00424,-0.00557257142857,0.213
0.464716367099,0.544988212186,-0.123976446044,-1.35978032328,0.0792480486643,1.89553407386,0.158689097511,-0.00435375938002,-0.0205144672511,-0.000881382633558,-0.0404155499793,0.000163312582692,0.0117850699376,-0.00399161226571,0.573858156043,0.818940043823,0.00218363613768,0.0,0.818899950798,-0.573798656736,-0.0117779035924,0.0,-0.00839259098492,0.00854719012322,-0.999928252405,0.0,0.661235139714,0.260285811478,0.30343700335,1.0,-0.0046,-0.00604571428571,0.231
0.464656864302,0.544583906765,-0.123980313175,-1.36044519217,0.0792227594312,1.89576177854,0.158655229249,-0.00266008801137,-0.0318970877694,0.00102235836162,-0.0445723223911,-0.00466095867557,0.0142735466931,-0.00628883227192,0.573912137439,0.818902271725,0.00216212053736,0.0,0.818861759958,-0.573852573771,-0.0118062930479,0.0,-0.00842762402028,0.00854641725183,-0.999927964358,0.0,0.66115614863,0.260181977039,0.303426561805,1.0,-0.00492,-0.00646628571429,0.247
0.464588028783,0.544127329435,-0.123982884855,-1.36120376613,0.0791938617301,1.89603330035,0.158521584487,-0.0033012023492,-0.0287512941823,-0.00121246599873,-0.0467272780407,-0.00108108657725,0.020248699126,-0.0129484672604,0.57389546385,0.818914003218,0.00214448295539,0.0,0.818873099919,-0.573835807469,-0.0118346608343,0.0,-0.00846115127563,0.0085480821515,-0.999927666989,0.0,0.661067971495,0.260064680642,0.303412230975,1.0,-0.00526,-0.00691314285714,0.264
0.464519719971,0.543622512663,-0.123986997108,-1.36201894522,0.0791532425768,1.89632427416,0.158440833716,-0.00179844557113,-0.0296368009897,-0.000956669314224,-0.0531765638231,-1.37639827946e-05,0.0174301288285,-0.00813718791201,0.573922712439,0.818894941914,0.00213099864012,0.0,0.818853786192,-0.57386302853,-0.011851085406,0.0,-0.00848205586763,0.00854674793777,-0.999927501286,0.0,0.660972686336,0.259940183802,0.303406760047,1.0,-0.0056,-0.00736,0.281
0.464437649042,0.543070416009,-0.12398594431,-1.36291216787,0.0790981249414,1.89663882576,0.158317403566,-0.00385384928225,-0.0297299426821,0.000230444861532,-0.0490582015835,-0.000841705527838,0.0178917963457,-0.0129761917897,0.573923064462,0.818894755321,0.00210776835792,0.0,0.818853270876,-0.573863446842,-0.0118664255303,0.0,-0.00850794622051,0.00853653267342,-0.999927368593,0.0,0.660868457392,0.259800200706,0.303399383543,1.0,-0.00596,-0.00783314285714,0.299
0.46437169283,0.542562467263,-0.123987111532,-1.36371447276,0.0790465217075,1.89691956431,0.158221275245,-0.000844161533957,-0.0354072834566,0.000605270273358,-0.0500006700092,-0.00411822559921,0.022685562845,-0.00758637635893,0.573929929362,0.818889978796,0.00209420892202,0.0,0.818848323004,-0.573870370582,-0.0118730190824,0.0,-0.00852105595124,0.00852928468228,-0.999927318813,0.0,0.660773262649,0.259678076754,0.303401129619,1.0,-0.00626,-0.00822742857143,0.314
0.464285691036,0.541868054451,-0.123993126463,-1.36480584001,0.0789872091363,1.89732388009,0.158069511298,-0.00724541364928,-0.0340374214105,0.00107720273266,-0.0544630946431,-0.00176332818968,0.0205335640296,-0.00969604000774,0.573925112077,0.818893334686,0.00210214992322,0.0,0.818851742062,-0.573865481645,-0.0118735167142,0.0,-0.00851695639617,0.00853602288255,-0.999927296241,0.0,0.660647601022,0.25951518044,0.303407970084,1.0,-0.00666,-0.00875314285714,0.334
0.464217279237,0.541370711888,-0.123990425423,-1.36554556051,0.0789375966861,1.89759494641,0.15797774306,-0.00662907064626,-0.03923643121,0.00111284317315,-0.0567538918837,-0.00748028374141,0.0148152814885,-0.0137637858456,0.573931833637,0.818888565005,0.00212493402812,0.0,0.81884729247,-0.573872134633,-0.0118588197837,0.0,-0.00849177498162,0.00854631520187,-0.999927422493,0.0,0.660564019058,0.259400648841,0.303430900167,1.0,-0.00692,-0.00909485714286,0.347
0.464128297068,0.540586031997,-0.123995964544,-1.36676886777,0.0788723198966,1.89805324421,0.157815334572,-0.00324843575984,-0.0383355796016,-0.00101221609311,-0.0593539180322,-0.00403529964687,0.0206694961581,-0.00525016410971,0.573926012041,0.818892594343,0.00214441933256,0.0,0.818851521022,-0.573866181245,-0.0118549333677,0.0,-0.00847747062549,0.00855998046909,-0.99992742698,0.0,0.660421680881,0.259224296692,0.303443222248,1.0,-0.00732,-0.00962057142857,0.367
0.464044819332,0.53993353277,-0.123996325332,-1.36774563871,0.0788128440859,1.8984204129,0.157706834795,-0.00557616100572,-0.0446312678882,0.00628102805337,-0.0706896247602,-0.00422402774578,0.0242828843646,-0.00412051030506,0.573943946563,0.818879929232,0.00218050586254,0.0,0.818839334755,-0.573883980109,-0.0118350383895,0.0,-0.0084402805174,0.00857829776974,-0.999927584614,0.0,0.660311474844,0.259076878102,0.303471259989,1.0,-0.00762,-0.0100148571429,0.382
0.463951803475,0.539238738532,-0.123996334235,-1.36882002653,0.0787492185644,1.89882728189,0.157573416843,-0.00473172567887,-0.0424850794449,-0.00062528485776,-0.061838450921,-0.00527407108319,0.0215564830337,-0.00950905689885,0.573953321223,0.818873296374,0.00220373402367,0.0,0.818832996465,-0.573893254733,-0.0118238306925,0.0,-0.00841767318978,0.00859098243256,-0.999927666283,0.0,0.660190177157,0.258914362978,0.303486057089,1.0,-0.00794,-0.0104354285714,0.398
0.463836309212,0.538490528419,-0.123999180325,-1.36998845908,0.0786914790796,1.89929113906,0.157425192663,-0.00800627885739,-0.0485104071451,-0.000247254471008,-0.0744720478994,-0.00285397925797,0.0273080598138,-0.00842966505844,0.573977832608,0.818856002285,0.00224546173333,0.0,0.818816178284,-0.573917532268,-0.011810132835,0.0,-0.00838224968717,0.00861754075674,-0.99992773533,0.0,0.660065826292,0.258729725269,0.303498772556,1.0,-0.00828,-0.0108822857143,0.415
0.463720748534,0.537666574255,-0.124002765225,-1.3713009677,0.0786064591657,1.89978851105,0.157260081236,-0.0083557148963,-0.0487116600303,-0.000973900755081,-0.0728558558987,-0.00354997600825,0.0263632937242,-0.0140262657873,0.573989509007,0.818847812218,0.00224741536949,0.0,0.818808083038,-0.573929271052,-0.0118009272341,0.0,-0.00837346719825,0.00861397614518,-0.999927839627,0.0,0.659918230041,0.258526390882,0.303499166086,1.0,-0.00864,-0.0113554285714,0.433
0.463621718681,0.536951398274,-0.124010896514,-1.37242833942,0.0785340160483,1.90020606975,0.157116131352,-0.01007618743,-0.0496272000589,-0.00122443062182,-0.0763192996605,-0.00113239538636,0.0372008858002,-0.00629370842078,0.574001135496,0.818839663488,0.00224696451463,0.0,0.818799994573,-0.573940965868,-0.0117933661981,0.0,-0.00836741212382,0.00860938587874,-0.999927929848,0.0,0.659790542062,0.258348510535,0.303503964759,1.0,-0.00894,-0.0117497142857,0.448
0.463487829433,0.536052431573,-0.124014368698,-1.37383798377,0.0784667102864,1.90073374931,0.156950152856,-0.00947477271868,-0.0510831845069,-0.000951635020327,-0.0757678389184,-0.00137538959478,0.0224134622378,-0.00942533100773,0.574036862949,0.818814555731,0.00226940541821,0.0,0.81877503309,-0.573976452571,-0.0117993213163,0.0,-0.00835903170737,0.00863154407366,-0.999927808912,0.0,0.659631581585,0.258127550624,0.303513445184,1.0,-0.0093,-0.0122228571429,0.466
0.463374365823,0.535153519777,-0.124020534473,-1.375243619,0.0783812335986,1.90124412767,0.156777519107,-0.0120200701574,-0.0533186178282,-0.0011820489087,-0.0871126151501,-0.00773801037098,0.0315245037294,-0.0141738962716,0.574046940786,0.818807487415,0.00227051290427,0.0,0.818767985125,-0.573986531042,-0.0117981192614,0.0,-0.00835730546706,0.00863186373499,-0.999927820582,0.0,0.659466097083,0.257914893971,0.303523163838,1.0,-0.00964,-0.0126697142857,0.483
0.463253295037,0.534259617262,-0.124024524974,-1.37669073676,0.0782984177936,1.90177766682,0.156600824126,-0.00794173491493,-0.0577730133476,-0.000367100894987,-0.0903961119746,-0.000370025663048,0.0341835144382,-0.0130000240371,0.57406136658,0.818797419487,0.00225391721943,0.0,0.818757657022,-0.574000973292,-0.0118122236972,0.0,-0.00837822891084,0.00862651934688,-0.999927691608,0.0,0.659296427272,0.257695507862,0.30351138383,1.0,-0.00998,-0.0131165714286,0.5
0.463128808803,0.533339884901,-0.124027598643,-1.3781581535,0.0782152787482,1.9023110895,0.15641863133,-0.00804870108892,-0.0529476963281,-0.000669946947368,-0.0818700080748,-0.00617182957626,0.0335263736183,-0.0122812002698,0.574074244694,0.818788419349,0.00224339501839,0.0,0.818748453131,-0.574013821838,-0.0118258080202,0.0,-0.00839525654266,0.00862583408218,-0.999927554703,0.0,0.65912301012,0.257472294992,0.303507933724,1.0,-0.01032,-0.0135634285714,0.517
0.463007051055,0.532451457654,-0.124025417759,-1.37959841338,0.0781441941606,1.90285287958,0.156235904378,-0.00915669922931,-0.0543061613084,0.00142922926095,-0.0855988563751,-0.00166687550074,0.0274071159505,-0.00687576694181,0.574082538744,0.818782606852,0.00224239311354,0.0,0.818742466002,-0.574021952793,-0.0118456311649,0.0,-0.00841197584763,0.00863647875866,-0.999927322307,0.0,0.658953826742,0.257259269983,0.303495737085,1.0,-0.01064,-0.013984,0.533
0.462887431512,0.531545594268,-0.12402266357,-1.38107776708,0.0780419509647,1.90340105442,0.156045058794,-0.0075672459764,-0.052949496991,0.00128632344978,-0.0909395423093,-0.00804272330149,0.0366779561482,-0.0131908537278,0.574075514571,0.818787612249,0.00221280334139,0.0,0.81874716206,-0.574015123344,-0.0118519910597,0.0,-0.00843424326254,0.00861583020368,-0.999927312864,0.0,0.65877793208,0.257039014479,0.303477530313,1.0,-0.01096,-0.0144045714286,0.549
0.462738338375,0.530472446629,-0.124025922038,-1.38281157065,0.077939304944,1.90400993463,0.155825017163,-0.00645654288223,-0.0606326019609,7.03370840719e-05,-0.101776855115,-0.00963232108688,0.0312928243234,-0.0124876863986,0.574086329798,0.818780146508,0.0021689918747,0.0,0.818739048388,-0.574026032319,-0.011884097174,0.0,-0.00848556839873,0.00859850162081,-0.999927027787,0.0,0.658567711225,0.256771926399,0.303461364502,1.0,-0.01132,-0.0148777142857,0.567
0.462594433116,0.529442261403,-0.124028289631,-1.38445444693,0.0778309717728,1.90461721502,0.155609184276,-0.00653418866413,-0.0589140740167,-0.000179881124783,-0.100941796168,-0.00917766394415,0.0405149227301,-0.0110630695006,0.57408918492,0.818778173981,0.00215788581522,0.0,0.818736996293,-0.574028997423,-0.0118822523179,0.0,-0.00849040329111,0.00858837885177,-0.999927073741,0.0,0.658375561203,0.256518002257,0.303457773838,1.0,-0.01166,-0.0153245714286,0.584
0.462473744784,0.528473926584,-0.124033957438,-1.38595375846,0.0777464942761,1.90517480857,0.155400801764,-0.0083784043571,-0.0648508258963,-0.000319684939126,-0.105340179574,-0.0044300852962,0.040085088791,-0.0144706583234,0.574079940163,0.8187845906,0.00218252137822,0.0,0.818743688585,-0.574019609671,-0.0118746374886,0.0,-0.00847012320111,0.00860408243776,-0.999927110733,0.0,0.658198490417,0.256294171432,0.303474541865,1.0,-0.01196,-0.0157188571429,0.599
0.462325948124,0.527287281186,-0.124037168398,-1.38777540722,0.0776340230436,1.90587864765,0.155139953048,-0.00931378146535,-0.0661774194328,0.000401923283821,-0.102196906673,-0.0125024594428,0.0327336465316,-0.0217096605308,0.574058043341,0.818799792437,0.00223823194642,0.0,0.818759667924,-0.573997549089,-0.0118392027206,0.0,-0.00840935898495,0.00862912973121,-0.999927407766,0.0,0.657988363545,0.256023947351,0.303503905436,1.0,-0.01232,-0.016192,0.617
0.462173648101,0.526128175877,-0.124040373358,-1.3895714916,0.0775115844735,1.90655041074,0.154909076121,-0.00326555303785,-0.0732877097007,-0.000319135095607,-0.108858087675,-0.00728135186745,0.0376486670628,-0.0155645554058,0.574059875647,0.818798450813,0.00225898630218,0.0,0.818758718365,-0.57399942594,-0.0118138487558,0.0,-0.00837666549551,0.00863158746206,-0.99992766097,0.0,0.657778222051,0.255749707657,0.303522944566,1.0,-0.01266,-0.0166388571429,0.634
0.462031593917,0.525014554422,-0.124043543386,-1.39130560676,0.0774037238254,1.90717083467,0.154670590523,-0.0114704324729,-0.0695479754354,0.000190872904336,-0.107030476799,-0.0027046532314,0.0351748442724,-0.0139633769735,0.574047294579,0.818807275701,0.0022573762432,0.0,0.818767506061,-0.573986835931,-0.0118165180251,0.0,-0.00837990802426,0.00863167270699,-0.999927633065,0.0,0.657567197416,0.255487901594,0.303534754734,1.0,-0.01298,-0.0170594285714,0.65
0.461876217463,0.523842189748,-0.124049854441,-1.3931999078,0.0772851424361,1.90785234484,0.154411262537,-0.00548991647041,-0.0723657595852,-0.000208897296384,-0.112238082043,-0.0120349347531,0.0397514043798,-0.015703298886,0.574036362104,0.818815045483,0.00221882279457,0.0,0.818774774419,-0.573976055138,-0.0118365452651,0.0,-0.00841855227813,0.00861148931482,-0.999927482485,0.0,0.657336413958,0.255199712789,0.30351677023,1.0,-0.01332,-0.0175062857143,0.667
0.461722441846,0.522626419557,-0.12406099429,-1.39513397409,0.0771629199876,1.90858649885,0.154145641335,-0.0115057487658,-0.0680083565652,-0.000150114772311,-0.115380379531,-0.00579996944984,0.0423286242818,-0.0216683578787,0.574023491427,0.818824051016,0.00222523463338,0.0,0.818783951574,-0.5739632513,-0.0118225929456,0.0,-0.00840358233915,0.00860859822885,-0.999927633302,0.0,0.657108193791,0.254908608515,0.30351476473,1.0,-0.01366,-0.0179531428571,0.684
0.461553801832,0.521400734781,-0.124062433715,-1.39709685557,0.0770452288513,1.90935066996,0.153876433244,-0.0045276254151,-0.0720116112143,0.000343368402042,-0.12141225734,-0.00999129292127,0.0447562189164,-0.0199660704556,0.574015658176,0.81882948608,0.00224583971177,0.0,0.818789666131,-0.573955350781,-0.011810370339,0.0,-0.00838182913169,0.00861837378161,-0.999927731676,0.0,0.656880122257,0.254612882363,0.303507990499,1.0,-0.014,-0.0184,0.701
0.461397229661,0.520184834608,-0.124071206182,-1.39901292624,0.0769291075029,1.91005300947,0.153620612165,-0.00921025594814,-0.0792512580198,-0.00157061159291,-0.11976590778,-0.00958015631643,0.0426816192828,-0.0190831129703,0.574011415154,0.818832461795,0.00224536951906,0.0,0.818792633426,-0.573951107737,-0.0118108541936,0.0,-0.00838253988237,0.00861822307886,-0.999927727016,0.0,0.65664833349,0.254322377251,0.303511133661,1.0,-0.01432,-0.0188205714286,0.717
0.461212508693,0.51877146234,-0.124078005091,-1.40120911228,0.0767856772103,1.91083194705,0.15333223743,-0.0117680025258,-0.0855615793672,-0.00322170628487,-0.122654938679,-0.0101685997711,0.0429067735301,-0.0163773159664,0.574009109176,0.81883410347,0.00223617520482,0.0,0.818794193614,-0.573948876801,-0.0118111059366,0.0,-0.00838804758936,0.00861081545554,-0.999927744647,0.0,0.656378340079,0.253984759504,0.303525754043,1.0,-0.01468,-0.0192937142857,0.735
0.461056770924,0.517580399758,-0.124077661191,-1.40307513089,0.076667331184,1.91150408907,0.153055810593,-0.013923406048,-0.0794946529867,-0.000847014922361,-0.125595057859,-0.00413640712113,0.0431081939551,-0.0212190886799,0.573984105501,0.818851642874,0.00223170242195,0.0,0.818811690212,-0.573923909345,-0.011811399399,0.0,-0.00839111797901,0.00860706526358,-0.999927751173,0.0,0.656134628663,0.253681450656,0.303531973549,1.0,-0.015,-0.0197142857143,0.751
0.460860016952,0.516140476257,-0.124078723422,-1.4053340349,0.0765230241253,1.91234860925,0.152755664693,-0.00670387842847,-0.0808942686888,0.00093024912409,-0.124948324012,-0.00535562167608,0.0479982557959,-0.00883169273408,0.573973462922,0.818859056655,0.00224857662458,0.0,0.818819328285,-0.573913207777,-0.0118018840977,0.0,-0.00837375307613,0.00861531215733,-0.999927825723,0.0,0.655877372249,0.25335855488,0.303539727879,1.0,-0.01534,-0.0201611428571,0.768
0.460669267237,0.514779134553,-0.124087215332,-1.40752402431,0.0763933224463,1.91318019155,0.152460031004,-0.0117937085781,-0.081191584926,-0.000832637742851,-0.132013719344,-0.00616284431391,0.0477583605006,-0.0162078137108,0.573974307611,0.818858464283,0.00224868319859,0.0,0.818818731755,-0.573914046247,-0.0118024975612,0.0,-0.00837418538347,0.00861576017064,-0.999927818243,0.0,0.655616758366,0.253021938187,0.303524242677,1.0,-0.01568,-0.020608,0.785
0.460496090588,0.513451430985,-0.124085090177,-1.40965822594,0.0762717972629,1.91391435467,0.152160881085,-0.0137952959147,-0.0796893210298,0.000104815066155,-0.13724572209,-0.00653782977153,0.0476904859582,-0.0183280086509,0.573948784623,0.818876503345,0.00219358162442,0.0,0.818835844407,-0.573888527335,-0.0118560114964,0.0,-0.00844990059649,0.00860109224819,-0.999927307554,0.0,0.655340925195,0.252704066439,0.303502532443,1.0,-0.016,-0.0210285714286,0.801
0.460295564891,0.512032042272,-0.124092947359,-1.41193558065,0.0761193944276,1.91472412152,0.151836603787,-0.0136866450185,-0.0798539447955,-0.00690130397846,-0.133073406611,-0.00741938766412,0.0466910902566,-0.0229392271089,0.573930943153,0.81888914065,0.00214352956462,0.0,0.818847891511,-0.573870949523,-0.0118747952562,0.0,-0.00849419507574,0.0085707021181,-0.999927193207,0.0,0.655058556755,0.252346887384,0.303483339341,1.0,-0.01634,-0.0214754285714,0.818
0.460085251469,0.510491940837,-0.124091506092,-1.41439766021,0.0759684635472,1.91566944485,0.151494558237,-0.0148543718084,-0.0871025318132,0.00119047525066,-0.136536763257,-0.0059328266986,0.0536736720286,-0.0178774104189,0.573910171111,0.81890365384,0.00216058434482,0.0,0.818862623638,-0.573850108791,-0.0118660503413,0.0,-0.00847746363724,0.00857943392766,-0.999927260316,0.0,0.654761766078,0.251977799348,0.303471758651,1.0,-0.0167,-0.0219485714286,0.836
0.459911598279,0.509187308832,-0.124096866979,-1.41648066117,0.0758460414243,1.91643783045,0.151209016175,-0.0127270823486,-0.085576930294,-0.000611135355012,-0.140859339516,-0.0138175307149,0.0538154671843,-0.0102474261566,0.573897861532,0.818912301714,0.00215256402373,0.0,0.818871102373,-0.573837767345,-0.0118777678462,0.0,-0.00849179116599,0.00857946322299,-0.999927138492,0.0,0.654503744295,0.251663330967,0.30346019082,1.0,-0.017,-0.0223428571429,0.851
0.459698233023,0.50766998002,-0.124100405269,-1.41886220717,0.0756928200622,1.91727505608,0.150869960419,-0.0152825594395,-0.0895789917625,0.00037327675361,-0.14011686606,-0.0094623842889,0.0391669078459,-0.0160383936687,0.573872038267,0.818930474857,0.00212319280613,0.0,0.818888826367,-0.573811998431,-0.0119007314294,0.0,-0.00852772231857,0.00856832083415,-0.999926928245,0.0,0.65418461004,0.251273019393,0.303458069495,1.0,-0.01736,-0.022816,0.869
0.459469558483,0.506007460346,-0.1241068005,-1.42143832259,0.0755374664751,1.9182275635,0.150526312103,-0.00862343359547,-0.0964170502567,0.000104260764722,-0.141350537303,-0.0130621069268,0.0556770640356,-0.0100520518436,0.573881019085,0.818924087702,0.00215903161887,0.0,0.818882909381,-0.573820837209,-0.0118816837806,0.0,-0.00849146320626,0.00858683221309,-0.999927078024,0.0,0.653888281832,0.250893620301,0.303479724426,1.0,-0.0177,-0.0232628571429,0.886
0.459259678678,0.504476859879,-0.124111397807,-1.42375938687,0.075380629764,1.9191370205,0.150198662671,-0.0105787541828,-0.0961518192306,0.000749469900773,-0.143546143073,-0.00573746892102,0.0555483894804,-0.0231016451839,0.573865197014,0.818934930968,0.00224975505555,0.0,0.81889512098,-0.573804851052,-0.0118118857854,0.0,-0.00838240689305,0.00862090958099,-0.999927704973,0.0,0.653615474328,0.250534834766,0.303523448155,1.0,-0.01802,-0.0236834285714,0.902
0.459029352925,0.502812301895,-0.124122008441,-1.42623023898,0.0752254058286,1.92007599912,0.149856788345,-0.0127918082319,-0.100161556843,-0.000173546143835,-0.142815737776,-0.00967493664723,0.0524124440955,-0.0188129777546,0.573866387116,0.818933790015,0.00235885800874,0.0,0.818895483314,-0.57380571452,-0.0117446282702,0.0,-0.00826470585771,0.00867167251916,-0.999928245792,0.0,0.653321505084,0.250145519652,0.303591572703,1.0,-0.01836,-0.0241302857143,0.919
0.458802098152,0.501097891254,-0.124123151968,-1.42878305496,0.0750601008942,1.92097867336,0.149490304137,-0.0105470073969,-0.100232734521,-0.000432056831823,-0.158798531236,-0.0123570206508,0.048532657807,-0.0204871768938,0.573838616826,0.818953093458,0.0024123548927,0.0,0.8189154663,-0.573777733471,-0.0117182988547,0.0,-0.00821273969516,0.00870009464196,-0.999928427069,0.0,0.652998386106,0.249750814858,0.303651366869,1.0,-0.0187,-0.0245771428571,0.936
0.458572285182,0.499489035419,-0.124128479133,-1.43122395905,0.0749033399273,1.92186035879,0.149151726113,-0.0158243929627,-0.100317648749,-0.00125876537453,-0.153795355595,-0.0107707389878,0.0582846876261,-0.0206224771461,0.573835156123,0.818955402214,0.00245146530006,0.0,0.818918297521,-0.573774146086,-0.0116960749754,0.0,-0.00817213371553,0.00871933667377,-0.99992859215,0.0,0.652695297235,0.249363904163,0.30368850597,1.0,-0.01902,-0.0249977142857,0.952
0.458303968979,0.497718980675,-0.124128755315,-1.43403897684,0.0747331908938,1.92289708977,0.148746967888,-0.0142970433567,-0.0993641051231,-0.0055019001553,-0.160170584428,-0.00202457464945,0.0538046837472,-0.0184249443479,0.57382075735,0.818965509873,0.0024451940393,0.0,0.818928232944,-0.57375967509,-0.0117103129432,0.0,-0.00818754630842,0.00872222700558,-0.99992844086,0.0,0.652345131284,0.248921015267,0.303672803182,1.0,-0.01938,-0.0254708571429,0.97
0.45803551505,0.496049983993,-0.124125590663,-1.43671791897,0.0745616679048,1.92383984509,0.148342846554,-0.0169081322402,-0.095190934471,0.00132244961962,-0.16306014163,-0.0126664944191,0.053011591393,-0.0194887837514,0.573796267377,0.818982842704,0.00238616898475,0.0,0.818944709168,-0.573735310622,-0.0117517475801,0.0,-0.00825560918226,0.00869741681407,-0.999928097344,0.0,0.652004408482,0.248488517761,0.303642496903,1.0,-0.01972,-0.0259177142857,0.987
0.457749651706,0.49428345105,-0.124126625525,-1.43960622046,0.074386810754,1.92484039995,0.14793840019,-0.0138347330546,-0.105154904087,0.000450958041531,-0.157509257502,-0.0159425224561,0.0565968062414,-0.0169587326733,0.573797998421,0.818981917688,0.00228525918871,0.0,0.818942276229,-0.57373722083,-0.0118277867595,0.0,-0.00837576648593,0.00865842243158,-0.999927436496,0.0,0.651631169462,0.248022230846,0.303585058874,1.0,-0.0205651428571,-0.0270284734694,1.005
0.457506307865,0.492663572465,-0.124142405758,-1.44217760931,0.0742207824591,1.92579694425,0.147576646839,-0.0138007586885,-0.109475599176,0.000744537726323,-0.177552256372,-0.0151100309783,0.0641709298151,-0.0290746300645,0.573796574975,0.818982927871,0.00228063675428,0.0,0.818943312345,-0.573735904415,-0.0118199006332,0.0,-0.0083719748233,0.00865009725885,-0.999927540302,0.0,0.651313182932,0.24760910757,0.303572217309,1.0,-0.0227594285714,-0.0299123918367,1.02
0.457164088804,0.490419766257,-0.124154042227,-1.4457960315,0.0740023055104,1.92708928865,0.14704998981,-0.0181959068567,-0.116165166098,3.72197709563e-05,-0.195588236875,-0.00836972272856,0.0623227819493,-0.0294153084318,0.573775654223,0.818997776119,0.00221093528516,0.0,0.818957100931,-0.573715103015,-0.0118741023988,0.0,-0.00845657930849,0.00862389806042,-0.999927054664,0.0,0.650848835826,0.247032710012,0.303523447722,1.0,-0.0255388571429,-0.033565355102,1.039
0.456871360083,0.488584071813,-0.124172114472,-1.4487473607,0.073828970467,1.92813849026,0.146637156251,-0.0152332863947,-0.137368856154,-0.00426176342795,-0.214855695309,-0.0183870350011,0.0760836928873,-0.0246254637465,0.573790309267,0.818987655958,0.00215575533466,0.0,0.818946124753,-0.573729838535,-0.0119190614896,0.0,-0.00852490720135,0.00860465512178,-0.999926640243,0.0,0.650472587646,0.246549400829,0.303486521057,1.0,-0.0275868571429,-0.0362570122449,1.053
0.456400629203,0.485624851159,-0.124203714987,-1.45324902763,0.0735449803878,1.92988213739,0.145958155225,-0.0210324432088,-0.151329280742,-0.00313828232151,-0.231118650096,-0.0129187377537,0.0839943722623,-0.0373992885034,0.573788816113,0.818988266902,0.00231518514987,0.0,0.818949037119,-0.573727947419,-0.0118094815111,0.0,-0.00834370101399,0.00867233403373,-0.999927584016,0.0,0.649936559703,0.245802797652,0.303551401103,1.0,-0.0305125714286,-0.0401022367347,1.073
0.456009783616,0.483256403167,-0.124232105892,-1.45692507117,0.0733163859306,1.93116671186,0.145404257976,-0.0274010738032,-0.162701831365,-0.00514709464858,-0.251384694476,-0.0105970705493,0.0803952546004,-0.0375470369418,0.573794281201,0.818984500429,0.00229299336938,0.0,0.818944922312,-0.573733435535,-0.0118281896054,0.0,-0.00837169817263,0.00866494965643,-0.999927414024,0.0,0.649468963635,0.245178517107,0.30355764792,1.0,-0.0327068571429,-0.042986155102,1.088
0.455537532345,0.480351328667,-0.124282078284,-1.46145878694,0.0730408963429,1.9327638046,0.144721257569,-0.0279056964154,-0.175113517799,-0.00484415528413,-0.271549891588,-0.0119781523568,0.105835432667,-0.0401348171051,0.573804680119,0.818977299503,0.0022624926382,0.0,0.818937268211,-0.573743893908,-0.011850815989,0.0,-0.00840761981216,0.00865305981642,-0.999927215594,0.0,0.648891696715,0.244408219849,0.303554116416,1.0,-0.0351937142857,-0.0462545959184,1.105
0.455048246702,0.477403026791,-0.124305629334,-1.46594473516,0.0727628502584,1.93441772214,0.144067547383,-0.0297813006272,-0.189051047285,-0.000444744452555,-0.285387121567,-0.0134414123491,0.107187645243,-0.0421492340478,0.573829617661,0.818959554995,0.00235882988715,0.0,0.818920780899,-0.573768460217,-0.0118006598284,0.0,-0.00831100094194,0.00870343049866,-0.999927586159,0.0,0.648333518561,0.243652344266,0.303605196702,1.0,-0.0375342857143,-0.0493307755102,1.121
0.454458531599,0.473931533543,-0.124337307653,-1.47129962638,0.0724332283529,1.93639109539,0.143299742829,-0.0342564806712,-0.191270750905,-0.00612376991615,-0.311570938857,-0.0235787959143,0.102517625523,-0.0472873179518,0.573875757171,0.818927010385,0.00243185014694,0.0,0.818889166967,-0.573814299222,-0.0117655910597,0.0,-0.00823988856745,0.00874357155982,-0.999927824492,0.0,0.647663117976,0.24274461107,0.303630551698,1.0,-0.0401674285714,-0.052791477551,1.139
0.453939137338,0.470850306804,-0.124350607944,-1.47606020982,0.0721373888433,1.93803380512,0.142599422007,-0.0341695257285,-0.206303266995,-0.00236458353249,-0.322459436401,-0.025129780965,0.115142579304,-0.0466256843504,0.573884153639,0.81892120475,0.00240530967219,0.0,0.818882777208,-0.573822541517,-0.011808257255,0.0,-0.00828997095566,0.00874640678058,-0.999927385739,0.0,0.647035964224,0.241942387935,0.303637138706,1.0,-0.0423617142857,-0.0556753959184,1.154
0.453290041253,0.4669170208,-0.124350927979,-1.48195377297,0.0717727938099,1.94028616052,0.141634441714,-0.0335675389875,-0.216319936177,-0.000119983073967,-0.333320820357,-0.020415467549,0.121538097845,-0.0487142312268,0.573806865981,0.818974581975,0.00265735435834,0.0,0.818939411912,-0.573744323836,-0.0116806414493,0.0,-0.00804166129551,0.00887881542284,-0.999928246586,0.0,0.646298812682,0.240971573704,0.303742275161,1.0,-0.0449948571429,-0.0591360979592,1.172
0.452677644984,0.463266040637,-0.124360916559,-1.48759332825,0.0713848617903,1.94222436452,0.140777256495,-0.0359871274063,-0.228989855415,0.000864167700079,-0.357959725921,-0.0251130314514,0.131024214936,-0.053143091903,0.573771718434,0.8189993841,0.00260208975681,0.0,0.81896347208,-0.573709349921,-0.0117115376208,0.0,-0.00809905480734,0.00885093593601,-0.999928030532,0.0,0.645543169476,0.240021844557,0.303743479704,1.0,-0.0473354285714,-0.062212277551,1.188
0.452010431869,0.459462070051,-0.12436245011,-1.49349038495,0.0709923547747,1.94426068238,0.139920896492,-0.0380967300331,-0.246241804751,0.0020167629332,-0.368066648298,-0.0270637866218,0.129858106578,-0.0508912292879,0.573784608807,0.818990519202,0.00254932438729,0.0,0.81895375341,-0.573722246911,-0.0117592549232,0.0,-0.00816827144398,0.00883522836714,-0.99992760642,0.0,0.644752363064,0.239020160854,0.303732602631,1.0,-0.049676,-0.0652884571429,1.204
0.451264774876,0.45532036996,-0.124377837222,-1.50003044162,0.0705569616154,1.94659586903,0.138892841164,-0.045799610549,-0.244272650647,-0.00154645637369,-0.398047477763,-0.026513086436,0.143582285729,-0.069034778195,0.573747018791,0.81901705591,0.00248343674658,0.0,0.818979378412,-0.573684846793,-0.0117992032158,0.0,-0.00823919728049,0.00880381065286,-0.999927301631,0.0,0.643885861941,0.237902684424,0.30367101083,1.0,-0.0521628571429,-0.0685568979592,1.221
0.450466997155,0.450865593852,-0.124421809846,-1.50671552565,0.0700888809599,1.94906006219,0.137812529383,-0.0494188963003,-0.272348609728,-0.00165526634237,-0.398965337286,-0.0252470604421,0.157706009768,-0.065079518527,0.573723997061,0.819032650849,0.00265310025787,0.0,0.818997608989,-0.573661682827,-0.0116592035402,0.0,-0.00802744097676,0.00886221825038,-0.999928508084,0.0,0.643029389135,0.236726407918,0.303762275359,1.0,-0.0546497142857,-0.0718253387755,1.238
0.44962704329,0.446243773201,-0.124466371628,-1.51375774425,0.069616439256,1.95149357021,0.136793085923,-0.0520827619412,-0.275154104106,-0.00956034021297,-0.425735160574,-0.0375091058045,0.137995781726,-0.0630506986185,0.573797030579,0.818981491447,0.00265165372312,0.0,0.81894641867,-0.573734698721,-0.0116621495774,0.0,-0.00802989350477,0.00886343976646,-0.999928477565,0.0,0.642082443189,0.235482114424,0.303790853634,1.0,-0.0571365714286,-0.0750937795918,1.255
0.448796836381,0.441771304349,-0.124475967945,-1.52072690894,0.069135662107,1.9538402353,0.135704042389,-0.0521113573866,-0.287033677642,-0.000518294502022,-0.437842110948,-0.0328346019643,0.154282018019,-0.0673152502222,0.57376937046,0.81900130296,0.00251439316147,0.0,0.81896424998,-0.573707318703,-0.0117565565308,0.0,-0.00818626696921,0.00880491967108,-0.9999277266,0.0,0.641114410131,0.234266189249,0.303738853316,1.0,-0.0594771428571,-0.0781699591837,1.271
0.447811235842,0.436575258923,-0.124484971821,-1.52875575838,0.0686027954217,1.95665800542,0.134381665237,-0.0566916642711,-0.29563603008,-0.00178457276363,-0.443689796997,-0.0292791576273,0.163201672805,-0.0737289630217,0.573706919155,0.819045097521,0.00249920832951,0.0,0.819007606273,-0.573644673053,-0.0117930846692,0.0,-0.0082255690056,0.00881281457843,-0.999927334517,0.0,0.640017887727,0.232861090197,0.303712491431,1.0,-0.0621102857143,-0.0816306612245,1.289
0.446859514317,0.431721305377,-0.124515712413,-1.53596252642,0.0681102841378,1.95934158116,0.133207766233,-0.0620879147694,-0.300859976859,-0.00587318564434,-0.459836657347,-0.0291268379484,0.17090813185,-0.0844537330316,0.573725201165,0.819031447784,0.0027618818561,0.0,0.818997670427,-0.57366234936,-0.0116220335247,0.0,-0.00793457607486,0.00893000025821,-0.999928646253,0.0,0.63908099916,0.231555542622,0.303825849989,1.0,-0.0644508571429,-0.0847068408163,1.305
0.445803446111,0.426489512838,-0.124586561224,-1.54412396048,0.0674984531725,1.96201530344,0.131908120674,-0.0601004191894,-0.314566458748,-0.006750736476,-0.490590688111,-0.0410076904401,0.158679698084,-0.0840730089834,0.57375571285,0.819010911231,0.00250123117311,0.0,0.818973961917,-0.57369400629,-0.0117296100188,0.0,-0.00817189459179,0.00877854297544,-0.999928076074,0.0,0.637933429167,0.230037452343,0.303737525665,1.0,-0.0669377142857,-0.0879752816326,1.322
0.444630093542,0.420694643657,-0.124675885952,-1.55300774596,0.06686625568,1.96493687658,0.130448424069,-0.066441458987,-0.322846571458,-0.004036384094,-0.501366751211,-0.0381111970391,0.164778082437,-0.0814697525986,0.573785381521,0.81899062474,0.00233226103274,0.0,0.818951499452,-0.573724325304,-0.0118146942817,0.0,-0.00833820949979,0.0086892748313,-0.999927482753,0.0,0.636681769414,0.22837290394,0.303702636159,1.0,-0.0695708571429,-0.0914359836735,1.34
0.44360044797,0.41569093184,-0.124699042129,-1.56039682366,0.0663547673812,1.96767922851,0.12927309454,-0.0672745593294,-0.336793743749,-0.000207815058988,-0.497551271151,-0.0381485097859,0.184323596505,-0.0865546014344,0.57384921138,0.818945037224,0.0026183022027,0.0,0.818909886697,-0.573787379872,-0.0116355950314,0.0,-0.00802671858476,0.00882140043217,-0.999928874812,0.0,0.635698121447,0.227011042928,0.303816641797,1.0,-0.0717651428571,-0.0943199020408,1.355
0.442241746861,0.40925777578,-0.124716777985,-1.57014158468,0.0656880956414,1.97101666962,0.127587932452,-0.0741873893828,-0.345250994499,-0.000975024230701,-0.517395863241,-0.035795653841,0.159707434929,-0.0873504501257,0.573808420313,0.818973549551,0.00263985133238,0.0,0.818938360891,-0.573746169345,-0.011663666846,0.0,-0.00803778480029,0.00885475625257,-0.999928491097,0.0,0.634322097399,0.225207575129,0.303821972854,1.0,-0.0745445714286,-0.0979728653061,1.374
0.441044608688,0.403713528978,-0.1247783072,-1.57875139296,0.0650731817114,1.97380740162,0.126203699024,-0.0752373924105,-0.347039810458,-0.00765380628972,-0.537429842588,-0.0368217337334,0.180159221281,-0.0849050291702,0.573874622971,0.818927929947,0.00238946913667,0.0,0.818889243486,-0.573813016697,-0.0118226762138,0.0,-0.00831097127657,0.00874161273152,-0.999927253336,0.0,0.633066538064,0.223577345222,0.303712452715,1.0,-0.0768851428571,-0.101049044898,1.39
0.439775285286,0.39789856097,-0.124815755786,-1.58727395536,0.0644605429292,1.9768928025,0.12472954574,-0.0857626297582,-0.363890868663,0.000751464913176,-0.531309274298,-0.0380158303266,0.189083574251,-0.0879458576447,0.573900802656,0.818908665417,0.00268576183814,0.0,0.818874178588,-0.573838498605,-0.0116277281435,0.0,-0.00798100745413,0.00887263435941,-0.999928787404,0.0,0.631898142019,0.22195104404,0.303841937746,1.0,-0.0792257142857,-0.10412522449,1.406
0.438378547308,0.391635514438,-0.124832130539,-1.59669598518,0.0637565200294,1.98003590517,0.123130910594,-0.0874189102837,-0.36845243539,-0.00167508306555,-0.556380643392,-0.0310565641581,0.178277232577,-0.100859911335,0.573914115917,0.818899455466,0.00264882793771,0.0,0.818864460623,-0.573851905573,-0.0116504291671,0.0,-0.00802064956365,0.00885554731271,-0.999928621684,0.0,0.630526958307,0.220153881579,0.303841259279,1.0,-0.0817125714286,-0.107393665306,1.423
0.436873063316,0.384888376717,-0.124876502266,-1.60697587368,0.0629828104281,1.98333596381,0.121303294016,-0.0943693403735,-0.37744506745,-0.000626189222979,-0.570579431363,-0.0455678482478,0.1877915735,-0.108768926557,0.573854637538,0.818941824534,0.00242691279091,0.0,0.818903748063,-0.573793021685,-0.0117884085321,0.0,-0.00826163423001,0.00875240939702,-0.999927567742,0.0,0.628985685932,0.218184620335,0.303761862595,1.0,-0.0843457142857,-0.110854367347,1.441
0.435587005533,0.378997978323,-0.124869963898,-1.61548409292,0.0623953453269,1.98632730483,0.119804934006,-0.0847462435249,-0.383214363977,0.000537664366143,-0.574527749179,-0.0398722236894,0.201627163262,-0.0995752205488,0.573829244414,0.818958589107,0.00275217825656,0.0,0.818924555884,-0.573766266223,-0.0116443297947,0.0,-0.0079572700596,0.00893585536716,-0.999928413609,0.0,0.62775341853,0.216587010234,0.303911417706,1.0,-0.08654,-0.113738285714,1.456
0.434015729396,0.372357450281,-0.124886154187,-1.6255132056,0.0616185439426,1.98961922538,0.118006553667,-0.0930082040395,-0.391578919855,-0.000533771031819,-0.592731386504,-0.0558765641994,0.191047521031,-0.104962628046,0.573799869185,0.818979542117,0.00263943539246,0.0,0.818944019306,-0.573737258895,-0.0117046101668,0.0,-0.00807164925224,0.00887782453722,-0.999928013764,0.0,0.626249238491,0.214629684461,0.303857183138,1.0,-0.0890268571428,-0.117006726531,1.473
0.432302402539,0.365067369818,-0.124963352053,-1.6363103101,0.0607839057498,1.99312576118,0.116158859095,-0.0954207290221,-0.414173279315,-0.00274096964875,-0.598583676753,-0.0432447060741,0.21349818952,-0.101896712042,0.573894810881,0.818913134788,0.00260204104202,0.0,0.818877253419,-0.573832461097,-0.0117088566878,0.0,-0.00809555678454,0.00885057471726,-0.999928062056,0.0,0.624621956068,0.212479915375,0.303877303078,1.0,-0.09166,-0.120467428571,1.491
0.430730480952,0.358464646598,-0.12497222389,-1.64598985244,0.0600401604797,1.99641954704,0.114307264656,-0.0979340208884,-0.420827246672,-0.000163099867369,-0.61314188104,-0.0417335132162,0.199035288194,-0.109509586006,0.573797645344,0.818980696376,0.0027618946983,0.0,0.818947017689,-0.573734895155,-0.0116103058053,0.0,-0.00792417353328,0.00892398337347,-0.999928782461,0.0,0.623172080005,0.210582517726,0.303939482478,1.0,-0.0940005714286,-0.123543608163,1.507
0.428941026178,0.35140510139,-0.125008247204,-1.65664136476,0.0592377400124,1.9997572162,0.112359095001,-0.112019229896,-0.41329510267,-0.00364057622896,-0.632201062103,-0.0515359532151,0.199902387641,-0.111904037915,0.573828215107,0.818959993801,0.00254066949692,0.0,0.818922889595,-0.573765635552,-0.0117916605325,0.0,-0.00819930725007,0.00884717025789,-0.999927246823,0.0,0.621510122184,0.208431770927,0.303836418133,1.0,-0.0964874285714,-0.12681204898,1.524
0.427108340505,0.344077858315,-0.125072879504,-1.66718611468,0.0584423585561,2.00333706362,0.110355292979,-0.106452511131,-0.432657663103,-0.00101865715844,-0.614448813987,-0.0514519454603,0.213330590728,-0.109733433837,0.573860835857,0.818936198854,0.00282669011666,0.0,0.818903009426,-0.573797462077,-0.0116224166128,0.0,-0.00789622209416,0.00898460773691,-0.999928460691,0.0,0.619927201851,0.206275090383,0.303966547701,1.0,-0.0989742857143,-0.130080489796,1.541
0.425305564272,0.337148384208,-0.125074016735,-1.67744642854,0.0576231246937,2.0065722382,0.108389553023,-0.111259644018,-0.433511311912,-0.00210343575557,-0.653892024865,-0.0525701870142,0.198695398272,-0.132187880498,0.573822271858,0.818963561524,0.00272619108334,0.0,0.818928823429,-0.573758973314,-0.0117034012433,0.0,-0.00802063698923,0.00894840103065,-0.999927795144,0.0,0.618305095397,0.204184990931,0.303927223735,1.0,-0.101314857143,-0.133156669388,1.557
0.423357633333,0.329601307683,-0.125089918709,-1.68852831343,0.056682697298,2.01000330638,0.106269685705,-0.112266714171,-0.453414848115,-0.000417131320159,-0.637532224813,-0.0552701585609,0.214238816391,-0.122789948469,0.573765120048,0.819004041157,0.00259123270998,0.0,0.818967644664,-0.573702416978,-0.0117592792673,0.0,-0.00814445757841,0.00886937079264,-0.999927498408,0.0,0.616525247053,0.201915928425,0.303906218896,1.0,-0.103801714286,-0.136425110204,1.574
0.421327058854,0.321908859189,-0.125087603791,-1.6996279999,0.0558340040706,2.01367929804,0.104090809484,-0.124553722878,-0.449338321667,0.00092387503836,-0.662722675103,-0.0504304194119,0.212587043785,-0.125924773979,0.573736943963,0.819023039677,0.00281540606008,0.0,0.818989352957,-0.573673226082,-0.0116711748131,0.0,-0.00794399094128,0.00900214507638,-0.999927924599,0.0,0.614780160528,0.199643302518,0.303976683207,1.0,-0.106288571429,-0.13969355102,1.591
0.419343591126,0.314595274203,-0.125144804622,-1.71038449812,0.0549666302659,2.01695874834,0.101984584667,-0.125386114579,-0.45663276135,-0.00757227790803,-0.674884942699,-0.0521055351036,0.20009944579,-0.13201856472,0.57374578236,0.819017369931,0.00265929999511,0.0,0.81898130967,-0.573682232291,-0.0117922714334,0.0,-0.00813263855587,0.00894385518909,-0.999926931153,0.0,0.613022244902,0.19738091687,0.303916626099,1.0,-0.108629142857,-0.142769730612,1.607
0.416892269945,0.305657368231,-0.12521581384,-1.72308103204,0.0538527781134,2.02104163548,0.0993534567485,-0.136104463008,-0.476498162673,-0.00209464974466,-0.682357387954,-0.0606200387212,0.21224726531,-0.13289401214,0.573685979684,0.819058602315,0.00285474868135,0.0,0.819025943058,-0.573622724716,-0.011585386908,0.0,-0.00785171326095,0.0089846602518,-0.999928810706,0.0,0.610996167989,0.19465563281,0.304040809589,1.0,-0.111408571429,-0.146422693878,1.626
0.414989653172,0.299055958828,-0.125235823538,-1.73273276888,0.0530820933382,2.02391211307,0.0973937921794,-0.141410762113,-0.47815126618,-0.00228659227536,-0.691153010568,-0.0599623058443,0.204209101576,-0.135816317061,0.573696479705,0.819051747116,0.00270769675919,0.0,0.81901652902,-0.573632996113,-0.011741288807,0.0,-0.00806365415656,0.0089537568447,-0.999927401225,0.0,0.609380887497,0.192585011106,0.303977577734,1.0,-0.113456571429,-0.14911435102,1.64
0.412580559259,0.29083801621,-0.12533129295,-1.74438169792,0.0521473914864,2.02756230941,0.0949893802815,-0.145354355154,-0.490589438887,-0.00539346899784,-0.678548052131,-0.0530664936602,0.224593733582,-0.14491889359,0.573813685411,0.818969058213,0.00287802462779,0.0,0.818935992882,-0.573749525427,-0.011664841877,0.0,-0.00790203144046,0.00905053811419,-0.999927820225,0.0,0.607487056067,0.18999889116,0.304062159834,1.0,-0.115943428571,-0.152382791837,1.657
0.40999818341,0.282095089459,-0.125371274155,-1.75695480657,0.0510708914321,2.03137314204,0.0923151609415,-0.147556489577,-0.494607226033,0.00081128516882,-0.705671887704,-0.062049499357,0.207052875185,-0.157720564428,0.573773262125,0.818997548276,0.00282957416446,0.0,0.818963730449,-0.573709133337,-0.0117040777228,0.0,-0.00796241171929,0.00903297938132,-0.999927500013,0.0,0.605371458184,0.187251391646,0.304040691929,1.0,-0.118576571429,-0.155843493878,1.675
0.407563645209,0.274166046506,-0.125420130276,-1.76827890545,0.0500612070233,2.03473513651,0.0898818344165,-0.149228978143,-0.505971144062,-0.00492107067426,-0.701667455445,-0.0593713369351,0.220584856327,-0.150662157047,0.573788510939,0.818987110938,0.00275748670402,0.0,0.818952437833,-0.573724724547,-0.0117299578953,0.0,-0.00802480053065,0.00898893859759,-0.999927398144,0.0,0.603451204103,0.184707563568,0.304032337788,1.0,-0.120917142857,-0.158919673469,1.691
0.404749907511,0.265123173692,-0.125553288906,-1.78103483234,0.0489367603395,2.03866578997,0.087063083756,-0.159173878806,-0.510968072691,-0.00275841764182,-0.721685473136,-0.0647271589551,0.216462110825,-0.148866548874,0.573854073767,0.818940743787,0.00288220194152,0.0,0.81890818839,-0.573790417329,-0.011605294922,0.0,-0.00785042014532,0.00902017820511,-0.999928501088,0.0,0.601316871957,0.181779568934,0.304086183355,1.0,-0.123550285714,-0.16238037551,1.709
0.401959151135,0.256477338832,-0.125668739706,-1.79332843,0.047836522803,2.0421595263,0.0843501716849,-0.169275413915,-0.522218269538,-0.00290615483611,-0.721659181039,-0.0587216881896,0.209450153122,-0.166421236994,0.573953696667,0.818871498801,0.00271467013807,0.0,0.818836622572,-0.573890434592,-0.0117090357922,0.0,-0.008030427074,0.00894348789448,-0.999927760523,0.0,0.599179989771,0.17891519497,0.304048223181,1.0,-0.126037142857,-0.165648816327,1.726
0.399307056612,0.248207859712,-0.125681810804,-1.80489003091,0.0467648610677,2.04563788799,0.081733359985,-0.166427130479,-0.516849766772,1.5444178968e-05,-0.740271390951,-0.0645895295032,0.221454339788,-0.175798498002,0.573915378738,0.81889800603,0.00281791920328,0.0,0.818864844206,-0.573852188142,-0.0116094784255,0.0,-0.00789006154099,0.00897052588731,-0.999928635751,0.0,0.597175532834,0.176282504015,0.304094754298,1.0,-0.128377714286,-0.168724995918,1.742
0.396404035979,0.239347817209,-0.125688667244,-1.81741406764,0.0457055962472,2.04916681774,0.0788244264167,-0.175649951114,-0.526836282322,-0.00207826614484,-0.728829466162,-0.0690649585678,0.204012671516,-0.174049678114,0.573855802767,0.818940060438,0.00272799222186,0.0,0.818904699251,-0.573791773127,-0.0117831038817,0.0,-0.00808451196287,0.00899594138687,-0.999926854177,0.0,0.594923584678,0.173434520181,0.304043212256,1.0,-0.130864571429,-0.171993436735,1.759
0.39343468527,0.230308841203,-0.125685445365,-1.82978399717,0.0445847508426,2.05286763531,0.0759656445887,-0.172428312162,-0.528490233988,0.00653308413427,-0.736521571528,-0.0770091920644,0.213413723057,-0.174330146182,0.57384272599,0.818948242097,0.00300823792209,0.0,0.818916741573,-0.573777982343,-0.0116165507547,0.0,-0.00778744306689,0.00912974532462,-0.999927999148,0.0,0.592739631237,0.170588188856,0.304166271022,1.0,-0.133351428571,-0.175261877551,1.776
0.390533625189,0.221748642182,-0.125687220434,-1.84184748729,0.0434380843771,2.05608774287,0.0730650750356,-0.188021617077,-0.528114508346,-0.00649751372428,-0.763397658862,-0.0781814258021,0.202572115585,-0.181390384069,0.573710290942,0.819041949572,0.0027447786663,0.0,0.819006501482,-0.573645879282,-0.011811122444,0.0,-0.00809942972086,0.00902432781282,-0.99992647767,0.0,0.590498144661,0.167793595239,0.304075319173,1.0,-0.135692,-0.178338057143,1.792
0.387300635904,0.212465455911,-0.125783080607,-1.85442619768,0.0422956586589,2.05975449412,0.0700017278071,-0.191890088594,-0.539449273177,-0.00322460074873,-0.730103548367,-0.0760672695322,0.216194540225,-0.17801720491,0.573793309112,0.818982790656,0.00302884924685,0.0,0.818951271221,-0.573728167925,-0.0116426627952,0.0,-0.00779755446444,0.00916113833347,-0.999927633226,0.0,0.588251355698,0.164748597912,0.304204338215,1.0,-0.138178857143,-0.181606497959,1.809
0.383777367278,0.202673866784,-0.12585634073,-1.86812737864,0.0409808250815,2.06336611223,0.0665770774669,-0.199457265842,-0.544948213918,-0.00420705052657,-0.772023951691,-0.0769999825253,0.197680419553,-0.184809924792,0.573743187573,0.819018888198,0.00274998009765,0.0,0.818983190856,-0.573678399383,-0.011847956701,0.0,-0.00812625259947,0.00905004616046,-0.999926027606,0.0,0.585678324601,0.161440001075,0.304090497042,1.0,-0.140812,-0.1850672,1.827
0.380512993604,0.19371591396,-0.125937084996,-1.88017274075,0.0398361424803,2.06676870222,0.0635133635827,-0.207857359538,-0.54493056917,-0.00618179984887,-0.776499278134,-0.0721163425677,0.209224198571,-0.189245833735,0.573796305468,0.818980874173,0.00297900498922,0.0,0.818948461565,-0.57373104395,-0.0116984361988,0.0,-0.00787179941865,0.00915234723456,-0.999927132002,0.0,0.583469778468,0.15846172321,0.304198462551,1.0,-0.143152571429,-0.188143379592,1.843
0.376664350013,0.183658232352,-0.126110717334,-1.89402204472,0.0385509262362,2.07038376609,0.0599191129816,-0.216033610963,-0.561251360365,-0.00784396132739,-0.77729009121,-0.0670114142971,0.188715817109,-0.199465560666,0.573936681589,0.818883025118,0.00283259626065,0.0,0.818847922537,-0.573871022511,-0.0118691272073,0.0,-0.00809403771588,0.00913176886098,-0.999925545904,0.0,0.580852421939,0.154947991386,0.304125400196,1.0,-0.145785714286,-0.191604081633,1.861
0.372951482256,0.173962694892,-0.12620475471,-1.90696590781,0.037235919142,2.07391401847,0.0564970819574,-0.219725758263,-0.560797233131,0.00040820963393,-0.763665446569,-0.0813690797382,0.207363004836,-0.204591778615,0.573995577298,0.818841135518,0.00300315297678,0.0,0.81880888809,-0.573930033958,-0.0117075960992,0.0,-0.00786321298535,0.00917929346128,-0.999926952559,0.0,0.57841990795,0.151656476153,0.304218888966,1.0,-0.148272571429,-0.194872522449,1.878
0.369636930202,0.165399640564,-0.126202354009,-1.91867879529,0.036043280051,2.07685765353,0.053325677843,-0.224316889871,-0.56495334788,-4.73705257553e-05,-0.80164655964,-0.082403413228,0.189099948073,-0.206965959131,0.57386445141,0.818933734032,0.0028067015467,0.0,0.818898460852,-0.573799085421,-0.0118603239853,0.0,-0.00810249262565,0.0091047971896,-0.999925723382,0.0,0.576111637244,0.148761816702,0.304133203684,1.0,-0.150466857143,-0.197756440816,1.893
0.365511143,0.154878235312,-0.126240930144,-1.93243676684,0.0346212721574,2.08057723179,0.0494623280244,-0.235094297357,-0.582591703776,-0.00170066027229,-0.780244297296,-0.0876896591501,0.203900057423,-0.218716155077,0.573796222978,0.818980310244,0.00314528701999,0.0,0.818950257523,-0.57373065017,-0.0115915339787,0.0,-0.00768883856114,0.00922718968252,-0.999927867765,0.0,0.573471820953,0.145245504154,0.304301397746,1.0,-0.1531,-0.201217142857,1.911
0.361456287864,0.145010616492,-0.126284288656,-1.9458298002,0.0332501784437,2.08376446654,0.0457430624165,-0.244272255296,-0.589922161082,-0.000270758602235,-0.802727106891,-0.0756622215194,0.187233837841,-0.217505132225,0.573786726242,0.81898802922,0.00285441495418,0.0,0.818953317585,-0.57372112758,-0.0118439134419,0.0,-0.00806254039079,0.00913368876799,-0.999925782832,0.0,0.570770577985,0.141804729113,0.304178013479,1.0,-0.155586857143,-0.204485583673,1.928
0.357777677335,0.136039807101,-0.126374467008,-1.95742662735,0.0321018195521,2.08676783955,0.0423523222681,-0.24555807425,-0.597820302661,-0.00484868931026,-0.769220529618,-0.0798395138649,0.19843794855,-0.233287666705,0.573821385141,0.818962625209,0.003159646736,0.0,0.818932017951,-0.573754873684,-0.0116808304464,0.0,-0.00775345013101,0.00929042505331,-0.999926783326,0.0,0.568492554038,0.138745041305,0.304318277301,1.0,-0.157781142857,-0.207369502041,1.943
0.353464861774,0.125959386931,-0.126511739192,-1.97086468317,0.0306424613173,2.08997007354,0.038399498296,-0.261137730491,-0.599370958373,-0.0122027525867,-0.779500440008,-0.088226100184,0.174983910565,-0.224346574495,0.57386122304,0.818935432521,0.00296663998118,0.0,0.818902187567,-0.573795217211,-0.0117899450463,0.0,-0.00795311303561,0.00919535729331,-0.999926093968,0.0,0.565606700532,0.134931135583,0.304244286223,1.0,-0.160414285714,-0.210830204082,1.961
0.349237542782,0.116223763517,-0.126645713625,-1.98336653782,0.0292996377307,2.09306685073,0.034625052832,-0.267598939206,-0.60840656812,-0.00416819502454,-0.792626515621,-0.0895569973506,0.199018449979,-0.242249909113,0.573950439605,0.818872021545,0.00320189156291,0.0,0.818842455378,-0.573884366957,-0.0115979969355,0.0,-0.00765990716073,0.00927869883259,-0.999927613165,0.0,0.563257055158,0.13171938768,0.304367018923,1.0,-0.162608571429,-0.213714122449,1.976
0.344665082811,0.10595226044,-0.126701222013,-1.99689660657,0.0278316807438,2.0961350858,0.0304521856741,-0.267449751194,-0.606257057842,-0.0026276720294,-0.773315730565,-0.0884110082471,0.173939566086,-0.235179776725,0.573898564436,0.818909052097,0.00302473695378,0.0,0.818876634555,-0.573832433323,-0.0117534143408,0.0,-0.00788943712648,0.009222331593,-0.999926349979,0.0,0.560425648635,0.128076085117,0.304290498875,1.0,-0.165095428571,-0.216982563265,1.993
0.339728975211,0.094854228619,-0.126711879539,-2.01106832785,0.0262941413224,2.09948769407,0.0259043790206,-0.278062035022,-0.603574064859,-0.000571469290552,-0.816058661088,-0.0806957809934,0.178920163443,-0.253219434903,0.573761553973,0.819004277774,0.00322785869235,0.0,0.818974663139,-0.573694955995,-0.0116338086276,0.0,-0.00767648057838,0.00931874601678,-0.999927113653,0.0,0.557467928076,0.12425152998,0.304381452689,1.0,-0.167728571429,-0.220443265306,2.011
0.335166465569,0.0850039318542,-0.126745437565,-2.02394375304,0.0249461587171,2.10220902803,0.0217769649428,-0.289980158203,-0.627670399198,-0.00856192153014,-0.772882838011,-0.0926564242007,0.15558767301,-0.263905099627,0.57372527942,0.819030462899,0.00302514431552,0.0,0.818996822956,-0.573657739962,-0.0119058083022,0.0,-0.00801597656627,0.00930842599437,-0.999924545816,0.0,0.55451513649,0.120518169019,0.304283379423,1.0,-0.170215428571,-0.223711706122,2.028
0.329842659717,0.0736814754393,-0.126901287858,-2.03809477131,0.0232817968669,2.10550148472,0.0169830091775,-0.296918001098,-0.62204624265,-0.00931735559048,-0.813302037953,-0.0959287346965,0.182252749602,-0.265420307841,0.573731991571,0.819024670418,0.00330726424882,0.0,0.818995966303,-0.573664996498,-0.0116114544032,0.0,-0.00761295245483,0.00937067935366,-0.999927114006,0.0,0.551706965842,0.116688311584,0.304426097037,1.0,-0.172702285714,-0.226980146939,2.045
0.324595186635,0.0630292883837,-0.127075470811,-2.05180933636,0.0217391246638,2.10823867762,0.0123343263308,-0.313604874877,-0.639394214107,-0.0169966627218,-0.784251512517,-0.0928878644013,0.158448172906,-0.275748410206,0.573835462136,0.818953188554,0.00304700744341,0.0,0.818920056196,-0.573768086899,-0.011868905507,0.0,-0.00797195586292,0.0093062335573,-0.99992491815,0.0,0.548688959126,0.112725821264,0.304319521638,1.0,-0.175189142857,-0.230248587755,2.062
0.319837260866,0.0534097186266,-0.127194417037,-2.06366083867,0.0203675609893,2.11084321035,0.00813094268468,-0.3209158483,-0.631882857999,-0.0118400710765,-0.794642357112,-0.091736041966,0.171248650468,-0.282031016819,0.573898359139,0.81890808102,0.00331287178006,0.0,0.818879065373,-0.573830850563,-0.0116609663666,0.0,-0.00764837881377,0.00940523189061,-0.999926519258,0.0,0.546128818492,0.109239371357,0.304449723237,1.0,-0.177383428571,-0.233132506122,2.077
0.314067083564,0.0419789415443,-0.1272401949,-2.07820560323,0.0187140901359,2.11367650704,0.00300539584424,-0.328269756705,-0.642499623066,-0.00515766126502,-0.828725812675,-0.0948781314376,0.151704580151,-0.287344689371,0.573856997612,0.818937876673,0.00310601735353,0.0,0.818904956808,-0.573788751884,-0.0119116257756,0.0,-0.00797283720161,0.00937928339127,-0.999924228584,0.0,0.542837602073,0.105085458506,0.304333692645,1.0,-0.17998,-0.236545142857,2.095
0.308417350046,0.0309865722875,-0.127299101482,-2.09164433984,0.0170668450162,2.11647512536,-0.00203676944366,-0.33375011628,-0.634886843024,-0.00433413000901,-0.780613639457,-0.100090820727,0.160882825755,-0.289303467634,0.573771909249,0.818996637674,0.0033242346851,0.0,0.81896752315,-0.573704077797,-0.0116864898333,0.0,-0.0076642164452,0.00942800134873,-0.999926183564,0.0,0.539840423693,0.101105749125,0.30444197627,1.0,-0.17998,-0.236545142857,2.112
0.302985677406,0.0207954516612,-0.127410141277,-2.10436515841,0.015560542583,2.11876119625,-0.0068507888139,-0.347715460282,-0.631226690327,-0.0121020383506,-0.809563208481,-0.0947500855421,0.13282648734,-0.304263462784,0.573776105029,0.81899442344,0.00314047332372,0.0,0.818961953572,-0.57370774561,-0.0118948783372,0.0,-0.00794027802991,0.00939710605384,-0.999924320328,0.0,0.536895267443,0.0972983155193,0.304363349265,1.0,-0.17998,-0.236545142857,2.128
0.297020545761,0.0099186436148,-0.127591166847,-2.117470808,0.0139079097976,2.12124430088,-0.0119985010252,-0.355798849697,-0.620024616074,-0.00399879852257,-0.795822625533,-0.094694489823,0.140644696916,-0.306606705915,0.573922239369,0.818891450808,0.00328661721666,0.0,0.818861650212,-0.573854270428,-0.01173119882,0.0,-0.00772068774357,0.00942426214117,-0.999925784378,0.0,0.533900717007,0.0931816549777,0.304463241437,1.0,-0.17998,-0.236545142857,2.145
0.29070285014,-0.00146351666797,-0.12764052953,-2.13135418257,0.012294497817,2.12364922605,-0.017573174755,-0.352688911785,-0.628152435494,-0.00147948462061,-0.780097410409,-0.0930160497823,0.136076759282,-0.312871545155,0.573899524673,0.818907459086,0.00326434295413,0.0,0.81887619226,-0.573830208255,-0.011892045456,0.0,-0.00786545756498,0.00949811483126,-0.999923957305,0.0,0.530614678764,0.0889590322868,0.304435111162,1.0,-0.17998,-0.236545142857,2.163
0.284648352817,-0.0121717664495,-0.127659803454,-2.1440835097,0.0106557946065,2.12599770302,-0.0228760932584,-0.36054252692,-0.617010294236,-0.002368030108,-0.746083462796,-0.0971492141952,0.133502632651,-0.302779277135,0.573828426661,0.818956449857,0.00346653932666,0.0,0.818928783709,-0.573759626364,-0.0116741282124,0.0,-0.00757178806759,0.00953797909489,-0.999925844741,0.0,0.527621794345,0.084996028378,0.304530996041,1.0,-0.17998,-0.236545142857,2.18
0.278477125131,-0.0227838862256,-0.127720414173,-2.15693362654,0.00902191105164,2.12790379247,-0.0283193271729,-0.367019977333,-0.617166180306,-0.00450361920822,-0.746822884095,-0.102540868948,0.112245121031,-0.313944055623,0.573753404384,0.819009976876,0.00323042363435,0.0,0.818978230495,-0.573684186069,-0.0119104798821,0.0,-0.00790171103193,0.00947950752192,-0.99992384805,0.0,0.524293458536,0.080736655963,0.304456081419,1.0,-0.17998,-0.236545142857,2.198
0.27210672187,-0.0333864057921,-0.127896192795,-2.16931747181,0.00739502196269,2.13006761884,-0.0337681260144,-0.378706193207,-0.60974168461,-0.0103682262509,-0.732488123185,-0.103662319938,0.117525750919,-0.330398942094,0.573922731302,0.818890380838,0.0034625953871,0.0,0.818862682382,-0.573853954389,-0.011674473704,0.0,-0.00757323597046,0.00953581957546,-0.999925854372,0.0,0.521505784948,0.0768760592267,0.304558445532,1.0,-0.17998,-0.236545142857,2.214
0.266097401132,-0.0432178705844,-0.127977409883,-2.18111249885,0.00596832230151,2.13175032746,-0.0390657178789,-0.375200551965,-0.605816779727,0.000579014177377,-0.73085273734,-0.0875874241309,0.0931679517888,-0.335656917832,0.573913772895,0.818897271207,0.00331472353719,0.0,0.818866033608,-0.573843511401,-0.0119494906667,0.0,-0.00788342448573,0.00957247608794,-0.999923106704,0.0,0.518549579443,0.0730938184573,0.304460423498,1.0,-0.17998,-0.236545142857,2.23
0.260042613821,-0.053137876472,-0.127991489244,-2.19242413598,0.00444696038789,2.13355982266,-0.0443291580189,-0.384541093814,-0.615903761119,-0.00121616732578,-0.704580504302,-0.109121205983,0.111480808163,-0.345774765112,0.573860585131,0.818933371323,0.0035929190587,0.0,0.818906985794,-0.573790916198,-0.0116653335972,0.0,-0.00749169089009,0.00963672721725,-0.999925501253,0.0,0.515754180695,0.0693802382868,0.304608925075,1.0,-0.17998,-0.236545142857,2.246
0.253458792335,-0.063448816128,-0.128074550245,-2.20466275384,0.00285424718711,2.1351655491,-0.0500984573038,-0.384874481205,-0.611596693656,-0.00405048409287,-0.713219553305,-0.0827149092418,0.0903619880335,-0.338327957293,0.573832570977,0.818953937714,0.00337272734455,0.0,0.818923451556,-0.573762103632,-0.0119237505826,0.0,-0.00783001010772,0.00960442688565,-0.999923220015,0.0,0.512612157515,0.0653539710188,0.304487857087,1.0,-0.17998,-0.236545142857,2.263
0.247151555687,-0.0732466209643,-0.128211487035,-2.21578150316,0.00132994498479,2.13668707992,-0.0555853315032,-0.401435878395,-0.625140013704,-0.0131740577539,-0.686353782754,-0.100205591303,0.0977358757018,-0.347398439475,0.573874271185,0.818924165659,0.00350409386383,0.0,0.818895953409,-0.573804036896,-0.0117937116138,0.0,-0.00764763947938,0.00963778149955,-0.999924310525,0.0,0.509773596675,0.0615384768296,0.304573361698,1.0,-0.17998,-0.236545142857,2.279
0.23991434439,-0.0840688887879,-0.128336754484,-2.22825624902,-0.000290625351018,2.13825271127,-0.0618797953824,-0.396567864435,-0.593540961461,-0.00192843541589,-0.690538782046,-0.0933966629863,0.0848809055735,-0.339983319812,0.573940403799,0.818877884486,0.00348856532185,0.0,0.818848592598,-0.573869112897,-0.0119151401573,0.0,-0.00775521419072,0.00969537382316,-0.999922925219,0.0,0.506519611235,0.0572516849882,0.304535070189,1.0,-0.17998,-0.236545142857,2.297
0.233079170571,-0.0943022450893,-0.128351544518,-2.23982665378,-0.00183986041117,2.13959056366,-0.0679142474393,-0.404320096553,-0.607144757395,-0.00293682008604,-0.667464855955,-0.0961183947823,0.0859912409401,-0.34880275871,0.573822426771,0.818960436212,0.00351757805791,0.0,0.818931123288,-0.573750548516,-0.0119528360062,0.0,-0.00777083706213,0.00973964703247,-0.999922373671,0.0,0.503445933407,0.0533099172082,0.304555483139,1.0,-0.17998,-0.236545142857,2.314
0.226509938319,-0.103857438064,-0.128429683214,-2.2505466197,-0.00339717570908,2.14083845405,-0.0736380837066,-0.410762071781,-0.588768752992,-0.00352077120957,-0.664915649296,-0.0931245034107,0.0657049566665,-0.350019122762,0.57378330145,0.818987767946,0.00353635863101,0.0,0.818959282009,-0.573712094053,-0.0118690542709,0.0,-0.0076919066425,0.00970658575191,-0.999923305442,0.0,0.500585683034,0.0495382103574,0.304582007941,1.0,-0.17998,-0.236545142857,2.33
0.219317899431,-0.113923008134,-0.128612686473,-2.26197506437,-0.00498222111172,2.14193298581,-0.0798188535544,-0.429881672668,-0.59675432999,-0.0141212711859,-0.659141521283,-0.0933333147353,0.0669059859275,-0.364367420985,0.573932230584,0.818884100563,0.00337215715419,0.0,0.818852295547,-0.573860148234,-0.0120911226772,0.0,-0.00796623488863,0.00970097040877,-0.999921212034,0.0,0.497459133568,0.0454296389385,0.304497416586,1.0,-0.17998,-0.236545142857,2.347
0.212952900322,-0.122844199712,-0.128687902875,-2.27162377084,-0.00632525177247,2.14302943431,-0.0853977896009,-0.422928478369,-0.580291030664,-0.00259535762377,-0.650783171473,-0.0799181739263,0.066164430638,-0.385913047607,0.57392447403,0.818888320996,0.00365550896867,0.0,0.818861138285,-0.573852514753,-0.0118521905127,0.0,-0.0076080438531,0.00979580504079,-0.999923076978,0.0,0.494846250634,0.0419026954097,0.304624890605,1.0,-0.17998,-0.236545142857,2.362
0.205695018657,-0.132828150285,-0.128728559313,-2.28267221874,-0.00786374166882,2.14397564229,-0.0917881870161,-0.428834978387,-0.586296538041,-0.00744738592194,-0.652819525723,-0.0949405806032,0.0499461006288,-0.378256773231,0.57383886843,0.818948523007,0.00360785883268,0.0,0.818919987291,-0.573766154493,-0.0119666734969,0.0,-0.00773017112695,0.00982167918549,-0.999921886485,0.0,0.491745008573,0.0379439801738,0.304600144481,1.0,-0.17998,-0.236545142857,2.379
0.197372598585,-0.143947212096,-0.128854719031,-2.29465025042,-0.00964265765729,2.14508904805,-0.0990832411258,-0.443587674296,-0.585658654936,-0.00732543660722,-0.618404994866,-0.093939829447,0.0680048259798,-0.378685254844,0.573818761929,0.818961880448,0.00377011049274,0.0,0.818936449202,-0.573746769235,-0.0117679166343,0.0,-0.00747453032878,0.00984032171029,-0.999923646818,0.0,0.488387951553,0.0334403063225,0.304687533227,1.0,-0.17998,-0.236545142857,2.398
0.190218801886,-0.153165397551,-0.129028884735,-2.3047320933,-0.0111004385009,2.14583645822,-0.105305201969,-0.448995040391,-0.574308895132,-0.00422527203294,-0.634483274072,-0.102274924788,0.0371711359808,-0.396297079959,0.573917285628,0.818893067985,0.00372012982966,0.0,0.818866362487,-0.573844632154,-0.0118728865971,0.0,-0.00758799409006,0.00986053387579,-0.999922593113,0.0,0.485489002489,0.0295984586388,0.304645621488,1.0,-0.17998,-0.236545142857,2.414
0.182622187828,-0.162955411719,-0.129062880552,-2.31528625007,-0.0126674368366,2.14645745066,-0.111984906982,-0.451381515905,-0.571196101039,0.00261161539532,-0.61245916362,-0.0818768583835,0.0450174590839,-0.389679307207,0.573821027578,0.818960924761,0.00363027892113,0.0,0.818932552333,-0.573748070287,-0.0119738662389,0.0,-0.00772341174201,0.00984399933936,-0.99992171923,0.0,0.482388099776,0.0256412066757,0.304627171381,1.0,-0.17998,-0.236545142857,2.431
0.174396737609,-0.173252457369,-0.129152160517,-2.32614647146,-0.0141715424947,2.14724372509,-0.119244688355,-0.455928764727,-0.557349627113,-0.00834274447498,-0.613811588011,-0.0875654541918,0.0422679208288,-0.403301666265,0.573820458422,0.818960219957,0.00387124346761,0.0,0.818935053168,-0.573746731673,-0.0118664859253,0.0,-0.00749721098098,0.00997972150905,-0.999922095458,0.0,0.479207047094,0.0214215370327,0.304694738445,1.0,-0.17998,-0.236545142857,2.449
0.16739572399,-0.181775859686,-0.129320326429,-2.33523442843,-0.0155978825485,2.1476264225,-0.125360704523,-0.470521080063,-0.566959304904,-0.0158784039488,-0.608993632221,-0.0950849581809,0.0294316518037,-0.414138511051,0.573871968075,0.818924730733,0.00374119686425,0.0,0.81889739176,-0.573798067649,-0.0119827472666,0.0,-0.00766642414975,0.00994041049472,-0.999921203986,0.0,0.47645872388,0.0178130394471,0.304656023104,1.0,-0.17998,-0.236545142857,2.464
0.159354709587,-0.191417028968,-0.129434932272,-2.34520304605,-0.0170739550484,2.14815350046,-0.132424838402,-0.473723099952,-0.563726675793,-0.00137290311825,-0.581913463768,-0.0879428275074,0.0428442836495,-0.412786194456,0.573917203523,0.818892107098,0.00393793521767,0.0,0.818867870315,-0.573843317012,-0.0118323872346,0.0,-0.00742983375441,0.0100156520502,-0.999922239119,0.0,0.473273404285,0.0135463514493,0.304739494092,1.0,-0.17998,-0.236545142857,2.482
0.150808318013,-0.201450756213,-0.129495095588,-2.35569634725,-0.0186885198602,2.14854414493,-0.140020524812,-0.481308079466,-0.552414044524,-0.00538352433844,-0.591365517595,-0.0851611213394,0.0114136977704,-0.42404584639,0.573790855637,0.818980863719,0.00389175428508,0.0,0.818955733053,-0.57371675449,-0.0118886424418,0.0,-0.00750395049201,0.010008961506,-0.999921752647,0.0,0.470197554724,0.00957578542488,0.304716756786,1.0,-0.17998,-0.236545142857,2.499
0.14353868328,-0.20978279313,-0.129617276691,-2.36439737494,-0.0199503608657,2.1487300426,-0.146425427765,-0.487995119122,-0.55012707147,-0.00922012415282,-0.57218329914,-0.0822693794079,0.0065007399165,-0.430726156107,0.573840949651,0.818945938169,0.00385509555226,0.0,0.818919082151,-0.573765322302,-0.0120680865779,0.0,-0.00767133803941,0.0100823676904,-0.999919744997,0.0,0.467447406953,0.00602730268315,0.304670878265,1.0,-0.17998,-0.236545142857,2.514
0.13466188342,-0.219768846819,-0.129772472614,-2.3743614262,-0.0215002313773,2.14906630874,-0.154201115272,-0.482800992316,-0.55200263049,-0.00680574320744,-0.557585347492,-0.0818502210227,0.0226206243421,-0.438136155448,0.573942563061,0.81887338832,0.00412978311509,0.0,0.818851351164,-0.573867623675,-0.0117966985231,0.0,-0.00729019402686,0.0101525013369,-0.999921886843,0.0,0.464304013148,0.00174459813596,0.304805945358,1.0,-0.17998,-0.236545142857,2.532
0.127294373574,-0.227893344578,-0.129799114945,-2.38280911032,-0.0228645424638,2.14914824522,-0.160804639562,-0.499766323863,-0.540736122286,-0.00225115483333,-0.561201449282,-0.0899244767652,0.00115309883134,-0.43988775173,0.573775301482,0.818991432688,0.00396023916309,0.0,0.818966604529,-0.573700171878,-0.0119398640931,0.0,-0.00750680104036,0.0100942970867,-0.999920873422,0.0,0.461555888848,-0.00172592619728,0.30472270809,1.0,-0.17998,-0.236545142857,2.547
0.118677908494,-0.237122885496,-0.129939211364,-2.39215355826,-0.0243431811877,2.14916746688,-0.168430889368,-0.501616430068,-0.552447586747,-0.0126675307543,-0.534424554718,-0.0908568883609,0.000527174721711,-0.458655990728,0.57380099894,0.818973529728,0.00393930479092,0.0,0.818947977864,-0.573725336887,-0.0120080917639,0.0,-0.00757437615908,0.0101165355168,-0.999920139079,0.0,0.458473896648,-0.0057714003211,0.30470864907,1.0,-0.17998,-0.236545142857,2.564
0.108881612807,-0.247410235735,-0.130117068289,-2.40221268936,-0.0259293553414,2.14924869104,-0.177103114425,-0.508009584513,-0.536020078918,-0.00252845294383,-0.537111634844,-0.080290837423,-0.000593725035747,-0.464029144948,0.573888413279,0.818910980511,0.00420023857332,0.0,0.818889830104,-0.573813208815,-0.011772614074,0.0,-0.0072307097745,0.0101958957653,-0.999921877221,0.0,0.455133635287,-0.0103083249463,0.304826590851,1.0,-0.17998,-0.236545142857,2.583
0.100658878867,-0.255862586625,-0.130205527855,-2.41082540285,-0.02724255816,2.14918086406,-0.184521703075,-0.519189598816,-0.529359192768,-0.010235705073,-0.537813433907,-0.0754435894292,-0.00261163034812,-0.468985926752,0.573795349111,0.818976550502,0.00412964498412,0.0,0.818953292608,-0.573718743657,-0.0119605436202,0.0,-0.00742629300332,0.0102450879088,-0.999919940968,0.0,0.452202593542,-0.0140291112657,0.30473010944,1.0,-0.17998,-0.236545142857,2.599
0.0916424191533,-0.264860297283,-0.130361450666,-2.41965226426,-0.0287070082821,2.1490372893,-0.192436315772,-0.531504295545,-0.525444581534,-0.0104193850651,-0.508200115985,-0.0863467649551,-0.00582658994604,-0.459981095129,0.573915322013,0.818892270876,0.00417118210881,0.0,0.81886979991,-0.573838891183,-0.0119132137672,0.0,-0.00736219390402,0.0102530283768,-0.999920333582,0.0,0.449149401084,-0.0180953835018,0.304749289621,1.0,-0.17998,-0.236545142857,2.616
0.0825616624146,-0.273776972776,-0.130514896893,-2.4281537625,-0.0301015497568,2.14889339005,-0.20054972021,-0.528660412969,-0.511407850869,-0.00662082427721,-0.502254181672,-0.0813723306605,-0.0186048408918,-0.470064393203,0.573954530193,0.818863668746,0.00438590706307,0.0,0.818845056085,-0.57387890093,-0.0116845236333,0.0,-0.00705118812216,0.0102979618552,-0.999922113331,0.0,0.446172080015,-0.0221320242228,0.30485363312,1.0,-0.17998,-0.236545142857,2.633
0.0740053142969,-0.282008511172,-0.130580993478,-2.43630917937,-0.0314464177105,2.14857546308,-0.208346729892,-0.546143432155,-0.516649930215,-0.00544743680919,-0.500971011074,-0.0869271361073,-0.0266765646747,-0.479003053948,0.573780164303,0.818986498146,0.00426448225465,0.0,0.818965479768,-0.573703767654,-0.0118438519465,0.0,-0.00725354494683,0.0102884291556,-0.999920764016,0.0,0.44324189954,-0.0258484398535,0.3047737167,1.0,-0.17998,-0.236545142857,2.649
0.0646219517761,-0.290737157015,-0.130746653363,-2.44471047247,-0.0327875149439,2.14823238828,-0.216726251855,-0.553566187469,-0.514716877666,-0.010986753892,-0.488054440736,-0.074131029775,-0.0167286255923,-0.501418567269,0.573870111163,0.818923045662,0.0043459981443,0.0,0.818902732689,-0.573792915403,-0.0118638750063,0.0,-0.00722203675455,0.0103674726313,-0.999920175662,0.0,0.440176441084,-0.0299072493019,0.304774678191,1.0,-0.17998,-0.236545142857,2.666
0.0551932165545,-0.29940978922,-0.130889916923,-2.45272735719,-0.0341348914884,2.14791385789,-0.225201763699,-0.549411417195,-0.505389071353,-0.00221968844384,-0.472008965926,-0.0833574761754,-0.0207277498926,-0.512972995357,0.573901063726,0.818899988002,0.00459625999309,0.0,0.818884351284,-0.573825172676,-0.0115688083899,0.0,-0.006836378989,0.0104033571207,-0.999922514039,0.0,0.437213540012,-0.0339345641323,0.304902981593,1.0,-0.17998,-0.236545142857,2.683
0.0462579289644,-0.307373403882,-0.131010164319,-2.46043568712,-0.0354781429683,2.14737734084,-0.233278009506,-0.567131333238,-0.494652567491,-0.0113128684552,-0.489077431795,-0.0891036282603,-0.0358501963906,-0.503189442514,0.573842646219,0.818941770376,0.00444308622189,0.0,0.818923281181,-0.573765946078,-0.0117492792495,0.0,-0.00707282015332,0.0103809841092,-0.99992110208,0.0,0.434277655888,-0.0376929037711,0.304821865449,1.0,-0.17998,-0.236545142857,2.699
0.0359019354422,-0.31630865086,-0.131189850862,-2.46885007513,-0.0368673281414,2.14677742344,-0.242515368984,-0.58075280773,-0.493702933336,-0.0149886429145,-0.455255522925,-0.0792572562084,-0.033251111667,-0.521588691498,0.573990969852,0.818837563239,0.00448981714131,0.0,0.818819157605,-0.573913321645,-0.0118081869061,0.0,-0.00709235767314,0.0104543422223,-0.999920199412,0.0,0.431015344279,-0.0420036852643,0.304812126076,1.0,-0.17998,-0.236545142857,2.717
0.026808739028,-0.324158530987,-0.131270855555,-2.47597750991,-0.0380983276206,2.14631243086,-0.250901984404,-0.564194068086,-0.494834786731,-0.00316910577331,-0.442465305657,-0.0726416813929,-0.0286284978357,-0.533132725986,0.573836824772,0.818944437101,0.00469620886812,0.0,0.818930208366,-0.573760827749,-0.0115140465407,0.0,-0.00673499334506,0.0104532524716,-0.9999226817,0.0,0.428056154858,-0.0459510375577,0.304925339134,1.0,-0.17998,-0.236545142857,2.734
0.0174916365857,-0.331837714876,-0.131371710209,-2.48315113643,-0.039303609613,2.14570257534,-0.259370126718,-0.583021705717,-0.473528604104,-0.00983591973077,-0.456067892885,-0.0751066963075,-0.0450611919696,-0.529820815878,0.573811508847,0.818962378604,0.00466064878644,0.0,0.818946897454,-0.573734401826,-0.0116431186973,0.0,-0.00686143374294,0.0104979814898,-0.999921353463,0.0,0.4251534458,-0.0497157563691,0.304869218715,1.0,-0.17998,-0.236545142857,2.75
0.00673536747415,-0.340437533587,-0.131572879856,-2.49107525805,-0.0406451091621,2.14486166038,-0.26899611059,-0.596763521045,-0.479748261437,-0.00612027392914,-0.434913288015,-0.0722638101266,-0.044220260784,-0.530519096567,0.574001063835,0.818829403186,0.00468338508333,0.0,0.818813499314,-0.573922756751,-0.0117417854428,0.0,-0.00692675124991,0.0105748198622,-0.999920093458,0.0,0.422059829188,-0.0538001447537,0.304859213568,1.0,-0.17998,-0.236545142857,2.767
-0.00386092561761,-0.348893135494,-0.131660844958,-2.49874937616,-0.0419859162872,2.14404939459,-0.278832454329,-0.602508236275,-0.474808772163,-0.0118816624801,-0.415180716321,-0.0692358584365,-0.0443787443923,-0.545852029936,0.573803289285,0.818967825692,0.00471514456972,0.0,0.818952405043,-0.573725020907,-0.0117177455734,0.0,-0.00689139287806,0.0105853637396,-0.999920226207,0.0,0.41884107763,-0.0579591752856,0.3048721811,1.0,-0.17998,-0.236545142857,2.785
-0.0130237074692,-0.355870648887,-0.131817195815,-2.50487158445,-0.0430885664868,2.14340582979,-0.287167518382,-0.617477038885,-0.455574995493,-0.0108110750038,-0.412935726971,-0.0707296567548,-0.0464610965654,-0.555347957644,0.573872648214,0.818918270775,0.00487814764177,0.0,0.818906034573,-0.573795552642,-0.0115029217389,0.0,-0.00662102083245,0.0105961607108,-0.999921938684,0.0,0.416204437779,-0.0615631777158,0.304961575238,1.0,-0.17998,-0.236545142857,2.8
-0.0234833929594,-0.363594802643,-0.131944886075,-2.51193227035,-0.0443787714747,2.14245895976,-0.296703713179,-0.604942231779,-0.452918853692,-0.00271416923175,-0.41768326423,-0.0750588870227,-0.0503151875867,-0.56120067467,0.573874187285,0.818917910457,0.00475604894756,0.0,0.81890316593,-0.573796001,-0.0116833628167,0.0,-0.00683884486727,0.0105997279593,-0.999920434819,0.0,0.413085834999,-0.0655954578236,0.304894958316,1.0,-0.17998,-0.236545142857,2.817
-0.0344886273731,-0.371683647176,-0.132049200941,-2.51917914506,-0.0456144492033,2.14150341723,-0.306953682771,-0.623825887527,-0.442492247745,-0.0102509840825,-0.403409542178,-0.0707932680218,-0.0516869534597,-0.553501236583,0.573730953179,0.819018057694,0.00479180936729,0.0,0.819003237203,-0.573651838167,-0.0117478900661,0.0,-0.00687303617951,0.0106648408806,-0.999919508032,0.0,0.409839883886,-0.069760683701,0.304875292294,1.0,-0.17998,-0.236545142857,2.835
-0.0440107375825,-0.378298468291,-0.132252107542,-2.52495777738,-0.0466552634009,2.1406560081,-0.315535838756,-0.640246989608,-0.44126237876,-0.00956886877775,-0.369736042414,-0.0714313483926,-0.0628232108918,-0.574552202433,0.573954504389,0.818860944841,0.00487101708207,0.0,0.818847075826,-0.573874972569,-0.0117358072353,0.0,-0.00681477061223,0.0107246440019,-0.999919267197,0.0,0.407146896626,-0.0733877214204,0.304902448147,1.0,-0.17998,-0.236545142857,2.85
-0.0553157461191,-0.386100680443,-0.132323431871,-2.53166713288,-0.0479204879198,2.13971571116,-0.326072739416,-0.629181119982,-0.429088152009,-0.00507220013016,-0.379635947476,-0.06813486135,-0.0554091618793,-0.579170757988,0.57379390674,0.818972963283,0.00495831634674,0.0,0.818961455507,-0.573716094944,-0.0115205771367,0.0,-0.00659050219202,0.0106713123912,-0.999921341093,0.0,0.403986680112,-0.0775897916859,0.304973400837,1.0,-0.17998,-0.236545142857,2.868
-0.0662314564508,-0.39334794798,-0.132505997209,-2.53811142768,-0.0491082206188,2.13862177135,-0.336170075497,-0.650330036705,-0.4218328051,-0.0120852159918,-0.381482274559,-0.0658928868006,-0.0670236773108,-0.607417194556,0.573800540846,0.818968767182,0.00488309392923,0.0,0.818955073982,-0.573721025837,-0.0117268159285,0.0,-0.00680249329468,0.0107280944213,-0.999919313782,0.0,0.400854379569,-0.0816193236692,0.304904679406,1.0,-0.17998,-0.236545142857,2.885
-0.0766277862572,-0.400058340418,-0.132627701854,-2.54387920621,-0.0502053547289,2.13764538828,-0.345743578333,-0.643629131259,-0.413892768102,-0.00866905182998,-0.35991632913,-0.0673513668912,-0.0583699593793,-0.588636996004,0.573828760413,0.818948887721,0.00490101254169,0.0,0.818935610418,-0.573749472741,-0.0116942473433,0.0,-0.0067651677433,0.0107243156308,-0.999919607548,0.0,0.397975514938,-0.0854134218906,0.304920506639,1.0,-0.17998,-0.236545142857,2.901
-0.0876299375359,-0.407006525475,-0.132734766252,-2.54984250409,-0.0513275063003,2.13657763665,-0.35609857437,-0.650470936524,-0.406234902306,-0.00706580965887,-0.342612372947,-0.0717248333009,-0.0631610002291,-0.606815594458,0.573678538176,0.819054090589,0.00490697741902,0.0,0.819040808971,-0.573599127353,-0.0117021896299,0.0,-0.00677021866742,0.0107325164294,-0.999919485374,0.0,0.394931646329,-0.0893707282567,0.30492151779,1.0,-0.17998,-0.236545142857,2.918
-0.0990535949578,-0.413812542485,-0.13293843135,-2.55549099558,-0.0523590914462,2.13558693052,-0.366555283357,-0.671885076256,-0.395200129319,-0.00445917583908,-0.33190146711,-0.0704214611303,-0.057003423045,-0.611706670481,0.573912165594,0.81888924038,0.00509755572128,0.0,0.818879226538,-0.573833421519,-0.0115223084865,0.0,-0.00651047194974,0.010787283191,-0.999920620988,0.0,0.391924326861,-0.0934916277031,0.304997775172,1.0,-0.17998,-0.236545142857,2.935
-0.110253524013,-0.420510825732,-0.133039414121,-2.5611889976,-0.0533841472357,2.13442785045,-0.377168641875,-0.659515363242,-0.390343096524,-0.0115853169557,-0.336724297566,-0.0661034227376,-0.0683356280607,-0.631677842481,0.573754692996,0.818999458089,0.00511730559233,0.0,0.818989037331,-0.573674820513,-0.0116148156399,0.0,-0.00657698497506,0.0108552811603,-0.999919449826,0.0,0.388853741732,-0.097417858573,0.30498205335,1.0,-0.17998,-0.236545142857,2.952
-0.121832248877,-0.42700134233,-0.133251161333,-2.56675328981,-0.0544923003602,2.13321316468,-0.387893637157,-0.68783848475,-0.375068849163,-0.0114780115032,-0.323373240009,-0.057438971311,-0.0636889532585,-0.63082765856,0.57386462459,0.818922887384,0.00504421084818,0.0,0.818910377055,-0.573783111961,-0.0118102362963,0.0,-0.0067775202989,0.0109084434475,-0.99991753214,0.0,0.385723644991,-0.101491658639,0.304923385675,1.0,-0.17998,-0.236545142857,2.969
-0.131985416704,-0.432588194961,-0.133303658923,-2.57141898975,-0.055380406683,2.13228437076,-0.397442082417,-0.672876093427,-0.370251683464,-0.00180016455188,-0.310725403292,-0.0541703186561,-0.061688587483,-0.650734775929,0.573787668783,0.818976595109,0.00507885001686,0.0,0.818964856823,-0.573706573639,-0.0117506405832,0.0,-0.00670985915956,0.0109019822408,-0.999918058929,0.0,0.383057463754,-0.104988329262,0.304931470859,1.0,-0.17998,-0.236545142857,2.984
-0.143647167401,-0.438704865932,-0.133453726744,-2.57649193704,-0.0563823346768,2.13113661498,-0.40841335922,-0.700433631107,-0.354183514198,-0.0134088453835,-0.291487245095,-0.0607357677058,-0.0662121453851,-0.635750332369,0.573780931661,0.818981209493,0.00509586702352,0.0,0.818969467121,-0.573699414794,-0.0117788068062,0.0,-0.00672325495874,0.0109320247192,-0.999917640948,0.0,0.380020312251,-0.109005547907,0.304931734893,1.0,-0.17998,-0.236545142857,3.001
-0.156218603518,-0.445169188932,-0.133595576665,-2.5816258463,-0.0574640555266,2.12995893964,-0.420193428799,-0.685591647539,-0.359473476128,-0.00879354188413,-0.284430790356,-0.0576672014232,-0.0636783840812,-0.657726858412,0.573808416143,0.818961433146,0.00517875320429,0.0,0.818952108585,-0.573728845779,-0.0115499899012,0.0,-0.0064879210964,0.010868841527,-0.999919884373,0.0,0.376822925987,-0.113308270452,0.305025779927,1.0,-0.17998,-0.236545142857,3.019
-0.168041070896,-0.451070887603,-0.133728177044,-2.58652674181,-0.0583697542006,2.12876773136,-0.431442249816,-0.70451461788,-0.335939992708,-0.0107404914501,-0.291971690795,-0.0554064165346,-0.0711427969907,-0.671531653472,0.573738021423,0.819010537798,0.00521235560824,0.0,0.819000768829,-0.57365688746,-0.0116731755754,0.0,-0.00657047661326,0.0109664790476,-0.999918279248,0.0,0.373732633602,-0.117267388666,0.30499346004,1.0,-0.17998,-0.236545142857,3.036
-0.180150483936,-0.45671976519,-0.133889329443,-2.59119548033,-0.0592866281008,2.1275593442,-0.442788983351,-0.701629150471,-0.329141235611,-0.00508565747172,-0.261785801667,-0.0520234305495,-0.0629375924216,-0.672681466581,0.573847120813,0.818934106365,0.00521135949032,0.0,0.818923345517,-0.573764345426,-0.0118227317578,0.0,-0.0066920748433,0.01105235732,-0.999916527282,0.0,0.370630496651,-0.121313089738,0.304955743334,1.0,-0.17998,-0.236545142857,3.053
-0.190018845982,-0.461222274969,-0.133955796855,-2.59480649949,-0.0599897919657,2.1266850955,-0.452287133502,-0.713692110913,-0.315093457782,-0.00322638162852,-0.255099990704,-0.0508643267952,-0.0542712459265,-0.678330235696,0.573709300997,0.819030243817,0.00527679488072,0.0,0.819020693246,-0.573626925822,-0.0117473787629,0.0,-0.00659467383467,0.01106159763,-0.999917072229,0.0,0.368163089396,-0.12457201355,0.304977720653,1.0,-0.17998,-0.236545142857,3.067
-0.203078535705,-0.466802202663,-0.13415014478,-2.59937857375,-0.0609780151513,2.12549835391,-0.464557357763,-0.726746824641,-0.310522009312,-0.00713986330747,-0.24907260591,-0.0598763146146,-0.0700538482289,-0.694648526624,0.573833803172,0.81894316884,0.00525351777615,0.0,0.818932829983,-0.573750674266,-0.0118292289,0.0,-0.00667338531733,0.0110905031146,-0.999916229826,0.0,0.364892233631,-0.128892655023,0.304940643608,1.0,-0.17998,-0.236545142857,3.085
-0.215985995525,-0.47231366501,-0.134240236894,-2.60365660963,-0.0618407120309,2.12431775128,-0.476925734578,-0.718750943555,-0.304595961362,-0.00197112223294,-0.23619055057,-0.0461057887852,-0.0694828947955,-0.6941163722,0.573726779078,0.819017523994,0.00535025800895,0.0,0.819009082583,-0.573644418147,-0.0117026098312,0.0,-0.00651562233162,0.0110962241854,-0.99991720681,0.0,0.361523381845,-0.133317786395,0.305005874388,1.0,-0.17998,-0.236545142857,3.104
-0.227785707739,-0.477052171694,-0.134442401885,-2.60730211058,-0.0626266183444,2.12330422385,-0.488095059746,-0.738365353592,-0.289647095525,-0.00993311622334,-0.226828521406,-0.049206071279,-0.0637656239584,-0.700094122356,0.573873300682,0.818914175986,0.00545472597051,0.0,0.818907792684,-0.573791792938,-0.0115651346247,0.0,-0.00634109778254,0.0111040533716,-0.999918241897,0.0,0.358824662799,-0.136944004372,0.305063505722,1.0,-0.17998,-0.236545142857,3.119
-0.240904832487,-0.482056515936,-0.134492454121,-2.61132224219,-0.0634847907474,2.12215693415,-0.500776853398,-0.734554442464,-0.281473193036,-0.00235990217041,-0.22074779145,-0.0464632148195,-0.0624038831422,-0.716369610069,0.573683167077,0.819047617996,0.005419425087,0.0,0.819040482859,-0.573601292142,-0.0116186054184,0.0,-0.00640772522841,0.0111043406865,-0.99991781396,0.0,0.355598672256,-0.141121137428,0.305038613317,1.0,-0.17998,-0.236545142857,3.137
-0.25359602618,-0.486532320727,-0.134666185822,-2.61492914582,-0.0642629921396,2.12105114952,-0.512830580335,-0.754016432512,-0.26189105014,-0.00723660115213,-0.203183624021,-0.0365981931625,-0.0667208394181,-0.709946203636,0.57380165954,0.818964604431,0.00542024895774,0.0,0.818956507906,-0.573718084826,-0.0117704801748,0.0,-0.00653003751248,0.0111930847179,-0.999916033207,0.0,0.352499617507,-0.145175682845,0.304994702309,1.0,-0.17998,-0.236545142857,3.154
-0.265458945097,-0.490539804052,-0.134731186383,-2.61814708277,-0.0649093277223,2.12008154209,-0.52431560209,-0.740804954489,-0.246140323288,-0.00683365821208,-0.198352639611,-0.0375909158368,-0.0681569712412,-0.721619382072,0.573705535127,0.819031803134,0.00544162855431,0.0,0.81902328674,-0.57362070903,-0.0118694924827,0.0,-0.00660018807482,0.0112666309578,-0.999914746638,0.0,0.349634720572,-0.148903154091,0.304959443235,1.0,-0.17998,-0.236545142857,3.17
-0.277516723256,-0.49443769088,-0.134908247865,-2.62118292067,-0.0655639283713,2.11917592345,-0.535880249097,-0.757541134645,-0.241562263906,-0.0144244565037,-0.185118990237,-0.0367726560202,-0.0599227866193,-0.718899257589,0.573789179711,0.818972627214,0.00552811206405,0.0,0.818965236071,-0.573704025073,-0.0118482329084,0.0,-0.00653200405193,0.0113259375025,-0.999914524378,0.0,0.346753111013,-0.152717611978,0.304963548281,1.0,-0.17998,-0.236545142857,3.186
-0.291042508789,-0.498643174144,-0.134954807888,-2.62439261285,-0.0662456346886,2.11810655569,-0.548929823049,-0.747163345326,-0.2257328309,-0.00571768317122,-0.175680639704,-0.0273295897064,-0.061405634119,-0.728049121519,0.573742118673,0.819005283842,0.00557433403595,0.0,0.818998530802,-0.573656870415,-0.0118299818892,0.0,-0.00649118763277,0.0113529488381,-0.999914483861,0.0,0.343540909678,-0.15691532139,0.30498827969,1.0,-0.177712571429,-0.233565093878,3.204
-0.302355013906,-0.501870716221,-0.135020816004,-2.6268618833,-0.0668065785919,2.11729562856,-0.559791548205,-0.767544783591,-0.218271601819,-0.0137006261876,-0.165349900035,-0.0391897174576,-0.0471405163467,-0.726156138311,0.573780435675,0.818978244815,0.00560295075,0.0,0.818971983978,-0.573695288243,-0.0118047705798,0.0,-0.0064535880959,0.0113622248562,-0.999914621879,0.0,0.340887242522,-0.160428001838,0.305000964287,1.0,-0.175518285714,-0.23068117551,3.219
-0.316588410577,-0.505636264584,-0.135020210688,-2.62972486205,-0.0674137682418,2.11637704374,-0.573494337205,-0.739701877327,-0.191626242068,0.00246794479569,-0.144556576828,-0.0241457912818,-0.043719573818,-0.722351675166,0.573793962039,0.818968376161,0.00565993614036,0.0,0.818963285597,-0.573709374631,-0.0117233615881,0.0,-0.00635402631415,0.0113622927512,-0.999915258736,0.0,0.337601027046,-0.16480290347,0.305024250749,1.0,-0.172738857143,-0.227028212245,3.238
-0.327009834313,-0.508245494501,-0.135032463216,-2.63171754973,-0.0678368615317,2.11572816174,-0.583504067594,-0.751020391869,-0.185336860079,-0.000724383600261,-0.144105417243,-0.0274381588759,-0.041466823865,-0.719858230457,0.573846642334,0.818931158839,0.00570395181901,0.0,0.81892680889,-0.573762198029,-0.0116862609446,0.0,-0.00629765253405,0.0113774597171,-0.999915442917,0.0,0.335191172592,-0.1679873813,0.305032466094,1.0,-0.170690857143,-0.224336555102,3.252
-0.34101599608,-0.511569616087,-0.134983988157,-2.63423555627,-0.0683670671418,2.11484957565,-0.597053376443,-0.727943698283,-0.170590487213,0.00630340325241,-0.129427656185,-0.0193848442424,-0.0491845193707,-0.716403324241,0.573816946759,0.818951723746,0.00573870074674,0.0,0.818947942518,-0.573732604068,-0.0116581892175,0.0,-0.00625513486279,0.0113895829956,-0.999915571779,0.0,0.331959178981,-0.172220243853,0.305046501966,1.0,-0.167911428571,-0.220683591837,3.271
-0.351922916663,-0.513865549301,-0.134937066976,-2.63605686643,-0.0687204756372,2.11416365553,-0.607635887923,-0.734904539616,-0.15541882503,0.00286949441426,-0.123289559963,-0.0246398742295,-0.0466676653406,-0.705084577042,0.573795319704,0.818966761737,0.00575509831329,0.0,0.818962325459,-0.573709349828,-0.0117914502729,0.0,-0.00635517449144,0.0114793086893,-0.999913914909,0.0,0.329443791703,-0.175489620856,0.305010490394,1.0,-0.165717142857,-0.217799673469,3.286
-0.365047344795,-0.516426555924,-0.134896217468,-2.63805305281,-0.069144175291,2.11344499711,-0.620256021494,-0.713278974182,-0.138304192723,0.00580432151772,-0.105817378343,-0.0181895322632,-0.03660313797,-0.703666445733,0.573884990828,0.818903756832,0.00577938151074,0.0,0.818899220123,-0.573798162681,-0.0118525392816,0.0,-0.00639001348093,0.0115349474923,-0.999913052577,0.0,0.326444793839,-0.179426622434,0.304988205796,1.0,-0.163084,-0.214338971429,3.304
-0.376416277389,-0.518430692003,-0.134779331333,-2.63963962209,-0.0694748686545,2.11287911372,-0.631310331466,-0.714666710924,-0.11517592828,0.00673159471648,-0.0955798747716,-0.020485483504,-0.0367380767752,-0.6872563141,0.57382836321,0.818943504681,0.00576997552583,0.0,0.818938470402,-0.57374090672,-0.0119122018342,0.0,-0.0064450734163,0.0115610367979,-0.999912397891,0.0,0.323870512943,-0.182801943958,0.304960132263,1.0,-0.160743428571,-0.211262791837,3.32
-0.389224925111,-0.520571750748,-0.134730999781,-2.64122266425,-0.0698284477922,2.11225163859,-0.643689442635,-0.696949663026,-0.112735436085,0.0104733049241,-0.0816490288815,-0.0244234621056,-0.0325485475203,-0.687459341978,0.573904105715,0.818890119475,0.00581348192509,0.0,0.818885712072,-0.573816576827,-0.0118942685045,0.0,-0.00640434996257,0.0115869699001,-0.999912359375,0.0,0.320974411318,-0.186621773026,0.304975787326,1.0,-0.158110285714,-0.207802089796,3.338
-0.399566127386,-0.522154857546,-0.134602199349,-2.64239939428,-0.0700489821498,2.11180588709,-0.653876583989,-0.691506414329,-0.0980754234632,0.0115942290758,-0.0798453206639,-0.0195244136116,-0.0224614056025,-0.674254999232,0.573777372513,0.818978672537,0.00584872834717,0.0,0.818974888748,-0.573690034631,-0.0118584428501,0.0,-0.00635657699953,0.0115942910541,-0.999912579351,0.0,0.318658418822,-0.189666532263,0.304987613006,1.0,-0.155916,-0.204918171429,3.353
-0.411446011817,-0.52380992224,-0.134567172324,-2.64357678297,-0.0703254620135,2.11130082689,-0.665299818168,-0.695867361992,-0.0932718871191,0.00206160077185,-0.065287645245,-0.0154300549254,-0.0325129669527,-0.662289217384,0.573940548153,0.818863932912,0.00590368216286,0.0,0.818861122042,-0.573853446038,-0.0118081403669,0.0,-0.00628153284672,0.0116116899159,-0.999912851704,0.0,0.315988914337,-0.193195926007,0.305017284016,1.0,-0.153429142857,-0.201649730612,3.37
-0.422920883481,-0.525176659395,-0.134423924296,-2.64459004139,-0.0705326518056,2.11090236342,-0.676641541023,-0.675046936863,-0.0729102109911,0.00478835901569,-0.0588204857555,-0.015001039157,-0.0256792041825,-0.672379281574,0.573801617956,0.818961089663,0.00593158917515,0.0,0.818958833253,-0.573714796456,-0.011768970506,0.0,-0.00623540848445,0.011611005216,-0.999913148348,0.0,0.31344063489,-0.196566537563,0.305027057312,1.0,-0.150942285714,-0.198381289796,3.387
-0.4344370914,-0.52638735913,-0.134358481954,-2.64551487906,-0.0707300818735,2.1105169833,-0.687798891178,-0.679427764643,-0.0685270532303,-5.86158155355e-05,-0.0561259691594,-0.0110622086029,-0.0300177705225,-0.654564401761,0.573912045141,0.818883337067,0.00598260955489,0.0,0.818881543089,-0.573824638048,-0.0117919489031,0.0,-0.00622338152528,0.0116668146775,-0.999912573657,0.0,0.310858880918,-0.199953641389,0.305018509242,1.0,-0.148455428571,-0.19511284898,3.404
-0.445010903801,-0.527326239569,-0.134232680111,-2.64625799978,-0.0708912111922,2.11020781492,-0.698183317521,-0.648789708211,-0.0601459357997,0.00984425254814,-0.0515860130377,-0.00433773669904,-0.016308086102,-0.638784990862,0.573867152691,0.818914692405,0.0059970430755,0.0,0.818912832899,-0.573779225912,-0.0118287331023,0.0,-0.00624586484869,0.0116994021691,-0.999912052713,0.0,0.308501665106,-0.203039997089,0.305000809996,1.0,-0.146114857143,-0.192036669388,3.42
-0.457388546573,-0.528254739343,-0.134106741495,-2.64697199635,-0.0710534951403,2.109889979,-0.710280795069,-0.65850638983,-0.0456447371455,0.00624197732061,-0.0331017752237,-0.0126395246097,-0.0155320679381,-0.626582569198,0.57389760027,0.818893107538,0.00603073238398,0.0,0.818891538866,-0.573809261806,-0.0118459081922,0.0,-0.00624016261621,0.0117370799821,-0.999911646759,0.0,0.305747686541,-0.206656040064,0.304991559439,1.0,-0.143335428571,-0.188383706123,3.439
-0.468397293513,-0.52890070729,-0.134007021966,-2.64748930837,-0.0711808021154,2.10962995919,-0.721032076073,-0.634494337422,-0.0420171947636,0.0111458180581,-0.0295257729589,-0.00433247597008,-0.0108137237711,-0.632028063834,0.57395433623,0.81885311871,0.00606108926455,0.0,0.818851563601,-0.573865149758,-0.0119018310592,0.0,-0.00626772425584,0.011794467047,-0.999910799111,0.0,0.303293032063,-0.209867727691,0.304972583458,1.0,-0.140848571429,-0.185115265306,3.456
-0.47901790324,-0.52935808238,-0.133857293242,-2.64786100406,-0.0712552084537,2.10943058572,-0.731570891805,-0.631322805538,-0.0314463531717,0.00940496411751,-0.0211878544022,-0.00388906515426,-0.00951802515876,-0.615407791804,0.573862847675,0.818917012502,0.00609143620841,0.0,0.818915565546,-0.573773018043,-0.0119401496341,0.0,-0.00628301089708,0.0118406081667,-0.99991015785,0.0,0.300944986472,-0.212951293741,0.304957330128,1.0,-0.138361714286,-0.18184682449,3.473
-0.487850686909,-0.529663178343,-0.133762213552,-2.64809495928,-0.0713270869922,2.10927554022,-0.740132772783,-0.630806791179,-0.016920000097,0.00837992715138,-0.0183675911935,-0.00807931340032,-0.0150205248776,-0.607889840491,0.573994855624,0.818824307315,0.00611607460305,0.0,0.818823013283,-0.573904580779,-0.0119646136453,0.0,-0.00628699429342,0.0118758379645,-0.999909715012,0.0,0.29884417692,-0.215705488616,0.304952990147,1.0,-0.136167428571,-0.178962906123,3.488
-0.498754277818,-0.529883606811,-0.133578200841,-2.64825758457,-0.0713908717253,2.10914318212,-0.751014525873,-0.596468628348,-0.0063212415484,0.00975571440974,-0.0117481765484,-0.00065441149419,-0.00396859943816,-0.608164009342,0.57382526181,0.818943158405,0.00611711628317,0.0,0.818941887776,-0.573735036833,-0.0119598853167,0.0,-0.00628498332481,0.0118726756656,-0.999909765207,0.0,0.29658276599,-0.21868203023,0.30495127858,1.0,-0.133680571429,-0.175694465306,3.505
-0.510227372868,-0.530049373211,-0.133435651364,-2.64839223164,-0.071407849853,2.1090280576,-0.76225268971,-0.612560989525,-0.0110351392596,0.00529223655287,-0.00376184631236,-0.00085968698049,-0.00192476114607,-0.580754042711,0.573902273002,0.81888871263,0.00618096044511,0.0,0.818888164382,-0.573811560379,-0.011967218163,0.0,-0.00625323371171,0.0119297587431,-0.999909284848,0.0,0.294028302485,-0.221996185001,0.304944321558,1.0,-0.130901142857,-0.172041502041,3.524
-0.519193596239,-0.530055680433,-0.133339192087,-2.64838595761,-0.0714343234845,2.10894028745,-0.77101471636,-0.585089345647,0.00209364449761,0.0170086541359,0.00387517398981,0.000626267009647,-0.00233783417378,-0.576280414682,0.573999700399,0.81882019745,0.00621088484175,0.0,0.818819914984,-0.573908604645,-0.0119836239043,0.0,-0.00624807333314,0.0119644230811,-0.999908902931,0.0,0.291903296576,-0.224759862576,0.30494495952,1.0,-0.128560571429,-0.168965322449,3.54
-0.52772981405,-0.529967683344,-0.133199585441,-2.64832313144,-0.0714471880227,2.10895192732,-0.77961132186,-0.572443396564,0.00512528612469,0.00351348982167,0.00299390446512,-0.0015564329561,0.00121209632576,-0.569777416596,0.573840784041,0.818931462422,0.00622585954067,0.0,0.818931634981,-0.573750158942,-0.0119364669317,0.0,-0.00620317984994,0.0119484149196,-0.999909373864,0.0,0.290141985948,-0.227061837724,0.304945357072,1.0,-0.126512571429,-0.166273665306,3.554
-0.538114018801,-0.529797106309,-0.133067491833,-2.64818902859,-0.0714453013804,2.10893448915,-0.789711065049,-0.57980944729,0.00554229077002,0.0030919132555,0.0105272541123,-0.000102557099126,0.00107001171783,-0.5674719546,0.573989016503,0.81882728898,0.00626311868722,0.0,0.818828013314,-0.573898334495,-0.0119219619489,0.0,-0.00616775314697,0.0119717227384,-0.999909314226,0.0,0.287820774474,-0.230057583444,0.304945913248,1.0,-0.123879428571,-0.162812963265,3.572
-0.547570429859,-0.529491045675,-0.132882351144,-2.64794107693,-0.0714429803474,2.1089447516,-0.799107615518,-0.543196920191,0.0170928208805,0.015630991742,0.0131833909745,0.00321851780419,5.65977561426e-05,-0.543163062891,0.573922498917,0.818874004109,0.00625120253179,0.0,0.818874684898,-0.57383209668,-0.011904711437,0.0,-0.00616143669334,0.0119515633449,-0.999909594329,0.0,0.28572509733,-0.23278030878,0.304952457868,1.0,-0.121392571429,-0.159544522449,3.589
