nelsonifechukwu/NELSON_IML_WORK/CNN-GradCAM/train2dof/data_sample_2022-02-22-07-42-46/robot_state.csv
position_joint1,position_joint2,position_joint3,position_joint4,position_joint5,position_joint6,position_joint7,velocity_joint1,velocity_joint2,velocity_joint3,velocity_joint4,velocity_joint5,velocity_joint6,velocity_joint7,ee_T_00,ee_T_10,ee_T_20,ee_T_30,ee_T_01,ee_T_11,ee_T_21,ee_T_31,ee_T_02,ee_T_12,ee_T_22,ee_T_32,ee_T_03,ee_T_13,ee_T_23,ee_T_33,v_x,v_y,time
0.465076469789,0.547659642738,-0.124021506309,-1.35581898925,0.0795270763749,1.89414592073,0.159135742178,-0.000323895908973,0.000556884276465,-4.45158794175e-05,-0.000607015438045,0.000262008941774,0.000148878962487,-0.000266878816668,0.573813817898,0.818971313139,0.00210654840976,0.0,0.818930203199,-0.573754610466,-0.0118201589837,0.0,-0.00847189237233,0.00850785047435,-0.999927919162,0.0,0.661697907005,0.260883994174,0.303312235524,1.0,0.0,0.0,0.0
0.465075754425,0.547657510707,-0.124022216597,-1.35581715756,0.0795259690284,1.89414707865,0.15913425579,-0.00131129069102,0.000734578553812,0.000603063677825,-0.00034664937408,-0.000383054280257,-0.000180689873442,0.000931071667456,0.573815065223,0.818970436564,0.00210757168581,0.0,0.818929350616,-0.573755864321,-0.0118183653205,0.0,-0.00846982326215,0.00850767217831,-0.999927938208,0.0,0.661698578639,0.260883304899,0.303313480999,1.0,-0.00012,-0.000157714285714,0.007
0.465075836597,0.547653270573,-0.124018812971,-1.35581922516,0.0795259684861,1.89415050676,0.15913655598,6.85206006715e-05,-7.70235759594e-05,0.000645334664003,-0.00095058630388,-1.23040355408e-05,0.000193385404222,8.42634339871e-05,0.57381285992,0.818971960698,0.00211572268563,0.0,0.818930972753,-0.573753619067,-0.0118149640442,0.0,-0.00846238364815,0.00851237303463,-0.999927961189,0.0,0.661698545952,0.260885323491,0.30331694469,1.0,-0.00048,-0.000630857142857,0.025
0.46507365127,0.547637954347,-0.124021593079,-1.35583232744,0.079524646057,1.89415008884,0.159138183584,-0.000208103022795,-0.00411634932295,-0.000420834468956,-0.00134148434564,-0.000436329902938,5.34354499701e-05,0.00151823299803,0.573818259875,0.818968174817,0.00211664191395,0.0,0.81892721136,-0.573759027344,-0.0118130409732,0.0,-0.00846022508466,0.00851207815901,-0.999927981965,0.0,0.661697146751,0.260880671851,0.303321611747,1.0,-0.0008,-0.00105142857143,0.041
0.465075105873,0.547558657346,-0.124024000757,-1.35590010452,0.0795272909138,1.89416416283,0.159133743696,0.000222485189817,-0.00629134055751,-0.00129186293546,-0.00574564163118,0.000148627778893,0.000988004535263,-0.00114439377149,0.573819470857,0.818967257895,0.00214295665899,0.0,0.818926575726,-0.573760073358,-0.0118062987933,0.0,-0.00843959166708,0.00852977250959,-0.999928005545,0.0,0.661686538741,0.260874625382,0.303346832984,1.0,-0.00116,-0.00152457142857,0.059
0.465071589729,0.547412207591,-0.124016828319,-1.35606826741,0.079522613226,1.89419607645,0.15913445085,-0.000436273891666,-0.0113331243933,0.00386192811468,-0.0115480142508,-0.000178953205976,-0.000491714176573,0.000622447069391,0.573825821174,0.818962767744,0.00215844932492,0.0,0.818922165052,-0.573766238741,-0.0118126105689,0.0,-0.00843580531051,0.00854614749405,-0.999927897677,0.0,0.661657752148,0.26085982082,0.303373058869,1.0,-0.0015,-0.00197142857143,0.076
0.465059589818,0.547311294768,-0.124021909763,-1.35622514326,0.0795239168953,1.89426341202,0.159126960311,-0.00012765656751,-0.00781077198774,-0.000504674736534,-0.0159452706988,0.000154798982966,0.00383227371864,-0.00312271403423,0.573842263914,0.818951210083,0.0021722224422,0.0,0.818910728333,-0.573782566521,-0.0118123782036,0.0,-0.00842754031214,0.00855746287049,-0.999927870595,0.0,0.661642103809,0.260836428967,0.303375891624,1.0,-0.00176,-0.00231314285714,0.089
0.46503466911,0.547122895687,-0.124019202546,-1.35645164174,0.079521019522,1.89437843753,0.159115911286,-0.00323876199132,-0.012981872556,0.00347916086313,-0.016063702524,-5.67496576206e-05,0.00912279357834,-0.00104982358127,0.573863781405,0.818935938839,0.00224396328797,0.0,0.818896326869,-0.573803739043,-0.0117822664278,0.0,-0.0083614878783,0.00859915482027,-0.999928067441,0.0,0.661624128933,0.260804448064,0.303411429538,1.0,-0.00212,-0.00278628571429,0.107
0.465021827182,0.546909596522,-0.124016933656,-1.35670470504,0.0795152021541,1.8945156126,0.159100276926,0.000345754641552,-0.0129075460515,0.000210067056447,-0.0176479149606,0.000224022052322,0.0140455622381,0.000387246366201,0.573872731157,0.818929421244,0.00233202850984,0.0,0.818890921959,-0.573812321281,-0.0117398799068,0.0,-0.00827614570648,0.00864704040435,-0.999928364486,0.0,0.661602241509,0.260778411482,0.303453886154,1.0,-0.00248,-0.00325942857143,0.125
0.464995155353,0.546667245766,-0.124024128335,-1.3570482277,0.0795081576649,1.89464913976,0.159049535995,0.0019531726277,-0.0168427201335,-0.000994521726713,-0.0235425225913,-5.89201633999e-05,0.00158449012542,-0.00516650313172,0.573875416691,0.818927442931,0.00236563602842,0.0,0.81888930406,-0.573814801523,-0.0117315024797,0.0,-0.00824997119685,0.00866978183512,-0.999928383865,0.0,0.661565473404,0.26072693281,0.303473840875,1.0,-0.00284,-0.00373257142857,0.143
0.464949818393,0.546418043598,-0.124016499909,-1.35742123782,0.0795005151443,1.89478241034,0.158944972431,-0.0047360829593,-0.0215330996539,0.000977251142981,-0.0246250825995,0.000447416681577,0.00923168435083,-0.00312049686742,0.573840386805,0.818951934081,0.0023847511128,0.0,0.818913864939,-0.573779517076,-0.0117428486756,0.0,-0.00824866610505,0.00869159391703,-0.999928205274,0.0,0.661523542447,0.260668159589,0.303484083839,1.0,-0.00316,-0.00415314285714,0.159
0.464914271677,0.546142563389,-0.124025114504,-1.35787331998,0.0794874556483,1.8949385195,0.15893320258,-0.00250911550568,-0.0183036866373,-0.000355161337507,-0.0308498458835,-0.000946455968871,0.0127461315369,-0.00747854178965,0.573893587436,0.818914697096,0.0023698273778,0.0,0.818876338209,-0.573832665967,-0.0117626991907,0.0,-0.00827292216209,0.00869130053627,-0.999928007435,0.0,0.661467767384,0.260591078994,0.303476112594,1.0,-0.00352,-0.00462628571429,0.177
0.464857281818,0.545814805916,-0.124022609193,-1.35842664554,0.0794631347925,1.89512010648,0.158857767139,-0.000702809753278,-0.0193152228905,-5.60839204934e-05,-0.0384578545343,-2.80329066269e-05,0.0114719721489,-0.00905518825838,0.573895216386,0.818913639951,0.00234047250824,0.0,0.818874767118,-0.573834266987,-0.0117939268064,0.0,-0.00831532429991,0.00868519927371,-0.999927708735,0.0,0.661403628849,0.260508845328,0.303462132756,1.0,-0.00386,-0.00507314285714,0.194
0.464794852127,0.545472381793,-0.124020103539,-1.359018687,0.079385050807,1.89530613112,0.158769536169,-0.00164749599624,-0.0232535773818,0.00033739436107,-0.0323316463596,-0.00606600735019,0.00943339931617,-0.00364715045097,0.573884545442,0.818921333756,0.00226374101399,0.0,0.81888176846,-0.573824207783,-0.0117972347736,0.0,-0.00836217883927,0.00862415300203,-0.999927846372,0.0,0.661333840296,0.260403197668,0.303438689692,1.0,-0.0042,-0.00552,0.211
0.464736534691,0.545114178059,-0.12402501831,-1.35967222386,0.0793419052818,1.89551007568,0.158727937678,-0.00267103183199,-0.0192755402243,0.00012814964452,-0.0459462373048,-0.00098262963237,0.0107856306448,-0.00683965895329,0.573926579431,0.818892098184,0.00218170930269,0.0,0.818851463893,-0.573866554013,-0.0118408262827,0.0,-0.00844451166253,0.00858242602067,-0.999927513466,0.0,0.661252516318,0.260295757016,0.303398990249,1.0,-0.00452,-0.00594057142857,0.227
0.464675859363,0.544735123514,-0.124025876962,-1.36029482891,0.0793231437102,1.89570728831,0.15862107816,-0.00317221670577,-0.0271554591926,-0.000897796121316,-0.0483083031702,-0.00576272542129,0.010632406071,-0.00114798829911,0.573918946685,0.818897522857,0.00215327569383,0.0,0.818856299713,-0.573858813609,-0.0118814714973,0.0,-0.00849419488157,0.00858239021132,-0.999927092958,0.0,0.66117575687,0.260196553589,0.303388069044,1.0,-0.00482,-0.00633485714286,0.242
0.464603396529,0.544307630282,-0.124026479768,-1.36102654486,0.0792951418874,1.89596591539,0.158538023539,-0.00611522779231,-0.0243659035007,0.00180210517628,-0.0447564179401,-0.00227406969433,0.0153378554007,-0.00289632502943,0.573944070167,0.818879996055,0.0021220939506,0.0,0.818838198134,-0.573883890086,-0.0119177547302,0.0,-0.00854153986608,0.00857794139586,-0.999926727825,0.0,0.661090880228,0.260080065587,0.303364774093,1.0,-0.00516,-0.00678171428571,0.259
0.464536965706,0.543805754788,-0.124027309034,-1.36183005994,0.0792624664904,1.89625261051,0.158443015251,-0.00435293941946,-0.0291961971888,0.000896821704015,-0.052338486609,-0.00121033652985,0.0184443602161,-0.00545558302066,0.573957305491,0.818870731228,0.0021175250917,0.0,0.818828712773,-0.573896980852,-0.0119390707098,0.0,-0.00856147914033,0.00858657251789,-0.999926483221,0.0,0.660995690443,0.259961045912,0.303362329185,1.0,-0.0055,-0.00722857142857,0.276
0.464459662919,0.543310684011,-0.12403691353,-1.36260686427,0.0792170833919,1.89651432586,0.158336413563,-0.00364856008516,-0.0314371725929,-0.00108208021538,-0.0466212959248,-0.00319781666866,0.017784033954,-0.00581035186746,0.573971055612,0.818861139313,0.00209970070464,0.0,0.818818880015,-0.573910794038,-0.0119494401064,0.0,-0.00858005643374,0.00857807248568,-0.999926396943,0.0,0.66090692336,0.259829091979,0.303365821988,1.0,-0.00582,-0.00764914285714,0.292
0.464385026979,0.542689654803,-0.124038166036,-1.36359753705,0.0791602710628,1.8968689539,0.158213428903,-0.00279440060983,-0.0324851306613,8.82180306659e-05,-0.0527704249324,-0.00111646082528,0.0242533822952,-0.00248950969722,0.573972283981,0.818860308466,0.00208790382873,0.0,0.818817846898,-0.573912022613,-0.0119612208218,0.0,-0.00859646137092,0.00857518725078,-0.99992628079,0.0,0.66078864839,0.259684468193,0.303364334761,1.0,-0.0062,-0.00814857142857,0.311
0.46430236649,0.542095588377,-0.124039387779,-1.36450951759,0.0791025196408,1.89720097147,0.158090072876,-0.00714719136384,-0.0341796028517,1.62471714223e-05,-0.0571491318271,-0.00531707960867,0.0181148709613,-0.00440129929934,0.573975064435,0.818858332871,0.00209833176402,0.0,0.818816023272,-0.573914775565,-0.0119539667959,0.0,-0.00858450699664,0.00857959171617,-0.99992634571,0.0,0.660685262136,0.259541872349,0.303379178288,1.0,-0.00654,-0.00859542857143,0.328
0.464233360247,0.541508024548,-0.124044992558,-1.36540406389,0.0790496601865,1.89752306852,0.157968730289,-0.00344303238577,-0.038964453818,-0.00078098871718,-0.0562448932171,-0.00570386481656,0.0181478588007,-0.00430752769251,0.573971632861,0.81886070574,0.00211096375905,0.0,0.818818559154,-0.573911290682,-0.0119475735173,0.0,-0.00857205758538,0.00858622989559,-0.999926395534,0.0,0.660580789921,0.259407866906,0.303396933741,1.0,-0.00686,-0.009016,0.344
0.464141888925,0.540840077479,-0.124042382454,-1.36642600155,0.0789927718339,1.89790580783,0.157843690964,-0.00536888464219,-0.0370040738974,0.000549654454047,-0.0587446501871,0.000436611876521,0.0223152418039,-0.00382717373797,0.57398384004,0.818852077807,0.00213844457582,0.0,0.818810233275,-0.573923327172,-0.0119399879807,0.0,-0.00854994535401,0.00860450611657,-0.999926427748,0.0,0.660465148773,0.259253186697,0.303415790716,1.0,-0.0072,-0.00946285714286,0.361
0.464056248211,0.540126333417,-0.124045957964,-1.36750453843,0.0789270810727,1.89829285473,0.15771055601,-0.00541405909847,-0.0407931008198,-0.000161695114487,-0.063934494489,-0.000764906391896,0.0224413780705,-0.00808229498722,0.573989554625,0.818848023727,0.00215687773015,0.0,0.818806419029,-0.573928965391,-0.0119305382764,0.0,-0.00853156734457,0.00861423553292,-0.999926500951,0.0,0.660338704327,0.259091534082,0.303440532788,1.0,-0.00754,-0.00990971428571,0.378
0.463952567238,0.539390611639,-0.12404566648,-1.36866042136,0.0788606786839,1.89872316011,0.15757712408,-0.00538293357628,-0.0477589481123,0.000180206603087,-0.0687599994496,-0.00293206433115,0.0252651084128,-0.00373433441677,0.574011247162,0.818832791762,0.00216660277732,0.0,0.818791275537,-0.57395057697,-0.0119301802956,0.0,-0.00852546406515,0.00862221912639,-0.999926484198,0.0,0.66020720437,0.258914144994,0.303447512077,1.0,-0.00788,-0.0103565714286,0.395
0.463839538273,0.538582059581,-0.124054209571,-1.36989365734,0.078790015566,1.89919661215,0.157415070283,-0.0121877445771,-0.0440554192901,0.000103797171277,-0.065476122721,-0.00471626048523,0.0297831313585,-0.00960418556153,0.57402645696,0.818822019968,0.00220753849242,0.0,0.818781061409,-0.573965644123,-0.0119062901411,0.0,-0.00848224460042,0.00864218264395,-0.999926679415,0.0,0.660072772978,0.258719485636,0.303473022883,1.0,-0.00824,-0.0108297142857,0.413
0.463748436884,0.537944253969,-0.124052059116,-1.37089531751,0.0787350949134,1.8995822511,0.157295943208,-0.0025208411227,-0.0451373153815,-4.37552402029e-05,-0.0722571228905,-0.000662828479392,0.0257070164217,-0.0141584679257,0.574042714811,0.818810565627,0.00222847305769,0.0,0.818769831703,-0.573981766988,-0.0119012923439,0.0,-0.00846596400852,0.00865662334409,-0.999926692476,0.0,0.659960705433,0.258567350422,0.303480082598,1.0,-0.00852,-0.0111977142857,0.427
0.463638332382,0.537147452368,-0.124064035086,-1.37216847072,0.0786624801724,1.90005520887,0.157137398516,-0.00386479101518,-0.0457412671763,-0.000585093500807,-0.0722804338229,-0.00409471730019,0.0334727592373,-0.00747813432432,0.574062275466,0.818796864283,0.00222392161173,0.0,0.818756078855,-0.574001351345,-0.0119028943203,0.0,-0.00846968160254,0.00865401855331,-0.999926683541,0.0,0.659816255642,0.258367411352,0.303478113205,1.0,-0.00886,-0.0116445714286,0.444
0.463510992568,0.53620372697,-0.124069855565,-1.37364145797,0.0785753883228,1.90060988192,0.156954145272,-0.00383350805642,-0.0476251422026,-0.000201311831165,-0.078452375949,-0.00672156481723,0.0243790295352,-0.015451502438,0.57407840535,0.818785499943,0.00224421369166,0.0,0.818744989686,-0.574017409356,-0.0118912792178,0.0,-0.0084483519269,0.00866413213813,-0.999926776401,0.0,0.659649168701,0.258141099306,0.303491459549,1.0,-0.00924,-0.012144,0.463
0.46339836528,0.53537231447,-0.124076218464,-1.37494906703,0.0784965386397,1.90108408791,0.156806544667,-0.00630888159967,-0.052115508227,-0.000567975673564,-0.0789691642176,-0.00136718155532,0.0290771318238,-0.00732762214306,0.574104917458,0.818766920586,0.00224062608145,0.0,0.818726366147,-0.57404393501,-0.0118930633098,0.0,-0.00845159172915,0.00866249255918,-0.999926763228,0.0,0.659496971613,0.257938231938,0.303497112224,1.0,-0.00956,-0.0125645714286,0.479
0.463270102205,0.53442206661,-0.124076930399,-1.37647934188,0.0784230719076,1.90162525566,0.156615859975,-0.00837139359036,-0.0564380594512,0.00051663925199,-0.0899734244851,-0.00300864808627,0.0325404665257,-0.0143081926426,0.574118496146,0.818757462127,0.00221754288095,0.0,0.818716382695,-0.574057375303,-0.011931532498,0.0,-0.00849619799964,0.00866581902432,-0.999926356388,0.0,0.659311629251,0.257708889304,0.303486115762,1.0,-0.00992,-0.0130377142857,0.497
0.463164148791,0.533667892484,-0.124083047589,-1.37770666172,0.0783425625933,1.90207138976,0.156470745439,-0.00681296037295,-0.0543754987722,-0.000657705054739,-0.0857382588484,-0.00594233573442,0.0366584929508,-0.0101151233753,0.574136357475,0.818745015517,0.00218849095147,0.0,0.818703612915,-0.574075408621,-0.0119401138372,0.0,-0.00851971388259,0.00864714539947,-0.999926317961,0.0,0.659168146779,0.257516946714,0.303472742024,1.0,-0.0102,-0.0134057142857,0.511
0.463032951485,0.532738393537,-0.12408796546,-1.37920792545,0.0782635820501,1.90263971388,0.156281179493,-0.00430401175882,-0.0557589207567,-0.00415150860685,-0.0909039779537,-0.00181036320286,0.0341398487393,-0.0148682871533,0.574153114983,0.818733263013,0.0021889480746,0.0,0.818691780528,-0.574092075034,-0.0119500953801,0.0,-0.00852744702136,0.00865342488875,-0.999926197719,0.0,0.658995727507,0.257287380583,0.303463053901,1.0,-0.01054,-0.0138525714286,0.528
0.462892427792,0.531640236134,-0.124083983639,-1.3809339544,0.0781645926962,1.90328338679,0.156062067362,-0.00947053249507,-0.0592557557954,0.00100953966551,-0.0914114615277,-0.00618376656036,0.0338759654414,-0.0102700719442,0.574153651483,0.81873284265,0.00220539258322,0.0,0.818691491745,-0.57409246029,-0.0119513716274,0.0,-0.00851904523009,0.00866762668262,-0.999926146331,0.0,0.658791440233,0.257034283142,0.303471275968,1.0,-0.01092,-0.014352,0.547
0.462771979699,0.530763539597,-0.124081235064,-1.3823657544,0.0780798580762,1.90378541687,0.155877118631,-0.0100394363839,-0.0619748924019,0.00220691682188,-0.097520794647,-0.00824859362863,0.0333761183405,-0.0114709581522,0.574154024953,0.818732697567,0.00216158898104,0.0,0.818690677104,-0.574092913933,-0.0119853366847,0.0,-0.00857199915578,0.00865126860815,-0.999925835441,0.0,0.658615569382,0.256818452101,0.303451011137,1.0,-0.01122,-0.0147462857143,0.562
0.462626827755,0.529675286066,-0.124084022399,-1.38411085535,0.0779664131971,1.90442055993,0.15565244928,-0.0102159161312,-0.0599507427178,8.12532813148e-05,-0.0956649385601,-0.00948249987014,0.037364846093,-0.0136987900389,0.574155219766,0.818731923511,0.00213727421641,0.0,0.818689625182,-0.574094249091,-0.0119932347785,0.0,-0.00859241277351,0.00863590884509,-0.999925793007,0.0,0.65840743618,0.256553136137,0.303442162863,1.0,-0.01158,-0.0152194285714,0.58
0.462494577418,0.528592641741,-0.124089720775,-1.38579212596,0.0778539545707,1.90505026967,0.155415575869,-0.0111128156123,-0.0696408075041,-0.000956369296482,-0.106899388646,-0.0143220372633,0.0376106881402,-0.0148970340387,0.574134543998,0.818746373126,0.0021561035461,0.0,0.818704432072,-0.574073610409,-0.0119703650644,0.0,-0.00856309570048,0.00863797792477,-0.999926026629,0.0,0.658209788943,0.256301941159,0.303459080842,1.0,-0.01192,-0.0156662857143,0.597
0.462367221098,0.527614052858,-0.124087221646,-1.38730153104,0.0777645090702,1.90563249304,0.155212734748,-0.00444248174022,-0.0666901468104,3.21882480263e-06,-0.0984541695416,-0.0052866580741,0.0399552816533,-0.0106448854894,0.574128776002,0.81875029953,0.00220056511312,0.0,0.81870892522,-0.574067647822,-0.0119489912314,0.0,-0.00852013095033,0.00866204878005,-0.999926185415,0.0,0.658035319229,0.256078275012,0.303479938468,1.0,-0.01222,-0.0160605714286,0.612
0.462202357373,0.526331722196,-0.124095339463,-1.38930619336,0.0776443516183,1.90639626187,0.154922078096,-0.010151301941,-0.0687206661278,-0.000360498898418,-0.106684800064,-0.00545792914954,0.0443643039371,-0.0160181967836,0.574107633389,0.818765035722,0.00223348694489,0.0,0.818724120314,-0.574046404859,-0.0119284024992,0.0,-0.00848459710213,0.00867696362155,-0.999926358246,0.0,0.65780222165,0.255776331455,0.303494656885,1.0,-0.0126,-0.01656,0.631
0.462056590046,0.525211437402,-0.124104590761,-1.39102473651,0.0775300551015,1.90701078794,0.154697089147,-0.0112504230455,-0.0701341620691,-0.00110391327172,-0.105183305291,-0.00959981408517,0.03720927523,-0.00741441915328,0.574110916319,0.818762714285,0.00224061609451,0.0,0.818721974674,-0.574049743558,-0.0119149909052,0.0,-0.00846948826366,0.00867513500314,-0.9999265022,0.0,0.657596622223,0.255509026093,0.303518274101,1.0,-0.01292,-0.0169805714286,0.647
0.461909938577,0.52410202974,-0.124110974193,-1.3927842028,0.0774186583862,1.90763559699,0.154445311335,-0.0150347645516,-0.0708614111222,-0.000101669863095,-0.103124526094,-0.0116862030768,0.0301256220859,-0.0124462364344,0.574093795341,0.818774787367,0.00221554157149,0.0,0.818733723445,-0.574032728118,-0.0119274492256,0.0,-0.00849426487191,0.0086615799572,-0.999926409541,0.0,0.657382059021,0.255239007012,0.303515319011,1.0,-0.01324,-0.0174011428571,0.663
0.461740173097,0.522841447325,-0.124111342099,-1.3948226901,0.0772946114971,1.90840571027,0.154183870342,-0.00937887293173,-0.0746956284254,-6.84615042521e-06,-0.114539738367,-0.00517136808981,0.0440477823507,-0.0160050835599,0.574095109516,0.818773891161,0.00220619221825,0.0,0.818732694605,-0.574034068947,-0.011933539876,0.0,-0.00850460512372,0.00865743526417,-0.999926357542,0.0,0.6571394729,0.254933978545,0.303497971085,1.0,-0.0136,-0.0178742857143,0.681
0.461588909417,0.521687055069,-0.124112090624,-1.39666926516,0.0771885820947,1.90912938265,0.153929619349,-0.00897343019736,-0.0698411982687,0.000205716754511,-0.114167908369,-0.00843354313148,0.0454450032763,-0.0111735681225,0.574081913219,0.818783070058,0.002233383635,0.0,0.818742202526,-0.574020738696,-0.0119224263946,0.0,-0.00848003562892,0.00867318177685,-0.999926429751,0.0,0.656923750736,0.25466204607,0.303493001165,1.0,-0.01392,-0.0182948571429,0.697
0.461433035375,0.520502111618,-0.124115306608,-1.39856803371,0.0770643230301,1.90983723653,0.15367272635,-0.00854599466818,-0.0750973265441,0.000554905484461,-0.115954937175,-0.00468605980462,0.0448917809789,-0.0201316923204,0.574069360589,0.818791904152,0.0022212225342,0.0,0.818750943803,-0.574008303682,-0.0119208316464,0.0,-0.00848584364267,0.00866217902101,-0.999926475853,0.0,0.656695480693,0.254375922146,0.303483021495,1.0,-0.01424,-0.0187154285714,0.713
0.461253941344,0.519107921078,-0.124120962232,-1.4007548145,0.0769217514408,1.91061695158,0.153382723773,-0.00747751985011,-0.07656058753,0.000124493268649,-0.122052188833,-0.0110877463823,0.0404195414728,-0.0115391830301,0.574060253514,0.818798334903,0.00220431325754,0.0,0.818757187117,-0.573999299511,-0.0119255862289,0.0,-0.00849953952373,0.00865096893411,-0.999926456578,0.0,0.656425797177,0.254043688628,0.303488800915,1.0,-0.0146,-0.0191885714286,0.731
0.461079751172,0.517756343472,-0.124121915774,-1.40286046089,0.0767880133969,1.91137292385,0.153088407123,-0.0105064202157,-0.0817491664449,-0.000174212835397,-0.124041345324,-0.00699972079169,0.0393861898221,-0.0183509007073,0.574038044024,0.818813907769,0.00220348772251,0.0,0.818772734791,-0.573977081469,-0.0119275149537,0.0,-0.00850182736371,0.00865116958454,-0.999926435392,0.0,0.65616584317,0.253726348979,0.303500649178,1.0,-0.01494,-0.0196354285714,0.748
0.460902201784,0.516500145546,-0.12412737406,-1.40487259403,0.0766572345284,1.91210989676,0.152818350093,-0.00829405476262,-0.0736950297417,0.000159923029755,-0.12583685142,-0.00985883603478,0.0489232396116,-0.0166977398323,0.574037334228,0.818814466661,0.0021805963971,0.0,0.818773044358,-0.573976514326,-0.0119335550377,0.0,-0.00851992041927,0.00863588593984,-0.999926413508,0.0,0.655922701558,0.253413258848,0.303488235615,1.0,-0.01526,-0.020056,0.764
0.460712241616,0.515050394191,-0.12412840898,-1.40717569528,0.0765201925525,1.91298979079,0.152500606225,-0.0150587117378,-0.0812149586926,0.00145465044431,-0.125164117548,-0.00678848893744,0.0453971279315,-0.0197191926921,0.574018273808,0.818827770057,0.00220254858828,0.0,0.818786606301,-0.573957339377,-0.0119253015796,0.0,-0.00850076283814,0.00864892482979,-0.999926463861,0.0,0.655645892905,0.253071303916,0.303484933793,1.0,-0.01562,-0.0205291428571,0.782
0.460528811551,0.513714914138,-0.124133766297,-1.40930771848,0.0763865421596,1.91372613777,0.152198466668,-0.0111460754724,-0.0835045267255,-0.000882671014832,-0.133559553013,-0.0158906767194,0.044427921979,-0.00989731963585,0.574000657551,0.818840260381,0.00214942127437,0.0,0.818798339424,-0.573939876476,-0.0119601190613,0.0,-0.00855995323122,0.00862522483803,-0.999926163623,0.0,0.655376295741,0.252740886387,0.303470187169,1.0,-0.01594,-0.0209497142857,0.798
0.460346660638,0.512400486703,-0.124136935519,-1.41145495846,0.0762629688038,1.91447878607,0.151904518012,-0.00566471001389,-0.0831989341392,-0.000581944524691,-0.130014942238,-0.00795360468246,0.0431489462533,-0.0161690629179,0.573990575027,0.818847495786,0.00208454479023,0.0,0.818804562021,-0.573929898493,-0.0120128152814,0.0,-0.00864044748606,0.0086022431549,-0.999925669277,0.0,0.655103620897,0.252413268179,0.303434459477,1.0,-0.01626,-0.0213702857143,0.814
0.460135920741,0.510859151895,-0.124139791762,-1.41389264679,0.0761125930413,1.91541432313,0.1515648711,-0.011181946548,-0.0845957364947,0.00109027234858,-0.132278624095,-0.0154510701722,0.0615953537413,-0.0166995788304,0.573974211562,0.81885889014,0.00211409597515,0.0,0.818816372187,-0.573913443349,-0.0119939602571,0.0,-0.00860821861875,0.00861544615296,-0.99992583358,0.0,0.65481198927,0.252043692032,0.303434742837,1.0,-0.01662,-0.0218434285714,0.832
0.459956954039,0.509549274981,-0.124143360047,-1.41598112559,0.0759712650728,1.91619408772,0.151274900815,-0.00577037843149,-0.0865582488519,-0.000381969798288,-0.143795775504,-0.00895738625879,0.0483739918025,-0.0139275629828,0.573956533632,0.818871303503,0.00210539819561,0.0,0.818828778191,-0.573895910056,-0.0119859637975,0.0,-0.00860684809362,0.00860354851055,-0.999925947818,0.0,0.654557207206,0.251723926435,0.303425241459,1.0,-0.01692,-0.0222377142857,0.847
0.45975830223,0.508135401607,-0.124144752445,-1.41821049107,0.0758333295943,1.91699032186,0.150964296119,-0.0127400632578,-0.0898577818864,-0.000435085753328,-0.143405712963,-0.00680685927613,0.0549378700911,-0.0197883417335,0.573941204154,0.818882080117,0.00209283047176,0.0,0.818839345121,-0.573880589365,-0.0119976219906,0.0,-0.00862376890183,0.00859978711777,-0.999925834385,0.0,0.654261410185,0.251356233002,0.303426485315,1.0,-0.01726,-0.0226845714286,0.864
0.459521719898,0.506413994637,-0.12414723958,-1.42091040116,0.0756635811636,1.91797718874,0.15059419902,-0.0103045144111,-0.097395014261,0.000141260864059,-0.149516539358,-0.00562131100845,0.0600256634527,-0.0199417693599,0.573930634704,0.818889488549,0.00209260439619,0.0,0.818846710919,-0.573869982625,-0.0120022481199,0.0,-0.00862779808773,0.00860214572638,-0.99992577934,0.0,0.653943356024,0.25096460954,0.303426668431,1.0,-0.01762,-0.0231577142857,0.882
0.45929556352,0.50480759974,-0.124157859382,-1.42337323816,0.0755064154367,1.91893088219,0.150251643945,-0.0160208358111,-0.101944570186,-0.000823246661514,-0.149235716835,-0.00886197602864,0.0594495182431,-0.0197293286035,0.573927741597,0.818891320073,0.00216800256622,0.0,0.818849657827,-0.573866910115,-0.0119479811024,0.0,-0.00854011750706,0.00863271217672,-0.999926268619,0.0,0.653653021649,0.250578747014,0.303460076245,1.0,-0.01796,-0.0236045714286,0.899
0.459092203511,0.503356884103,-0.124159060845,-1.4255479503,0.0753740099895,1.91975003379,0.149947886171,-0.0130281870518,-0.0925266267658,0.000127414226349,-0.135673930268,-0.0102926643795,0.0586619516403,-0.022998885711,0.573922500968,0.818894772147,0.00224987432993,0.0,0.818854169508,-0.57386133169,-0.0119066356378,0.0,-0.00845932866687,0.00867597211866,-0.999926580938,0.0,0.653390757001,0.250240404978,0.303509309207,1.0,-0.01826,-0.0239988571429,0.914
0.458852449724,0.501658368163,-0.124166259062,-1.42806784447,0.0752082191523,1.92066718405,0.149597133729,-0.012527524471,-0.0982215261335,-0.000430999344116,-0.146971109143,-0.0139105686534,0.057597572418,-0.0183024167457,0.573920742615,0.818895791213,0.00232620534307,0.0,0.818856264415,-0.573859356829,-0.0118576434963,0.0,-0.00837542090361,0.00871034307966,-0.999926988459,0.0,0.653082874527,0.249838514284,0.303575333242,1.0,-0.0186,-0.0244457142857,0.931
0.458607623641,0.49985670508,-0.124163223912,-1.43082414409,0.0750334774092,1.92163931711,0.149206244341,-0.0131394675236,-0.0944940734076,-3.11181742635e-05,-0.158027258078,-0.0116781782504,0.0522400830113,-0.0225491795577,0.573892051565,0.818915854202,0.00234174922609,0.0,0.818876447291,-0.573830523016,-0.0118592507527,0.0,-0.00836812238946,0.00872370098948,-0.999926933115,0.0,0.652729971211,0.249415068117,0.303604655735,1.0,-0.01896,-0.0249188571429,0.949
0.458352552241,0.498171764786,-0.124163574811,-1.43344176776,0.0748657409648,1.92263398059,0.148821395407,-0.0124299496257,-0.0996534001552,0.000934714772993,-0.155318785835,-0.013868746921,0.0584039995738,-0.027663410203,0.573873941751,0.818928406932,0.00238960236503,0.0,0.818889674834,-0.573812285233,-0.0118282993844,0.0,-0.00831550727699,0.00874494186284,-0.999927186514,0.0,0.652413662647,0.249000529561,0.303619987883,1.0,-0.0193,-0.0253657142857,0.966
0.458103927179,0.496611072953,-0.124168899646,-1.43595773371,0.0747156780449,1.92352764462,0.148454534098,-0.0163407598917,-0.0984445390205,-0.00117567128373,-0.154367835377,-0.00880515378243,0.0604673856518,-0.0196737294622,0.573867880342,0.81893280073,0.00233895330889,0.0,0.81889327406,-0.573806278892,-0.0118704214041,0.0,-0.00837913267589,0.00872757473578,-0.999926807109,0.0,0.652095852535,0.248593920407,0.303588002786,1.0,-0.01962,-0.0257862857143,0.982
0.457822784787,0.494823957669,-0.1241664203,-1.43886010139,0.0745353898824,1.92451825194,0.148035515245,-0.0217280772971,-0.0984360770329,0.000340284621758,-0.160187369182,-0.0126337118447,0.0587875278485,-0.0206764916463,0.573850582583,0.81894521332,0.00223458062791,0.0,0.818904123117,-0.573789188939,-0.0119478324243,0.0,-0.00850260566883,0.00868634512599,-0.999926123824,0.0,0.651716457818,0.248129801235,0.303537427655,1.0,-0.01998,-0.0262594285714,1.0
0.457533271345,0.492885027494,-0.124217171782,-1.4418751616,0.0743502565121,1.92561951256,0.147615784416,-0.0180747774189,-0.132929417544,-0.00633384862968,-0.195182144609,-0.015256993893,0.0743679489458,-0.0295048501087,0.573882000476,0.818923167621,0.00224543178589,0.0,0.818882363848,-0.573820707315,-0.0119254742686,0.0,-0.00847773513046,0.00868272668796,-0.999926366421,0.0,0.651348623499,0.24762440157,0.303549240419,1.0,-0.0276691428571,-0.0363651591837,1.017
0.457226018488,0.490461100805,-0.124263358656,-1.44566569027,0.074147787576,1.92705238662,0.147050476193,-0.0203028296667,-0.15939936726,-0.000910513518815,-0.255201144764,-0.0116923445519,0.0975806851066,-0.0366181672282,0.573839825138,0.818952549228,0.00230740109,0.0,0.818912448616,-0.573778182277,-0.0119057106625,0.0,-0.00842643792929,0.00872169832099,-0.999926460857,0.0,0.650873676588,0.247044269471,0.30355707578,1.0,-0.0353582857143,-0.0464708897959,1.033
0.456734807496,0.487249604203,-0.12428011513,-1.45080619027,0.0738548706699,1.92894578844,0.146286589212,-0.0306145374781,-0.201176601118,-0.00330818319049,-0.325874186033,-0.0202582983458,0.12772469988,-0.0511312291103,0.573805762355,0.818976476824,0.00228569408675,0.0,0.818935802419,-0.573743910423,-0.0119508857647,0.0,-0.00847625444929,0.00872949190781,-0.999925971801,0.0,0.650222734685,0.246229150761,0.303507363941,1.0,-0.043528,-0.0572082285714,1.05
0.456138590031,0.483291636053,-0.124388016513,-1.45697505025,0.0734774217979,1.93121327752,0.145348994305,-0.037028742303,-0.243824247269,-0.0042238938088,-0.387976765107,-0.0213445268819,0.135580883312,-0.0646002859261,0.573806639468,0.818975783642,0.0023137008283,0.0,0.818935753847,-0.573744964175,-0.0119035312096,0.0,-0.00842139173949,0.00872526556156,-0.999926472248,0.0,0.649459906121,0.245192655431,0.303518711472,1.0,-0.0516977142857,-0.0679455673469,1.067
0.455451260769,0.478929034909,-0.124482743902,-1.46384173316,0.073072262235,1.93360050215,0.144313502267,-0.0461869395218,-0.287128722562,-0.00458664666395,-0.445742786192,-0.0319777067619,0.155693194955,-0.066777393785,0.573815930315,0.818969554165,0.00221232196264,0.0,0.818928020265,-0.573754475539,-0.0119769079594,0.0,-0.00853955775737,0.00868444023047,-0.999925825475,0.0,0.648573657409,0.244032199263,0.303484688717,1.0,-0.0593868571429,-0.0780512979592,1.083
0.45454020995,0.473274420263,-0.124596308657,-1.47256498574,0.0725396634589,1.93676844732,0.143052132956,-0.0542096094579,-0.332688483814,-0.0037158131276,-0.502410276903,-0.0331360001425,0.176853445861,-0.0733905771692,0.573889019431,0.81891814566,0.00228275868696,0.0,0.818877652549,-0.57382739489,-0.011927192891,0.0,-0.00845764805062,0.00871435288597,-0.999926261403,0.0,0.647474480933,0.24254635292,0.303524010727,1.0,-0.0680371428571,-0.089420244898,1.101
0.453619771123,0.467622016184,-0.124655841869,-1.48115923515,0.0720265082062,1.93995180832,0.141698066005,-0.0577642444903,-0.369884200403,-0.00389608598074,-0.556759643849,-0.0375938650297,0.211774915587,-0.0945728581684,0.573849011715,0.818945565872,0.00249375089213,0.0,0.818907705352,-0.573786448758,-0.0118333527864,0.0,-0.00826015035886,0.00883287968286,-0.999926872402,0.0,0.64638632965,0.241107130815,0.303615161672,1.0,-0.0757262857143,-0.0995259755102,1.117
0.452628417055,0.461841692609,-0.124689822856,-1.49007047301,0.0714485738942,1.9431149685,0.140281426685,-0.0671046509315,-0.39359395702,-0.00215242511114,-0.616008550129,-0.0398441080041,0.214949379043,-0.0947052086136,0.573785609426,0.818989927635,0.00251391090655,0.0,0.818952171076,-0.573722808519,-0.0118417640827,0.0,-0.00825615644009,0.00885357707448,-0.999926722342,0.0,0.645133333814,0.239488020006,0.303638422096,1.0,-0.0834154285714,-0.109631706122,1.133
0.45122287451,0.453803783485,-0.124798007104,-1.50259608743,0.0706324383901,1.94735010057,0.138395062778,-0.0763290460456,-0.43779504948,-0.0049639896656,-0.670707894316,-0.0442692597704,0.230030377721,-0.107185691446,0.573827911781,0.818960962843,0.00228383489167,0.0,0.818919944365,-0.573765735435,-0.0119896815316,0.0,-0.00850885874699,0.00875046033212,-0.999925511609,0.0,0.643527302957,0.237408118241,0.303570411344,1.0,-0.0920657142857,-0.121000653061,1.151
0.449854657824,0.445797773949,-0.124911620119,-1.51442288876,0.0698174364642,1.95179182446,0.136527563123,-0.0835636370435,-0.477589754487,-0.00539891498432,-0.724703348336,-0.0468302684614,0.262826645314,-0.10951584728,0.573815737646,0.818968025996,0.00276016790014,0.0,0.818934160586,-0.573752806036,-0.0116320717294,0.0,-0.00794279366805,0.00893523363308,-0.999928534261,0.0,0.642018154659,0.235343752736,0.303818878584,1.0,-0.100235428571,-0.131737991837,1.168
0.448403623173,0.43789989266,-0.124926780609,-1.52661261858,0.0690220026617,1.95593884975,0.13460062387,-0.0974327883437,-0.508128836867,0.0011207175473,-0.774263338721,-0.0497538452976,0.258010315351,-0.128390207742,0.573760435126,0.819007143596,0.00264739942883,0.0,0.818971138708,-0.573697157605,-0.0117725197141,0.0,-0.00812312861201,0.00892292155243,-0.999927195476,0.0,0.640325764926,0.233229821005,0.303778473315,1.0,-0.107924571429,-0.141843722449,1.184
0.446634826891,0.428287231747,-0.124989152763,-1.5410402697,0.0680310702312,1.96109856199,0.132243109074,-0.0988992415027,-0.535025310313,-0.00596455860097,-0.826309041266,-0.057530039717,0.290956319226,-0.127757407087,0.573677952043,0.819064023413,0.00291200824098,0.0,0.819031688378,-0.573614028272,-0.011609776239,0.0,-0.00783893218347,0.00904547383602,-0.999928362707,0.0,0.638369929158,0.230687124227,0.303913301513,1.0,-0.116574857143,-0.153212669388,1.202
0.445094171393,0.420438473406,-0.12504098846,-1.55301930995,0.0671749475397,1.96514477852,0.130227648723,-0.114483240105,-0.560584963081,-0.00278655076729,-0.872176106753,-0.0580559053852,0.280278684403,-0.142185502289,0.573604785247,0.819115648285,0.00280213814107,0.0,0.819081837346,-0.573541184395,-0.011670494125,0.0,-0.00795249584293,0.00898960481114,-0.999927969813,0.0,0.636562157349,0.228359664171,0.303894611836,1.0,-0.123783428571,-0.162686791837,1.217
0.443094191592,0.410360135303,-0.125164009965,-1.56814332316,0.0660872343318,1.97048700742,0.127747632835,-0.124145376046,-0.595991611542,-0.00794599401362,-0.902698039641,-0.0693911361949,0.311223605446,-0.153193761568,0.573618758593,0.819105140061,0.00300603006333,0.0,0.819074576064,-0.573555185111,-0.0114906648862,0.0,-0.00768808656104,0.00905359803698,-0.999929460356,0.0,0.634596139762,0.225726357979,0.303993141993,1.0,-0.131472571429,-0.172792522449,1.233
0.440444903144,0.397836487956,-0.125272187855,-1.58702395687,0.0648309239083,1.97686307973,0.124577008628,-0.141439889958,-0.660317366354,-0.00113188083431,-0.942494733468,-0.0786332959448,0.34552465451,-0.160746948364,0.573682414346,0.819060439251,0.00303829309863,0.0,0.819029467568,-0.573617757435,-0.0115821635297,0.0,-0.00774382216706,0.00913311095667,-0.999928307181,0.0,0.63188995975,0.222187108674,0.304011281953,1.0,-0.141084,-0.185424685714,1.253
0.438302121042,0.388029694499,-0.125398140751,-1.60184689862,0.063703307187,1.98190690795,0.122036907452,-0.145751180589,-0.669710171425,-0.0108228163929,-1.00321374852,-0.0730097782379,0.340288278053,-0.175184633657,0.573707906816,0.819042759293,0.00299048615198,0.0,0.819011711585,-0.573644038784,-0.0115360285955,0.0,-0.00773317502557,0.00906772858218,-0.99992898463,0.0,0.629755796282,0.219337383132,0.3039857338,1.0,-0.148292571429,-0.194898808163,1.268
0.435544685784,0.375633960046,-0.125525011979,-1.6203082934,0.0623232632179,1.98801797402,0.118714317626,-0.156814464073,-0.705647358184,-0.00427433139979,-1.04162145972,-0.0756349576906,0.346452184138,-0.186500890533,0.573641550559,0.819089267683,0.0029816002334,0.0,0.819058162423,-0.573577786757,-0.0115323895272,0.0,-0.00773602577206,0.00905773620776,-0.999929053143,0.0,0.627023563776,0.215762094039,0.304024840644,1.0,-0.156942857143,-0.206267755102,1.286
0.432819985578,0.364249141745,-0.125671678556,-1.63722526587,0.0610443188124,1.99362638006,0.11571672446,-0.176406945303,-0.732695201302,-0.0150896167943,-1.0612935427,-0.0820950841306,0.348144424676,-0.185467468792,0.573775986572,0.818995050887,0.00299512227191,0.0,0.818964308725,-0.573712383358,-0.0115025700633,0.0,-0.0077023575115,0.00905297102488,-0.999929356207,0.0,0.624516302487,0.212359835865,0.304045387718,1.0,-0.164632,-0.216373485714,1.302
0.429727344317,0.35166280614,-0.125825686688,-1.65597830902,0.0596113930741,1.99972009667,0.112237621269,-0.187106845005,-0.745099905795,-0.00955086691593,-1.13370002815,-0.0802468047251,0.357964318188,-0.208064823627,0.573817231846,0.81896654352,0.00288650859113,0.0,0.818934314576,-0.573753877269,-0.0115682163726,0.0,-0.00781798720192,0.00900207614879,-0.999928918324,0.0,0.621662546748,0.208559443739,0.303996614965,1.0,-0.172801714286,-0.22711082449,1.319
0.426424687673,0.338509590513,-0.125986960478,-1.67507930904,0.0581651648318,2.00597184328,0.108619625692,-0.198461173672,-0.762612244493,-0.00984019467864,-1.14860372753,-0.094848038034,0.370871524331,-0.218196793793,0.573901797154,0.818906450117,0.00311449536841,0.0,0.818877125438,-0.573837659311,-0.0114604141185,0.0,-0.00759793859439,0.00912771701006,-0.999929475569,0.0,0.618737779437,0.204624077008,0.304125577735,1.0,-0.180971428571,-0.237848163265,1.336
0.422960413645,0.325027315694,-0.12606960773,-1.69480979586,0.0565299112469,2.01229716635,0.104737131705,-0.212812109998,-0.799101546703,-0.00728795853878,-1.16639466039,-0.108532026874,0.38115684853,-0.232209816244,0.573767061977,0.819000908135,0.00310128436545,0.0,0.818971742107,-0.573703376863,-0.0114222549291,0.0,-0.00757576570379,0.0090937529943,-0.999929953262,0.0,0.615615267176,0.200573900598,0.304130943687,1.0,-0.189141142857,-0.248585502041,1.353
0.41947071591,0.311964471394,-0.126116467715,-1.71390057252,0.0549851446509,2.01823825206,0.100959094038,-0.222684241045,-0.802685597455,-0.00268739151391,-1.19788540357,-0.100913610134,0.367675414672,-0.247827301079,0.573686933141,0.819057416946,0.00299956509313,0.0,0.81902643691,-0.57362298039,-0.0115377169261,0.0,-0.00772958197274,0.00907593528916,-0.999928937956,0.0,0.612508247247,0.19661377128,0.304086457735,1.0,-0.196830285714,-0.258691232653,1.369
0.415488360389,0.297583599939,-0.126233408527,-1.7347025901,0.0531965781824,2.02467969115,0.0966897164896,-0.237444660751,-0.849291995052,-0.00918925369516,-1.23444082306,-0.107714696083,0.37410913455,-0.244449296453,0.573599275392,0.819119053358,0.0029316541115,0.0,0.819087495159,-0.57353590232,-0.0115321691785,0.0,-0.00776496011404,0.00901629869902,-0.99992920337,0.0,0.609093838023,0.192168427246,0.304079235999,1.0,-0.205,-0.269428571429,1.386
0.411221780352,0.282737760224,-0.126402023769,-1.75579098023,0.0514920430932,2.03115829369,0.0922948473503,-0.258438347781,-0.873093489363,-0.00634702442161,-1.26333859557,-0.10498799222,0.38020011503,-0.266598030689,0.5736838425,0.819059143524,0.00311691584496,0.0,0.819029521151,-0.573619330777,-0.0115001627402,0.0,-0.00763153719403,0.00915047981722,-0.99992901166,0.0,0.605593374832,0.187547912843,0.304181187522,1.0,-0.213169714286,-0.280165910204,1.403
0.406939914354,0.268414999879,-0.126559373883,-1.77611035115,0.0497568381604,2.0372530585,0.087856219345,-0.271763358198,-0.903893226919,-0.0140884443028,-1.27941894315,-0.111119834134,0.383971032053,-0.278947841424,0.573663462389,0.819073257704,0.0031586920046,0.0,0.819043972549,-0.573598579765,-0.0115059647103,0.0,-0.0076125533158,0.00918783609568,-0.999928813816,0.0,0.602144255049,0.18301438413,0.304221958389,1.0,-0.220858857143,-0.290271640816,1.419
0.401711895907,0.251902962148,-0.126786581252,-1.79934573578,0.047660860695,2.04410194297,0.0827177412634,-0.300621084568,-0.938617272898,-0.00990230197349,-1.29670930316,-0.118677979161,0.382694244612,-0.293185435088,0.573811030402,0.818969831345,0.00317232349377,0.0,0.818941089246,-0.573746530729,-0.0114524111934,0.0,-0.007559215203,0.00916964246895,-0.999929385468,0.0,0.598152857901,0.177634360299,0.304273950365,1.0,-0.229509142857,-0.301640587755,1.437
0.397478466177,0.238897413369,-0.126894464988,-1.81782508978,0.0460206120636,2.0493354827,0.0784696559227,-0.301193198616,-0.940125844383,-0.00286091562633,-1.31943395567,-0.121288497374,0.37480611005,-0.307902053364,0.573775673608,0.818995430892,0.00295083974373,0.0,0.818963031292,-0.573710949989,-0.0116638818771,0.0,-0.00785988821836,0.0091092557237,-0.999927619189,0.0,0.594854890342,0.173386841517,0.304164563789,1.0,-0.236237142857,-0.310483102041,1.451
0.392120739866,0.222598777766,-0.127013194396,-1.84044060543,0.0439537242143,2.05587131011,0.0731230171459,-0.321767324171,-0.941359869171,-0.0096266228472,-1.34698004281,-0.134301188308,0.364166610276,-0.319841456826,0.573681201819,0.819061114167,0.00308493761225,0.0,0.819030330587,-0.573615900865,-0.0116130424485,0.0,-0.0077423712838,0.00918901853811,-0.999927806207,0.0,0.590794688661,0.168147838864,0.304212302075,1.0,-0.244406857143,-0.321220440816,1.468
0.385656467691,0.203942680765,-0.127219383326,-1.86613049377,0.0414744161302,2.06299931802,0.0668162985976,-0.350760378337,-0.966855509452,-0.0117555697831,-1.38355230201,-0.13637209808,0.366587352109,-0.34077482481,0.573640463569,0.819089708436,0.0030683860685,0.0,0.819058926078,-0.573575477621,-0.0115928419553,0.0,-0.00773577547001,0.00916348865694,-0.999928091541,0.0,0.586081966975,0.161976941177,0.304238136826,1.0,-0.253537714286,-0.333220995918,1.487
0.379824649939,0.187824759877,-0.127417339343,-1.88795996383,0.0393822326369,2.06893142098,0.0611957929188,-0.373947030162,-1.01736463078,-0.0179369063509,-1.37905407464,-0.140017086514,0.372928050637,-0.350555678511,0.57364444683,0.819086387614,0.00320704648152,0.0,0.819057301738,-0.573578900288,-0.0115381330857,0.0,-0.00761138009755,0.00924571881781,-0.999928289217,0.0,0.582011458899,0.15659007041,0.304331879353,1.0,-0.261226857143,-0.343326726531,1.503
0.373160443897,0.170449714327,-0.12769396102,-1.91141149123,0.0371174180348,2.07513500521,0.0549918277719,-0.391452230963,-1.01907226213,-0.0155432835973,-1.38106199105,-0.138562614776,0.346930913549,-0.370062970717,0.573834926133,0.818952660527,0.00328089433137,0.0,0.818924131544,-0.57376863601,-0.0115570761033,0.0,-0.00758236994146,0.00931883686956,-0.999927830869,0.0,0.577567565999,0.150601460992,0.304371840537,1.0,-0.269396571429,-0.354064065306,1.52
0.365828749246,0.151672494649,-0.127900692038,-1.93650181004,0.0345009270409,2.08159153997,0.0480642587167,-0.407559692801,-1.03417159228,-0.0100130288317,-1.40724770735,-0.147561736329,0.349950457679,-0.381193964395,0.573758770472,0.819005936182,0.00330101595493,0.0,0.818978003166,-0.573692842151,-0.0115021779043,0.0,-0.0075267276703,0.00930311402108,-0.999928397657,0.0,0.572676039843,0.144190745491,0.304412339337,1.0,-0.278046857143,-0.365433012245,1.538
0.359352668675,0.135728495369,-0.128098898092,-1.95763326206,0.0323026691289,2.08686859538,0.0420225615493,-0.443514613212,-1.08315967616,-0.0152330449815,-1.41766147258,-0.148277260854,0.36556769855,-0.408424728507,0.573745676593,0.819015012049,0.00332498588713,0.0,0.81898724862,-0.573679503216,-0.0115091741173,0.0,-0.00751885488771,0.00932663950109,-0.999928237733,0.0,0.56847042279,0.138680507696,0.304429232899,1.0,-0.285255428571,-0.374907134694,1.553
0.35111931075,0.116255744626,-0.128417870797,-1.98313319991,0.0295384884388,2.09306791475,0.0344161712291,-0.468422302202,-1.10907800745,-0.0222810594927,-1.42507688918,-0.164058929434,0.359952077844,-0.432307598397,0.573774772987,0.818994427987,0.00337397553256,0.0,0.81896763021,-0.573708864013,-0.0114414563354,0.0,-0.0074349524626,0.00932817535402,-0.999928850782,0.0,0.563310963821,0.131833193279,0.30447073843,1.0,-0.293905714286,-0.386276081633,1.571
0.342858242255,0.097574817602,-0.128707331372,-2.00733852849,0.0268434387475,2.09871016946,0.0268392542378,-0.486672077277,-1.13564151679,-0.0142127868441,-1.42586264595,-0.168994235192,0.347871104104,-0.461936104405,0.573774841148,0.818994319748,0.00338862619252,0.0,0.818967905446,-0.573709133844,-0.0114081766748,0.0,-0.00739928855671,0.00932108031426,-0.999929181488,0.0,0.558295400852,0.125186222472,0.304497581114,1.0,-0.302075428571,-0.397013420408,1.588
0.335283264603,0.0809354264569,-0.128909851104,-2.02888912558,0.0245762114716,2.10336169554,0.0198412176978,-0.518717025231,-1.11809750518,-0.0168022653387,-1.42262842395,-0.146470141966,0.296960720798,-0.473347413143,0.573708846518,0.819041150973,0.00324026866641,0.0,0.819010863567,-0.573641203647,-0.0117354905397,0.0,-0.00775324733495,0.00938675070356,-0.999925885287,0.0,0.553661264514,0.11927827948,0.30440619789,1.0,-0.309284,-0.406487542857,1.603
0.325075406087,0.0595628220105,-0.129258910303,-2.05602756569,0.0213798292087,2.10923075828,0.0106389510734,-0.555743383101,-1.10951591422,-0.016864786342,-1.40074121759,-0.164778722664,0.292079900799,-0.485849075139,0.573721278736,0.819032501333,0.00322536626735,0.0,0.819002351,-0.573654084443,-0.0116998871784,0.0,-0.00773249220239,0.0093542368869,-0.999926350696,0.0,0.547790122116,0.111517612525,0.304407316436,1.0,-0.30998,-0.407402285714,1.622
0.316089168307,0.0416458488703,-0.129528748171,-2.07853978449,0.018727602695,2.11374646332,0.0027193796094,-0.554823307524,-1.10381713929,-0.0105107460422,-1.38693589636,-0.155682626091,0.262630453707,-0.493049212243,0.573846943781,0.818944804966,0.00313662772851,0.0,0.81891284726,-0.573779254635,-0.0118263453502,0.0,-0.00788554398729,0.00935531699809,-0.999925145318,0.0,0.542777708413,0.104924617423,0.304376230256,1.0,-0.30998,-0.407402285714,1.638
0.306907242333,0.0237802449997,-0.129735487971,-2.10043753651,0.0160251159331,2.11806355661,-0.00545199508557,-0.582619922284,-1.11651095276,-0.0163338055994,-1.37494122915,-0.179875379226,0.266035251683,-0.51923103264,0.573797839917,0.818978580314,0.0032970889063,0.0,0.818949259262,-0.573730273333,-0.0116803731154,0.0,-0.00767448342974,0.00940250240786,-0.999926344914,0.0,0.537826602303,0.0984078854591,0.304483294858,1.0,-0.30998,-0.407402285714,1.654
0.296208512123,0.00399326604578,-0.130025649728,-2.12438028249,0.0130595629114,2.12246697791,-0.0148398201919,-0.610352168634,-1.10501531011,-0.0186129526001,-1.32710863363,-0.165477252105,0.238508712103,-0.531456126646,0.573901803147,0.8189050374,0.00346510691635,0.0,0.81887794931,-0.573833750172,-0.0115964735671,0.0,-0.00750815987899,0.00949291950424,-0.999926753325,0.0,0.532291764376,0.0910288226178,0.304596721669,1.0,-0.30998,-0.407402285714,1.672
0.286529473337,-0.0134304065434,-0.130165909336,-2.14520094692,0.0104981229655,2.12616380183,-0.0234390348361,-0.605805936802,-1.06551890926,-0.0054493254149,-1.29082060745,-0.163423824487,0.215317866351,-0.545960390904,0.573790395872,0.818982051098,0.00370519709697,0.0,0.818957844162,-0.573721334348,-0.011516375364,0.0,-0.00730609475928,0.00964257145521,-0.99992681822,0.0,0.52705396003,0.0842023418814,0.304689705353,1.0,-0.30998,-0.407402285714,1.689
0.276540914108,-0.0306400742768,-0.130395600881,-2.16559342059,0.00776879636436,2.1294977698,-0.0322057659069,-0.631111925959,-1.07819762111,-0.0162809690052,-1.25710171253,-0.175822491297,0.217079490514,-0.558803890295,0.573786696389,0.818984372843,0.00376443730215,0.0,0.81896154282,-0.573718278528,-0.0114050499824,0.0,-0.00718096947438,0.00962718068543,-0.999927872934,0.0,0.522433177894,0.078080074493,0.304762042604,1.0,-0.30998,-0.407402285714,1.704
0.264888992825,-0.0497786534717,-0.130706364211,-2.18813501037,0.00485996516224,2.13287869907,-0.0423474114896,-0.652283955974,-1.08057514041,-0.0161696330561,-1.21451377177,-0.162830981185,0.187318096722,-0.568790203038,0.573933519748,0.81888139249,0.00378508181348,0.0,0.818857936522,-0.573863826657,-0.0115210741793,0.0,-0.00726241155719,0.00971196192373,-0.999926464883,0.0,0.516843783705,0.0706828740782,0.304755609164,1.0,-0.30998,-0.407402285714,1.722
0.253075813797,-0.0686216948939,-0.130902995298,-2.21017755648,0.00187201001972,2.13594268891,-0.0527643156419,-0.662780921165,-1.0206573743,-0.0107665446602,-1.20433896427,-0.164047301352,0.15791680709,-0.587788703917,0.573806456429,0.818970947387,0.00367216513834,0.0,0.818945406236,-0.573736305135,-0.011654212772,0.0,-0.00743775041634,0.00969475195816,-0.99992534304,0.0,0.511224748601,0.0634300756238,0.30468329123,1.0,-0.30998,-0.407402285714,1.74
0.242102272554,-0.0852930963488,-0.131231156724,-2.22921560654,-0.000794390941383,2.13843314618,-0.0623268831093,-0.690759187041,-1.02142652206,-0.00899701960321,-1.19850614085,-0.163851125394,0.152739188217,-0.6034670178,0.573903210362,0.818903016251,0.00370162289326,0.0,0.81887788975,-0.573832995003,-0.0116379734354,0.0,-0.00740640079429,0.00971043441613,-0.999925423565,0.0,0.505974413357,0.0564077233106,0.304689036806,1.0,-0.30998,-0.407402285714,1.757
0.231780343315,-0.100818909372,-0.131353380011,-2.24674673464,-0.00324481495012,2.14044988251,-0.0714708279826,-0.695050146381,-1.03263555875,-0.0106834816151,-1.16718404738,-0.172110209317,0.128232820834,-0.602394207114,0.573728304846,0.819025259759,0.00376868626964,0.0,0.819000857669,-0.57365771385,-0.0116262366726,0.0,-0.00736038727142,0.00975704619841,-0.999925309585,0.0,0.501627409894,0.0508325810556,0.304734983676,1.0,-0.30998,-0.407402285714,1.771
0.21960617863,-0.11814573443,-0.131666657275,-2.26621749944,-0.0061035803776,2.14244058591,-0.0820415814289,-0.73694453412,-1.02948797024,-0.0233767310107,-1.11808897901,-0.162670253874,0.121133320718,-0.623802216441,0.573808925397,0.818969383026,0.00363506560044,0.0,0.818942858407,-0.573738242829,-0.0117375585714,0.0,-0.00752726987458,0.00971221387419,-0.999924503705,0.0,0.496327818115,0.043860928813,0.304683425819,1.0,-0.30998,-0.407402285714,1.788
0.206411002148,-0.136308064693,-0.131920603161,-2.28637827908,-0.00898734152651,2.14422944341,-0.093649739387,-0.733571755833,-1.00662815225,-0.0151725052322,-1.12235479271,-0.163154492706,0.0891116339643,-0.648440046232,0.57376349754,0.819001579986,0.00355074259551,0.0,0.818972581921,-0.573691359659,-0.0119532763138,0.0,-0.00775287110642,0.00976650249151,-0.999922251187,0.0,0.490690657757,0.0365624474799,0.30461470103,1.0,-0.30998,-0.407402285714,1.806
0.195093633254,-0.151366750273,-0.132218940381,-2.3026172226,-0.0114178820003,2.14565432814,-0.103610733,-0.78072135883,-0.989740246738,-0.0258968716846,-1.09670769189,-0.162241232203,0.0797236781067,-0.672547302633,0.573784435373,0.818986059568,0.00374203926529,0.0,0.818960125373,-0.573712360442,-0.0117977720591,0.0,-0.00751550136734,0.0098341482633,-0.99992340045,0.0,0.4860956949,0.0304238000978,0.304687932984,1.0,-0.30998,-0.407402285714,1.821
0.181963405418,-0.168237014986,-0.132530098101,-2.32061342149,-0.0141066763479,2.14680028709,-0.115083067763,-0.773836895132,-1.01578175457,-0.0130890265946,-1.03656704125,-0.156419256572,0.0740774401472,-0.681656761454,0.573883694431,0.818916118745,0.00382656860834,0.0,0.818890744578,-0.57381060814,-0.0118355959665,0.0,-0.00749677898788,0.00992598826192,-0.999922633538,0.0,0.480832517108,0.0234908534883,0.304733878756,1.0,-0.30998,-0.407402285714,1.838
0.166918235175,-0.186790881079,-0.13292233845,-2.34034258881,-0.0171924189908,2.14777273798,-0.1283767537,-0.809299972751,-0.965818356839,-0.0268734634151,-1.02167656009,-0.16721140045,0.0400983280425,-0.696985543955,0.57387413061,0.818923297125,0.00372324370956,0.0,0.818895692285,-0.573800254444,-0.011994167707,0.0,-0.00768605315731,0.00993228202752,-0.99992113407,0.0,0.474894438996,0.0157267050495,0.304681921976,1.0,-0.30998,-0.407402285714,1.857
0.154773165331,-0.201284919009,-0.133156207146,-2.35535376962,-0.0195688493574,2.14845595554,-0.139159517537,-0.803340495128,-0.952800551292,-0.0126304063303,-0.998115324843,-0.153842721356,0.0355606690999,-0.73025349182,0.57379520165,0.818977957233,0.0038625161146,0.0,0.818952694783,-0.573721532732,-0.0118673286248,0.0,-0.00750321634968,0.00997282620984,-0.999922119208,0.0,0.47029288437,0.00965866753254,0.304740054341,1.0,-0.30998,-0.407402285714,1.872
0.139798011967,-0.218507811695,-0.133541805119,-2.372960187,-0.0223649593384,2.14889594201,-0.15241786472,-0.843069962675,-0.960247100715,-0.0249907672347,-0.957966643861,-0.162626697166,0.0323298956549,-0.741105407269,0.573850303483,0.818938759968,0.00398541295942,0.0,0.818914839448,-0.573775857608,-0.0118531792809,0.0,-0.00742043706965,0.0100658581403,-0.99992180475,0.0,0.464725885247,0.00231428556879,0.304792258057,1.0,-0.30998,-0.407402285714,1.89
0.125420301108,-0.234493521063,-0.133783961539,-2.38927964185,-0.0250805600418,2.14906434738,-0.165259095711,-0.860692390022,-0.93072442824,-0.0141215331538,-0.963353020009,-0.16256496024,0.00596999583299,-0.763138166948,0.573675645868,0.819061602618,0.00388475957417,0.0,0.819036028007,-0.573601117156,-0.0119369228005,0.0,-0.0075489180277,0.0100298730548,-0.999921204637,0.0,0.459410539465,-0.00451728976101,0.304746103177,1.0,-0.30998,-0.407402285714,1.907
0.110492981216,-0.25031437475,-0.134191453593,-2.40489958123,-0.0276160988622,2.14911119927,-0.178520840156,-0.884621244247,-0.92684691973,-0.0246281835445,-0.918187050506,-0.143773945079,-0.00644228954165,-0.796709280349,0.573805791951,0.818969078907,0.00416026656824,0.0,0.818947479058,-0.573730830163,-0.0117774346179,0.0,-0.00725862133999,0.0101651957279,-0.999921987563,0.0,0.454204550966,-0.0114928718581,0.304846911983,1.0,-0.30998,-0.407402285714,1.924
0.0971672897524,-0.263992063703,-0.134446700677,-2.41851471281,-0.0299066449971,2.14898468917,-0.190466254124,-0.893173058257,-0.895252024931,-0.0208002077016,-0.893873577301,-0.146102056372,-0.011762100915,-0.804295778816,0.573721596694,0.819028043027,0.00416426755446,0.0,0.8190063051,-0.573646368604,-0.01180097007,0.0,-0.00727664855977,0.0101812287945,-0.999921693417,0.0,0.449539263753,-0.0175416352039,0.30480586845,1.0,-0.30998,-0.407402285714,1.939
0.0824934319465,-0.278377961854,-0.134885965655,-2.43240703629,-0.0323409636263,2.1486691225,-0.203585449891,-0.914041502029,-0.88013060781,-0.0221849456439,-0.864025491015,-0.146152006884,-0.0368552020886,-0.826073469769,0.573827962898,0.818952689835,0.00432524093078,0.0,0.818933813372,-0.573753302774,-0.0116320149821,0.0,-0.00704458431855,0.0102170582208,-0.999922989811,0.0,0.444640816853,-0.0241394304037,0.304872448524,1.0,-0.30998,-0.407402285714,1.955
0.0657599683877,-0.294258773896,-0.135217662648,-2.44767069725,-0.0349131267734,2.14803495053,-0.218734600166,-0.942811575352,-0.856442012712,-0.0304513439548,-0.7960060981,-0.148236068557,-0.0293866802183,-0.852994857522,0.573743154902,0.819011483701,0.00444169669464,0.0,0.81899371976,-0.57366756919,-0.011642764063,0.0,-0.00698763465738,0.0103178765344,-0.999922354178,0.0,0.439079286227,-0.031400449887,0.304879337876,1.0,-0.30998,-0.407402285714,1.973
0.0504786292176,-0.308133341735,-0.135575789507,-2.46076914498,-0.0372811127571,2.14733645592,-0.232520752796,-0.94777910478,-0.840155438005,-0.0100918503053,-0.792418451213,-0.150987925544,-0.0482788969398,-0.863096702177,0.573742970985,0.819011144312,0.00452721101349,0.0,0.818995086281,-0.573668022955,-0.0115236707235,0.0,-0.00684103026531,0.0103195873362,-0.999923350273,0.0,0.43415276141,-0.037924875247,0.304912335553,1.0,-0.30998,-0.407402285714,1.989
0.033883654469,-0.322556246019,-0.136009835946,-2.47426796654,-0.0396955297213,2.1463309151,-0.247521138609,-0.995153490668,-0.868528534749,-0.0295009258378,-0.773022349337,-0.14411060822,-0.060298994205,-0.885494251323,0.573826043262,0.818952612473,0.00458666531364,0.0,0.818936902941,-0.573750270802,-0.0115638513303,0.0,-0.00683877745905,0.0103920286192,-0.999922615438,0.0,0.428883318861,-0.0448676390129,0.304908972857,1.0,-0.30998,-0.407402285714,2.006
0.0150240846675,-0.338341181861,-0.136377873595,-2.48880549271,-0.0423513380729,2.14509651523,-0.264848433034,-1.00283407532,-0.819247809362,-0.014904215606,-0.768509400762,-0.139938556262,-0.0805239377713,-0.922686446664,0.573635652752,0.819085483621,0.00467496685833,0.0,0.819071216726,-0.573560115584,-0.0114840168671,0.0,-0.0067251464578,0.0104169728636,-0.999923126586,0.0,0.423020746294,-0.0525295266411,0.304926110017,1.0,-0.30998,-0.407402285714,2.025
-0.000335509588872,-0.350478465912,-0.136770996099,-2.49985724149,-0.0444600771524,2.14387162094,-0.27876528277,-1.02002813717,-0.828241154171,-0.00807758426902,-0.710863188123,-0.137705169693,-0.0742245450402,-0.948985996583,0.573747149762,0.819007499338,0.00465521964727,0.0,0.818992659161,-0.573671160846,-0.011539946049,0.0,-0.00678086764975,0.010433802755,-0.9999225748,0.0,0.418355686697,-0.0586846161533,0.304916254375,1.0,-0.30998,-0.407402285714,2.04
-0.0190557368672,-0.364766018545,-0.137279990676,-2.5125602965,-0.0468096469824,2.1423822006,-0.295964835007,-1.05418960971,-0.77711401048,-0.0270962021278,-0.712277744914,-0.138368329246,-0.0908458981804,-0.970035234464,0.573819135991,0.818955805242,0.0048718716023,0.0,0.818943961004,-0.57374282549,-0.0114326652346,0.0,-0.00656777263473,0.01055027504,-0.999922775048,0.0,0.412811704296,-0.0660371964706,0.304978184707,1.0,-0.30998,-0.407402285714,2.058
-0.0348804025995,-0.376251278869,-0.137580124241,-2.52289224299,-0.0488146111533,2.14090227436,-0.310624978029,-1.06416200707,-0.75725572186,-0.0171853624764,-0.669211904366,-0.131519279483,-0.106300150613,-0.983687054419,0.573674401272,0.819057892325,0.00475365612297,0.0,0.819043467387,-0.573596799632,-0.011629999311,0.0,-0.00679909168829,0.0105654873036,-0.9999210683,0.0,0.408117936844,-0.0720774623125,0.304904198498,1.0,-0.30998,-0.407402285714,2.073
-0.0533089128338,-0.389024236793,-0.138022793883,-2.53384322676,-0.0510067439978,2.13932446036,-0.327548906666,-1.08977659252,-0.73802307158,-0.017895603404,-0.648885903134,-0.12509255424,-0.0978439509617,-1.00868462165,0.573790122501,0.818975640918,0.00495396868274,0.0,0.81896529567,-0.573714308994,-0.0113350361593,0.0,-0.00644107979449,0.0105612635504,-0.999923483174,0.0,0.40292927723,-0.079050523361,0.305020345249,1.0,-0.30998,-0.407402285714,2.09
-0.0731470550289,-0.401978359099,-0.138467240483,-2.54518273765,-0.0531714551501,2.13734097316,-0.346004066862,-1.10871850282,-0.713251504456,-0.0204104091232,-0.617255779801,-0.1238530672,-0.124478340084,-1.02686819459,0.573790794354,0.818975287241,0.00493458248389,0.0,0.818962769262,-0.573711923287,-0.0116343689683,0.0,-0.00669736080521,0.0107171394865,-0.999920140951,0.0,0.396981713883,-0.0867551187961,0.30493908136,1.0,-0.30998,-0.407402285714,2.109
-0.0910015355223,-0.413214630324,-0.138765860544,-2.55461796068,-0.0551284778498,2.13564320762,-0.362759745658,-1.13168829576,-0.697442602037,-0.0281518652715,-0.577870780805,-0.125210813639,-0.0996481536676,-1.05445684326,0.573605213379,0.8191046776,0.00503321155714,0.0,0.819094757095,-0.573528234752,-0.01139691812,0.0,-0.00644870416038,0.0106602140901,-0.999922384013,0.0,0.392403893769,-0.0928048727279,0.305025778598,1.0,-0.30998,-0.407402285714,2.124
-0.111572590283,-0.425266267846,-0.139191334281,-2.56482235655,-0.0572607397692,2.13358675436,-0.382033912622,-1.14133292892,-0.662443309102,-0.0194925469042,-0.56095590476,-0.121669866359,-0.129441586988,-1.08491395434,0.573554775828,0.819140088201,0.00501815982247,0.0,0.819129526258,-0.573477111698,-0.0114703300739,0.0,-0.00651813288164,0.01068959128,-0.999921620219,0.0,0.386817617431,-0.100124262558,0.305005199063,1.0,-0.30998,-0.407402285714,2.142
-0.131309675924,-0.436194937171,-0.139597277343,-2.57406313883,-0.059192900529,2.13154165521,-0.400574819623,-1.15778484013,-0.628555878633,-0.0211282916285,-0.532096746148,-0.120856994096,-0.122126190314,-1.09853939986,0.573529955993,0.819157791718,0.00496475054956,0.0,0.819145184253,-0.573450264779,-0.0116922128178,0.0,-0.00673085930482,0.0107728932181,-0.999919316897,0.0,0.381493638967,-0.10700469574,0.304936990359,1.0,-0.30998,-0.407402285714,2.159
-0.150278375849,-0.446100589805,-0.140067968365,-2.5819398948,-0.0608098491136,2.12978364491,-0.41841310159,-1.19457424242,-0.606944897659,-0.033135586897,-0.479939885597,-0.111140069497,-0.111176275027,-1.12022050026,0.573693314276,0.81904142762,0.00527900537479,0.0,0.819034191383,-0.573614820099,-0.0113920327193,0.0,-0.00630255236721,0.0108594279832,-0.999921172222,0.0,0.376626167921,-0.113577879814,0.305074950277,1.0,-0.30998,-0.407402285714,2.175
-0.169467276487,-0.455493567861,-0.140361586146,-2.58969550952,-0.0625749663504,2.12785986166,-0.436609189808,-1.2065531285,-0.590680503951,-0.0187350395662,-0.487103716863,-0.105267986123,-0.118092596747,-1.13920291334,0.573547778872,0.819144094045,0.00516192246529,0.0,0.819134831352,-0.57346877221,-0.0115083564028,0.0,-0.00646692534946,0.0108291112353,-0.999920451449,0.0,0.371632589449,-0.120048565136,0.305029059425,1.0,-0.30998,-0.407402285714,2.191
-0.190121342426,-0.464905646253,-0.140811609121,-2.59736809921,-0.064265584054,2.12584594282,-0.456326468345,-1.21805912578,-0.533486619316,-0.0300349202417,-0.445414326548,-0.0922841564528,-0.108813370733,-1.17763842129,0.57349998673,0.819177364143,0.00519212851245,0.0,0.819167435051,-0.573419130202,-0.0116602474469,0.0,-0.00657467153611,0.0109405849922,-0.999918535329,0.0,0.366345189182,-0.126950078408,0.304989262692,1.0,-0.309930285714,-0.407336946939,2.208
-0.211106185056,-0.473730342608,-0.141112146006,-2.60430997017,-0.0657936887147,2.12399593707,-0.476169319571,-1.24512307188,-0.509820845101,-0.0113577079031,-0.389901660274,-0.0785351523987,-0.107441619647,-1.16697739506,0.573612336297,0.819097890646,0.005317902677,0.0,0.819090310832,-0.573532288476,-0.0115118929202,0.0,-0.0063795011412,0.0109594173526,-0.999919593336,0.0,0.361167553063,-0.133844795246,0.305047677116,1.0,-0.301760571429,-0.396599608163,2.225
-0.230776214117,-0.481268536527,-0.14135774344,-2.61025044372,-0.0670405933958,2.12229130951,-0.494797984007,-1.23164823107,-0.453012288916,-0.00986354098644,-0.367437741045,-0.0787723021865,-0.10663950752,-1.17968683854,0.573774112886,0.818983748947,0.00544364259572,0.0,0.81897754444,-0.57369322194,-0.0115158892035,0.0,-0.00630846671004,0.0110659532116,-0.999918870673,0.0,0.356379790763,-0.140206761425,0.305063468966,1.0,-0.294071428571,-0.386493877551,2.241
-0.251364830901,-0.488614602489,-0.141405094499,-2.61616282862,-0.0682187695176,2.12047748738,-0.514437039116,-1.21993475193,-0.411382360586,-0.0115635904066,-0.335725556287,-0.0645096103574,-0.106424784101,-1.15836869613,0.573745063044,0.819003993967,0.00545961540313,0.0,0.81899644781,-0.573661430494,-0.0117528098324,0.0,-0.00649375243585,0.0112147381583,-0.999916026888,0.0,0.351361600502,-0.146681795199,0.30499798739,1.0,-0.285901714286,-0.375756538776,2.258
-0.271733064858,-0.495205381487,-0.141349311635,-2.62133419194,-0.06927366797,2.11893458788,-0.533868578482,-1.18890315707,-0.375988880903,0.0128130980101,-0.289674209073,-0.0566822616132,-0.0822401419368,-1.13480731557,0.573722572792,0.819019419027,0.00550886800152,0.0,0.819012570555,-0.573638876724,-0.0117301016374,0.0,-0.00644720430445,0.0112418726742,-0.999916023402,0.0,0.346545613848,-0.153022640054,0.304995490593,1.0,-0.277732,-0.3650192,2.275
-0.291811991817,-0.501074648989,-0.141274710971,-2.62589186674,-0.0701851670956,2.11744301412,-0.55294023219,-1.16752028473,-0.326904017172,0.00185654642695,-0.256418604218,-0.0461367230384,-0.0795398909276,-1.10563671646,0.573839055509,0.818937435729,0.00556431807528,0.0,0.81893096619,-0.573754549132,-0.0117701685189,0.0,-0.00644660293354,0.0113111925392,-0.999915245525,0.0,0.341852630173,-0.159208224041,0.304994383905,1.0,-0.269562285714,-0.354281861225,2.292
-0.312608063813,-0.506600227344,-0.141113747418,-2.63009122766,-0.0710139965274,2.11607197156,-0.572831748557,-1.13907889311,-0.296293374763,0.0163955103732,-0.218404885781,-0.0492496348436,-0.0646979252468,-1.0987142833,0.573864025718,0.818919392188,0.00564411073597,0.0,0.818914482227,-0.573780169773,-0.0116676679299,0.0,-0.0063165223257,0.0113179168149,-0.999915999624,0.0,0.337072743352,-0.165544569671,0.305030632141,1.0,-0.260912,-0.342912914286,2.31
-0.330772614131,-0.510957510952,-0.14096019506,-2.63336433863,-0.0715111007949,2.11495638143,-0.590209463495,-1.14099182001,-0.258093246505,-0.00571193537112,-0.1984622455,-0.0340330166644,-0.0701655704237,-1.07516708779,0.574026235214,0.818804262476,0.00584875529594,0.0,0.81880207991,-0.573941798928,-0.0116065618908,0.0,-0.00614677555735,0.0114516645072,-0.999915534698,0.0,0.33268008673,-0.171354153199,0.30506385493,1.0,-0.252742285714,-0.33217557551,2.327
-0.348356503319,-0.514731942406,-0.140643530312,-2.63632805807,-0.0720289377042,2.1138322594,-0.607187234827,-1.08902902725,-0.227612296727,0.0210252666952,-0.177053327452,-0.0298419025562,-0.0616358618205,-1.05037465035,0.57386843345,0.81891506064,0.00582163611925,0.0,0.81891157045,-0.573782357416,-0.0117640555161,0.0,-0.00629353130982,0.0115186470567,-0.999913852406,0.0,0.328917299102,-0.176210632415,0.305028814236,1.0,-0.245533714286,-0.322701453061,2.342
-0.36676562804,-0.518160511728,-0.1403628272,-2.6390699244,-0.0724632753338,2.11286768599,-0.62488354351,-1.06396078518,-0.18949911588,0.0259873630102,-0.151298343402,-0.0205244145476,-0.0558285974304,-1.02975241764,0.573905761423,0.818888536483,0.00587271008795,0.0,0.818884745808,-0.573817724229,-0.0119054334143,0.0,-0.00637948063188,0.0116418936788,-0.999911880387,0.0,0.324751555045,-0.181638930462,0.30497156021,1.0,-0.237364,-0.311964114286,2.359
-0.38467384087,-0.521038568217,-0.140096267162,-2.64130013386,-0.072794093056,2.11205621844,-0.64209828944,-1.04013391871,-0.160178556513,0.0179872458288,-0.123398789788,-0.01907565398,-0.0510093335118,-1.00754071957,0.574011245529,0.818813911788,0.00596781110084,0.0,0.818811006991,-0.57392216626,-0.0119427302877,0.0,-0.00635393696249,0.0117419969743,-0.999910872524,0.0,0.32075584747,-0.186913704518,0.304953942461,1.0,-0.229194285714,-0.30122677551,2.376
-0.400928535165,-0.523372265718,-0.139674975077,-2.6430694233,-0.0730649324558,2.11136399914,-0.657911926148,-1.00917485852,-0.13929428808,0.0247984615841,-0.105812569028,-0.0180802450614,-0.0434128306781,-0.980953302314,0.573853226673,0.818924688748,0.00596450315396,0.0,0.818921776999,-0.573764259622,-0.0119350089493,0.0,-0.00635177704422,0.0117336308264,-0.999910984456,0.0,0.317159394896,-0.191630315485,0.30495808629,1.0,-0.221505142857,-0.291121044898,2.392
-0.418857873929,-0.525510198849,-0.139316544378,-2.644667357,-0.0732929094167,2.11070247534,-0.675187873822,-0.975433636686,-0.106006614978,0.0279515288305,-0.0817751755759,-0.00849091654156,-0.0346664344329,-0.947993367946,0.57394232356,0.818861818538,0.00602314441448,0.0,0.818859683832,-0.573853129967,-0.0119226810419,0.0,-0.00630674942982,0.0117752681016,-0.999910780006,0.0,0.31320584572,-0.196851975063,0.304967847217,1.0,-0.212854857143,-0.279752097959,2.41
-0.434242398239,-0.527043732808,-0.138982383966,-2.64581829662,-0.0734187210579,2.11025133047,-0.690053377138,-0.959947719174,-0.0879714341034,0.0157937486623,-0.0638552823342,-0.0100542944832,-0.0290534790014,-0.923111137685,0.574009085922,0.81881452439,0.00609022396924,0.0,0.818813471488,-0.573920005161,-0.0118774360104,0.0,-0.00623023569734,0.0118047408957,-0.999910912159,0.0,0.309828679977,-0.201308609014,0.304975924673,1.0,-0.205165714286,-0.269646367347,2.426
-0.4499627927,-0.528299318518,-0.138549578735,-2.64677138681,-0.0734924332144,2.10983354871,-0.705310067061,-0.905154660031,-0.0618968431237,0.0224364193601,-0.0526929620014,-0.000100067951197,-0.0205121439593,-0.876155964271,0.573995189116,0.818824027747,0.00612220205059,0.0,0.818823397804,-0.573905998095,-0.0118699393475,0.0,-0.00620594255085,0.0118265180628,-0.999910805896,0.0,0.306392528516,-0.205822425791,0.304977194659,1.0,-0.196996,-0.258909028572,2.443
-0.467036835241,-0.529303152874,-0.138097474136,-2.64753631618,-0.0735168115391,2.10947058964,-0.721738798791,-0.872275442948,-0.0442938612598,0.0294227490322,-0.0336554738196,-0.0020553965049,-0.0136419123919,-0.849055102631,0.574148862146,0.818715903926,0.00617249187311,0.0,0.818715916061,-0.574059416379,-0.0118651656702,0.0,-0.00617094156435,0.0118661171665,-0.999910553371,0.0,0.302666701456,-0.210721263536,0.304976865903,1.0,-0.187865142857,-0.246908473469,2.462
-0.479789240573,-0.529800129728,-0.137625089095,-2.647909644,-0.0735086682664,2.10926452311,-0.734269481581,-0.839681611875,-0.0301065854768,0.0274309268074,-0.0290871215257,-0.00066170142876,-0.0175010518681,-0.828927275363,0.573978621507,0.818835499543,0.00614114337318,0.0,0.818835268162,-0.573889650242,-0.0118414467374,0.0,-0.00617197716174,0.0118255497343,-0.999911027578,0.0,0.299916571395,-0.214347870225,0.304983291051,1.0,-0.180656571429,-0.237434351021,2.477
-0.494690662872,-0.530112119759,-0.137158822332,-2.64816757411,-0.0735107601587,2.10906055603,-0.748687398623,-0.812331869085,-0.0128606098286,0.0325673633746,-0.0132585948395,-0.000280968047476,-0.00540248531105,-0.793675438586,0.574029830682,0.818799873274,0.00610474527792,0.0,0.818799006918,-0.573940683745,-0.0118753827081,0.0,-0.00621991993028,0.0118156107834,-0.999910847995,0.0,0.29667809911,-0.218602934843,0.304974596646,1.0,-0.172006285714,-0.226065404082,2.495
-0.507979132038,-0.530230627176,-0.136598154241,-2.64826907609,-0.0734664816425,2.10894976165,-0.761677155475,-0.767834745531,-0.00381689264675,0.0290842993937,-0.00597796706328,-0.000711536778037,-0.00166024825472,-0.743883843026,0.573892133476,0.818896978457,0.00602533899142,0.0,0.818895251718,-0.573803651805,-0.0118609776237,0.0,-0.00625567766209,0.0117412692994,-0.99991150063,0.0,0.293811328903,-0.222351400522,0.30497683946,1.0,-0.163836571429,-0.215328065306,2.512
-0.51869981234,-0.530205345746,-0.136227053443,-2.6482821275,-0.0734205661139,2.1088967854,-0.77196627311,-0.753480718542,0.00507575231298,0.0313645542367,-0.00195033952056,-0.000476025528286,0.000683974115031,-0.730514237382,0.573969377803,0.818843102755,0.00598943372792,0.0,0.818840924563,-0.573881048679,-0.0118671449385,0.0,-0.00628022818739,0.0117159968173,-0.999911643173,0.0,0.291315784383,-0.225588396289,0.304969333343,1.0,-0.156628,-0.205853942857,2.527
-0.532939882348,-0.529961504376,-0.135543188131,-2.6481556172,-0.0732403124203,2.10889656234,-0.785948703848,-0.709271846552,0.0151959038066,0.0356690088441,0.00739132784445,0.0049981932869,0.00171555880048,-0.683532287521,0.57381618117,0.818950774219,0.00594697701672,0.0,0.818948011998,-0.573727988564,-0.0118783704404,0.0,-0.00631597510889,0.011686491171,-0.999911763298,0.0,0.288402270448,-0.229356532229,0.304953163712,1.0,-0.147497142857,-0.193853387755,2.546
-0.542645509191,-0.529722148056,-0.135190807604,-2.64799628233,-0.0730722758282,2.10889075402,-0.795261764032,-0.685028180084,0.0235505637291,0.025911668689,0.00962241249516,0.0118412447426,0.00100720566265,-0.654559250533,0.573970030275,0.818842576339,0.00599886833087,0.0,0.818840332747,-0.573881313372,-0.0118951473418,0.0,-0.00629773590974,0.0117397994476,-0.999911253878,0.0,0.286277230084,-0.232076675403,0.304946957367,1.0,-0.140769142857,-0.185010873469,2.56
-0.553534861485,-0.529243669993,-0.134569032041,-2.64767780385,-0.0727815558094,2.10893809516,-0.805971468837,-0.627912745097,0.0245484260247,0.0287874188902,0.0211665926439,0.0167025343778,0.00323723803613,-0.612192898284,0.57382095061,0.818946951029,0.00601289799535,0.0,0.818944693049,-0.573731841671,-0.0119210100747,0.0,-0.00631300535812,0.0117649827488,-0.999910861599,0.0,0.283953904179,-0.235077890375,0.304937292203,1.0,-0.132599428572,-0.174273534694,2.577
-0.564041984388,-0.528664496243,-0.134059784669,-2.64728691731,-0.0725351798241,2.10900955344,-0.816092355619,-0.606423367545,0.0385600836077,0.0246445950429,0.0219101241805,0.0166035046113,0.00408528178228,-0.580712153461,0.573905548822,0.81888754191,0.00603006116624,0.0,0.8188852508,-0.573815875278,-0.0119596907523,0.0,-0.00633361887782,0.0118018882583,-0.999910296329,0.0,0.281683858173,-0.2379978375,0.304922765106,1.0,-0.124429714286,-0.163536195918,2.594
-0.573848230463,-0.527963599113,-0.133515144624,-2.64679780145,-0.0722402562539,2.1091405781,-0.825645588844,-0.554010629621,0.0473521879229,0.0373166971039,0.0287532871741,0.0226092131043,0.00481584737062,-0.550830666698,0.573882059632,0.818903847605,0.00605119094475,0.0,0.818901770195,-0.573792190218,-0.011964953751,0.0,-0.00632614235535,0.0118220308892,-0.999910105714,0.0,0.279594890831,-0.240716102212,0.304914264226,1.0,-0.11626,-0.152798857143,2.611
-0.582936730008,-0.52717730691,-0.13294820428,-2.64627989638,-0.0719379283148,2.10925725985,-0.834531249524,-0.527711460899,0.0435500432252,0.0323504820328,0.032647170107,0.0121671712306,0.00364602452443,-0.507369552577,0.573806490992,0.81895676157,0.00605644083169,0.0,0.818954226032,-0.573715634436,-0.0120454709125,0.0,-0.00639016808642,0.0118719457822,-0.999909107197,0.0,0.277662192388,-0.243214722775,0.30488674458,1.0,-0.108090285714,-0.142061518367,2.628
-0.591102981156,-0.526438107399,-0.132463071678,-2.64574813724,-0.0716450821554,2.10936774291,-0.842305689892,-0.497141774714,0.0472763511339,0.0284605920307,0.0374129550404,0.0127483388916,0.0114668767555,-0.479500518785,0.573939578441,0.818863294169,0.00608380338187,0.0,0.818860876569,-0.573848133017,-0.0120802300409,0.0,-0.00640100099241,0.0119153401145,-0.999908521744,0.0,0.275919696744,-0.245466304219,0.304879898316,1.0,-0.100401142857,-0.131955787755,2.644
-0.59943489854,-0.525512787133,-0.131857139133,-2.64510139565,-0.0712743166742,2.10953042295,-0.85043304547,-0.430291650985,0.0567480502375,0.0312497858897,0.038029593359,0.0267238994518,0.0139335230467,-0.43428720811,0.573873475089,0.81890946269,0.0061051951725,0.0,0.81890698505,-0.57378131946,-0.0121282387797,0.0,-0.00642900633907,0.011959891772,-0.999907810184,0.0,0.274181375465,-0.247747715716,0.304864471642,1.0,-0.0917508571429,-0.120586840816,2.662
-0.607076299021,-0.524643434389,-0.131226107307,-2.64448413053,-0.0709169741182,2.10968831197,-0.857881827639,-0.419252792916,0.0485125152982,0.0308362234116,0.0347767312465,0.0104052714442,0.010608916459,-0.39650055987,0.573772006345,0.81898059802,0.00610013949523,0.0,0.818977845775,-0.573679507279,-0.0121596858001,0.0,-0.00645914608693,0.0119729969381,-0.999907459106,0.0,0.272594577277,-0.249817347617,0.304856014649,1.0,-0.0831005714287,-0.109217893878,2.68
-0.613028505902,-0.523968723799,-0.13071520687,-2.64394792467,-0.070612619189,2.10982615502,-0.863541589324,-0.385361027934,0.042305852901,0.03214667112,0.0368620318411,0.0184291791127,0.00452686882671,-0.365211323614,0.57380938855,0.81895440457,0.00610047121383,0.0,0.818951968976,-0.573717460163,-0.0121117841916,0.0,-0.00641917574931,0.0119460783925,-0.999908038468,0.0,0.271369761846,-0.251431265351,0.304877040341,1.0,-0.0758920000001,-0.0997437714287,2.695
-0.619842879628,-0.523065445519,-0.130134407816,-2.64326485354,-0.0702064103366,2.11000131674,-0.870007776186,-0.342672154803,0.047379003983,0.0273217861711,0.0367981570311,0.0204192950619,0.0080100129148,-0.32521427044,0.573894322694,0.818894567897,0.00614328497761,0.0,0.81889273891,-0.573802278827,-0.0120985071725,0.0,-0.00638249376638,0.0119741865808,-0.999907937077,0.0,0.269976242766,-0.2532841049,0.304885724061,1.0,-0.0667611428572,-0.0877432163266,2.714
-0.624849952748,-0.522394915018,-0.129561234148,-2.64276891302,-0.0698513826702,2.11015091659,-0.874821638858,-0.301414676471,0.0358677842448,0.0421315836378,0.0217078118848,0.0276537875189,0.0106148132502,-0.290846427185,0.573821232335,0.818945725225,0.00615137036117,0.0,0.818944095363,-0.573729344705,-0.0120811669419,0.0,-0.00636472087708,0.0119702890035,-0.999908097032,0.0,0.268922274577,-0.254678159827,0.304890080827,1.0,-0.0585914285715,-0.0770058775511,2.731
-0.629388038452,-0.521834647891,-0.128990612761,-2.64233619621,-0.0695300629985,2.11025994305,-0.879146845557,-0.269944153944,0.0363853917707,0.0317971871625,0.0293807449699,0.0208397735725,0.00381240178657,-0.258204817239,0.573756146048,0.818991457204,0.0061339058921,0.0,0.818989782359,-0.573664691285,-0.0120542633597,0.0,-0.00635365581204,0.0119400438231,-0.999908529022,0.0,0.268079742129,-0.255777698081,0.304906467683,1.0,-0.0513828571429,-0.0675317551022,2.746
-0.634179445155,-0.521193138449,-0.128371863929,-2.64184798475,-0.0691328039356,2.11041189672,-0.883565362529,-0.230716136965,0.034283630221,0.0323035143073,0.028136320246,0.0202947298972,0.0095165530004,-0.218366531615,0.573819017671,0.818947287019,0.00615003614776,0.0,0.81894609643,-0.573727997504,-0.0120092848575,0.0,-0.00630664475193,0.0119279337857,-0.999908971171,0.0,0.267142072651,-0.257016557926,0.304920916953,1.0,-0.0422520000001,-0.0555312000001,2.765
-0.637521642469,-0.520690071234,-0.127881618258,-2.64149026792,-0.0688043811181,2.1105083181,-0.886622623825,-0.192921358536,0.0295008849624,0.0287648256539,0.021582299892,0.0191426750148,0.00748083711626,-0.180850462644,0.573864453982,0.81891525666,0.00617557820185,0.0,0.818914291307,-0.573773111949,-0.0120227450309,0.0,-0.00630234994954,0.011956925467,-0.999908651987,0.0,0.266503081729,-0.257862641503,0.30491886869,1.0,-0.034562857143,-0.0454254693879,2.781
-0.640223528577,-0.520311172962,-0.127429396962,-2.64122215952,-0.0685145679483,2.1105658302,-0.889055693933,-0.1689696239,0.0208013611048,0.0275588790258,0.01703989266,0.0171077069262,0.000246213491803,-0.146229698598,0.573902196099,0.818888674159,0.0061931856548,0.0,0.818887777408,-0.573810465075,-0.0120459571117,0.0,-0.00631070460792,0.011984956024,-0.99990826371,0.0,0.265991346322,-0.258522955617,0.304917377692,1.0,-0.0273542857144,-0.0359513469389,2.796
-0.642823288825,-0.519964705847,-0.126854092778,-2.64099431827,-0.0681714444227,2.1106068493,-0.891309357624,-0.126518236866,0.0196522409636,0.0271958709776,0.0129484164113,0.0244109605353,0.00196601369513,-0.110757331527,0.573936551601,0.818864548265,0.00619945417792,0.0,0.818863443481,-0.573844236292,-0.0120913318844,0.0,-0.00634376411038,0.0120163950746,-0.999907677191,0.0,0.265524707784,-0.259110667512,0.304911010322,1.0,-0.0199268965517,-0.026189635468,2.814
-0.644828501348,-0.519652256246,-0.12637888548,-2.64080497546,-0.0678788266923,2.11068589268,-0.893114283302,-0.10812325797,0.0236642723148,0.0260694721529,0.00945451801761,0.0176800762719,0.00551645357998,-0.106653364006,0.573898822934,0.818890926016,0.0062079968979,0.0,0.8188898098,-0.57380624528,-0.0121086409228,0.0,-0.00635359111367,0.012033031845,-0.999907414726,0.0,0.265182909778,-0.259562980572,0.304900384339,1.0,-0.0195668965517,-0.0257164926108,2.832
-0.646286894863,-0.519434734446,-0.126084919658,-2.64063669543,-0.0677357791573,2.11072461498,-0.894485932624,-0.097978880929,0.0154251324396,0.0104380940057,0.0108175211259,0.00695499429127,0.000420018361806,-0.0867875857766,0.573831337701,0.818938436559,0.00617898853036,0.0,0.818936986981,-0.57373898805,-0.0121050339278,0.0,-0.00636827354171,0.0120066812271,-0.999907638084,0.0,0.264920695748,-0.259915423762,0.30490719785,1.0,-0.0192668965517,-0.0253222068966,2.847
-0.647924087825,-0.519174884121,-0.125836035202,-2.6404335154,-0.0676074312676,2.11078006157,-0.89609542748,-0.0914900743401,0.0147236005941,0.0170103593226,0.013740234704,0.0086628770968,0.00338568735023,-0.092937594817,0.57374296658,0.819000512961,0.00615751337539,0.0,0.818998880035,-0.573650912397,-0.0120918199081,0.0,-0.00637106620427,0.0119808238517,-0.999907930449,0.0,0.264610101402,-0.260336830263,0.304914599742,1.0,-0.0189068965517,-0.0248490640394,2.865
-0.649291080803,-0.518926674947,-0.125712599022,-2.64025789229,-0.0675633235527,2.11084618179,-0.897460580402,-0.0838484256504,0.0182526666866,0.00443744939049,0.0127832418133,0.00396720607305,0.00351840804951,-0.0888632689433,0.573685072268,0.819041300041,0.00612646590772,0.0,0.819039296801,-0.573593230866,-0.012090603853,0.0,-0.00638872752703,0.0119542454304,-0.999908135869,0.0,0.264330057066,-0.260717008685,0.304911614457,1.0,-0.0185868965517,-0.0244284926108,2.881
-0.650644785081,-0.518707721898,-0.125653246205,-2.64008372586,-0.0675320276641,2.11088115006,-0.898804383565,-0.0800396452412,0.0173167707173,0.00126025701487,0.0114841766836,0.00460823609324,0.000575062647793,-0.0882103499215,0.57367356537,0.819049417792,0.00611870172159,0.0,0.819047306922,-0.573581748308,-0.0120927222819,0.0,-0.00639508463883,0.0119490113289,-0.999908157793,0.0,0.264033210485,-0.261104409555,0.304914533088,1.0,-0.0182668965517,-0.0240079211823,2.897
-0.651981332875,-0.518510281126,-0.125620157224,-2.63989830165,-0.0674968669319,2.11092305164,-0.900169531875,-0.083463442755,0.0107245780042,-0.00118828491836,0.0127649165306,0.000530592300269,0.0039129691942,-0.0823117311602,0.573664505976,0.819055702548,0.00612679427357,0.0,0.819053961125,-0.573573150191,-0.0120497736826,0.0,-0.00635539351807,0.0119309322929,-0.999908626739,0.0,0.263719296227,-0.261523083224,0.304932600496,1.0,-0.0179268965517,-0.0235610640394,2.914
-0.653366207741,-0.518293785601,-0.125613369852,-2.63970560577,-0.0674715371754,2.11098713671,-0.901499525838,-0.0808071372847,0.00615592924979,0.00160892890345,0.0138430001879,-1.43834683351e-05,0.00729130429474,-0.0736842874617,0.573712102293,0.819022333212,0.00613092842138,0.0,0.819020920913,-0.573621236736,-0.0120064471225,0.0,-0.00631683921119,0.0119098319626,-0.999909122593,0.0,0.263429761138,-0.26191244161,0.304943893033,1.0,-0.0176068965517,-0.0231404926108,2.93
-0.654798970545,-0.518026667375,-0.125635363954,-2.63950426124,-0.0674328336205,2.11103040693,-0.902939925132,-0.0739380513997,0.0167977004703,-0.000763010610748,0.0095792552875,0.00453014483527,0.000373480275461,-0.0730505523501,0.57374858105,0.818996502395,0.00616779606619,0.0,0.81899545699,-0.573657337292,-0.0120186397308,0.0,-0.00630514382832,0.0119473044722,-0.999908749375,0.0,0.263099721354,-0.26234394503,0.304940154265,1.0,-0.0172468965517,-0.0226673497537,2.948
-0.656233240558,-0.517789022778,-0.125638394442,-2.63931950015,-0.0674082363875,2.11105491156,-0.904234887211,-0.0806041575435,0.0135358898232,-0.00440681706679,0.00918126206165,0.00023392217066,0.000923802010384,-0.0721918114182,0.57388502217,0.818900771102,0.0061850884171,0.0,0.81889981927,-0.573793425504,-0.0120390094886,0.0,-0.00630991256902,0.0119742055548,-0.999908397507,0.0,0.262765410987,-0.262766311854,0.304938560999,1.0,-0.0168868965517,-0.0221942068966,2.966
-0.657413587149,-0.517586618938,-0.125627898784,-2.63913619974,-0.0673798427129,2.11110534679,-0.905476368385,-0.0697955850181,0.0162545237269,0.000570092354059,0.00811861126739,5.31789290795e-05,0.00353218170207,-0.0757462614696,0.573849068792,0.818925900114,0.00619380904748,0.0,0.818925293355,-0.573757882742,-0.0120001164725,0.0,-0.00627358020438,0.0119587527974,-0.999908811054,0.0,0.262505100449,-0.263122193862,0.304951811411,1.0,-0.0165668965517,-0.021773635468,2.982
-0.658696141968,-0.517349920424,-0.125609527097,-2.63893580536,-0.0673516938241,2.11118091774,-0.90682412823,-0.072416090358,0.0137712787804,-0.00155241218456,0.00692020219617,0.00332513162058,0.00277083419705,-0.0680691493651,0.573805020637,0.818956751311,0.00619553672686,0.0,0.818956453596,-0.573714384012,-0.0119532251701,0.0,-0.0062348259558,0.0119329251471,-0.999909362014,0.0,0.262226174815,-0.263510343092,0.304962504003,1.0,-0.0162068965517,-0.0213004926108,3.0
-0.659826093469,-0.517141521769,-0.12554110162,-2.63877991359,-0.0673232907016,2.11119562857,-0.907962895323,-0.0715335262789,0.0126717418459,0.00195960105836,0.0114914415382,0.000912931079394,0.000288901741291,-0.0661471322596,0.57376956347,0.818981686497,0.00618321277861,0.0,0.818981040211,-0.573678626756,-0.0119848186871,0.0,-0.00626829068897,0.0119406881149,-0.999909060115,0.0,0.26197901687,-0.263827678802,0.304959387301,1.0,-0.0158868965517,-0.0208799211823,3.016
-0.661014398636,-0.516929819362,-0.125491249455,-2.63861952498,-0.0673033887285,2.11120195296,-0.909194500357,-0.072561119978,0.0119004110609,0.00219308603168,0.0113472250241,-0.000170303167155,0.00486164284155,-0.0779453145281,0.573715641866,0.819019525854,0.00617458090948,0.0,0.819018527311,-0.573624297447,-0.0120234853904,0.0,-0.00630570107159,0.0119553879797,-0.999908649244,0.0,0.26171082753,-0.264164849182,0.30495592084,1.0,-0.0155468965517,-0.0204330640394,3.033
-0.661948749467,-0.516728836789,-0.125471107201,-2.63847110987,-0.0672784657929,2.1112557819,-0.910145716863,-0.0652401507227,0.0191529848639,0.00308859689798,0.0106764321257,0.00389681041384,0.000991830818583,-0.0694711038769,0.573712209185,0.819021914209,0.00617672880901,0.0,0.819021002045,-0.573620967116,-0.0120137919097,0.0,-0.00629657892242,0.0119515598203,-0.999908752493,0.0,0.261492155312,-0.264465233932,0.304954671061,1.0,-0.0152468965517,-0.0200387783251,3.048
-0.663073040006,-0.516505249056,-0.125460720854,-2.63829243444,-0.0672514798015,2.11133986333,-0.911253283807,-0.0645442454494,0.0107075487391,-0.0010049100097,0.00992179511928,0.00106233521896,0.0055763243103,-0.0685867541768,0.573742266762,0.819000819933,0.00618184289368,0.0,0.819000240692,-0.573651503352,-0.0119710212357,0.0,-0.00625817322726,0.0119314413943,-0.999909233868,0.0,0.261247366324,-0.264810253644,0.304960038096,1.0,-0.0149068965517,-0.0195919211823,3.065
-0.664261482503,-0.516270492663,-0.125453358035,-2.63811841925,-0.0672253760175,2.11134842629,-0.912500936434,-0.062131503223,0.00334930239301,0.0013034471625,0.00720234252502,0.000267617525692,7.97694692833e-05,-0.0609463625659,0.573699666725,0.81903054602,0.00619709506528,0.0,0.819029866456,-0.57360827828,-0.0120153170404,0.0,-0.00628632767677,0.0119690197661,-0.999908608149,0.0,0.260988749578,-0.265137045178,0.304953810558,1.0,-0.0145668965517,-0.0191450640394,3.082
-0.665519689928,-0.516037436494,-0.125441481891,-2.63794672139,-0.0671989930441,2.11137878575,-0.913699995796,-0.0637069885824,0.0109622673153,0.00076724835262,0.00968901386701,-0.000363320840947,0.00603991754784,-0.0704885180097,0.573759971187,0.81898821319,0.00620878570934,0.0,0.818987531989,-0.573668226472,-0.0120389071541,0.0,-0.00629806122966,0.0119925920012,-0.999908251872,0.0,0.260698336566,-0.26550500658,0.304948702164,1.0,-0.0141868965517,-0.018645635468,3.101
-0.666414152187,-0.515875853288,-0.12543366661,-2.63781130835,-0.0671798355196,2.11143443751,-0.9145866393,-0.0704887537762,0.00925193014621,0.00106259213514,0.00476441886446,-0.000193781181794,0.00846892903044,-0.0595986280914,0.573775989671,0.818976971042,0.00621139932834,0.0,0.818976539913,-0.573684642335,-0.0120043793119,0.0,-0.00626804648531,0.0119750455067,-0.999908650767,0.0,0.260499881189,-0.265774916852,0.304955530197,1.0,-0.0139068965517,-0.018277635468,3.115
-0.667583909103,-0.515653583443,-0.125414555713,-2.63762233144,-0.067153497043,2.11148216776,-0.915786710008,-0.0604033924588,0.0126707095841,0.00309737349129,0.0101641523831,0.00183720595758,0.00474084661948,-0.0600189508671,0.573758585965,0.818989145286,0.00621384238768,0.0,0.818988874289,-0.573667477374,-0.0119831588141,0.0,-0.00624951803022,0.011964738397,-0.999908890129,0.0,0.260240570549,-0.266124963948,0.304963877206,1.0,-0.0135268965517,-0.0177782068966,3.134
-0.668483199238,-0.515477130107,-0.125374197927,-2.63747639515,-0.0671315182449,2.11152263625,-0.916637782266,-0.0574370565227,0.0140782274983,0.00135599480506,0.00674905370366,0.00292051227604,0.00281683662673,-0.0533262600834,0.573786330502,0.818969786895,0.00620338486341,0.0,0.818969482299,-0.573695456357,-0.0119690149821,0.0,-0.00624352814635,0.0119482701176,-0.99990912447,0.0,0.260047405024,-0.266388822221,0.304969451262,1.0,-0.0132268965517,-0.0173839211823,3.149
-0.669485023792,-0.515288830991,-0.125330852309,-2.63731301599,-0.067110574807,2.11155530335,-0.917623237327,-0.0570014387639,0.0110936409886,0.00551104998662,0.00793942197677,-0.000153749890766,0.00604209097244,-0.0624785269618,0.573786285867,0.818969911908,0.00619099679915,0.0,0.818969536541,-0.573695636622,-0.0119566567497,0.0,-0.00624051442426,0.0119310331565,-0.999909349105,0.0,0.259829660281,-0.26668187714,0.304977969192,1.0,-0.0128868965517,-0.0169370640394,3.166
-0.670401532586,-0.515109220012,-0.125298090058,-2.63716631455,-0.0670889893826,2.11159915835,-0.918604402906,-0.0587787700179,0.0109643455588,0.00142100999499,0.00728370302933,0.00288539654805,0.00316150545338,-0.0652103049828,0.573726850369,0.819011595012,0.00618508717154,0.0,0.81901124257,-0.573636429143,-0.0119406282866,0.0,-0.00623164167786,0.0119165444185,-0.999909577217,0.0,0.259630247579,-0.266952220195,0.304982813585,1.0,-0.0125668965517,-0.0165164926108,3.182
-0.671345829192,-0.514915417753,-0.12529442109,-2.63702022059,-0.0670731865575,2.11163851456,-0.919559084421,-0.0535398854281,0.0151533367144,-0.000645602549468,0.00752300111489,0.00234192561374,0.00311263530928,-0.0580926217167,0.573730114377,0.819009272719,0.00618982701914,0.0,0.819008957458,-0.573639625972,-0.0119437858514,0.0,-0.00623146128254,0.0119222629369,-0.999909510174,0.0,0.259414945634,-0.267235403403,0.304981056966,1.0,-0.0122268965517,-0.016069635468,3.199
-0.672409954476,-0.514709570644,-0.12527530523,-2.63684411669,-0.0670538383429,2.11166401028,-0.920556574577,-0.0553237319593,0.012811971399,-0.000638349380776,0.0101120191721,0.000165784292157,0.00280144573612,-0.0522061615511,0.573788435784,0.818968428188,0.00618801206774,0.0,0.81896810272,-0.57369796821,-0.0119429853474,0.0,-0.0062309979533,0.0119207608954,-0.99990953097,0.0,0.259175385869,-0.267551459359,0.304987655207,1.0,-0.0118468965517,-0.0155702068966,3.218
-0.673211773447,-0.5145497176,-0.125269308883,-2.63671707418,-0.0670374647741,2.11169262048,-0.921366401791,-0.0543886603789,0.012983983139,0.000390552343381,0.00787429474914,0.00023758159879,0.000634233328092,-0.0576234591423,0.573791196734,0.81896645632,0.0061929696976,0.0,0.818966192943,-0.573700703391,-0.0119425561204,0.0,-0.00622776169748,0.0119245959701,-0.999909505403,0.0,0.258992994645,-0.267790886994,0.304988902042,1.0,-0.0115468965517,-0.0151759211823,3.233
-0.674147745067,-0.514364513256,-0.125245139713,-2.63656051683,-0.067012530063,2.11174773009,-0.92233125914,-0.051157519444,0.0136839499812,0.00051646533755,0.00640063105899,0.000389879328306,0.0013247746867,-0.0572618406902,0.57376904692,0.818981989501,0.00619100729534,0.0,0.818981897794,-0.573678944364,-0.0119107842209,0.0,-0.00620318665861,0.0119045914148,-0.99990989653,0.0,0.258789447578,-0.268071281235,0.304996875139,1.0,-0.0111868965517,-0.0147027783251,3.251
-0.674894091054,-0.514207063198,-0.125240237831,-2.63642562407,-0.066999119854,2.11178704936,-0.923027150987,-0.052635216528,0.0149204742205,-0.000859232861631,0.00885924798907,0.00484044959494,0.00252795137843,-0.0515305059124,0.573819533218,0.818946627258,0.00618966077495,0.0,0.81894664983,-0.573729678613,-0.011890648088,0.0,-0.00618673317424,0.0118923170547,-0.999910144527,0.0,0.25862441817,-0.26830028326,0.30500344527,1.0,-0.0108868965517,-0.0143084926108,3.266
-0.675699439839,-0.514026213451,-0.125217761977,-2.63628091936,-0.0669782544978,2.11180837451,-0.923814338949,-0.0477057652799,0.0130334318784,0.000860648478713,0.00914070660623,0.00239203994812,-0.000198960892745,-0.0377254154803,0.573834833,0.818935909288,0.0061893308536,0.0,0.818935864418,-0.573744855169,-0.0119011780308,0.0,-0.00619532459723,0.0118982045979,-0.999910021292,0.0,0.258446891604,-0.268539503245,0.305004698886,1.0,-0.0105468965517,-0.013861635468,3.283
-0.676602097104,-0.513830453863,-0.12519793185,-2.63614791989,-0.0669592169543,2.11184257523,-0.924736256083,-0.0445312634978,0.00850281022717,0.00230748121715,0.00392986044896,7.64181917899e-05,0.000236943345817,-0.0511305747161,0.573820107461,0.81894621021,0.00619160377147,0.0,0.818946045205,-0.573729836177,-0.0119246394142,0.0,-0.00621345006704,0.0119134166624,-0.999909727696,0.0,0.258241283283,-0.268803011441,0.304996149028,1.0,-0.0101668965517,-0.0133622068966,3.302
-0.67733593464,-0.513663186197,-0.125187220646,-2.63603247604,-0.0669368053581,2.11188565489,-0.925472175075,-0.0453436570734,0.0098246653973,-0.000418204480543,0.00733093330709,0.0046603018749,0.000417150711116,-0.0442870266337,0.573826422849,0.818941729505,0.00619895290273,0.0,0.818941628158,-0.573736058666,-0.011928602488,0.0,-0.00621238715353,0.0119217574091,-0.99990963489,0.0,0.258077165491,-0.269021588461,0.304990692271,1.0,-0.00984689655173,-0.012941635468,3.318
-0.678001418774,-0.513517478155,-0.125165293397,-2.6359267926,-0.0669209798606,2.1119177933,-0.926108543468,-0.0450013237237,0.00828598350376,0.00382061627398,0.00845879407102,0.000204185670166,0.00251311852574,-0.0412569076069,0.573846950122,0.818927369076,0.00619587890113,0.0,0.818927204581,-0.573756549865,-0.0119332303184,0.0,-0.00621764251639,0.0119220511482,-0.999909598723,0.0,0.25792980605,-0.269216916681,0.304988091716,1.0,-0.00954689655173,-0.0125473497537,3.333
-0.678717445031,-0.513343611343,-0.125150664003,-2.63581304481,-0.0668938227306,2.11194237894,-0.926820894242,-0.046236974945,0.0101485636138,0.0013012990558,0.00583626331278,0.000736066375271,0.000391001131007,-0.0517535751009,0.573857184391,0.81892010274,0.00620839371651,0.0,0.818919900477,-0.573766345271,-0.0119634668438,0.0,-0.0062350761687,0.0119497286323,-0.999909159779,0.0,0.257768099642,-0.269426172386,0.304977925568,1.0,-0.00920689655173,-0.0121004926108,3.35
-0.679478516984,-0.513175624659,-0.125114939585,-2.63569258904,-0.0668722723935,2.11197132121,-0.927603938878,-0.0384394317466,0.012335207497,0.00308584351581,0.0102550915702,0.00207042821327,0.000102955421587,-0.0389826400503,0.573829282849,0.818939683135,0.00620454944394,0.0,0.81893934201,-0.573738295764,-0.011977853865,0.0,-0.00624947254658,0.011954623096,-0.9999090114,0.0,0.25760062822,-0.269645483449,0.304973836193,1.0,-0.00882689655173,-0.0116010640394,3.369
-0.68008687866,-0.513023866163,-0.125073414659,-2.63560525883,-0.0668465967571,2.11199727389,-0.928252407365,-0.0421559616115,0.00920679824898,0.00647368742214,0.0030781380687,-0.00034306854404,0.000493246111277,-0.0360972953656,0.573782566169,0.818972412598,0.00620492272625,0.0,0.818971856196,-0.573691166974,-0.0120121020976,0.0,-0.00627799174626,0.0119742223902,-0.999908598232,0.0,0.257468410201,-0.269814854853,0.304960578791,1.0,-0.00850689655173,-0.0111804926108,3.385
-0.680727185606,-0.512876887552,-0.125038494344,-2.63552444765,-0.066825974317,2.11201717076,-0.928892723205,-0.0374997914352,0.00870907571681,0.000420776685128,0.0039327682155,0.00478394972932,0.000109459496265,-0.0380843552687,0.573770908765,0.818980572236,0.00620592101028,0.0,0.818979760139,-0.573678996115,-0.0120544100198,0.0,-0.00631224261111,0.0119992245144,-0.999908082878,0.0,0.257323220165,-0.269991776227,0.304945447053,1.0,-0.00816689655173,-0.010733635468,3.402
-0.68138332851,-0.512742293787,-0.125012733934,-2.63544205663,-0.0668068839882,2.11204019858,-0.929535257519,-0.0333682436188,0.00686279659382,0.00109136529175,0.0104402139674,0.000144421379005,0.000794525670433,-0.035852916743,0.573776274834,0.818976792472,0.0062086014045,0.0,0.818975854079,-0.573684043066,-0.0120795723622,0.0,-0.00633123576801,0.0120158980127,-0.99990776257,0.0,0.257172516151,-0.27017588835,0.30493565907,1.0,-0.00780689655173,-0.0102604926108,3.42
-0.681924545201,-0.51261599092,-0.125007713264,-2.63536358147,-0.0667831488989,2.11205109863,-0.930033960866,-0.0356126182202,0.00579326986545,-0.000946145155133,0.00775266438721,0.000450701956578,-0.000266572615322,-0.0359732756117,0.573821848789,0.818944733146,0.00622549644038,0.0,0.818943798073,-0.573729120532,-0.0121119260551,0.0,-0.00634737166001,0.012048651475,-0.999907266136,0.0,0.257045925365,-0.270331695384,0.304925636203,1.0,-0.00750689655173,-0.00986620689656,3.435
-0.682553498054,-0.512487626405,-0.124998014038,-2.63527091625,-0.0667627891342,2.11207663528,-0.930643665077,-0.0350982989279,0.00958423310646,0.00242527319683,0.00337179837153,0.000694695901617,0.00190813878438,-0.0318805684829,0.573844241336,0.818928976898,0.00623413045139,0.0,0.818928111235,-0.57375138759,-0.0121177873062,0.0,-0.00634688836133,0.0120592593173,-0.999907141325,0.0,0.25690160837,-0.270515158263,0.30492264626,1.0,-0.00714689655173,-0.00939306403942,3.453
-0.683046814583,-0.512384026149,-0.124995135786,-2.63518072366,-0.0667389376303,2.11209391053,-0.931134579315,-0.0312881418371,0.00934828987347,0.00014975299813,0.00652604749518,0.0018986218126,0.000574409258613,-0.0338401309597,0.573858958337,0.818918562433,0.00624747475554,0.0,0.818917911174,-0.573766118468,-0.012109622554,0.0,-0.00633232726978,0.0120656166621,-0.999907156953,0.0,0.256791374982,-0.270663412797,0.304926829041,1.0,-0.00684689655173,-0.00899877832513,3.468
-0.683559394552,-0.512280888549,-0.124984160526,-2.63509449183,-0.0667209640307,2.11212224084,-0.931664337274,-0.0324101906414,0.00984293751107,0.00245308828217,0.00601320744479,0.000330740775846,0.00485364622631,-0.0332390043388,0.573849170713,0.818925390739,0.00625144590951,0.0,0.818924880689,-0.573756485788,-0.0120946974533,0.0,-0.0063179688422,0.012060228896,-0.999907312779,0.0,0.256677966732,-0.270815991489,0.304930510271,1.0,-0.00650689655173,-0.00855192118227,3.485
-0.684010884986,-0.512196335633,-0.124952277991,-2.63502015067,-0.0666981825543,2.11214535305,-0.932131753113,-0.0251533993371,0.00514560466894,0.00462865724779,0.00335876479892,0.000563454670114,0.000267710114901,-0.0377652713709,0.573826949761,0.818940972041,0.00625003534413,0.0,0.818940543965,-0.573734467586,-0.0120786197233,0.0,-0.00630593728536,0.0120496768513,-0.999907515945,0.0,0.256583197752,-0.270944351827,0.30493571422,1.0,-0.00618689655173,-0.0081313497537,3.501
-0.684469595999,-0.512121119085,-0.1249108384,-2.63495284953,-0.0666742166991,2.11216641032,-0.932583146162,-0.0295327243905,0.00515329176003,0.00461772322672,0.00420799388903,6.05191940343e-05,-0.000144887251183,-0.0287592487529,0.573817098519,0.818947908193,0.00624563965357,0.0,0.818947527794,-0.573724838492,-0.0120624756761,0.0,-0.00629538182663,0.0120367376917,-0.999907738301,0.0,0.256487025427,-0.271070385073,0.304941223497,1.0,-0.00584689655173,-0.00768449261084,3.518
-0.684916849303,-0.512021695985,-0.124860362661,-2.63487720558,-0.0666539733648,2.11219697628,-0.933013641642,-0.0255142271775,0.00679258657956,0.00836384276126,0.00664960333253,0.000216092147446,0.000751260119902,-0.0299191055673,0.573807439277,0.818954777666,0.00623230855523,0.0,0.818954290452,-0.573715367579,-0.0120537984004,0.0,-0.00629606581418,0.0120207664614,-0.999907926126,0.0,0.256398389386,-0.271195052145,0.304942580427,1.0,-0.00550689655173,-0.00723763546799,3.535
-0.685336466817,-0.511949883657,-0.124830540752,-2.6348120778,-0.066634069487,2.11221657765,-0.933440632732,-0.0287817152241,0.0040129333233,0.000317073743015,0.00616225627331,0.00310784537841,0.00350290512332,-0.0345814033886,0.573791971825,0.818965630718,0.00623022262077,0.0,0.818965215594,-0.573700102152,-0.0120380786911,0.0,-0.00628461435219,0.0120099197491,-0.999908128505,0.0,0.256309052527,-0.271313143842,0.304947959081,1.0,-0.00516689655173,-0.00679077832513,3.552
-0.685767739494,-0.511863292149,-0.124811366436,-2.63474969938,-0.0666168851361,2.11223817736,-0.933864531519,-0.0265562280415,0.00416102893363,0.00194493099228,0.00473172045033,5.81413575547e-05,-0.000233062727461,-0.0280010453859,0.573794943463,0.818963532805,0.00623231040035,0.0,0.818963144923,-0.573703064169,-0.0120377872403,0.0,-0.00628313416174,0.0120114852329,-0.999908119003,0.0,0.256213197638,-0.27143602557,0.304946535754,1.0,-0.00478689655173,-0.0062913497537,3.571
