nelsonifechukwu/NELSON_IML_WORK/CNN-GradCAM/train2dof/data_sample_2022-02-22-09-17-39/robot_state.csv
position_joint1,position_joint2,position_joint3,position_joint4,position_joint5,position_joint6,position_joint7,velocity_joint1,velocity_joint2,velocity_joint3,velocity_joint4,velocity_joint5,velocity_joint6,velocity_joint7,ee_T_00,ee_T_10,ee_T_20,ee_T_30,ee_T_01,ee_T_11,ee_T_21,ee_T_31,ee_T_02,ee_T_12,ee_T_22,ee_T_32,ee_T_03,ee_T_13,ee_T_23,ee_T_33,v_x,v_y,time
0.465076522626,0.547811254222,-0.123992126105,-1.35584588831,0.079546349898,1.89410512416,0.159146697647,-0.0026440152173,-0.00199501544616,-9.37083488423e-05,0.0017007990495,0.00019065786919,0.00117868711472,-0.000395254932935,0.573808785582,0.818975260705,0.00193567656648,0.0,0.81893150641,-0.57374986277,-0.0119595016989,0.0,-0.00868410905341,0.00844781631919,-0.999926607631,0.0,0.661671720376,0.260896156094,0.303187548123,1.0,0.0,0.0,0.0
0.465080779337,0.547819330691,-0.123993809718,-1.3558486837,0.0795425363759,1.89410500642,0.159149973465,0.000713229159162,0.00273499332792,0.000779770180981,0.001467357196,-5.01740135536e-05,0.000122696961233,0.0011278903001,0.57380831341,0.818975619957,0.00192361104251,0.0,0.818931748277,-0.573749480412,-0.0119612830935,0.0,-0.00869249575832,0.00843895230814,-0.999926609608,0.0,0.66167033049,0.260896931686,0.303180534749,1.0,-0.00018,-0.000236571428571,0.01
0.465078620773,0.547812304036,-0.123996315479,-1.35585724318,0.0795449145655,1.89410512416,0.159147873463,-0.000326626256082,-0.0025128555119,0.00106595263384,0.000255495036496,0.000399301159614,0.000248526685434,-0.00184961286709,0.573802847364,0.818979433486,0.00193048831252,0.0,0.818935595493,-0.573743931588,-0.0119640420297,0.0,-0.00869086573547,0.00844610959221,-0.999926563346,0.0,0.66166971535,0.260895044916,0.303184746154,1.0,-0.00054,-0.000709714285714,0.028
0.465072999299,0.547790376066,-0.123994533038,-1.35586757115,0.0795456194478,1.89410722718,0.159142226179,-0.000272841466885,-0.00212967099783,0.000178520934361,0.00141034087317,-0.000134059652755,-0.000435375341026,-0.00190009395955,0.573810659078,0.818973945015,0.0019369605346,0.0,0.818930206812,-0.573751729986,-0.0119589133817,0.0,-0.00868287118488,0.00844855012139,-0.999926612182,0.0,0.661669234741,0.260890157139,0.303192279622,1.0,-0.00086,-0.00113028571429,0.044
0.465070177912,0.547713107455,-0.123989269848,-1.35594510841,0.0795422820236,1.89412814971,0.159146389291,-0.00109064847545,-0.0122346537162,0.00153433241727,-0.00792397719394,0.000118996076906,0.00100923256576,0.000744186810905,0.57381606063,0.818970111593,0.00195749350113,0.0,0.818926593874,-0.573756998433,-0.0119535557702,0.0,-0.00866664616719,0.00846234869443,-0.999926636258,0.0,0.661657393465,0.260884032016,0.303211750059,1.0,-0.00118,-0.00155085714286,0.06
0.465065878204,0.547568597531,-0.123994541916,-1.35615090537,0.0795390699854,1.89416922697,0.159139368881,-0.000610751414514,-0.00208389722161,-0.0009760172327,-0.00932489518202,-0.000642449340957,0.0019968846204,-0.00130866081019,0.573827930288,0.818961823401,0.00194554232925,0.0,0.818918044941,-0.573768814682,-0.0119720452919,0.0,-0.00868852380692,0.00846329663645,-0.999926438376,0.0,0.661624732365,0.260857869966,0.303219906125,1.0,-0.00156,-0.00205028571429,0.079
0.465052874486,0.547438483802,-0.123994533307,-1.35633045885,0.0795391527412,1.89424910614,0.159135280696,0.000674909283671,-0.00661630103854,4.16923625488e-05,-0.0119876431114,-0.00266821810274,0.00996567361628,-0.000713251999773,0.573845377264,0.818949522965,0.00197705072032,0.0,0.818906075749,-0.57378604885,-0.0119647878268,0.0,-0.00866431997695,0.00848512039615,-0.999926463442,0.0,0.661606320303,0.260835110338,0.303233551883,1.0,-0.00186,-0.00244457142857,0.094
0.465033167317,0.547251030205,-0.123994827983,-1.35654717543,0.0795379553205,1.89436829245,0.159133132701,-0.0014534447237,-0.0142746994319,0.000677224451284,-0.00898748232814,-0.000462861322428,0.00494839187073,0.00180345824469,0.573871972377,0.818930683754,0.00205947272934,0.0,0.818888264664,-0.573812252181,-0.0119271180025,0.0,-0.00858589752099,0.0085312810359,-0.999926747121,0.0,0.661590632573,0.260806554845,0.303273541928,1.0,-0.0022,-0.00289142857143,0.111
0.465008123227,0.547044076139,-0.123992172392,-1.35680611484,0.0795352083998,1.89449546614,0.159117116788,-0.00317421801386,-0.0143747227966,-0.000562114032533,-0.0158404536487,3.57502592194e-05,0.00781144415346,0.000994690948423,0.573891426807,0.818916868065,0.00213080671244,0.0,0.818875297149,-0.573831332028,-0.0118994539033,0.0,-0.00852210394502,0.00857402463517,-0.999926927253,0.0,0.661568157112,0.260771707312,0.303307833748,1.0,-0.00254,-0.00333828571429,0.128
0.464978147218,0.546819092113,-0.123996938823,-1.35714860272,0.0795283786458,1.89462661426,0.159099208716,-0.000339049115293,-0.0125835169327,-0.00135447599887,-0.0218277708202,0.000179748023088,0.00982882631186,8.94436682076e-05,0.573922029155,0.81889537537,0.002148383023,0.0,0.81885394029,-0.573861765728,-0.0119014792161,0.0,-0.00851335532353,0.00858989838743,-0.999926865539,0.0,0.661530980833,0.260719216661,0.303315702286,1.0,-0.00288,-0.00378514285714,0.145
0.46494348801,0.546552550802,-0.123992439714,-1.35752670495,0.0795202334492,1.89476720779,0.159026689759,-0.00133126520055,-0.0183886432583,-0.00162149730033,-0.0259177710729,0.000607728496291,0.00718910583783,-0.00797688152441,0.573906847624,0.818905923359,0.00218308023354,0.0,0.818864786011,-0.57384629023,-0.0119014419752,0.0,-0.00849357236432,0.00861813250021,-0.999926790831,0.0,0.661487760775,0.260665740944,0.303336548968,1.0,-0.0032,-0.00420571428571,0.161
0.464896628342,0.546252180683,-0.123999859324,-1.35801217681,0.0795075829092,1.8949344701,0.158917633938,-0.00369045295983,-0.0155654976598,-0.00143377088464,-0.0307536979953,0.00010291739897,0.0102826768059,-0.00246750388961,0.573884853274,0.81892135647,0.00217577612496,0.0,0.818879985814,-0.573824188072,-0.0119212800829,0.0,-0.00851424181354,0.00862330761894,-0.99992657043,0.0,0.66143224235,0.260586067736,0.30333293204,1.0,-0.00356,-0.00467885714286,0.179
0.464854071591,0.545958001258,-0.123992229324,-1.35851186672,0.0794934479681,1.89511487682,0.158899177204,-0.000217256524128,-0.0226096561654,0.00369919760812,-0.0360191348083,0.000343842163298,0.0167455740488,-0.00603714578869,0.573923473297,0.818894322698,0.00216378231991,0.0,0.818852603782,-0.57386265795,-0.0119503134184,0.0,-0.00854449444742,0.00863055033557,-0.999926249888,0.0,0.661371381496,0.260516837018,0.303318787586,1.0,-0.00388,-0.00509942857143,0.195
0.464796152173,0.545632119473,-0.123992677474,-1.35907519956,0.0794552813538,1.89530176652,0.158829065855,-0.00390179917366,-0.0177962065845,0.00057232537305,-0.0374348080616,-0.0080812020964,0.0178499724213,-0.00916613409998,0.573935185831,0.818886245102,0.00211351575699,0.0,0.818843923647,-0.573874629234,-0.0119701933295,0.0,-0.00858949897183,0.00860092026253,-0.99992611961,0.0,0.661303208699,0.260413191551,0.303298475934,1.0,-0.00422,-0.00554628571429,0.212
0.464724636989,0.545226059813,-0.123998132447,-1.35979294994,0.0793447612232,1.89551804643,0.158712285908,-0.00921169750012,-0.026447450949,-0.000756233477433,-0.0396670304342,-0.00268515870753,0.0107849451546,-0.00932936789846,0.573912294852,0.818902576533,0.00199871616434,0.0,0.818859257309,-0.573852715464,-0.011971824219,0.0,-0.00865695567364,0.00850760814283,-0.999926336148,0.0,0.661220142609,0.260288628371,0.303262158965,1.0,-0.00456,-0.00599314285714,0.229
0.464660858593,0.544801432947,-0.123996612635,-1.360499816,0.0793348915767,1.89575392887,0.158654392018,-0.00105653619915,-0.0250484769766,0.000484500191629,-0.0471086372918,-0.00276653249145,0.0154823480593,-0.00301718115859,0.57395275842,0.818874268996,0.0019772655405,0.0,0.818830319417,-0.573892921318,-0.0120237167837,0.0,-0.00871134131494,0.00852025442988,-0.999925756142,0.0,0.661132671075,0.26018341313,0.303246700855,1.0,-0.0049,-0.00644,0.246
0.464594357353,0.544381818886,-0.124001345423,-1.36120326903,0.0793115965218,1.89601794336,0.158546136238,-0.00656658020447,-0.0263542915782,-0.000319455488845,-0.0451420005478,-0.000489399257103,0.0231044871153,-0.00529321263124,0.573955011083,0.818872710822,0.00196866053318,0.0,0.818828490932,-0.573895056306,-0.0120463142482,0.0,-0.00873476162757,0.00852620191721,-0.999925501135,0.0,0.661054273874,0.260072857803,0.303231905804,1.0,-0.00522,-0.00686057142857,0.262
0.464520683811,0.543884411304,-0.124004396138,-1.36201836012,0.0792855879918,1.89630418678,0.158471353802,-0.00516498366414,-0.0285174959945,-0.00278166612508,-0.0490315504417,-0.00462731151119,0.0138495181961,-0.00134523762623,0.573994694983,0.81884493172,0.00195315900403,0.0,0.818800281527,-0.573934580429,-0.0120806978674,0.0,-0.00877140160349,0.00853366792946,-0.999925116709,0.0,0.660958204362,0.259947378678,0.303220851784,1.0,-0.00556,-0.00730742857143,0.279
0.464446887255,0.543353802743,-0.124005189811,-1.36286875926,0.0792387287099,1.89658839539,0.158347312133,-0.00481531181302,-0.0343422469552,0.000272470836979,-0.0502624184106,-0.00448346861889,0.0206165639575,-0.0052674267614,0.573988802843,0.818849126715,0.00192582207309,0.0,0.818804025971,-0.573928718358,-0.01210537892,0.0,-0.00880736393203,0.00852538696111,-0.999924871237,0.0,0.660855033519,0.25981586616,0.303216134815,1.0,-0.0059,-0.00775428571429,0.296
0.464377632157,0.5428354001,-0.124010926446,-1.36369716506,0.079187853662,1.89688580383,0.158250182455,-0.00491333712294,-0.0339820204084,-0.000154838523208,-0.0530275729126,-0.00723751220716,0.0202998490019,-0.00104805624199,0.574002492808,0.818839560841,0.00191278694756,0.0,0.818794305372,-0.573942479278,-0.012110444765,0.0,-0.00881885138019,0.00851776853763,-0.999924834915,0.0,0.660759297491,0.2596871953,0.303214490807,1.0,-0.00622,-0.00817485714286,0.312
0.46429766806,0.542241779053,-0.124013974011,-1.36461922703,0.0791336887825,1.8972240495,0.158115968063,-0.00706113410473,-0.0336028381137,-0.0012652726047,-0.0516824626739,-0.00542201013263,0.0183997645721,-0.00629919990368,0.573997000999,0.818843390755,0.00192123963175,0.0,0.818798234236,-0.573936939678,-0.0121073443466,0.0,-0.00881151815222,0.00852285105434,-0.999924856256,0.0,0.660654323397,0.259545125526,0.303224854177,1.0,-0.00656,-0.00862171428571,0.329
0.464202265502,0.541569056961,-0.124009123564,-1.36563715678,0.0790845449172,1.8975967226,0.15797502594,-0.00533896205069,-0.0341995829556,0.000337945019163,-0.057673437026,-0.00185831573684,0.0212869715073,-0.0117421194689,0.573999676991,0.818841439585,0.00195308298612,0.0,0.818796548967,-0.573939329282,-0.0121080388528,0.0,-0.00879378213327,0.00854935260093,-0.999924786154,0.0,0.660537947487,0.259390253334,0.303248173915,1.0,-0.00692,-0.00909485714286,0.347
0.464143882282,0.540982279745,-0.124021815639,-1.36653784096,0.0790266217869,1.89793995768,0.15786567665,-0.002337245049,-0.0404087126194,-0.00118721042957,-0.0598321073205,-0.000288711055933,0.0213675384312,-0.00239794068689,0.574001400943,0.81884018475,0.00197242338048,0.0,0.818795652885,-0.573941071566,-0.0120860286162,0.0,-0.00876463986292,0.00855257371069,-0.999925014474,0.0,0.660435237178,0.259259040971,0.303264446934,1.0,-0.00722,-0.00948914285714,0.362
0.46402858753,0.540210723753,-0.124015847127,-1.36770766054,0.0789536943873,1.89836286885,0.157722862159,-0.00694892557994,-0.0470336737815,-0.000309090261913,-0.0679696548887,-0.00109679344199,0.030707489627,-0.00570879844007,0.574019909854,0.818827157276,0.00199411599955,0.0,0.818782879556,-0.573959455151,-0.012078364574,0.0,-0.0087457195783,0.0085661347089,-0.999925064055,0.0,0.660302263133,0.259074531334,0.303289416813,1.0,-0.00758,-0.00996228571429,0.38
0.46393910258,0.539481144072,-0.124024081453,-1.3688497808,0.0788878900611,1.89879443931,0.157574047558,-0.00489839665962,-0.0398558928824,-0.000817165089084,-0.0664387098938,-0.000292472759081,0.0251220037955,-0.011791486763,0.574022796066,0.818825097037,0.00200921885056,0.0,0.818781030972,-0.573962289683,-0.0120689785465,0.0,-0.00872933474429,0.00857314415243,-0.999925147156,0.0,0.660172243962,0.258903310681,0.303299016682,1.0,-0.00792,-0.0104091428571,0.397
0.463829353494,0.538762129805,-0.124021910917,-1.36994448465,0.0788324100147,1.89922189561,0.157439695693,-0.00484275978078,-0.0408938130549,0.000166789621191,-0.0708545648826,-0.00148267407518,0.0326888322167,-0.00604642562545,0.574046933535,0.818808052253,0.0020587778285,0.0,0.818764553549,-0.573986132267,-0.0120529132875,0.0,-0.00868747979088,0.00860475789075,-0.999925240124,0.0,0.660054169263,0.258731638946,0.303322915709,1.0,-0.00824,-0.0108297142857,0.413
0.46372221108,0.53798112259,-0.124032875544,-1.37115961188,0.078758637521,1.8996992612,0.157291968189,-0.00839168364678,-0.0423036071087,-0.000598819256595,-0.0711088114568,-0.00180728630338,0.0290512023948,-0.00672977389003,0.574068925659,0.818792551794,0.00209108139312,0.0,0.818749564646,-0.574008073501,-0.0120261734879,0.0,-0.00864681015439,0.0086160903607,-0.999925495055,0.0,0.659922918816,0.258541025519,0.303337902057,1.0,-0.00858,-0.0112765714286,0.43
0.463612107025,0.537167913572,-0.124041174934,-1.37243008288,0.0786798876292,1.90016593642,0.157137719152,-0.00819941445501,-0.0435126947624,-0.00450380739552,-0.081385209492,-0.0106768468751,0.0289770956297,-0.0128117246418,0.574087529117,0.81877949687,0.00209554744575,0.0,0.818736610601,-0.574026698214,-0.0120191139737,0.0,-0.00863827022448,0.00861589073904,-0.999925570587,0.0,0.659777714266,0.258342345467,0.303348123032,1.0,-0.00892,-0.0117234285714,0.447
0.463504799176,0.536368468631,-0.12404488376,-1.37368377164,0.0786110763933,1.90063764869,0.156982977468,-0.00988618140512,-0.0454012878267,-0.000286426212144,-0.0784510381721,-0.00348749923975,0.0309450962427,-0.00988994765262,0.574101941119,0.818769348361,0.00211241304799,0.0,0.818726636492,-0.574040991757,-0.0120158804529,0.0,-0.00862578900053,0.0086279952376,-0.999925573962,0.0,0.659634441662,0.258151943576,0.303356774912,1.0,-0.00924,-0.012144,0.463
0.463385780046,0.53544103295,-0.124051013164,-1.37516315325,0.0785304622895,1.90117638933,0.15680304493,-0.00682714809763,-0.051925653786,0.000388553138406,-0.0805201565785,-0.00152529680167,0.0320049109641,-0.011270464782,0.574116062758,0.818759468786,0.00210372456261,0.0,0.818716562082,-0.574055066833,-0.012029884365,0.0,-0.00864209437495,0.00862907012487,-0.999925423896,0.0,0.659459433186,0.257929955691,0.303354072433,1.0,-0.0096,-0.0126171428571,0.481
0.46326387779,0.534557925259,-0.124046651325,-1.37660409274,0.0784537281921,1.90169943613,0.156633088423,-0.00569042255599,-0.0511378339829,0.00131935151164,-0.091642746649,-0.00344170576827,0.0349764255024,-0.0122534848972,0.574132144454,0.818748253765,0.00207955832617,0.0,0.818704876973,-0.574071095232,-0.0120602213918,0.0,-0.00868063800784,0.00862687140788,-0.999925109002,0.0,0.659286812092,0.257715720001,0.303336514946,1.0,-0.00994,-0.013064,0.498
0.463146623151,0.533691748141,-0.124047006681,-1.37799479449,0.0783676501903,1.90219938315,0.156462738129,-0.00861634509304,-0.0533792578382,-0.00218718530997,-0.0857856010902,-0.00782722466471,0.0307408843136,-0.0153071406721,0.574141924504,0.818741452969,0.00205684670442,0.0,0.818697756394,-0.57408094852,-0.0120745651136,0.0,-0.00870531808237,0.00861661573056,-0.999924982871,0.0,0.659120866823,0.257504503426,0.303328877817,1.0,-0.01026,-0.0134845714286,0.514
0.463004692639,0.532688712153,-0.124051410853,-1.37961122109,0.078288631788,1.90281473097,0.156254575117,-0.00832577873115,-0.0553804382834,-0.00017118399747,-0.0944844984338,-0.00814793014633,0.0370713470467,-0.00978022062826,0.574158190199,0.81873002421,0.00206566857294,0.0,0.81868629471,-0.574097027371,-0.0120872213227,0.0,-0.00871044452199,0.00863127784812,-0.999924811773,0.0,0.658935509953,0.257258639923,0.303320308499,1.0,-0.01062,-0.0139577142857,0.532
0.462877525428,0.531761000056,-0.124052202024,-1.38108203517,0.0781996016485,1.90335470389,0.156065410845,-0.00407224790255,-0.0572751905714,-0.000984033956175,-0.0941135350074,-0.0031220116345,0.0377047122547,-0.0184107261262,0.574164330161,0.81872572726,0.00206213331818,0.0,0.818681928584,-0.574103159056,-0.012091710896,0.0,-0.0087160853564,0.00863102654301,-0.999924764788,0.0,0.658762569552,0.257034215614,0.303321034743,1.0,-0.01094,-0.0143782857143,0.548
0.462771007549,0.530999058767,-0.124046858279,-1.38232841073,0.0781237928606,1.90379258762,0.155903700573,-0.0103466710368,-0.0636172575988,-0.000305801555131,-0.0997580213119,-0.00229827426021,0.0304374367305,-0.0108179008631,0.574162799667,0.818726897656,0.00202322370115,0.0,0.818682506616,-0.574101715382,-0.0121210832282,0.0,-0.00876248937532,0.00861601881747,-0.999924488649,0.0,0.658609472189,0.2568466662,0.303302551976,1.0,-0.0112,-0.01472,0.561
0.462606131782,0.529726820678,-0.124057768482,-1.38436329799,0.0779983778096,1.90452995146,0.155638237085,-0.011042759704,-0.0555156822413,-0.00164747861682,-0.098023531705,-0.00373611786658,0.0414762664451,-0.00603373374667,0.574164992886,0.81872542367,0.00199711813106,0.0,0.818680708132,-0.574104039516,-0.0121324706721,0.0,-0.00878677777746,0.0086012076228,-0.999924403024,0.0,0.658366426312,0.256536655469,0.303294571827,1.0,-0.01162,-0.015272,0.582
0.462464193037,0.52864050318,-0.124058447627,-1.38605400311,0.0778863074367,1.90516629769,0.155405471015,-0.00626575994516,-0.069980611425,-0.000968681236835,-0.104756129371,-0.0103593955194,0.042038279978,-0.0106330703151,0.574152695144,0.818733996206,0.00201817172916,0.0,0.818689642048,-0.574091735423,-0.0121118216548,0.0,-0.00875791305136,0.00860645703771,-0.999924611086,0.0,0.658169244749,0.256281448303,0.303310023481,1.0,-0.01196,-0.0157188571429,0.599
0.462335910187,0.527590209998,-0.12406058258,-1.38766634026,0.0777870644297,1.90579947756,0.155181724071,-0.00401749206446,-0.0730052533718,-0.0017505815282,-0.104343285219,-0.011674507021,0.0425075564717,-0.0161843605562,0.574136824595,0.818744980857,0.00207602195785,0.0,0.818701445291,-0.574075678101,-0.0120750235173,0.0,-0.00869473858598,0.00863252403932,-0.999924937708,0.0,0.657984489739,0.256045076981,0.303336935512,1.0,-0.01228,-0.0161394285714,0.615
0.462180139935,0.526433383723,-0.124058855023,-1.38945608174,0.0776767975366,1.90647599764,0.154938718867,-0.0139310309061,-0.0697231649399,0.000371948254519,-0.103030149354,-0.00830472205693,0.0469468547911,-0.00999629744932,0.574131227128,0.818748814199,0.00211191508156,0.0,0.818705755123,-0.574069935553,-0.012055808755,0.0,-0.0086584588698,0.00865081986124,-0.999925094397,0.0,0.657775870719,0.255774407776,0.303357751404,1.0,-0.01262,-0.0165862857143,0.632
0.462021052117,0.525172936099,-0.124059436192,-1.39140499892,0.0775492534643,1.90716822816,0.154680087321,-0.0114064131401,-0.0654973864639,-0.000137691050528,-0.109215997454,-0.00635049008149,0.0384169395024,-0.0141832505413,0.5741222039,0.818755167611,0.00210176106891,0.0,0.818711997991,-0.574060978736,-0.0120583555637,0.0,-0.0086664687708,0.00864387309704,-0.999925085082,0.0,0.657524805514,0.255462284767,0.303370479171,1.0,-0.013,-0.0170857142857,0.651
0.461871162396,0.524075716134,-0.124065228747,-1.39318371375,0.0774489223578,1.90780356215,0.154433713758,-0.00526709934639,-0.062334652736,0.0018489679569,-0.110353656919,-2.11664979264e-05,0.048728739538,-0.0207144425241,0.574114157118,0.818760880611,0.00207409725583,0.0,0.818717233336,-0.574052935879,-0.0120857580959,0.0,-0.00870487191816,0.00863687027582,-0.999924812012,0.0,0.657320133243,0.255209276386,0.303357052287,1.0,-0.0133,-0.01748,0.666
0.461711549456,0.522854462358,-0.124071236836,-1.3951098116,0.0773345112045,1.90854338159,0.154176964426,-0.00926811263786,-0.0746485675469,-0.000442855589902,-0.117736170226,-0.00682658390968,0.0462882712913,-0.0138184272309,0.574111562749,0.818762628831,0.00210191556175,0.0,0.818719362702,-0.574050240026,-0.0120695470015,0.0,-0.00867565593224,0.00865031200515,-0.999924949732,0.0,0.657094977335,0.254919961134,0.303363098183,1.0,-0.01364,-0.0179268571429,0.683
0.461561246156,0.521688192038,-0.124069109723,-1.39694432021,0.0772176100694,1.90926405633,0.153912862734,-0.00993653521321,-0.0711522636881,0.00141983383123,-0.116018875675,-0.00863034750468,0.0514592048912,-0.0244710480117,0.57408376916,0.818782013409,0.00214182322753,0.0,0.818739341092,-0.574022353119,-0.0120406133414,0.0,-0.00862934936708,0.00866608247704,-0.999925213876,0.0,0.656881427968,0.254649986328,0.303371837501,1.0,-0.01396,-0.0183474285714,0.699
0.461391577537,0.520421816539,-0.124078329382,-1.3989832592,0.0770916305565,1.9100107984,0.153660300524,-0.00889793104713,-0.0749015307703,0.00114247346982,-0.119784310323,-0.00937751151672,0.0374836629801,-0.0159002448019,0.574097264448,0.81877262047,0.00211514145411,0.0,0.818729612215,-0.574035972165,-0.0120528687451,0.0,-0.00865455827281,0.00865141448437,-0.999925123021,0.0,0.656634843791,0.254338106852,0.303355922268,1.0,-0.0143,-0.0187942857143,0.716
0.461230877209,0.519175245634,-0.124083666094,-1.40092321612,0.0769659876481,1.91070717961,0.153388697698,-0.00764890916775,-0.0781898006018,0.00175591605003,-0.127110569423,-0.0034902963481,0.0409919117135,-0.0198865856104,0.574072336415,0.818790090549,0.00211827359707,0.0,0.81874711276,-0.574011023566,-0.0120522642157,0.0,-0.00865252870083,0.00865336847319,-0.999925123677,0.0,0.656381327636,0.254030069079,0.30337068735,1.0,-0.01464,-0.0192411428571,0.733
0.461044083525,0.517739183365,-0.124087217882,-1.40316806021,0.0768302122833,1.91150749905,0.153095007038,-0.00898305260711,-0.0817037356992,7.73751051315e-05,-0.125745721909,-0.00918677629399,0.0399547699631,-0.0172127858135,0.574076676724,0.818787078414,0.00210626815404,0.0,0.818743913418,-0.574015384029,-0.0120619252068,0.0,-0.00866728504889,0.00864913069132,-0.999925032544,0.0,0.656119196678,0.253702725049,0.303377157051,1.0,-0.01498,-0.019688,0.75
0.460867492899,0.516477063023,-0.124090709844,-1.40516158971,0.0766913103975,1.91225668944,0.152809631793,-0.0168675046062,-0.0776751811348,-0.00145089273061,-0.123209369834,-0.00420747729925,0.0517453469554,-0.0145731874083,0.57405805026,0.818800128455,0.00210985187878,0.0,0.818757165964,-0.573996900165,-0.0120419551721,0.0,-0.00864907252496,0.00864040400683,-0.999925265689,0.0,0.65588271981,0.253393219234,0.303378720143,1.0,-0.0153,-0.0201085714286,0.766
0.460680786946,0.515090892759,-0.124099639846,-1.40735340796,0.0765622006806,1.91308050002,0.152514219915,-0.00603273648059,-0.0823810195802,-0.00223330392964,-0.131855240383,-0.0112362190737,0.0459698134472,-0.0186059332368,0.574056371578,0.818801268134,0.00212425381613,0.0,0.818758476492,-0.57399514358,-0.0120365784038,0.0,-0.00863642056472,0.00864909186472,-0.999925299935,0.0,0.655619890601,0.25305866408,0.303379197353,1.0,-0.01564,-0.0205554285714,0.783
0.460490760782,0.513683943857,-0.124100972396,-1.40962394284,0.0764180090026,1.91386227199,0.152193890251,-0.00575655404473,-0.0821904092018,2.96443598945e-06,-0.131517655297,-0.0104129623704,0.0439020347294,-0.020673834425,0.574030776508,0.81881939561,0.00205229042811,0.0,0.818775579188,-0.573969774626,-0.0120828656334,0.0,-0.00871589986873,0.0086164679196,-0.999924891964,0.0,0.655329557982,0.252712172047,0.303352457008,1.0,-0.01598,-0.0210022857143,0.8
0.460305336427,0.512360087257,-0.12410649451,-1.41177420415,0.0762856399578,1.91462330034,0.151902534916,-0.013388281533,-0.0825498918441,-0.000371690272175,-0.134352794479,-0.00657917624867,0.0432716163051,-0.0174575635497,0.574024860571,0.818823685664,0.00199452830644,0.0,0.818779046,-0.573964043835,-0.0121201120763,0.0,-0.00877961634349,0.0085904890222,-0.999924558072,0.0,0.655059805164,0.252379967382,0.303322677543,1.0,-0.0163,-0.0214228571429,0.816
0.460104112541,0.510900386578,-0.124106771166,-1.41407742572,0.0761517785427,1.91549704639,0.151576011355,-0.0103869664037,-0.0858285112326,0.000698076587227,-0.133635607194,-0.00231721205329,0.0477326798095,-0.0124110405497,0.574001714503,0.818839855084,0.00201751699972,0.0,0.818795466407,-0.573940751367,-0.0121138356043,0.0,-0.00876152485455,0.00860546186067,-0.999924588011,0.0,0.654765252879,0.252007906023,0.30331866558,1.0,-0.01666,-0.021896,0.834
0.459902793757,0.509417342367,-0.124112776927,-1.41644770289,0.0760015136571,1.9163816028,0.151241368072,-0.0103720355788,-0.0851326096385,-0.000165767760756,-0.138501007625,-0.00392455737354,0.0519815894558,-0.0304352836257,0.573985151478,0.818851473372,0.00201428441977,0.0,0.818807057046,-0.573924218937,-0.0121136761658,0.0,-0.00876342368704,0.00860254617246,-0.999924596459,0.0,0.654491731123,0.251670176881,0.303311140678,1.0,-0.01698,-0.0223165714286,0.85
0.459691501779,0.507900229514,-0.124119173422,-1.41882689412,0.0758511511756,1.91722012381,0.15090396571,-0.0149310551682,-0.0946458610314,-0.00155289032706,-0.140403455922,-0.0100934808925,0.0539402467444,-0.0263024164517,0.573969110811,0.818862772422,0.00199165195208,0.0,0.818818022585,-0.573908242854,-0.0121293683221,0.0,-0.00878943192358,0.00859284870259,-0.999924451565,0.0,0.654192888914,0.251298497552,0.303312961754,1.0,-0.01732,-0.0227634285714,0.867
0.459469462683,0.506353179586,-0.124129505143,-1.42125326676,0.0756994144486,1.91812343885,0.150576885913,-0.0122095367343,-0.0971124131188,0.000746130547156,-0.143818029027,-0.0117169138196,0.0536082748047,-0.0198351678632,0.57396164051,0.818867960837,0.00201117879434,0.0,0.818823493951,-0.573900714784,-0.0121161968469,0.0,-0.00876751725935,0.00860119826604,-0.99992457217,0.0,0.653878487601,0.250901006957,0.303320335907,1.0,-0.01768,-0.0232365714286,0.885
0.459232818569,0.504637468854,-0.124134444141,-1.42387132644,0.0755331699375,1.91913792935,0.150215917311,-0.017011209018,-0.0979750562269,-0.000864767316181,-0.147578956643,-0.00426137666457,0.0610358230932,-0.0193132665944,0.573967227014,0.818863830325,0.00209680716116,0.0,0.818820608683,-0.57390605533,-0.0120580825021,0.0,-0.00867072423569,0.00863801940146,-0.999925098776,0.0,0.653588271788,0.250512774709,0.303359446791,1.0,-0.01802,-0.0236834285714,0.902
0.459034282412,0.503168478652,-0.124137283215,-1.42605840317,0.0754036254733,1.91995145,0.149915883897,-0.0125855843844,-0.101202192068,0.000267374961535,-0.149284312032,-0.0107529290176,0.0535047640765,-0.0195250940069,0.573963581074,0.818866165327,0.00218123453806,0.0,0.818824004625,-0.573902011995,-0.0120198577299,0.0,-0.00859100532053,0.00868517500268,-0.999925378397,0.0,0.653321217752,0.250175509184,0.303415056909,1.0,-0.01832,-0.0240777142857,0.917
0.458805592114,0.501462926658,-0.124143721159,-1.42858345731,0.0752410752196,1.92086986632,0.149558378479,-0.0160016975886,-0.10731247346,-0.00100851376723,-0.155929756566,-0.00408157465323,0.0570569871983,-0.0167160155182,0.573947809798,0.818876998789,0.00226260540324,0.0,0.8188359505,-0.573885958621,-0.0119724503661,0.0,-0.00850565051327,0.00872443228387,-0.99992576634,0.0,0.653009211896,0.249781395609,0.303483555509,1.0,-0.01866,-0.0245245714286,0.934
0.458568973702,0.499741039389,-0.124144473777,-1.43117356847,0.0750708177541,1.92178949131,0.149190415802,-0.0151011749117,-0.101772827961,-0.00110658756951,-0.156486014609,-0.0107548983198,0.0581087464276,-0.0254006434673,0.573926478952,0.818891835698,0.00230327742688,0.0,0.818851328302,-0.573864476482,-0.0119503837424,0.0,-0.00846446555255,0.00874485180936,-0.999925937452,0.0,0.652682158391,0.249376929894,0.303531770435,1.0,-0.019,-0.0249714285714,0.951
0.458323756467,0.498175696057,-0.124145526061,-1.43364451648,0.074923427851,1.92272808734,0.148829582519,-0.0153399518159,-0.0970377316116,-0.000900148896986,-0.147690056749,-0.00689540424086,0.0564699850862,-0.0224559927501,0.573918719247,0.818897192868,0.00233197621497,0.0,0.818857011827,-0.573856552988,-0.0119414268282,0.0,-0.00844074358656,0.00876313218372,-0.999925977941,0.0,0.652383417474,0.248983697243,0.303528732482,1.0,-0.01932,-0.025392,0.967
0.458067226519,0.496484954139,-0.124145148604,-1.43632718389,0.0747613974594,1.92367382093,0.148429476529,-0.0174936411126,-0.0958271192126,-0.000821677848396,-0.162336571524,-0.0134925576121,0.0586347579694,-0.0202626647741,0.573893622644,0.81891490948,0.00228644292613,0.0,0.818873975478,-0.573831479128,-0.01198301917,0.0,-0.00850120380718,0.00874945534445,-0.999925585514,0.0,0.652019602956,0.24852932788,0.303508994691,1.0,-0.01968,-0.0258651428571,0.985
0.45778554624,0.49470393757,-0.124147933002,-1.43923026495,0.0745737699579,1.924673175,0.148026840886,-0.00733952845477,-0.101723121091,-0.000395357707214,-0.157982459744,-0.0121085323148,0.0601583302584,-0.022899618756,0.57389115188,0.818916911896,0.00218726002773,0.0,0.818874568199,-0.573829302263,-0.012046589705,0.0,-0.00861020791772,0.00870469044505,-0.999925043533,0.0,0.651663853958,0.248090559789,0.303458046943,1.0,-0.0206405714286,-0.0271276081633,1.002
0.457497082764,0.492717189566,-0.124205074221,-1.44226626042,0.0743984575802,1.92577681061,0.147598620882,-0.016691667491,-0.154514888049,-0.00933039636283,-0.219382636157,-0.0066855371406,0.0887884612004,-0.0271520504333,0.573923136792,0.818894383792,0.00222893482079,0.0,0.81885266363,-0.573861189539,-0.0120165430978,0.0,-0.00856134530017,0.00872190924695,-0.999925313044,0.0,0.651293139768,0.247581978422,0.303493476518,1.0,-0.0312097142857,-0.0410184816327,1.018
0.457134901043,0.4897751438,-0.124256492979,-1.44689166686,0.0741539606833,1.92755486291,0.146896602331,-0.027339994998,-0.186276376905,-0.00116470443905,-0.307450372397,-0.0134343224181,0.115298642089,-0.0465146491576,0.573848499569,0.81894644318,0.00231724976792,0.0,0.818905747097,-0.573786067114,-0.0119863863536,0.0,-0.00848676623656,0.00877614794472,-0.999925474236,0.0,0.650714083885,0.246887443769,0.303494255547,1.0,-0.0424394285714,-0.0557775346939,1.035
0.45654470296,0.485857577038,-0.12430233996,-1.45308161352,0.0738037423775,1.9298810193,0.145986765344,-0.0403132668186,-0.255200010246,-0.009919329158,-0.387314444043,-0.0278042091561,0.144957705944,-0.0611998219,0.573833497245,0.818956810106,0.00236802082422,0.0,0.818916609129,-0.573770687116,-0.0119805175431,0.0,-0.00845298824128,0.00881420356498,-0.999925425622,0.0,0.649944298066,0.245895921242,0.303473216478,1.0,-0.0536691428571,-0.0705365877551,1.052
0.455860536674,0.481314722708,-0.124436721069,-1.4602767954,0.0733708556545,1.93241490195,0.144883987713,-0.0452493674299,-0.301898087695,-0.0117212096977,-0.481122124526,-0.0284350485367,0.165731011345,-0.0692040847583,0.573824375106,0.818963534561,0.00224999878732,0.0,0.818921877686,-0.573762137067,-0.0120297637911,0.0,-0.00856113859016,0.0087457133039,-0.999925106898,0.0,0.649025675434,0.244682539319,0.303424435978,1.0,-0.0642382857143,-0.0844274612245,1.068
0.45483923444,0.474746423265,-0.124600765886,-1.47057706666,0.0727452087141,1.93603626527,0.143379283539,-0.0561703075453,-0.37072921894,-0.0090381678273,-0.581196146808,-0.0303272290877,0.210380265092,-0.0886466923692,0.573877868137,0.818926352558,0.00213739336303,0.0,0.818883250543,-0.573816124278,-0.0120840555831,0.0,-0.00866964770473,0.00868521489858,-0.99992469929,0.0,0.647699429902,0.242936321978,0.303389614778,1.0,-0.0767891428571,-0.100922873469,1.087
0.45387409048,0.468788324235,-0.124705905803,-1.47973844531,0.0722249143079,1.93938292578,0.141990036439,-0.0667137522372,-0.417446981818,-0.00823639346576,-0.624540737612,-0.0324584797821,0.245144062658,-0.105407444836,0.573906099774,0.818906208308,0.0022710213324,0.0,0.818864586148,-0.573843518311,-0.0120479436284,0.0,-0.00856308982911,0.00877421621241,-0.999924840487,0.0,0.646535211649,0.241387722831,0.303439645742,1.0,-0.0866977142857,-0.113945567347,1.102
0.452679293731,0.461639080279,-0.124762744177,-1.49068816861,0.0715325890276,1.94337296457,0.14021259365,-0.0792181896714,-0.460151697694,-0.00440434472496,-0.714026882228,-0.0511241722194,0.248782133126,-0.113440038924,0.573804761121,0.81897684653,0.00240163789038,0.0,0.818936806201,-0.573741528203,-0.0119963813792,0.0,-0.00844700182926,0.00885054081555,-0.999925155243,0.0,0.645022873518,0.23941460847,0.303489875273,1.0,-0.0979274285714,-0.128704620408,1.119
0.451190045112,0.453248826574,-0.124892123213,-1.50378279136,0.0706772234148,1.94780713856,0.138227701875,-0.0911904313959,-0.516176628457,-0.00646567512432,-0.785835990043,-0.0496471604809,0.269924751716,-0.123023430168,0.573858233275,0.818940009545,0.00217618239907,0.0,0.818896844716,-0.573795752822,-0.0121300725122,0.0,-0.00868528469962,0.00874317921477,-0.99992405844,0.0,0.643359679364,0.237236378973,0.303430186253,1.0,-0.108496571429,-0.142595493878,1.135
0.44945055324,0.443251517538,-0.12502337562,-1.51876588048,0.0696580345148,1.95324724348,0.135882722162,-0.0988902640505,-0.555224434018,-0.00611379623643,-0.879024499991,-0.0546429025998,0.307319836934,-0.134720379657,0.573856621183,0.818940169317,0.0025148168958,0.0,0.818902129472,-0.573793491391,-0.0118776464281,0.0,-0.00828425570763,0.00887562584132,-0.99992629447,0.0,0.641397218212,0.234613928556,0.303625665459,1.0,-0.120386857143,-0.158222726531,1.153
0.447707064291,0.433649335899,-0.125120777994,-1.53329905071,0.0686979687714,1.95826687285,0.133535513138,-0.115349693108,-0.625059322461,-0.00438590805796,-0.914230507327,-0.066746813578,0.341407993979,-0.14461487961,0.573810970952,0.818971946027,0.00258227370988,0.0,0.818934532488,-0.573747317409,-0.0118740964677,0.0,-0.00824313798357,0.00892837183551,-0.9999261647,0.0,0.639406309246,0.232045866917,0.303704829237,1.0,-0.130956,-0.1721136,1.169
0.445648881911,0.4227377522,-0.125233210739,-1.54979239932,0.06753847845,1.96407483576,0.130784229038,-0.125890702587,-0.651982451155,-0.0119507414057,-1.00720565886,-0.0762454303958,0.34513576748,-0.176283793754,0.573713542081,0.819039735044,0.00272597734875,0.0,0.819004595,-0.573649813464,-0.0117520969297,0.0,-0.00806183317319,0.00897509792937,-0.999927224583,0.0,0.63714597518,0.229085318911,0.303786902893,1.0,-0.142185714286,-0.186872653061,1.186
0.443186373983,0.410285807066,-0.125368472197,-1.56836688429,0.0662045186235,1.97062267482,0.127701354227,-0.143128861509,-0.707334784994,-0.00313099157251,-1.06399250795,-0.0666820149857,0.361946241615,-0.183545413942,0.57370709474,0.819043206665,0.00302356774119,0.0,0.819012602524,-0.573643140121,-0.011517447677,0.0,-0.00769898661386,0.00908415642835,-0.99992909934,0.0,0.634583565221,0.2256653247,0.303955018325,1.0,-0.154076,-0.202499885714,1.204
0.440917214589,0.39937023517,-0.125475838603,-1.58484743855,0.0651182520068,1.97614536022,0.124941941692,-0.155834761851,-0.761969057248,-0.00803536571017,-1.09671031002,-0.074189713265,0.386253891871,-0.184733269465,0.573749250259,0.819013735262,0.00300768698289,0.0,0.818982073419,-0.573684340061,-0.0116356473242,0.0,-0.00780444231501,0.00913936161103,-0.999927778767,0.0,0.632207907531,0.222593213996,0.303958625218,1.0,-0.163984571429,-0.215522579592,1.219
0.437924911732,0.385538829114,-0.125611119658,-1.60569764749,0.0635771413514,1.98316952028,0.121325944592,-0.176466752218,-0.793084322822,-0.00415480399272,-1.17920947832,-0.0837892174916,0.385105575754,-0.2113307443,0.573714920995,0.819037984818,0.00295224560686,0.0,0.819005742923,-0.573650362305,-0.0116448180317,0.0,-0.00784414255631,0.00909888714536,-0.999927837236,0.0,0.629174109501,0.218626507816,0.303938385395,1.0,-0.175874857143,-0.231149812245,1.237
0.434835897937,0.371685221791,-0.125771807841,-1.6262764052,0.0620307992638,1.99004310894,0.117608292315,-0.188620293642,-0.839497240476,-0.0104698961738,-1.23131122693,-0.0848686586626,0.407340814247,-0.217974865545,0.573647906919,0.819084683826,0.00301769949448,0.0,0.819053551681,-0.573583446381,-0.0115782735007,0.0,-0.00775283327941,0.00911368531494,-0.999928414596,0.0,0.626131342994,0.214627964599,0.304000473465,1.0,-0.187104571429,-0.245908865306,1.254
0.43181098944,0.358943073802,-0.125929250819,-1.64509992163,0.0605713867243,1.99628918876,0.114258383721,-0.205591978077,-0.86539506559,-0.010667997849,-1.27184657336,-0.0996061297124,0.421966299156,-0.227980728107,0.573757288448,0.819008013979,0.00303214304148,0.0,0.818977522658,-0.573693302554,-0.0115134220608,0.0,-0.00769021284127,0.00908934181683,-0.999929119734,0.0,0.62311228967,0.210586538314,0.304036060615,1.0,-0.197673714286,-0.259799738775,1.27
0.427804157557,0.342995449262,-0.126151632106,-1.66866094754,0.0587890440355,2.00387149406,0.109799022088,-0.22881039258,-0.907670394648,-0.0126228707374,-1.32126281949,-0.0999389543969,0.437807838827,-0.245555641282,0.57384290564,0.818948069051,0.00302105046573,0.0,0.81891710263,-0.573778552771,-0.0115627981232,0.0,-0.00773606617496,0.0091093949507,-0.999928583552,0.0,0.61970842338,0.206000692245,0.304049698779,1.0,-0.208903428571,-0.274558791837,1.287
0.423560118886,0.326382638748,-0.126293554835,-1.69296248618,0.0568733909741,2.01170875707,0.105089201509,-0.242731095565,-0.956176658032,-0.00956865466034,-1.36301258903,-0.111579485583,0.448276750083,-0.273324553634,0.573793490565,0.818982417291,0.00309471409003,0.0,0.818952291147,-0.573728774999,-0.0115405573993,0.0,-0.00767613486127,0.00915649619858,-0.999928615218,0.0,0.615890664049,0.201011405999,0.304078356317,1.0,-0.220793714286,-0.29018602449,1.305
0.419543758957,0.311115411514,-0.126416357839,-1.71520590554,0.0550423847436,2.01869372921,0.100656520363,-0.25338416226,-0.9644905808,-0.00649347915167,-1.38035198607,-0.111615238141,0.435730207493,-0.291826183681,0.573678947163,0.819062864877,0.00303905605127,0.0,0.819031966622,-0.573614363205,-0.0115735421293,0.0,-0.00773636132055,0.00912875727491,-0.999928404689,0.0,0.612290784629,0.196385552281,0.304064507436,1.0,-0.231362857143,-0.304076897959,1.321
0.414874972685,0.294237425686,-0.126559471129,-1.73957005821,0.0529628099428,2.02620609153,0.0956416924242,-0.281984957538,-0.986732168281,-0.00491535629565,-1.41904966999,-0.109149540775,0.424088141168,-0.290998908092,0.573573955885,0.819136622258,0.00297625730043,0.0,0.819105056046,-0.573509760127,-0.0115848651336,0.0,-0.00778282452794,0.00908281919839,-0.99992846246,0.0,0.608273812928,0.191178775677,0.304065812284,1.0,-0.242592571429,-0.31883595102,1.338
0.409805396869,0.276755576037,-0.126748581681,-1.76456070375,0.0509088555123,2.03382073747,0.0903305072287,-0.305410083558,-1.01982265404,-0.00600356388836,-1.49575713317,-0.125221455649,0.423406053691,-0.313746180969,0.573567555092,0.819140858838,0.00304302962548,0.0,0.819109521822,-0.573502394927,-0.0116336225732,0.0,-0.00778454068452,0.00916541946034,-0.999927695392,0.0,0.604079888175,0.18570633419,0.304088683628,1.0,-0.253822285714,-0.333595004082,1.355
0.404960250627,0.260794580554,-0.126964341946,-1.78705736224,0.048897217301,2.04060038899,0.085406406379,-0.330851355391,-1.06846504461,-0.0180696104155,-1.52152850175,-0.138347204609,0.455518417736,-0.332211680523,0.573604042053,0.819114893354,0.00315298718687,0.0,0.819085550114,-0.573539203817,-0.0115060931969,0.0,-0.00761659718418,0.00918268460557,-0.999928830343,0.0,0.60025826806,0.180610634443,0.304172751768,1.0,-0.263730857143,-0.346617697959,1.37
0.398653414379,0.241250500234,-0.127204684862,-1.81461183732,0.0464032017354,2.0485868403,0.0791797716805,-0.363355245913,-1.09714954571,-0.014029022845,-1.58162113979,-0.150909559187,0.44241543939,-0.355628771196,0.57370105572,0.819047346609,0.00304788114405,0.0,0.819016562244,-0.573636439964,-0.0115694605215,0.0,-0.00772770903525,0.00913385270698,-0.999928425062,0.0,0.595440228064,0.174212777627,0.304150115083,1.0,-0.275621142857,-0.362244930612,1.388
0.39242709296,0.222193936048,-0.127373942627,-1.84105506853,0.044040975827,2.05616476424,0.0729015652481,-0.379051742614,-1.11390039689,-0.00890222468594,-1.56491684211,-0.150126833258,0.439600245816,-0.379169189553,0.573587197417,0.819126564793,0.00318507645527,0.0,0.8190969046,-0.573521376856,-0.0115861152044,0.0,-0.00766393286711,0.00925471179635,-0.999927804615,0.0,0.590684110433,0.168090828282,0.304205246289,1.0,-0.286850857143,-0.377003983673,1.405
0.38608003577,0.203775212702,-0.127588970329,-1.86636609064,0.0416112247819,2.06316964685,0.066680118589,-0.411713705469,-1.141977073,-0.0161917322554,-1.60379161995,-0.16618320766,0.423351651052,-0.395912404523,0.573538096043,0.819160901118,0.0031964619488,0.0,0.819131473538,-0.573472348728,-0.0115689760145,0.0,-0.00764391744476,0.00925374922611,-0.999927966731,0.0,0.586034992177,0.16201814052,0.304250347584,1.0,-0.29742,-0.390894857143,1.421
0.378348355065,0.182542109998,-0.127911090745,-1.89523582249,0.0388288591531,2.07090284069,0.0592021174361,-0.450350183771,-1.17696827026,-0.0254859126442,-1.59606323327,-0.159205269851,0.423719721682,-0.428781413228,0.573556542414,0.819147897146,0.00321903024103,0.0,0.819118396369,-0.573490277588,-0.0116060821908,0.0,-0.00766116277534,0.00929369019357,-0.999927464323,0.0,0.580618343343,0.154853374983,0.304298553736,1.0,-0.309310285714,-0.406522089796,1.439
0.370967042041,0.163263729344,-0.128231708112,-1.92126851224,0.0362448409395,2.07769605905,0.0522624772695,-0.478895602458,-1.20213918291,-0.0190432662542,-1.60546052459,-0.16928255528,0.409391551894,-0.445330379625,0.573675177034,0.819064912136,0.00319497477246,0.0,0.819034768336,-0.573608574163,-0.0116618525514,0.0,-0.00771929793204,0.00930708993989,-0.999926892586,0.0,0.57562238397,0.148225637751,0.304294760379,1.0,-0.319879428571,-0.420412963265,1.455
0.363241065065,0.143560953361,-0.128487462278,-1.94751045242,0.0334661814064,2.08436780774,0.0449276408909,-0.498759015403,-1.21668500397,-0.0188456056971,-1.62001768006,-0.181071462023,0.397748908351,-0.47279170207,0.573559832062,0.819145683785,0.00319604173244,0.0,0.819115947787,-0.573493716741,-0.011608955218,0.0,-0.00767666350765,0.00927653776019,-0.999927504715,0.0,0.570451159211,0.141498564554,0.304324132816,1.0,-0.330448571429,-0.434303836735,1.471
0.354394130342,0.122171561162,-0.128831998687,-1.97561452101,0.0305274999546,2.09123671059,0.0366475731428,-0.53655255397,-1.25439504739,-0.0250856707982,-1.66392799123,-0.168649016492,0.386764053065,-0.487047127204,0.573554706773,0.819148947783,0.00327819850809,0.0,0.819119890207,-0.573487857488,-0.011620227284,0.0,-0.00763883698517,0.00935025367589,-0.999927107806,0.0,0.564791224368,0.134053410561,0.304373952571,1.0,-0.341678285714,-0.449062889796,1.488
0.344297369629,0.0989962672644,-0.129292313427,-2.00558212052,0.027170898774,2.09833082541,0.0273691414946,-0.571813361406,-1.27987677451,-0.0220844195681,-1.64196120838,-0.186372136945,0.396535386981,-0.528993724221,0.573621881283,0.819101420338,0.00339814865905,0.0,0.819074688553,-0.57355561219,-0.0114612913093,0.0,-0.00743907598114,0.00935796520716,-0.999928541765,0.0,0.55863533683,0.125813626904,0.304468642199,1.0,-0.353568571429,-0.464690122449,1.506
0.334812937089,0.0779729465151,-0.129638669892,-2.03245505746,0.0242520850654,2.1042527628,0.018610411858,-0.604836738111,-1.32751940564,-0.0188990159951,-1.61669639385,-0.184926899799,0.36815057073,-0.55536099923,0.573581732837,0.819129217347,0.00347389467306,0.0,0.819102368411,-0.573513855255,-0.0115721560676,0.0,-0.0074869085622,0.00948323526591,-0.99992700456,0.0,0.552903997111,0.118371839958,0.304514928703,1.0,-0.35998,-0.473116571429,1.522
0.324087611252,0.0558171408708,-0.130090906639,-2.06064811629,0.0208680263392,2.110328812,0.00900469186422,-0.648878060484,-1.32726277098,-0.0337796158459,-1.64165978794,-0.201847085484,0.350744717512,-0.556895575715,0.573692046223,0.819052369157,0.00337632636849,0.0,0.819024783401,-0.573625117126,-0.011548856135,0.0,-0.0075225172016,0.0093909626854,-0.999927608157,0.0,0.546799115639,0.110209074444,0.304464556869,1.0,-0.35998,-0.473116571429,1.539
0.312929642225,0.0337949178984,-0.130467225218,-2.08815903289,0.0176305145822,2.11579674135,-0.000817245978354,-0.659722618609,-1.31143230377,-0.0240694728013,-1.56931318437,-0.190536462579,0.344551459721,-0.585800933257,0.573892311847,0.818912157435,0.00335256769112,0.0,0.818883354128,-0.573824300961,-0.0116820743408,0.0,-0.00764295504055,0.00944979646433,-0.999926140565,0.0,0.54064437541,0.102078003367,0.304452301874,1.0,-0.35998,-0.473116571429,1.556
0.302076854679,0.0132672280449,-0.130805314804,-2.11319968171,0.0144815789284,2.12058138694,-0.0103935170455,-0.689090186975,-1.30075826356,-0.0146113314728,-1.55629343052,-0.194794511134,0.31213027704,-0.607961293626,0.573963824372,0.818861457716,0.00349117191178,0.0,0.818835002505,-0.573896057019,-0.0115456187249,0.0,-0.00745083583646,0.00948564386727,-0.999927251157,0.0,0.534932041702,0.0944421145644,0.304556123719,1.0,-0.35998,-0.473116571429,1.572
0.290152435459,-0.00823524229014,-0.131193686464,-2.13919103614,0.0112167590332,2.12520800208,-0.0208625642169,-0.704028576516,-1.28433381151,-0.0176096226761,-1.52231660062,-0.196860175765,0.297519596541,-0.618398639146,0.574105742219,0.818761565965,0.00358353881689,0.0,0.818735993092,-0.574037272766,-0.0115468607117,0.0,-0.0073971833277,0.00956327537391,-0.99992691005,0.0,0.528837947557,0.0863178716452,0.304601298978,1.0,-0.35998,-0.473116571429,1.589
0.277980459208,-0.0295291402901,-0.131439649465,-2.16449231373,0.00790553917344,2.1293590918,-0.0316586821206,-0.722494168189,-1.268260855,-0.0157458123661,-1.46508941203,-0.198871164996,0.262571815761,-0.625463422346,0.573973206201,0.818854138658,0.00366129318312,0.0,0.818829550569,-0.573904494686,-0.0115128187295,0.0,-0.00732622770268,0.00960620947951,-0.999927020901,0.0,0.522718075274,0.0783467954123,0.304667302547,1.0,-0.35998,-0.473116571429,1.606
0.266023370812,-0.0492975960079,-0.131795463922,-2.18778960588,0.00485866468642,2.13283211563,-0.0420654548118,-0.74605318941,-1.24931035042,-0.0128713237391,-1.40825795383,-0.182249814806,0.212576629669,-0.651765694782,0.574127747713,0.818745848432,0.00364854532094,0.0,0.818720129337,-0.57405779252,-0.0116510757891,0.0,-0.00744493739732,0.00967652970143,-0.999925466062,0.0,0.51693647246,0.0707185444642,0.304656158323,1.0,-0.35998,-0.473116571429,1.622
0.252352774947,-0.0712978740693,-0.132022885636,-2.21328297708,0.00134292388982,2.13639498342,-0.0541975704323,-0.770002080928,-1.22702190889,-0.00828859635777,-1.38100127028,-0.186435629522,0.187981841322,-0.674587514041,0.573885976601,0.818915233159,0.00367064885458,0.0,0.818889770679,-0.573815946961,-0.0116425680768,0.0,-0.0074281425175,0.00968754986503,-0.999925484262,0.0,0.510438142494,0.0623349714508,0.304671584542,1.0,-0.35998,-0.473116571429,1.64
0.238855182206,-0.091817619245,-0.132414865738,-2.23674221315,-0.00188870337126,2.13929341696,-0.0660420969237,-0.786583560794,-1.19094968355,-0.0122528426308,-1.35840432979,-0.186897498266,0.1448944828,-0.700107361788,0.573943778304,0.818874660346,0.00368468335318,0.0,0.818848461537,-0.573872499161,-0.0117600445069,0.0,-0.00751560870546,0.00976698971711,-0.999924057885,0.0,0.504297355365,0.0542607129506,0.304655784121,1.0,-0.35998,-0.473116571429,1.657
0.225899514596,-0.11089468949,-0.132638850586,-2.25822098789,-0.00508321695329,2.14171957958,-0.0774524046893,-0.816880519682,-1.16652409952,-0.0134733692549,-1.34013979802,-0.204133056522,0.149254316679,-0.725241182496,0.57375281206,0.819008708738,0.00363215725439,0.0,0.81898232299,-0.573682375069,-0.0117146944599,0.0,-0.00751087679021,0.00969619815633,-0.999924782407,0.0,0.498526435903,0.0467888579323,0.304649248077,1.0,-0.35998,-0.473116571429,1.673
0.211551971789,-0.130934649631,-0.133054075196,-2.28036462462,-0.00829898839275,2.14381017651,-0.0899874765253,-0.856631220727,-1.14703015905,-0.0151616843098,-1.2946865825,-0.194852388927,0.109594093912,-0.742764382043,0.573863583086,0.818930905927,0.00367508196335,0.0,0.818904351153,-0.57379204785,-0.0117939131722,0.0,-0.00754981255006,0.00977782613569,-0.999923694312,0.0,0.492410966075,0.0387081544816,0.304667151744,1.0,-0.35998,-0.473116571429,1.69
0.195980613375,-0.151884606887,-0.133450094944,-2.30321744096,-0.0117260842876,2.14571218236,-0.103746654855,-0.879462894747,-1.15660227644,-0.0291373699157,-1.2597026849,-0.183068552139,0.0884014523294,-0.77312900644,0.57379558342,0.818978401031,0.0037086377129,0.0,0.818951873476,-0.573723413164,-0.0118330477245,0.0,-0.00756342383724,0.00982713552855,-0.999923108057,0.0,0.485922201854,0.0302244716037,0.3046587739,1.0,-0.35998,-0.473116571429,1.708
0.182559721591,-0.169136229567,-0.133814279843,-2.32168326604,-0.014558799026,2.1469129146,-0.115519505853,-0.898342722145,-1.162572662,-0.015655584159,-1.21332430468,-0.188153900633,0.090965766036,-0.792450088719,0.57385259908,0.818938299731,0.00374201341331,0.0,0.818911782531,-0.573779753182,-0.0118757809036,0.0,-0.00757858619974,0.00987951682349,-0.999922477084,0.0,0.480520845084,0.0231143939276,0.304674081757,1.0,-0.35998,-0.473116571429,1.723
0.1669156217,-0.188356146852,-0.13428201298,-2.34212604831,-0.0177818913387,2.1478618578,-0.129320036307,-0.93924846434,-1.11846552522,-0.0371240899025,-1.170840633,-0.190769578168,0.0503532933886,-0.818418033015,0.573896556966,0.818908104042,0.00360637461191,0.0,0.818878495162,-0.573822505455,-0.0121032762468,0.0,-0.00784220307523,0.00989940177537,-0.999920247667,0.0,0.474347949163,0.0150286485887,0.30460303679,1.0,-0.35998,-0.473116571429,1.74
0.14990404402,-0.208525433828,-0.134730459513,-2.36309370297,-0.021084809109,2.14865772972,-0.144436421999,-0.953789837062,-1.11617534562,-0.0218796856879,-1.15916951282,-0.17816391042,0.0306567288256,-0.843638331084,0.573868905389,0.818927036076,0.00370619909284,0.0,0.818898031255,-0.573793580923,-0.012152686886,0.0,-0.0078257212722,0.0100092409703,-0.999919283333,0.0,0.467850464918,0.00653578463087,0.304603375432,1.0,-0.35998,-0.473116571429,1.758
0.135278742636,-0.225137184376,-0.135190883408,-2.37987591508,-0.0238807613706,2.14901159563,-0.157330025663,-0.976147094787,-1.09221169274,-0.0258442763934,-1.12310930715,-0.186408159915,0.0116316091085,-0.867220327032,0.573995143431,0.818837791947,0.00387204059461,0.0,0.81881152596,-0.573919915498,-0.0120150925988,0.0,-0.00761631732045,0.0100672700936,-0.999920317717,0.0,0.462490755124,-0.000608260244255,0.304698032884,1.0,-0.35998,-0.473116571429,1.773
0.117358009997,-0.244659261457,-0.135633025843,-2.39939445043,-0.0271511156391,2.14914613118,-0.173374818383,-1.02167565991,-1.08626565015,-0.0344653545965,-1.05155883131,-0.183165914713,0.0168912545287,-0.913558013632,0.573902326682,0.81890208572,0.00402992972565,0.0,0.818878260161,-0.573827060072,-0.0119015572936,0.0,-0.00743387048932,0.0101305483087,-0.999921051664,0.0,0.456059535563,-0.00906821917707,0.304764873553,1.0,-0.35998,-0.473116571429,1.791
0.0988673577021,-0.263811112193,-0.13612298064,-2.41841128398,-0.0304075061148,2.14897275519,-0.189928213485,-1.03752358706,-1.05774198451,-0.027363347981,-1.03693691183,-0.182604232682,-0.0167794116116,-0.921019142752,0.573871923719,0.81892315555,0.00407766766285,0.0,0.818899732355,-0.573796194783,-0.0119122668949,0.0,-0.00741562378055,0.0101755123867,-0.999920730594,0.0,0.449567479172,-0.0175600128451,0.304743384357,1.0,-0.35998,-0.473116571429,1.809
0.0829903798651,-0.27943793811,-0.136597402766,-2.4335618667,-0.0330968448689,2.14866429612,-0.204138585433,-1.06596734724,-1.01335631763,-0.0297782560149,-1.01635717908,-0.179636099645,-0.0399396133527,-0.957645168206,0.573938850433,0.818875485895,0.00422864806446,0.0,0.818854819647,-0.573863708175,-0.0117463050156,0.0,-0.007192232041,0.010204506114,-0.99992206689,0.0,0.444229491292,-0.0246919072329,0.304788029833,1.0,-0.35998,-0.473116571429,1.824
0.0635187943853,-0.2978844044,-0.137124771514,-2.45115230039,-0.0361691449144,2.14785906624,-0.221783161822,-1.10114819294,-1.03300328448,-0.0378863123388,-0.964774394473,-0.175064671894,-0.0414885699263,-0.991354646582,0.573894306069,0.818905805492,0.00439932886174,0.0,0.818887185423,-0.573818378628,-0.0117043922857,0.0,-0.00706051497481,0.0103198368069,-0.999921821992,0.0,0.437777423342,-0.0331765265239,0.304834929872,1.0,-0.35998,-0.473116571429,1.842
0.0457798365643,-0.313885108589,-0.137599556243,-2.46632406841,-0.0389231345891,2.14686832907,-0.23784402394,-1.11661617164,-1.00015730614,-0.025435530398,-0.937473492869,-0.165847476886,-0.0775707544237,-1.00458830111,0.573876217424,0.818918584445,0.0043801857704,0.0,0.818899053235,-0.573799391253,-0.0118044953238,0.0,-0.00715371040308,0.0103614485954,-0.999920729263,0.0,0.431621133422,-0.0411732113036,0.30479839806,1.0,-0.35998,-0.473116571429,1.859
0.0263737760374,-0.330534178204,-0.138154995111,-2.48168471648,-0.0417553375952,2.14568981988,-0.255463883185,-1.1419080742,-0.962112174791,-0.0270087955176,-0.910638539316,-0.173464243933,-0.0782384571477,-1.04976679048,0.573936530725,0.818875244458,0.00457598239743,0.0,0.818858667069,-0.573859669393,-0.0116751921232,0.0,-0.00693468757246,0.0104481032676,-0.999921370532,0.0,0.425908935057,-0.0487651923153,0.30485601417,1.0,-0.35998,-0.473116571429,1.875
0.00647834192781,-0.346670875877,-0.138711884295,-2.49651979642,-0.0446066200514,2.14418965832,-0.273602785322,-1.18263268856,-0.924800084811,-0.0375636545406,-0.866597442893,-0.168764551597,-0.0977044829776,-1.07639339902,0.573954317714,0.818862955111,0.00454409785793,0.0,0.818845387327,-0.57387669199,-0.0117694921586,0.0,-0.00702998463131,0.0104762661128,-0.999920410415,0.0,0.419761818181,-0.0568201556868,0.304817665972,1.0,-0.35998,-0.473116571429,1.892
-0.0162874266566,-0.364285729399,-0.139298065959,-2.51214581535,-0.0475841097142,2.14233597059,-0.294535561261,-1.22571440251,-0.921237403603,-0.0487582585118,-0.811691255084,-0.159870702707,-0.107515310068,-1.11156726467,0.573936515379,0.81887410749,0.00477695489058,0.0,0.818860143155,-0.573859046739,-0.0116020398938,0.0,-0.00675944142343,0.0105706958321,-0.999921282072,0.0,0.412978189605,-0.0657810061626,0.304919608033,1.0,-0.35998,-0.473116571429,1.911
-0.0333521821204,-0.376788588476,-0.139687638558,-2.52332464958,-0.0498290920951,2.14077715347,-0.310416742693,-1.22969966527,-0.899288827733,-0.0338923752533,-0.810962762525,-0.150013767219,-0.112022822893,-1.14657810492,0.573725859891,0.819022177995,0.00469643965917,0.0,0.819006600759,-0.57364779652,-0.0117106943497,0.0,-0.00689734892546,0.0105653466823,-0.999920396845,0.0,0.40790996697,-0.0723243891059,0.304871935446,1.0,-0.35998,-0.473116571429,1.925
-0.0559574303812,-0.39243347961,-0.140262817537,-2.53676025526,-0.0525882501604,2.13875087945,-0.331251086738,-1.25453545544,-0.873787588985,-0.0291523825973,-0.73181651582,-0.140839128845,-0.113560022328,-1.18254327242,0.573787975124,0.818977628137,0.00487351155201,0.0,0.818965704478,-0.573711503638,-0.0114469377465,0.0,-0.00657892294922,0.0105595573566,-0.999922603766,0.0,0.401501984598,-0.080858539683,0.304983999785,1.0,-0.35998,-0.473116571429,1.943
-0.0777101612683,-0.406520769169,-0.140798155878,-2.54899835971,-0.0550421604491,2.13650989098,-0.351521529121,-1.27255025951,-0.803057151215,-0.0251863136993,-0.686395769446,-0.153451606592,-0.142707546512,-1.1853773669,0.573751875671,0.819003112858,0.00484078437738,0.0,0.818989030879,-0.573672758113,-0.0117166889287,0.0,-0.00681910986878,0.0106872273177,-0.999919638227,0.0,0.395334354393,-0.0888424410893,0.304919087565,1.0,-0.35998,-0.473116571429,1.96
-0.0973575363848,-0.418576615022,-0.14135601694,-2.55896610535,-0.0571327011818,2.13473608025,-0.369889527553,-1.32806231004,-0.807853940227,-0.0428491345228,-0.653617419474,-0.146865635445,-0.125324059942,-1.22240964833,0.573814811829,0.818957288641,0.00512523262651,0.0,0.818948558334,-0.573737552436,-0.0113677890404,0.0,-0.00636931789671,0.0107205140029,-0.999922248162,0.0,0.390033892147,-0.0959788996568,0.305052825873,1.0,-0.35998,-0.473116571429,1.975
-0.12000143948,-0.431483657641,-0.141881014053,-2.569952013,-0.0594445130595,2.1323774388,-0.391203104054,-1.34598769767,-0.759087302204,-0.0421124359571,-0.63960294483,-0.128490191056,-0.136143579392,-1.25523979214,0.57373354926,0.819014597702,0.00506459328667,0.0,0.819003337582,-0.573653589558,-0.0116550039998,0.0,-0.00664042414231,0.0108349942239,-0.999919250573,0.0,0.383867360077,-0.103965138916,0.304965093778,1.0,-0.35998,-0.473116571429,1.992
-0.144454888728,-0.444508006938,-0.142442440917,-2.58063322476,-0.0618064740707,2.12995208992,-0.414277290568,-1.37295456175,-0.713980012438,-0.0327129837729,-0.566694715723,-0.133952936151,-0.130159121891,-1.29862548446,0.573694298879,0.819041603561,0.00514295362664,0.0,0.819031556524,-0.573614425983,-0.0115994233764,0.0,-0.00655046404692,0.0108669735982,-0.999919496912,0.0,0.377433797973,-0.112449702527,0.305002282663,1.0,-0.35998,-0.473116571429,2.01
-0.166628505677,-0.455381796005,-0.142955168788,-2.58962808102,-0.0638377937269,2.12779183613,-0.435307655006,-1.38758701612,-0.680459124265,-0.0275586701895,-0.56310869828,-0.115112687706,-0.150153895295,-1.3203304934,0.573645555746,0.819075837548,0.0051279254146,0.0,0.819064730031,-0.573564312266,-0.0117343348618,0.0,-0.00667024356411,0.0109316623568,-0.999917999942,0.0,0.371660914034,-0.119993152327,0.304945020566,1.0,-0.35998,-0.473116571429,2.026
-0.190515298425,-0.46624250949,-0.143409744059,-2.59849707459,-0.0657904094594,2.12544860573,-0.458087523907,-1.40077491357,-0.621705336868,-0.0257587390271,-0.50120402831,-0.0987379553203,-0.125633266246,-1.35509238862,0.573553593004,0.819140084026,0.00515224179484,0.0,0.81912784981,-0.573469929104,-0.0119395552804,0.0,-0.0068256439936,0.0110685326766,-0.999915445509,0.0,0.365543026964,-0.1279357038,0.304888885845,1.0,-0.351664571429,-0.462187722449,2.043
-0.215874436047,-0.47665554998,-0.143706804397,-2.60668843598,-0.0675941351242,2.12322653734,-0.482003736531,-1.40054700035,-0.561543466719,-0.0202893183692,-0.43388549206,-0.0867312751061,-0.122631233043,-1.32470786619,0.573712393927,0.819027951101,0.00529634500373,0.0,0.819018291233,-0.573629342281,-0.0117967453418,0.0,-0.00662385279568,0.0111059562694,-0.999916387659,0.0,0.359319154756,-0.136216168498,0.30494811004,1.0,-0.339774285714,-0.446560489796,2.061
-0.236760870451,-0.48454320504,-0.143782744623,-2.61286345854,-0.0688950571527,2.12139838954,-0.501837653341,-1.38622668083,-0.509990892995,0.0124469317286,-0.401254984471,-0.0854922759273,-0.127141471708,-1.3254048611,0.573715842091,0.819025023242,0.00537501045626,0.0,0.819016365078,-0.573632483714,-0.0117777019735,0.0,-0.00656307839419,0.0111594905866,-0.999916192374,0.0,0.354249693972,-0.142868369898,0.304975855556,1.0,-0.329865714286,-0.433537795918,2.076
-0.262849303382,-0.493373660822,-0.143757072944,-2.61982241904,-0.0702638880243,2.1192205545,-0.526601969803,-1.36233832422,-0.452261027994,0.00890836181553,-0.343917279004,-0.0718857788816,-0.113646232748,-1.29978132773,0.573790264002,0.818972271317,0.00546796600625,0.0,0.818963766563,-0.573704759829,-0.011914046626,0.0,-0.00662040316475,0.0113144478329,-0.999914073074,0.0,0.348007476478,-0.151017087487,0.304955398814,1.0,-0.317314857143,-0.417042383674,2.095
-0.285721081042,-0.500305450456,-0.143636932578,-2.62513032581,-0.0712683932215,2.11757930391,-0.54832321432,-1.32968480396,-0.393889194257,0.0238914233682,-0.301919820905,-0.0584156401059,-0.107909506113,-1.26671165918,0.57390321241,0.818892034179,0.00562903594193,0.0,0.818886184973,-0.573818076734,-0.0117888835208,0.0,-0.00642390390901,0.0113754369033,-0.999914662806,0.0,0.342682669065,-0.158069005799,0.305001654835,1.0,-0.306085142857,-0.402283330612,2.112
-0.305408768816,-0.505577661563,-0.143481524669,-2.62915963726,-0.0719324567928,2.11623928732,-0.567097624208,-1.30868096453,-0.337490095198,0.00287399593078,-0.252280569671,-0.0517714991694,-0.0797507837133,-1.25551525641,0.574041452137,0.818793867483,0.00581039612423,0.0,0.818790350395,-0.573955600384,-0.0117506505867,0.0,-0.00628657227934,0.0115030782747,-0.999914075408,0.0,0.337864638702,-0.164467531644,0.30502913397,1.0,-0.295516,-0.388392457143,2.128
-0.328477423264,-0.511141064643,-0.143142763232,-2.6333467474,-0.0726591979511,2.11486180526,-0.589161532654,-1.27827630074,-0.293322651081,0.0135639924593,-0.228740973506,-0.0348205440568,-0.0752859336629,-1.22854887642,0.574036162732,0.818796707989,0.00593142181521,0.0,0.818795494455,-0.573951255178,-0.0116035270904,0.0,-0.0060967001672,0.0115176873743,-0.999915082957,0.0,0.332944857663,-0.170995407504,0.305077046639,1.0,-0.284286285714,-0.373633404082,2.145
-0.34957145504,-0.515501136233,-0.142717086467,-2.6368305901,-0.0732754775572,2.11357029962,-0.609456546072,-1.21735554679,-0.242364322741,0.0315729286665,-0.198854808408,-0.0388641089481,-0.0708905644274,-1.16490818532,0.573916147882,0.818881233645,0.00587599226151,0.0,0.818877927715,-0.573828905253,-0.0118352818885,0.0,-0.00631999770623,0.0116044031776,-0.999912693917,0.0,0.328146544645,-0.177219266328,0.305005757017,1.0,-0.273056571429,-0.358874351021,2.162
-0.368921937177,-0.518940391966,-0.142293149245,-2.63963666787,-0.0737088515131,2.11258588417,-0.628011066951,-1.19532949049,-0.20463183334,0.0307590328318,-0.166400871396,-0.0182009723714,-0.0609565418037,-1.14043267408,0.573914448678,0.818882480584,0.00586817631632,0.0,0.818877852527,-0.573825014706,-0.0120275533573,0.0,-0.00648197116559,0.0117083316958,-0.999910445499,0.0,0.323793109649,-0.182881979446,0.304924540143,1.0,-0.262487428572,-0.344983477551,2.178
-0.388789559578,-0.521962667854,-0.141803232222,-2.6420171326,-0.074039557577,2.11168950816,-0.64707419542,-1.14753833853,-0.164872382042,0.0430142223226,-0.126961908793,-0.0206218302151,-0.0526184629557,-1.1139310153,0.573942058178,0.818862980954,0.00588890311677,0.0,0.818857979802,-0.57385137212,-0.0121226453705,0.0,-0.00654755645208,0.0117800981474,-0.999909175272,0.0,0.319389287178,-0.188667161257,0.30488957693,1.0,-0.251257714286,-0.33022442449,2.195
-0.410148803708,-0.524752886999,-0.141221359799,-2.64412476389,-0.0742313022226,2.1108600571,-0.667668321506,-1.11898682923,-0.132125069479,0.0220260758247,-0.0976346053686,-0.0109591959637,-0.0391042348365,-1.07792988904,0.573948008737,0.818858106045,0.0059860114203,0.0,0.81885435818,-0.573856881026,-0.0121064895688,0.0,-0.00647850800704,0.0118503952772,-0.999908794374,0.0,0.314699685427,-0.19483941434,0.304899225518,1.0,-0.238706857143,-0.313729012245,2.214
-0.424203952467,-0.52625685967,-0.140766828183,-2.64525865191,-0.0743310627741,2.1103869591,-0.681269229531,-1.06947997435,-0.112419781996,0.032185729424,-0.0801059636121,0.000524734985232,-0.0338306301224,-1.04544513346,0.573887837499,0.81890018336,0.00599888030139,0.0,0.818896663337,-0.573796777015,-0.0120938150669,0.0,-0.00646161359928,0.011853184649,-0.999908870629,0.0,0.311637550705,-0.198873800368,0.304905978162,1.0,-0.230119428572,-0.302442677551,2.227
-0.443033667063,-0.527938893054,-0.140195185706,-2.64654364667,-0.0744123804684,2.10987302619,-0.699367417626,-1.02941470516,-0.0823872611281,0.0379870567005,-0.0640662759117,0.000584964280376,-0.0279004774299,-0.994561980859,0.573971378149,0.81884131299,0.00604219386687,0.0,0.818838514468,-0.573880404227,-0.0120629917373,0.0,-0.00641030275222,0.0118716216076,-0.999908982167,0.0,0.307529048517,-0.204266215097,0.304908071896,1.0,-0.218229142857,-0.286815444898,2.245
-0.458949013174,-0.528954465296,-0.139646136468,-2.64731894428,-0.0744150579475,2.10951825036,-0.714720513389,-0.995454321782,-0.0494230166882,0.0269110715649,-0.0421387299464,-0.000814220019584,-0.0188086436294,-0.953857970318,0.574016165932,0.818809776997,0.00606112559773,0.0,0.818807312965,-0.57392526506,-0.0120466286239,0.0,-0.00638538712036,0.0118780822292,-0.999909064862,0.0,0.303872272836,-0.209090619688,0.304911473971,1.0,-0.206999428572,-0.272056391837,2.262
-0.475138246778,-0.529702573865,-0.138970116908,-2.64787266854,-0.0743825736851,2.10922151127,-0.730329166817,-0.927070696731,-0.0363477897027,0.0478345477647,-0.023976061553,-0.000273081445042,-0.00944504257021,-0.899838277172,0.573975961782,0.818838343202,0.0060091513187,0.0,0.818835452819,-0.573885752715,-0.0120162780467,0.0,-0.00639094592504,0.0118177884191,-0.99990974377,0.0,0.30060874226,-0.213385348015,0.30492470175,1.0,-0.196430285714,-0.258165518367,2.278
-0.490548112713,-0.530104363547,-0.138361306253,-2.64817614495,-0.0743492789145,2.10902392118,-0.745150394868,-0.894252215689,-0.0198572948826,0.0338324622395,-0.0132720729774,0.000805058777647,-0.00856482287761,-0.862315828114,0.574024814832,0.818804531047,0.00594968860504,0.0,0.818801105006,-0.573935280532,-0.0119912928155,0.0,-0.006403911987,0.0117551375651,-0.999910399312,0.0,0.297293086814,-0.21775501398,0.304932516273,1.0,-0.185200571429,-0.243406465306,2.295
-0.505736251252,-0.530235125272,-0.137537683511,-2.64831399123,-0.0741861048031,2.10889681258,-0.760011143435,-0.828132027864,-0.0061352390641,0.0466113574694,-0.00654735456903,0.00750544517403,-0.00510455481947,-0.809398026848,0.573773773691,0.81898108073,0.00586454882435,0.0,0.818976597666,-0.573684730478,-0.0119962241034,0.0,-0.00646040285198,0.0116862720138,-0.999910843146,0.0,0.294061192483,-0.221983667649,0.30492843106,1.0,-0.173310285714,-0.227779232653,2.313
-0.517949548305,-0.530191540944,-0.13696088198,-2.64830968432,-0.0740260658899,2.10880992604,-0.771659286525,-0.790521092354,0.00414140744516,0.0418028211493,0.00182809089178,0.0111883522465,-0.00176579568058,-0.75870521819,0.573898472162,0.818893846744,0.00584451160017,0.0,0.81888893577,-0.573809184077,-0.012028218623,0.0,-0.00649632485944,0.0116892072284,-0.999910576101,0.0,0.291433411317,-0.225392670112,0.304922256778,1.0,-0.163401714286,-0.214756538776,2.328
-0.531455714354,-0.529967309383,-0.136114397707,-2.6482004226,-0.0736694207964,2.10880339231,-0.784806569655,-0.733196690241,0.00890691521347,0.049955077899,0.00361187636589,0.0231414271643,-0.00131993939498,-0.712298787761,0.573754043367,0.81899495363,0.00585752071757,0.0,0.81899011165,-0.573664550252,-0.0120385923071,0.0,-0.00649941949422,0.0117046679102,-0.999910375131,0.0,0.288572904913,-0.229089568101,0.304911841588,1.0,-0.151511428572,-0.199129306123,2.346
-0.543594850326,-0.529631391716,-0.135485088106,-2.64798453004,-0.0733433784623,2.10882427601,-0.79636760105,-0.6918577532,0.0180502557117,0.0401677753185,0.0171869850131,0.021765322486,0.000373738539466,-0.658585979156,0.573935198703,0.818867540794,0.00592327830463,0.0,0.818863445058,-0.573845196399,-0.012045572594,0.0,-0.00646480807305,0.0117639606715,-0.999909903684,0.0,0.285967868763,-0.232440490975,0.304905701575,1.0,-0.140281714286,-0.184370253061,2.363
-0.552749353315,-0.529232055156,-0.134813699394,-2.64773124528,-0.0729968369004,2.10887998181,-0.805254051397,-0.645833175262,0.0255338324604,0.0489135967185,0.0197674167628,0.0252921133553,0.000920194365968,-0.616911548223,0.573843565447,0.818931580549,0.00594774542677,0.0,0.818927679662,-0.573753253779,-0.0120584477884,0.0,-0.00646262984071,0.011790663041,-0.999909603255,0.0,0.284049965622,-0.234915295745,0.304897357002,1.0,-0.131033714286,-0.172215738776,2.377
-0.564469195342,-0.528593813902,-0.134036112447,-2.64731097792,-0.0725653209815,2.10899328968,-0.816430970675,-0.601009476838,0.0269703497301,0.0376141997643,0.0269708780275,0.0217078680983,0.00517756098875,-0.56651393308,0.573947727938,0.818858234516,0.00599535322186,0.0,0.818854842065,-0.573856988658,-0.0120685995695,0.0,-0.00644212082148,0.0118362972033,-0.999909196451,0.0,0.281574033191,-0.238107068179,0.304885200698,1.0,-0.118482857143,-0.155720326531,2.396
-0.573981466922,-0.527917702913,-0.133283878126,-2.64681734166,-0.0721463067186,2.10913312036,-0.825555208246,-0.525742804115,0.04442850942,0.0459160276904,0.0273684793161,0.0284310956332,0.0113333452779,-0.517671746014,0.573941172439,0.818862694011,0.00601380397475,0.0,0.818859760958,-0.573850760244,-0.0120309498189,0.0,-0.00640079323246,0.0118297472891,-0.999909539371,0.0,0.279609732828,-0.240683746926,0.304893905633,1.0,-0.107253142857,-0.14096127347,2.413
-0.582068246817,-0.527217391721,-0.132542337349,-2.64634469282,-0.0717617476015,2.10925517141,-0.833306175157,-0.496928369519,0.0372004075107,0.0428195686741,0.0342682740124,0.0224168872653,0.0102631461507,-0.470045530276,0.573883462499,0.818903282535,0.00599434943064,0.0,0.818899883689,-0.573792753111,-0.012066642946,0.0,-0.00644202328366,0.0118338467244,-0.999909226084,0.0,0.277954824272,-0.242846529353,0.30488214048,1.0,-0.0966840000001,-0.1270704,2.429
-0.589997069066,-0.52651663112,-0.131789805791,-2.64585658388,-0.0713404138852,2.10936905135,-0.840710300367,-0.4528288186,0.0427275372176,0.0456273162097,0.0307278828852,0.0242149414116,0.0152852222716,-0.410643561629,0.573988736077,0.818829476532,0.00599717598526,0.0,0.818825926619,-0.57389764782,-0.0120970502193,0.0,-0.00646378055496,0.0118544419836,-0.999908841718,0.0,0.276329739747,-0.244950528542,0.304876567845,1.0,-0.0854542857144,-0.112311346939,2.446
-0.597348325619,-0.525753892685,-0.130993731842,-2.6453283315,-0.0708525245172,2.10950808987,-0.847709839878,-0.380358889843,0.0414678350859,0.0462016117066,0.0289063926473,0.02710877114,0.0148109372448,-0.360205232171,0.573951843867,0.818855131958,0.00602500527996,0.0,0.818851734284,-0.573860256161,-0.0121239663999,0.0,-0.00647038560791,0.0118923878581,-0.999908348411,0.0,0.274858469268,-0.246880252737,0.304869547374,1.0,-0.0735640000001,-0.0966841142859,2.464
-0.602625478184,-0.525159622773,-0.130256736365,-2.64495553606,-0.0704453495003,2.10960868882,-0.852766780826,-0.345962817033,0.0405777809232,0.0483801008195,0.0195580972511,0.0256704024402,0.0138939556271,-0.326014770493,0.573805848651,0.818957539282,0.00601197203995,0.0,0.818953529021,-0.573713538934,-0.0121917779048,0.0,-0.00653552450649,0.0119194686724,-0.999907602324,0.0,0.273830703018,-0.248214531146,0.304848476369,1.0,-0.0636554285715,-0.0836614204083,2.479
-0.608355278052,-0.52461742772,-0.129448748686,-2.6445312787,-0.0699752762435,2.10973089605,-0.857981134909,-0.30123598457,0.0240133181817,0.0419857368199,0.0224869487809,0.0217613581221,0.00817082241302,-0.272080519261,0.57388017878,0.818905445349,0.0060132255509,0.0,0.818901855875,-0.573788587417,-0.01213071707,0.0,-0.00648371490154,0.0118860484876,-0.999908337445,0.0,0.272720745898,-0.249661914347,0.304873277482,1.0,-0.0517651428573,-0.0680341877552,2.497
-0.61277587847,-0.524107406335,-0.128678071254,-2.64416875792,-0.069481411151,2.10985490368,-0.861984077885,-0.242445197509,0.0274518134402,0.0446274745169,0.0213885049756,0.0319613335043,0.00131081051727,-0.218549749488,0.573907496851,0.818886061264,0.00604571149677,0.0,0.818883039582,-0.573816023694,-0.0121031127036,0.0,-0.00644206818918,0.0118970267774,-0.999908476067,0.0,0.271912438486,-0.250739752446,0.30488084696,1.0,-0.0405354285715,-0.053275134694,2.514
-0.616214113589,-0.523726397068,-0.127983590036,-2.64388762156,-0.0690384420116,2.10991165751,-0.865001530326,-0.201345771208,0.0256581300086,0.0427359400734,0.0144355064697,0.0284096457963,0.00354200280155,-0.164544989173,0.573964849861,0.818845640671,0.0060757534033,0.0,0.818842981499,-0.573873180072,-0.0121033774308,0.0,-0.00642420960569,0.0119222307814,-0.999908290767,0.0,0.271299620244,-0.251543546544,0.304890921438,1.0,-0.0299662857144,-0.0393842612246,2.53
-0.619177677709,-0.523457015256,-0.127170230022,-2.64367369198,-0.0685526296237,2.10998142853,-0.867513937067,-0.147098757988,0.0113768791114,0.0448548215186,0.00856654242511,0.0298249131772,0.00864608361234,-0.121874240867,0.573977295055,0.818836862804,0.00608307284592,0.0,0.818834657104,-0.573886257551,-0.012046353025,0.0,-0.00637312871175,0.0118955930195,-0.999908934902,0.0,0.270821756513,-0.252173098852,0.304915267001,1.0,-0.0199223529412,-0.0261836638656,2.548
-0.62113900339,-0.523281124996,-0.126596582895,-2.64352332292,-0.0682215087852,2.1100331336,-0.869190040453,-0.111253449068,0.0120995593333,0.0315587274721,0.0104009259852,0.015363130187,0.000561744997528,-0.0939237872746,0.573953980826,0.818853249232,0.00607708951907,0.0,0.818851318061,-0.573863632378,-0.0119915488976,0.0,-0.00633202002346,0.0118590583123,-0.999909630046,0.0,0.270516041408,-0.252583341111,0.304937489661,1.0,-0.0196023529412,-0.025763092437,2.564
-0.623042938298,-0.523073059487,-0.126084633619,-2.64329952059,-0.0679820646431,2.11005872679,-0.871022618685,-0.0939011671353,0.0113493626584,0.0187820379124,0.0110198957061,0.0150957676661,-0.000124146411997,-0.0876292485915,0.573763680957,0.818987025594,0.00601973632984,0.0,0.818984801262,-0.573674453312,-0.0119274398001,0.0,-0.0063151710833,0.0117738310085,-0.999910743775,0.0,0.270215630339,-0.253015262197,0.304977436963,1.0,-0.0192223529412,-0.0252636638656,2.583
-0.624160425058,-0.522913347404,-0.125900038619,-2.64315019069,-0.0678735879257,2.11014024059,-0.872058822812,-0.0903942644372,0.0154975980712,0.00943950945405,0.00783960736817,0.00822777938804,0.00418749018378,-0.0908539467757,0.573755274439,0.818992980211,0.00601085021444,0.0,0.818991163487,-0.573667061387,-0.0118458309533,0.0,-0.00625354601673,0.0117196668402,-0.999911767393,0.0,0.269990891137,-0.253360862111,0.304996625395,1.0,-0.0189623529412,-0.0249219495798,2.597
-0.626238851567,-0.52260055514,-0.125727593643,-2.64293753059,-0.0677613169977,2.11019527709,-0.874076850681,-0.0916354394785,0.0141447239628,0.00787442978162,0.0102413333482,0.00321651939553,-0.000766648393122,-0.087839166702,0.573740243621,0.819003476483,0.00601541857491,0.0,0.819001538008,-0.573651676686,-0.0118735621095,0.0,-0.00627385448561,0.011739203498,-0.999911411002,0.0,0.269596884335,-0.253877178982,0.304988801581,1.0,-0.0185223529412,-0.0243436638656,2.618
-0.627356475038,-0.522434771676,-0.12569738936,-2.64282115377,-0.0677418988646,2.11019456352,-0.875162150396,-0.0813179113121,0.0132706564044,0.00436154389555,0.0106249349307,0.00282882162159,-0.000363479761144,-0.0832982894406,0.573759862627,0.818989713798,0.0060179426216,0.0,0.81898753339,-0.573670768375,-0.0119170703419,0.0,-0.00630776170484,0.0117663831654,-0.999910878213,0.0,0.26934452996,-0.254196039894,0.304981481696,1.0,-0.0182623529412,-0.0240019495798,2.631
-0.629016106605,-0.522172003906,-0.125630820564,-2.64262365901,-0.0676993740985,2.11021432331,-0.876835476282,-0.0774605799004,0.0152265736883,0.00296650174579,0.00666654940778,-0.000276193995086,0.00101284515627,-0.0834183790307,0.573730139111,0.819010530929,0.00601868789631,0.0,0.8190081358,-0.573640629938,-0.011951906893,0.0,-0.00633629568718,0.0117867504898,-0.999910457926,0.0,0.268983683118,-0.254671636375,0.304978023828,1.0,-0.0178623529412,-0.0234762352941,2.651
-0.630219187074,-0.521976037385,-0.125597176206,-2.64249593982,-0.0676700373958,2.11025758766,-0.877988622868,-0.0768825700577,0.0109975398778,0.00348854794751,0.00889339841557,-0.000297577113501,0.00122756246678,-0.0703970970024,0.573766609616,0.818984942274,0.00602402846336,0.0,0.818982502733,-0.573676859301,-0.0119694703697,0.0,-0.0063470924718,0.0118014835555,-0.999910215671,0.0,0.268719263842,-0.255019461806,0.304968591084,1.0,-0.0175623529412,-0.0230819495798,2.666
-0.631483495668,-0.521782824266,-0.125589552012,-2.64236982741,-0.0676447396689,2.11028891822,-0.879256190173,-0.0789892300534,0.00898206886344,0.000881753198926,0.00521613559837,0.00495364954529,0.00186655490878,-0.085836705433,0.573776136027,0.818978138668,0.00604160662696,0.0,0.818975732267,-0.573685947338,-0.0119971115724,0.0,-0.00635950972397,0.0118318133319,-0.999909778345,0.0,0.268430632499,-0.255387631971,0.304957788585,1.0,-0.0172423529412,-0.0226613781513,2.682
-0.632799033782,-0.521579995545,-0.125592744735,-2.64221452616,-0.0676176238489,2.11031843792,-0.880599216516,-0.0817507051485,0.0129012914305,-0.000987700608784,0.00991393298764,0.000136098864106,0.00826973546515,-0.0738325214864,0.573775663574,0.818978306507,0.0060636838642,0.0,0.818976101566,-0.573685222802,-0.0120065442463,0.0,-0.00635457579052,0.0118553033157,-0.999909531483,0.0,0.268132559771,-0.25577838738,0.304956296057,1.0,-0.0169023529412,-0.0222145210084,2.699
-0.634163938955,-0.521384184127,-0.125592780959,-2.64205808154,-0.0675874236453,2.1103584985,-0.881927961271,-0.0726011912641,0.0119101720551,-0.000837030093641,0.00777915024001,0.00267765993478,-0.000729105103439,-0.07377849583,0.573826406348,0.818942593201,0.00608533641633,0.0,0.818940710121,-0.573735939154,-0.0119971801409,0.0,-0.0063337475561,0.0118680569896,-0.999909512339,0.0,0.267824341518,-0.256182867879,0.304958866656,1.0,-0.0165423529412,-0.0217413781513,2.717
-0.63519158326,-0.521227699341,-0.125564055677,-2.64193863292,-0.0675641605757,2.11037518707,-0.883009837673,-0.0729412857854,0.010801065454,0.00187644689503,0.0126329610215,0.00284950863303,0.000598642289635,-0.0793847315353,0.573777884583,0.81897655485,0.00609004682132,0.0,0.818974636439,-0.573687226731,-0.0120107308442,0.0,-0.00634284701588,0.0118793143311,-0.99990932098,0.0,0.267596111189,-0.256479171413,0.304957752833,1.0,-0.0162623529412,-0.0213733781513,2.731
-0.63645541759,-0.521037307459,-0.125510664452,-2.64178531338,-0.067534564626,2.1104134705,-0.884244623545,-0.0677399765232,0.00930947593558,0.00585245954327,0.0118905079466,0.00364602074843,0.000867779804213,-0.059851698617,0.57378451604,0.818971954246,0.00608393060658,0.0,0.818970018949,-0.573693999969,-0.0120020566258,0.0,-0.00633915533293,0.011869379539,-0.999909462371,0.0,0.26732332797,-0.256843329282,0.304961990672,1.0,-0.0159023529412,-0.0209002352941,2.749
-0.637625211439,-0.52085472686,-0.125438170045,-2.64164680689,-0.0675042424104,2.11045050449,-0.885450133317,-0.071989844388,0.0115507528753,0.00143352759257,0.00310851866908,0.00222134000296,0.000172355301957,-0.0717941685592,0.573724142506,0.819014349278,0.00607049294135,0.0,0.819012249079,-0.573633714061,-0.0120018686943,0.0,-0.0063475854773,0.0118577982014,-0.999909546299,0.0,0.267074945822,-0.257173999942,0.304962704166,1.0,-0.0155623529412,-0.0204533781513,2.766
-0.638775263316,-0.520664165852,-0.125381959392,-2.64148699661,-0.0674738066591,2.11049147894,-0.886661437639,-0.0665183086777,0.0132908857091,0.00466551565775,0.0100548482345,0.00512623689316,0.00435896574777,-0.073257587351,0.57365545456,0.819062522162,0.00606227218379,0.0,0.819060427452,-0.573565284804,-0.0119844545212,0.0,-0.00633903072116,0.0118405429193,-0.999909805049,0.0,0.266833153854,-0.257508563163,0.304970102809,1.0,-0.0152223529412,-0.0200065210084,2.783
-0.639841782391,-0.520481067576,-0.125349589209,-2.64134554698,-0.0674461653036,2.11053708828,-0.887736823684,-0.0665000920514,0.00960472320388,0.000801536901907,0.00417767502145,8.55923321171e-05,0.00166854086938,-0.0722492815798,0.573640139493,0.819073219465,0.00606617006785,0.0,0.819071279893,-0.573550152041,-0.0119669732806,0.0,-0.00632269629899,0.0118335897368,-0.999909990782,0.0,0.266589837411,-0.257842939406,0.304973187532,1.0,-0.0148823529412,-0.0195596638656,2.8
-0.640948747154,-0.520277421584,-0.125338927676,-2.64120889379,-0.0674216831377,2.11056333481,-0.888868411895,-0.0668237576269,0.0122639567654,0.00135585884312,0.00834517546054,0.00422973753207,-0.000640311179431,-0.0703002749444,0.573634514436,0.819077077072,0.00607721679711,0.0,0.819075011348,-0.573543977417,-0.0120074416611,0.0,-0.00634959137474,0.0118658078375,-0.999909438546,0.0,0.266353939418,-0.258147390004,0.304961419093,1.0,-0.0145623529412,-0.019139092437,2.816
-0.641978894021,-0.520104240243,-0.125324741363,-2.64109586586,-0.0674006526406,2.11057820952,-0.889948115051,-0.0678225309057,0.0114460243796,0.000916910244759,0.00272402874299,0.000707038587489,-0.000481420000231,-0.0653741007912,0.573598920302,0.81910191627,0.0060890304943,0.0,0.819099742452,-0.573507851566,-0.0120458710336,0.0,-0.00637481198478,0.0118972509876,-0.999908904446,0.0,0.266117442053,-0.258444322846,0.304950689798,1.0,-0.0142423529412,-0.0187185210084,2.832
-0.643117269266,-0.51994028845,-0.125316549524,-2.64097881877,-0.0673683239761,2.11059930739,-0.891018354832,-0.0626506896149,0.00268424279464,-0.00101611797907,0.00669315129428,0.00490350482052,-0.00075759140207,-0.0562487991317,0.573668928361,0.819052716769,0.0061118481018,0.0,0.819050707736,-0.573577499413,-0.012063881047,0.0,-0.00637545874268,0.0119268168537,-0.999908548101,0.0,0.265854448097,-0.25877202637,0.304945570427,1.0,-0.0138823529412,-0.0182453781513,2.85
-0.644180631978,-0.51976874679,-0.125276628527,-2.64084652904,-0.0673419603297,2.11063936995,-0.892081900614,-0.0612201224459,0.0131669948214,0.000963493226884,0.00771770590815,0.003317624809,0.00180939986298,-0.0522949834087,0.573658666171,0.819059918843,0.00610990781509,0.0,0.819057931819,-0.573567336222,-0.0120566183028,0.0,-0.00637077191563,0.0119209815486,-0.999908647559,0.0,0.265623195511,-0.259079595423,0.304946941281,1.0,-0.0135423529412,-0.0177985210084,2.867
-0.645152629041,-0.519606969311,-0.125237072318,-2.64071183199,-0.0673106136106,2.11069069536,-0.893085539509,-0.055509178859,0.00852954459235,0.00233918103286,0.0113195340729,0.000180928218477,0.00370366499534,-0.0563365910819,0.573625069969,0.819083449261,0.00610975859085,0.0,0.819081651702,-0.573534106324,-0.0120259565269,0.0,-0.006346229204,0.0119030104821,-0.999909017719,0.0,0.26541822192,-0.259364636826,0.304953945741,1.0,-0.0132223529412,-0.0173779495798,2.883
-0.646151589881,-0.519446067729,-0.125195611179,-2.64057412178,-0.0672962557788,2.11073257689,-0.894067103273,-0.0530008379703,0.00764482147484,0.00356581647479,0.00606632398949,0.000224703884077,0.00193281540213,-0.0604935308603,0.573623179098,0.819084886901,0.00609453464363,0.0,0.819083056626,-0.573532590478,-0.0120025376311,0.0,-0.00633580492008,0.0118770925287,-0.99990939202,0.0,0.265204063485,-0.25965744801,0.304961861456,1.0,-0.0128823529412,-0.016931092437,2.9
-0.647131511581,-0.519282410439,-0.125162197002,-2.64044512852,-0.0672741162897,2.11074017572,-0.895048467205,-0.0554701932581,0.0115826337686,0.0039029894617,0.00757614435484,0.00220688425365,0.000173488501487,-0.0650398934308,0.573614509603,0.819090955088,0.00609496236101,0.0,0.819088994373,-0.57352366625,-0.0120237452548,0.0,-0.00635305814161,0.0118895402394,-0.999909134614,0.0,0.264985977786,-0.259938940575,0.304961682614,1.0,-0.0125423529412,-0.0164842352941,2.917
-0.648082717298,-0.519127933203,-0.125140174952,-2.64033417218,-0.0672593907855,2.11076390607,-0.895992486353,-0.0530988320584,0.00878113812208,-0.000557861562055,0.00447596041758,0.00236871222716,0.00023037690486,-0.0548519348277,0.573616930278,0.819089260591,0.0060948654552,0.0,0.81908720666,-0.57352591484,-0.0120382637595,0.0,-0.00636497182094,0.0118978072939,-0.999908960514,0.0,0.264770544248,-0.260213689169,0.304957782453,1.0,-0.0122023529412,-0.0160373781513,2.934
-0.649174217902,-0.518943399184,-0.125135864569,-2.64021660183,-0.0672505936705,2.11080914763,-0.897044861466,-0.0561990319378,0.0111511444598,0.00204029826097,0.00791116081647,0.00036544608163,0.0016132390651,-0.0538866329869,0.573655980651,0.819061891028,0.00609765775876,0.0,0.819059771419,-0.573564754371,-0.0120544716841,0.0,-0.00637607955756,0.0119096952438,-0.999908748221,0.0,0.264518150313,-0.260534049176,0.304947226337,1.0,-0.0118023529412,-0.0155116638656,2.954
-0.649916769965,-0.518812268111,-0.12513022357,-2.64012544347,-0.0672444016294,2.1108609589,-0.89778907491,-0.0527215058298,0.0135008166106,0.00166621634334,0.00812691236206,-0.000445806763561,0.00640460247051,-0.0571424575891,0.573658079079,0.819060441315,0.00609497184904,0.0,0.819058388405,-0.573567053855,-0.012039020561,0.0,-0.00636493299162,0.0118986483149,-0.999908950753,0.0,0.264352606596,-0.260756963503,0.304944916234,1.0,-0.0115223529412,-0.0151436638656,2.968
-0.650703854689,-0.518671660219,-0.125123708847,-2.64002010101,-0.067235182347,2.11087920094,-0.898577548499,-0.0495238671525,0.00934936036969,-3.61260374222e-08,0.00855397341903,0.000103130138214,0.000827335060449,-0.0569403225209,0.573661796747,0.819057822416,0.00609699875979,0.0,0.819055712234,-0.573570605714,-0.0120518637087,0.0,-0.00637423669745,0.0119077047112,-0.999908783677,0.0,0.264173452321,-0.260989809441,0.304942713418,1.0,-0.0112223529412,-0.0147493781513,2.983
-0.651640673711,-0.518520007524,-0.125111908105,-2.63990087975,-0.0672249877816,2.11089833007,-0.899507446711,-0.0567489755348,0.00787573946731,0.000971220180736,0.00469311946261,-0.000206403600643,0.00106660368719,-0.0533291337214,0.573669679026,0.819052299811,0.00609724865186,0.0,0.819050139551,-0.573578385657,-0.0120603196392,0.0,-0.00638090535045,0.0119128214143,-0.999908680197,0.0,0.263959297754,-0.261264311512,0.304942943394,1.0,-0.0108623529412,-0.0142762352941,3.001
-0.65248732958,-0.518370579684,-0.125112670288,-2.63979155401,-0.0672179123372,2.11092546497,-0.90032822768,-0.0488661883739,0.0162578130366,-0.00132104984082,0.00373528078107,-0.000479170871443,-9.64223871311e-06,-0.0468064008433,0.57370019224,0.819030904932,0.0061002534175,0.0,0.819028727966,-0.573608775222,-0.0120690785026,0.0,-0.0063859123449,0.0119205449613,-0.999908556185,0.0,0.263764462943,-0.261516534637,0.304939874592,1.0,-0.0105223529412,-0.0138293781513,3.018
-0.653257749963,-0.518242922235,-0.125109119111,-2.63968336364,-0.0672068709383,2.11095420671,-0.901084083155,-0.0444947402901,0.00202542581634,0.000315276254632,0.0082762763546,0.00351525086177,0.00161820113731,-0.0490816188066,0.573719912096,0.819017072769,0.00610277637186,0.0,0.819015013288,-0.573628638125,-0.0120557219732,0.0,-0.00637323752619,0.0119151026246,-0.999908701919,0.0,0.263591126039,-0.261747486329,0.304944545018,1.0,-0.0102023529412,-0.0134088067227,3.034
-0.65404186258,-0.518112611711,-0.125109212734,-2.63955943897,-0.0671949253703,2.11098370188,-0.901863479028,-0.0461251898009,0.00914223975389,0.00114723039568,0.00598793629961,0.00156337171721,0.000410796432531,-0.0457263099952,0.57373527607,0.819006287692,0.00610578535098,0.0,0.819004439316,-0.573644307844,-0.0120284396534,0.0,-0.0063489409325,0.0119020346042,-0.999909012121,0.0,0.263416944117,-0.26198674816,0.304955360408,1.0,-0.00986235294118,-0.0129619495798,3.051
-0.654716912099,-0.517985145211,-0.125108393046,-2.63947542308,-0.0671790298768,2.11100905597,-0.902537174518,-0.0431794863405,0.0121738935134,0.0010739957503,0.00821325909856,0.00481219669948,0.00320089850058,-0.0480398256696,0.57374706673,0.818997945841,0.00611678254894,0.0,0.818996143122,-0.573655866149,-0.0120420798087,0.0,-0.00635363276296,0.0119189587604,-0.999908780726,0.0,0.263261995755,-0.262185771535,0.304948757458,1.0,-0.00956235294118,-0.0125676638656,3.066
-0.655442495855,-0.517840274833,-0.125083702439,-2.63938591001,-0.067165436535,2.11103315436,-0.903215836562,-0.0387097501636,0.0147687643005,0.000214641394675,0.00446611117833,0.00247841977554,0.00384929592406,-0.0322149418642,0.57377859042,0.818975880448,0.00611419013969,0.0,0.818973874884,-0.573687077567,-0.0120696392561,0.0,-0.00637723434508,0.0119328923349,-0.999908464292,0.0,0.263099342859,-0.262393981423,0.304938688338,1.0,-0.00922235294118,-0.0121208067227,3.083
-0.65623861071,-0.517677423414,-0.125025890557,-2.63929235928,-0.0671508655216,2.11107314136,-0.903968017047,-0.0431861127686,0.00756996566658,0.00444925428884,0.00599975431049,0.00433565658109,-0.000152674057566,-0.0392051516962,0.573784832329,0.818971648127,0.00609529771856,0.0,0.818969251793,-0.573693130379,-0.0120956056131,0.0,-0.00640925103329,0.0119323661857,-0.999908265862,0.0,0.262928394182,-0.262616313714,0.304925957641,1.0,-0.00884235294118,-0.0116213781513,3.102
-0.656857697975,-0.517557939004,-0.12498708515,-2.63923153732,-0.0671352668547,2.11108520775,-0.904602029951,-0.0365977525099,0.00990869517204,0.00370148447641,0.00558380672447,0.00104763672994,0.000355774328054,-0.0382864730132,0.573755094287,0.818992509385,0.00609165436637,0.0,0.818989790646,-0.573662903888,-0.0121384687056,0.0,-0.0064468829345,0.0119537411375,-0.999907768633,0.0,0.26278881035,-0.26278439152,0.304911505346,1.0,-0.00852235294118,-0.0112008067227,3.118
-0.6574842739,-0.517436123761,-0.124961127165,-2.63917006165,-0.0671224418536,2.1111055771,-0.905295001557,-0.0394293993751,0.00867214874382,-0.000281993365617,0.00198279642757,0.000947822772895,0.00487247452154,-0.0385669594994,0.573691169643,0.819037287683,0.00609181093201,0.0,0.819034331373,-0.573598548497,-0.0121744033292,0.0,-0.00647716107905,0.0119739805154,-0.999907330794,0.0,0.26264547689,-0.262958735601,0.30489689062,1.0,-0.00818235294118,-0.0107539495798,3.135
-0.658105059397,-0.517329262913,-0.124950135516,-2.63911127929,-0.0671129321183,2.11112201486,-0.905916069347,-0.0377221842389,0.00765435115094,0.000421771251897,0.00188398579841,-0.000162245473512,0.000517555173545,-0.0381051544077,0.573690408231,0.819037790407,0.00609592414164,0.0,0.819034701755,-0.573597425043,-0.0122023853106,0.0,-0.00649773341309,0.0119933957315,-0.999906964632,0.0,0.262499059362,-0.263134069506,0.304885870866,1.0,-0.00784235294118,-0.010307092437,3.152
-0.65869324223,-0.517244746626,-0.124946195414,-2.63905746921,-0.0671008059088,2.11113990885,-0.906473197936,-0.0377111050553,0.00645453969555,-0.000872041361884,0.00513486741064,8.46243831122e-05,0.000624659541955,-0.0378211878878,0.573721096841,0.819016229862,0.00610451986249,0.0,0.819013188822,-0.573627948686,-0.0122114668364,0.0,-0.0064997914641,0.0120058895768,-0.99990680132,0.0,0.262359386701,-0.263301341604,0.304880786054,1.0,-0.00752235294118,-0.00988652100841,3.168
-0.65938746549,-0.517162282164,-0.124953264045,-2.63898025619,-0.0670879977702,2.11116174005,-0.907107622654,-0.0377693425957,0.0002322046285,-0.00151680585199,0.00269917618682,0.000464903581535,0.000631888534933,-0.0364951565112,0.573784498445,0.818971728791,0.00611585540307,0.0,0.8189689657,-0.573691525697,-0.0121907122724,0.0,-0.00647535895851,0.0120037686105,-0.999906985307,0.0,0.262195289498,-0.263505312986,0.304887163334,1.0,-0.00714235294118,-0.00938709243698,3.187
-0.659975643421,-0.517086881658,-0.12495105422,-2.63887114405,-0.0670728696971,2.11117469205,-0.90765145143,-0.0357122461371,0.0026981292499,0.000361240313297,0.00395984995376,-0.0004675130481,-0.0014163141209,-0.0242826944948,0.573831088541,0.818939060186,0.00611918508781,0.0,0.81893666439,-0.573738692614,-0.0121408079131,0.0,-0.006431892404,0.0119782286632,-0.999907572128,0.0,0.262067271433,-0.263686269993,0.304910096252,1.0,-0.00680235294118,-0.00894023529412,3.204
-0.660450779065,-0.517036467229,-0.124950076852,-2.63878247537,-0.0670598075557,2.11120742605,-0.908101174739,-0.029412345814,0.00173464336286,0.00112994320638,0.00995745939167,-0.000418836356603,0.00496331920338,-0.0294755348962,0.573861083212,0.818918037878,0.00611974791324,0.0,0.818916123265,-0.573769563568,-0.0120672233962,0.0,-0.00637086447584,0.0119366999445,-0.99990845945,0.0,0.26196751024,-0.263835974334,0.304934611482,1.0,-0.00650235294118,-0.00854594957984,3.219
-0.660952965639,-0.516981770824,-0.124943778015,-2.63870024854,-0.0670481346377,2.11123849168,-0.908615571068,-0.0247197762194,0.000169186968644,0.0008426455101,0.00772432749551,0.000227967059274,0.005052691001,-0.0247755390022,0.573855621384,0.818921873428,0.00611865411945,0.0,0.818920335015,-0.573764840865,-0.0120057980536,0.0,-0.00632126373078,0.0119005141054,-0.999909205573,0.0,0.261859755799,-0.26398973329,0.304954603654,1.0,-0.00616235294118,-0.00809909243698,3.236
-0.661369591598,-0.516916947237,-0.124924646751,-2.63860572934,-0.0670389983187,2.11125673184,-0.909034039964,-0.0195894412763,0.00133751844174,0.0018142884002,0.00660261539695,0.0014968617774,0.000592085769027,-0.0204923893182,0.57384907858,0.818926537573,0.00610802524906,0.0,0.818925184408,-0.573758953641,-0.0119562686785,0.0,-0.00628689257765,0.0118633378739,-0.999909864036,0.0,0.261777676126,-0.264119716017,0.304975651592,1.0,-0.00586235294118,-0.0077048067227,3.251
-0.661770762619,-0.516829983681,-0.124887628036,-2.63851343051,-0.0670173409615,2.11127502366,-0.909440455876,-0.0230140272991,0.00115769773283,0.0042232371574,0.00856285356125,0.00293744186466,-0.000532249908572,-0.0240027921338,0.573828644039,0.8189409124,0.00610050642836,0.0,0.818939639326,-0.573738890031,-0.0119289608905,0.0,-0.00626913702913,0.0118413539695,-0.9999102361,0.0,0.26169899564,-0.264246482808,0.304989494692,1.0,-0.00552235294118,-0.00725794957984,3.268
-0.662209162111,-0.516731851648,-0.124843901144,-2.63846103947,-0.0669981059078,2.11129622409,-0.909865004939,-0.024728416054,0.00971594756694,0.00229871535564,0.00292163939289,0.000996548671267,0.000624145551761,-0.0245084717102,0.573823758674,0.818944382356,0.00609421781722,0.0,0.818942888954,-0.57373377013,-0.0119520937322,0.0,-0.00629176259107,0.011849439833,-0.999909998199,0.0,0.261612309019,-0.264357770975,0.304978413963,1.0,-0.00518235294118,-0.00681109243698,3.285
-0.662596981287,-0.516663047613,-0.12481161641,-2.63844540373,-0.06698165009,2.11131371611,-0.910264907377,-0.0252785643776,0.00333005979042,0.000177366370214,0.00164093349354,-3.95925536428e-05,-0.00102034520088,-0.015871698772,0.573798994586,0.818961721617,0.00609583782142,0.0,0.818960038985,-0.573708608924,-0.0119847191994,0.0,-0.00631791327133,0.0118692959276,-0.999909597807,0.0,0.261523168095,-0.264455930868,0.304962400441,1.0,-0.00484235294118,-0.00636423529412,3.302
-0.662942989857,-0.516579509798,-0.124776166538,-2.63843812005,-0.0669617260098,2.111318907,-0.910597025562,-0.0227519280163,0.00691273991926,0.00296914924372,-0.000188569412763,0.00241939722814,-0.000192738946486,-0.025577911725,0.573794429838,0.818964876414,0.00610167091355,0.0,0.818962831806,-0.573703199637,-0.0120526240856,0.0,-0.00637025031558,0.0119129996175,-0.999908746012,0.0,0.261441923826,-0.264537924842,0.304936183589,1.0,-0.00452235294118,-0.00594366386555,3.318
-0.663282965065,-0.516522419742,-0.124759723248,-2.63842562717,-0.0669378961829,2.1113264344,-0.910945322591,-0.0174191886911,0.00142979078658,0.000339812452568,0.00021824827686,0.000198934353538,-5.36708636923e-05,-0.0198499245313,0.573786951297,0.818969994879,0.00611791720553,0.0,0.818967932411,-0.573695223206,-0.0120856714931,0.0,-0.00638810543483,0.0119452085871,-0.999908247841,0.0,0.26136052343,-0.26462417864,0.304921843156,1.0,-0.00418235294118,-0.0054968067227,3.335
-0.66363842706,-0.516464502496,-0.124750251114,-2.63840550247,-0.0669085664764,2.11132959479,-0.911310544728,-0.018210663955,0.00554148814297,-0.00158423152732,-0.00182026476308,0.00090068307523,0.000405515240746,-0.0195242721051,0.573785952726,0.818970515409,0.00614184389138,0.0,0.818968548428,-0.573693714885,-0.0121154895846,0.0,-0.00639881470824,0.0119819053992,-0.999907740301,0.0,0.261274976364,-0.264716755935,0.304910130861,1.0,-0.00380235294118,-0.00499737815127,3.354
-0.663926944353,-0.516432038907,-0.124728107653,-2.6383611106,-0.0668873142703,2.11133760348,-0.911596564821,-0.019305579533,-0.000172400733184,-0.000164259857836,0.000752500855198,-9.23223093987e-05,-0.000125618746418,-0.0143634110176,0.573783531333,0.81897218131,0.00614591839646,0.0,0.818970407647,-0.573691538919,-0.0120928273091,0.0,-0.00637795057194,0.0119722209541,-0.999907989603,0.0,0.261216014287,-0.264797321266,0.304919537408,1.0,-0.00346235294118,-0.00455052100841,3.371
-0.664148896835,-0.51638632999,-0.124694916855,-2.63833285168,-0.0668650401784,2.11134493154,-0.911839568633,-0.0162258664183,0.00302448592135,0.00370927688339,-0.00174376755173,0.00185052992826,0.000366129538105,-0.0199088211861,0.573753736146,0.818993037874,0.00614825779932,0.0,0.818991240541,-0.573661638148,-0.0121004022833,0.0,-0.0063832484819,0.0119782509196,-0.999907883579,0.0,0.26117315099,-0.264853482234,0.304916930679,1.0,-0.00318235294118,-0.00418252100841,3.385
-0.664436696002,-0.516345787587,-0.124655121983,-2.63827193191,-0.0668410562784,2.11135611502,-0.912108731383,-0.0131247615484,0.000674500397803,0.000490369048449,0.00312565818657,0.000102570714779,0.00277396542982,-0.0103156638484,0.573753952887,0.818992924802,0.00614309140826,0.0,0.818991280674,-0.573662291651,-0.0120666573413,0.0,-0.00635856951566,0.0119546608117,-0.999908323137,0.0,0.261122560398,-0.264934355344,0.304931550809,1.0,-0.00278235294118,-0.0036568067227,3.405
-0.664633063232,-0.516331892695,-0.124619564963,-2.63825480448,-0.0668222295446,2.1113587994,-0.912311644951,-0.01470049462,2.2433406928e-05,0.004585282419,-0.000275658853235,0.00283739908284,0.000315532502323,-0.0146507593591,0.573732220982,0.819008160439,0.00614155050782,0.0,0.819006545983,-0.573640664581,-0.0120587096306,0.0,-0.00635326079692,0.0119486703759,-0.999908428484,0.0,0.261084119632,-0.264980651202,0.304935280385,1.0,-0.00248235294118,-0.00326252100841,3.42
-0.664851488774,-0.516315190504,-0.124592898032,-2.63824048511,-0.0668010304726,2.11136017461,-0.912510108513,-0.0128098498734,3.23512443063e-05,0.00112039580478,0.001109244373,-0.000183277409615,-0.000369630845194,-0.0131495266181,0.573739412693,0.81900308075,0.00614710867278,0.0,0.819001543295,-0.573647839361,-0.0120571712322,0.0,-0.00634870700814,0.011952395952,-0.999908412881,0.0,0.261037165784,-0.265033418708,0.304936379421,1.0,-0.00212235294118,-0.00278937815127,3.438
-0.665052966577,-0.516313648249,-0.124566962818,-2.6382212337,-0.0667834696112,2.11136517845,-0.912706267888,-0.010786579323,0.00167180551327,-0.00137992742969,0.00061587747992,0.00079510389738,-0.00062472107889,-0.0113169435407,0.573733727465,0.819007057821,0.00614785412842,0.0,0.819005685549,-0.573642445143,-0.0120324174477,0.0,-0.00632808657302,0.0119387610559,-0.999908706485,0.0,0.26099621754,-0.265084338102,0.304945602246,1.0,-0.00176235294118,-0.00231623529412,3.456
-0.665204321398,-0.51631549852,-0.124539630694,-2.63821050556,-0.0667687496221,2.11137356091,-0.912845292642,-0.00991165486708,-0.000483732502012,0.000832924341811,0.00176971053915,0.000226667197569,0.00109427982801,-0.0108907153825,0.57373116952,0.819008866771,0.00614558161329,0.0,0.819007608723,-0.57364016895,-0.0120100092682,0.0,-0.00631107311345,0.0119240243391,-0.999908989858,0.0,0.26096727529,-0.265120478537,0.304952524098,1.0,-0.00146235294118,-0.00192194957984,3.471
-0.665359195017,-0.51629255969,-0.124524460015,-2.63821059978,-0.0667508030396,2.11137319443,-0.912970698799,-0.00900490282825,0.00262918008167,0.000237144115741,0.000431415480638,-0.000255005205881,0.000178651629504,-0.00141199370482,0.573752294337,0.818993989295,0.00615606545136,0.0,0.818992725465,-0.573660975733,-0.0120311038051,0.0,-0.00632202890611,0.0119448762096,-0.999908671771,0.0,0.260930628451,-0.265155348282,0.304944353371,1.0,-0.00112235294118,-0.00147509243698,3.488
-0.665491589675,-0.516253408405,-0.124493940932,-2.63821428533,-0.0667306709963,2.11137420499,-0.913026635518,-0.00255073262621,0.00218607324729,0.000133561896584,-0.000445853289238,0.000492483453923,-0.000652294127491,-0.00839287978741,0.573801845764,0.818959234205,0.0061612831368,0.0,0.818957784452,-0.573710014912,-0.0120711630357,0.0,-0.00635112287416,0.0119725169255,-0.999908156821,0.0,0.260902590255,-0.265179796581,0.304929048079,1.0,-0.000802352941182,-0.00105452100841,3.504
-0.665562730586,-0.516211818113,-0.124480643321,-2.63820986244,-0.0667116560597,2.11137485648,-0.91308615961,-0.00452406589516,0.00246491288494,0.000148256575941,-0.000745048229805,0.0044681579625,-0.000340226767546,-0.00497843746645,0.573810434174,0.818953128746,0.00617296124932,0.0,0.818951600459,-0.573718115429,-0.0121056612747,0.0,-0.00637255217327,0.0120019423213,-0.999907667717,0.0,0.260888590844,-0.265194107181,0.304916090997,1.0,-0.000482352941182,-0.000633949579839,3.52
-0.665581802286,-0.516194048629,-0.12446472908,-2.63820091865,-0.0666921528992,2.11138279353,-0.913118282787,-0.00183127422304,0.00068444580344,0.000812646279167,0.000649584549444,0.00179253671638,-0.000863352843058,-0.00316795201695,0.573797255536,0.818962305681,0.00618047853841,0.0,0.818960871099,-0.573704898243,-0.0121048850292,0.0,-0.00636779634238,0.0120075510785,-0.999907630677,0.0,0.260891710439,-0.26519684737,0.304914659555,1.0,-0.000102352941182,-0.000134521008411,3.539
-0.665570866037,-0.516189448131,-0.12442614066,-2.63820333414,-0.0666805247352,2.11138261111,-0.913138020519,0.000549862521052,-0.000703015340907,0.00156821137345,0.000379024639976,0.00125215618393,-5.62159906053e-05,-0.00234453610374,0.573749597462,0.81899575732,0.00617217993647,0.0,0.818994174155,-0.573657211071,-0.0121117211228,0.0,-0.00637885549759,0.0120043056487,-0.999907599155,0.0,0.26090356198,-0.265183763835,0.304912760831,1.0,0.0,0.0,3.555
-0.665571225602,-0.516183800666,-0.124391679969,-2.63821121957,-0.066663778369,2.11137969886,-0.913153414833,-0.000877559867133,0.000715518390101,-0.00168154683135,0.000627685792866,0.000345433837889,-0.00438410389451,-0.00207671339715,0.573719620905,0.81901676198,0.00617147356736,0.0,0.819015068925,-0.573627054749,-0.0121270703925,0.0,-0.00639227279034,0.0120122993514,-0.999907417471,0.0,0.260910280377,-0.265172177729,0.304907664423,1.0,0.0,0.0,3.572
