nelsonifechukwu/NELSON_IML_WORK/CNN-GradCAM/train2dof/data_sample_2022-02-22-09-05-04/robot_state.csv
position_joint1,position_joint2,position_joint3,position_joint4,position_joint5,position_joint6,position_joint7,velocity_joint1,velocity_joint2,velocity_joint3,velocity_joint4,velocity_joint5,velocity_joint6,velocity_joint7,ee_T_00,ee_T_10,ee_T_20,ee_T_30,ee_T_01,ee_T_11,ee_T_21,ee_T_31,ee_T_02,ee_T_12,ee_T_22,ee_T_32,ee_T_03,ee_T_13,ee_T_23,ee_T_33,v_x,v_y,time
0.465079028425,0.547793489088,-0.123988544039,-1.35583869121,0.0795287150682,1.89410765025,0.159154509052,0.000351939207988,0.00180671839151,0.00107851091966,-0.000924245506542,0.000471302772066,-3.99808603533e-05,-0.000400222093248,0.573805548655,0.818977493825,0.00195034423744,0.0,0.818934087491,-0.57374671739,-0.0119336302229,0.0,-0.00865453759484,0.00844494920731,-0.999926888233,0.0,0.661673862292,0.260898294239,0.303203626462,1.0,0.0,0.0,0.0
0.465076275155,0.54779020443,-0.123996348153,-1.35583841866,0.0795260666884,1.89410957469,0.159149819821,-0.000886059528763,-0.00197061726806,-0.000982342232958,-0.00161783773242,0.000326325803891,6.30899274319e-05,-0.00108338802398,0.573808707064,0.818975277728,0.00195168393911,0.0,0.818931956147,-0.5737499355,-0.0119251673847,0.0,-0.00864680521446,0.00844122374429,-0.999926986585,0.0,0.661677055767,0.260891734152,0.303206503671,1.0,-0.00034,-0.000446857142857,0.018
0.465080424079,0.547795542799,-0.123997163672,-1.35584120055,0.0795266659351,1.8941088982,0.159157729841,-0.00134422613547,0.000935015582569,-0.00175403732464,-0.000673993556883,-4.17769258922e-05,1.72017831838e-05,0.00177607050317,0.57381267191,0.818972517618,0.00194418166634,0.0,0.818929093199,-0.573753926203,-0.0119297686103,0.0,-0.00865483740151,0.00843776178363,-0.999926946314,0.0,0.661675211625,0.260893656307,0.303201367282,1.0,-0.0006,-0.000788571428571,0.031
0.465077940442,0.547751272687,-0.123994671155,-1.35587762836,0.0795228486567,1.8941129168,0.159149767028,0.000364635716253,-0.00096336709446,-0.00106182359745,-0.00408662469521,2.15855009234e-05,0.00020960455149,-0.00190920900059,0.57380737086,0.81897620598,0.00195501597126,0.0,0.818932912708,-0.573748570825,-0.0119251356901,0.0,-0.00864488120458,0.00844392025286,-0.999926980454,0.0,0.661669125002,0.260889369824,0.303215650265,1.0,-0.001,-0.00131428571429,0.051
0.465074749427,0.547671296896,-0.123993586082,-1.35597494842,0.0795200126807,1.89413210899,0.159150597863,-9.82109416152e-05,-0.00751312362561,0.00156554880046,-0.008614851584,0.000440405143347,0.00154644791778,0.000903723444191,0.573816002906,0.818970131017,0.00196626861535,0.0,0.818926875359,-0.573757048347,-0.0119318559694,0.0,-0.00864383959025,0.00845708293796,-0.999926878219,0.0,0.661651171143,0.260880721637,0.303230834934,1.0,-0.00128,-0.00168228571429,0.065
0.465059855888,0.547512330014,-0.123991748963,-1.35620595875,0.0795197765212,1.8942036729,0.159145340964,-0.00237143534992,-0.00656358834044,0.000598496325877,-0.0159678452248,0.000196569360167,0.00420363022311,-0.00079178745514,0.573833834532,0.818957633654,0.00196761980401,0.0,0.818914297311,-0.573774775962,-0.0119426559613,0.0,-0.00865172522591,0.00846457502324,-0.999926746627,0.0,0.661622484,0.260848925395,0.30323642437,1.0,-0.00168,-0.002208,0.085
0.465046387648,0.54738947512,-0.123994536066,-1.3563636174,0.079516986877,1.89427930998,0.159146742401,0.000329593806658,-0.0115222397228,0.000353652657343,-0.0106201065804,0.000346784331745,0.00232424532128,0.000577918430018,0.57385613544,0.818941916588,0.00200498721044,0.0,0.81889904663,-0.573796898425,-0.0119255057281,0.0,-0.00861600695938,0.00848557011898,-0.999926877088,0.0,0.661608978942,0.260825992612,0.303255066487,1.0,-0.00194,-0.00254971428571,0.098
0.465022234511,0.547154662569,-0.123989243543,-1.35665314133,0.0795148314567,1.89443332982,0.159129202027,-0.00305852683971,-0.011947294901,-0.000476902704748,-0.0170720992576,7.95879564826e-05,0.00992942794335,-0.00508958876997,0.573873734477,0.818929350107,0.00209840709495,0.0,0.818887600083,-0.573814016663,-0.011887792608,0.0,-0.00853133112549,0.00854061592195,-0.99992713448,0.0,0.661584719355,0.260791920337,0.303296785083,1.0,-0.00236,-0.00310171428571,0.119
0.464997883418,0.546993378803,-0.123989243433,-1.35686964077,0.079511725921,1.89453087575,0.159125098316,-0.00411473888419,-0.0191986037442,0.00028381886741,-0.0152306459736,0.00011712696039,0.00673326126528,-8.49408341087e-05,0.573901693958,0.818909650191,0.00213948527975,0.0,0.818868372973,-0.573841744952,-0.0118737692273,0.0,-0.00849598181214,0.00856649803489,-0.999927214053,0.0,0.661565303647,0.260758356532,0.303316440108,1.0,-0.00262,-0.00344342857143,0.132
0.464961594449,0.546727634118,-0.123992073539,-1.35728795532,0.0795031075786,1.8946830367,0.159097286039,-0.00377695830363,-0.0147713675909,-0.000500027057017,-0.0241622801419,-0.000135656938737,0.00637604658268,-0.00413482340151,0.573925544284,0.818892898568,0.00215341435847,0.0,0.818851619882,-0.57386535189,-0.0118882050264,0.0,-0.00849956042712,0.00858643669156,-0.999927012625,0.0,0.661513198513,0.260697144373,0.303321888871,1.0,-0.00302,-0.00396914285714,0.152
0.46493341011,0.546494366156,-0.123992498361,-1.35762402802,0.0794962565001,1.8948042684,0.159003633691,0.00010446836656,-0.0168375590261,-0.000422394747251,-0.0277386453405,-0.000660113193802,0.00734476535872,-0.00138013700088,0.573895360443,0.818914005232,0.00217122057483,0.0,0.818872874972,-0.573835015905,-0.0118884842444,0.0,-0.00848988731229,0.00860086517819,-0.999926970799,0.0,0.661478336917,0.260646883099,0.303334606695,1.0,-0.00328,-0.00431085714286,0.165
0.464877133261,0.5461553515,-0.123991650156,-1.35820154626,0.0794795402428,1.89499692412,0.158914590658,-0.0039623206825,-0.0172676796442,-0.000820271888629,-0.0296596349462,0.000189818310686,0.0132059768251,0.00101660911504,0.57389912057,0.818911429178,0.00214883052285,0.0,0.818869809998,-0.573838666617,-0.0119233330063,0.0,-0.00853123588347,0.00860256839465,-0.999926604222,0.0,0.661406066273,0.260553560265,0.303321198138,1.0,-0.0037,-0.00486285714286,0.186
0.464835562641,0.545881729965,-0.123990068819,-1.35865699125,0.0794576700674,1.89514811398,0.158890001473,-0.00739244388686,-0.0226315450068,-3.70802524313e-05,-0.0317127046487,-0.00258421300052,0.00715881135049,-0.00634791465786,0.573928105032,0.818891192939,0.00211926460326,0.0,0.818849094021,-0.573867673472,-0.0119499567721,0.0,-0.00856970190268,0.00859393940579,-0.999926349495,0.0,0.661353019167,0.260486077009,0.303306464327,1.0,-0.00396,-0.00520457142857,0.199
0.464765294071,0.545462867972,-0.12399447186,-1.35938428733,0.0793357733039,1.8953927693,0.158774180094,-0.00180369862556,-0.0212406815102,0.00462494363318,-0.0417508589937,-0.00591775345865,0.0207260617158,-0.0120623792804,0.573902044211,0.818909707154,0.00202041609441,0.0,0.818867001366,-0.573842701379,-0.0119220404358,0.0,-0.008603839263,0.0084966990338,-0.999926887355,0.0,0.661271913732,0.260353080938,0.303278010512,1.0,-0.00436,-0.00573028571429,0.219
0.464708530982,0.545139102643,-0.123995386151,-1.35995691819,0.0793208601701,1.89557454615,0.158707821011,-0.00549785541185,-0.0176055535964,-0.000101832424066,-0.0366223004148,-0.000721938823429,0.0101728211681,-0.00252360978831,0.573922704794,0.818895341788,0.00197358055665,0.0,0.818851801243,-0.573863334327,-0.0119728031977,0.0,-0.00867207421222,0.00848769700336,-0.999926374354,0.0,0.661200910691,0.260261209046,0.303250444159,1.0,-0.00464,-0.00609828571429,0.233
0.464651976677,0.544729458154,-0.123995399227,-1.36063230035,0.0793042172974,1.89580362947,0.158638343894,-0.00463366423446,-0.0228765323621,0.00423760948822,-0.0414056684815,-0.00354470571645,0.0147540265564,-0.0117866763756,0.573945294324,0.818879553126,0.00195537621057,0.0,0.818835517897,-0.573885747094,-0.0120121111754,0.0,-0.00871447747469,0.00849558974254,-0.999925938676,0.0,0.66111776067,0.26016186776,0.303238806234,1.0,-0.00496,-0.00651885714286,0.249
0.464582766455,0.544267532516,-0.123996324319,-1.36138872984,0.0792786120831,1.89607858563,0.158525304386,-0.00429601103756,-0.0263559477439,0.00084575478611,-0.0451604199902,0.000183372903262,0.0160471902008,-0.00486266413446,0.57394543418,0.818879470336,0.00194898638017,0.0,0.818835154398,-0.573885722181,-0.0120380521356,0.0,-0.00873938656066,0.00850524737555,-0.99992563918,0.0,0.661030415832,0.260046365567,0.303229551453,1.0,-0.0053,-0.00696571428571,0.266
0.464514979879,0.543751736402,-0.123998866135,-1.36220655927,0.0792351432563,1.89636646234,0.158429979575,-0.00550473809084,-0.0377099784552,0.000251726525056,-0.0499288808366,-0.00425274191673,0.0193424481968,-0.00622276985059,0.573965991144,0.81886509126,0.00193655009222,0.0,0.818820510654,-0.573906230951,-0.0120563804026,0.0,-0.00876131955675,0.00850580302589,-0.999925442518,0.0,0.660927356232,0.259913375936,0.303228874873,1.0,-0.00566,-0.00743885714286,0.284
0.464432463285,0.543220447986,-0.124007318341,-1.36306200529,0.0791943787365,1.89665595039,0.158332384779,-0.00397220017285,-0.0369859965465,-0.00118377598676,-0.0486704048378,-0.00189248175078,0.00943257704685,-0.00598038922417,0.573988758846,0.818849185225,0.00191402068018,0.0,0.818804238624,-0.573929024513,-0.0120764453951,0.0,-0.00879044469364,0.00849911578369,-0.999925243762,0.0,0.660834223487,0.259781323196,0.303224350326,1.0,-0.00598,-0.00785942857143,0.3
0.464360580589,0.542649838411,-0.124010673988,-1.36396518745,0.0791393552436,1.89698463126,0.158194672173,-0.00506249439913,-0.0289668107473,-0.00067100866767,-0.0469066664312,-0.00287641632654,0.0199297072441,-0.0122268865746,0.573972753642,0.818860414717,0.00190949931408,0.0,0.818815411262,-0.573913043257,-0.0120784088939,0.0,-0.00879481368094,0.00849636866002,-0.999925228691,0.0,0.660729205979,0.259645559366,0.303226655076,1.0,-0.00632,-0.00830628571429,0.317
0.464276299512,0.54204819902,-0.124010689902,-1.36489345278,0.0790851533747,1.89732428223,0.158078879233,-0.00288655958863,-0.0331885058028,0.00350095903709,-0.0553643627531,0.000179222368466,0.0173845650538,-0.00702888456592,0.573984050751,0.818852467823,0.00192154210184,0.0,0.818807592511,-0.573924258013,-0.0120755708324,0.0,-0.00878546049876,0.00850472206607,-0.999925239899,0.0,0.66062367709,0.259501856941,0.3032397325,1.0,-0.00666,-0.00875314285714,0.334
0.464192935571,0.541438398024,-0.124011537505,-1.3658015119,0.0790258988116,1.89765930699,0.157962365602,-0.00689118488102,-0.0373834649025,-0.000348366611162,-0.0555792024561,-0.00355910915059,0.00876999080034,-0.00270564116578,0.573991974234,0.81884685382,0.0019468964193,0.0,0.818802386196,-0.573932144413,-0.0120537492115,0.0,-0.00875295670322,0.00851304264307,-0.999925454148,0.0,0.66052866717,0.259368033834,0.303266672906,1.0,-0.00696,-0.00914742857143,0.349
0.464115906279,0.540789515143,-0.124014202426,-1.36678909695,0.0789749959955,1.89802933123,0.157826097376,-0.000738673089966,-0.0447080181157,-0.00324542522056,-0.0606204755412,-0.00527220213923,0.0191731120308,-0.0120484474841,0.573986584917,0.818850548571,0.00198149963613,0.0,0.818806428909,-0.573926504967,-0.0120476460225,0.0,-0.00872815443774,0.00853781621709,-0.999925459729,0.0,0.66040850992,0.259215408303,0.303288531163,1.0,-0.0073,-0.00959428571429,0.366
0.464013052449,0.540032534191,-0.124017318071,-1.36796605205,0.0789026569946,1.89846426096,0.157691408695,-0.00505090143714,-0.0361136223616,0.000133548029462,-0.0632672036458,-0.000329381952417,0.0222104436144,-0.00460324999488,0.574010298292,0.818833887926,0.00199708283761,0.0,0.81878999593,-0.573950172122,-0.0120370007881,0.0,-0.00871024581516,0.00854471837372,-0.999925556932,0.0,0.66026874331,0.25902281183,0.303304617492,1.0,-0.00768,-0.0100937142857,0.385
0.463896921272,0.539282034228,-0.124017885037,-1.36911575284,0.0788392053153,1.89889828097,0.157540071275,-0.00695246171755,-0.0450654225295,-0.00239862133392,-0.0727909278715,-0.00334307111258,0.0198745915852,-0.0131176409942,0.574022726551,0.818825132026,0.00201481195055,0.0,0.81878145165,-0.573962503517,-0.0120302075079,0.0,-0.00869437713342,0.00855546788762,-0.99992560312,0.0,0.660155022385,0.258859223668,0.303318181486,1.0,-0.00798,-0.010488,0.4
0.463802661674,0.538562942133,-0.124023692488,-1.37024034569,0.0787743935974,1.89933460099,0.157404205898,-0.00699517577262,-0.0496838057375,0.000188239275137,-0.0741982637773,-0.0035355483841,0.037007179952,-0.00201425273571,0.574041744968,0.818811712272,0.00204982494699,0.0,0.818768474921,-0.573981356987,-0.0120138756786,0.0,-0.00866070755622,0.00857496329869,-0.999925728316,0.0,0.660023949855,0.258678757587,0.30333254023,1.0,-0.00832,-0.0109348571429,0.417
0.463694348297,0.537785806971,-0.124027586802,-1.3714566051,0.07870921471,1.89980903503,0.157250321633,-0.00395108483225,-0.0470381753481,0.00120753079464,-0.0670117601942,-0.000641349602463,0.0292762692117,-0.00476068162534,0.574057009872,0.818800929252,0.00208196400885,0.0,0.818758079253,-0.57399645274,-0.0120011166752,0.0,-0.00863165171593,0.00859411546999,-0.999925815132,0.0,0.659889890905,0.258492482609,0.303343749805,1.0,-0.00866,-0.0113817142857,0.434
0.463587286101,0.53700066035,-0.124036084872,-1.37268114957,0.078632685778,1.90025484786,0.157109146593,-0.00455066810882,-0.0525989807281,-0.000187411218923,-0.0795965255795,-0.000946366500812,0.026241331767,-0.0128085209693,0.574081963343,0.81878342963,0.00208365738689,0.0,0.818740645801,-0.574021439864,-0.0119953487409,0.0,-0.0086256948396,0.00859245378207,-0.999925880816,0.0,0.659749503776,0.258299728806,0.303354179639,1.0,-0.00898,-0.0118022857143,0.45
0.463476457392,0.536101110978,-0.124047389411,-1.37407649425,0.078560255129,1.90078620574,0.156934734249,-0.00448696761362,-0.0530357488669,-0.000884708437027,-0.0787937099468,-0.0071332541656,0.028065132214,-0.00709087502702,0.574095319633,0.818773979981,0.00211673874157,0.0,0.818731585148,-0.574034613901,-0.0119833395452,0.0,-0.00859673082034,0.00861278583452,-0.999925955328,0.0,0.659590678574,0.258090557813,0.303371455029,1.0,-0.00934,-0.0122754285714,0.468
0.463357037026,0.535212175871,-0.12404681531,-1.3754962933,0.0784700689903,1.90128214951,0.156754638944,-0.00895759646406,-0.0554168360405,0.000359095611423,-0.0814258924145,-0.00363672869018,0.0237442011682,-0.00847969012612,0.574098857286,0.818771581163,0.00208490851088,0.0,0.818728744879,-0.574038257918,-0.0120028186886,0.0,-0.00863091575843,0.00859794455869,-0.999925788568,0.0,0.659418956274,0.257874332583,0.303365934307,1.0,-0.00968,-0.0127222857143,0.485
0.463231885524,0.534308811865,-0.124052059043,-1.37696704913,0.078397341716,1.90182282955,0.156573707722,-0.00572095218149,-0.0561186730937,-0.0010216055912,-0.0811459309339,-0.00465987208285,0.031784037478,-0.010848844172,0.574118092854,0.818758135458,0.00206832809712,0.0,0.818714933535,-0.574057412575,-0.0120287811128,0.0,-0.00866149008051,0.00859947753901,-0.999925511014,0.0,0.659246178422,0.257650949836,0.303350281432,1.0,-0.01002,-0.0131691428571,0.502
0.463111091479,0.533444200049,-0.124056967179,-1.37836349892,0.0783126682999,1.9023399632,0.156411982026,-0.00762208127471,-0.0526788460961,-0.00178348471069,-0.0866308410917,-0.00305930972921,0.0356610816118,-0.00941077825268,0.574141802927,0.818741547907,0.00205298898332,0.0,0.818698152473,-0.574081191484,-0.0120360966646,0.0,-0.00867603709291,0.00859136993741,-0.999925454593,0.0,0.659084068477,0.25743544579,0.303340402434,1.0,-0.01034,-0.0135897142857,0.518
0.462977503528,0.532442223565,-0.124052097545,-1.37998487149,0.0782333634537,1.90294707179,0.156207747231,-0.00545276687072,-0.051087594923,-0.00142892767454,-0.0892425699808,-0.00254875895148,0.0315535072356,-0.00971316570953,0.574147994744,0.818737207849,0.0020521976424,0.0,0.818693590905,-0.574087176865,-0.0120608652658,0.0,-0.00869670623963,0.00860500833743,-0.999925157765,0.0,0.658891527948,0.257199273387,0.303327660283,1.0,-0.0107,-0.0140628571429,0.536
0.462844846799,0.53152361208,-0.124049260954,-1.38145615388,0.078143570828,1.90348429484,0.156014651445,-0.0085304499198,-0.059516898843,9.56879551008e-05,-0.0891503563505,-0.00260805455312,0.0350561732195,-0.0108678759923,0.574152613353,0.818734003052,0.00203856012127,0.0,0.818690166772,-0.574091812798,-0.0120726223496,0.0,-0.00871411352176,0.0086006423867,-0.999925043779,0.0,0.658718214578,0.25697286515,0.30332134598,1.0,-0.01102,-0.0144834285714,0.552
0.462713477314,0.530562915724,-0.124052478769,-1.38300658236,0.0780465759645,1.90401922625,0.155816026762,-0.00878777830449,-0.0566100791764,-0.00251282681192,-0.094796603405,-0.00886240986599,0.0348255529787,-0.0173378190389,0.57415587012,0.818731867345,0.00197815602373,0.0,0.818687175829,-0.574095267148,-0.0121111218767,0.0,-0.00878028046646,0.00857332775079,-0.999924699528,0.0,0.658514019517,0.256720684419,0.303299050784,1.0,-0.01136,-0.0149302857143,0.569
0.462564633747,0.529465460682,-0.12405542707,-1.38474991556,0.0779351892016,1.90466299982,0.155576815979,-0.00872975085983,-0.0619560374455,0.000238898564341,-0.0931975708086,-0.00627652174419,0.0371596631177,-0.0166108403704,0.574150758107,0.818735440068,0.00198319025811,0.0,0.818690877469,-0.57409019539,-0.0121013060048,0.0,-0.00876940685274,0.00857175882227,-0.9999248084,0.0,0.65832304689,0.256467087075,0.303306006,1.0,-0.0117,-0.0153771428571,0.586
0.462432733984,0.528437663561,-0.124055667616,-1.38634729539,0.0778341668396,1.90527232136,0.155363949801,-0.00890450547306,-0.0645622606259,0.000123125655931,-0.0981515527773,-0.00727703859408,0.0370398801006,-0.0119617423044,0.574144149953,0.818739999883,0.00201359583823,0.0,0.818695881781,-0.574083501979,-0.0120802654174,0.0,-0.00873479252789,0.00858450161788,-0.999925002053,0.0,0.658137384498,0.256229007764,0.303322265616,1.0,-0.01202,-0.0157977142857,0.602
0.462294421408,0.52732169259,-0.124056041491,-1.38808356104,0.0777248592444,1.90594417997,0.155121422351,-0.0110819185718,-0.0631786325574,0.00134173559507,-0.102583944334,-0.00602762560309,0.031527110461,-0.0110918055349,0.574123767443,0.818754193122,0.00205372941876,0.0,0.818710658463,-0.57406300771,-0.0120527092093,0.0,-0.00868940341435,0.00860132258597,-0.999925252965,0.0,0.657935659918,0.255974225626,0.303339668325,1.0,-0.01236,-0.0162445714286,0.619
0.462145219933,0.526147172019,-0.124053852176,-1.38989664928,0.0776238117275,1.90662723131,0.154874905277,-0.00661176596344,-0.0662927313124,0.00129684964822,-0.107068076136,0.000538121459185,0.0398346468044,-0.0149728994634,0.574113292672,0.818761429623,0.00209653060494,0.0,0.818718358345,-0.574052257058,-0.0120417099203,0.0,-0.00865593615733,0.00862993997996,-0.999925296662,0.0,0.657720907435,0.255707544308,0.303362319136,1.0,-0.0127,-0.0166914285714,0.636
0.461998813367,0.525030068896,-0.124062060091,-1.39162859727,0.0775058188181,1.90724252486,0.154635877525,-0.00463284873136,-0.0682966450733,-5.9931621128e-05,-0.104712272877,-0.00202615184908,0.0417303493225,-0.0154615937982,0.574104483231,0.81876762631,0.00208886134739,0.0,0.818724549838,-0.574043575851,-0.0120345925343,0.0,-0.00865460395359,0.00861948154587,-0.999925398401,0.0,0.657512182531,0.255438274078,0.303377317888,1.0,-0.01302,-0.017112,0.652
0.461829469989,0.523778817009,-0.124070276506,-1.39362625915,0.0773835629778,1.90796498407,0.154359960804,-0.0136953986295,-0.0744431572561,0.000219329556278,-0.109636902338,-0.0139546481042,0.0393375953022,-0.0177233708741,0.574097344592,0.818772690744,0.00206560550631,0.0,0.818729298437,-0.574036524865,-0.0120478588402,0.0,-0.00867889188926,0.0086079812455,-0.999925286956,0.0,0.657271427768,0.255130738699,0.303369217857,1.0,-0.01338,-0.0175851428571,0.67
0.461682681246,0.522633985538,-0.12406842737,-1.3954410678,0.0772649426475,1.90867125419,0.154128433926,-0.00999543877962,-0.0710846673011,0.0056817613016,-0.107014035605,-0.00730408091237,0.0447096856158,-0.0190289077609,0.574092149249,0.818776272177,0.00208978286736,0.0,0.818733285238,-0.574031316735,-0.0120250551951,0.0,-0.00864639552425,0.00861463043255,-0.999925511219,0.0,0.657058802512,0.254863697929,0.30337127115,1.0,-0.0137,-0.0180057142857,0.686
0.46151649923,0.521398204446,-0.124074802507,-1.39743122695,0.0771485559076,1.90944336583,0.153844517119,-0.013000490471,-0.0728906531835,-0.000811279319313,-0.115959506053,-0.00735527737684,0.0457619159136,-0.0168686228146,0.574075625433,0.818787823793,0.00210304393248,0.0,0.81874501395,-0.574014743093,-0.0120176430853,0.0,-0.00863288781619,0.00862105868638,-0.999925572528,0.0,0.656826468375,0.254564350504,0.303359477154,1.0,-0.01404,-0.0184525714286,0.703
0.461349065933,0.520107519844,-0.124080405951,-1.39945013735,0.0770239205871,1.91018322066,0.153594688794,-0.010554075112,-0.0784316991743,-0.00382608608102,-0.120043043743,-0.00660396177095,0.0456682071028,-0.0182337910698,0.574086100638,0.818780460866,0.00211017994674,0.0,0.81873774792,-0.574025190731,-0.0120136354808,0.0,-0.00862539961496,0.00862471117739,-0.999925605652,0.0,0.65658224758,0.254258510233,0.303369330763,1.0,-0.01438,-0.0188994285714,0.72
0.461178471687,0.518763556332,-0.124089948042,-1.40154367391,0.0768852558129,1.91092551241,0.153297801085,-0.00699409619547,-0.077166484511,-0.00339354284837,-0.119176262498,-0.014404053158,0.0417317006547,-0.0203974668129,0.574063054964,0.818796653197,0.00209679285569,0.0,0.818753830447,-0.574002269063,-0.0120127907123,0.0,-0.00863263517882,0.00861302234456,-0.999925643964,0.0,0.656324008542,0.253938126728,0.303380993003,1.0,-0.01472,-0.0193462857143,0.737
0.461010963688,0.517496199205,-0.124093248355,-1.40353552077,0.0767652561602,1.91164093298,0.153035456757,-0.0062917686569,-0.0747062477618,-0.000584098640644,-0.120827494493,-0.00277057326145,0.0441923930537,-0.0117678080901,0.574060862171,0.81879820973,0.00208929829334,0.0,0.81875522758,-0.574000046735,-0.0120237498302,0.0,-0.00864593397821,0.0086131539236,-0.99992552793,0.0,0.656078503185,0.253635686321,0.303384410467,1.0,-0.01504,-0.0197668571429,0.753
0.460827187447,0.516135351106,-0.124099277805,-1.40570034771,0.0766268408042,1.91244185245,0.15273730597,-0.00682407553252,-0.0838727999148,-0.000986842827192,-0.13228475889,-0.0101108627071,0.04530087442,-0.0142922846149,0.574048604315,0.818806825583,0.0020806643026,0.0,0.818763776909,-0.57398787287,-0.0120227418695,0.0,-0.00865019357079,0.00860537643326,-0.999925558053,0.0,0.655816554179,0.253304549014,0.303378205373,1.0,-0.01538,-0.0202137142857,0.77
0.460644055845,0.514754621064,-0.124100434594,-1.40790645601,0.0764925541308,1.91326730208,0.152425249754,-0.00826284476632,-0.0841947849508,0.000538030607554,-0.138782219808,-0.00780857580253,0.0486496687454,-0.0161531443618,0.574024049738,0.818824043765,0.00207908028948,0.0,0.818780946413,-0.573963300246,-0.0120265815185,0.0,-0.00865450495328,0.00860602404749,-0.999925515173,0.0,0.65554791642,0.252974408916,0.303367864571,1.0,-0.01572,-0.0206605714286,0.787
0.460460055191,0.513429336412,-0.124103597203,-1.41003290322,0.0763600714361,1.91400163181,0.152131849537,-0.013025690583,-0.0791478662809,-0.000892947425167,-0.133137449323,-0.0108331987332,0.0532066705057,-0.013211854734,0.574012409647,0.818832349094,0.00202102662142,0.0,0.818788407886,-0.573951824734,-0.0120661881861,0.0,-0.00872038119419,0.00858110013837,-0.999925157035,0.0,0.65527828695,0.252645502538,0.303348319098,1.0,-0.01604,-0.0210811428571,0.803
0.460264464878,0.51199377906,-0.12410958485,-1.4123240105,0.0762248794576,1.91481576561,0.151804221819,-0.00539972893998,-0.0890340025657,-0.000605995177887,-0.130047521708,-0.0107979498806,0.0482411821673,-0.0166539922363,0.573992007211,0.818846733206,0.00198747980268,0.0,0.818802238602,-0.57393145753,-0.0120964052232,0.0,-0.00876459346619,0.00857075783937,-0.999924859183,0.0,0.654991196627,0.252294270693,0.30333425438,1.0,-0.01638,-0.021528,0.82
0.460046292094,0.510450034871,-0.12410704065,-1.4147772036,0.0760693423638,1.9157647775,0.151456413218,-0.00850383154009,-0.0882880302875,-0.000179455742243,-0.131978798453,-0.00475938221847,0.0553584465435,-0.0261306361589,0.573970467595,0.81886176225,0.00201582629689,0.0,0.818817690489,-0.573909848865,-0.0120756788428,0.0,-0.00873157720208,0.00858184249182,-0.999925052961,0.0,0.654699184495,0.251921288961,0.303329715057,1.0,-0.01674,-0.0220011428571,0.838
0.459852007167,0.509043914107,-0.124113517895,-1.41700709738,0.0759366405948,1.91657169948,0.151155581737,-0.00863865443438,-0.0910716405699,-0.000924766248211,-0.143213068598,-0.00456952380749,0.0508293667645,-0.0260282805199,0.573968075913,0.818863472889,0.00200187452586,0.0,0.818819143436,-0.573907444026,-0.0120914405741,0.0,-0.00875251684141,0.00857943924666,-0.999924890515,0.0,0.654422280689,0.25157754951,0.303322600633,1.0,-0.01706,-0.0224217142857,0.854
0.459638145191,0.507533885,-0.124116700894,-1.41939017209,0.075787180724,1.91742754145,0.150824360844,-0.0114955481915,-0.0897224051529,-0.000341435127614,-0.140382673814,-0.00178428230824,0.0579039668586,-0.0192751903544,0.573957375022,0.818871014508,0.00198498296476,0.0,0.818826424086,-0.57389677888,-0.0121045987967,0.0,-0.00877309867659,0.00857304531163,-0.999924764987,0.0,0.654125421624,0.25120683407,0.303318909457,1.0,-0.0174,-0.0228685714286,0.871
0.459407132897,0.505866050828,-0.124127844358,-1.42197072441,0.075618270537,1.91839226602,0.150475175989,-0.0128078253429,-0.0994009614851,0.000297200732878,-0.143879575527,-0.00778776303224,0.062885399007,-0.0140718411859,0.57395632936,0.818871661293,0.00202020291585,0.0,0.818827655835,-0.573895702473,-0.0120722666918,0.0,-0.00872641932058,0.00858331715084,-0.99992508533,0.0,0.653813285756,0.250803198359,0.303340636255,1.0,-0.01776,-0.0233417142857,0.889
0.459212505394,0.504413519288,-0.124135115798,-1.42416090583,0.0754788115175,1.91923804611,0.150164089068,-0.0132943054679,-0.098949986379,0.000854247740917,-0.147433923896,-0.00840298682822,0.0481541522366,-0.0219036871609,0.573941484519,0.818881846789,0.00210718966317,0.0,0.818839084885,-0.57388059555,-0.0120150745864,0.0,-0.00862981735848,0.00862156499201,-0.999925594667,0.0,0.653552779765,0.250465815034,0.303386641196,1.0,-0.01806,-0.023736,0.904
0.458974197025,0.502645743461,-0.124138347428,-1.42677785204,0.0753137198004,1.92022707108,0.149805544953,-0.0115116220119,-0.093900775033,-0.000520699847756,-0.147306673289,-0.0109175453013,0.0541397199581,-0.0167165144386,0.573935082557,0.818886024746,0.00222404755517,0.0,0.818844850333,-0.573873775187,-0.011947725152,0.0,-0.00850766638673,0.00867853559763,-0.999926148589,0.0,0.653237081278,0.250061452155,0.30346136536,1.0,-0.01842,-0.0242091428571,0.922
0.45873535407,0.500935968396,-0.12413875357,-1.42934639457,0.0751532217651,1.92112168558,0.149439436094,-0.0127014712964,-0.099300804674,0.00139703170682,-0.152291542928,-0.00442370889543,0.0503667018907,-0.0248043094887,0.573918708381,0.818897410492,0.00225702462919,0.0,0.818856575076,-0.573857176537,-0.0119414108028,0.0,-0.00848374394135,0.00870174605751,-0.999926150125,0.0,0.65291067589,0.24965794298,0.303509695128,1.0,-0.01876,-0.024656,0.939
0.458521541686,0.499426598698,-0.124140887359,-1.43163838441,0.0749964497321,1.92196018566,0.149124201632,-0.0119092748318,-0.0989389892436,0.000516619068316,-0.154026498915,-0.0107694114145,0.0539177054863,-0.0132014572457,0.573911324407,0.818902475706,0.00229649768344,0.0,0.818862258428,-0.573849742058,-0.0119089110787,0.0,-0.00843455455337,0.00871534200632,-0.999926447847,0.0,0.652627347844,0.249296789369,0.303544425308,1.0,-0.01906,-0.0250502857143,0.954
0.458248848153,0.497654691074,-0.124142662707,-1.43443825325,0.0748371803554,1.92300650009,0.148704712506,-0.0161100156327,-0.0991797577471,0.000793769976112,-0.158041035282,-0.00717880462033,0.0572210230356,-0.0196427608729,0.573891963774,0.818915983644,0.00231787623746,0.0,0.818875895838,-0.573830144563,-0.0119155070445,0.0,-0.00842789417861,0.00873643492096,-0.999926319938,0.0,0.652283463036,0.24885434637,0.303538092359,1.0,-0.01942,-0.0255234285714,0.972
0.457972713252,0.495887917924,-0.124144793946,-1.43729698323,0.0746614964561,1.92398627789,0.148294624876,-0.0143383632003,-0.0966243107046,-0.0051784471633,-0.160905715328,-0.0133449834255,0.0523298128822,-0.0214383270352,0.573880619616,0.81892419391,0.00222395143718,0.0,0.818882692276,-0.573818987254,-0.0119855353975,0.0,-0.00853926375985,0.00869958931475,-0.9999256963,0.0,0.651912271513,0.248395598244,0.303493742571,1.0,-0.01978,-0.0259965714286,0.99
0.457720608392,0.494315972732,-0.124139366208,-1.43987527808,0.0744975969814,1.92488909191,0.147927134106,-0.0188565347635,-0.0985703262379,0.00333274864533,-0.163181215589,-0.010260796104,0.0596130917094,-0.0204137733946,0.573867617239,0.818933543437,0.0021345302192,0.0,0.818890737807,-0.573806221358,-0.0120468571283,0.0,-0.00864093504068,0.00866141498057,-0.999925154265,0.0,0.651578921006,0.247984427107,0.303439635587,1.0,-0.0230914285714,-0.0303487346939,1.006
0.457426566401,0.492116859932,-0.124217410166,-1.44316111404,0.0743067092905,1.9261152224,0.147452626725,-0.0241673949261,-0.156055605772,-3.80959665178e-05,-0.227552921957,-0.0165872813622,0.0871636472622,-0.035496576465,0.573889582602,0.818917858758,0.00224376658346,0.0,0.81887670982,-0.573827964182,-0.011964469829,0.0,-0.00851054585726,0.00870382036922,-0.999925904315,0.0,0.651184089463,0.247438911604,0.303514892072,1.0,-0.033048,-0.0434345142857,1.022
0.456986484822,0.488867243849,-0.124243635652,-1.4483690883,0.0740314062731,1.92808137224,0.146667796128,-0.0310959091814,-0.198299222123,-0.00162323366221,-0.325787365179,-0.0196416650424,0.123179503296,-0.046583928681,0.573813114898,0.818971378894,0.00226641217455,0.0,0.818930157451,-0.573751036865,-0.011995491465,0.0,-0.00852377195948,0.00873937186119,-0.999925481569,0.0,0.650523065199,0.246651393392,0.303467452853,1.0,-0.0442491428571,-0.0581560163265,1.04
0.456458313836,0.48529273975,-0.124315258612,-1.45394452109,0.0737046555073,1.93019677762,0.145838707578,-0.0374790467564,-0.257337036353,-0.0133447454042,-0.388601998556,-0.0336493827621,0.146808067536,-0.0559238575516,0.573807103414,0.818975339091,0.00235561746125,0.0,0.818935408169,-0.573744796578,-0.01193534868,0.0,-0.00842339514772,0.00877785540236,-0.999925995096,0.0,0.64984033787,0.245743014224,0.303482311763,1.0,-0.0535834285714,-0.0704239346939,1.055
0.4556180128,0.479829467088,-0.124468289357,-1.46263501261,0.0731852659662,1.93321652057,0.144514414809,-0.0487710055768,-0.315072408364,-0.0117145079367,-0.491243153741,-0.0300802412115,0.170050698808,-0.0707739236322,0.573806826197,0.818976062349,0.00216388761521,0.0,0.818933585461,-0.573745259289,-0.0120377302266,0.0,-0.00861725854871,0.00867957912802,-0.999925201083,0.0,0.648720678709,0.24427173671,0.303401913591,1.0,-0.0654068571429,-0.0859632979592,1.074
0.45475145994,0.474288451229,-0.124595785974,-1.47123806535,0.0726648083981,1.93628561858,0.143274795978,-0.0552751751577,-0.360417932426,-0.00584548744699,-0.562535664588,-0.0373433339173,0.202187718445,-0.0852046887029,0.573869562206,0.818932121807,0.00215693036157,0.0,0.818889604465,-0.573808067303,-0.0120359668792,0.0,-0.00861914179747,0.00867352988665,-0.999925237342,0.0,0.647622082466,0.242814326818,0.303413071197,1.0,-0.0753634285714,-0.099049077551,1.09
0.453731161638,0.468015051305,-0.124679720728,-1.48081261104,0.0721144030069,1.93983339847,0.141791831965,-0.0659034495839,-0.404059263774,-0.00203094306807,-0.617026166486,-0.0413519878112,0.245155487157,-0.101088217965,0.573861754612,0.818936975247,0.00237993024958,0.0,0.818897130365,-0.573799102637,-0.0119510080911,0.0,-0.0084216827192,0.00880731409247,-0.999925750483,0.0,0.64641256875,0.241206695851,0.303500054967,1.0,-0.08532,-0.112134857143,1.106
0.452471016156,0.460588589011,-0.124739561757,-1.49231313533,0.0713789594437,1.94393494531,0.139978683486,-0.0829707340835,-0.443462057605,-0.00103795921681,-0.702945610964,-0.0413619281997,0.240477996983,-0.111797150217,0.573792973379,0.818985125801,0.00239464381611,0.0,0.818945311443,-0.573730102508,-0.0119621588304,0.0,-0.00842311308346,0.00882505491874,-0.999925582017,0.0,0.644906357468,0.2392572007,0.303502464266,1.0,-0.0958988571428,-0.126038497959,1.123
0.451012690489,0.452274870146,-0.124888265016,-1.50515299177,0.0705284152063,1.94830588259,0.137989010031,-0.0906672735177,-0.510472019553,-0.0113988163385,-0.735049300947,-0.0580351932542,0.276796660505,-0.128768643354,0.573825054504,0.818963105328,0.00223289870337,0.0,0.818921197691,-0.573762859649,-0.0120415846479,0.0,-0.00858062441457,0.00873849929056,-0.999925002945,0.0,0.643187371219,0.236986085308,0.303489333333,1.0,-0.106477714286,-0.139942138775,1.14
0.449409403891,0.443069565683,-0.124993965453,-1.51897588417,0.0696047006655,1.95333725269,0.135856518786,-0.0938934851544,-0.544264666522,-0.00255959992622,-0.839784939824,-0.0509231509918,0.286632477876,-0.130652428608,0.573840441668,0.818951392243,0.0025517739712,0.0,0.818914087033,-0.573777446201,-0.0118282370638,0.0,-0.00822275917233,0.0088773753498,-0.999926786539,0.0,0.641372373685,0.234580298714,0.303656885037,1.0,-0.117056571429,-0.153845779592,1.157
0.447483758432,0.432524293471,-0.125089167754,-1.5349035064,0.068549738993,1.95891024553,0.133257327078,-0.112521935873,-0.610749655888,-0.00973408547914,-0.904791813358,-0.054667621787,0.338104897167,-0.147866275429,0.573770275529,0.819000068547,0.0027028762707,0.0,0.818964560814,-0.573706547929,-0.0117725059078,0.0,-0.00809118111104,0.00896844650675,-0.999927047217,0.0,0.639203932649,0.231768100349,0.303762635387,1.0,-0.128257714286,-0.168567281633,1.175
0.445466637992,0.421868585195,-0.125189313782,-1.55106763654,0.0673997667423,1.96453349105,0.130574856942,-0.122298871431,-0.634122879912,-0.00735783206687,-0.978364978199,-0.0666300294507,0.335148286219,-0.168971319069,0.573671904761,0.819068817966,0.00275027705077,0.0,0.819034251606,-0.573608383283,-0.0117074431582,0.0,-0.00801177390782,0.00896897500301,-0.999927681868,0.0,0.636968179689,0.228866668831,0.303808502964,1.0,-0.138836571429,-0.182470922449,1.192
0.443622488393,0.412506105823,-0.125291377035,-1.56501348403,0.0663868337166,1.96947405084,0.128294648028,-0.130852389493,-0.692235259929,-0.00112055763144,-1.0121595037,-0.078973705661,0.358323155509,-0.171406645366,0.573689012199,0.819055968608,0.00299741062631,0.0,0.819025256304,-0.573625413308,-0.0115005062663,0.0,-0.00770031564498,0.00905284338145,-0.999929373089,0.0,0.635051809814,0.226300997354,0.303947469952,1.0,-0.147548571429,-0.193920979592,1.206
0.441159319905,0.400652124331,-0.125393844601,-1.58305421647,0.0651858813055,1.97550404057,0.125253418594,-0.153739336355,-0.70820705864,-0.00176809330851,-1.06897883686,-0.0650501201139,0.352862577379,-0.183565888888,0.573689248701,0.819056222069,0.00288061046924,0.0,0.819023043869,-0.573624928423,-0.0116808392139,0.0,-0.00791502645172,0.00906063267282,-0.999927626027,0.0,0.632446828598,0.222954184164,0.303891343894,1.0,-0.158127428571,-0.207824620408,1.223
0.438425190718,0.38799567692,-0.125536143189,-1.60196996879,0.0638017173125,1.98198662963,0.122002612023,-0.161865398017,-0.759223223112,-0.00971471344257,-1.15509506803,-0.0931019684617,0.377791894312,-0.202292306237,0.573710774353,0.819040852439,0.00296248687472,0.0,0.819009099379,-0.573646596036,-0.0115941749452,0.0,-0.00779683253216,0.00907818157612,-0.999928395447,0.0,0.62955775333,0.219118064839,0.303934750692,1.0,-0.169328571429,-0.222546122449,1.241
0.435489275725,0.374687286701,-0.125680658134,-1.62182063867,0.0623096484817,1.98858436956,0.118426493451,-0.173177918349,-0.785155013535,-0.0105177304302,-1.18220356485,-0.0884491321057,0.392181994884,-0.210230194952,0.573627189899,0.81909924792,0.00300266007188,0.0,0.819068181672,-0.573563086741,-0.0115518916439,0.0,-0.00774007979879,0.00908603740131,-0.999928765007,0.0,0.626796999446,0.215508791486,0.303990558912,1.0,-0.179285142857,-0.235631902041,1.257
0.432190947491,0.360768777173,-0.125862898183,-1.64240052283,0.0607410397018,1.99541867326,0.114765735873,-0.197987522218,-0.855895601876,-0.0106342744464,-1.22418146412,-0.0972244878781,0.415947086744,-0.229665803677,0.573759883419,0.819006009392,0.00308215200045,0.0,0.818976324308,-0.573695931624,-0.011467570011,0.0,-0.00762393747322,0.0091040164294,-0.999929493746,0.0,0.623736444518,0.211380943449,0.304053887987,1.0,-0.189864,-0.249535542857,1.274
0.428554853365,0.346317892397,-0.126064864346,-1.66389352831,0.0591117927781,2.00227916481,0.110682973736,-0.218628440919,-0.873425589851,-0.015046974731,-1.25627340073,-0.098009514789,0.416064387841,-0.241241324212,0.573817238643,0.818966521488,0.0028914045597,0.0,0.81893396661,-0.573753419804,-0.0116154421336,0.0,-0.00785385619662,0.00903318425267,-0.999928356696,0.0,0.620439095559,0.206956775452,0.303988270249,1.0,-0.200442857143,-0.263439183673,1.291
0.425173229883,0.333034553338,-0.126178110418,-1.68341497826,0.057611357383,2.00861830302,0.107000748592,-0.230089082099,-0.896513041987,-0.0038765249211,-1.32677037138,-0.0996177419657,0.411845894417,-0.251342992472,0.573864691627,0.818933146448,0.00292647474746,0.0,0.818900615167,-0.573800252008,-0.0116533332628,0.0,-0.00786424033888,0.00908410336736,-0.99992781379,0.0,0.617184150122,0.202693060433,0.303981631162,1.0,-0.210399428571,-0.276524963265,1.307
0.420888784704,0.316426534288,-0.126328606368,-1.70746465136,0.0556040985918,2.0162922242,0.102254443207,-0.246065008137,-0.916767221929,-0.0146787296821,-1.36642570795,-0.113153289364,0.421838138473,-0.268480671721,0.573752799413,0.819011228533,0.00301323806617,0.0,0.818980558271,-0.573688951044,-0.0115143182839,0.0,-0.00770184286237,0.00907433045135,-0.999929166563,0.0,0.613342896003,0.197686669842,0.304062810836,1.0,-0.221600571429,-0.291246465306,1.325
0.41624456525,0.299265703893,-0.126455865938,-1.73223768736,0.0535273669853,2.02404316363,0.097141544523,-0.268613271972,-0.964241261242,-0.0152968341178,-1.40306412047,-0.122727436547,0.430406974199,-0.284940353157,0.573563154378,0.819143773253,0.00308764993494,0.0,0.819114157626,-0.573499209324,-0.0114630093142,0.0,-0.0076192346,0.00910407283804,-0.999929529078,0.0,0.609513807439,0.192751605162,0.304112964874,1.0,-0.232179428571,-0.305150106122,1.342
0.412872646143,0.287412999941,-0.12657733202,-1.74909523391,0.052173288084,2.02923568457,0.0936544248677,-0.287753016708,-0.994155554383,-0.0113997827672,-1.41535640663,-0.109988593102,0.440810012698,-0.297756285082,0.573620771384,0.819102841277,0.00323928238244,0.0,0.819074760908,-0.573555848156,-0.0114442995219,0.0,-0.00751629361244,0.00921807983919,-0.999929263665,0.0,0.60672315615,0.189083407184,0.304195943285,1.0,-0.239646857143,-0.314964440816,1.354
0.406550653411,0.26619752055,-0.126798292169,-1.77935805019,0.0495944480752,2.03828053993,0.0871004684218,-0.313618430481,-1.01591102926,-0.00551097772457,-1.45704181459,-0.122591452715,0.420034611595,-0.311260893276,0.57358956548,0.819124916446,0.00318253535081,0.0,0.819095566044,-0.573524166799,-0.011542559758,0.0,-0.00762968425703,0.00922767009199,-0.999928316442,0.0,0.601574561689,0.182364068955,0.304187307285,1.0,-0.252714857143,-0.332139526531,1.375
0.400905500252,0.248412366448,-0.127035093029,-1.80443280459,0.0473428481943,2.04565447998,0.081530117716,-0.339160089225,-1.0439373657,-0.00743155092955,-1.48722205269,-0.127606376641,0.422462003807,-0.33562246992,0.57372051782,0.819033260636,0.00316738144165,0.0,0.819003881186,-0.573655351144,-0.011529423504,0.0,-0.00762614283953,0.00920894181749,-0.999928516113,0.0,0.597241862561,0.176571377044,0.304206678419,1.0,-0.263293714286,-0.346043167347,1.392
0.395299027207,0.231141306006,-0.127217972448,-1.82843577948,0.0451631149824,2.05263474134,0.0759194417634,-0.347468799396,-1.10233392059,-0.00819663348534,-1.51061015471,-0.133236346039,0.447076561479,-0.359734220329,0.573686672869,0.819056392152,0.00331281576253,0.0,0.819028942727,-0.573621128763,-0.0114515725204,0.0,-0.00747932655615,0.00928308525794,-0.999928939476,0.0,0.592997029955,0.170992281454,0.304287735377,1.0,-0.273250285714,-0.359128946939,1.408
0.38901670874,0.212380341298,-0.127408290837,-1.85437255227,0.0426920845951,2.05995585405,0.0696394499068,-0.386037890726,-1.15161696677,-0.0172554350016,-1.53229716268,-0.164522891697,0.439670253152,-0.380145185392,0.573545689436,0.819155012715,0.00333978648953,0.0,0.819128145287,-0.573480375983,-0.0114055627877,0.0,-0.00742776492613,0.00927750310596,-0.999929375628,0.0,0.588280166324,0.164886103241,0.304323015626,1.0,-0.283829142857,-0.373032587755,1.425
0.382204084136,0.19319841132,-0.127632321296,-1.88071089645,0.0401745443257,2.06710200324,0.0630135903393,-0.406786942929,-1.16071399838,-0.0209356851586,-1.58867396296,-0.166569925718,0.440836932315,-0.407340709363,0.573510304285,0.819180051243,0.0032743588385,0.0,0.819151924594,-0.573444676409,-0.0114923640965,0.0,-0.00753679687159,0.00927336511533,-0.999928598147,0.0,0.583373075204,0.158487874915,0.304312284627,1.0,-0.294408,-0.386936228571,1.442
0.374810756824,0.173492348256,-0.127995964381,-1.90729980118,0.0376352387073,2.07420469696,0.0560150603543,-0.443494565789,-1.19218048428,-0.0228438077668,-1.58586377959,-0.158283156257,0.422278333902,-0.42108405558,0.573689432062,0.819054001711,0.00342413840725,0.0,0.819027426693,-0.573622851162,-0.0114737025624,0.0,-0.00743356108132,0.00938698590357,-0.999928310763,0.0,0.578363509155,0.151746935407,0.304391367315,1.0,-0.304986857143,-0.400839869388,1.459
0.367040411322,0.153391295016,-0.128231502695,-1.93424942156,0.0348516404979,2.08112691068,0.0486160090057,-0.46312436849,-1.20571837345,-0.0137306248153,-1.5707186314,-0.176444889024,0.409408886257,-0.444558988537,0.573587574754,0.819125460158,0.00339433498159,0.0,0.81909856547,-0.573521178786,-0.0114779976345,0.0,-0.0074553406326,0.0093641120285,-0.999928363085,0.0,0.573110102922,0.144900830548,0.304407307519,1.0,-0.315565714286,-0.414743510204,1.476
0.35874789596,0.132844655442,-0.128527771293,-1.96151159595,0.0319893799777,2.08787827834,0.0408694216398,-0.494101431399,-1.23111730039,-0.0137249826281,-1.61279879602,-0.171291086645,0.387465745453,-0.463950449892,0.573580073275,0.819130895713,0.00334994506778,0.0,0.819103247248,-0.573513587712,-0.0115231053792,0.0,-0.00751783735783,0.00935355459577,-0.999927993977,0.0,0.567666650504,0.137800350813,0.304407082641,1.0,-0.326144571429,-0.42864715102,1.493
0.350351615849,0.113082775398,-0.128917954064,-1.98734737385,0.0291725780429,2.09413014974,0.0331070330081,-0.540546067018,-1.2646351155,-0.0229421480547,-1.62187041128,-0.184715972302,0.397828097656,-0.498792484271,0.573647197182,0.819083684398,0.00339970866515,0.0,0.819057061659,-0.573581031962,-0.0114488610783,0.0,-0.00742770991608,0.00935234251983,-0.999928678864,0.0,0.562429808057,0.130808752646,0.304447960155,1.0,-0.336101142857,-0.441732930612,1.509
0.34092538919,0.0917170910313,-0.129266306265,-2.0149431512,0.0260825953221,2.10048219435,0.0243982693529,-0.556738991342,-1.27362535999,-0.0156725981786,-1.66839748086,-0.187210613413,0.372947275517,-0.515057947758,0.57358843707,0.819124773746,0.00341420499914,0.0,0.81909843691,-0.573522361828,-0.0114279497915,0.0,-0.00740293640197,0.00935168988693,-0.999928868685,0.0,0.556666465867,0.123241551581,0.304481375049,1.0,-0.34668,-0.455636571429,1.526
0.33088514586,0.0700895200684,-0.129647485457,-2.04260986535,0.0230031150425,2.10654557181,0.0152055757038,-0.59837141509,-1.27356088118,-0.0169752384203,-1.63646913207,-0.185647764945,0.354107017375,-0.546058216124,0.573591040138,0.819122928656,0.00341955040063,0.0,0.819095849769,-0.573523926159,-0.0115343797056,0.0,-0.00748702506162,0.00941713770299,-0.999927628368,0.0,0.550735874954,0.115459254248,0.304467990492,1.0,-0.34998,-0.459973714286,1.543
0.320877803413,0.049824787961,-0.130086417893,-2.06820446049,0.0199422973262,2.1118081991,0.00638133818292,-0.628666935807,-1.25553391732,-0.0252705019945,-1.60968710364,-0.193635881929,0.311722270711,-0.552045634855,0.573830711934,0.818955592747,0.00328603873534,0.0,0.818926675752,-0.573763847839,-0.0116143685107,0.0,-0.00762638865072,0.00935588625887,-0.999927150141,0.0,0.545125238563,0.107930747219,0.3044423621,1.0,-0.34998,-0.459973714286,1.559
0.309313814554,0.0272318773566,-0.130416804943,-2.09623309486,0.0166490796162,2.11728165271,-0.00382104014259,-0.650676884471,-1.25700550212,-0.0195476131781,-1.51972185793,-0.180817511451,0.279336415092,-0.56009565052,0.573970553222,0.818857405208,0.00333179712191,0.0,0.818828005033,-0.573902197123,-0.0117351272946,0.0,-0.0076974183968,0.00946396850667,-0.999925588757,0.0,0.538800728158,0.0996228783776,0.304464251846,1.0,-0.34998,-0.459973714286,1.577
0.298664706328,0.00739223072223,-0.130754726096,-2.12044928859,0.0135292076756,2.12183037315,-0.0132147948729,-0.669437309398,-1.24571536153,-0.0302468142392,-1.51073781524,-0.182607750419,0.263634573754,-0.582168196853,0.574013885995,0.818826902178,0.0033630127694,0.0,0.818798640601,-0.573946328029,-0.0116252136666,0.0,-0.0075889949753,0.00942684585217,-0.999926768185,0.0,0.533231642725,0.0921875593087,0.304513558174,1.0,-0.34998,-0.459973714286,1.593
0.28772836452,-0.0123088383431,-0.130991335568,-2.14408446419,0.0106148640824,2.12601320492,-0.0229003126493,-0.682633807412,-1.24217433437,-0.00590929928773,-1.47677712772,-0.180456876042,0.256572891537,-0.598721323658,0.57399616249,0.818838386591,0.00358454931569,0.0,0.818812525343,-0.573927315928,-0.0115858221578,0.0,-0.00742978820186,0.00958547588535,-0.999926455745,0.0,0.527650271096,0.0848607315701,0.30460176533,1.0,-0.34998,-0.459973714286,1.609
0.275061259802,-0.0341365781981,-0.131295100462,-2.170030955,0.00714357311671,2.13021273955,-0.03403439144,-0.713791684912,-1.20012196322,-0.0270473324851,-1.43305461784,-0.193181598189,0.226691909279,-0.611020182927,0.573954820597,0.81886740851,0.00357464606879,0.0,0.818841680708,-0.57388634774,-0.0115545971429,0.0,-0.00741038511479,0.00955906996686,-0.999926852512,0.0,0.521349110026,0.0765914884105,0.304630409735,1.0,-0.34998,-0.459973714286,1.627
0.262676667428,-0.0546159282864,-0.131590996082,-2.19389882629,0.00399999058027,2.1337886295,-0.0449007960864,-0.725378267355,-1.21330756996,-0.0111983823344,-1.39776761986,-0.19993520719,0.219988621295,-0.647995449755,0.573974474545,0.81885290778,0.00373696300115,0.0,0.818828976573,-0.573905114048,-0.0115227642306,0.0,-0.00729092719142,0.00967389238667,-0.999926626402,0.0,0.515405211059,0.0687864221799,0.304707325,1.0,-0.34998,-0.459973714286,1.644
0.251488262804,-0.0723431257029,-0.131802942837,-2.21441956889,0.00119309401742,2.13655414095,-0.0547954901281,-0.76176828198,-1.2018028177,-0.0214433356561,-1.33967631229,-0.184450532161,0.194547548119,-0.665098110482,0.573862361415,0.818931331817,0.00376972430443,0.0,0.818907540352,-0.573792541549,-0.011545844215,0.0,-0.00729235429075,0.0097129680884,-0.999926237189,0.0,0.509802480996,0.0614967029187,0.304729667083,1.0,-0.34998,-0.459973714286,1.66
0.237573322115,-0.0933883907765,-0.132165929703,-2.23846394632,-0.00213493643286,2.13949659588,-0.0669934336124,-0.778433031355,-1.16693430112,-0.00755716644229,-1.30278047874,-0.190343494589,0.147348671293,-0.68186346052,0.57388621922,0.818914898849,0.00370711933968,0.0,0.818889297948,-0.57381527429,-0.0117087830047,0.0,-0.00746143880502,0.00975541738571,-0.999924576537,0.0,0.503841452745,0.0536673190481,0.304682800658,1.0,-0.34998,-0.459973714286,1.677
0.224138641787,-0.113033615632,-0.132428958584,-2.26064220222,-0.00539278944633,2.141909542,-0.0788367862967,-0.806004726894,-1.14330429656,-0.0180675475268,-1.301980003,-0.188105984729,0.123342148138,-0.698891329677,0.573724651878,0.819028667107,0.0035795510775,0.0,0.819001207389,-0.573653892919,-0.011788992089,0.0,-0.00760224543345,0.00969547870465,-0.999924098898,0.0,0.497852456841,0.0459290288612,0.304630143951,1.0,-0.34998,-0.459973714286,1.694
0.210972094386,-0.131357111961,-0.132806920591,-2.28088578921,-0.00836345911193,2.14385508612,-0.0903522116058,-0.829053995046,-1.14090854643,-0.0147085169049,-1.2536668516,-0.193770798137,0.116192109339,-0.721306144988,0.573803357577,0.818973339252,0.0036226135744,0.0,0.818946116421,-0.573732027562,-0.0118137991227,0.0,-0.00759692334999,0.00974571055554,-0.999923651026,0.0,0.492262558805,0.038526878937,0.304643803338,1.0,-0.34998,-0.459973714286,1.71
0.195808868025,-0.151725768493,-0.133195982997,-2.30311711432,-0.0116684006028,2.14568952089,-0.103744486013,-0.866092949503,-1.13057588818,-0.0369437424967,-1.2332332518,-0.177222968384,0.0899717254664,-0.754417264425,0.573759989343,0.81900358818,0.00365295484564,0.0,0.818976115193,-0.573687732558,-0.0118850813009,0.0,-0.00763841591189,0.00981105578222,-0.999922695905,0.0,0.485945712695,0.0302695784874,0.304628146541,1.0,-0.34998,-0.459973714286,1.728
0.181019077575,-0.170756778167,-0.133583383025,-2.32343730738,-0.0147688580702,2.14699170148,-0.116726362629,-0.873606842915,-1.1262938562,-0.0205144600966,-1.18604825802,-0.173282658117,0.0776018660865,-0.784567025813,0.573813396408,0.818965874341,0.00371882629819,0.0,0.81893879724,-0.573740302729,-0.0119188212672,0.0,-0.00762761420927,0.00988486076249,-0.999922051477,0.0,0.47999383941,0.0224518138384,0.304661860389,1.0,-0.34998,-0.459973714286,1.745
0.167570763573,-0.187244611186,-0.133973001845,-2.34099956774,-0.0175324942129,2.14778772006,-0.128560775571,-0.912795439852,-1.10937329487,-0.0334883551042,-1.14802078047,-0.192200243244,0.0502942875531,-0.794119666963,0.573868445809,0.818927951039,0.00357278771735,0.0,0.81889767948,-0.573794247456,-0.0121449178636,0.0,-0.00789591968289,0.00989552322936,-0.999919863325,0.0,0.474684533598,0.0155094636204,0.304586938884,1.0,-0.34998,-0.459973714286,1.76
0.150112290595,-0.207953277701,-0.134415300567,-2.36248472952,-0.0209165360228,2.14862936285,-0.144065609624,-0.936101278755,-1.07909808926,-0.0268436442221,-1.12067025819,-0.175176197089,0.0321948999383,-0.824151429176,0.573839163894,0.818947845496,0.00371311739443,0.0,0.818919016614,-0.573763926472,-0.0121386905755,0.0,-0.00781065205756,0.0100065911537,-0.999919427678,0.0,0.468040608803,0.00679098929849,0.304615123604,1.0,-0.34998,-0.459973714286,1.779
0.133999882841,-0.226225530124,-0.134888431834,-2.38099398722,-0.023994364373,2.14904059328,-0.158274224523,-0.946401486967,-1.04720093119,-0.0176258654732,-1.09572668652,-0.183002581058,0.017748922059,-0.837563511882,0.573949061121,0.818870107881,0.00386892214999,0.0,0.818843922273,-0.57387401172,-0.0119998553716,0.0,-0.0076061954303,0.0100555427128,-0.999920512767,0.0,0.462130501425,-0.00106140933117,0.304698029237,1.0,-0.34998,-0.459973714286,1.796
0.118503734521,-0.243098303997,-0.135247513635,-2.3978286947,-0.0267971970381,2.14912270447,-0.172153364947,-0.983077296309,-1.04706679788,-0.0271885230656,-1.023972931,-0.17206719074,0.0140636017913,-0.867286625767,0.573859786034,0.818931979064,0.00401329542173,0.0,0.81890795377,-0.573784607143,-0.0119052407957,0.0,-0.00744695864614,0.0101186532928,-0.999921074717,0.0,0.456579328988,-0.00836773934075,0.304770616548,1.0,-0.34998,-0.459973714286,1.812
0.101572326315,-0.260697150356,-0.135687007919,-2.41537195559,-0.0297623594369,2.1490348475,-0.18734811878,-0.989103772926,-1.02268931152,-0.0206229743641,-1.03624086548,-0.176598765838,-0.015448041367,-0.894461501474,0.573804724406,0.818970277494,0.0040705934542,0.0,0.818946712904,-0.573728963255,-0.0119207821751,0.0,-0.00742749192579,0.0101739961405,-0.999920657936,0.0,0.450623371278,-0.0161643276339,0.304739881154,1.0,-0.34998,-0.459973714286,1.829
0.0841535847081,-0.278000375036,-0.136189893623,-2.43214693604,-0.0327196852489,2.14872766744,-0.202926126824,-1.03559145133,-1.00139018356,-0.025615370734,-0.975106206491,-0.167204947798,-0.0325743771317,-0.939821091362,0.573872575275,0.81892177266,0.00425963760775,0.0,0.818901674888,-0.573797580166,-0.0117102844677,0.0,-0.00714577474122,0.0102086320239,-0.999922357854,0.0,0.444742012304,-0.0240071845472,0.304806092064,1.0,-0.34998,-0.459973714286,1.846
0.0684852788518,-0.292980919256,-0.136548677866,-2.44658382856,-0.0351992976924,2.14805649754,-0.217132318624,-1.05482516273,-0.991366144232,-0.0266182422715,-0.942498242797,-0.17519379162,-0.038820747522,-0.94923455655,0.573773405727,0.818991056723,0.00429823088917,0.0,0.818970616904,-0.573697095186,-0.0118117960053,0.0,-0.00720801149322,0.0102976174857,-0.999920998702,0.0,0.43947395206,-0.0308349037854,0.304791028319,1.0,-0.34998,-0.459973714286,1.861
0.0491082173343,-0.310590772436,-0.137104972366,-2.4632243875,-0.0382438137427,2.14711693409,-0.234634658739,-1.07186630396,-0.96480310742,-0.0275046570701,-0.906508870838,-0.160294563584,-0.0721165170122,-0.984104234174,0.573808568976,0.818965937546,0.00438932905938,0.0,0.818946976532,-0.573732379122,-0.0117368512659,0.0,-0.0070939177767,0.0103295324668,-0.999921485463,0.0,0.433195680069,-0.0391394421097,0.304814776315,1.0,-0.34998,-0.459973714286,1.879
0.0303175803172,-0.326948205123,-0.137648709705,-2.47829605311,-0.0409498370426,2.14599816717,-0.251639068027,-1.11189933104,-0.976191723908,-0.0261838698721,-0.884169773998,-0.157770037949,-0.0639088038063,-1.01042159804,0.573934601369,0.818876216934,0.00464344620148,0.0,0.818860894561,-0.573858111016,-0.0115952870253,0.0,-0.00683055701713,0.0104574742858,-0.999921989318,0.0,0.427278434995,-0.0469779285493,0.304900192952,1.0,-0.34998,-0.459973714286,1.896
0.0122965112102,-0.341840405254,-0.138088013947,-2.49202640776,-0.0435212721332,2.1447170781,-0.268154187379,-1.15061480952,-0.939442043647,-0.0378824484713,-0.835718320174,-0.147094446915,-0.0909153108118,-1.02382552564,0.573833368894,0.818947068337,0.0046594964641,0.0,0.818931638504,-0.573756363256,-0.011634173038,0.0,-0.00685448812632,0.0104920877879,-0.999921462959,0.0,0.421670565163,-0.0542899217697,0.304877804643,1.0,-0.34998,-0.459973714286,1.912
-0.0084978537382,-0.35813419373,-0.138590103445,-2.50659144772,-0.0463385476199,2.1430348226,-0.287231809912,-1.1625337372,-0.879828667903,-0.0188698906118,-0.78587682791,-0.14571431396,-0.0944349175264,-1.07826812404,0.573782488169,0.81898207953,0.00477038582663,0.0,0.818968630663,-0.57370600545,-0.0115129580099,0.0,-0.00669223614172,0.0105129324478,-0.999922343098,0.0,0.415434544191,-0.0625428199187,0.30495437363,1.0,-0.34998,-0.459973714286,1.93
-0.0286404186701,-0.373060104223,-0.139123431986,-2.52001281086,-0.0490021518538,2.1413128173,-0.305820258611,-1.17823808071,-0.843889400115,-0.0273645090376,-0.802002938969,-0.156916626798,-0.110321533794,-1.10237910339,0.573713143253,0.819030921641,0.00472499268989,0.0,0.819016361925,-0.573635990059,-0.0116058911422,0.0,-0.00679528868935,0.0105285013167,-0.999921484273,0.0,0.40944412789,-0.0703582065051,0.304897370426,1.0,-0.34998,-0.459973714286,1.947
-0.0467946814556,-0.38585270426,-0.139617239294,-2.53106300657,-0.0512172501458,2.13965381522,-0.322527857158,-1.20607809433,-0.854809066202,-0.0194330851867,-0.724712069182,-0.160627661885,-0.106857918158,-1.12107800352,0.573779161769,0.818983835677,0.00486798943922,0.0,0.818971995466,-0.573702955549,-0.0114252500452,0.0,-0.00656444156255,0.0105425203951,-0.999922878711,0.0,0.403905644341,-0.0777255682963,0.304994202981,1.0,-0.34998,-0.459973714286,1.963
-0.0690377955597,-0.400621502801,-0.140152621751,-2.54396331978,-0.0537094240155,2.13754270294,-0.343217580714,-1.25378842677,-0.797728632104,-0.0480468148348,-0.709670355452,-0.142350211872,-0.124521326584,-1.15656019611,0.573790705161,0.818975260204,0.00494941870812,0.0,0.818962959876,-0.573711828757,-0.0116256095285,0.0,-0.00668167517331,0.0107242637595,-0.999920169505,0.0,0.397926452177,-0.0855080020095,0.30493126989,1.0,-0.34998,-0.459973714286,1.98
-0.091688736703,-0.414839295084,-0.140664286959,-2.55593215165,-0.0562493641159,2.13532414831,-0.364432669219,-1.26874002596,-0.777842065534,-0.0360566283389,-0.655332609152,-0.14646858969,-0.116509065612,-1.20138679091,0.573666984422,0.819061208857,0.00506695478232,0.0,0.819051408768,-0.573589380031,-0.0114350256538,0.0,-0.00645975885346,0.0107101993408,-0.999921778514,0.0,0.391345601955,-0.0942090426484,0.305023292351,1.0,-0.34998,-0.459973714286,1.999
-0.111043811968,-0.426086936535,-0.141144027271,-2.56548748454,-0.0582868460441,2.13339764066,-0.382585941646,-1.28806441952,-0.731018651532,-0.0376394544564,-0.635199436215,-0.12219937536,-0.143077420516,-1.22189423284,0.57363938113,0.819080842287,0.00501807896656,0.0,0.81906954893,-0.573560509805,-0.011582854103,0.0,-0.00660924921302,0.0107547439972,-0.999920323479,0.0,0.386428901512,-0.100638669751,0.304965166103,1.0,-0.34998,-0.459973714286,2.013
-0.133344797051,-0.438278781188,-0.141625688767,-2.575817519,-0.0604660815033,2.13108263197,-0.403534374582,-1.31852949022,-0.708471225217,-0.0271649482772,-0.596841839453,-0.11976797225,-0.124422510439,-1.24430714724,0.573627888475,0.819089270445,0.00495575496607,0.0,0.819075249896,-0.573546150898,-0.0118867446851,0.0,-0.00689408357895,0.0108779139253,-0.999917067861,0.0,0.380425881869,-0.108401615544,0.304869429561,1.0,-0.34998,-0.459973714286,2.03
-0.15741479279,-0.45066801029,-0.142174450728,-2.5857470717,-0.062747096793,2.12882117468,-0.426297073231,-1.3403028226,-0.667309103494,-0.018584114405,-0.549652911627,-0.128444982095,-0.131414800563,-1.28967802219,0.573587642279,0.819116516037,0.0051084911607,0.0,0.819106331106,-0.57350840392,-0.0115618284376,0.0,-0.00654084794838,0.0108163276139,-0.999920108991,0.0,0.374211895347,-0.116691728011,0.304988119129,1.0,-0.34998,-0.459973714286,2.048
-0.179205749126,-0.460975878362,-0.14269181228,-2.59418208599,-0.0646505538293,2.12657343279,-0.447003367135,-1.36883851348,-0.627252067499,-0.0236638971691,-0.509545418778,-0.13552820745,-0.135190215959,-1.31545145997,0.57357486516,0.819125568344,0.00509158548588,0.0,0.819113618669,-0.573493152857,-0.0117995863558,0.0,-0.00674548333806,0.0109387437698,-0.99991741776,0.0,0.368559138045,-0.12403178131,0.304938828067,1.0,-0.348490285714,-0.458015804082,2.064
-0.202544724031,-0.471069788042,-0.143085089532,-2.60238029213,-0.0663493038996,2.12446130234,-0.469211379674,-1.37939262086,-0.573726935755,-0.0292637822802,-0.452230339709,-0.105546353138,-0.116286919917,-1.30850969534,0.573601680405,0.819105855246,0.00523994650583,0.0,0.819094826638,-0.573517792647,-0.0119060233911,0.0,-0.00674722082363,0.011121542223,-0.999915389575,0.0,0.362689161025,-0.131714229349,0.304897324268,1.0,-0.337911428572,-0.444112163265,2.081
-0.225825108247,-0.480328247164,-0.143296737222,-2.60949281381,-0.0678616569239,2.12242301395,-0.491184107443,-1.36831119346,-0.526773484719,-0.0206047735646,-0.402696237264,-0.0728161545235,-0.120882951922,-1.3036424039,0.573771219784,0.818985750379,0.00544746959555,0.0,0.818978532822,-0.573688464566,-0.0116814083871,0.0,-0.00644188057151,0.0111640315382,-0.999916929837,0.0,0.357041616505,-0.139248337592,0.305011521102,1.0,-0.327332571429,-0.430208522449,2.098
-0.248781895335,-0.488586640154,-0.143316751433,-2.61602203394,-0.0692365419295,2.12042521916,-0.513009774273,-1.34909249464,-0.460854286374,0.00249717807446,-0.368341649965,-0.0661643845791,-0.117435840328,-1.27716588918,0.573745941535,0.819003366631,0.00546140291379,0.0,0.818995653283,-0.573661974107,-0.0117816071841,0.0,-0.00651630223023,0.0112327308188,-0.999915678227,0.0,0.351486316658,-0.14648891887,0.304996312237,1.0,-0.316753714286,-0.416304881633,2.115
-0.270052586196,-0.495486296738,-0.143290717561,-2.62140713971,-0.0703055584923,2.11877607035,-0.533214507176,-1.31939491429,-0.415465019146,-0.00105714612857,-0.319657866094,-0.0619324461754,-0.0941075658913,-1.25454620852,0.573828228681,0.818945029465,0.0055632350056,0.0,0.818938489847,-0.573743629921,-0.0117789589242,0.0,-0.00645457348759,0.0113152642632,-0.999915148038,0.0,0.346453703455,-0.153114926682,0.30500236977,1.0,-0.306797142857,-0.403219102041,2.131
-0.2922176844,-0.501937924937,-0.143115320352,-2.62641993236,-0.0712845104527,2.1171726931,-0.554314120046,-1.28582936906,-0.359686098206,0.00522366468665,-0.277125056872,-0.0466819907278,-0.0890632023049,-1.21379633616,0.573860914418,0.818921735281,0.00562043502919,0.0,0.818915831267,-0.573775918156,-0.0117815086199,0.0,-0.00642338688404,0.0113638293228,-0.999914798112,0.0,0.341293396833,-0.159908192666,0.305004028357,1.0,-0.296218285714,-0.389315461225,2.148
-0.312628590054,-0.507208802792,-0.14290614813,-2.63043825955,-0.0719945485835,2.11584963792,-0.573766425304,-1.25902257703,-0.31779762733,0.0266240625728,-0.243450002143,-0.0496337163681,-0.0708187492736,-1.18510859698,0.573954241339,0.818855461938,0.00574527671755,0.0,0.818851409519,-0.573869201485,-0.0117156142152,0.0,-0.00629647855458,0.0114289744501,-0.999914862826,0.0,0.33663519997,-0.166103953041,0.305031807571,1.0,-0.286261714286,-0.376229681633,2.164
-0.335031129827,-0.512388454542,-0.142632143575,-2.63439422044,-0.0726551590326,2.11449879758,-0.595192992428,-1.22766721959,-0.271865893102,0.0171557593428,-0.206495585333,-0.037827336835,-0.0752767798652,-1.18155290331,0.574039807328,0.818794537174,0.00587812887536,0.0,0.818792182789,-0.573954239246,-0.0116892923828,0.0,-0.00619747108011,0.0115233069791,-0.99991439871,0.0,0.331547268805,-0.172822493209,0.305045259179,1.0,-0.275060571429,-0.361508179592,2.182
-0.354270822596,-0.516247168006,-0.14220758472,-2.63752140001,-0.0731446104811,2.11335343518,-0.613754155612,-1.2018597775,-0.234775695268,0.0200777337395,-0.186217757386,-0.0341722822452,-0.0683877544473,-1.15725413183,0.573898409866,0.818893818006,0.00585464655719,0.0,0.818889590327,-0.573810077305,-0.0119407260042,0.0,-0.00641885509658,0.0116472970337,-0.999911565475,0.0,0.327172123957,-0.178463860167,0.304962198612,1.0,-0.265104,-0.3484224,2.198
-0.374190741502,-0.519676274555,-0.141786478475,-2.64030408009,-0.0735618608218,2.11238608093,-0.632871481258,-1.15781798717,-0.189077093131,0.0278704924037,-0.151187620599,-0.0148769214678,-0.0541391723743,-1.12030771793,0.57391291411,0.818883523125,0.00587277392277,0.0,0.818878457259,-0.573822564527,-0.0121030400473,0.0,-0.00654117581908,0.0117554053608,-0.999909507637,0.0,0.322702805268,-0.184292895245,0.304888521059,1.0,-0.254525142857,-0.334518759184,2.215
-0.393488512737,-0.522543261804,-0.141294524022,-2.64252721281,-0.0738852795545,2.11151387755,-0.651430986682,-1.12656604239,-0.159643611567,0.0407945447284,-0.114490804707,-0.0128297676255,-0.0510704150698,-1.08635198211,0.573897597659,0.818894221355,0.00587780008107,0.0,0.8188887478,-0.573806381087,-0.0121738511162,0.0,-0.00659650414057,0.0118000354453,-0.999908618473,0.0,0.318427988802,-0.189902068379,0.304869537106,1.0,-0.243946285714,-0.320615118367,2.232
-0.412133675175,-0.52491251338,-0.140845588564,-2.6442893606,-0.0740661386616,2.11080326278,-0.669392613112,-1.08344111714,-0.124229915941,0.0266249765005,-0.0983850979526,-0.00989303202298,-0.0399865186815,-1.04482851954,0.57395644107,0.818852280596,0.00597438015883,0.0,0.818848181834,-0.573864998387,-0.0121394247959,0.0,-0.00651203339587,0.0118598397218,-0.999908464622,0.0,0.314332091492,-0.195309443075,0.304888192595,1.0,-0.233367428572,-0.306711477551,2.249
-0.428958419892,-0.526693152434,-0.140310936363,-2.64562066641,-0.0741777862585,2.11027793409,-0.685640282824,-1.03995459398,-0.106026904881,0.0341308763285,-0.0798800405949,-0.00421183483502,-0.0316781144258,-1.00669831106,0.573909010958,0.818885362795,0.00599638589162,0.0,0.818881955113,-0.573818222628,-0.012072194159,0.0,-0.00644503168594,0.011838901148,-0.999909146866,0.0,0.310893467389,-0.199841425491,0.304908228867,1.0,-0.224033142857,-0.294443559184,2.264
-0.446260253775,-0.528112665621,-0.139826733347,-2.64668024939,-0.0742234902089,2.10980514444,-0.702310896209,-0.99460760255,-0.0698579261764,0.0336381374359,-0.0505055758026,0.000379188884236,-0.0290530705537,-0.960604223017,0.574015350054,0.818810269291,0.00607187839813,0.0,0.818807840922,-0.573924209179,-0.0120610391143,0.0,-0.00639102772435,0.0118951522493,-0.999908825902,0.0,0.306899259188,-0.205108376687,0.304913617477,1.0,-0.212832,-0.279722057143,2.282
-0.462782198151,-0.529154260161,-0.139284780014,-2.64746405797,-0.0742398596235,2.10945767258,-0.718221667153,-0.963473347468,-0.056599842318,0.0285074897562,-0.0394636906348,-0.00104133130678,-0.020905083183,-0.92398062563,0.574079504588,0.818765171503,0.00608795916652,0.0,0.818763205818,-0.573988754626,-0.0120195367245,0.0,-0.00634688014452,0.0118849954752,-0.999909227878,0.0,0.303315786107,-0.209823611438,0.304922335699,1.0,-0.202253142857,-0.265818416327,2.299
-0.478489793291,-0.529798521395,-0.138606241814,-2.6479557159,-0.0742252809718,2.10919292172,-0.733439441878,-0.90775327188,-0.0327303174078,0.0331104996992,-0.0227031366115,-0.00327021874453,-0.0145400495212,-0.881849097701,0.57397896496,0.818836244416,0.0060082871869,0.0,0.818833467575,-0.573888989778,-0.0119969451134,0.0,-0.00637556636654,0.0118060080726,-0.999909981112,0.0,0.299943409015,-0.214263819194,0.304929249766,1.0,-0.191674285714,-0.25191477551,2.316
-0.492636962567,-0.530120793021,-0.138063427662,-2.64821654915,-0.0741901809209,2.10900463248,-0.747079677842,-0.867150201284,-0.00794407048432,0.0356176099588,-0.0122001064708,0.00322484129098,-0.00635256319545,-0.848719006796,0.574010923047,0.818814194691,0.00596000807062,0.0,0.818810762703,-0.573921091665,-0.0120109252597,0.0,-0.00641426525031,0.0117747477494,-0.999910102218,0.0,0.296889792732,-0.21827385878,0.304926457687,1.0,-0.181717714286,-0.238828995918,2.332
-0.507525073711,-0.530239428924,-0.137283308493,-2.64833462557,-0.0740515428305,2.10886870021,-0.761630825668,-0.818092168535,-0.00197888036803,0.0460039537862,-0.00580348094921,0.0121438031932,-0.00753702047827,-0.780885130818,0.573789073983,0.818970316564,0.00587078077736,0.0,0.818965748055,-0.573699701069,-0.0120209569686,0.0,-0.00647686645674,0.0117056875092,-0.999910509536,0.0,0.293710635869,-0.222424945853,0.304924979188,1.0,-0.170516571429,-0.224107493878,2.35
-0.51954092471,-0.530190121541,-0.136755777039,-2.64833015627,-0.0739011411868,2.10882589019,-0.773129989838,-0.771582419783,0.0085023152782,0.0421280596984,0.000404173596913,0.0156434714721,0.000570746950826,-0.747261741028,0.573904764451,0.818889283236,0.0058660073165,0.0,0.818884692787,-0.573815460308,-0.0120176674327,0.0,-0.00647525805046,0.0117008054733,-0.999910577094,0.0,0.291119925086,-0.225790399257,0.30491924084,1.0,-0.161182285714,-0.21183957551,2.365
-0.532848104828,-0.529943189969,-0.135984927698,-2.6481940574,-0.0735604415115,2.10883351,-0.786082182384,-0.726088157851,0.0165085280953,0.0386311790595,0.0101230480421,0.0156849876657,0.00152720452765,-0.705704001988,0.573805185876,0.818958829704,0.00589837378943,0.0,0.818954632223,-0.573715717802,-0.0120138424154,0.0,-0.00645497685057,0.0117243313474,-0.999910432653,0.0,0.288293064286,-0.229453240918,0.304911947309,1.0,-0.149981142857,-0.19711807347,2.383
-0.544834747517,-0.529577891825,-0.135374436738,-2.64795966707,-0.0732589237138,2.10884440924,-0.797515733543,-0.678095180929,0.027920939128,0.0427245463341,0.0161198234817,0.0209240527714,0.000323535947531,-0.659995079434,0.573969772112,0.818843126462,0.00594826425911,0.0,0.818839345934,-0.573879639717,-0.0120429053318,0.0,-0.00644778664351,0.0117831633067,-0.999909787486,0.0,0.285715948951,-0.232767202317,0.304902114952,1.0,-0.139402285714,-0.183214432653,2.4
-0.555137082134,-0.529090757912,-0.134639460496,-2.64765250268,-0.0728726597642,2.10891972044,-0.807584445225,-0.633460402369,0.032971419565,0.0435758981785,0.0222838908476,0.0172453556786,0.00946462510671,-0.614833377152,0.573825151901,0.818944245981,0.00598029439147,0.0,0.818940713578,-0.573734605128,-0.0120605730877,0.0,-0.00644595919684,0.0118183942811,-0.999909383478,0.0,0.283555307097,-0.235560319357,0.304889516451,1.0,-0.129445714286,-0.170128653061,2.416
-0.56615765747,-0.528463228831,-0.133946275743,-2.64721804052,-0.0724965402612,2.10903002114,-0.818030106757,-0.603376029686,0.0322091755628,0.0332946344904,0.0310560520449,0.0196050377568,0.00546015292434,-0.552409343349,0.573992096557,0.818826995005,0.00601433634928,0.0,0.81882391019,-0.573901378495,-0.0120564822392,0.0,-0.00642066081828,0.0118452359818,-0.99990922863,0.0,0.281221023388,-0.238578939502,0.304885219596,1.0,-0.118244571429,-0.155407151021,2.434
-0.57550165805,-0.527738901222,-0.133184850066,-2.64671721709,-0.072084457482,2.10916332395,-0.827135407571,-0.526109873603,0.0474507602714,0.0523212437427,0.0251153734489,0.0267047790038,0.00465041403501,-0.513148325755,0.573854368929,0.818923481902,0.00602004588456,0.0,0.81892038478,-0.573763495366,-0.0120665520707,0.0,-0.00642762401894,0.0118546101538,-0.9999090728,0.0,0.279293807462,-0.241104507157,0.304879193441,1.0,-0.107665714286,-0.141503510204,2.451
-0.583629726646,-0.527056060125,-0.132502159666,-2.64624066407,-0.0717282763654,2.10926471546,-0.834917615069,-0.496555333195,0.0436702712669,0.0433879214526,0.0256071865823,0.0264435383687,0.00285304677475,-0.46891380462,0.573834417974,0.8189375496,0.00600811986402,0.0,0.818934071107,-0.573743184039,-0.0121034230824,0.0,-0.00646495429037,0.0118658432542,-0.999908698897,0.0,0.277609270674,-0.243291569088,0.304872271261,1.0,-0.0977091428572,-0.128417730612,2.467
-0.592047012057,-0.526290464763,-0.131773204057,-2.64570277561,-0.0712946140544,2.10938981167,-0.842819864609,-0.450681913473,0.0381740551478,0.038875911976,0.0306115084249,0.026914375674,0.00434648321835,-0.419282845925,0.573956420839,0.818851863347,0.00603322229553,0.0,0.818848494423,-0.573864652086,-0.0121347092669,0.0,-0.00647440093308,0.0119053185062,-0.999908168545,0.0,0.275869511561,-0.245544727864,0.304865930296,1.0,-0.0865080000001,-0.113696228572,2.485
-0.598997851989,-0.525559750828,-0.131043376685,-2.64519206419,-0.0708483174273,2.10953276557,-0.849516756662,-0.386421221893,0.0453143509002,0.0496401710904,0.0240505831554,0.024717724871,0.00957233219292,-0.377116697161,0.573867488369,0.818914010813,0.00605768837845,0.0,0.818910841567,-0.573775410697,-0.0121473678029,0.0,-0.00647202165751,0.0119319158656,-0.999907866915,0.0,0.274473215541,-0.247377856614,0.304861265065,1.0,-0.0759291428572,-0.0997925877552,2.502
-0.604475550312,-0.524988199077,-0.130376527739,-2.64480230339,-0.0704707084033,2.10963384635,-0.854756655927,-0.355063420263,0.0346783492459,0.0441195465931,0.0302845060137,0.0220092050992,0.00788535089705,-0.337840014667,0.573773566468,0.818979835457,0.00605561213545,0.0,0.818976445838,-0.573681162041,-0.0121758935199,0.0,-0.0064979457703,0.0119458395483,-0.999907532534,0.0,0.273380773851,-0.248788888936,0.304854483009,1.0,-0.066594857143,-0.0875246693879,2.517
-0.610408188711,-0.524384171827,-0.129621952147,-2.64433253798,-0.0700122440253,2.10977957037,-0.860110554352,-0.305065007771,0.0376786303855,0.0432902489761,0.0274209201125,0.0346295261378,0.0123441244052,-0.278658053903,0.573932860991,0.818868104746,0.00607000870962,0.0,0.818865402033,-0.573841281105,-0.0120989401953,0.0,-0.00642433834135,0.0119147288791,-0.999908379359,0.0,0.272165105464,-0.250390611744,0.304881043873,1.0,-0.0547714285715,-0.0719853061226,2.536
-0.615046846272,-0.523825925572,-0.128921652324,-2.64389998331,-0.0695425901743,2.10990624998,-0.864471387231,-0.263891411147,0.0313991711335,0.0332368623776,0.0192932148033,0.0264210827855,0.0110472712578,-0.239950082256,0.573890866281,0.818897225644,0.00611181909567,0.0,0.818895295186,-0.573799538366,-0.012055380346,0.0,-0.00636528109518,0.0119236421397,-0.999908650805,0.0,0.271351513145,-0.251486879616,0.304898167383,1.0,-0.044814857143,-0.0588995265308,2.552
-0.618766371177,-0.523393140418,-0.128254693995,-2.64358734319,-0.069130861624,2.10998364405,-0.867744205506,-0.211630240908,0.0284255388125,0.0409890603372,0.0141741783142,0.0316398332767,0.000226320055106,-0.194476120295,0.573977314718,0.818836520602,0.00612712149016,0.0,0.818834779523,-0.573885883949,-0.0120558263716,0.0,-0.00635560475176,0.0119371008482,-0.999908551774,0.0,0.270666648254,-0.252384685221,0.304904633072,1.0,-0.0348582857144,-0.0458137469389,2.568
-0.621878589658,-0.523051463764,-0.127465039747,-2.64334106427,-0.0687054270126,2.11005621567,-0.870544641827,-0.159834672185,0.0187907544823,0.0442500320705,0.0131544887554,0.0245790181268,0.0027309915667,-0.14700312036,0.573868500202,0.818913024565,0.00609504501929,0.0,0.818910999658,-0.573777480993,-0.0120384320435,0.0,-0.00636135169382,0.0119000054633,-0.999908957393,0.0,0.27014543617,-0.253072049291,0.304916784719,1.0,-0.0242794285715,-0.0319101061226,2.585
-0.624316723328,-0.522796995023,-0.126688260142,-2.64315388889,-0.0682957368683,2.11011915343,-0.872542306951,-0.1230911645,0.0139998393172,0.0400284667485,0.0106697517555,0.0186171274504,0.000874193687396,-0.108884110291,0.573864074729,0.818916432509,0.00605369335383,0.0,0.818914107757,-0.573773676426,-0.0120082995686,0.0,-0.00636046641029,0.0118488147389,-0.999909570939,0.0,0.269775986955,-0.253566272023,0.304932783714,1.0,-0.0197581818182,-0.0259678961039,2.603
-0.625950148909,-0.522616117125,-0.126255781231,-2.64299900908,-0.0680467610501,2.11014083749,-0.874076583931,-0.100739328627,0.0140012201494,0.0280565385769,0.0126149386104,0.00987275047875,0.000209632179596,-0.0989638507632,0.573753390095,0.818994019202,0.00604903026254,0.0,0.818991743754,-0.573663239229,-0.0119899341426,0.0,-0.00634970031019,0.0118335990375,-0.999909819554,0.0,0.269510542091,-0.253923673991,0.30494913681,1.0,-0.0194581818182,-0.0255736103896,2.618
-0.627611927406,-0.522403103646,-0.125952194005,-2.64280815492,-0.0678761816492,2.11020025741,-0.875658208755,-0.0958099404043,0.0136851144738,0.0169270515994,0.0111907440832,0.00568667619941,0.00393943426105,-0.0966649052417,0.573686754727,0.819040797359,0.00603544634031,0.0,0.819038701714,-0.573597338462,-0.0119350452949,0.0,-0.00631349461198,0.0117904685407,-0.999910558319,0.0,0.269217052257,-0.254338817876,0.304970086479,1.0,-0.0191181818182,-0.0251267532468,2.635
-0.629196529781,-0.522157835293,-0.125807408417,-2.64262756382,-0.0677594314215,2.11027405729,-0.877191284948,-0.0942738413739,0.0175990474791,0.00422662127494,0.00613360471547,0.0129271678567,0.00239906062011,-0.0903797716588,0.573685800657,0.819041318809,0.00605533730917,0.0,0.819039607541,-0.573596539811,-0.0119112424525,0.0,-0.00628260015852,0.0117930988101,-0.999910721893,0.0,0.268903326605,-0.254772495488,0.304971902818,1.0,-0.0187781818182,-0.0246798961039,2.652
-0.630648218421,-0.521936530073,-0.125709766328,-2.64246328992,-0.0677252729477,2.11027472183,-0.878486061336,-0.0872427814543,0.00912783958425,0.00320902738867,0.00983627517786,0.0010614298671,0.000392612052492,-0.0863879100049,0.573768489787,0.818983549712,0.00603426305642,0.0,0.818981292952,-0.57367878957,-0.0119597279608,0.0,-0.00633321366672,0.0118042908794,-0.999910270535,0.0,0.268590519543,-0.255175298119,0.30496766389,1.0,-0.0184581818182,-0.0242593246753,2.668
-0.632089185959,-0.52171292936,-0.125655802035,-2.64230265365,-0.0676832353877,2.11030495844,-0.879965527022,-0.0803726942804,0.0175050439315,0.0029019009685,0.0110784164716,-4.69383302024e-05,0.00145243830603,-0.085084772481,0.573725235907,0.819013795919,0.0060417447318,0.0,0.81901147801,-0.573635218596,-0.011982561348,0.0,-0.00634824771794,0.0118231837516,-0.999909951984,0.0,0.268275086579,-0.255586803824,0.304962402945,1.0,-0.0181181818182,-0.0238124675325,2.685
-0.633538339269,-0.521468653121,-0.12558654962,-2.64213776467,-0.0676431845618,2.11037282973,-0.881387349807,-0.0771981582837,0.00866234228998,0.00209508024063,0.00786462155386,0.000125834646004,0.00138262038794,-0.0794963599692,0.573724485474,0.819014366661,0.00603563357558,0.0,0.819011960435,-0.573634477219,-0.0119850786882,0.0,-0.00635382645124,0.0118196167552,-0.999909958721,0.0,0.267966597305,-0.256002855886,0.304955034547,1.0,-0.0177581818182,-0.0233393246753,2.703
-0.63494488354,-0.521231383928,-0.125575432178,-2.6419793981,-0.0676105560488,2.11038391484,-0.882859339758,-0.0813528598334,0.00661061046462,0.00104949809337,0.00842291128807,0.00234855807861,-0.000361479098578,-0.0819212353447,0.573685455307,0.819041533364,0.00605903412381,0.0,0.819039029738,-0.57359460959,-0.012043193728,0.0,-0.00638856954463,0.0118718190764,-0.999909118916,0.0,0.267644836712,-0.256411372579,0.304941026569,1.0,-0.0173981818182,-0.0228661818182,2.721
-0.6361013645,-0.521048149841,-0.125578059887,-2.64184949595,-0.0675908459455,2.11040393976,-0.883986361408,-0.0772773658438,0.0170246243106,-0.000552308124098,0.00615264521815,0.00217517024883,0.000717565877236,-0.0760076795547,0.573726787615,0.819012456265,0.00607589973942,0.0,0.819009989593,-0.573635521398,-0.0120694837344,0.0,-0.00639982882071,0.0119010378453,-0.999908699577,0.0,0.267378612108,-0.256751915431,0.304934360629,1.0,-0.0170981818182,-0.0224718961039,2.736
-0.6374090391,-0.520863111046,-0.125577103886,-2.64168725268,-0.0675630553658,2.11044948453,-0.885258178102,-0.0738199699089,0.00668640842749,0.000209115084467,0.0104223529691,0.00147462030644,0.00336728737152,-0.0814259708333,0.573775762501,0.818978021166,0.00609279202219,0.0,0.818975957543,-0.573684754867,-0.0120386835305,0.0,-0.00636419784806,0.0118975840681,-0.999908968096,0.0,0.267086130027,-0.257142657152,0.304943985492,1.0,-0.0167581818182,-0.022025038961,2.753
-0.638606201837,-0.52069822912,-0.125562975906,-2.6415242457,-0.0675369528186,2.11048940917,-0.886501780222,-0.0770838945963,0.00818833181018,0.00196339045155,0.0139015230271,0.000546858681138,0.00339316782977,-0.0729900144992,0.573747220028,0.818997954655,0.00610120329388,0.0,0.81899627741,-0.57365670173,-0.0119930417652,0.0,-0.00632240224346,0.0118780658474,-0.999909465293,0.0,0.266823961126,-0.257500612876,0.304961191148,1.0,-0.0164381818182,-0.0216044675325,2.769
-0.639925838129,-0.520502933234,-0.125537902924,-2.64136195894,-0.0675068716605,2.11052793227,-0.887814889132,-0.0749797001061,0.0109087147287,0.00115745001112,0.00575825856844,0.000165644637371,0.00018300892791,-0.0736652347305,0.573756107537,0.818991667422,0.00610939101668,0.0,0.818990175202,-0.573665700773,-0.0119792980019,0.0,-0.00630631858245,0.0118769552799,-0.999909580052,0.0,0.266531374302,-0.257887251327,0.304967018083,1.0,-0.0160781818182,-0.0211313246753,2.787
-0.641119559025,-0.520312630849,-0.125499789063,-2.64120795016,-0.0674883050613,2.1105491806,-0.88903361465,-0.0678286351415,0.0121653004046,0.00512386486548,0.0102479015277,0.000165084763503,0.00208843045842,-0.0769557931253,0.573724613897,0.819013777641,0.00610297830587,0.0,0.819012152859,-0.573634148094,-0.011987681625,0.0,-0.00631732127952,0.011876270068,-0.999909518737,0.0,0.266267988517,-0.258233924092,0.304969735585,1.0,-0.0157381818182,-0.0206844675325,2.804
-0.642211861827,-0.520136921171,-0.125452316423,-2.64106508008,-0.0674593049768,2.11058255269,-0.890181278207,-0.0651399450246,0.00704145090685,0.00412563853841,0.00794605841747,0.000408261269897,0.00217460657597,-0.0675971146303,0.573665464911,0.819055232618,0.00609976964083,0.0,0.819053610845,-0.573575109041,-0.0119801398681,0.0,-0.00631384177062,0.0118688593691,-0.999909628706,0.0,0.266033014463,-0.258549324806,0.304974012072,1.0,-0.0154181818182,-0.0202638961039,2.82
-0.643349020516,-0.519928801179,-0.125397738679,-2.64091642049,-0.067433245862,2.11064500498,-0.891285736354,-0.0701905761893,0.0146528284384,0.00176341471289,0.00913825401551,-0.000381041806949,0.00202697984063,-0.0658737655395,0.573672549293,0.819050364277,0.0060871887012,0.0,0.819048651694,-0.573582381127,-0.0119710116921,0.0,-0.00631347885161,0.0118533727075,-0.999909814703,0.0,0.265792579493,-0.258880159476,0.304971632268,1.0,-0.0150781818182,-0.019817038961,2.837
-0.644495201006,-0.519731070493,-0.12534118222,-2.64077886891,-0.0674093705835,2.11067552366,-0.892473052647,-0.06751933407,0.0131030627176,0.00516087895101,0.00757110461835,0.000555473283822,0.0010663046744,-0.0745997053128,0.573616266953,0.819089854832,0.00607740895389,0.0,0.819087874743,-0.573525888381,-0.0119939863326,0.0,-0.00633872319478,0.0118581059553,-0.99990959887,0.0,0.265542230829,-0.259205845533,0.304965334365,1.0,-0.0147381818182,-0.0193701818182,2.854
-0.645545310082,-0.519557693468,-0.125321251145,-2.64064659917,-0.0673860754544,2.11069264322,-0.893510993796,-0.0654059104747,0.00793751246277,0.00279849855589,0.0145412045401,0.00153792498343,0.00561395458426,-0.0641163109766,0.57362900638,0.819080877147,0.00608495130232,0.0,0.819078876683,-0.57353837176,-0.0120115274938,0.0,-0.0063485816432,0.0118744442786,-0.999909342433,0.0,0.265305627669,-0.259511080747,0.304963576734,1.0,-0.0144181818182,-0.0189496103896,2.87
-0.646646865525,-0.519381860055,-0.12531084515,-2.64050923931,-0.0673669838094,2.11072742489,-0.89458619585,-0.0560860650831,0.0111582547152,0.00230346801668,0.00491154931946,5.38998462282e-05,0.00054550716043,-0.0602146697979,0.573658559363,0.819060130119,0.00609158602061,0.0,0.819058228261,-0.573567913519,-0.0120089216957,0.0,-0.00634221279008,0.0118786130729,-0.999909333334,0.0,0.265056790252,-0.259835982864,0.304964497736,1.0,-0.0140781818182,-0.0185027532468,2.887
-0.647738426502,-0.519217440715,-0.125300727923,-2.64036582516,-0.067342454699,2.11077582504,-0.895669227904,-0.0620274897311,0.0104838859723,0.000239891168698,0.0089119810321,0.00269522248241,2.2293950962e-05,-0.0628805331964,0.573676248838,0.81904767576,0.00610026669207,0.0,0.819046094477,-0.573585952616,-0.0119748479888,0.0,-0.0063090656001,0.0118663139473,-0.999909689064,0.0,0.26481439231,-0.260161165291,0.304973521235,1.0,-0.0137381818182,-0.0180558961039,2.904
-0.648779720007,-0.519050196239,-0.12528135381,-2.6402271276,-0.0673253159474,2.11082569548,-0.89670200163,-0.0634549516562,0.00824564917636,0.001298043135,0.00996055652557,7.76161770007e-05,0.000631962205683,-0.0599440019347,0.573684003165,0.819042260783,0.00609807062796,0.0,0.819040823755,-0.573594039753,-0.0119479489597,0.0,-0.00628817922838,0.011849144112,-0.999910024245,0.0,0.264585137822,-0.260470503305,0.304979692853,1.0,-0.0133981818182,-0.017609038961,2.921
-0.649775734525,-0.518872342945,-0.125265548541,-2.64007627664,-0.0673058715265,2.11084429967,-0.89769492066,-0.0555994405862,0.00930209685863,0.00107478302066,0.0102019455015,8.90851746083e-05,0.00100620656659,-0.0604580105967,0.573691461716,0.819037013194,0.00610120264868,0.0,0.81903559683,-0.573601446037,-0.0119506958252,0.0,-0.00628852462604,0.0118533425228,-0.999909972312,0.0,0.264364371306,-0.260766772526,0.304984719801,1.0,-0.0130581818182,-0.0171621818182,2.938
-0.650774534222,-0.518704373208,-0.125245891394,-2.63995195863,-0.0672943486154,2.11087459445,-0.898707524074,-0.0567775710975,0.00705279282303,0.00213895161213,0.0106561548011,-0.000235966042265,0.000137418579751,-0.0603443061505,0.573677678497,0.819046689916,0.00609818272494,0.0,0.819045184952,-0.573587585238,-0.0119588448496,0.0,-0.00629713162504,0.0118554378025,-0.999909893304,0.0,0.264138668433,-0.26105855356,0.30498240496,1.0,-0.0127181818182,-0.0167153246753,2.955
-0.651696124275,-0.518541232063,-0.125231943848,-2.6398444813,-0.0672860629379,2.11090497911,-0.899643657275,-0.0573896060856,0.00919748572256,0.00128967927197,0.00762997993114,-0.000456017050642,-0.000133770358799,-0.0545146787901,0.573665152446,0.819055474609,0.00609666172015,0.0,0.819053820751,-0.573574825287,-0.0119793744228,0.0,-0.00631500210573,0.011865872185,-0.999909656832,0.0,0.26392755235,-0.261327105771,0.304974078929,1.0,-0.0123981818182,-0.0162947532468,2.971
-0.652662831817,-0.518368689962,-0.125228500876,-2.63972913626,-0.0672730495748,2.11094409918,-0.900571389574,-0.0571529502536,0.00568896390787,0.00106393217419,0.00999503098719,0.000201694854544,0.00148140644505,-0.0542130976963,0.57370633138,0.819026587973,0.00610249370467,0.0,0.819024926527,-0.573615814383,-0.0119922524063,0.0,-0.00632160838484,0.0118783542862,-0.999909466885,0.0,0.26370546181,-0.261612293026,0.304966356862,1.0,-0.0120581818182,-0.0158478961039,2.988
-0.65358645621,-0.51820362727,-0.125230572924,-2.63960604631,-0.0672621589776,2.11096195893,-0.901470975206,-0.0554862670787,0.01211604115,0.00040995907049,0.00661747109304,-0.000224946339503,-0.000461226833035,-0.0512099670119,0.573738619701,0.819003914489,0.00610992773396,0.0,0.819002223881,-0.573647828069,-0.0120113917338,0.0,-0.00633255199544,0.0118956727445,-0.999909191755,0.0,0.263491536533,-0.261886485356,0.304962954622,1.0,-0.0117181818182,-0.015401038961,3.005
-0.654419924956,-0.518046758383,-0.125215735611,-2.63950183928,-0.0672537735622,2.11099163914,-0.902331048576,-0.0518264179527,0.0150059153856,-0.000318446954836,0.00405629007502,-3.57647948791e-05,0.00240227928047,-0.050679686777,0.573715437895,0.819020171225,0.00610756488652,0.0,0.819018331423,-0.573624438908,-0.0120300781912,0.0,-0.00634955046744,0.0119042783741,-0.99990898154,0.0,0.263302178342,-0.262130282861,0.304955390822,1.0,-0.0113981818182,-0.0149804675325,3.021
-0.655296019445,-0.517889731333,-0.125195478804,-2.63938758795,-0.0672414284914,2.11103435473,-0.903173709378,-0.0540090458956,0.00609997101705,-0.000817543247317,0.00301444135232,0.0001016370931,0.00193339169125,-0.0465924123317,0.573739723305,0.819003195679,0.0061026446089,0.0,0.819001326398,-0.573648804959,-0.0120259231728,0.0,-0.00634861695307,0.0118980529372,-0.999909061565,0.0,0.263107303835,-0.262388009355,0.304953567554,1.0,-0.0110581818182,-0.0145336103896,3.038
-0.656143015616,-0.517741214281,-0.125158649911,-2.63928385876,-0.0672289689573,2.11106294525,-0.903979576349,-0.0462781167856,0.00929571880814,0.00347756894426,0.00197587456035,0.00146589429506,0.00282407103201,-0.0508529337027,0.573762916472,0.818987039334,0.00609031900343,0.0,0.818984959522,-0.573671952011,-0.0120363804347,0.0,-0.00636391691054,0.0118941374035,-0.999909010889,0.0,0.262908783531,-0.262646558058,0.304951651988,1.0,-0.0106981818182,-0.0140604675325,3.056
-0.656963295883,-0.517596375668,-0.125143591216,-2.63917480202,-0.0672178233636,2.11108315135,-0.904790517652,-0.0469960311877,0.0101090713341,0.000699990819565,0.00170352628655,-0.000215721162107,0.00084512655402,-0.0520143754585,0.573765514937,0.818985211782,0.00609127683332,0.0,0.818983059208,-0.573674386605,-0.0120496384236,0.0,-0.0063741888981,0.0119025486913,-0.999908845371,0.0,0.262732658746,-0.262869481758,0.304947529037,1.0,-0.0103781818182,-0.0136398961039,3.072
-0.657707949406,-0.517447257039,-0.125146356841,-2.63906388011,-0.067201818922,2.11111798853,-0.905567299082,-0.0460719118211,0.00426326040607,-0.00147450256206,0.00836823760506,-0.000512264511971,0.00512020641021,-0.0489346079304,0.573755852879,0.818991888355,0.00610368717869,0.0,0.818989880583,-0.573664641939,-0.0120499375054,0.0,-0.0063674541455,0.0119128095627,-0.999908766086,0.0,0.262554440247,-0.263109958058,0.304947315857,1.0,-0.0100381818182,-0.013193038961,3.089
-0.658526805761,-0.5172827855,-0.125140030014,-2.63893938176,-0.0671865564194,2.11114972496,-0.90637846584,-0.0457756551396,0.00794793276249,0.000269560760731,0.0041133384621,0.0024619136539,0.000173003976235,-0.0445689573312,0.573768652038,0.818982909446,0.00610531526848,0.0,0.818980909726,-0.573677406802,-0.0120519429785,0.0,-0.00636797649737,0.0119153931382,-0.999908731976,0.0,0.262382013265,-0.263340945286,0.304944668341,1.0,-0.00969818181819,-0.0127461818182,3.106
-0.659192844594,-0.517158589828,-0.125121106159,-2.6388475174,-0.0671697702898,2.11118808292,-0.907007155905,-0.0458826546745,0.00676298394972,0.00205426606489,0.00846500162295,-0.000130696078312,0.00106016914535,-0.0424419243847,0.57379160879,0.818966856427,0.00610120129044,0.0,0.818964816436,-0.573700401272,-0.0120509718117,0.0,-0.00636920749996,0.0119116450343,-0.999908768793,0.0,0.262227376136,-0.263546643394,0.304941202081,1.0,-0.00937818181819,-0.0123256103896,3.122
-0.659961222454,-0.517001956827,-0.125090497474,-2.63875949527,-0.0671514424999,2.11120907192,-0.907770975585,-0.0412053971372,0.00787758330072,0.00121479737958,0.00808185313542,0.00178987988514,0.00148591830711,-0.0403474793112,0.57379240139,0.818966268639,0.00610555808358,0.0,0.818964061358,-0.573700756302,-0.0120853350584,0.0,-0.00639484158835,0.0119349358542,-0.999908327452,0.0,0.262062068182,-0.263752934481,0.304929100362,1.0,-0.00903818181819,-0.0118787532468,3.139
-0.660644299257,-0.516868399405,-0.125043867435,-2.63868222116,-0.0671290753876,2.11122924498,-0.908457649521,-0.0388729395023,0.00578379997573,0.00149398472909,0.00570269635057,-0.000192907812651,-0.000332960886217,-0.0403873197823,0.573770082237,0.818981934392,0.00610170223915,0.0,0.818979474267,-0.573678081263,-0.0121172071543,0.0,-0.00642348459369,0.0119498899098,-0.999907965253,0.0,0.261911919587,-0.263940112426,0.30491778863,1.0,-0.00869818181819,-0.0114318961039,3.156
-0.661292422999,-0.516743037286,-0.12501011444,-2.63860480415,-0.067114632105,2.11125181671,-0.909138591204,-0.0350110198178,0.00973822529839,0.00398165055764,0.00520330204551,0.000529747720364,0.000853828902732,-0.0367858275037,0.573729554559,0.81901036294,0.00609676329348,0.0,0.819007699542,-0.573637325991,-0.0121389135675,0.0,-0.006444689094,0.0119579797817,-0.999907732094,0.0,0.261767896993,-0.264122158917,0.304909454992,1.0,-0.00835818181819,-0.010985038961,3.173
-0.661914265074,-0.516630670086,-0.124988518755,-2.63853149634,-0.0670943942314,2.11127258383,-0.909748553511,-0.0382957475022,0.00694171290306,0.00117208064549,0.00035482254665,-0.0001504105624,0.00137479289169,-0.0304244136903,0.573736488782,0.81900546558,0.00610210546173,0.0,0.819002775881,-0.573644056911,-0.0121530231192,0.0,-0.00645308006698,0.0119705045937,-0.999907528113,0.0,0.261627605673,-0.264298205506,0.304903606039,1.0,-0.00801818181819,-0.0105381818182,3.19
-0.662509125408,-0.516526087898,-0.124985950644,-2.63844605635,-0.0670776080267,2.11129696289,-0.910342227586,-0.0360261323004,0.0122653928138,-0.00128381319788,0.00920042590673,0.00093986216145,0.000986651414264,-0.0279589553669,0.573747223042,0.81899787981,0.00611095902787,0.0,0.81899535682,-0.573654844555,-0.0121437937658,0.0,-0.00644028409128,0.0119725455285,-0.999907586177,0.0,0.261493295518,-0.264475383448,0.304905993658,1.0,-0.00767818181819,-0.0100913246753,3.207
-0.663082440312,-0.516447818516,-0.124979609719,-2.63837328494,-0.0670562157157,2.11131038249,-0.910881880349,-0.0413064435752,0.0121089422192,-4.35362056399e-05,0.00690920285365,0.000290112933599,0.000445982737145,-0.037656577999,0.573783138522,0.818972626648,0.00612320591966,0.0,0.818970332898,-0.573690827381,-0.0121315832672,0.0,-0.00642273120092,0.011975852485,-0.999907659477,0.0,0.261361822598,-0.264641192955,0.304911486379,1.0,-0.00735818181819,-0.00967075324676,3.223
-0.663646402309,-0.516386276216,-0.124976331526,-2.63830413651,-0.0670324921015,2.1113270763,-0.91144642098,-0.0308648395118,0.0040088661139,4.20231691097e-05,0.00332310823476,-0.000107361529917,0.00159756753711,-0.0370483928599,0.573793930689,0.818964950813,0.00613851330656,0.0,0.818963027873,-0.573701869655,-0.0121025052409,0.0,-0.00638997407526,0.0119717899916,-0.999907917998,0.0,0.261232317326,-0.26480473926,0.304921710777,1.0,-0.00701818181819,-0.0092238961039,3.24
-0.66418205016,-0.51631675318,-0.124966494431,-2.63822845205,-0.0670090698506,2.11134521451,-0.912003261456,-0.0339235251536,0.00577966829219,0.00298145225049,0.00304885733967,0.0031089202382,-0.000253956355087,-0.0317077408299,0.573783390021,0.818972254189,0.00614939881413,0.0,0.8189706436,-0.573691603623,-0.0120737630905,0.0,-0.00636034096408,0.0119641321676,-0.999908198588,0.0,0.261113169273,-0.264961209041,0.304932236331,1.0,-0.00667818181819,-0.00877703896105,3.257
-0.664656539461,-0.516254222186,-0.124942601196,-2.63814956774,-0.0669811544975,2.11136626074,-0.912473822054,-0.025221175529,0.00426045670756,9.70430303203e-05,0.000736913907153,0.0017243723078,0.00494271985623,-0.0193525148641,0.573785465203,0.818970759542,0.00615482227224,0.0,0.818969476211,-0.573694138634,-0.0120324242621,0.0,-0.00632333991905,0.011944871701,-0.999908663535,0.0,0.261015004417,-0.265099545183,0.304947375599,1.0,-0.00635818181819,-0.00835646753247,3.273
-0.665171563235,-0.516153051004,-0.124876058358,-2.63806297234,-0.0669558447735,2.11138905478,-0.912971697794,-0.0307544044189,0.00110338455563,0.00366691665093,0.000962279765584,0.000242637614768,0.00134628878947,-0.025794299935,0.573767493807,0.818983477047,0.00613793743677,0.0,0.818982058763,-0.57367640347,-0.0120215817231,0.0,-0.00632440869017,0.0119246830425,-0.999908897745,0.0,0.260916417443,-0.265241054486,0.304952909689,1.0,-0.00599818181819,-0.00788332467533,3.291
-0.665609941461,-0.516052744071,-0.124827199294,-2.63799972771,-0.0669292895317,2.1114117629,-0.913424706469,-0.0281822922404,0.00930140635755,0.00383171391931,0.00126058582657,0.000562691440345,0.00161149162314,-0.0287379941685,0.573735508236,0.819005913994,0.00613403078217,0.0,0.819004375537,-0.57364431077,-0.0120326419786,0.0,-0.00633617507217,0.0119275816542,-0.999908788681,0.0,0.260829010936,-0.265360160423,0.304947728565,1.0,-0.00565818181819,-0.00743646753247,3.308
-0.666003522812,-0.515968332069,-0.124791786428,-2.63796307815,-0.0669081589931,2.11143071504,-0.913830380926,-0.0245788123536,0.0070054190487,0.000295236004605,0.000987321897257,0.000184148227469,0.00230336417099,-0.0216821092251,0.573711539668,0.819022692717,0.00613554953607,0.0,0.819021007149,-0.573620026881,-0.0120582548543,0.0,-0.00635663265531,0.0119433338648,-0.99990847081,0.0,0.260743719096,-0.265463821559,0.304935688855,1.0,-0.00533818181819,-0.0070158961039,3.324
-0.666372451931,-0.515887181792,-0.124768412128,-2.63793010576,-0.0668940952048,2.11144193228,-0.914210722046,-0.0267651626731,0.00798354225496,0.000430396552378,0.00370162568658,-0.000450784571104,-0.000352129329402,-0.0189231159768,0.573693485798,0.81903531925,0.00613816545378,0.0,0.819033444865,-0.573601547155,-0.0120924850758,0.0,-0.0063834340745,0.0119649730747,-0.999908041366,0.0,0.260659647372,-0.265562327309,0.304922233397,1.0,-0.00501818181819,-0.00659532467533,3.34
-0.666770557497,-0.515810563061,-0.124749949106,-2.63789834977,-0.0668681322576,2.11144947548,-0.914636184866,-0.0223130480851,0.00225168555419,0.00115452620196,0.00465079818117,0.000496486645375,0.00254278387098,-0.0190381753118,0.573670867353,0.819051041274,0.00615423757859,0.0,0.819049146852,-0.573578432318,-0.012125342146,0.0,-0.006401459416,0.0119968095599,-0.999907544665,0.0,0.260567031498,-0.265667518455,0.3049094747,1.0,-0.00465818181819,-0.00612218181819,3.358
-0.667116565058,-0.515759574938,-0.124739480002,-2.63787468793,-0.0668520518772,2.11145707653,-0.914974979864,-0.0173911446773,0.000469447807875,-0.000771440039589,0.00433810399798,0.0038276595888,-0.000100324407799,-0.0227352237154,0.573677528294,0.819046296693,0.00616476310315,0.0,0.819044423409,-0.573584827157,-0.0121418877656,0.0,-0.00640887702105,0.012014974329,-0.999907279045,0.0,0.260484287264,-0.265760162269,0.304902308697,1.0,-0.00433818181819,-0.00570161038962,3.374
-0.667461728031,-0.515726476709,-0.124724252664,-2.63784366866,-0.0668296482086,2.11146647048,-0.915297340061,-0.0199122229808,0.0011758275488,-0.000110821477844,0.00141462102203,0.000416529725593,0.000129951671411,-0.0172144626665,0.573696525976,0.819032907996,0.00617564607245,0.0,0.819031236707,-0.573603884781,-0.0121310990306,0.0,-0.00639351783306,0.0120178477911,-0.999907342839,0.0,0.260405704644,-0.265853388442,0.304905355291,1.0,-0.00399818181819,-0.00525475324676,3.391
-0.667785605446,-0.515676157166,-0.124701878092,-2.63779852473,-0.0668147727853,2.11147374131,-0.91560348276,-0.0184315457532,0.00585199819507,0.00163533846858,0.00434871101027,0.000154173727873,-5.32603639221e-05,-0.0158153185345,0.573703811097,0.819027806989,0.00617538761281,0.0,0.819026160825,-0.573611223065,-0.0121268115848,0.0,-0.00639004728481,0.0120152333613,-0.999907396444,0.0,0.260336129618,-0.265943336872,0.304908443076,1.0,-0.00365818181819,-0.0048078961039,3.408
-0.668061567738,-0.51565411874,-0.12467646194,-2.63774834041,-0.0667961092144,2.11147751751,-0.915872355197,-0.0181563334869,-0.000820331466509,0.00128827689431,0.00633314756441,0.00364124523788,0.000198851789526,-0.016590011545,0.573701929451,0.819029132547,0.00617438942331,0.0,0.819027691709,-0.573609757326,-0.0120927008811,0.0,-0.00636270679589,0.0119948326826,-0.999907815727,0.0,0.260281510136,-0.266021068702,0.304924034144,1.0,-0.00333818181819,-0.00438732467533,3.424
-0.668342857655,-0.515615606559,-0.124651169275,-2.63769440152,-0.0667823194046,2.1114879479,-0.916125432746,-0.0201877276463,-0.000896407729619,0.00106133070628,0.000474011887901,0.000213267437981,0.000548908633203,-0.0143285929239,0.573715599596,0.819019600606,0.00616859012527,0.0,0.819018265467,-0.573623791906,-0.01206536749,0.0,-0.00634344453543,0.011974508075,-0.999908181719,0.0,0.260226497224,-0.266102332646,0.304935811481,1.0,-0.00297818181819,-0.00391418181819,3.442
-0.668580124165,-0.515593654692,-0.124628467175,-2.63766440338,-0.0667650455619,2.1115069426,-0.916355962542,-0.0161232171006,0.00237807152635,-0.00016768204151,-0.000319421862315,0.00554465610026,0.00476355348857,-0.00901148140239,0.573713824093,0.819020844233,0.006168602608,0.0,0.81901969331,-0.573622364577,-0.0120362672231,0.0,-0.00631962700075,0.0119578101374,-0.999908532362,0.0,0.260179222759,-0.266167615693,0.304943498483,1.0,-0.00263818181819,-0.00346732467533,3.459
-0.668793992036,-0.515571195744,-0.124605271263,-2.63764506336,-0.0667524297168,2.11151568371,-0.916539434043,-0.0149392490339,0.00320573950256,-0.000638111299833,0.00295267370049,0.000510933965851,-0.000393601898394,-0.0052313546467,0.573728608644,0.819010499745,0.00616699543037,0.0,0.819009376282,-0.573637244472,-0.0120291403832,0.0,-0.00631449558504,0.0119525191793,-0.999908628041,0.0,0.260133839369,-0.266222904341,0.304945290569,1.0,-0.00231818181819,-0.00304675324676,3.475
-0.668996121561,-0.515557794218,-0.124580216927,-2.63763167419,-0.0667412084233,2.11152390093,-0.916728725213,-0.0136263678615,6.19593880837e-05,0.00453845245155,-0.00035133438881,0.000203376633046,0.00458857694492,-0.0140099837794,0.573726780493,0.819011803737,0.0061638937477,0.0,0.81901070374,-0.573635550874,-0.0120195188387,0.0,-0.00630842067529,0.0119444447701,-0.999908762872,0.0,0.260090635134,-0.266273401269,0.304947720914,1.0,-0.00197818181819,-0.0025998961039,3.492
-0.669188546774,-0.515529831322,-0.124548962392,-2.63760720595,-0.066730415943,2.11153453883,-0.916899393949,-0.00835018309117,0.00216130338573,0.00391579643872,0.00405688819895,0.000255328092914,-0.000357048957146,-0.0106798069806,0.573736451976,0.819005079203,0.00615717592233,0.0,0.819003987828,-0.573645430845,-0.0120056025659,0.0,-0.0063007349543,0.0119310331635,-0.99990897145,0.0,0.260049757926,-0.266327406169,0.304951925028,1.0,-0.00161818181819,-0.00212675324676,3.51
-0.66935239283,-0.515504465069,-0.124535692355,-2.63758846132,-0.0667190203104,2.1115446479,-0.917025962037,-0.00909877947285,0.00355635230043,-0.00019767801413,0.00157704995163,0.00463741545183,0.000139610471089,-0.00792833398567,0.573755179908,0.818991957033,0.00615749509064,0.0,0.818990864769,-0.573664143902,-0.0120066784649,0.0,-0.00630116026053,0.0119320559209,-0.999908956566,0.0,0.260019497673,-0.266367568155,0.304950490545,1.0,-0.00131818181819,-0.00173246753247,3.525
-0.669509207067,-0.515472936637,-0.124512706737,-2.63756075711,-0.0667098336562,2.11154860395,-0.917140298164,-0.0081075153707,0.00241977525208,0.00191710505457,0.00203765165417,0.00199615113678,-0.00020351429169,-0.00730559341573,0.573782680908,0.818972736371,0.00615134717989,0.0,0.818971555504,-0.573691648971,-0.0120095827893,0.0,-0.00630666579544,0.011928898646,-0.999908959528,0.0,0.259989380484,-0.266409504102,0.304950667868,1.0,-0.000958181818187,-0.00125932467533,3.543
-0.669646554026,-0.515448037059,-0.124499027681,-2.63755529484,-0.0666992660654,2.11155336814,-0.917189512862,-0.00647444916712,0.00128232752424,0.000571128638921,-0.000263677542758,0.000626075453244,0.00342222581829,-0.000422002106807,0.57384630556,0.818928131025,0.00615473094288,0.0,0.818926934364,-0.573755132545,-0.0120196070264,0.0,-0.00631200737554,0.011937911871,-0.999908818254,0.0,0.259958700543,-0.266443105579,0.304946339286,1.0,-0.000618181818187,-0.000812467532475,3.56
