nelsonifechukwu/NELSON_IML_WORK/CNN-GradCAM/train2dof/data_sample_2022-02-21-09-52-10/robot_state.csv
position_joint1,position_joint2,position_joint3,position_joint4,position_joint5,position_joint6,position_joint7,velocity_joint1,velocity_joint2,velocity_joint3,velocity_joint4,velocity_joint5,velocity_joint6,velocity_joint7,ee_T_00,ee_T_10,ee_T_20,ee_T_30,ee_T_01,ee_T_11,ee_T_21,ee_T_31,ee_T_02,ee_T_12,ee_T_22,ee_T_32,ee_T_03,ee_T_13,ee_T_23,ee_T_33,v_x,v_y,time
0.465085432613,0.547645038412,-0.123958027424,-1.35575093914,0.0794546789461,1.89408683867,0.159170808385,0.00374370658425,0.000648363883199,0.00107146484777,0.00112478941875,-0.000279075336647,7.3889793786e-05,0.000718283445776,0.573767508359,0.819003767491,0.00210287617622,0.0,0.818962937524,-0.573708650205,-0.0117829768046,0.0,-0.00844402671627,0.00848303021735,-0.99992836574,0.0,0.661689256559,0.26091918745,0.303347603405,1.0,0.0,0.0,0.0
0.465082350205,0.547645035083,-0.123960609075,-1.35575190451,0.0794591951898,1.89408686435,0.159171622187,-0.000410204181237,-6.84635904659e-05,0.000596085162126,0.00108610206849,0.000171111649907,-0.000128802667801,0.00125716405448,0.573773752386,0.818999390334,0.00210395017906,0.0,0.818958546121,-0.573714860933,-0.0117857957054,0.0,-0.00844565461799,0.00848559158046,-0.999928330259,0.0,0.661690184061,0.26091627285,0.303347242276,1.0,-0.00028,-0.000368,0.015
0.465082166927,0.5476401618,-0.123962971321,-1.35575818297,0.0794588383685,1.89408603359,0.159172334256,0.000143015726503,-0.000864961600898,5.47324256372e-05,-0.000645358535094,7.65606373775e-05,-0.000167027073096,0.000508982764826,0.573776370242,0.818997562326,0.00210160817964,0.0,0.818956695398,-0.573717495395,-0.0117861546537,0.0,-0.00844726518548,0.00848390646761,-0.999928330953,0.0,0.6616893181,0.260913988487,0.303347711451,1.0,-0.00062,-0.000814857142857,0.032
0.465078623723,0.547605207424,-0.123963229532,-1.35578507228,0.0794580778475,1.89409235741,0.159174303012,-0.000200289676844,-0.00518758276412,7.36910698715e-05,-0.00564859202788,-2.15724082233e-05,0.0010738519274,0.00147559644499,0.573782311498,0.818993365854,0.00211485230055,0.0,0.818952661004,-0.57372337407,-0.0117803217654,0.0,-0.0084348275725,0.00849146765897,-0.999928371765,0.0,0.661686366517,0.2609090703,0.303360231433,1.0,-0.00094,-0.00123542857143,0.048
0.465080829352,0.547488881194,-0.123960820776,-1.3559018511,0.0794576033926,1.89411746988,0.159167554373,-0.000425517975835,-0.0047461261175,0.00088918154589,-0.00580267184302,-7.12155662293e-05,-0.000562428200267,0.000824846739646,0.573779508128,0.818995259705,0.00214185286704,0.0,0.818954812457,-0.573720371844,-0.0117769684432,0.0,-0.00841661875139,0.00851162774884,-0.999928353794,0.0,0.661666576595,0.260901221342,0.303389153153,1.0,-0.00126,-0.001656,0.064
0.4650691633,0.547335531501,-0.123960925407,-1.35610883571,0.079451417485,1.89417352567,0.159158887338,-0.00149823632385,-0.00729967417126,0.000311819860181,-0.00926572456773,-0.000596813609671,0.00302147913998,-0.00154013260568,0.573791811451,0.818986622594,0.00214849360228,0.0,0.818946180074,-0.573732565328,-0.011783230658,0.0,-0.00841780960276,0.00852078594406,-0.999928265771,0.0,0.661637767305,0.260873690185,0.303404121559,1.0,-0.00164,-0.00215542857143,0.083
0.465049970045,0.54717433482,-0.123963671564,-1.35632993989,0.0794482929831,1.89428931251,0.159155970996,0.000465488548506,-0.00988513583325,-0.000500024319228,-0.0126022751526,0.000184561096393,0.00560080529815,-0.00167586448121,0.573818806951,0.818967572413,0.00219977896565,0.0,0.818927765562,-0.573759328328,-0.0117598830509,0.0,-0.00836898030105,0.00854966674279,-0.999928429122,0.0,0.661620236949,0.260842640302,0.303423206276,1.0,-0.00198,-0.00260228571429,0.1
0.465032236403,0.546969500404,-0.12395833076,-1.35655076834,0.0794467406868,1.89439472101,0.159132869011,-0.000451325234816,-0.00612228621978,0.00191126316848,-0.0156417511966,0.000177230571549,0.00687356005721,0.00149215135092,0.573822662854,0.818964639069,0.00228439309233,0.0,0.818925835213,-0.573762764378,-0.0117266165721,0.0,-0.00829314428163,0.00859991244373,-0.999928630085,0.0,0.661599516268,0.260817395101,0.303472159095,1.0,-0.00232,-0.00304914285714,0.117
0.465003373695,0.54676229842,-0.123961174837,-1.35682530911,0.0794378640932,1.89452533696,0.159121673996,-0.000251952452457,-0.0126080020006,-0.00632457403404,-0.017309747162,-0.0010578337465,0.00219111450213,0.00104086498806,0.573852263183,0.81894373814,0.002341090042,0.0,0.818905658195,-0.573792137862,-0.0116983933105,0.0,-0.00823718547915,0.00863044752143,-0.999928829543,0.0,0.661576748524,0.260774226256,0.30349966011,1.0,-0.00266,-0.003496,0.134
0.464968970052,0.546543993405,-0.123957680477,-1.35714735036,0.0794296020589,1.89464456271,0.159076795194,0.000236324992442,-0.0171296309564,0.000578792545089,-0.0166681741677,5.46903445767e-05,0.0048984538192,-0.0028395848662,0.573857048062,0.818940326577,0.00236152406772,0.0,0.818902396642,-0.573796726072,-0.0117016590756,0.0,-0.0082280841424,0.0086491037754,-0.999928743279,0.0,0.661541042583,0.26072488742,0.303511204232,1.0,-0.00296,-0.00389028571429,0.149
0.464927438348,0.546249089818,-0.123966973623,-1.35758911904,0.0794128056372,1.89481003605,0.158950667617,-0.00603108103215,-0.0179951857152,-0.00160048126877,-0.0247991260965,-0.00209438891126,0.00601133879075,-0.000619776880541,0.573814514961,0.818970071753,0.00238136381746,0.0,0.818932353765,-0.573754077495,-0.0116963847156,0.0,-0.00821282995197,0.00866189796699,-0.999928757936,0.0,0.661494359496,0.260651983725,0.303524414588,1.0,-0.00332,-0.00436342857143,0.167
0.464883397682,0.545952935867,-0.123964742308,-1.35807821798,0.0793896690233,1.89497058337,0.158932610206,-0.00593194550534,-0.0183390073355,-0.000943121391597,-0.0259904046022,3.8837621853e-05,0.00337606103045,-0.00150780983645,0.573855343436,0.818941532845,0.00235743334343,0.0,0.818903410034,-0.573794889924,-0.0117207607901,0.0,-0.0082460933646,0.00865669808065,-0.999928529207,0.0,0.661434188337,0.260577124492,0.303515139206,1.0,-0.00366,-0.00481028571429,0.184
0.464833887337,0.545643878926,-0.123958994797,-1.35859382948,0.079320835327,1.89515319576,0.158890847185,-0.00137700715727,-0.01855991321,0.00344921743936,-0.0346077076872,-0.00243758779444,0.00868281390072,0.00110102858808,0.573868197562,0.818932641321,0.00231683137444,0.0,0.818894278501,-0.57380819332,-0.0117074684533,0.0,-0.00825837023763,0.0086159496598,-0.99992877983,0.0,0.661375806619,0.26049180731,0.303504077031,1.0,-0.00398,-0.00523085714286,0.2
0.46477778902,0.545294565713,-0.123966836651,-1.35920587946,0.0792643292653,1.89535852856,0.158765706444,-0.00120797117397,-0.0244650094542,-0.00135013898858,-0.0354909646719,-0.000588331919128,0.0142061373407,-0.00178670907938,0.573836259716,0.818955193147,0.00225511728097,0.0,0.818916200107,-0.573776666845,-0.0117192442794,0.0,-0.00830376215868,0.00857184441306,-0.999928782973,0.0,0.661304954759,0.260386886019,0.303478033995,1.0,-0.00432,-0.00567771428571,0.217
0.464719821724,0.544906697728,-0.123966849696,-1.35985907948,0.079251899295,1.89555704014,0.158705795642,-0.00292903440849,-0.0253413923,-0.000576837811004,-0.0374569582956,-9.52045298438e-05,0.012666336289,-0.00232990936787,0.573867601149,0.818933345228,0.00221344206361,0.0,0.818893511065,-0.573807854606,-0.0117775392253,0.0,-0.00837509040094,0.00857148655333,-0.999928191161,0.0,0.661220451809,0.260287560887,0.303458897725,1.0,-0.00464,-0.00609828571429,0.233
0.464645059745,0.54449789462,-0.123970574874,-1.36056951893,0.0792226277836,1.89581268154,0.158635945145,-0.0052559920325,-0.0235645323563,-0.00107590375557,-0.0466015755592,-0.00016091413635,0.0158471751587,-0.00283589270125,0.573906116209,0.818906446116,0.00217926342089,0.0,0.818866048906,-0.573846376276,-0.011810050147,0.0,-0.00842092590619,0.00856254969468,-0.999927882774,0.0,0.661140824824,0.260169620326,0.303432358102,1.0,-0.00498,-0.00654514285714,0.25
0.464578054936,0.54398991939,-0.123978704332,-1.36137941023,0.0791816896154,1.89610127506,0.158513445259,-0.00667636934405,-0.0355925198481,-0.0015499604126,-0.0439553604252,-0.000743925632431,0.0169883859912,-0.00375624045742,0.573900558243,0.818910365022,0.00217030153382,0.0,0.818869796703,-0.573840798653,-0.011821199168,0.0,-0.00843525736503,0.00856155201381,-0.999927770522,0.0,0.661047057063,0.260044111477,0.303431604053,1.0,-0.00534,-0.00701828571429,0.268
0.464496215423,0.54349212463,-0.123973634216,-1.36221254222,0.0791439167146,1.89638688924,0.158411366957,-0.00862131824119,-0.0289304211614,-0.00186250918022,-0.0531878905461,-0.00576594537621,0.0103662317036,-0.00642710526523,0.573916692615,0.818899148878,0.00213560424363,0.0,0.818857951727,-0.573856888925,-0.0118605576598,0.0,-0.00848723277111,0.00855589326875,-0.999927379148,0.0,0.66094760897,0.259913863303,0.303411843354,1.0,-0.00568,-0.00746514285714,0.285
0.464436215556,0.542994590537,-0.123990231497,-1.36302216915,0.0790903919063,1.89667995105,0.158325966606,-0.00660342457703,-0.0266756843567,0.000173224504336,-0.0527795728089,-0.00463523302252,0.0204738938702,-0.000480009731315,0.573938303665,0.818884064192,0.00211184735854,0.0,0.818842665988,-0.573878701086,-0.0118605100625,0.0,-0.0085006021273,0.0085366361038,-0.999927430171,0.0,0.660855107829,0.259786248003,0.303404362179,1.0,-0.006,-0.00788571428571,0.301
0.464353365242,0.542410117906,-0.123983212775,-1.36393039918,0.0790438551391,1.89699480931,0.158189606619,-0.00337706222053,-0.034741304086,0.000717005613256,-0.0566613990083,0.000237212562905,0.0172132593189,-0.0113778156992,0.573927507294,0.818891632258,0.00211137177183,0.0,0.818850079865,-0.573867759382,-0.0118780616405,0.0,-0.00851536104398,0.00854620779376,-0.999927222831,0.0,0.660746532968,0.259649272083,0.303412506073,1.0,-0.00634,-0.00833257142857,0.318
0.464279988592,0.541847506741,-0.123992321339,-1.36480691487,0.0789865201397,1.89732594345,0.1580724465,-0.00593802282749,-0.033030212978,0.000585073477369,-0.05542578003,-0.00573092523821,0.0150163258465,-0.00310312901874,0.573931470231,0.818888830428,0.00212079708223,0.0,0.818847487076,-0.573871770738,-0.0118629911765,0.0,-0.00849756899751,0.00854531785251,-0.999927381795,0.0,0.660649642235,0.259512052976,0.303422135707,1.0,-0.00666,-0.00875314285714,0.334
0.464194593932,0.541215069384,-0.123989937001,-1.36578042238,0.0789293089734,1.89768810439,0.157934091322,-0.00432418923068,-0.0455503801878,0.000384869256844,-0.0633972170199,-0.00415391971355,0.0190429704056,-0.00707365074199,0.57392517249,0.818893193988,0.00214012221843,0.0,0.818852069725,-0.57386536394,-0.0118565963903,0.0,-0.00848130736355,0.00855740739307,-0.999927416468,0.0,0.66053873644,0.259365093117,0.303437211039,1.0,-0.007,-0.0092,0.351
0.464109536674,0.540529853193,-0.123995978149,-1.36683547018,0.0788666520063,1.89808180129,0.157809856436,-0.00760116467625,-0.0418988680791,0.000615217897432,-0.0672224430455,-0.000563828267123,0.0256263472543,-0.00764664288182,0.573939072788,0.818883401901,0.00215910151932,0.0,0.818842541718,-0.573879204411,-0.0118447253409,0.0,-0.00846054841137,0.00856627978292,-0.999927516359,0.0,0.660418658282,0.259205753111,0.303453697792,1.0,-0.00734,-0.00964685714286,0.368
0.464026422927,0.539848910208,-0.123995372999,-1.36787367154,0.078806825246,1.89846830384,0.15769352869,-0.00415268827007,-0.0424904052428,0.000358832067753,-0.0685169526264,-0.000627055763085,0.0264741698936,-0.00674285057305,0.573952921383,0.81887362559,0.00218546317667,0.0,0.81883307616,-0.573892914536,-0.0118348186895,0.0,-0.00843716149788,0.00858232353298,-0.999927576392,0.0,0.660298548927,0.259053472192,0.303474238264,1.0,-0.00766,-0.0100674285714,0.384
0.463916587563,0.539054029699,-0.123998805432,-1.36908569773,0.0787353532239,1.89893100719,0.157547306155,-0.00539350357777,-0.0489653759339,0.000443559562772,-0.0722067776652,4.30119645912e-05,0.0216959298853,-0.00597765993383,0.573973494157,0.818859102697,0.00222369870107,0.0,0.818819063333,-0.573913348224,-0.0118134310981,0.0,-0.00839748689947,0.00860156881978,-0.999927745003,0.0,0.660164737964,0.258865365205,0.30349916655,1.0,-0.00802,-0.0105405714286,0.402
0.463825477144,0.538379272365,-0.124002688583,-1.3701430296,0.0786728724273,1.89933946129,0.157405347295,-0.00543519952127,-0.0477374784905,0.000832838065697,-0.0663102538822,-0.000642771829621,0.030483319599,-0.00968676627631,0.573976371343,0.818857029436,0.00224441174254,0.0,0.818817278466,-0.573916164367,-0.0118003248081,0.0,-0.00837483598177,0.00861103651796,-0.999927853484,0.0,0.660047253462,0.258703926736,0.303508061766,1.0,-0.00832,-0.0109348571429,0.417
0.46371680148,0.53760301248,-0.124008418289,-1.37137001489,0.0786073559154,1.89981218971,0.157261344502,-0.00340565242541,-0.0456033676266,0.000572277401835,-0.071266736463,-0.00599557585454,0.0283061648462,-0.0039130617713,0.574001748737,0.818839184456,0.0022648064101,0.0,0.818799664307,-0.5739414247,-0.0117939664818,0.0,-0.00835765658859,0.00862434615882,-0.999927882514,0.0,0.659910894772,0.258514895416,0.303513424823,1.0,-0.00866,-0.0113817142857,0.434
0.463594071589,0.536666032996,-0.124012652268,-1.37282196248,0.0785093479347,1.90034670719,0.157073786838,-0.00913047425737,-0.0521420670257,0.000824631321517,-0.0742581957457,-0.00192490139255,0.0245963958611,-0.0107571209586,0.574005281155,0.818836681303,0.00227452427439,0.0,0.81879738031,-0.573945015369,-0.0117777855149,0.0,-0.00833879148208,0.00862305162365,-0.99992805118,0.0,0.659743745626,0.25829182909,0.303530293593,1.0,-0.00904,-0.0118811428571,0.453
0.463493650662,0.53587258061,-0.12402025899,-1.37407241286,0.0784394457964,1.90081503291,0.156915775116,-0.0102224056002,-0.05309939401,-0.0002540529887,-0.0772002502375,-0.000550154475174,0.034926238204,-0.00620945170792,0.57401353962,0.818830864247,0.00228451113707,0.0,0.818791673484,-0.573953214491,-0.0117749696141,0.0,-0.00833066642604,0.0086296968325,-0.999928061577,0.0,0.659599475158,0.258103618756,0.303535994183,1.0,-0.00936,-0.0123017142857,0.469
0.463377011254,0.534975031894,-0.124018994314,-1.37549017933,0.0783723034486,1.90132336687,0.156749428719,-0.0063916216616,-0.0525102306398,0.00147047495685,-0.0814090065571,-0.0112762584295,0.0267401713994,-0.00657888204454,0.574031707787,0.818818127372,0.00228465384802,0.0,0.818778731378,-0.573971165408,-0.0117998824032,0.0,-0.00835079295956,0.00864429905647,-0.999927767567,0.0,0.659428778909,0.257894541881,0.303538556751,1.0,-0.0097,-0.0127485714286,0.486
0.463265109085,0.534183783458,-0.124022187743,-1.37679070971,0.0782923670835,1.90179540554,0.156591394722,-0.00374294373462,-0.0536513555675,-7.59870105221e-05,-0.088148862132,-0.0061586756572,0.0349225630363,-0.0110353164762,0.574046022754,0.818808187347,0.00225011016433,0.0,0.818768336883,-0.573985606521,-0.0118186685128,0.0,-0.00838585314806,0.00862694470649,-0.999927624027,0.0,0.659275466004,0.257694014411,0.303518740899,1.0,-0.01,-0.0131428571429,0.501
0.463126822226,0.53326704049,-0.124027598896,-1.37826274898,0.0781952707622,1.90234782193,0.156407358908,-0.00868676129551,-0.0580989464548,0.000163652734658,-0.0890109752281,-0.00677173046997,0.0373499274546,-0.0100078123948,0.574066925307,0.818793559683,0.00224026586884,0.0,0.818753670129,-0.574006636098,-0.0118133935527,0.0,-0.00838696455864,0.00861607030245,-0.999927708466,0.0,0.659109524289,0.257458792364,0.303512670585,1.0,-0.01034,-0.0135897142857,0.518
0.462996440939,0.532334709311,-0.12403302508,-1.37979268439,0.0781345195057,1.90292187421,0.156215167488,-0.0107873066197,-0.0539304868829,-0.00095349199522,-0.091058211595,-0.0054293844701,0.033232769866,-0.00978549517445,0.574087614034,0.818779070626,0.00223423786326,0.0,0.818738834755,-0.574027070833,-0.0118485997675,0.0,-0.00841903458215,0.00863155785911,-0.999927305391,0.0,0.658930394547,0.257229445841,0.30349180523,1.0,-0.01068,-0.0140365714286,0.535
0.462865367066,0.531361199565,-0.124022759931,-1.38136674373,0.0780216999658,1.90348849959,0.156013547986,-0.00236945400152,-0.0548640898776,0.00127190021786,-0.0972304556794,-0.0019694991705,0.0356779457185,-0.0140379621608,0.574078002523,0.818785909556,0.00219732403638,0.0,0.818745252119,-0.574017666242,-0.011860770492,0.0,-0.00845029163426,0.0086082217895,-0.999927242898,0.0,0.658739627642,0.256995211114,0.303477508135,1.0,-0.01102,-0.0144834285714,0.552
0.462707702791,0.530207405131,-0.124035438754,-1.38320836782,0.0779088722454,1.90413692284,0.155777198455,-0.00867992518025,-0.0610803310976,-0.000308806061684,-0.103169312398,-0.0104889136999,0.0329099597724,-0.0120267371585,0.574092176705,0.81877607044,0.00216009781362,0.0,0.818734928756,-0.574031987263,-0.0118802749969,0.0,-0.0084874830474,0.00858908582887,-0.99992709246,0.0,0.658519058381,0.256706308282,0.303470511342,1.0,-0.0114,-0.0149828571429,0.571
0.462583120798,0.529288114753,-0.124037140995,-1.38465680446,0.0778190382267,1.90467468927,0.155587503065,-0.0119830658163,-0.0584147564197,0.00118176613251,-0.101931189096,-0.00589884718388,0.0338253048926,-0.0132644180199,0.574098441997,0.818771633142,0.00217682318475,0.0,0.818730726672,-0.5740382027,-0.0118695385614,0.0,-0.00846902485899,0.00859668113599,-0.999927183695,0.0,0.658340252146,0.256471258253,0.303482001953,1.0,-0.01172,-0.0154034285714,0.587
0.462449288151,0.528201835322,-0.124034753735,-1.38634448566,0.077704932756,1.90532643664,0.155347150463,-0.00385409101767,-0.0648055811458,3.81336151908e-06,-0.0938062439594,-0.0113895192293,0.0439403639745,-0.0149157476229,0.574067747942,0.818793091191,0.00220033921613,0.0,0.818752549871,-0.574007479365,-0.0118500047723,0.0,-0.00843985336425,0.00860440455796,-0.999927363911,0.0,0.658140476522,0.256221455958,0.30349171118,1.0,-0.01206,-0.0158502857143,0.604
0.462315712916,0.527142488142,-0.124037862236,-1.38797668262,0.0776067948937,1.90595647737,0.155118685682,-0.0068967313787,-0.0661127587619,-0.000152553741747,-0.106430454802,-0.00996672019338,0.0410310238497,-0.0135932684215,0.574052960887,0.818803328637,0.00224811300769,0.0,0.818763472948,-0.573992572884,-0.011817298382,0.0,-0.00838580453394,0.00862459398976,-0.999927644713,0.0,0.657964813377,0.255995711465,0.303516737165,1.0,-0.01236,-0.0162445714286,0.619
0.462164884999,0.525966405739,-0.124043627786,-1.38979893808,0.0774902009161,1.90663481588,0.154873043707,-0.00584101929924,-0.0735558601283,-0.000716240657656,-0.106641051045,-0.00311705546696,0.0425279219322,-0.0129172531132,0.574046277049,0.81880795305,0.0022704028111,0.0,0.818768449682,-0.573985868176,-0.0117981286958,0.0,-0.00835738338414,0.00863177223214,-0.999927820721,0.0,0.657750113125,0.255719454262,0.303535890096,1.0,-0.0127,-0.0166914285714,0.636
0.462025402271,0.524868561377,-0.124051381134,-1.39153858651,0.0773763957645,1.90724966813,0.154644930528,-0.00643059698887,-0.0643284529879,-0.00018227756572,-0.109996391628,-0.00968398959048,0.0342137754311,-0.0145480792747,0.574041949872,0.818811066657,0.00224138548163,0.0,0.818771228169,-0.573981696939,-0.011808234521,0.0,-0.00838236024766,0.00861376975434,-0.999927766895,0.0,0.657536903017,0.255454481662,0.303533597886,1.0,-0.01302,-0.017112,0.652
0.461867669937,0.523667280534,-0.124061564665,-1.39343092226,0.0772628625678,1.90793678267,0.154375838427,-0.0101723936541,-0.0694483561332,-0.000623793443406,-0.112242919453,-0.0054997837014,0.040630714514,-0.0171677034691,0.574028928041,0.818820209395,0.0022363722209,0.0,0.818780293559,-0.573968683669,-0.0118121948904,0.0,-0.00838861778064,0.00861180487822,-0.999927731343,0.0,0.657309597007,0.255164289435,0.303537433768,1.0,-0.01336,-0.0175588571429,0.669
0.461725823609,0.522521642031,-0.124065963538,-1.39524823821,0.0771523712363,1.90862913855,0.154138094777,-0.0117002393311,-0.0767191373327,-0.000810118992551,-0.116025176293,-0.0149362221548,0.0436234951834,-0.0159406454656,0.574021251814,0.818825550597,0.00225101239952,0.0,0.818785845195,-0.573960972376,-0.011802067565,0.0,-0.00837200239342,0.00861790060904,-0.999927818077,0.0,0.657093397482,0.254896941532,0.303537830539,1.0,-0.01368,-0.0179794285714,0.685
0.461549753778,0.521223991294,-0.124063441507,-1.39734568532,0.0770236584172,1.90944683871,0.153855402029,-0.00693284302098,-0.0796436969621,0.000159548285569,-0.118431392974,-0.00514539156807,0.046652322696,-0.0165304763377,0.574009875209,0.818833493797,0.00226263114106,0.0,0.81879395821,-0.573949571769,-0.0117936409092,0.0,-0.0083585529438,0.00862246106358,-0.999927891279,0.0,0.656847723883,0.254585467197,0.303522049326,1.0,-0.01404,-0.0184525714286,0.703
0.461371632497,0.519854699456,-0.124074727371,-1.39949581686,0.0768851812248,1.91022845865,0.153552962923,-0.0108992276451,-0.0751855895657,0.000161362891974,-0.121301363494,-0.00854693673553,0.0464107217118,-0.0155496223941,0.57399315991,0.818845228189,0.00225644648371,0.0,0.818805678145,-0.573932950294,-0.0117888466919,0.0,-0.0083583527961,0.00861447441298,-0.99992796179,0.0,0.656587702807,0.25425536786,0.303528371516,1.0,-0.0144,-0.0189257142857,0.721
0.461203245653,0.518567094283,-0.124079832133,-1.40145026435,0.0767550436552,1.91093119987,0.153299564301,-0.011329863881,-0.0853291906492,-0.00130325368288,-0.119864024399,-0.0154421024339,0.0492668490577,-0.0163206110068,0.573995611033,0.818843442082,0.0022809591379,0.0,0.818804279603,-0.57393537874,-0.0117677370987,0.0,-0.00832697152471,0.00862245455912,-0.99992815483,0.0,0.656350938358,0.253953475088,0.303562991449,1.0,-0.01472,-0.0193462857143,0.737
0.461035052931,0.517227876732,-0.124080996625,-1.40357280825,0.0766226801853,1.91169916014,0.153005681401,-0.00996119390862,-0.0818465717026,7.36980083294e-06,-0.12647938192,-0.00514849529119,0.0482037456609,-0.0222364433092,0.573970162945,0.818861322365,0.0022657634954,0.0,0.818821932574,-0.573909960874,-0.0117790681465,0.0,-0.00834523975139,0.00861625639707,-0.999928055962,0.0,0.656087247399,0.253638837799,0.303559034576,1.0,-0.01506,-0.0197931428571,0.754
0.460856657736,0.515954780959,-0.124089697086,-1.4055991395,0.0764997540812,1.91244789893,0.152716550523,-0.00969982648058,-0.0857975724654,-0.000644867695901,-0.127168527789,-0.00779167174221,0.0532231836917,-0.013281275155,0.573959617084,0.818868731999,0.00225933883764,0.0,0.818829255795,-0.573899437903,-0.0117826962178,0.0,-0.00835200902454,0.0086129703748,-0.999928027753,0.0,0.655843812154,0.253323913245,0.303552692129,1.0,-0.01538,-0.0202137142857,0.77
0.460677025557,0.51456766935,-0.124094015594,-1.40780373916,0.0763603965662,1.9132775663,0.152418110515,-0.00689189993378,-0.0822815856163,0.00015453002243,-0.134995875183,-0.00637715220251,0.048068189457,-0.0213907045046,0.573944041822,0.818879635225,0.00226423753097,0.0,0.818840264996,-0.573883889489,-0.0117749185905,0.0,-0.00834299222764,0.00861235904242,-0.999928108292,0.0,0.65557668961,0.252993960354,0.303547920215,1.0,-0.01572,-0.0206605714286,0.787
0.460465043491,0.513105365333,-0.12409792337,-1.41020729874,0.076219384475,1.91411024223,0.152090576919,-0.0133188999105,-0.0798347186455,-0.00139341935803,-0.132198984838,-0.0104480229295,0.0460642681794,-0.0231152147753,0.573940207355,0.818882567074,0.0021740801024,0.0,0.818841860999,-0.573880238264,-0.0118416936043,0.0,-0.00844945752828,0.00857681701001,-0.999927519812,0.0,0.655272114576,0.252620485559,0.303501014504,1.0,-0.01608,-0.0211337142857,0.805
0.460274749629,0.511672432217,-0.124100408197,-1.41248255951,0.0760817544889,1.91493251065,0.15175201298,-0.0100556391891,-0.0828596021452,-0.000465230365874,-0.136508771631,-0.0101630848313,0.0525049543621,-0.0277935211446,0.573902459918,0.818909066565,0.00215733605628,0.0,0.818868068041,-0.57384248633,-0.0118589597848,0.0,-0.00847360174449,0.00857262485067,-0.999927351449,0.0,0.654988295386,0.252276773751,0.303493113162,1.0,-0.01642,-0.0215805714286,0.822
0.460065596462,0.51020908344,-0.12410581507,-1.41480130924,0.0759342123429,1.91581899174,0.151436124186,-0.0110011949814,-0.0835343399225,-0.000192407232793,-0.134782473221,-0.0129200610433,0.0535277955444,-0.0207497518628,0.573900266184,0.818910551851,0.00217702600424,0.0,0.818869883662,-0.57384028997,-0.0118398538683,0.0,-0.0084466786563,0.00857776146589,-0.999927535188,0.0,0.654712791363,0.2519170256,0.303490989581,1.0,-0.01676,-0.0220274285714,0.839
0.459885994808,0.508879855292,-0.124109585,-1.41689836718,0.0758025569134,1.91657903065,0.151143309567,-0.0103919863462,-0.0938653318554,-0.00152678289403,-0.138352002424,-0.0126050212932,0.049682704911,-0.0206736326428,0.57388368914,0.81892219364,0.00216771850163,0.0,0.81888138867,-0.573823735857,-0.011846449172,0.0,-0.00845759464879,0.00857375336221,-0.999927477293,0.0,0.654451877433,0.251596234144,0.30348903811,1.0,-0.01706,-0.0224217142857,0.854
0.459675779814,0.507365089833,-0.124115941079,-1.41928628273,0.0756514069069,1.91742809037,0.150805130844,-0.0121978019461,-0.0940775278152,-0.000629324687082,-0.139932242791,-0.0137774076162,0.0489329092489,-0.0171429470689,0.573866213699,0.818934502446,0.00214391670846,0.0,0.818893365105,-0.573806334295,-0.0118614590492,0.0,-0.00848372841525,0.00856269461979,-0.999927350668,0.0,0.654152562043,0.251224820272,0.303485787291,1.0,-0.0174,-0.0228685714286,0.871
0.459464087314,0.505808908937,-0.124119169669,-1.42171575817,0.0755011249197,1.91833803508,0.15048796503,-0.0135402707125,-0.0929192901184,-0.00117278431097,-0.147920876496,-0.00529963433488,0.0615091467365,-0.0185163890749,0.573867207996,0.818933730399,0.00217248786935,0.0,0.818892965085,-0.573807215164,-0.0118464535364,0.0,-0.00845503395791,0.00857749139185,-0.999927466891,0.0,0.653855178611,0.250854166798,0.303496350653,1.0,-0.01774,-0.0233154285714,0.888
0.45925750204,0.504273358995,-0.124121709563,-1.42403985946,0.075350477958,1.91923785539,0.150158163302,-0.0123474510572,-0.0965760808992,-2.29765518147e-05,-0.141295967948,-0.00870918742528,0.0518087406923,-0.0132279642807,0.573847235286,0.818947485627,0.00226124782658,0.0,0.818907978972,-0.573787005738,-0.0117873204518,0.0,-0.00835588270325,0.00861604102579,-0.999927968936,0.0,0.653578113155,0.250498792251,0.303541119453,1.0,-0.01806,-0.023736,0.904
0.458993712773,0.502395667027,-0.124122765743,-1.42681833562,0.0751717480874,1.92028151134,0.149764916344,-0.0151391512871,-0.106467726783,-0.00283540591637,-0.14963795865,-0.00446303055971,0.0508338954866,-0.0140733196319,0.57383610253,0.81895495109,0.00237958406178,0.0,0.818917045043,-0.573775495032,-0.011717573975,0.0,-0.00823097667034,0.00867281590778,-0.999928514089,0.0,0.653244014383,0.250062856809,0.303620283903,1.0,-0.01844,-0.0242354285714,0.923
0.458769751244,0.500793140407,-0.124128192773,-1.42924641551,0.0750214205009,1.92113122014,0.149435389486,-0.0169301824577,-0.100174284994,0.000542994562982,-0.153217933684,-0.0115558481878,0.0552197691915,-0.0208297569094,0.573836668051,0.818954491479,0.00240128880611,0.0,0.818916796986,-0.57377590641,-0.0117147658095,0.0,-0.00821621660263,0.00868898520673,-0.999928495104,0.0,0.652936512107,0.249679959041,0.303656824463,1.0,-0.01876,-0.024656,0.939
0.458520210676,0.499092620577,-0.124126662918,-1.43184876778,0.0748517259914,1.92208369041,0.149061659601,-0.0138890346603,-0.0938442256082,-0.000520141729658,-0.149954700201,-0.0106854241837,0.0596488876159,-0.0174527284845,0.57382033041,0.818965823063,0.00244048451894,0.0,0.818928656038,-0.573759447531,-0.0116918599822,0.0,-0.00817514008094,0.00870777731697,-0.999928668305,0.0,0.652614880795,0.249268972864,0.303686872238,1.0,-0.0191,-0.0251028571429,0.956
0.458265926296,0.49741725862,-0.124129883458,-1.43449278804,0.0746816940182,1.92305963703,0.148665646503,-0.0143379013915,-0.0997838211333,-0.000457358277008,-0.15556159185,-0.00786840415427,0.0507544030856,-0.0239427634916,0.57379475593,0.818983738666,0.00244146866534,0.0,0.818946603215,-0.573733892697,-0.0116888132178,0.0,-0.00817235197156,0.00870657982642,-0.999928701524,0.0,0.652288286128,0.248848491544,0.303681175081,1.0,-0.01944,-0.0255497142857,0.973
0.458006231367,0.495742256798,-0.124132782257,-1.4371900819,0.0745188386712,1.92399397266,0.148276050427,-0.0137084157248,-0.094895282721,-0.00197482005724,-0.15793332489,-0.00970992442137,0.054025778429,-0.024158075907,0.573782598151,0.818992468749,0.00236919650606,0.0,0.818954226127,-0.573721823664,-0.0117469767045,0.0,-0.0082615847726,0.00868064143434,-0.999928193763,0.0,0.651940100639,0.248416907925,0.303645686119,1.0,-0.01978,-0.0259965714286,0.99
0.457753191732,0.494175814583,-0.124132371333,-1.43977724568,0.0743595262509,1.92490033534,0.147918039781,-0.0123090499073,-0.104872325668,-0.00143615503313,-0.160490507155,-0.00490651255442,0.0552720891,-0.0220887068125,0.573783465238,0.81899213728,0.00227178222937,0.0,0.818952482761,-0.573722909229,-0.0118152996998,0.0,-0.00837342525836,0.00864007164976,-0.999927614836,0.0,0.651606335427,0.248002036023,0.303583948138,1.0,-0.02054,-0.0269954285714,1.006
0.457426163034,0.492131921007,-0.124135557011,-1.44302738051,0.0741506126704,1.92611466514,0.14745347439,-0.0174092249854,-0.108279375902,0.000812529905555,-0.17803038171,-0.00822380645475,0.0712017949162,-0.0191943916186,0.573779693944,0.818994780174,0.00227151166235,0.0,0.818955153964,-0.573719172294,-0.0118116061432,0.0,-0.00837059514591,0.00863769224337,-0.999927659088,0.0,0.651206101343,0.247477499706,0.303565032942,1.0,-0.022668,-0.0297922285714,1.025
0.457140472032,0.490289333785,-0.124145189907,-1.44602777701,0.0739647857516,1.92715938305,0.147013459412,-0.0180633767743,-0.116476443494,-0.000785053047422,-0.188981567602,-0.0161083866382,0.0722728079432,-0.032391113198,0.573759557023,0.819009152608,0.00217383759229,0.0,0.8189681258,-0.57369928925,-0.011877766565,0.0,-0.00848103373385,0.00859545127061,-0.999927092484,0.0,0.650815633608,0.246995605293,0.303509645857,1.0,-0.02446,-0.0321474285714,1.041
0.456785695305,0.488128901662,-0.124161808421,-1.44946288357,0.0737605181943,1.9284059165,0.146531325647,-0.0246310513274,-0.131164440688,0.000745139148543,-0.207085821698,-0.0171658163402,0.0746966676467,-0.037277494634,0.573782854055,0.81899289294,0.00215048988765,0.0,0.818951448698,-0.573722562562,-0.0119034778341,0.0,-0.00851524312314,0.00859132370337,-0.999926837219,0.0,0.650385743672,0.246428133139,0.303485095824,1.0,-0.026364,-0.0346498285714,1.058
0.456478691477,0.486187796544,-0.124189374607,-1.45240817257,0.0735760633062,1.92957127183,0.146103432027,-0.0221307556357,-0.139772861528,-0.0032106530344,-0.21247868334,-0.0108841480324,0.0843320042133,-0.0276950569245,0.57379998967,0.818980543189,0.00227785720496,0.0,0.818940961991,-0.573739402244,-0.0118129584047,0.0,-0.00836784776676,0.00864387240261,-0.999927628678,0.0,0.650041347482,0.245938140505,0.303533369353,1.0,-0.027932,-0.0367106285714,1.072
0.456072976517,0.483702420472,-0.124212181897,-1.45621949055,0.0733348425513,1.93090924614,0.145508874033,-0.0246400781278,-0.145048807284,-0.00231357146685,-0.230230952878,-0.00556826764346,0.0822325754256,-0.0375143987251,0.573783566514,0.818992029065,0.00228517543582,0.0,0.818952503589,-0.573722912097,-0.0118137166976,0.0,-0.00836444334471,0.0086501331867,-0.999927603021,0.0,0.649557938369,0.245294532243,0.303561046017,1.0,-0.029836,-0.0392130285714,1.089
0.455557395106,0.480563977768,-0.124255499571,-1.461098017,0.0730369265903,1.93262650101,0.144788126793,-0.0243516844516,-0.163303214876,-0.00416400469328,-0.24496652766,-0.0173405536386,0.0912741564867,-0.0414779822588,0.573804528401,0.818977403106,0.00226346831467,0.0,0.818937505673,-0.573743863134,-0.0118358869127,0.0,-0.00839483449887,0.00864529105258,-0.999927390212,0.0,0.648936849248,0.244466786312,0.303565631767,1.0,-0.032076,-0.0421570285714,1.109
0.455142133782,0.478080857995,-0.124269717057,-1.4649057452,0.0728069342506,1.93403283113,0.144231893396,-0.0244559284814,-0.168320661499,-0.000184782236047,-0.261102448234,-0.012306780667,0.0946961563117,-0.0350221836176,0.573822324643,0.818964733954,0.00233477679109,0.0,0.818925689471,-0.573761304275,-0.0118079524612,0.0,-0.00833085246378,0.00868784269185,-0.999927556519,0.0,0.648461900215,0.243829427268,0.303595891552,1.0,-0.033756,-0.0443650285714,1.124
0.454637247638,0.475127376231,-0.124293473269,-1.46943607702,0.0725218183476,1.93570360657,0.143577164196,-0.0321336972884,-0.181122840313,-0.00378460315742,-0.271157457317,-0.0195981252089,0.103232079772,-0.0477930148173,0.573858346825,0.818939277682,0.00240918059142,0.0,0.818901233278,-0.573797074855,-0.0117657947044,0.0,-0.00825324954105,0.00872494843795,-0.999927876973,0.0,0.647897686075,0.243058565911,0.303629393915,1.0,-0.03566,-0.0468674285714,1.141
0.454109197609,0.472024011735,-0.124301309612,-1.47423787946,0.0722298090018,1.93737204144,0.142875194651,-0.033670931996,-0.187954473689,0.00141667354181,-0.284492232179,-0.0101525791883,0.093605900228,-0.0365002445903,0.573872325213,0.818929532195,0.00239218639334,0.0,0.818890967958,-0.573810800284,-0.0118107991273,0.0,-0.00829970961049,0.00873699880328,-0.9999273872,0.0,0.647268295913,0.242251478873,0.303634620367,1.0,-0.037564,-0.0493698285714,1.158
0.453601593956,0.468946953599,-0.124303123224,-1.47888285915,0.0719286736007,1.93911999648,0.142146033938,-0.0309187535634,-0.195512960403,-0.000223689173849,-0.290515393575,-0.0141468016384,0.115140405089,-0.0418422636483,0.573831510977,0.818957685093,0.0025404601355,0.0,0.818921111946,-0.57376950838,-0.0117264898126,0.0,-0.0081460172243,0.00880963541945,-0.999928013773,0.0,0.64668333978,0.241483521102,0.303700542203,1.0,-0.039356,-0.0517250285714,1.174
0.453031786228,0.465534771177,-0.124298123689,-1.48406187176,0.071576819758,1.94100763433,0.141327869731,-0.0369691331815,-0.204136135371,0.000805206858349,-0.3093205677,-0.0216487448353,0.107124248247,-0.0472051625837,0.573772644895,0.818998635152,0.00263334205513,0.0,0.818963338531,-0.573710395403,-0.0116695865353,0.0,-0.0080467546585,0.00885247056965,-0.999928439192,0.0,0.646014035771,0.240622873879,0.303753052221,1.0,-0.04126,-0.0542274285714,1.191
0.452497479703,0.462434535104,-0.124317001594,-1.48891956088,0.071257392053,1.94267118636,0.140603990442,-0.0345912901225,-0.20569406869,-0.00307908761717,-0.325425842643,-0.0210309102114,0.117263213661,-0.0444058124713,0.573771059645,0.819000016074,0.00254787865771,0.0,0.818963486456,-0.573708980631,-0.011728610185,0.0,-0.00814414786264,0.00881632642421,-0.999927970028,0.0,0.645362450666,0.239795990314,0.303722532727,1.0,-0.04294,-0.0564354285714,1.206
0.451853299872,0.45880352587,-0.124313098368,-1.49457257234,0.0708703270875,1.94464055752,0.13975799102,-0.0400501505514,-0.214655045813,-0.000686422866088,-0.337748656925,-0.0172969497945,0.118014259383,-0.0514733275107,0.573758910156,0.819008696262,0.00249306316222,0.0,0.818971380611,-0.573696954045,-0.011765609218,0.0,-0.00820603151546,0.00879253978577,-0.99992767353,0.0,0.644606672488,0.238835463177,0.303702172908,1.0,-0.044844,-0.0589378285714,1.223
0.451160498763,0.455080108887,-0.12432728637,-1.50046458544,0.0704783067709,1.94673428247,0.1388398807,-0.0415448047085,-0.227539440778,-0.00246059352167,-0.351221495283,-0.0186290411111,0.118519439226,-0.0517321446067,0.573748650536,0.819016106421,0.0024187459391,0.0,0.818977758185,-0.573686903742,-0.0118116456916,0.0,-0.00828648473657,0.00875798352134,-0.999927313306,0.0,0.643828045675,0.23781446499,0.303640051005,1.0,-0.046748,-0.0614402285714,1.24
0.450441505582,0.451079518573,-0.12438660547,-1.50648642768,0.0700585488343,1.94893551718,0.137876749812,-0.0409359394601,-0.238955625598,-0.00545291482418,-0.356672453219,-0.0226986635827,0.135711659364,-0.0544329048773,0.573751217891,0.819013931946,0.00254286237439,0.0,0.818977617737,-0.57368946322,-0.0116965096124,0.0,-0.0081209473305,0.00879360330892,-0.999928358811,0.0,0.643056665935,0.236742075433,0.303712897681,1.0,-0.048652,-0.0639426285714,1.257
0.449685781559,0.446962658936,-0.124430862758,-1.51275479033,0.0696477746662,1.95108125492,0.136959901499,-0.0420267677349,-0.24146819598,7.16006263115e-05,-0.380620775054,-0.0224017129907,0.124782759414,-0.0572841629655,0.573821533601,0.818964701015,0.00253238385499,0.0,0.818928146866,-0.573759695424,-0.011715335183,0.0,-0.00814162293761,0.0087965213792,-0.999928165014,0.0,0.642212824191,0.235626820252,0.303739185324,1.0,-0.050556,-0.0664450285714,1.274
0.448897372539,0.442733920093,-0.124450489205,-1.51928055159,0.0691985102657,1.95329843228,0.135951456924,-0.0436992117173,-0.250625264985,-0.000921637835385,-0.385323618247,-0.0250664221448,0.142429638798,-0.0626851744259,0.573822609147,0.818964188247,0.0024532636813,0.0,0.818926506147,-0.573760953794,-0.0117682765629,0.0,-0.00823036861282,0.00876211451554,-0.99992774058,0.0,0.641317657096,0.234476627977,0.303721145935,1.0,-0.05246,-0.0689474285714,1.291
0.448127456393,0.438695093703,-0.124452870449,-1.52554164556,0.0687734697223,1.95551216437,0.134927228586,-0.0573686078185,-0.25732172536,-0.00389793687602,-0.388768016252,-0.0220788602593,0.147197711833,-0.0657416104047,0.573775478119,0.818997254148,0.00243830027434,0.0,0.818959278292,-0.573713779171,-0.0117875778326,0.0,-0.00825526635225,0.00876046040569,-0.999927549831,0.0,0.64046780725,0.233381760711,0.303694412527,1.0,-0.054252,-0.0713026285714,1.307
0.447256139022,0.434184603928,-0.124469215877,-1.53227584986,0.0683161157763,1.95797152362,0.133826401748,-0.0558270815215,-0.276457339536,0.00101487310151,-0.397803236877,-0.0283239987886,0.150537987406,-0.0679311788044,0.573767748269,0.819002084981,0.0026273074038,0.0,0.818966688147,-0.573705496532,-0.0116753524956,0.0,-0.00805499242169,0.00885078835997,-0.999928387757,0.0,0.639579095268,0.232176967208,0.30378125171,1.0,-0.056156,-0.0738050285714,1.324
0.446230161084,0.429070671131,-0.124508519834,-1.54021378284,0.0677330508036,1.96068278238,0.132582073534,-0.0516556405309,-0.273239012781,-0.000824031535198,-0.432113705159,-0.0264481958279,0.139312218439,-0.0640672300768,0.573797186903,0.818981871733,0.00249579171883,0.0,0.81894496746,-0.573735619184,-0.0117186369823,0.0,-0.00816558385552,0.00876820581785,-0.999928218327,0.0,0.638484069017,0.230726751099,0.30372445349,1.0,-0.058284,-0.0766018285714,1.343
0.445327341614,0.424585000409,-0.124563552597,-1.54710724256,0.067227484629,1.96294944142,0.131434487086,-0.0554180192249,-0.284144260361,-0.00697507059753,-0.428280171299,-0.0301700494701,0.149535279165,-0.0748472301852,0.573788727012,0.818988233821,0.00234872675941,0.0,0.818949517988,-0.573727811526,-0.0117827063607,0.0,-0.00830252785784,0.00868443993336,-0.999927821662,0.0,0.63751448248,0.229444688572,0.303693096525,1.0,-0.060076,-0.0789570285714,1.359
0.44433014193,0.419704973352,-0.124598899143,-1.55452045283,0.0667150151866,1.96550708994,0.130240603103,-0.0604621798892,-0.288651229349,-0.00330679624813,-0.434199096222,-0.025687205894,0.158269462269,-0.060377399764,0.573822850192,0.818964300274,0.00235762077534,0.0,0.818925648305,-0.573761842566,-0.0117846283326,0.0,-0.00829863683077,0.0086931725107,-0.999927778081,0.0,0.636487193041,0.228078540078,0.303701560547,1.0,-0.06198,-0.0814594285714,1.376
0.443232572663,0.41435846369,-0.124617628769,-1.5624146932,0.0661869145113,1.9684340404,0.128938974291,-0.0625060349722,-0.29424328852,0.000201175950224,-0.445947930423,-0.0325262631547,0.158832813703,-0.0699801403965,0.573851447094,0.818943292274,0.00267350105542,0.0,0.818908833344,-0.573789398802,-0.0116101418889,0.0,-0.00797417478657,0.00885202078299,-0.999929024614,0.0,0.635430407292,0.226632060206,0.30382196704,1.0,-0.063996,-0.0841090285714,1.394
0.442280716547,0.409844762882,-0.124643640151,-1.56931331567,0.0656885875896,1.97067791563,0.127752837638,-0.0661747211385,-0.309525718119,-0.000399156906532,-0.461297880587,-0.0313329326903,0.144951008364,-0.076395742247,0.57382038829,0.81896547394,0.00254192398287,0.0,0.818929139969,-0.573758620063,-0.0116985688935,0.0,-0.00812242960347,0.00879470229132,-0.999928337107,0.0,0.634432308047,0.225342122176,0.303788166599,1.0,-0.065676,-0.0863170285714,1.409
0.441169074422,0.404643835448,-0.124689857029,-1.57735487586,0.065127456507,1.97331448597,0.126476868606,-0.0642593030162,-0.302111322921,-0.0019478304165,-0.470916727256,-0.0342705702431,0.15688758584,-0.0723574417806,0.573887165197,0.818919224667,0.00236050693401,0.0,0.818880221092,-0.573825731007,-0.0118305046319,0.0,-0.00833386851639,0.00872251514149,-0.999927229535,0.0,0.63326338712,0.223834104944,0.303704313484,1.0,-0.06758,-0.0888194285714,1.426
0.439929270775,0.398893905167,-0.124702941637,-1.58579730236,0.0645309895655,1.97636565257,0.125002704813,-0.0671954467069,-0.330783855299,-0.00012797243361,-0.469628056558,-0.0390480838936,0.177655317894,-0.0796336104589,0.573873343684,0.818928021075,0.00265115206354,0.0,0.818892961152,-0.573811025274,-0.0116607182819,0.0,-0.00802818323058,0.00886295579333,-0.999928495588,0.0,0.632097403729,0.222249103386,0.303825994261,1.0,-0.069596,-0.0914690285714,1.444
0.438786003859,0.393705040668,-0.124707516242,-1.59352937286,0.0639440288971,1.97901268291,0.123701987638,-0.0725572316421,-0.317343346469,-0.000705855875705,-0.489777946908,-0.0417444452674,0.16232306105,-0.0740542808788,0.573882780689,0.818921206098,0.00271277216738,0.0,0.818887109949,-0.573820431927,-0.0116086159286,0.0,-0.00795005072365,0.00888360998614,-0.999928936559,0.0,0.63098834572,0.220783906888,0.303865783171,1.0,-0.071388,-0.0938242285714,1.46
0.437549632,0.388118365995,-0.124728898779,-1.60204601402,0.0633130266346,1.98171739282,0.122242199706,-0.0717837402015,-0.333347857145,0.000790221802666,-0.502547634862,-0.033527676465,0.163997014666,-0.0977465661265,0.573863056,0.818935675436,0.00250985197331,0.0,0.818898618298,-0.573801068063,-0.011753048153,0.0,-0.00818499227112,0.00880012387313,-0.999927779253,0.0,0.62970574308,0.219166324549,0.303798647431,1.0,-0.073292,-0.0963266285714,1.477
0.436436634017,0.383062538214,-0.124726069338,-1.60957843028,0.0627644869877,1.9842405272,0.120863661205,-0.0738316622091,-0.352809267321,0.00119625045554,-0.503877864714,-0.030936110534,0.175832057006,-0.0821454907977,0.573772349515,0.818999121994,0.00254480002625,0.0,0.818962318478,-0.573710028565,-0.0117588663728,0.0,-0.00817068125015,0.00883117774345,-0.999927622515,0.0,0.628589154506,0.217750327261,0.303819673538,1.0,-0.074972,-0.0985346285714,1.492
0.435119393978,0.377242535671,-0.124734473591,-1.61818270531,0.0621480231636,1.98723783073,0.119360731136,-0.0784959239478,-0.335734480223,-0.000581338030855,-0.513842945568,-0.0402035976653,0.172343972423,-0.0878817641594,0.573772327568,0.818998581537,0.00271780417958,0.0,0.818963970419,-0.573709327873,-0.0116777209903,0.0,-0.00800496143779,0.00892630871413,-0.999928118219,0.0,0.627337375218,0.216109915602,0.303875750192,1.0,-0.076876,-0.101037028571,1.509
0.433787691315,0.371687825234,-0.124771371634,-1.62658215052,0.061475035843,1.98993589637,0.117864807289,-0.0816916239929,-0.353971111393,-0.00628938495667,-0.530658464664,-0.044107150617,0.167792899016,-0.0952035056245,0.573777326406,0.818995618105,0.00255031928712,0.0,0.818958922106,-0.573715023312,-0.01175171605,0.0,-0.00816160459707,0.00883164498678,-0.999927692514,0.0,0.625987436548,0.214339045533,0.30382204486,1.0,-0.07878,-0.103539428571,1.526
0.432358355652,0.365614023707,-0.124839804421,-1.63555664411,0.0608000208894,1.99287920757,0.11632987858,-0.0804417734165,-0.364036475323,-0.00162043355407,-0.522094929115,-0.0429590923349,0.179356789361,-0.092428510741,0.573870459761,0.818930308165,0.00256762227712,0.0,0.81889390882,-0.573808159702,-0.0117349417435,0.0,-0.00813693350586,0.00883711679839,-0.999927845237,0.0,0.624726321154,0.212653178709,0.303848404011,1.0,-0.080572,-0.105894628571,1.542
0.430860253693,0.359438853215,-0.124857073822,-1.64458765015,0.0600932858242,1.99597866666,0.114599943608,-0.088582552077,-0.363415356065,1.35210319837e-06,-0.544320235418,-0.041082832058,0.173451979713,-0.105356570412,0.573806766927,0.818974375652,0.00274101364026,0.0,0.818940542139,-0.57374421635,-0.0116064442122,0.0,-0.00793289241193,0.0089047548696,-0.999928884751,0.0,0.623390161497,0.210857263735,0.303919867063,1.0,-0.082476,-0.108397028571,1.559
0.429284900862,0.353221099508,-0.124901275265,-1.65394774955,0.0594048328905,1.99889378562,0.11290464687,-0.0979806836751,-0.369480044899,-0.00431566659808,-0.555007402171,-0.0385596860814,0.172526387414,-0.0968674633161,0.573866092812,0.818933420173,0.00255102856654,0.0,0.818896532395,-0.573803558367,-0.0117767796248,0.0,-0.00818076665287,0.00884749329802,-0.999927395824,0.0,0.621932351275,0.208958537397,0.303839530233,1.0,-0.08438,-0.110899428571,1.576
0.427675361714,0.346857710601,-0.124965988281,-1.66327761624,0.0586982062906,2.0019660633,0.111118107536,-0.0966808543422,-0.390780185448,-0.000767401502241,-0.538065571292,-0.038610140431,0.195401180917,-0.110136892396,0.573880715452,0.818922945651,0.0026230554605,0.0,0.818886985769,-0.573817907278,-0.0117414107422,0.0,-0.00811031062467,0.00888632626599,-0.999927625414,0.0,0.620514193358,0.207043951172,0.303872487018,1.0,-0.086284,-0.113401828571,1.593
0.426019276669,0.340347559216,-0.124960069942,-1.67271892525,0.0579533155004,2.0050677774,0.10937741186,-0.0991164427016,-0.380853062947,0.0026375908945,-0.565646517463,-0.0437341920413,0.181708317384,-0.106165959713,0.573900075654,0.81890896968,0.00274762508604,0.0,0.818874641947,-0.573836839943,-0.0116768489577,0.0,-0.0079857416026,0.00895147735243,-0.999928046904,0.0,0.61905560109,0.205134013303,0.303938830119,1.0,-0.088188,-0.115904228571,1.61
0.424119981499,0.333034141406,-0.124966316169,-1.68364011488,0.0570545340585,2.00840648933,0.107282126864,-0.0994859138197,-0.385423493205,1.50922638065e-05,-0.572326264235,-0.0482983168319,0.176241667752,-0.109354893343,0.573828744314,0.818959777034,0.00249052226048,0.0,0.818921815416,-0.57376613306,-0.0118419461937,0.0,-0.0082692594966,0.00883496222584,-0.999926778714,0.0,0.617292172883,0.202912520679,0.303840251234,1.0,-0.090316,-0.118701028571,1.629
0.422597576476,0.327029205187,-0.124952966523,-1.69210987125,0.0563742397796,2.01123482393,0.105592341408,-0.100442314262,-0.403039626153,0.0010632521623,-0.561657600149,-0.04247135854,0.185418547485,-0.107572917892,0.573746316782,0.819016599745,0.00277852873931,0.0,0.818982597367,-0.573682908801,-0.0116692870271,0.0,-0.00796349865502,0.00897094985361,-0.999928049786,0.0,0.615972350553,0.201196217236,0.303989454056,1.0,-0.091996,-0.120909028571,1.644
0.420876243845,0.320719091187,-0.124971668718,-1.70141599032,0.0556338660802,2.01418176942,0.103799360019,-0.108456610117,-0.391225278048,-0.00120274778722,-0.581803998665,-0.0470993459953,0.173478809511,-0.116887375704,0.573768742379,0.81900107961,0.00272190507621,0.0,0.81896611808,-0.573705278859,-0.0117259262672,0.0,-0.00804212979745,0.00895729045723,-0.999927542923,0.0,0.614482406491,0.19925544067,0.303944471571,1.0,-0.093788,-0.123264228571,1.66
0.418999786882,0.313857938353,-0.1250212508,-1.71146398922,0.0548202721434,2.01723276151,0.101792179223,-0.114254268094,-0.403324563901,-0.00270669743959,-0.589948078319,-0.042353069012,0.173030516387,-0.13018838301,0.573757936503,0.819009074976,0.00259081222519,0.0,0.818972092084,-0.573694604106,-0.0118304906632,0.0,-0.00820310215591,0.00890981236051,-0.99992665949,0.0,0.612839786565,0.197130366352,0.303904339151,1.0,-0.095692,-0.125766628571,1.677
0.416824428241,0.305977082615,-0.125054731044,-1.72262489187,0.0538524911753,2.02088414637,0.099488488731,-0.117608180548,-0.417944686338,-0.00168192035282,-0.59938301719,-0.0532506023802,0.190158485331,-0.120219393081,0.573710872207,0.819041211092,0.00284192645492,0.0,0.81900823133,-0.573647480381,-0.0116117254577,0.0,-0.00788036945295,0.00898950737542,-0.999928541714,0.0,0.611069343687,0.194745220301,0.304033283316,1.0,-0.09782,-0.128563428571,1.696
0.414907385082,0.299371770662,-0.12508413968,-1.73234633286,0.0530622896004,2.02374328331,0.097521833273,-0.121260996143,-0.412622010556,-0.00199189774356,-0.61882106663,-0.0532703527813,0.176375330969,-0.124157856591,0.573729949914,0.819028582135,0.0026216631785,0.0,0.818992131167,-0.573666648641,-0.0117988230173,0.0,-0.00815976965814,0.00891663132533,-0.999926953255,0.0,0.609437848344,0.192649282622,0.303939750052,1.0,-0.099612,-0.130918628571,1.712
0.412814491437,0.292162909515,-0.125190459789,-1.74255330278,0.0522521709973,2.02695548668,0.0954115003928,-0.121023284026,-0.437144458924,-0.00705686703219,-0.593741371774,-0.0460903223614,0.196281232531,-0.13245893164,0.573836660951,0.81895326577,0.00278961193289,0.0,0.818918978681,-0.573772719846,-0.0117183282917,0.0,-0.00799631395164,0.0090090459859,-0.999927445395,0.0,0.607784000147,0.190382201885,0.304022372574,1.0,-0.101516,-0.133421028571,1.729
0.410264827909,0.283654999571,-0.125234399802,-1.7547928009,0.0511995374251,2.03069224822,0.0928220379059,-0.126512861714,-0.42906483772,-0.000762112343675,-0.61618567188,-0.0532870518731,0.176708090413,-0.128001015148,0.573842031349,0.818949616018,0.00275615335562,0.0,0.818914895132,-0.573778208635,-0.0117349361898,0.0,-0.00802905533572,0.00899122776609,-0.999927343407,0.0,0.605742371732,0.187681686146,0.304005353091,1.0,-0.103756,-0.136365028571,1.749
0.408562635125,0.278051142244,-0.125265586125,-1.76296040256,0.0504555645359,2.03300993771,0.0910545971001,-0.131606108661,-0.430259955694,0.0012076054055,-0.620822402542,-0.0483543811885,0.17711607078,-0.136011275222,0.573791875789,0.81898553535,0.00251457105634,0.0,0.818947544084,-0.573728810767,-0.0118709155251,0.0,-0.00827958565234,0.00887090746994,-0.999926375021,0.0,0.60432815106,0.185869573138,0.303921759233,1.0,-0.105212,-0.138278628571,1.762
0.405846758047,0.269222564727,-0.125348946851,-1.77526554021,0.0494003495995,2.03693391858,0.0883644430115,-0.140696995483,-0.435666644272,-0.00239228938572,-0.617238389953,-0.0491942531603,0.187256141333,-0.13396080157,0.573861593294,0.818935598632,0.00284674119273,0.0,0.818902464762,-0.573797918821,-0.0116382328835,0.0,-0.00789766109614,0.00901011171751,-0.999928219842,0.0,0.602303342515,0.183076525727,0.304059902451,1.0,-0.107452,-0.141222628571,1.782
0.40415788896,0.263904795079,-0.125413593,-1.78282356749,0.0487586058293,2.03912353291,0.0867407675017,-0.146742971399,-0.44813083327,-0.0091332614066,-0.633138074435,-0.0580375549382,0.174610534171,-0.137471692122,0.573943768783,0.818878263677,0.00277244537672,0.0,0.81884393039,-0.573880072929,-0.0117058301625,0.0,-0.00799475264714,0.00898886141271,-0.999927639532,0.0,0.600889579604,0.181188888691,0.304038156429,1.0,-0.108908,-0.143136228571,1.795
0.401296484099,0.254918589591,-0.125502362084,-1.79549485039,0.0476053226681,2.04280731856,0.0839302364212,-0.142281479,-0.459003676369,0.000119659805548,-0.625664674571,-0.0625709326316,0.195723421471,-0.135818204856,0.57399555411,0.818842064559,0.00274300421769,0.0,0.818807490583,-0.573932113619,-0.011703385111,0.0,-0.00800908001792,0.00896385600391,-0.999927749351,0.0,0.598806901996,0.178416060005,0.304060711755,1.0,-0.111036,-0.145933028571,1.814
0.399111205723,0.248122978202,-0.125468512573,-1.80505486446,0.0467424245746,2.04565499655,0.0817465282655,-0.144207315576,-0.448898136323,0.00257161405699,-0.653478746761,-0.0589589447438,0.180498852754,-0.153976733268,0.573913260948,0.818899586293,0.00278987077465,0.0,0.818865562949,-0.573849602594,-0.0116863304738,0.0,-0.00796911838521,0.00899164225018,-0.999927819156,0.0,0.597130308449,0.176272585029,0.304068370138,1.0,-0.112716,-0.148141028571,1.829
0.396723880185,0.240836567988,-0.125486837506,-1.81543262264,0.0458539460488,2.0485651172,0.079374003823,-0.150402923205,-0.460238090428,2.94087381826e-05,-0.645790172773,-0.058986144089,0.183835060121,-0.15255818259,0.573886520603,0.81891879448,0.00264885220187,0.0,0.818882118691,-0.573822464603,-0.0118575590108,0.0,-0.00819056472552,0.00897416376719,-0.999926186793,0.0,0.59526122771,0.173912285593,0.303992046193,1.0,-0.114508,-0.150496228571,1.845
0.393981297935,0.232401611604,-0.125475277571,-1.82687941031,0.0448446058049,2.0520199013,0.0767059664061,-0.153676325219,-0.466370442435,0.00189368043741,-0.645097540526,-0.0631202789324,0.195906468567,-0.148100084793,0.573857674621,0.818937772806,0.0030067345068,0.0,0.818905884155,-0.573792502326,-0.0116646504958,0.0,-0.00782753188534,0.00915625807483,-0.999927443709,0.0,0.593250508441,0.171289592757,0.304156062466,1.0,-0.116524,-0.153145828571,1.863
0.391275450971,0.224439085183,-0.125476764313,-1.83811215566,0.0437739170471,2.0550567953,0.0740070931631,-0.167649004218,-0.467658203076,-0.000186979955928,-0.66221818541,-0.0651090027513,0.183937896093,-0.163605160732,0.573741746173,0.819019795756,0.00278024436887,0.0,0.818984595722,-0.57367696223,-0.0118204009175,0.0,-0.00808633588846,0.00905900918734,-0.999926270044,0.0,0.591179292275,0.168681878306,0.304075044646,1.0,-0.118428,-0.155648228571,1.88
0.388471377054,0.216340115979,-0.125561669724,-1.8491605284,0.0427534641775,2.05825365142,0.0713028530736,-0.168412029266,-0.485436724027,-0.00586980796781,-0.653422265564,-0.0610552015803,0.198623145637,-0.157922058217,0.573772491912,0.818997648396,0.00295403931818,0.0,0.818964967545,-0.57370738393,-0.0117032670284,0.0,-0.00789034591919,0.0091344432671,-0.99992714954,0.0,0.58920434402,0.166017538361,0.30416044714,1.0,-0.120332,-0.158150628571,1.897
0.385585376127,0.208214972441,-0.125592875654,-1.86034665214,0.0417290720489,2.0613624301,0.0685729980244,-0.172608030908,-0.48092354816,-0.000975065182342,-0.653578868432,-0.0572874453689,0.174967657608,-0.161927606613,0.573796640174,0.818980618889,0.00298471298383,0.0,0.818948022318,-0.573731058959,-0.0117284111925,0.0,-0.00789307088216,0.00917422436436,-0.999926763838,0.0,0.587149872955,0.163334090991,0.304171074486,1.0,-0.122236,-0.160653028571,1.914
0.382783509902,0.200506754178,-0.1256566987,-1.87105828617,0.0406623956768,2.064149712,0.0658757001537,-0.175372756274,-0.483854876408,-0.00560339503098,-0.659173476061,-0.0699357551306,0.186455158365,-0.171894835352,0.57376502436,0.819003550388,0.00276191504823,0.0,0.818967885068,-0.573700051496,-0.0118575310216,0.0,-0.00812700567014,0.00906553084079,-0.999925881218,0.0,0.585132697167,0.160715726789,0.304104337019,1.0,-0.124028,-0.163008228571,1.93
0.379713887573,0.192192210924,-0.125731540501,-1.88230689451,0.0395983089653,2.0673998577,0.0630208164395,-0.185096204279,-0.482482141025,-0.00723710034954,-0.667916648061,-0.0626325719891,0.191651123515,-0.173220551228,0.573836112289,0.818952941931,0.00299032399041,0.0,0.818920619886,-0.573770741192,-0.0117005033304,0.0,-0.00786655266766,0.00916318573856,-0.999927074029,0.0,0.583080976694,0.157930224644,0.30417664621,1.0,-0.125932,-0.165510628571,1.947
0.375925945816,0.182328913041,-0.125894734421,-1.89581912106,0.0383362450672,2.07084490812,0.0594714775439,-0.193620791424,-0.503613077206,-0.0146313882667,-0.672154735853,-0.0588110789383,0.178086236306,-0.180616818405,0.573953540618,0.818871237051,0.00282440145138,0.0,0.818835903953,-0.57388777026,-0.0118885005628,0.0,-0.00811441793894,0.00913634420914,-0.999925338931,0.0,0.580510668681,0.154485948134,0.304124523837,1.0,-0.128172,-0.168454628571,1.967
0.373253059885,0.175322410079,-0.125955810784,-1.90509812983,0.0373979034312,2.07346201892,0.0570301204214,-0.185136471786,-0.49992835326,-0.00195218526345,-0.66875472726,-0.0679147107962,0.176507959921,-0.183531402647,0.574011350423,0.818829867646,0.00306012064028,0.0,0.81879830873,-0.573945551564,-0.0116867600943,0.0,-0.0078132760223,0.0092141319492,-0.999927023582,0.0,0.578786780792,0.152128869808,0.3042325251,1.0,-0.12974,-0.170515428571,1.981
0.369959285849,0.166828202397,-0.125946995274,-1.91674277557,0.0362252840253,2.07637856099,0.0538923935235,-0.190105186428,-0.497986736288,-0.00114869907733,-0.691133739675,-0.0649238260184,0.169361396262,-0.183638603788,0.573880408497,0.81892247562,0.0028288812373,0.0,0.818887262765,-0.573814700926,-0.0118779957531,0.0,-0.00810406007466,0.00913325971157,-0.99992545111,0.0,0.576354520133,0.149083502342,0.304131537354,1.0,-0.131756,-0.173165028571,1.999
0.366950355444,0.159169228017,-0.125975034968,-1.92682203331,0.0352287677666,2.0790542686,0.0510736862797,-0.202026947115,-0.517076096587,-0.00208228609642,-0.67152837088,-0.058485835506,0.196539831559,-0.184979573674,0.573863629488,0.818933466288,0.00304293383613,0.0,0.818901215209,-0.573797357843,-0.011753244805,0.0,-0.00787924981297,0.00923679977526,-0.99992629676,0.0,0.574551383806,0.146682899988,0.304235161416,1.0,-0.133324,-0.175225828571,2.013
0.363454943306,0.150516364154,-0.125992087972,-1.93841233589,0.0339941426609,2.08201033654,0.0478772441317,-0.212456979119,-0.511185713809,-0.00191545000405,-0.700740927669,-0.0729884545403,0.160346358378,-0.190725381323,0.573834126275,0.818954291206,0.00300188925137,0.0,0.818921746667,-0.573768281437,-0.0117421869407,0.0,-0.00789407753185,0.00919655703491,-0.999926550742,0.0,0.572269899267,0.143716065714,0.304224044539,1.0,-0.135228,-0.177728228571,2.03
0.359613317885,0.141207555514,-0.126042306304,-1.9508020926,0.0327821397764,2.08497440567,0.0443670175761,-0.219029480201,-0.524976751184,-0.00295141164328,-0.666489137168,-0.0642840092376,0.175548598947,-0.194454114272,0.573866497795,0.818931877648,0.00292735047624,0.0,0.818897396669,-0.573799800654,-0.0118991343746,0.0,-0.00806502261272,0.00922589188146,-0.999924916346,0.0,0.569777355849,0.140497383485,0.304206357706,1.0,-0.137244,-0.180377828571,2.048
0.355929903005,0.132368548786,-0.126136899332,-1.96240461028,0.0315740999591,2.08798156728,0.0409223043914,-0.219122675637,-0.514899758907,-0.00462276967706,-0.693048639414,-0.0793611805385,0.165358368633,-0.201397560044,0.573834956504,0.818953387968,0.00308835403936,0.0,0.818921404594,-0.573768151214,-0.0117723681456,0.0,-0.00786917309576,0.00928469434972,-0.99992593254,0.0,0.567485411051,0.137432850149,0.304258082212,1.0,-0.139148,-0.182880228571,2.065
0.352084313295,0.123439189934,-0.126237420876,-1.97422198337,0.0302918048981,2.09070138405,0.037481620755,-0.232680321383,-0.517247617167,-0.0100845883428,-0.695028570182,-0.0761599368423,0.164036635172,-0.194132835528,0.57390250206,0.818906698867,0.00291265875406,0.0,0.818872169176,-0.573836017637,-0.0118887473194,0.0,-0.00806454158821,0.00920825431239,-0.999925082804,0.0,0.565063347846,0.134257730549,0.304215262028,1.0,-0.141052,-0.185382628571,2.082
0.348576663478,0.115419280078,-0.126353984248,-1.98444478288,0.0291954230319,2.09333258092,0.0343158458577,-0.23712201686,-0.526275694964,-0.0111589423972,-0.680417211092,-0.0761020204081,0.162375680524,-0.213759650661,0.57397343124,0.818855841928,0.00321827150469,0.0,0.818826108809,-0.573906842951,-0.0116398474073,0.0,-0.00768451696038,0.00931634725732,-0.999927074277,0.0,0.563036480388,0.131429874559,0.304353480191,1.0,-0.142732,-0.187590628571,2.097
0.34385016638,0.104800854912,-0.12637706161,-1.9984635826,0.0276404615547,2.09645430527,0.030018393517,-0.239840409265,-0.536692392224,-0.00327257532088,-0.69175187136,-0.0823398646982,0.164786247065,-0.224707760433,0.573887495762,0.81891706687,0.00295409867123,0.0,0.818883360052,-0.573821186608,-0.0118336524558,0.0,-0.00799580949866,0.0092104247486,-0.999925614787,0.0,0.560081384317,0.127676923195,0.304252328566,1.0,-0.144972,-0.190534628571,2.117
0.340000985864,0.0961266125997,-0.126368829743,-2.00941980189,0.0264642068943,2.09909129432,0.0264556482703,-0.241491271138,-0.531627245892,0.00192937013359,-0.698244356959,-0.0687405567622,0.164411938409,-0.225598880084,0.573761829758,0.819004083442,0.00322814485294,0.0,0.818974251259,-0.573694962378,-0.0116624533452,0.0,-0.0076997747172,0.00933541782039,-0.999926779041,0.0,0.557808578215,0.124715236117,0.30438047646,1.0,-0.146764,-0.192889828571,2.133
0.336017408743,0.0874891714737,-0.126408170586,-2.02068223728,0.0253072048274,2.10154500437,0.0228799410551,-0.250747989549,-0.543276381416,-0.00418224146682,-0.698605564787,-0.0658524090039,0.145570365723,-0.231658776061,0.573773624217,0.818996215961,0.00312622704054,0.0,0.81896391255,-0.573705733133,-0.011857006931,0.0,-0.00791746186855,0.00936368524776,-0.999924814772,0.0,0.555392175872,0.121647910704,0.304309410267,1.0,-0.148556,-0.195245028571,2.149
0.33138249059,0.0775610783887,-0.126532000859,-2.03313990748,0.0238451786218,2.10435899157,0.0186666434474,-0.254124173397,-0.558007529508,-0.00894340548518,-0.698685959633,-0.088696085581,0.162190769224,-0.222553378688,0.573736708949,0.819021454542,0.00328522531696,0.0,0.818992107642,-0.573669346548,-0.0116685625333,0.0,-0.00767231771346,0.00938543697115,-0.999926521857,0.0,0.552759452768,0.118097582845,0.304423857079,1.0,-0.150572,-0.197894628571,2.167
0.326863910071,0.0682618425726,-0.126637762097,-2.04511864337,0.0225352923772,2.10692189444,0.0146866698001,-0.270781144078,-0.559951937079,-0.0106454857892,-0.703488124313,-0.0867097054202,0.142483552982,-0.22772009534,0.573825466713,0.81895962317,0.00319629012353,0.0,0.818928453281,-0.573757584555,-0.0117970112211,0.0,-0.00782753086754,0.00938713912836,-0.9999253029,0.0,0.550161356411,0.114693775021,0.304355786627,1.0,-0.152476,-0.200397028571,2.184
0.322447372177,0.0593782371259,-0.126788881326,-2.05631697362,0.0211927025831,2.1091779294,0.0107919403066,-0.280850329641,-0.556749265478,-0.00789421361679,-0.690072470698,-0.0816361540761,0.151110394237,-0.245639971248,0.573902081921,0.818906300858,0.00310123906116,0.0,0.818873981617,-0.573834628134,-0.0118308362043,0.0,-0.00790890021952,0.00932944512718,-0.999925202578,0.0,0.547709503656,0.111387312087,0.304362252675,1.0,-0.154268,-0.202752228571,2.2
0.317708625352,0.0498950371696,-0.126854606581,-2.06818630706,0.0198478261254,2.11175538583,0.00657887060257,-0.274214204626,-0.565093384938,-0.00100801826208,-0.705485512492,-0.0801269536933,0.144232288063,-0.241427953364,0.573904130598,0.818904316887,0.00324277172319,0.0,0.818873934614,-0.573836298187,-0.0117528291624,0.0,-0.00776377189189,0.00940059943321,-0.999925673526,0.0,0.545112936849,0.107953162898,0.304396160975,1.0,-0.156172,-0.205254628571,2.217
0.313452184077,0.0414872456087,-0.126858144612,-2.07883132137,0.0186418341466,2.11378055453,0.00280422495395,-0.286159001818,-0.560181130487,-0.00263530414809,-0.704880787155,-0.08469742356,0.134264844724,-0.258192854624,0.573856070007,0.818938574834,0.0030932935917,0.0,0.818905250616,-0.57378759146,-0.0119472716686,0.0,-0.00800934235846,0.0093893095043,-0.999923842751,0.0,0.542689330752,0.104916760962,0.304325164534,1.0,-0.157852,-0.207462628571,2.232
0.308745653819,0.0323905415538,-0.126923100484,-2.08991794083,0.0172954738844,2.11614724787,-0.00134939258859,-0.293703383781,-0.557880529161,-0.0107963770201,-0.700824263311,-0.0897662597097,0.140182248519,-0.256843024599,0.573847747172,0.818943430295,0.00334184726223,0.0,0.818914324274,-0.573779575917,-0.0117078888104,0.0,-0.00767076260497,0.00945541425659,-0.999925874524,0.0,0.540237122705,0.101602446235,0.304436538623,1.0,-0.159644,-0.209817828571,2.248
0.303649805799,0.0227641579258,-0.127031003305,-2.10192876491,0.0158615717483,2.1183192369,-0.00588743572702,-0.29982352294,-0.565936273327,-0.00366307208757,-0.719288005307,-0.0839070521383,0.116161073971,-0.269197330183,0.573830924319,0.818955897845,0.00317089589582,0.0,0.818923822486,-0.573762444757,-0.0118817865705,0.0,-0.00791147052788,0.00941504002671,-0.999924379968,0.0,0.537462478716,0.0980159631779,0.304370845915,1.0,-0.15998,-0.210259428571,2.265
0.298403720754,0.0130537179256,-0.127176847876,-2.11360221348,0.014410991803,2.12055021208,-0.0104525227818,-0.30910914727,-0.565746141741,-0.00992052273216,-0.685982239965,-0.0860963850199,0.123910234447,-0.269542420412,0.573922915942,0.818890753821,0.00334167090931,0.0,0.818861575996,-0.573854649209,-0.0117178427703,0.0,-0.00767814754001,0.00946168656532,-0.999925758513,0.0,0.534800593288,0.0943869566391,0.304481363666,1.0,-0.15998,-0.210259428571,2.282
0.293085509262,0.00350960838435,-0.127254038957,-2.12534711678,0.0130640060826,2.12260744028,-0.0151101901411,-0.308291512346,-0.561559008836,-0.00127688201693,-0.682945743585,-0.0811994809769,0.11872977083,-0.273099294152,0.573972899936,0.818855978463,0.00327773932389,0.0,0.818824811347,-0.573903434471,-0.0118963492571,0.0,-0.00786044219369,0.00951225950578,-0.999923862285,0.0,0.532037837659,0.0907960509756,0.304426201481,1.0,-0.15998,-0.210259428571,2.299
0.28806576247,-0.00550739790397,-0.127249913797,-2.13610010455,0.0117329765544,2.12454055479,-0.0195691781789,-0.317886744321,-0.573847299779,-0.000342130859859,-0.660518638399,-0.0848274806973,0.127882131447,-0.282477219686,0.573866178445,0.818930193671,0.00341965389761,0.0,0.81890116082,-0.573796581074,-0.0117948826573,0.0,-0.00769714801795,0.0095692270194,-0.99992458906,0.0,0.52950568369,0.087492919624,0.30450398897,1.0,-0.15998,-0.210259428571,2.315
0.282023374963,-0.0160754375134,-0.127255174489,-2.14886829028,0.0100990575133,2.12672355103,-0.0248635299691,-0.326256857479,-0.553797578051,-0.00126200819813,-0.673220426203,-0.0902726909656,0.0988991172229,-0.284179234004,0.573776314367,0.818993356279,0.00337199383451,0.0,0.818963731197,-0.573706928081,-0.0118116280944,0.0,-0.00773925771652,0.00953895674143,-0.999924553251,0.0,0.526443999857,0.0835532897844,0.304480593994,1.0,-0.15998,-0.210259428571,2.334
0.276793300738,-0.0249616539512,-0.127329548357,-2.15946443914,0.00874302270506,2.12833298161,-0.0294343710942,-0.328856735351,-0.561766610712,-0.00204345214244,-0.64189973824,-0.0852984837177,0.116344658948,-0.282817780491,0.5737763781,0.818993646053,0.00328976599775,0.0,0.818962530819,-0.573706769989,-0.0119021882351,0.0,-0.00786060685511,0.0095235729026,-0.999923753303,0.0,0.523856882877,0.0801652359648,0.304478424625,1.0,-0.15998,-0.210259428571,2.35
0.270442732788,-0.0354385698915,-0.127517078179,-2.17183445781,0.00714890887435,2.13043038496,-0.0348519909452,-0.331396968465,-0.543623073072,-0.0109925560592,-0.656137485051,-0.0772724729382,0.0988713366078,-0.288237014649,0.57396068082,0.818863865558,0.00344288490724,0.0,0.818835358371,-0.573891270103,-0.0117563974929,0.0,-0.00765119481305,0.00956705000123,-0.999924962571,0.0,0.521041574261,0.0762908014165,0.304529208392,1.0,-0.15998,-0.210259428571,2.368
0.266096378732,-0.0425714432409,-0.127539545528,-2.18036528367,0.00612387238836,2.1316181869,-0.0387154178395,-0.328082295164,-0.536764001283,-0.00156499048324,-0.657733669864,-0.0799666517058,0.0905475568263,-0.304967948293,0.573913974096,0.818897122891,0.00331652821676,0.0,0.818865588518,-0.573843317233,-0.0119892497242,0.0,-0.00791494693846,0.00959677355335,-0.999922624783,0.0,0.518727193975,0.0733654348869,0.304454343145,1.0,-0.15998,-0.210259428571,2.382
0.260025529945,-0.0524572804957,-0.12755509615,-2.19165476145,0.00463581867646,2.13345438744,-0.043989031541,-0.342575044142,-0.542195718892,-0.0039157396255,-0.620731483782,-0.0829319726483,0.0993841667242,-0.293551595956,0.573882922458,0.818917600377,0.0036196690949,0.0,0.818891163382,-0.573812650641,-0.0117068954325,0.0,-0.00751011539066,0.00968268882165,-0.999924919033,0.0,0.515947221054,0.069645422679,0.304599907128,1.0,-0.15998,-0.210259428571,2.4
0.254190985324,-0.0616495327777,-0.12759130788,-2.2025145827,0.00320870237023,2.1348878389,-0.0491227938542,-0.340060368363,-0.547411300696,-0.00150430880876,-0.646289622099,-0.0817144570102,0.0753978193354,-0.300014318781,0.573805123737,0.818972847984,0.00344980286866,0.0,0.818943374825,-0.573734394397,-0.0118886675723,0.0,-0.00775737473428,0.0096471573088,-0.999923374811,0.0,0.513163742138,0.0660887839188,0.304519254389,1.0,-0.15998,-0.210259428571,2.417
0.248612055973,-0.0703095603917,-0.127665932686,-2.21252410634,0.0018879262223,2.13619730591,-0.0539853006937,-0.351579338712,-0.541317837706,-0.00865835321413,-0.608728117844,-0.0831030289656,0.0959480125618,-0.295808360624,0.573810987873,0.818968815524,0.00343166083151,0.0,0.818938736577,-0.573739864864,-0.0119440404267,0.0,-0.00781306644484,0.00966412768656,-0.999922777333,0.0,0.510588929146,0.0627231998809,0.304516082327,1.0,-0.15998,-0.210259428571,2.433
0.24179145921,-0.0805381381037,-0.127834446962,-2.22418873714,0.000331771109407,2.13778810579,-0.0598825313658,-0.358266736552,-0.541876228526,-0.0100148306741,-0.625004771557,-0.0838840353858,0.066392974861,-0.300761210163,0.573936071538,0.818880627186,0.00355683964016,0.0,0.818852370204,-0.573864722552,-0.0118668834278,0.0,-0.00767656394848,0.00972354623413,-0.999923258563,0.0,0.507595189398,0.0586436674494,0.304557074972,1.0,-0.15998,-0.210259428571,2.452
0.236141195751,-0.0890559210243,-0.127836791891,-2.23408901937,-0.000964754058671,2.13887885839,-0.0648472374824,-0.354062099362,-0.532252083279,0.000658135517268,-0.61544635692,-0.0885082658708,0.0713757409763,-0.307417195472,0.573845929579,0.818944553602,0.0033784806985,0.0,0.818912651223,-0.573773616112,-0.0121100793427,0.0,-0.00797915405746,0.0097161873903,-0.999920961278,0.0,0.504948837204,0.0553584192716,0.304461835024,1.0,-0.15998,-0.210259428571,2.468
0.229966031951,-0.0981696044746,-0.127880614031,-2.24414382368,-0.00239541960999,2.14016745917,-0.0702640268086,-0.36228806124,-0.526110176582,-0.00373370745273,-0.591954550238,-0.0933386464782,0.0760002235845,-0.316133915247,0.57377724427,0.818991730645,0.0036008324423,0.0,0.818963995739,-0.573705700516,-0.0118528384539,0.0,-0.00764170570617,0.00975002882806,-0.999923267692,0.0,0.502311895658,0.0518112950004,0.304588985505,1.0,-0.15998,-0.210259428571,2.485
0.224442698129,-0.106127466775,-0.127961379067,-2.25311679589,-0.00364866704495,2.14109126657,-0.0750122761762,-0.370454848749,-0.538796008307,-0.00354986225864,-0.598717406501,-0.0758642392239,0.0589961851683,-0.312849718681,0.57383135694,0.818954091938,0.00353779476358,0.0,0.81892517621,-0.573759572176,-0.0119271122631,0.0,-0.00773806276458,0.00974152776908,-0.999922609516,0.0,0.499883798169,0.0486500203559,0.304573118597,1.0,-0.15998,-0.210259428571,2.5
0.218010993489,-0.11508364933,-0.128133625722,-2.26321072087,-0.00505852825534,2.14207944482,-0.080579783777,-0.379820271354,-0.539307366527,-0.0114294308525,-0.576908655623,-0.0824795718172,0.0693179541317,-0.330138175207,0.573941693303,0.818877147624,0.00344915769454,0.0,0.818846381692,-0.573869355155,-0.0120545968346,0.0,-0.00789201991552,0.00974315360329,-0.9999213904,0.0,0.497127381086,0.0449835813307,0.304528369682,1.0,-0.15998,-0.210259428571,2.517
0.211598623816,-0.124014202495,-0.128166245399,-2.27293856519,-0.00638423468603,2.14317206249,-0.0862108619862,-0.380987488334,-0.531100125589,-0.000443381192263,-0.581493603092,-0.0762768867776,0.0557099576789,-0.32624449808,0.573901588842,0.818904200221,0.00369108204295,0.0,0.818877194591,-0.573829140176,-0.0118745511858,0.0,-0.00760621584999,0.00983755610409,-0.999922680996,0.0,0.494482578103,0.0414591577374,0.304621588238,1.0,-0.15998,-0.210259428571,2.534
0.205123878878,-0.132899939193,-0.128189740892,-2.28277963245,-0.00777858064887,2.14397428081,-0.0919052753447,-0.391232665166,-0.526663799458,-0.00981279483726,-0.588374872089,-0.0827363270886,0.0453089132195,-0.338667157555,0.573810167748,0.818968676249,0.00359800124151,0.0,0.818939822419,-0.573737253698,-0.0119949104468,0.0,-0.00775929796974,0.00982953732242,-0.999921583671,0.0,0.491709822765,0.0379329828673,0.304591119764,1.0,-0.15998,-0.210259428571,2.551
0.19889835355,-0.141224217087,-0.128272779303,-2.29178747741,-0.00908369424767,2.14479847033,-0.0973448016333,-0.386157876401,-0.53488106571,-0.00587685398664,-0.55618713011,-0.0825552303193,0.0492922216443,-0.339310753542,0.573813070865,0.818966184329,0.00370074732065,0.0,0.818939110884,-0.573740350856,-0.0118949302632,0.0,-0.00761842426259,0.00985634294756,-0.999922403047,0.0,0.489183777768,0.0345655224974,0.304641319226,1.0,-0.15998,-0.210259428571,2.567
0.191764995977,-0.150504196298,-0.128454327857,-2.30182247332,-0.0105179412179,2.14563898121,-0.103531906196,-0.397502107767,-0.514116930525,-0.00642250570354,-0.562762700011,-0.0851900263318,0.0315146097017,-0.340392794042,0.573944549364,0.81887361593,0.00379503489435,0.0,0.818847765683,-0.573871475453,-0.0118580436699,0.0,-0.00753252184797,0.009913606242,-0.999922487759,0.0,0.486331851618,0.0307209698451,0.304666823874,1.0,-0.15998,-0.210259428571,2.585
0.184595818533,-0.159720376386,-0.128517794063,-2.31185577847,-0.0120296037141,2.14622597025,-0.109837605223,-0.391209911145,-0.505454050927,0.000210557064749,-0.549312477884,-0.0866215306703,0.0204584897738,-0.352536865815,0.573866031627,0.81892940453,0.00362698808073,0.0,0.818900739506,-0.57379276185,-0.0120080051035,0.0,-0.00775271822485,0.00986131931897,-0.999921321776,0.0,0.48339070742,0.0269502873898,0.304614006624,1.0,-0.15998,-0.210259428571,2.603
0.178140255723,-0.167921096791,-0.128539976152,-2.32040710978,-0.0132244183603,2.14688340973,-0.115494912844,-0.410588171844,-0.511349112559,-0.00223599426186,-0.536889741583,-0.0784384006815,0.0424292932845,-0.357954233132,0.573857627714,0.818934085495,0.00389019661772,0.0,0.818909496177,-0.57378427236,-0.0118149381852,0.0,-0.0074436652759,0.00996600322726,-0.999922632321,0.0,0.480908292591,0.0236397902417,0.304726798662,1.0,-0.15998,-0.210259428571,2.619
0.171189877148,-0.176484733536,-0.128607866473,-2.32963105179,-0.0145538154833,2.14737070643,-0.121592432996,-0.416642900222,-0.510660002582,-0.00803661761948,-0.543234198311,-0.0803266873736,0.0295948949107,-0.354261881226,0.573850108866,0.818939754222,0.00380505069512,0.0,0.81891317576,-0.573775885965,-0.0119662087756,0.0,-0.0076165043812,0.00998300856109,-0.999921161093,0.0,0.477987315293,0.0198702638845,0.304670051483,1.0,-0.15998,-0.210259428571,2.637
0.164868458809,-0.184042562165,-0.12877942834,-2.33766603451,-0.0158052511489,2.14772165697,-0.12710857706,-0.423089798442,-0.504944456679,-0.00155028129994,-0.533612536058,-0.0788576826789,0.0289797173146,-0.367534251677,0.573935537123,0.81888022131,0.00373219448976,0.0,0.818852327177,-0.573861094016,-0.0120440006712,0.0,-0.00772098137497,0.00996878806783,-0.999920501696,0.0,0.475717323499,0.0168372035891,0.304641392624,1.0,-0.15998,-0.210259428571,2.651
0.157782683411,-0.192594502653,-0.128823438198,-2.34642322469,-0.017086147891,2.14823803487,-0.133380589746,-0.412012431251,-0.49752066963,-0.00167650256196,-0.518067558224,-0.0824318636108,0.0331787483899,-0.366976751032,0.573889846046,0.818911059947,0.00398339077657,0.0,0.818887326515,-0.573815690686,-0.0118256710992,0.0,-0.00739858317038,0.0100487742601,-0.99992213852,0.0,0.47307754559,0.01332182322,0.304749567318,1.0,-0.15998,-0.210259428571,2.668
0.150582358263,-0.201024049632,-0.128869005217,-2.35527149965,-0.0184468610422,2.14851546444,-0.139808061257,-0.425611825588,-0.497641371194,-0.00136559621544,-0.520093389311,-0.0760062327943,0.00115163383294,-0.376541596846,0.573765545271,0.818998561423,0.00389901887331,0.0,0.818973301755,-0.57369112427,-0.0119151939605,0.0,-0.00752183901043,0.0100299132269,-0.999921408301,0.0,0.470325895827,0.00978215681896,0.304715254998,1.0,-0.15998,-0.210259428571,2.685
0.143670754157,-0.208903177976,-0.129000160239,-2.36354004828,-0.0196397449107,2.14870710665,-0.145846202354,-0.44106757339,-0.489368257173,-0.00784071467927,-0.502335341427,-0.0739121218704,0.004784235841,-0.371354591211,0.573891339998,0.818910640165,0.00385229815328,0.0,0.818883392742,-0.573815249712,-0.0121159064844,0.0,-0.00771148577853,0.0101079913994,-0.999919177482,0.0,0.467551729816,0.00617810449439,0.304656401229,1.0,-0.15998,-0.210259428571,2.702
0.13489580416,-0.218758825879,-0.129156226156,-2.37340329771,-0.0211530851766,2.14903524991,-0.153519269356,-0.429715741345,-0.487556609806,-0.00257231578346,-0.489462904322,-0.0698599748985,0.016947751639,-0.376519620871,0.573995881462,0.818836124818,0.00410799941011,0.0,0.818813348501,-0.573920375008,-0.0118680397717,0.0,-0.00736045684546,0.0101760866238,-0.999921132358,0.0,0.464606954359,0.00216007073578,0.304779686998,1.0,-0.15998,-0.210259428571,2.721
0.128354725455,-0.226006409309,-0.129162243276,-2.38092734515,-0.0223504180976,2.14913869413,-0.159409900127,-0.437380766667,-0.475527757288,-0.00138562400052,-0.510118508962,-0.0757867064545,-0.00145384887469,-0.396368340708,0.573818316486,0.818961157372,0.00398864409189,0.0,0.818936425928,-0.573742710285,-0.0119657672097,0.0,-0.00751118770492,0.0101328174208,-0.999920450871,0.0,0.4621701623,-0.000918211104123,0.304717261396,1.0,-0.15998,-0.210259428571,2.736
0.120262132473,-0.234676555487,-0.129275076765,-2.38979889048,-0.0237209805222,2.14914681028,-0.166584274667,-0.445973561372,-0.477267807071,-0.00942150486297,-0.490996730958,-0.0810657752735,-0.00150636313513,-0.409262265632,0.57382716499,0.818955311469,0.00391528253056,0.0,0.818928685818,-0.573750578302,-0.0121172746024,0.0,-0.00767725859109,0.0101597541166,-0.999918916261,0.0,0.459247542483,-0.00471874634359,0.304667574216,1.0,-0.15998,-0.210259428571,2.754
0.113407742173,-0.241938524562,-0.12944379508,-2.39687676807,-0.0248796023202,2.1492174524,-0.172602112756,-0.454798643878,-0.485029927884,-0.00983776330183,-0.467646694559,-0.0740020545674,0.0080507913667,-0.405249185255,0.573945267451,0.818871652809,0.00409793831294,0.0,0.818848475131,-0.573869430684,-0.0119079050477,0.0,-0.00739950682472,0.0101902724804,-0.999920699678,0.0,0.456912762548,-0.0079372723199,0.304771173455,1.0,-0.15998,-0.210259428571,2.769
0.106117001315,-0.249573067795,-0.129511530863,-2.40445733119,-0.0260173393244,2.14922918574,-0.179130575933,-0.454467102863,-0.477874046401,-0.0033289880955,-0.476316020358,-0.067516404341,0.000996102980346,-0.411349397905,0.573905140168,0.818899251701,0.00420149417602,0.0,0.818877296465,-0.5738287745,-0.0118851920633,0.0,-0.00732197760359,0.0102616785781,-0.999920540141,0.0,0.454205955874,-0.0114653915799,0.30478769383,1.0,-0.15998,-0.210259428571,2.786
0.0977514615723,-0.258017888146,-0.129572337707,-2.41303231159,-0.0273744514691,2.14912588414,-0.186580153385,-0.467859481033,-0.466142226506,-0.00560121392869,-0.472578707719,-0.0839173135643,-0.00579069323905,-0.414393131648,0.573869868859,0.818924488568,0.00409909019839,0.0,0.818900367045,-0.573792723834,-0.0120351912895,0.0,-0.00750402921721,0.0102635777207,-0.999919170992,0.0,0.451436751795,-0.0150277135153,0.304703914055,1.0,-0.15998,-0.210259428571,2.803
0.0902235700025,-0.265546116242,-0.129701075772,-2.42031978026,-0.0285314318395,2.14902235542,-0.193224102676,-0.474923135993,-0.473213986604,-0.0128258679681,-0.447415864427,-0.071621136096,-0.0119362896573,-0.426552425443,0.573970942379,0.818852932724,0.00424013860415,0.0,0.818831062572,-0.573893844157,-0.0119286842247,0.0,-0.0073345898312,0.0103188739948,-0.999919859104,0.0,0.448915857798,-0.018408444309,0.304762496468,1.0,-0.15998,-0.210259428571,2.819
0.0821507717802,-0.273488929397,-0.129827860621,-2.42788149472,-0.0297729584819,2.14890117589,-0.20045605101,-0.47222610598,-0.461059893647,-0.00527892285188,-0.447290704902,-0.0715840943418,-0.0163263223017,-0.424722722489,0.573982529188,0.818843773397,0.00443597299445,0.0,0.818825538671,-0.573906339099,-0.0117046171276,0.0,-0.00703855534734,0.0103507330025,-0.999921657464,0.0,0.446268980577,-0.0219925139195,0.304861046889,1.0,-0.15998,-0.210259428571,2.836
0.0740195174621,-0.281252829613,-0.129869528928,-2.43560978774,-0.0310410384681,2.14859370101,-0.207811605594,-0.489387833722,-0.46181213784,-0.00610572215169,-0.440603138267,-0.0728198663319,-0.0180496791964,-0.441772348414,0.573851364993,0.818936477451,0.00428995299655,0.0,0.81891542964,-0.573774357398,-0.0118849817951,0.0,-0.00727172010516,0.0103335206796,-0.999920167032,0.0,0.443491659746,-0.0255185586527,0.304770544262,1.0,-0.15998,-0.210259428571,2.853
0.065720755033,-0.289013813513,-0.129964690216,-2.44309944507,-0.0322618782152,2.14831278255,-0.215240925518,-0.492440891683,-0.460499131332,-0.00847209286141,-0.43753459869,-0.0635690276549,-0.0188501985556,-0.442159966807,0.573860386498,0.818929947467,0.00432953247147,0.0,0.818909389572,-0.57378320491,-0.0118740193876,0.0,-0.00723991644686,0.0103597236052,-0.999920126678,0.0,0.440771098747,-0.0290972276757,0.304768737473,1.0,-0.15998,-0.210259428571,2.87
0.0573009324941,-0.296750799568,-0.130137470535,-2.45026663711,-0.033379356743,2.14805194463,-0.222771314708,-0.495123730658,-0.450498668147,-0.00937522659394,-0.411172299509,-0.061420694812,-0.0187665698353,-0.449089653813,0.573995977245,0.818833311813,0.00462303724722,0.0,0.818817420586,-0.573919074763,-0.0116479298384,0.0,-0.00688459625559,0.0104714899131,-0.999921472033,0.0,0.438134259958,-0.0327145930775,0.304883395235,1.0,-0.15998,-0.210259428571,2.887
0.0473974629992,-0.305636518741,-0.130189001494,-2.458797637,-0.0348685487479,2.1475020433,-0.231698941376,-0.505448299994,-0.434744219166,-0.00109270471544,-0.440019184242,-0.0735140172231,-0.0378982388165,-0.44225271643,0.573890251862,0.818908126806,0.00449506063265,0.0,0.818890294401,-0.573813349168,-0.0117334118738,0.0,-0.0070293958799,0.0104148527384,-0.999921056102,0.0,0.434907822304,-0.0368642778654,0.304836641935,1.0,-0.15998,-0.210259428571,2.907
0.0403268052887,-0.311819996471,-0.130282598313,-2.46470857427,-0.0358241260263,2.14707964378,-0.238076802018,-0.507163973382,-0.445466283552,-0.0109584912901,-0.415018856102,-0.0594578837622,-0.0283361383169,-0.466031317412,0.57390548657,0.818897577655,0.00447176659507,0.0,0.818878674494,-0.573827526887,-0.0118504323466,0.0,-0.00713840501312,0.0104630638903,-0.999919780516,0.0,0.432632560328,-0.0398052800421,0.304796497591,1.0,-0.15998,-0.210259428571,2.921
0.0306176110353,-0.320153243551,-0.130460488442,-2.47241091151,-0.0371114043565,2.1465575589,-0.246850726359,-0.511313711425,-0.442288760694,-0.00681792250951,-0.391337205171,-0.0638862918149,-0.0321545301575,-0.46400339517,0.573969581408,0.81885187207,0.0046128219821,0.0,0.818835179057,-0.57389170184,-0.0117478083019,0.0,-0.00697258880705,0.0105202280741,-0.999920350731,0.0,0.429628919619,-0.0438301277275,0.304845279223,1.0,-0.15998,-0.210259428571,2.94
0.0224447583269,-0.327092035326,-0.130510683606,-2.47867033614,-0.0381976243923,2.14613718671,-0.254339799297,-0.522157367894,-0.428163086945,-0.00556443136416,-0.397331862292,-0.0636342105561,-0.0237323971874,-0.464078097214,0.573862225543,0.818926165469,0.00477791866757,0.0,0.818912971109,-0.573785955392,-0.0114878216568,0.0,-0.00666630345852,0.0105053287345,-0.999922596238,0.0,0.427157941277,-0.0471466297303,0.304941551422,1.0,-0.15998,-0.210259428571,2.956
0.0145949444094,-0.333452498257,-0.130582584004,-2.48473966267,-0.0392137194011,2.14550452051,-0.261409419364,-0.520996324319,-0.422957283948,-0.0116425963807,-0.394495821042,-0.0582102522392,-0.0484321033459,-0.471377406805,0.573885849174,0.818910426292,0.00463602516178,0.0,0.818893980968,-0.57380782682,-0.011746178761,0.0,-0.00695901471592,0.0105375817545,-0.999920262563,0.0,0.424684440682,-0.0502933486818,0.30484461712,1.0,-0.15998,-0.210259428571,2.971
0.0050704637183,-0.341134387409,-0.130768043348,-2.49174295911,-0.040371672206,2.14482019491,-0.270028681378,-0.527243924232,-0.42898966956,-0.00563845090875,-0.388115434546,-0.0634285741525,-0.0362060849166,-0.473736507102,0.573996479015,0.818832285649,0.00474098698664,0.0,0.818816932082,-0.573917681908,-0.0117504481288,0.0,-0.00690084289998,0.0106269208734,-0.999919720238,0.0,0.421792442982,-0.054113215598,0.304863232792,1.0,-0.15998,-0.210259428571,2.989
-0.00337192778125,-0.347773613096,-0.130843498439,-2.49779121822,-0.0414261107245,2.14417113727,-0.277816008738,-0.53696589196,-0.404823018081,-0.00537531096613,-0.361625804899,-0.0696516599374,-0.0399992503338,-0.488878964119,0.573893835142,0.818904192785,0.0047472019163,0.0,0.818888838708,-0.573814909732,-0.01175866104,0.0,-0.00690533453721,0.010635858518,-0.999919594202,0.0,0.419248375447,-0.0574330957965,0.304862746388,1.0,-0.15998,-0.210259428571,3.005
-0.0120282792559,-0.354432243532,-0.130954663058,-2.5035841231,-0.0424794921185,2.14356065393,-0.285668883328,-0.540855738223,-0.409734101314,-0.0108373972851,-0.363750382233,-0.0664041694663,-0.0401460075266,-0.484935987041,0.573945043789,0.818867337423,0.00491093805828,0.0,0.818855497794,-0.573867797702,-0.0114965818336,0.0,-0.00659607314222,0.0106199592594,-0.999921851089,0.0,0.416762225545,-0.0608331245296,0.304974416753,1.0,-0.15998,-0.210259428571,3.021
-0.0212810232734,-0.361314526301,-0.131113811219,-2.509905035,-0.0435641108547,2.14274593102,-0.294156567888,-0.538046910689,-0.398207282814,-0.00281989013131,-0.373142952892,-0.0642730890178,-0.0532952167265,-0.50613166193,0.573964740498,0.818853844097,0.00485855686101,0.0,0.818840153128,-0.573885782084,-0.0116901517619,0.0,-0.00678439962505,0.0106883221498,-0.999919862635,0.0,0.413989376331,-0.0644190389856,0.304907578668,1.0,-0.15998,-0.210259428571,3.038
-0.0305025356114,-0.368157491505,-0.131175216043,-2.51606592932,-0.0446775598128,2.14195020876,-0.302722837354,-0.550297464759,-0.403423836733,-0.0104401107616,-0.361902109361,-0.0620565471747,-0.0373595308466,-0.50460158209,0.573808033833,0.818963904606,0.00481769270789,0.0,0.81894951731,-0.573728972755,-0.0117260743377,0.0,-0.0068393134149,0.0106741682888,-0.999919639733,0.0,0.411253923786,-0.0679234701788,0.304885327527,1.0,-0.15998,-0.210259428571,3.055
-0.0394710043872,-0.374429740297,-0.131277446554,-2.52166858157,-0.0456309087206,2.14115625096,-0.310821847057,-0.565371534767,-0.387364942672,-0.0121001565672,-0.343583280741,-0.0571177172357,-0.0473180271174,-0.502763454525,0.573947585199,0.81886599964,0.0048364221627,0.0,0.818851248039,-0.573867491273,-0.0118102898526,0.0,-0.00689571211678,0.0107390044245,-0.999918558153,0.0,0.408685796816,-0.0713157153841,0.304865579734,1.0,-0.15998,-0.210259428571,3.071
-0.0506396760398,-0.382253239742,-0.131432649119,-2.52832669341,-0.046824577338,2.1402382295,-0.32116443907,-0.55193038908,-0.385319221092,-0.00744463882233,-0.335498792307,-0.0507275456561,-0.0445058353995,-0.522440759659,0.573936060283,0.818872840252,0.00504153807509,0.0,0.818862019936,-0.573857344082,-0.0115536942682,0.0,-0.00656800924551,0.0107596129777,-0.999920542835,0.0,0.405573946606,-0.0755209468916,0.304978487148,1.0,-0.15998,-0.210259428571,3.091
-0.0585384515128,-0.387579200033,-0.131502925475,-2.53306489598,-0.0477341210565,2.13949667933,-0.32850035736,-0.57338994143,-0.374078622576,-0.00758316950938,-0.346698891865,-0.0644534375229,-0.0584771966901,-0.522967743919,0.573848048595,0.818935019221,0.00495966917122,0.0,0.818922854339,-0.573769134947,-0.0116226212588,0.0,-0.00667259494209,0.0107314115761,-0.999920153453,0.0,0.403315371666,-0.0784452684686,0.304941844542,1.0,-0.15998,-0.210259428571,3.105
-0.0683434124541,-0.394041940514,-0.131648739042,-2.53875575075,-0.0487749575947,2.13850453786,-0.337456228791,-0.57687474312,-0.379952146254,-0.0131588162897,-0.321462397869,-0.0664181371724,-0.0547489727037,-0.530105568504,0.57394979755,0.818863994941,0.00491269602019,0.0,0.818850327153,-0.573869592952,-0.0117719543355,0.0,-0.00682051400603,0.0107794810893,-0.999918638378,0.0,0.400528169343,-0.0820548997139,0.304902759964,1.0,-0.15998,-0.210259428571,3.122
-0.0803060641251,-0.401803579835,-0.131730542561,-2.54544974527,-0.0499748145888,2.1373829649,-0.348682512704,-0.572984130949,-0.365712887544,-0.0026638764663,-0.319556283939,-0.0583216982648,-0.0593301536922,-0.527880572827,0.573792598032,0.81897388804,0.0049570206722,0.0,0.818960783698,-0.573712253838,-0.0117571877217,0.0,-0.00678505687206,0.0108060008719,-0.999918593361,0.0,0.397196166816,-0.0863762018412,0.304910097406,1.0,-0.15998,-0.210259428571,3.143
-0.0885305647442,-0.40687043421,-0.131820313866,-2.54976418404,-0.0508189379415,2.13659632691,-0.356303513265,-0.589989769314,-0.35782050076,-0.00681252180116,-0.303974552784,-0.0617567714089,-0.0570057184396,-0.549934528111,0.573790311162,0.818975512562,0.00495333652187,0.0,0.818962557006,-0.573710292823,-0.0117293236216,0.0,-0.0067643789138,0.0107869770769,-0.999918938866,0.0,0.394963870954,-0.0893475681632,0.304924226458,1.0,-0.15998,-0.210259428571,3.157
-0.0986754527485,-0.412924842138,-0.131990532517,-2.55480293932,-0.0517484973924,2.13572654692,-0.365604395128,-0.590391824046,-0.362395844546,-0.00825036823237,-0.297566499346,-0.048278931228,-0.0561847208053,-0.555205969521,0.573972591048,0.818846839172,0.00510544849443,0.0,0.81883665054,-0.573893354513,-0.0115630566919,0.0,-0.00653851534728,0.0108176142272,-0.999920110329,0.0,0.392290510675,-0.093007422915,0.304988102085,1.0,-0.15998,-0.210259428571,3.174
-0.107407152389,-0.418182499484,-0.132036234994,-2.55930152518,-0.0525171971921,2.13483998216,-0.373927923889,-0.588704629713,-0.347511479033,-0.00402516220108,-0.300479260191,-0.0585682781146,-0.0709280177118,-0.558014048725,0.573798039645,0.818968994117,0.00513257005908,0.0,0.81895856184,-0.573717766154,-0.0116424091452,0.0,-0.00659025236061,0.0108839632884,-0.999919050682,0.0,0.389892356381,-0.0960591770734,0.304969548201,1.0,-0.15998,-0.210259428571,3.189
-0.117651539063,-0.424054167648,-0.132198376911,-2.56432553798,-0.0534715803924,2.13373718954,-0.383422080846,-0.605501126116,-0.340092253339,-0.0193241402437,-0.294716832739,-0.0543885613878,-0.0539538122518,-0.555961498506,0.573881923197,0.818910495708,0.00508774482288,0.0,0.818898379618,-0.573799981051,-0.0118225422497,0.0,-0.00676238624819,0.0109513001212,-0.999917166148,0.0,0.387103513573,-0.0996616486827,0.304926314079,1.0,-0.15998,-0.210259428571,3.206
-0.127954434443,-0.429757981685,-0.1323171088,-2.56908177153,-0.0543969029285,2.13279536383,-0.392980901309,-0.589681084102,-0.325214112881,-0.00248011319513,-0.271645031797,-0.047396794845,-0.0510269968137,-0.564356510527,0.573950400418,0.818862227868,0.00513191313073,0.0,0.818851060432,-0.573868906825,-0.0117543825599,0.0,-0.0066803031285,0.0109489158866,-0.999917744012,0.0,0.384400386165,-0.103256452354,0.304942208076,1.0,-0.15998,-0.210259428571,3.223
-0.138177541633,-0.435252524416,-0.132370445685,-2.5737114256,-0.0552667974819,2.13179753407,-0.402717872966,-0.612224981755,-0.317844219259,-0.00267377737089,-0.270908156701,-0.0527798837387,-0.0588743121363,-0.57373332863,0.573787180765,0.818976666677,0.0051222582114,0.0,0.818965009022,-0.573705152647,-0.011809264373,0.0,-0.00673297567366,0.0109711659827,-0.999917146845,0.0,0.381707315428,-0.106756792816,0.304919803834,1.0,-0.15998,-0.210259428571,3.24
-0.150016740695,-0.441340073628,-0.132550238441,-2.57864158006,-0.0562586528914,2.13064222863,-0.413684903764,-0.629168697202,-0.320055479946,-0.00536472047211,-0.252665084844,-0.0558089062809,-0.0545643345141,-0.57801697754,0.573962126676,0.818853665797,0.00518633329603,0.0,0.818843175369,-0.573880400507,-0.0117425280848,0.0,-0.00663920496419,0.0109867715462,-0.99991760251,0.0,0.378675091714,-0.110841303207,0.304967195294,1.0,-0.15998,-0.210259428571,3.259
-0.159795562982,-0.446443589815,-0.13259458751,-2.58271324145,-0.0570352047504,2.12971882265,-0.423032349796,-0.61289202166,-0.317163225973,-0.00358888338639,-0.258238383847,-0.0458881502438,-0.0645301028109,-0.570059365504,0.573809411853,0.818960099558,0.00527836169745,0.0,0.818951659634,-0.573728854162,-0.0115813637118,0.0,-0.00645645067654,0.0109684297484,-0.999919000616,0.0,0.376160261421,-0.11413387782,0.305032318881,1.0,-0.15998,-0.210259428571,3.275
-0.169818102541,-0.451326651746,-0.132727317475,-2.58681734353,-0.057839559429,2.1287108548,-0.432465904356,-0.631362276798,-0.303096182568,-0.0144090417714,-0.251901624939,-0.0446743847952,-0.0708199802069,-0.600503799496,0.57383665238,0.818941217552,0.00524647322642,0.0,0.818931422422,-0.573754605706,-0.0117356168261,0.0,-0.0066007192392,0.0110310412368,-0.999917369904,0.0,0.373546180853,-0.117501194294,0.304979806713,1.0,-0.15998,-0.210259428571,3.291
-0.179932869063,-0.456051648475,-0.132846770677,-2.59069067661,-0.0585998987239,2.12774465832,-0.441971945986,-0.623376091178,-0.29650784546,-0.00739660849964,-0.235953121361,-0.0429359237209,-0.056665064067,-0.587815442842,0.573898474876,0.818897766457,0.00526645313103,0.0,0.818887866948,-0.57381574141,-0.0117857192045,0.0,-0.00662945306221,0.0110766541076,-0.999916675571,0.0,0.370974989561,-0.120882451452,0.304967343211,1.0,-0.15998,-0.210259428571,3.307
-0.190587978324,-0.46089545579,-0.132903907218,-2.59458592791,-0.0593144200328,2.12677814916,-0.452204461561,-0.634263540462,-0.276893841963,-0.00511654066412,-0.23238114218,-0.0447614242582,-0.0568306453624,-0.606335282044,0.573779007517,0.818980944679,0.00534880248793,0.0,0.818972207009,-0.573696170385,-0.0117462816949,0.0,-0.00655151951255,0.0111205045355,-0.999916702516,0.0,0.368312627767,-0.12439441994,0.304985267908,1.0,-0.15998,-0.210259428571,3.324
-0.202891827239,-0.466152473065,-0.133081144006,-2.59894738906,-0.0602134562041,2.12562618932,-0.463719055771,-0.641822022638,-0.272398940454,-0.0055169575846,-0.223810523235,-0.0526766167579,-0.0667804034091,-0.613898533001,0.573942567378,0.818866523534,0.00531910597901,0.0,0.818856369007,-0.573858069529,-0.0119125930661,0.0,-0.00670254082627,0.0111929435557,-0.999914893359,0.0,0.365211626621,-0.12845481942,0.304924099974,1.0,-0.15998,-0.210259428571,3.343
-0.212403167613,-0.470236581159,-0.133128851257,-2.60217231735,-0.0608623005262,2.12476109144,-0.472855204218,-0.6401712068,-0.271788557794,-0.00445421140783,-0.209235241431,-0.0427162009706,-0.0616593461228,-0.623554922303,0.573836516302,0.818940593685,0.00535756238054,0.0,0.818931249584,-0.573752419401,-0.0118539692249,0.0,-0.00663390993998,0.0111899311003,-0.999915384761,0.0,0.36285018407,-0.131542297622,0.3049495426,1.0,-0.15998,-0.210259428571,3.358
-0.222152851226,-0.474289427247,-0.133264314611,-2.60521817291,-0.0615071659687,2.12390891802,-0.482133343334,-0.665667140465,-0.263721361028,-0.00707406218049,-0.208773580262,-0.0424966654008,-0.0589760980427,-0.618679155982,0.57388218246,0.818907809548,0.00547604037139,0.0,0.818901093033,-0.573799539728,-0.0116548246638,0.0,-0.00640220075366,0.0111730467756,-0.999917083988,0.0,0.360480564507,-0.134734931455,0.305038225021,1.0,-0.15998,-0.210259428571,3.373
-0.233921358292,-0.478863337,-0.133361766849,-2.60883928633,-0.0622954901583,2.12289429818,-0.493342735209,-0.636427659906,-0.247561476263,-0.00272069453202,-0.202631541952,-0.0362100230274,-0.0588695110587,-0.628277956092,0.573897181975,0.818897308126,0.00547450150607,0.0,0.818890863116,-0.573815050926,-0.0116098465731,0.0,-0.00636604331206,0.0111460920917,-0.999917615668,0.0,0.357764491318,-0.138332985226,0.305054318534,1.0,-0.15998,-0.210259428571,3.39
-0.244290946335,-0.482738279403,-0.133405604703,-2.61199560117,-0.0629172283272,2.12199534355,-0.503369879864,-0.65535267977,-0.235891063652,-0.00158153509925,-0.195900592937,-0.0466896027447,-0.0592761955783,-0.616335356293,0.573756650921,0.818995777431,0.00547439265675,0.0,0.818988545723,-0.573673177841,-0.0117300427325,0.0,-0.0064664677344,0.0112138708158,-0.999916213438,0.0,0.355051803871,-0.141817706155,0.305004284717,1.0,-0.15998,-0.210259428571,3.407
-0.255693305043,-0.486732747798,-0.133568459721,-2.6151885769,-0.0636506852934,2.12099435055,-0.514120054364,-0.671697313046,-0.232178390663,-0.00671060977162,-0.182043183161,-0.0411864138629,-0.0570576371817,-0.63411307544,0.573921657734,0.818880337611,0.00544705040711,0.0,0.81887206768,-0.573837072479,-0.0118447424623,0.0,-0.00657383381386,0.0112586084221,-0.999915010611,0.0,0.352272705841,-0.145467551556,0.30497506837,1.0,-0.15998,-0.210259428571,3.424
-0.266838811533,-0.490502559254,-0.133600949701,-2.61819832489,-0.0642340666161,2.12009641957,-0.524984368102,-0.665263879994,-0.214244250181,-0.00347649146038,-0.173898424431,-0.0362301474316,-0.0537861644415,-0.625115949808,0.57376242151,0.818991693977,0.00548048916938,0.0,0.818983376313,-0.573676917373,-0.0119067500775,0.0,-0.0066076265006,0.0113202932313,-0.999914091426,0.0,0.349590791836,-0.148959565006,0.304951734509,1.0,-0.15998,-0.210259428571,3.441
-0.278291843764,-0.494192893847,-0.133770202648,-2.62105761914,-0.064853584759,2.11922728907,-0.535910022749,-0.687590657398,-0.2200110288,-0.00943665347772,-0.166022192894,-0.0328311190974,-0.0534306336526,-0.638913696976,0.573894345759,0.818898716454,0.0055604853837,0.0,0.818891479289,-0.573808588871,-0.0118825665125,0.0,-0.00654009011079,0.0113729908014,-0.999913937447,0.0,0.346859196739,-0.152586774123,0.304961634259,1.0,-0.15998,-0.210259428571,3.458
-0.289627615506,-0.497751865647,-0.133791257366,-2.6237824789,-0.0654246093748,2.11833282061,-0.546891060534,-0.662469736513,-0.204145300888,-0.00173306711379,-0.154309060195,-0.0276854903175,-0.0549784579759,-0.645478751381,0.573805224304,0.818960941787,0.00559350433434,0.0,0.818954199314,-0.573719476504,-0.0118629088644,0.0,-0.00650628190351,0.0113880422004,-0.999913986696,0.0,0.344164506264,-0.156100303669,0.304980740508,1.0,-0.15998,-0.210259428571,3.475
-0.300425062632,-0.500926094619,-0.133857989464,-2.62621102367,-0.0659629893712,2.1175298846,-0.557327430268,-0.680777845164,-0.193369593416,-0.00766279460853,-0.146551727131,-0.0340052620574,-0.0493669536335,-0.659328877044,0.57378378539,0.818975733427,0.0056269514463,0.0,0.818969475592,-0.573698006238,-0.0118466277619,0.0,-0.00647405447965,0.0114059239959,-0.99991399206,0.0,0.341614346379,-0.159451198718,0.304993680674,1.0,-0.15998,-0.210259428571,3.491
-0.312728416374,-0.504281849339,-0.133970567422,-2.62876774451,-0.0665561579552,2.11671693071,-0.569144281838,-0.662396393036,-0.179222971294,-0.00379129178845,-0.138922531917,-0.039868315128,-0.0416941545793,-0.655998619245,0.573866654341,0.818917299465,0.00568036745345,0.0,0.818912080417,-0.573781277319,-0.0117812243174,0.0,-0.00638868291129,0.0114127930436,-0.999914462784,0.0,0.338742393649,-0.163274344881,0.305010914797,1.0,-0.159084,-0.209081828571,3.509
-0.323510728513,-0.507071734745,-0.133992616791,-2.63088481686,-0.0670528783751,2.11605707608,-0.579670304649,-0.68124367335,-0.171914917951,-0.00226426833085,-0.133996223157,-0.0292999889806,-0.0398634328368,-0.651617088055,0.573761402183,0.818990906304,0.00570049619163,0.0,0.81898649489,-0.573676955975,-0.0116883819181,0.0,-0.00630255654133,0.0113751908014,-0.999915437832,0.0,0.336246564417,-0.16658670349,0.305029651427,1.0,-0.157292,-0.206726628571,3.525
-0.335142855901,-0.50989996977,-0.134044757356,-2.63301535238,-0.0675292048694,2.11532045661,-0.590767158096,-0.679766711611,-0.16245473851,0.00247844499802,-0.125395996843,-0.0329015374626,-0.0471641616122,-0.655902389514,0.573913596082,0.818883917516,0.00574984931543,0.0,0.818880311835,-0.573829253619,-0.0116520162109,0.0,-0.00624233712499,0.0113959083322,-0.999915579687,0.0,0.333553784054,-0.170145131562,0.305046830912,1.0,-0.155388,-0.204224228571,3.542
-0.34639648815,-0.512454740921,-0.133995291286,-2.63500041538,-0.0679118424167,2.11460364826,-0.601845053014,-0.665217609186,-0.139559586239,0.0014173641026,-0.112446930701,-0.0198485221923,-0.0357875382992,-0.648790164565,0.573747284767,0.819000225506,0.00578193264542,0.0,0.818996552096,-0.573661980831,-0.0117186307186,0.0,-0.00628080719174,0.0114591360809,-0.999914616185,0.0,0.330949563079,-0.173524244681,0.305030810625,1.0,-0.153484,-0.201721828571,3.559
-0.357893979807,-0.514810660056,-0.134031948138,-2.63685195193,-0.0683303525091,2.11391395056,-0.612844766674,-0.679755910985,-0.143287888998,-0.00262290271179,-0.109271754698,-0.0283752740649,-0.0419184254141,-0.638811754726,0.573898055634,0.818894466185,0.00579843879831,0.0,0.818890324985,-0.573811421406,-0.011825193897,0.0,-0.00635649781727,0.0115349633007,-0.999913266017,0.0,0.328292858709,-0.176999529275,0.305000177809,1.0,-0.15158,-0.199219428571,3.576
-0.368395364955,-0.516802443014,-0.133978719919,-2.63843030373,-0.0686265126962,2.11335173783,-0.623112149778,-0.654919937778,-0.122179655129,2.04568076482e-06,-0.0931830093427,-0.0180379571906,-0.0276658458695,-0.634737011784,0.573836507495,0.8189373321,0.005835722853,0.0,0.818933133957,-0.573748761473,-0.0119007443628,0.0,-0.00639784825767,0.0116083718838,-0.999912152761,0.0,0.325894671685,-0.180132297271,0.30497102744,1.0,-0.149788,-0.196864228571,3.592
-0.379578106064,-0.518784949739,-0.133967945335,-2.63998401519,-0.0689602040077,2.11274694349,-0.633908412045,-0.656826989129,-0.116795009843,-0.00147325945565,-0.0927001948947,-0.0193241057813,-0.0410292240746,-0.630975918705,0.573915030255,0.818882101666,0.00586417252758,0.0,0.818877604758,-0.57382594382,-0.012000063581,0.0,-0.00646174735863,0.0116892814613,-0.999910799282,0.0,0.323332239968,-0.183471259917,0.304943716381,1.0,-0.147884,-0.194361828571,3.609
