nelsonifechukwu/NELSON_IML_WORK/CNN-GradCAM/train2dof/data_sample_2022-02-21-10-57-17/robot_state.csv
position_joint1,position_joint2,position_joint3,position_joint4,position_joint5,position_joint6,position_joint7,velocity_joint1,velocity_joint2,velocity_joint3,velocity_joint4,velocity_joint5,velocity_joint6,velocity_joint7,ee_T_00,ee_T_10,ee_T_20,ee_T_30,ee_T_01,ee_T_11,ee_T_21,ee_T_31,ee_T_02,ee_T_12,ee_T_22,ee_T_32,ee_T_03,ee_T_13,ee_T_23,ee_T_33,v_x,v_y,time
0.465068021449,0.547714660476,-0.123975775042,-1.3557333057,0.0795076210358,1.8940923322,0.159186786505,0.000856052789855,0.00156974325053,0.000577937675922,0.000841217343965,9.01567409643e-05,0.00496061099737,0.000892295904727,0.573820480317,0.818966699667,0.00208521108012,0.0,0.81892527889,-0.573761323413,-0.011835465803,0.0,-0.00849660248473,0.00849922837369,-0.999927782824,0.0,0.66169819716,0.260907520957,0.303307837143,1.0,0.0,0.0,0.0
0.465061610505,0.547707482609,-0.123973269388,-1.35573836584,0.079507621579,1.89409302827,0.159180107149,-0.000956742892002,-0.000447262533621,0.00046106851662,0.000450788214272,9.58948497487e-06,0.000995399472481,-0.000794910482558,0.573818778383,0.818967883448,0.00208862536172,0.0,0.818926490098,-0.573759591083,-0.0118356392644,0.0,-0.00849480315542,0.00850210639256,-0.999927773645,0.0,0.661698463201,0.260904270416,0.303310491176,1.0,-0.0001,-0.000131428571429,0.006
0.465062974917,0.547706444307,-0.123972636369,-1.35574169487,0.0795082317607,1.89409314601,0.159185472439,-0.00119218560832,0.000736929014567,0.00469706923648,-0.0010195390369,0.000250626155263,0.000245841238529,-8.14266388828e-05,0.57382195502,0.818965661013,0.00208732354228,0.0,0.818924239101,-0.573762760884,-0.0118377251514,0.0,-0.00849722548291,0.00850227012801,-0.999927751671,0.0,0.661697215153,0.260905264556,0.303309632585,1.0,-0.00038,-0.000499428571429,0.02
0.465057386373,0.547705781843,-0.123976830581,-1.35574050696,0.0795043041551,1.89409173792,0.159181970004,0.000673385446431,0.00143474554579,-0.000560617710273,-0.000876048181958,-6.21975137265e-05,0.000434875645895,0.000411382689788,0.57382311436,0.818964865243,0.00208082311842,0.0,0.818923382271,-0.573763969524,-0.01183841828,0.0,-0.00850151097947,0.00849735635299,-0.999927757014,0.0,0.661696213402,0.260901740671,0.303307611014,1.0,-0.0007,-0.00092,0.036
0.465056673535,0.547661705269,-0.123974307166,-1.35579559943,0.07950810027,1.8940951008,0.159181943734,-0.0016333452103,-0.00637817960094,-0.000277797668799,-0.00357813148059,-7.80395672304e-05,0.00214294333549,-0.000373514306792,0.57382823604,0.81896126991,0.00208346151279,0.0,0.81891975489,-0.573769013683,-0.0118448676176,0.0,-0.00850522592071,0.0085032709968,-0.999927675142,0.0,0.661688464923,0.260894427022,0.303315894074,1.0,-0.00102,-0.00134057142857,0.052
0.465066535418,0.547522529292,-0.123967989761,-1.35595252572,0.0795048579293,1.89412752156,0.15918289324,-0.000491145918447,-0.00954045880695,0.000973885763376,-0.00751808234192,0.000177759181619,0.00106923842392,0.000117249895432,0.573824207561,0.818964043165,0.00210278884028,0.0,0.818922659743,-0.573764788426,-0.011848705551,0.0,-0.00849732121007,0.00852125956407,-0.999927589212,0.0,0.66165879289,0.260889487343,0.303342394515,1.0,-0.00136,-0.00178742857143,0.069
0.465054147055,0.547364637313,-0.123975717362,-1.35616027741,0.0795000646878,1.89417705021,0.159177236018,-0.00141518146792,-0.0105414537189,-0.000656692797403,-0.0113928440356,-0.000165899934792,0.00663635988756,0.000692252407948,0.573845253556,0.818949287276,0.00210635791411,0.0,0.818907885237,-0.573785752301,-0.0118546553675,0.0,-0.00849992705369,0.00852781500704,-0.999927511178,0.0,0.661630485491,0.260856817234,0.303359904329,1.0,-0.00172,-0.00226057142857,0.087
0.465049193601,0.547203565042,-0.123973249597,-1.35635956176,0.0794967545889,1.89430081797,0.159165259683,0.00064410720531,-0.0123342075581,-0.000138923093607,-0.0108693038627,0.000611958460368,0.00581396522243,0.00128055193126,0.573848341915,0.818946921828,0.00218325690595,0.0,0.818906499334,-0.573788514984,-0.0118166121466,0.0,-0.00842461260588,0.00856899153701,-0.999927796537,0.0,0.661614647793,0.260841311484,0.303389808241,1.0,-0.00204,-0.00268114285714,0.103
0.465036410355,0.54699969708,-0.123966138359,-1.35658089426,0.0794954159661,1.89442567612,0.15914643135,-0.000691495887021,-0.0118192876434,0.00160678405169,-0.0211749141969,-0.000118298664635,0.00824552678205,-0.000136576943864,0.57385062944,0.818945047302,0.00228286920547,0.0,0.818905841148,-0.573790336945,-0.0117736766889,0.0,-0.00833226634421,0.00862595278198,-0.999928080552,0.0,0.661595958754,0.260821652546,0.303439469752,1.0,-0.00238,-0.003128,0.12
0.465015890169,0.546791006548,-0.123971149667,-1.35687393834,0.0794882187332,1.89455601182,0.159127610704,0.000277313090574,-0.0115604805141,0.00259613928057,-0.0154739967449,0.000122969154736,0.00957667968741,-0.00157960645851,0.5738701275,0.81893126321,0.00232589784158,0.0,0.818892580235,-0.57380963232,-0.0117556281548,0.0,-0.00829258848734,0.00865103087202,-0.999928193742,0.0,0.661567157751,0.260780821353,0.303459268583,1.0,-0.00272,-0.00357485714286,0.137
0.464983802378,0.546529675916,-0.123961528146,-1.35726115841,0.0794799917622,1.89468929818,0.159044991693,-0.0036258742719,-0.0189906810594,0.00114533418551,-0.0215288572949,5.9180872473e-05,0.00167847897937,-0.00683460675822,0.573841419007,0.818951328725,0.00234390962325,0.0,0.818912682675,-0.573780653623,-0.0117697316325,0.0,-0.00829410705082,0.00867358381224,-0.999927985773,0.0,0.661518422454,0.26073034676,0.303471278512,1.0,-0.00306,-0.00402171428571,0.154
0.46494832109,0.546245211894,-0.123966164558,-1.35769230334,0.0794660609665,1.89484833434,0.158956646948,-0.00202696141857,-0.0171004633143,0.00155534611568,-0.022888460577,-0.000295408667218,0.0173725439205,0.00127373106908,0.573814732931,0.818969972191,0.0023630112307,0.0,0.818931488565,-0.573753808983,-0.0117699029367,0.0,-0.00828356987088,0.00868905530616,-0.999927938798,0.0,0.661472622183,0.260668519821,0.303485025774,1.0,-0.00338,-0.00444228571429,0.17
0.464903675457,0.545955373945,-0.123969124028,-1.35818687617,0.0794495684755,1.89502244342,0.158931039737,0.000321612925523,-0.0192216502431,-0.00274964761637,-0.0284557106123,-8.37105032884e-05,0.0148843691007,-0.000187593112166,0.573862721205,0.818936413412,0.00233985041119,0.0,0.818897508513,-0.573801753205,-0.0117968415708,0.0,-0.00831841301264,0.00868603251051,-0.999927675807,0.0,0.661411888103,0.260588287379,0.303466455611,1.0,-0.00374,-0.00491542857143,0.188
0.464834185297,0.545659006196,-0.123971174999,-1.35871812756,0.0794115337692,1.89519613039,0.158855667201,-0.00299758114089,-0.0172021224821,0.000809671985278,-0.0386408013483,0.00057460024942,0.00797942367234,-0.00793503885912,0.573878875315,0.818925252516,0.00228345353363,0.0,0.818885636001,-0.573818144675,-0.0118236582464,0.0,-0.00837256644284,0.00865540163903,-0.999927489448,0.0,0.66135305906,0.260487592111,0.30343850592,1.0,-0.00406,-0.005336,0.204
0.464759581301,0.545266167821,-0.123973961008,-1.35941338654,0.079305853653,1.89541848299,0.158743802163,-0.00653382387147,-0.0282047271115,0.00038101815484,-0.0385246118762,-0.00254193055154,0.0132450752288,0.000697745939144,0.573849548372,0.818946105205,0.00217244196838,0.0,0.818905625872,-0.573789848777,-0.0118123772737,0.0,-0.00842733746537,0.00855771707609,-0.999927870129,0.0,0.661279771159,0.260362023172,0.303400239587,1.0,-0.0044,-0.00578285714286,0.221
0.464685734022,0.544882268474,-0.123974372271,-1.36007532165,0.0792980882359,1.89562705745,0.15870124474,-0.000544395307757,-0.0262732065603,0.000865696477734,-0.0429150976914,2.87666879403e-05,0.0121446912211,-0.00696724888194,0.573921560811,0.818895732442,0.00213736398034,0.0,0.818854394533,-0.573861584503,-0.0118789430281,0.0,-0.00850122834622,0.00856793637082,-0.999927157138,0.0,0.661193355828,0.260247533868,0.3033796871,1.0,-0.00474,-0.00622971428571,0.238
0.464610420528,0.54445595379,-0.123982854011,-1.36079883988,0.0792752298736,1.89587586962,0.158569805986,-0.00804105494916,-0.0231252391029,-0.000480979978066,-0.0393652207576,-0.00393778202268,0.011935768207,-0.0069712098644,0.57391576423,0.818899877716,0.00210540895652,0.0,0.818857939836,-0.573855733331,-0.0119171553498,0.0,-0.00855092068972,0.00856363903729,-0.99992677024,0.0,0.66111066499,0.260125725502,0.303358890972,1.0,-0.00508,-0.00667657142857,0.255
0.464545494834,0.54399521019,-0.123986382634,-1.36153429306,0.0792445774124,1.89615126738,0.158509518956,-0.00380067968816,-0.026953373292,-0.000360510432847,-0.0489409984692,-0.000931153916422,0.0138120703558,-0.00258181085627,0.573954920382,0.818872418438,0.00211153797379,0.0,0.818830455177,-0.573894754127,-0.0119265988861,0.0,-0.0085547270123,0.00857448679973,-0.99992664472,0.0,0.66102794876,0.260013242355,0.303358865407,1.0,-0.0054,-0.00709714285714,0.271
0.464475661353,0.543487812988,-0.123999833517,-1.36235956086,0.0792010945492,1.89644051288,0.158386210533,-0.00810543364958,-0.0327386766791,-0.00603469662663,-0.0476995351847,-0.00502471773094,0.00866133882374,-0.0077799408458,0.573937234378,0.81888486712,0.00209100399307,0.0,0.818842558658,-0.573877077038,-0.0119461911398,0.0,-0.00858274112882,0.00856873193859,-0.999926453989,0.0,0.660923617205,0.259882826882,0.303351133681,1.0,-0.00576,-0.00757028571429,0.289
0.464400654332,0.542945003817,-0.123990354946,-1.36322401704,0.0791482537691,1.89674593671,0.158266222504,-0.00230299737965,-0.0310486988089,0.000273412342652,-0.0490812089807,-0.00592462395787,0.0205275600312,-0.0074194109807,0.573945355547,0.818879214729,0.00207543548468,0.0,0.81883668549,-0.573885243786,-0.011956436015,0.0,-0.00859998071215,0.00856194847698,-0.999926363974,0.0,0.660829099163,0.259753194488,0.303349221829,1.0,-0.00608,-0.00799085714286,0.305
0.464340584692,0.54235511745,-0.12399638422,-1.36413222132,0.0790925609196,1.89707783744,0.158174250177,-0.00127812164302,-0.0314506566546,0.00107499403219,-0.0509106976704,-0.0056100259741,0.0274985215457,-0.00590448223637,0.573959060919,0.818869584881,0.00208476540722,0.0,0.818827204413,-0.573898935892,-0.0119485394936,0.0,-0.00858801627223,0.00856520004401,-0.999926438957,0.0,0.660721631621,0.25962346069,0.30336309396,1.0,-0.00642,-0.00843771428571,0.322
0.464258643734,0.541735957334,-0.12399670943,-1.36507671511,0.0790405604193,1.89743055648,0.158031020295,-0.00486359769328,-0.0399743872284,0.000342135933529,-0.0516674423976,-0.00712039396663,0.023721414631,-0.00764157711397,0.573947692135,0.818877486358,0.00211090749008,0.0,0.818835399428,-0.573887413679,-0.0119403503048,0.0,-0.00856642573407,0.00858178750452,-0.999926481934,0.0,0.660614740086,0.259480674725,0.303381941151,1.0,-0.00676,-0.00888457142857,0.339
0.464201374319,0.541127840862,-0.123998957801,-1.36602353955,0.0789773951994,1.89777655848,0.157902684386,-0.00673832567574,-0.0439362362194,0.000381164407136,-0.0631152120725,-0.00151703506679,0.0223242446142,-0.00240881223266,0.573926714045,0.818892183565,0.00211317374223,0.0,0.818850175054,-0.573866477901,-0.0119332835436,0.0,-0.00855955784349,0.00857936808013,-0.99992656151,0.0,0.660500184114,0.259350393637,0.303391247452,1.0,-0.00708,-0.00930514285714,0.355
0.464110590188,0.540439065813,-0.123999583006,-1.36709130195,0.078923684112,1.89816865307,0.157760211505,-0.0034390705205,-0.0415187801775,-0.000375485501708,-0.0633410571288,-0.0031212752051,0.0227134705148,-0.0088701074471,0.573929641821,0.818890087962,0.00213001848266,0.0,0.81884819144,-0.573869228396,-0.0119371259844,0.0,-0.00855300675616,0.0085953977109,-0.999926479904,0.0,0.66037664934,0.259190281752,0.303403886322,1.0,-0.00742,-0.009752,0.372
0.464016549149,0.539719773471,-0.123994843898,-1.36820636861,0.0788580710578,1.89858694736,0.157631495692,-0.00522436007675,-0.0434976427099,0.00168301362507,-0.0630580896392,-0.00520110147225,0.026091228932,-0.0180148319853,0.573945501033,0.818878920188,0.00215007364431,0.0,0.818837296963,-0.573885015797,-0.0119254621382,0.0,-0.00853177877429,0.00860529151164,-0.999926576159,0.0,0.660256276451,0.259034217004,0.303420360281,1.0,-0.00774,-0.0101725714286,0.388
0.463915527657,0.538966937205,-0.124003429239,-1.36938492985,0.0787930890441,1.8990324138,0.15748911141,-0.00534990490006,-0.042285200058,-0.00309975345685,-0.0692533873845,-0.00113070128446,0.0332070208676,-0.00972994707836,0.573962160874,0.818867196705,0.00216770546032,0.0,0.818825742142,-0.573901540203,-0.0119236344799,0.0,-0.00851998767488,0.0086188539835,-0.999926559886,0.0,0.660116147074,0.258843798141,0.303427368459,1.0,-0.0081,-0.0106457142857,0.406
0.463811750434,0.538233492252,-0.124000309689,-1.37050736807,0.07872854066,1.89946050154,0.157345448286,-0.00918439166897,-0.0451063018963,0.00128038932192,-0.0680837165877,-0.00538648127778,0.0301111974787,-0.0111569152122,0.573972076692,0.818860152251,0.00220298318988,0.0,0.818819123353,-0.573911277797,-0.0119094647275,0.0,-0.00848803262344,0.00863971130745,-0.999926651655,0.0,0.659990791325,0.258672100628,0.303448182556,1.0,-0.00842,-0.0110662857143,0.422
0.463693698423,0.537362190004,-0.124011578054,-1.37190402883,0.0786506558098,1.90000115671,0.157176625412,-0.00996013770844,-0.0437128909766,-0.000488731115982,-0.0763785676734,-0.00517931458451,0.0251990405728,-0.00495299529316,0.573994794812,0.818844196587,0.00221453071587,0.0,0.818803333324,-0.573933962205,-0.0119019018429,0.0,-0.00847497203367,0.0086450612823,-0.999926716197,0.0,0.659835468237,0.258457379238,0.303445938232,1.0,-0.0088,-0.0115657142857,0.441
0.463579461906,0.536621914979,-0.124006666349,-1.37304084804,0.0785835353548,1.900427753,0.157030625752,-0.00541211231113,-0.0490029923936,0.00126185073353,-0.0737444489766,-0.00058813184351,0.0270788027622,-0.00492596407962,0.574009959018,0.8188334922,0.00224185223463,0.0,0.818792947017,-0.573948976759,-0.0118923880641,0.0,-0.00845133956747,0.00866212875607,-0.999926768511,0.0,0.659708592733,0.258277717274,0.303464273462,1.0,-0.0091,-0.01196,0.456
0.463438440623,0.535679172869,-0.124023349429,-1.37456552366,0.0784877155942,1.90098394901,0.156845791779,-0.00965100018638,-0.0484572735015,-0.00213318411168,-0.0825526855046,-0.0117081644264,0.0285185130043,-0.00756930586582,0.574043951116,0.818809742028,0.00221256596109,0.0,0.818768898342,-0.573983166273,-0.0118980185031,0.0,-0.00847240096524,0.00864173212658,-0.999926766762,0.0,0.65953605427,0.258028640728,0.303452700511,1.0,-0.00948,-0.0124594285714,0.475
0.463330297986,0.534924439291,-0.124018124198,-1.37574591654,0.0784236627133,1.90141087912,0.156703663536,-0.00949970228212,-0.0524587218954,0.000907636923535,-0.0797895629645,-0.00341510100571,0.0233677064763,-0.0134423250124,0.574060000425,0.818798473194,0.00221880779113,0.0,0.818757594476,-0.573999069844,-0.0119086610188,0.0,-0.00847736306726,0.00865311827855,-0.999926626238,0.0,0.659397140554,0.25784875524,0.303460248662,1.0,-0.00976,-0.0128274285714,0.489
0.463209069029,0.534025489624,-0.124032933759,-1.3772277929,0.0783460677094,1.90194204049,0.15653404744,-0.00619496840644,-0.0505877520349,0.000699179677914,-0.0895999060078,-0.00873126012202,0.0236439158369,-0.0144408813432,0.574091199662,0.818776712461,0.00217635105444,0.0,0.818735197303,-0.574030352232,-0.0119406161695,0.0,-0.00852757107186,0.00863702416092,-0.99992633846,0.0,0.659221137492,0.2576196063,0.303435607609,1.0,-0.0101,-0.0132742857143,0.506
0.463077808894,0.533113372341,-0.124033311282,-1.37871772264,0.0782567079286,1.90250848179,0.156328406324,-0.00832441138229,-0.0525535589601,0.00538221141894,-0.0907055529831,-0.00607180840068,0.0306685205485,-0.00424517223356,0.574088265377,0.81877880035,0.00216484515862,0.0,0.818737126335,-0.574027456292,-0.0119475639637,0.0,-0.00853989594906,0.00863156155981,-0.999926280444,0.0,0.659050205352,0.257391952564,0.303418809691,1.0,-0.01044,-0.0137211428571,0.523
0.462948827569,0.532145799702,-0.124032955065,-1.38026282534,0.0781775720911,1.90308966319,0.156139877945,-0.0104201855208,-0.0626142862695,0.000598091077489,-0.0930753695029,-0.00438383657412,0.0340266054654,-0.013475012685,0.57410252038,0.818768780129,0.00217432312042,0.0,0.818727092031,-0.574041531486,-0.0119589215538,0.0,-0.00854360432917,0.00864599071271,-0.999926124106,0.0,0.658869106742,0.257163076986,0.303415925261,1.0,-0.01078,-0.014168,0.54
0.462818915143,0.531148493445,-0.124035086729,-1.38185868653,0.0780761872194,1.90366752393,0.15593365761,-0.012450443623,-0.0555555560345,0.000237390136919,-0.0988351391884,-0.00300915138258,0.032309301992,-0.00856508730987,0.574101216712,0.818769750843,0.00215289918959,0.0,0.818727793703,-0.574040326458,-0.0119687225141,0.0,-0.0085639418796,0.00863406279388,-0.999926053196,0.0,0.658677895055,0.256922730896,0.303409379908,1.0,-0.01112,-0.0146148571429,0.557
0.462697652748,0.530172125542,-0.124037871126,-1.38340470627,0.0779794118867,1.9042113252,0.155725836773,-0.00656724232721,-0.0622544333318,0.000478445673508,-0.0958598749875,-0.00323405570486,0.0305263613552,-0.0137766213112,0.574090752137,0.818777132889,0.00213585353944,0.0,0.81873493046,-0.574029910519,-0.0119800824671,0.0,-0.00858313901011,0.00862651854052,-0.99992595371,0.0,0.658476892671,0.256677968975,0.303413936144,1.0,-0.01146,-0.0150617142857,0.574
0.462562152864,0.529123541564,-0.12403508718,-1.38504634351,0.0778788409056,1.90482115282,0.155499129131,-0.00644263698876,-0.06242141159,0.000117013514574,-0.0986940064331,-0.00492513892189,0.0263139134723,-0.0177501692469,0.57407563913,0.818787711208,0.002142762999,0.0,0.818745576249,-0.574014748023,-0.0119790369703,0.0,-0.00857847586265,0.00863141721278,-0.999925951453,0.0,0.658293423357,0.256448228563,0.303418594026,1.0,-0.01178,-0.0154822857143,0.59
0.462422907142,0.528044188948,-0.124037980239,-1.38674371462,0.0777693948502,1.90548473691,0.155258594493,-0.0100137073181,-0.0608795706147,-0.00046633032578,-0.0976553621779,-0.00289554023608,0.0407102402901,-0.0111278372998,0.574057476264,0.818800359846,0.00217521537255,0.0,0.818758748468,-0.57399655528,-0.0119504491188,0.0,-0.00853663026452,0.00864138765091,-0.99992622346,0.0,0.658099406987,0.256194893535,0.303428268717,1.0,-0.01212,-0.0159291428571,0.607
0.46227808111,0.526885860874,-0.124037928286,-1.38851221241,0.0776589217301,1.90616315429,0.155018237729,-0.0077707032989,-0.0691798976937,0.000315777533195,-0.10576343711,-0.00518864079163,0.039737400971,-0.0173667950869,0.574045165707,0.818808840996,0.00223081523444,0.0,0.818767999613,-0.573984067114,-0.0119163925408,0.0,-0.00847695837164,0.00866723452884,-0.999926507411,0.0,0.657894069176,0.255933068327,0.303460574238,1.0,-0.01246,-0.016376,0.624
0.462123005157,0.525714721344,-0.12404608749,-1.39032969722,0.0775403659148,1.9068223613,0.154773771376,-0.012939068791,-0.0709628597963,-0.000895915191059,-0.10911270891,-0.0121679228361,0.0447654366504,-0.0151251635237,0.574043678355,0.818809870752,0.00223557638847,0.0,0.818769161824,-0.573982632908,-0.0119056149516,0.0,-0.00846541600372,0.00866493083246,-0.999926625161,0.0,0.657678113323,0.255651526853,0.303476868681,1.0,-0.0128,-0.0168228571429,0.641
0.46194348556,0.524335670889,-0.124055701132,-1.39253008289,0.0774117992543,1.9076075152,0.154478204047,-0.00821964981509,-0.0739477635226,-0.00175288977805,-0.109961066878,-0.00752571534163,0.0434014762292,-0.022289272638,0.574039071124,0.81881318317,0.00220517347967,0.0,0.818772000318,-0.573978069213,-0.0119304006418,0.0,-0.00850321182302,0.00865421702404,-0.99992639725,0.0,0.657409295903,0.255317307639,0.303467812897,1.0,-0.0132,-0.0173485714286,0.661
0.461799211377,0.523283157185,-0.124052895435,-1.39421574177,0.0773052204391,1.90822412093,0.154250302057,-0.0109461352566,-0.0741076351572,5.03039288376e-05,-0.109548833322,-0.00670037140735,0.0472349463775,-0.0151313381803,0.574030306119,0.818819372247,0.0021886505134,0.0,0.81877795762,-0.573969355676,-0.011940760517,0.0,-0.0085212717666,0.00864654368494,-0.99992630989,0.0,0.657205560607,0.255062460123,0.303458791568,1.0,-0.0135,-0.0177428571429,0.676
0.46164426476,0.522055561953,-0.124053849577,-1.39616670237,0.0771867951847,1.90899309764,0.153982719409,-0.00648055991258,-0.0683515714914,-0.000227570845766,-0.11654856116,-0.00916651338267,0.0507472596754,-0.0172457424446,0.574011624122,0.81883237287,0.00222427830023,0.0,0.818791462059,-0.573950572124,-0.0119176053894,0.0,-0.00848205860287,0.00866223088148,-0.999926507518,0.0,0.656978072923,0.254777628756,0.303459609277,1.0,-0.01384,-0.0181897142857,0.693
0.461490005622,0.520951176501,-0.12405693345,-1.39794189535,0.0770761843239,1.90966240217,0.153741790865,-0.0112072757388,-0.0692201099771,0.000959137416255,-0.11514907691,-0.00796680908863,0.0454839591193,-0.0113004032475,0.574007937471,0.818834971619,0.00221898061531,0.0,0.818794016017,-0.573946931993,-0.0119174448706,0.0,-0.00848500687874,0.00865776268833,-0.999926521202,0.0,0.656768138481,0.254505823394,0.303448638829,1.0,-0.01414,-0.018584,0.708
0.461313538507,0.519650389432,-0.124054952232,-1.39999364622,0.0769467342388,1.91040223237,0.153470665716,-0.0104440774739,-0.0811995096269,0.00196408598988,-0.123652202205,-0.00217163828656,0.0404232615801,-0.0132920351974,0.574003241867,0.818838294522,0.00220740819042,0.0,0.81879715819,-0.573942253144,-0.0119268896732,0.0,-0.00849943280893,0.00865365950083,-0.999926434204,0.0,0.656517073485,0.254193957059,0.30344957647,1.0,-0.01448,-0.0190308571429,0.725
0.461149857023,0.518294431008,-0.124061046231,-1.40206207383,0.0768142998137,1.91114511851,0.153179994894,-0.00593808073397,-0.0836854828792,-0.0010805593743,-0.120510240091,-0.00457210595968,0.0446303462838,-0.0197956953862,0.573977452657,0.818856311391,0.00222980679511,0.0,0.818815493948,-0.573916404559,-0.0119119414642,0.0,-0.00847460891267,0.00866315296272,-0.999926562696,0.0,0.656262145719,0.253884306626,0.303481384473,1.0,-0.01482,-0.0194777142857,0.742
0.460979733244,0.517002857053,-0.124068790437,-1.40408547965,0.0766850539389,1.91187087509,0.152900799583,-0.0111669385642,-0.0813940282139,1.41882581218e-05,-0.119399754754,-0.00817861443624,0.0463629220572,-0.0147190109354,0.573965747431,0.818864542541,0.0022200554918,0.0,0.818823621024,-0.573904763435,-0.011914153829,0.0,-0.00848214101058,0.00865631674503,-0.999926558035,0.0,0.656013863289,0.253573366977,0.303487647224,1.0,-0.01514,-0.0198982857143,0.758
0.460795661428,0.515662954057,-0.124072457516,-1.40624562942,0.0765463372615,1.91269763273,0.15260324846,-0.00873273296428,-0.0802992677413,-0.000137217914779,-0.130072675812,-0.00562111340588,0.053887381025,-0.0200661229341,0.57395230241,0.818873971783,0.00221806109112,0.0,0.818833101046,-0.57389140645,-0.0119060126191,0.0,-0.00847676084625,0.00864987173365,-0.999926659433,0.0,0.655756994045,0.25324538868,0.303471013562,1.0,-0.01548,-0.0203451428571,0.775
0.460618812346,0.514346674219,-0.124071986858,-1.40833982313,0.0764209244001,1.91345586795,0.152328029783,-0.014355045739,-0.0793599157801,0.000185517364482,-0.131926042815,-0.0143586360119,0.0527024228928,-0.014908139459,0.573947813667,0.818877160548,0.0022022763739,0.0,0.818835998169,-0.573886894221,-0.0119242460918,0.0,-0.00850079889959,0.00864736463543,-0.999926477049,0.0,0.655497186319,0.252929668766,0.303462727162,1.0,-0.0158,-0.0207657142857,0.791
0.460421773457,0.512940771709,-0.124073022953,-1.41061603897,0.076284187121,1.91424647254,0.15200868689,-0.0079864318739,-0.0817035929699,0.000331890504453,-0.136104876178,-0.00760253568434,0.0479827478987,-0.0162419334874,0.573930779094,0.818889275204,0.00213603985725,0.0,0.818847107084,-0.573869988923,-0.0119748876937,0.0,-0.00858046313542,0.0086220126818,-0.999926015538,0.0,0.655208161344,0.252579885481,0.303433083791,1.0,-0.01614,-0.0212125714286,0.808
0.460218103811,0.511529492917,-0.124083368864,-1.41290751911,0.0761503809215,1.91509209982,0.151683379914,-0.0109261946858,-0.0847959420885,-0.000325937699401,-0.137088192656,-0.0027724765725,0.057216065602,-0.0236222329163,0.573922540106,0.818895127494,0.00210595033588,0.0,0.818852505305,-0.573861814484,-0.0119974719887,0.0,-0.00861631276354,0.00861024808113,-0.999925808639,0.0,0.6549293654,0.252222794983,0.303404586328,1.0,-0.01648,-0.0216594285714,0.825
0.460017637395,0.510076546403,-0.124087505052,-1.41522889231,0.0760034183849,1.9159705057,0.151355821456,-0.0129107897753,-0.0808695768604,-0.000771083993151,-0.136903333942,-0.000816257949456,0.051262824993,-0.0233342211621,0.573903015185,0.818908804284,0.00210863220563,0.0,0.818866263108,-0.573842326828,-0.0119905789974,0.0,-0.00860933405449,0.00860828295103,-0.999925885669,0.0,0.654648668306,0.251868596801,0.303393172215,1.0,-0.01682,-0.0221062857143,0.842
0.459799798669,0.508464552192,-0.124090845602,-1.41774610769,0.0758450484266,1.91685895531,0.151009268991,-0.0111959625249,-0.0887158798098,-0.0014238259911,-0.138599337894,-0.00986636528082,0.038277370826,-0.019284071828,0.573887796964,0.818919509987,0.00209273977612,0.0,0.818876706304,-0.573827121985,-0.0120050342845,0.0,-0.00863045211383,0.00860340417524,-0.99992574561,0.0,0.654331184308,0.251481347761,0.303400114247,1.0,-0.01718,-0.0225794285714,0.86
0.459582191211,0.506938807174,-0.124089004447,-1.42014812456,0.0756893614827,1.91773073559,0.150668002722,-0.0149555929678,-0.0853740179949,0.00117149694043,-0.139517171311,-0.0128738891637,0.0570489452242,-0.012722832685,0.573867457105,0.818933783768,0.00208479732159,0.0,0.818890872238,-0.573806813894,-0.0120094377636,0.0,-0.00863882972424,0.0085992125693,-0.999925709323,0.0,0.65403322787,0.251109185337,0.303399399685,1.0,-0.01752,-0.0230262857143,0.877
0.459390388886,0.505520619457,-0.124099591364,-1.4223110079,0.0755552952058,1.91856627226,0.150373916715,-0.0147195196292,-0.0944451745841,0.000556046943818,-0.143284248286,-0.0126330323077,0.0590664591973,-0.0211687167185,0.57388160487,0.81892368872,0.00215465702393,0.0,0.818881783647,-0.573820764462,-0.0119625074661,0.0,-0.00856015860947,0.00862963851712,-0.999926123783,0.0,0.653761291958,0.250745917959,0.30343209551,1.0,-0.01784,-0.0234468571429,0.893
0.459144279803,0.503687445308,-0.124103965245,-1.42507533055,0.0753817537208,1.91961237015,0.149983804011,-0.015516813945,-0.0968270539001,-0.000602942751142,-0.145171843054,-0.00941847588101,0.0522039133139,-0.0250618279688,0.573847588768,0.818947261879,0.00225255998708,0.0,0.818906680432,-0.573786404061,-0.0119062235708,0.0,-0.00845824374507,0.00867716117115,-0.999926579798,0.0,0.653442280917,0.250350292146,0.303489745202,1.0,-0.0182,-0.02392,0.911
0.458945222421,0.502190180055,-0.124108930717,-1.42727167211,0.0752406903555,1.92043925048,0.149681962056,-0.0134010944981,-0.104372430213,4.04297897641e-05,-0.148716824821,-0.0117429753622,0.054841924063,-0.0224467909553,0.573841362465,0.818951327635,0.00235809026605,0.0,0.818912202143,-0.573779848723,-0.0118421823069,0.0,-0.0083453069192,0.00872677093954,-0.999927097003,0.0,0.653177178609,0.250009814,0.303561526337,1.0,-0.0185,-0.0243142857143,0.926
0.458712281785,0.500485133654,-0.124109701373,-1.42987061177,0.0750715608098,1.92134586549,0.14931939254,-0.0148801949571,-0.102559747432,0.000201411883196,-0.15299757539,-0.00203026516238,0.0534448611536,-0.0183730890455,0.57382233624,0.818964634011,0.00236676392345,0.0,0.818925586932,-0.573760755355,-0.011841688385,0.0,-0.00834012831117,0.00873339697422,-0.99992708236,0.0,0.652844567628,0.249605740071,0.30359298681,1.0,-0.01884,-0.0247611428571,0.943
0.458469353738,0.49877941328,-0.124107469031,-1.43249553606,0.0749029332453,1.92230373476,0.148939223509,-0.0166185254352,-0.10460122839,-1.73583839388e-05,-0.156471946978,-0.0188322319785,0.0567325629886,-0.0252247961961,0.573796214116,0.818982847644,0.00239725499093,0.0,0.818944186801,-0.573734508351,-0.0118270762347,0.0,-0.00831094467184,0.00874971806583,-0.999927182665,0.0,0.652516567661,0.249197434946,0.303616271578,1.0,-0.01918,-0.025208,0.96
0.45822897971,0.497212067437,-0.124110608963,-1.43499324688,0.074753979112,1.92322136223,0.148574919284,-0.0143962962706,-0.0927339910052,-0.000705796098253,-0.154729177914,-0.00967005764889,0.0591042390967,-0.0242284441564,0.573791638397,0.818986109639,0.00237798750538,0.0,0.818947079156,-0.573729882371,-0.0118511821587,0.0,-0.00834179168436,0.00874772357036,-0.999926943253,0.0,0.652185740004,0.248774231094,0.303592419216,1.0,-0.01952,-0.0256548571429,0.977
0.457927845669,0.495346535665,-0.124105398075,-1.43801007798,0.0745702683679,1.92425887262,0.148131874221,-0.012920145653,-0.0936267948527,0.0016149887293,-0.160221498537,-0.00473398806979,0.0542189191649,-0.0256187224205,0.573766098641,0.819004239101,0.00229505684136,0.0,0.818963916655,-0.57370445123,-0.0119185887628,0.0,-0.00844485298471,0.00871821876821,-0.999926335847,0.0,0.651815340254,0.248315907001,0.303553599802,1.0,-0.01988,-0.026128,0.995
0.457678095212,0.493851590287,-0.124118756041,-1.44044337166,0.0744111845947,1.9251392011,0.147788324418,-0.0148843451717,-0.104437000242,-0.00231182770289,-0.166564337421,-0.00911447397796,0.061793209423,-0.0238929505533,0.573778243481,0.8189958922,0.00223668679175,0.0,0.818954854677,-0.573716876234,-0.0119431497951,0.0,-0.00849832928205,0.00868463222367,-0.999926175056,0.0,0.651513760891,0.247910674301,0.30351330005,1.0,-0.0214662857143,-0.0282128326531,1.01
0.457344699194,0.491565597229,-0.124147270978,-1.44406843327,0.0741911702166,1.92648760914,0.147284093846,-0.0166123169845,-0.116380792695,-0.000834904073099,-0.190786753126,-0.0078016029924,0.0698487878211,-0.0289025990672,0.57378134141,0.818993716802,0.00223852418999,0.0,0.81895272986,-0.573719993551,-0.0119391019756,0.0,-0.00849392695286,0.00868384663401,-0.999926219284,0.0,0.651062942167,0.247333202315,0.303496642753,1.0,-0.0247691428571,-0.0325537306122,1.03
0.457065171698,0.489804032623,-0.124163905997,-1.44693419006,0.074013312915,1.92750229396,0.146864176221,-0.0215938543584,-0.132179260771,-0.00264660014253,-0.215276691526,-0.0133494149204,0.0820868380413,-0.0298254868773,0.573773106553,0.818999701106,0.00215839900223,0.0,0.818957600137,-0.573712017756,-0.0119881925622,0.0,-0.0085801918738,0.00864630622354,-0.999925808096,0.0,0.650696269003,0.246865341314,0.30344638441,1.0,-0.0270811428571,-0.0355923591837,1.044
0.456674679405,0.487370688068,-0.124188338749,-1.45074538568,0.0737815039365,1.9289169049,0.146321821682,-0.0192655744133,-0.148987739817,-0.00173485158589,-0.225801407387,-0.0195067111973,0.0880312934217,-0.0308078462826,0.573793106753,0.818985616642,0.00218569841126,0.0,0.81894387427,-0.573731905162,-0.0119740843464,0.0,-0.00855276260574,0.00866077812937,-0.999925917843,0.0,0.650226735946,0.246236039726,0.303446925629,1.0,-0.0298885714286,-0.039282122449,1.061
0.456232838895,0.484695565718,-0.124212115534,-1.45484220896,0.0735301520041,1.93046227247,0.145700985649,-0.0288297532604,-0.164030313216,0.000561388752601,-0.245864101113,-0.0186412706941,0.0940423460986,-0.0396438808572,0.573798183475,0.818981783236,0.00228697828164,0.0,0.818941420419,-0.573736631205,-0.0119153194059,0.0,-0.00844646894066,0.00871005756868,-0.999926393321,0.0,0.649730660257,0.245549071333,0.303489132548,1.0,-0.032696,-0.0429718857143,1.078
0.455778912813,0.481982639644,-0.124257184538,-1.45909704258,0.0732663982052,1.93190417331,0.145050372423,-0.0318200729904,-0.172774810847,-0.00492641747499,-0.270744556665,-0.0181078671662,0.0958186633793,-0.041633920586,0.573806366013,0.818976292904,0.00219838240571,0.0,0.818934666862,-0.573745060806,-0.0119734503586,0.0,-0.00854482545526,0.00867094054441,-0.999925897628,0.0,0.64918132161,0.244815323067,0.303472499801,1.0,-0.0353382857143,-0.0464446040816,1.094
0.455273542056,0.478818297514,-0.124310564343,-1.46396600272,0.072970750081,1.93366307731,0.144338492959,-0.0328311520592,-0.192209421748,-0.00332649335716,-0.284818984655,-0.0167332012127,0.105178807799,-0.038372870222,0.573833166726,0.818957402452,0.0022397848722,0.0,0.818916329923,-0.573771702888,-0.0119509184125,0.0,-0.00850233161606,0.00869219711705,-0.999926075301,0.0,0.648568779561,0.243993108682,0.303502174999,1.0,-0.0381457142857,-0.0501343673469,1.111
0.454712826213,0.475440972004,-0.124339653533,-1.46910598365,0.0726575767047,1.93557959293,0.143609402107,-0.0285014545582,-0.201925625606,-0.00329860575814,-0.31175491567,-0.0215891777453,0.114442546632,-0.0470287932452,0.573881442598,0.818923208062,0.00236981842516,0.0,0.818883792435,-0.573819414961,-0.0118895080628,0.0,-0.00837690754421,0.0087639426713,-0.999926507664,0.0,0.647890468824,0.243073437306,0.303558053568,1.0,-0.0411182857143,-0.0540411755102,1.129
0.454137976278,0.472079163732,-0.124354267006,-1.4743018055,0.0723433077492,1.93741273595,0.142829839048,-0.0336763592871,-0.215695517375,-0.00078545482478,-0.329198570822,-0.0165606711868,0.111591269941,-0.049928496259,0.57388754621,0.818918911958,0.00237630893157,0.0,0.818879350474,-0.573825251167,-0.0119137480266,0.0,-0.00839296909243,0.00878323103997,-0.999926203738,0.0,0.647258055682,0.24225115504,0.303571722411,1.0,-0.0435954285714,-0.0572968489796,1.144
0.453462607963,0.468018070373,-0.124356877097,-1.48039984694,0.0719621745092,1.93970993514,0.141856070916,-0.0349273218842,-0.233112454958,0.00182264488488,-0.346139058144,-0.0286534324833,0.141688919146,-0.0493189263615,0.573832104581,0.818957082665,0.00259988574862,0.0,0.818920420736,-0.573768949517,-0.0118018630667,0.0,-0.0081736430002,0.00890155883525,-0.999926974239,0.0,0.646491847912,0.24123972341,0.303672847495,1.0,-0.046568,-0.0612036571429,1.162
0.452822168172,0.464208056053,-0.1243600246,-1.48622338576,0.0715691547047,1.94175177821,0.14095033031,-0.0436791843004,-0.240168201109,0.00021617443932,-0.372375694497,-0.0242669763493,0.129252706818,-0.0553084645486,0.573783552714,0.818991048938,0.00261596931399,0.0,0.818954556135,-0.573720300745,-0.011798237144,0.0,-0.00816197305587,0.00891216599944,-0.99992697508,0.0,0.645722213593,0.240262062372,0.303705722382,1.0,-0.0492102857143,-0.0646763755102,1.178
0.452099527628,0.460005231967,-0.124373115861,-1.4927888695,0.0711323752177,1.94401128516,0.140000890254,-0.0396032389272,-0.251125964003,-0.00200161805601,-0.390337141043,-0.026718482519,0.142151471864,-0.0547693775332,0.573793746496,0.818984206704,0.00252042732618,0.0,0.81894629896,-0.5737306666,-0.0118671194274,0.0,-0.00827309622289,0.00887354439017,-0.999926405336,0.0,0.64483827091,0.239152061438,0.303671894521,1.0,-0.0520177142857,-0.0683661387755,1.195
0.451317623315,0.455617458368,-0.124374801176,-1.49961992518,0.0706730545744,1.94644885766,0.138937943528,-0.04668050968,-0.259254574381,0.00128583653764,-0.407526767346,-0.0299825296474,0.148240357121,-0.0612492753742,0.573754252776,0.81901192315,0.00250480761652,0.0,0.818973752883,-0.573691174617,-0.0118817152647,0.0,-0.00829444013923,0.00886872710782,-0.999926271253,0.0,0.643933046452,0.237991201144,0.303649695599,1.0,-0.0548251428571,-0.0720559020408,1.212
0.450537775618,0.45121581837,-0.124425486989,-1.50623694471,0.0702088444362,1.9488829131,0.137856721215,-0.0469432857211,-0.280409295141,-0.00273861248548,-0.406664490337,-0.0290547631354,0.163568938503,-0.0727787640425,0.573714857509,0.8190390014,0.0026689625952,0.0,0.819003474643,-0.573651725762,-0.0117368204023,0.0,-0.00808201426702,0.00891964961478,-0.999927557824,0.0,0.643029877531,0.236752742387,0.303736030737,1.0,-0.0576325714286,-0.0757456653061,1.229
0.449559332895,0.445776082925,-0.124484289457,-1.51454345906,0.0696539522365,1.95177343127,0.136625536447,-0.0510689595974,-0.293985528421,-0.00134028231721,-0.447484385765,-0.0270869724324,0.145592365161,-0.0692161959794,0.573777196884,0.81899534551,0.00266444564891,0.0,0.818959735066,-0.573714045776,-0.011742781637,0.0,-0.00808880934573,0.00891998577142,-0.99992749988,0.0,0.641968865289,0.235366325469,0.303762340105,1.0,-0.0606051428571,-0.0796524734694,1.247
0.448622078098,0.440739607985,-0.124499154313,-1.52240816517,0.0691030376548,1.95441410253,0.135396625266,-0.0538283513133,-0.29495230627,-0.00220913857343,-0.465411626359,-0.0341782198671,0.15749283392,-0.0731365247775,0.57374616882,0.819017634574,0.00248896007429,0.0,0.81897957165,-0.57368348762,-0.0118517573716,0.0,-0.00827908239002,0.0088384780093,-0.999926666362,0.0,0.640874330496,0.233989904307,0.303694939055,1.0,-0.0634125714286,-0.0833422367347,1.264
0.447615118257,0.435482956804,-0.124510525383,-1.53044118853,0.0685791731207,1.9572652437,0.134080995919,-0.0580989861187,-0.318478639288,-6.7146476927e-05,-0.47308565249,-0.0305177635511,0.173932905453,-0.0713920334573,0.573710763417,0.819042234078,0.00255453269501,0.0,0.819004788629,-0.573647584129,-0.0118470387561,0.0,-0.00823798218761,0.008889119302,-0.999926556907,0.0,0.639787722251,0.232573940262,0.303709378237,1.0,-0.06622,-0.087032,1.281
0.446607902172,0.430342140632,-0.124538757103,-1.53815032619,0.0680337179841,1.96007922608,0.132832754846,-0.0616603125991,-0.323185060144,-0.00354206582198,-0.491422917116,-0.0326307224108,0.16813397075,-0.0839136955131,0.57371708269,0.819037220255,0.00273637861095,0.0,0.819002495398,-0.573653628914,-0.0117121076822,0.0,-0.00802307306809,0.00896070968372,-0.999927665374,0.0,0.638767498547,0.231180500371,0.303789150952,1.0,-0.0688622857143,-0.0905047183673,1.297
0.44554651168,0.425057229377,-0.124617388286,-1.54633845172,0.0674315714797,1.96275738705,0.131498675906,-0.0700963692394,-0.337768228583,-0.00388712902168,-0.510980959917,-0.0398156895635,0.164657120488,-0.0944001593029,0.573732516982,0.819027137911,0.00250862994386,0.0,0.818989580031,-0.573670029556,-0.0118115151822,0.0,-0.00823498420901,0.00883136215013,-0.999927093381,0.0,0.637614516076,0.229654434627,0.303722943078,1.0,-0.0715045714286,-0.0939774367347,1.313
0.444358155024,0.419230570797,-0.124700681269,-1.55525467896,0.0667965295298,1.96573635663,0.130078720984,-0.0729349092594,-0.343080419489,-0.00278196254097,-0.515969222178,-0.0366439351783,0.185598740967,-0.0766004036924,0.573802074149,0.818978773915,0.00238631117281,0.0,0.818939693594,-0.573740118588,-0.0118659798958,0.0,-0.00834902395568,0.00876313753427,-0.999926747927,0.0,0.636365533713,0.227984475393,0.30369692696,1.0,-0.074312,-0.0976672,1.33
0.443113139844,0.41315792617,-0.124713560812,-1.56420319677,0.0661893118343,1.96906087984,0.128569566414,-0.0747172529819,-0.35870552531,0.00176692627959,-0.532194034177,-0.0357800069453,0.192046071358,-0.0939787469893,0.573798228098,0.81898030163,0.0027578750188,0.0,0.818946230051,-0.573735108235,-0.0116552462415,0.0,-0.0079632806779,0.00894648323857,-0.999928270727,0.0,0.635166213335,0.226348725635,0.303840609861,1.0,-0.0771194285714,-0.101356963265,1.347
0.441880138421,0.407366004078,-0.124752138375,-1.57305927554,0.0655625401444,1.97197253148,0.127090426413,-0.076291378716,-0.364503567825,-0.0023717469797,-0.561111048067,-0.0448000893435,0.186975286012,-0.0939702150801,0.573809936441,0.818972558058,0.00261780279794,0.0,0.818936395994,-0.573747009761,-0.0117598898091,0.0,-0.00812922702481,0.00889192680984,-0.999927422019,0.0,0.633889769654,0.224687457063,0.303795762466,1.0,-0.0797617142857,-0.104829681633,1.363
0.440428930214,0.40066446992,-0.124825290526,-1.58326033485,0.0648444007575,1.97542482708,0.125382846049,-0.0810760018107,-0.383502309276,-0.00606332975971,-0.566405243014,-0.0335289871487,0.20198882888,-0.0958208546491,0.573861538086,0.818936586862,0.00255904384219,0.0,0.818899562414,-0.573798713946,-0.0118020952768,0.0,-0.00819694937489,0.0088685391776,-0.999927076858,0.0,0.632435118703,0.222748926849,0.303763312079,1.0,-0.0827342857143,-0.108736489796,1.381
0.439142724352,0.394830878536,-0.124850633338,-1.59185621582,0.0641838197224,1.97848479979,0.123904923751,-0.0881395381145,-0.390450006589,-0.00196103275911,-0.584434034292,-0.0489325849453,0.206388006697,-0.102191416918,0.573873596607,0.818927455164,0.0027686092148,0.0,0.818893708589,-0.573810639446,-0.0116271661535,0.0,-0.00793330090557,0.00893989244703,-0.999928567979,0.0,0.631238935265,0.221104047898,0.303863614934,1.0,-0.0852114285714,-0.111992163265,1.396
0.437479720062,0.387360720792,-0.124883278794,-1.6032765137,0.0633393605692,1.98214932003,0.12195568057,-0.0887121339191,-0.399683848047,-0.000959046282147,-0.613637311084,-0.041851961,0.18557897294,-0.114145912543,0.573862825831,0.818935841421,0.00250831947374,0.0,0.818898313254,-0.573800359137,-0.0118087808594,0.0,-0.00823151775662,0.00883084896095,-0.999927126456,0.0,0.629528500232,0.218931279112,0.303763159585,1.0,-0.0883491428571,-0.116116016327,1.415
0.436119492456,0.381200660056,-0.124909569437,-1.61230129606,0.0626773026673,1.98519442856,0.120331897395,-0.0879925028641,-0.425617143443,0.000269646506691,-0.605900644408,-0.0428256407921,0.212993793406,-0.102819534444,0.573818798989,0.818966249633,0.00264854495857,0.0,0.818930531038,-0.573755808176,-0.01173902972,0.0,-0.00809440693338,0.00890522171776,-0.999927586179,0.0,0.628206818317,0.217202977281,0.303856888284,1.0,-0.0908262857143,-0.119371689796,1.43
0.434482201777,0.374208109047,-0.124925978494,-1.62278006033,0.0619206058367,1.98874278852,0.118456404207,-0.104798894938,-0.421034291499,-0.000582459653489,-0.628482822611,-0.0451123514931,0.211184582012,-0.114016673725,0.573808784204,0.818973119021,0.00269376913204,0.0,0.81893774327,-0.573745361904,-0.0117464566033,0.0,-0.00807465011833,0.00894642144246,-0.999927378147,0.0,0.626660842541,0.215174540659,0.303849106521,1.0,-0.0936337142857,-0.123061453061,1.447
0.432771257149,0.366999875452,-0.125008588792,-1.6336079164,0.0610723416612,1.99218791869,0.116615493555,-0.0981666896185,-0.423007036262,-0.0080963579006,-0.63168300805,-0.0509225958581,0.20772545425,-0.108600321525,0.573910578502,0.818902391134,0.00250371300223,0.0,0.818864602337,-0.573847907925,-0.0118358992697,0.0,-0.00825585469558,0.00884312000636,-0.999926817368,0.0,0.625017287263,0.213011031592,0.303799173729,1.0,-0.0964411428571,-0.126751216327,1.464
0.431021643657,0.359556521307,-0.125048400039,-1.64442380478,0.0602256672745,1.99587379881,0.114577555984,-0.109264006928,-0.427574019289,-0.000761010488745,-0.645146456967,-0.0501031684392,0.215534012496,-0.127256011042,0.573841495414,0.818950083688,0.00272863874917,0.0,0.818915645107,-0.573778484827,-0.0116689095312,0.0,-0.00799077407718,0.0089308014024,-0.99992819158,0.0,0.623409601248,0.210874717912,0.303915582743,1.0,-0.0992485714286,-0.130440979592,1.481
0.429473091449,0.353379769554,-0.125051330506,-1.65365388037,0.0595645762636,1.99881726483,0.112883879235,-0.110397871859,-0.446255051536,0.00189069900804,-0.668902456222,-0.0514421877145,0.207902165069,-0.112386713413,0.573854030478,0.818941551342,0.00265218610025,0.0,0.81890540067,-0.573790494834,-0.0117965966648,0.0,-0.00813908070088,0.00894158621633,-0.999926899029,0.0,0.621977655715,0.209036429842,0.303871191672,1.0,-0.101560571429,-0.133479608163,1.495
0.427311957798,0.344769095176,-0.12513420111,-1.66621756193,0.0586040339622,2.00299706421,0.110500024665,-0.114365587436,-0.462702352391,-0.00333864289945,-0.656333284428,-0.0468344202406,0.230978814038,-0.12974221999,0.573879708479,0.818923015113,0.00281467844058,0.0,0.818889125133,-0.573815755075,-0.011697301733,0.0,-0.00796423610546,0.00901792729733,-0.999927621346,0.0,0.620072943499,0.206467135959,0.303944079255,1.0,-0.104698285714,-0.137603461224,1.514
0.42530648906,0.33697946928,-0.125144726545,-1.67771508143,0.0576859622596,2.00666411137,0.108313114744,-0.122209133159,-0.464612880222,-0.00198609698812,-0.681603954847,-0.0549864503965,0.209473446702,-0.129658541042,0.573845485206,0.818947202321,0.00275423679421,0.0,0.818912368113,-0.573781569884,-0.0117469278556,0.0,-0.0080399381853,0.00899657330237,-0.999927207882,0.0,0.618263942874,0.204130957738,0.303920300129,1.0,-0.107505714286,-0.14129322449,1.531
0.423249514852,0.328960971678,-0.12515312484,-1.68944165116,0.0566896560292,2.01032316724,0.106040888076,-0.123500097538,-0.480707702043,-0.000335797102262,-0.680223427754,-0.0605037476576,0.223311268156,-0.139368973347,0.573750673143,0.819013932249,0.00266284662645,0.0,0.818978055279,-0.573687260439,-0.0117736605721,0.0,-0.0081153071008,0.00893613067842,-0.999927141025,0.0,0.616383448171,0.201739770195,0.303920398361,1.0,-0.110313142857,-0.144982987755,1.548
0.421218721315,0.321296737025,-0.125149350176,-1.70059440373,0.0558259785799,2.01396064879,0.103880069556,-0.128295022939,-0.482498314867,0.000556781718011,-0.698705845593,-0.059189259266,0.217840916127,-0.132571818235,0.573732166345,0.819026497699,0.00278285263307,0.0,0.818991911793,-0.573668025287,-0.0117470030874,0.0,-0.00802482772527,0.00901894097015,-0.999927127767,0.0,0.614613296067,0.199458063909,0.303943169511,1.0,-0.112955428571,-0.148455706122,1.564
0.418952750855,0.313028285754,-0.125215771509,-1.71267001921,0.0548530242798,2.0176761879,0.101459646696,-0.134940380085,-0.491888127122,-0.00618441478969,-0.711919156753,-0.0598411742863,0.220481846001,-0.155810844044,0.573729205913,0.819028897517,0.00268518443042,0.0,0.818992739222,-0.573665083718,-0.0118326550763,0.0,-0.00815104682368,0.00898805940076,-0.999926384902,0.0,0.612652731601,0.196897039382,0.303913568623,1.0,-0.115762857143,-0.152145469388,1.581
0.416615176586,0.304529480806,-0.125278523649,-1.72477381207,0.053801807667,2.02155613002,0.0989513722991,-0.140106849586,-0.50082347853,0.000738879625398,-0.730923596583,-0.0596276582553,0.22431912848,-0.155783586619,0.573671017348,0.819069095708,0.00285082672299,0.0,0.819035777758,-0.573607083291,-0.0116642895684,0.0,-0.00791875716795,0.00902656773508,-0.999927904581,0.0,0.610712362877,0.194304000568,0.304013817072,1.0,-0.118570285714,-0.155835232653,1.598
0.414117036414,0.296004561247,-0.125318968153,-1.73727012507,0.0527959648261,2.02522844209,0.096468375316,-0.150869570284,-0.509209981661,-0.0041195477438,-0.729689276889,-0.0530544961534,0.215449974045,-0.146061488021,0.573762813562,0.819005624557,0.00260146462048,0.0,0.818968178874,-0.573698787061,-0.0118983451419,0.0,-0.00825251338321,0.00895751718794,-0.999925826704,0.0,0.608613798533,0.19159281577,0.303909699552,1.0,-0.121377714286,-0.159524995918,1.615
0.411579880002,0.287202620964,-0.12542740572,-1.74958891577,0.0517761557086,2.02920634197,0.0938345921985,-0.150491027129,-0.511092574421,-0.013226632022,-0.730396971294,-0.0601014369281,0.23276658312,-0.16047282949,0.573793740356,0.818982770664,0.00295157335715,0.0,0.818950384604,-0.57372901655,-0.0116631911022,0.0,-0.00785870058854,0.00910963357173,-0.999927625082,0.0,0.606627041636,0.188868621678,0.304072264649,1.0,-0.124185142857,-0.163214759184,1.632
0.408938993901,0.278417874503,-0.125447806451,-1.76237082973,0.0506721005567,2.03290750941,0.0910926016824,-0.158058813818,-0.515239764893,-0.00284786718941,-0.763573840081,-0.0686410866811,0.207220140732,-0.16865347848,0.573720477716,0.819035025606,0.00268089165438,0.0,0.818998535396,-0.573656068636,-0.0118684808487,0.0,-0.00818294929609,0.00900501021515,-0.999925971826,0.0,0.604424949424,0.186072210707,0.303961238108,1.0,-0.126992571429,-0.166904522449,1.649
0.406335783482,0.269885555244,-0.125532332178,-1.77427946984,0.0496142578631,2.03662408308,0.0884922543327,-0.161186320465,-0.527291618506,-0.00570302781631,-0.732994013524,-0.0694290734322,0.23429620169,-0.167295570486,0.573760398894,0.819006280588,0.00290928171163,0.0,0.818973407799,-0.573695894707,-0.0116758133038,0.0,-0.00789367342994,0.00908191851128,-0.999927601717,0.0,0.602448245729,0.183370876311,0.304081588286,1.0,-0.129634857143,-0.170377240816,1.665
0.403454746019,0.260820065396,-0.125665525944,-1.78727426882,0.0484696168441,2.04041914607,0.0856860631429,-0.175160094536,-0.529917358814,-0.00192125810357,-0.766697119325,-0.0664184565055,0.213273776649,-0.163395125507,0.57388365523,0.818920456098,0.00275386017248,0.0,0.818885473546,-0.573819575829,-0.0117653096639,0.0,-0.00805478895964,0.00900718842252,-0.999926992801,0.0,0.600213972193,0.180376039802,0.304015911131,1.0,-0.132442285714,-0.174067004082,1.682
0.400468683373,0.25148620029,-0.125756630263,-1.80021297938,0.0472910068422,2.04426429994,0.0828007443877,-0.178777338317,-0.547122639537,-0.0037669197301,-0.765798661671,-0.0727032322248,0.232906072361,-0.173499554747,0.57396539971,0.81886265959,0.00290026997027,0.0,0.81883001683,-0.573901298591,-0.0116382951777,0.0,-0.00786584808208,0.00905498118864,-0.999928065288,0.0,0.597992965142,0.177367606333,0.304124107146,1.0,-0.135249714286,-0.177756767347,1.699
0.397600982339,0.242725585762,-0.125757875283,-1.81272250873,0.0461994496167,2.04785594304,0.0799276744252,-0.17970429255,-0.559220890969,-0.00184945675996,-0.782037383382,-0.0627118714193,0.215427074041,-0.183292616851,0.573895379816,0.818912199023,0.00276590278301,0.0,0.818877104436,-0.573830954921,-0.0117927904247,0.0,-0.0080702546815,0.00903293631399,-0.999926635834,0.0,0.595761125782,0.17453623108,0.304031084327,1.0,-0.137892,-0.181229485714,1.715
0.394462659865,0.233126602313,-0.125779420724,-1.8258091064,0.0450414139946,2.05172374787,0.0768623492369,-0.182378956038,-0.565272611103,0.000730492590858,-0.754936940097,-0.0737443774647,0.236298155609,-0.175345789402,0.573881086317,0.818921134017,0.00306951617284,0.0,0.818890010063,-0.573815643172,-0.0116407032012,0.0,-0.00777163109732,0.00919415254419,-0.999927532029,0.0,0.593455857084,0.171507370352,0.304188030659,1.0,-0.140699428571,-0.18491924898,1.732
0.391248840245,0.223553678471,-0.125780295083,-1.83934002515,0.0437445484386,2.05545901357,0.0736348402342,-0.191372371982,-0.561675763192,-0.00152398913752,-0.829487308369,-0.0820194849377,0.205823673795,-0.189068939212,0.57372111535,0.819034055067,0.00283643143658,0.0,0.818999642424,-0.573656194131,-0.0117857348148,0.0,-0.0080259362386,0.00908493616864,-0.999926521442,0.0,0.590968265859,0.168396283657,0.304085221646,1.0,-0.143506857143,-0.188609012245,1.749
0.387841576687,0.213692003099,-0.125868835089,-1.85271081669,0.0425170283505,2.05928191218,0.0703773089194,-0.205734957238,-0.577961709046,-0.0120957739075,-0.77491899155,-0.0694304298171,0.225107051372,-0.182076879298,0.573770960469,0.818998292804,0.00307053873507,0.0,0.818967080638,-0.573705408528,-0.0116521225049,0.0,-0.0077816335802,0.00920049680305,-0.999927395883,0.0,0.588563687734,0.165175137238,0.304216050357,1.0,-0.146314285714,-0.19229877551,1.766
0.384534755525,0.204491378338,-0.125945584786,-1.86560035339,0.041297280366,2.06274971383,0.0671963952416,-0.207396101078,-0.573857653,-0.00624710632466,-0.838177744096,-0.0792583292196,0.202732387225,-0.205000203382,0.573758701611,0.819007737529,0.00283285976591,0.0,0.818972854561,-0.573693309225,-0.0118404959016,0.0,-0.00807242048506,0.00911379827288,-0.999925884608,0.0,0.586004635258,0.161870309081,0.304104811306,1.0,-0.149121714286,-0.195988538775,1.783
0.380668500576,0.193824868154,-0.126028068077,-1.87998668601,0.0399302038922,2.06672505018,0.0635231000443,-0.220700680316,-0.584456175024,-0.00808659238056,-0.798411780311,-0.0869435512603,0.219321237687,-0.201848068912,0.57378292635,0.8189900183,0.00304142306127,0.0,0.818958053177,-0.573717029161,-0.0117142856345,0.0,-0.00784911792288,0.00921243236848,-0.999926758537,0.0,0.583502035335,0.158526983049,0.304216760618,1.0,-0.151929142857,-0.199678302041,1.8
0.377054444212,0.184365217246,-0.126190165587,-1.89305998738,0.0387076500468,2.07014839046,0.0601334750341,-0.231725557165,-0.596562891768,-0.0178809014947,-0.789143775949,-0.0818783749091,0.211939427966,-0.207928089364,0.573898576636,0.818909574346,0.00287744352517,0.0,0.818874780002,-0.573832444223,-0.0118813944798,0.0,-0.00807877278633,0.00917515796426,-0.999925272161,0.0,0.581031411897,0.155219780511,0.304129067214,1.0,-0.154571428571,-0.203151020408,1.816
0.373106546573,0.17406185358,-0.126294093456,-1.90679529965,0.037333097548,2.07388117939,0.0565057943086,-0.231339213725,-0.600474522433,-0.00250179864048,-0.800688372391,-0.0830891410723,0.212116151759,-0.211449923832,0.573983120442,0.818849608962,0.00307282478516,0.0,0.818817874807,-0.573916880935,-0.0117238464497,0.0,-0.00783667194475,0.00924555183456,-0.999926550475,0.0,0.578450789234,0.151721038765,0.304237240707,1.0,-0.157378857143,-0.206840783673,1.833
0.369102139328,0.163800018752,-0.126304015416,-1.92088428293,0.0358727251662,2.07740290104,0.0526884759619,-0.236231485441,-0.606676993275,0.00072848893451,-0.799998076705,-0.0859988644026,0.206745220778,-0.220621376956,0.573836543393,0.818953396564,0.00277536013489,0.0,0.818917317216,-0.573770853319,-0.0119240239558,0.0,-0.0081729565212,0.00911540666594,-0.999925053263,0.0,0.57567183726,0.148218961111,0.304107673745,1.0,-0.160186285714,-0.210530546939,1.85
0.364952028779,0.15325504367,-0.126369345761,-1.93469259448,0.034442643748,2.08114726216,0.0488023493336,-0.249182441035,-0.616929138763,-0.00641289097786,-0.793304993829,-0.0914754332967,0.209239494124,-0.23339461263,0.573786392681,0.818987337424,0.00310863545718,0.0,0.818956482839,-0.573720550338,-0.0116514478908,0.0,-0.00775904962569,0.00923145714937,-0.99992728603,0.0,0.573023232742,0.144674056766,0.304264005783,1.0,-0.162993714286,-0.214220310204,1.867
0.360894342964,0.143354760982,-0.12644971745,-1.94808760069,0.0330923428815,2.08431222353,0.0450964765685,-0.248903049119,-0.620670789774,-0.005342017553,-0.835096957342,-0.0824544923237,0.198300574503,-0.233565702347,0.573825862433,0.81896066729,0.00283759343862,0.0,0.818925245769,-0.573759766486,-0.0119129805193,0.0,-0.00812832202216,0.00915992958178,-0.999925010224,0.0,0.570316377386,0.141217547516,0.304152606044,1.0,-0.165636,-0.217693028571,1.883
0.356157419008,0.131969423452,-0.126577005302,-1.96292481654,0.0315862976279,2.0881142186,0.0407029170309,-0.274088008561,-0.627427998383,-0.00772612535178,-0.858828972262,-0.0999294475457,0.20931729007,-0.251772766371,0.573839438025,0.818950191353,0.00310328062724,0.0,0.818918430564,-0.573772613986,-0.0117617355738,0.0,-0.00785184933384,0.00929086031059,-0.999926011451,0.0,0.56738561314,0.137281061273,0.304265375492,1.0,-0.168608571429,-0.221599836735,1.901
0.351771147781,0.121795681453,-0.126740518571,-1.97632765176,0.0301260327154,2.0912740649,0.0367803006374,-0.278016492245,-0.640943392568,-0.0153117322404,-0.814949711186,-0.0864080850364,0.20730542759,-0.239440399069,0.573956710661,0.818868414465,0.00299348952831,0.0,0.81883525265,-0.573890288227,-0.0118115620031,0.0,-0.00795433362721,0.00923067774844,-0.999925758827,0.0,0.564661584404,0.133644073381,0.304247205467,1.0,-0.171250857143,-0.225072555102,1.917
0.346949223698,0.110845057797,-0.126846182797,-1.99049439374,0.0285853592246,2.09474357821,0.0323710935899,-0.283659841551,-0.645533114132,-0.00153154382181,-0.816439268643,-0.098798006358,0.192733739517,-0.266553699615,0.573945316979,0.818875814864,0.00314957921605,0.0,0.818845144684,-0.573878903518,-0.0116781858694,0.0,-0.00775565622328,0.00928183644352,-0.999926845979,0.0,0.561786924487,0.129777476653,0.304318579153,1.0,-0.174058285714,-0.228762318367,1.934
0.342335045332,0.100444816784,-0.12687822834,-2.00395523864,0.0270824304559,2.09781141774,0.0282023792556,-0.291693922494,-0.655959751692,-0.00124329531861,-0.842467181028,-0.0998671844664,0.20121301035,-0.257454535401,0.573866914601,0.818930745872,0.00315352073185,0.0,0.818900205039,-0.573800592214,-0.0116653959254,0.0,-0.00774380841493,0.00927698215189,-0.999926982851,0.0,0.558797025274,0.125918471259,0.304351430451,1.0,-0.176865714286,-0.232452081633,1.951
0.337016786919,0.0886685909825,-0.126898256566,-2.01915436416,0.0255252602276,2.10128063819,0.023326355382,-0.300610812963,-0.662724669027,-0.00338336166508,-0.828531133235,-0.0816200008162,0.19498597146,-0.27423381596,0.573795295078,0.81898077185,0.00319399248863,0.0,0.818949632595,-0.573727497637,-0.0117900223933,0.0,-0.00782347094786,0.00938095896574,-0.999925392672,0.0,0.555738567396,0.122053049243,0.304325050958,1.0,-0.179673142857,-0.236141844898,1.968
0.332055238697,0.0780086871375,-0.127013537693,-2.03263449588,0.023972262892,2.10424139945,0.0187830188043,-0.312189303946,-0.681289965476,-0.00886056808154,-0.83335681229,-0.100750217156,0.207403903757,-0.284765709762,0.573722742905,0.819031344925,0.00325840535101,0.0,0.819001378814,-0.573655140928,-0.0117161293942,0.0,-0.00772682499954,0.00939062916619,-0.999926053396,0.0,0.552863657194,0.118248256924,0.304397024012,1.0,-0.182315428571,-0.239614563265,1.984
0.326603137101,0.0667152528489,-0.127182948608,-2.0470986426,0.0223205967603,2.10737872414,0.0139672014783,-0.330972943499,-0.663903587719,-0.0144383170763,-0.86921531351,-0.0962662564058,0.164935282108,-0.294302672794,0.573826228266,0.818959220282,0.00316262076299,0.0,0.818927837704,-0.573758732667,-0.0117838967847,0.0,-0.00783610051101,0.00935204728504,-0.9999255646,0.0,0.549548268533,0.113859038237,0.304339947083,1.0,-0.185288,-0.243521371429,2.002
0.320901795522,0.0551893422766,-0.127342784424,-2.06143046753,0.0206529899205,2.11036430618,0.00890998778447,-0.335589711561,-0.677459961199,-0.00634131734251,-0.827657810452,-0.0944008458709,0.188410122059,-0.296459812944,0.573890453135,0.818913648999,0.00330608295583,0.0,0.818884400809,-0.57382279045,-0.0116829008728,0.0,-0.00767032891508,0.0094121862499,-0.999926285685,0.0,0.546615893397,0.109896299976,0.30444601497,1.0,-0.187930285714,-0.246994089796,2.018
0.315146669131,0.0437331768046,-0.127419445825,-2.07600876762,0.0190205263799,2.11329443043,0.00380479206479,-0.339466972829,-0.670998263374,-0.000659578406904,-0.876733847582,-0.102245093004,0.163165120495,-0.297937090073,0.573891751434,0.818913254865,0.00317577459751,0.0,0.818881198702,-0.573823192983,-0.0118858112108,0.0,-0.00791126754202,0.00942193252359,-0.999924316653,0.0,0.54334293682,0.105730360642,0.304343103426,1.0,-0.18998,-0.249688,2.035
0.309562719694,0.0328202669466,-0.127480884737,-2.0893833181,0.0173911219441,2.11603369373,-0.00119226827321,-0.355561123794,-0.686093478437,-0.00366059134698,-0.814692349821,-0.108621185517,0.163200482122,-0.306705471952,0.573802074446,0.818975418725,0.00334511396193,0.0,0.818946266763,-0.573733789719,-0.011717405454,0.0,-0.00767720993772,0.00946312234208,-0.999925752125,0.0,0.540352861245,0.101781159586,0.304437960752,1.0,-0.18998,-0.249688,2.051
0.303107074747,0.0207076594849,-0.127586756749,-2.10448521055,0.0155875305105,2.11879145952,-0.00689608049731,-0.359632936663,-0.664930769826,-0.00583629006633,-0.849928907884,-0.0916920895607,0.147486968966,-0.328291766198,0.573796382775,0.818980138585,0.00316079394569,0.0,0.818947680427,-0.573727646375,-0.0119176931039,0.0,-0.0079470720845,0.00942703556384,-0.999923984634,0.0,0.536868260553,0.0972666031709,0.304358972773,1.0,-0.18998,-0.249688,2.069
0.297189642349,0.00989281771728,-0.127769001853,-2.11748360498,0.0139487299201,2.12125111803,-0.0119998033465,-0.374754496513,-0.656885821912,-0.00677463700877,-0.84338770547,-0.102790863662,0.142181838104,-0.329086224306,0.57394600593,0.818874633164,0.00332631012295,0.0,0.818845122157,-0.573877623118,-0.0117425084601,0.0,-0.0077068957422,0.00946348085056,-0.99992552037,0.0,0.533898457793,0.0931820081676,0.304472057176,1.0,-0.18998,-0.249688,2.085
0.290902001353,-0.00145302757358,-0.127821952851,-2.13133510615,0.012317936591,2.12364806119,-0.0175637304557,-0.366111986091,-0.66600913974,-0.000807875492037,-0.826131348532,-0.100259416735,0.138183514859,-0.325863495333,0.573902900428,0.818905019136,0.00328289745961,0.0,0.818873867388,-0.573833363462,-0.0118998818444,0.0,-0.0078611882306,0.00951783889215,-0.999923803328,0.0,0.530618572409,0.0889724646039,0.304438124418,1.0,-0.18998,-0.249688,2.102
0.284520943934,-0.0127780362851,-0.127845634851,-2.14478196814,0.0106103743503,2.12612412179,-0.0231589397237,-0.375495050265,-0.655594452894,-0.00621666025753,-0.786169109228,-0.0994351485986,0.139043942876,-0.326242215264,0.573833624626,0.818952583789,0.00351904164857,0.0,0.818925373378,-0.573764368201,-0.0116803048912,0.0,-0.00754666045849,0.00958456872107,-0.999925589211,0.0,0.527453805867,0.0847964647237,0.304544843601,1.0,-0.18998,-0.249688,2.119
0.278382943114,-0.023294434183,-0.127927393078,-2.15751260903,0.00896774047392,2.12801849354,-0.0285704177562,-0.387299563184,-0.651783715726,-0.00496784582431,-0.800474022699,-0.104632905158,0.126446858533,-0.340645046124,0.57377209754,0.818996755741,0.00326206548593,0.0,0.818965283505,-0.57370259524,-0.0119140055973,0.0,-0.00788622833126,0.00950762541839,-0.99992370332,0.0,0.524330175805,0.0807908555876,0.304462139123,1.0,-0.18998,-0.249688,2.135
0.271267638078,-0.035134847941,-0.128117837911,-2.17139247193,0.0071534368317,2.13038999877,-0.0346592375241,-0.39907063191,-0.640314749557,-0.0105252526981,-0.790807989644,-0.098334085606,0.116865045671,-0.342812067364,0.573950952196,0.81887053371,0.00347856229929,0.0,0.818842777559,-0.573881785468,-0.0117025146369,0.0,-0.00758670693088,0.00956524919466,-0.999925471166,0.0,0.52099330102,0.0762153948091,0.304555048559,1.0,-0.18998,-0.249688,2.153
0.26490175494,-0.0455133400935,-0.128206391593,-2.18378635874,0.00566170702084,2.13215118411,-0.040264771629,-0.4040495841,-0.639593878028,-0.00265625330649,-0.777111418004,-0.0917789004993,0.117140116425,-0.345454691444,0.573954424434,0.818868582675,0.00336301678367,0.0,0.818837631156,-0.573883560376,-0.0119724615356,0.0,-0.00787404416314,0.00962559728898,-0.999922670663,0.0,0.517883156027,0.0722235137053,0.304469727184,1.0,-0.18998,-0.249688,2.169
0.258069481126,-0.0565734076981,-0.128233213735,-2.19646167132,0.00388895441419,2.13413590231,-0.0462508767966,-0.402262035214,-0.641870478593,-0.00177603620512,-0.744215614665,-0.110065375754,0.10795412502,-0.369879278597,0.573836081681,0.818950665424,0.00356452848027,0.0,0.818923860868,-0.573766442598,-0.0116844490809,0.0,-0.00752392538315,0.00962422119851,-0.999925379672,0.0,0.514734148334,0.0680360279697,0.304593303826,1.0,-0.18998,-0.249688,2.186
0.250686496581,-0.0680797503054,-0.128340980951,-2.21006485943,0.00214738399515,2.13585779497,-0.0527106647528,-0.410119513592,-0.638156839321,-0.0121089263471,-0.7462241669,-0.0941937992837,0.100766921033,-0.361019523218,0.573837623469,0.818950548678,0.00333580768824,0.0,0.818919034654,-0.573766624725,-0.0120092436969,0.0,-0.00792115410355,0.00962329755285,-0.999922320714,0.0,0.511217465009,0.0635446048794,0.304462153621,1.0,-0.18998,-0.249688,2.204
0.243925675515,-0.0783712786261,-0.128524326027,-2.22168213874,0.000566947479724,2.13747107443,-0.0585712858966,-0.432056317141,-0.625152857841,-0.00929112798587,-0.724303857561,-0.0859922381789,0.100515141185,-0.367140726494,0.573947694105,0.818872534636,0.00354448181352,0.0,0.818844429368,-0.573876782267,-0.011831575086,0.0,-0.00765460343629,0.00969327105175,-0.999923720862,0.0,0.50825230303,0.0594773840761,0.304565191937,1.0,-0.18998,-0.249688,2.22
0.236327371431,-0.0897682518874,-0.128572703937,-2.23488076965,-0.00115425501637,2.13898626942,-0.065211578757,-0.424237526054,-0.632912257312,-0.000776494408419,-0.712635856035,-0.0991152386036,0.0753950763767,-0.369581596453,0.573904438903,0.818903502515,0.00339049812281,0.0,0.818871838207,-0.573832168989,-0.0120955085154,0.0,-0.00795963064371,0.00971823656418,-0.999921096966,0.0,0.50474716642,0.0550408416694,0.304466299562,1.0,-0.18998,-0.249688,2.238
0.229432648501,-0.0999313850743,-0.128645633484,-2.24614975666,-0.00278535145521,2.14037048247,-0.0712631034509,-0.429658699109,-0.6254070696,-0.0109071330122,-0.699337671519,-0.104756350006,0.077632947616,-0.382420580827,0.573826561772,0.818957393677,0.00355123183296,0.0,0.818928983985,-0.573755147492,-0.0118784180938,0.0,-0.00769052884554,0.00972454571858,-0.999923141535,0.0,0.501773042612,0.051068457651,0.30457332584,1.0,-0.18998,-0.249688,2.254
0.221961254273,-0.110583965178,-0.128799133593,-2.25825610231,-0.00443575229075,2.14158520757,-0.0777194459838,-0.445445947364,-0.624560296726,-0.0109221294809,-0.726290569382,-0.0967311851921,0.0622781869928,-0.389686278064,0.573923564382,0.818889976685,0.00341982934577,0.0,0.818858627762,-0.573851095209,-0.0120919464301,0.0,-0.00793965377767,0.00974039729357,-0.999921040162,0.0,0.498477585252,0.0467941851658,0.304495928865,1.0,-0.18998,-0.249688,2.271
0.214749771469,-0.120673857214,-0.128952152619,-2.26922493069,-0.00604731053534,2.14276994428,-0.0839459851136,-0.450358039045,-0.636061555491,-0.0114294145936,-0.679653420697,-0.0911238932021,0.0795109687031,-0.391536473356,0.574009653448,0.81882879401,0.0036153491911,0.0,0.818801133123,-0.573937878486,-0.0118643557181,0.0,-0.00764003733402,0.00977069484458,-0.999923078717,0.0,0.495505914224,0.0427371376886,0.304617940397,1.0,-0.18998,-0.249688,2.287
0.207114181661,-0.131175247708,-0.128981561346,-2.28087560281,-0.00762080040822,2.14382323309,-0.090682263573,-0.459617882403,-0.624189103848,-0.000313891009717,-0.676022793113,-0.0946705688173,0.0661862381135,-0.392058519826,0.573920322714,0.818891420675,0.00361264749906,0.0,0.818862773497,-0.573847358253,-0.0119880985757,0.0,-0.00774399194602,0.00983866537882,-0.999921612554,0.0,0.49225185899,0.0385748734806,0.304589893583,1.0,-0.18998,-0.249688,2.304
0.199303880219,-0.141687924898,-0.129091593228,-2.29228921092,-0.00930297227104,2.14482110489,-0.0975549655214,-0.466234385221,-0.630700180767,-0.00687886864991,-0.648938244227,-0.0953602793795,0.0720916138511,-0.415832260952,0.573867061,0.818928465739,0.00367575885087,0.0,0.818901016982,-0.573794357059,-0.011912476408,0.0,-0.00764648355995,0.00984645006136,-0.999922286335,0.0,0.489040068575,0.0343367781411,0.304634039174,1.0,-0.18998,-0.249688,2.321
0.191328002274,-0.152099149114,-0.129282039504,-2.30354466748,-0.0109559391208,2.14576165338,-0.104493293402,-0.477108354121,-0.611104477151,-0.00800705333113,-0.659387724821,-0.0959103899183,0.0393705054525,-0.418275510664,0.573961969541,0.818861574829,0.00375841589209,0.0,0.818835407016,-0.573889228057,-0.0118523009664,0.0,-0.00754862477409,0.00988048424295,-0.999922694159,0.0,0.485835637822,0.0300444454972,0.304659864359,1.0,-0.18998,-0.249688,2.338
0.183791440261,-0.161807261927,-0.129329517326,-2.31408328512,-0.0125223920051,2.14638636311,-0.111152590286,-0.470191114726,-0.609874630067,-2.19583952304e-05,-0.649268277894,-0.0980692742562,0.0390132565611,-0.421202082017,0.573845899197,0.818943520525,0.0036250608105,0.0,0.818914905324,-0.573772734893,-0.0119988929958,0.0,-0.00774660376314,0.00985432159722,-0.999921438152,0.0,0.482741462332,0.0261038244447,0.304612545369,1.0,-0.18998,-0.249688,2.354
0.175605745027,-0.172094627637,-0.129389264762,-2.32487720603,-0.0140234934318,2.14716229334,-0.118364592494,-0.484391928743,-0.591898501424,-0.00628850248172,-0.637116927593,-0.0845759158902,0.0450029496678,-0.429212698882,0.573831351024,0.818952483127,0.0038933101284,0.0,0.818927627576,-0.573757578677,-0.0118544761549,0.0,-0.00747458039978,0.00999100165228,-0.999922152237,0.0,0.479584273715,0.0219113624041,0.304708541073,1.0,-0.18998,-0.249688,2.371
0.167769568949,-0.181673158804,-0.129579264254,-2.33512558812,-0.0156146064991,2.14764308713,-0.125224160611,-0.49842380845,-0.597893997222,-0.0143400593735,-0.647613142957,-0.108198412452,0.0311880479852,-0.430044782206,0.573889920927,0.818912092544,0.00375369755695,0.0,0.818884834351,-0.573815865432,-0.0119886425043,0.0,-0.00766386066077,0.00995419875009,-0.99992108647,0.0,0.476299345536,0.0176116587716,0.304650235954,1.0,-0.18998,-0.249688,2.388
0.159273984688,-0.191831344816,-0.129706561513,-2.34564701905,-0.017200789029,2.14816948508,-0.132665704943,-0.498343005145,-0.595645190425,-0.00585452071033,-0.618268761003,-0.100945561319,0.0353898469192,-0.431687191502,0.573927443212,0.818885050491,0.0039129160544,0.0,0.818860293106,-0.573853378683,-0.0118687425612,0.0,-0.00747383964777,0.0100161215009,-0.999921906466,0.0,0.473308246218,0.0136034343358,0.304725848747,1.0,-0.18998,-0.249688,2.404
0.149740399523,-0.203029273182,-0.129804132037,-2.35734736477,-0.0189543414716,2.14859504017,-0.141132682794,-0.503076408088,-0.587435082278,-0.00410677231796,-0.618791180588,-0.0954194077679,0.0115522582847,-0.446279365415,0.573847853443,0.818940815453,0.0039151992398,0.0,0.818915548394,-0.573773071381,-0.0119387628615,0.0,-0.00753084929256,0.0100574446103,-0.999921063943,0.0,0.469680684729,0.00891213079505,0.304706395502,1.0,-0.18998,-0.249688,2.423
0.14099837907,-0.212989099694,-0.129998967909,-2.36763525771,-0.020497864253,2.14881027705,-0.148834350094,-0.524463977274,-0.581452319718,-0.0161865962501,-0.587528313073,-0.1000384944,0.0155667285548,-0.452863568163,0.573935095739,0.818879646367,0.00392142139738,0.0,0.818853543618,-0.573859056109,-0.0120583882417,0.0,-0.00762417230632,0.0101319970895,-0.999919604084,0.0,0.466422950883,0.00463441304865,0.304693543931,1.0,-0.18998,-0.249688,2.44
0.133203351595,-0.221740388325,-0.130073796729,-2.3764120059,-0.0218865488295,2.14909671431,-0.155666393402,-0.518439736435,-0.582185705615,0.000622590798139,-0.583751652101,-0.104246446433,0.0116829781187,-0.455016121578,0.573955937985,0.818864146699,0.00410334051439,0.0,0.818841522241,-0.573880747493,-0.0118404396889,0.0,-0.00734102475826,0.0101560717967,-0.999921478698,0.0,0.463641438015,0.000912475138629,0.304784315743,1.0,-0.18998,-0.249688,2.455
0.122707917362,-0.233179393737,-0.130150263416,-2.38818990777,-0.0237436463474,2.14916601477,-0.165060231023,-0.531037686714,-0.576567904345,-0.00295404278111,-0.586531729586,-0.097473396439,0.001550729636,-0.47176523775,0.573798421904,0.818975241301,0.00395879507048,0.0,0.818949767812,-0.573722453423,-0.0120237739549,0.0,-0.00757606941846,0.0101414720792,-0.999919873648,0.0,0.459786465563,-0.00401289921692,0.304701706945,1.0,-0.18998,-0.249688,2.475
0.112978952769,-0.243487752332,-0.130374593377,-2.39834509674,-0.025397012722,2.14924863467,-0.173672198694,-0.542308826944,-0.567464949662,-0.0135646072711,-0.550114447524,-0.089727275625,0.00367253440901,-0.488759066165,0.573888279063,0.81891135603,0.00414499939103,0.0,0.818889235762,-0.573812905722,-0.0118285959338,0.0,-0.00730825809792,0.0101827839979,-0.999921447052,0.0,0.456430643224,-0.00857336394086,0.304798027712,1.0,-0.18998,-0.249688,2.493
0.105955431501,-0.25084063102,-0.130449772583,-2.40567102379,-0.0264934252508,2.14923624356,-0.179958707369,-0.532455632389,-0.559679549106,-0.0096798563594,-0.570508178376,-0.0835206867882,-0.00371982534207,-0.480200782958,0.573864434522,0.818927615829,0.00423293339527,0.0,0.81890631079,-0.573788306726,-0.0118397683338,0.0,-0.00726724548517,0.0102609953862,-0.999920946434,0.0,0.453965294731,-0.0117713024904,0.304803841261,1.0,-0.18998,-0.249688,2.506
0.0965843431079,-0.260313106426,-0.13058774638,-2.41523165782,-0.0280647034769,2.14911455402,-0.188307831585,-0.556349154045,-0.552591003574,-0.00730587168191,-0.559579477864,-0.092051451188,-0.0132214948462,-0.495212095149,0.573841905563,0.818943969466,0.00412179528555,0.0,0.818920548149,-0.573765236727,-0.0119722948551,0.0,-0.00743983906444,0.0102458246121,-0.999919832723,0.0,0.450684729748,-0.0160162523602,0.304720294605,1.0,-0.18998,-0.249688,2.523
0.0858646114083,-0.270887275219,-0.130803217285,-2.42533587824,-0.0297319465294,2.14899216704,-0.19780903653,-0.565777115933,-0.558889744938,-0.00221636379,-0.525026287301,-0.0860342936806,-0.00166203212157,-0.508422755486,0.573970227072,0.818852640819,0.00439066732984,0.0,0.81883408885,-0.573894578816,-0.011683075071,0.0,-0.00704707237478,0.0103011636632,-0.999922109366,0.0,0.447174309368,-0.0208248984228,0.304850014118,1.0,-0.18998,-0.249688,2.542
0.0780376065306,-0.27853281161,-0.130867878765,-2.43288168707,-0.0309523969553,2.14876119873,-0.204921052128,-0.556188471928,-0.540119522782,-0.00307416980947,-0.546037106165,-0.0916414858979,-0.0222281995676,-0.508715807088,0.573834732662,0.818947819761,0.00434913798041,0.0,0.81892822099,-0.573758501556,-0.0117685028687,0.0,-0.00714257239208,0.0103150061224,-0.999921289056,0.0,0.44449036537,-0.0242404883321,0.304802118765,1.0,-0.18998,-0.249688,2.556
0.0676360789095,-0.288279278855,-0.13103023021,-2.44238644884,-0.0325177726015,2.14833394736,-0.214216443079,-0.58725388003,-0.537078943001,-0.00377589891428,-0.527626256864,-0.0885479745303,-0.031096177311,-0.51372742904,0.573873506489,0.818920910732,0.00429969951244,0.0,0.818899855469,-0.573796270563,-0.011900147131,0.0,-0.0072782679108,0.0103504017484,-0.999919944796,0.0,0.441030475688,-0.0287556319771,0.304752862885,1.0,-0.18998,-0.249688,2.574
0.0576441862316,-0.297459341465,-0.131220423889,-2.45092650973,-0.0339195439888,2.14799617377,-0.223140830707,-0.586546238829,-0.533870654095,-0.00731767563768,-0.496288135297,-0.0886192667834,-0.0205742484023,-0.534999801378,0.57399527367,0.818834130469,0.00456502838723,0.0,0.818817579766,-0.573918691207,-0.0116556359617,0.0,-0.00692421073299,0.0104284062284,-0.999921648755,0.0,0.437883229972,-0.033049215142,0.304869893065,1.0,-0.18998,-0.249688,2.591
0.0483279878022,-0.305927854235,-0.131311906351,-2.45901292854,-0.0353254904937,2.1475117838,-0.231643603695,-0.593712841233,-0.521317804323,-0.00589008925161,-0.515353331674,-0.0933834218096,-0.0353143441259,-0.523173621992,0.573836981687,0.818945358554,0.00451276551365,0.0,0.81892804698,-0.573760463597,-0.0116846559184,0.0,-0.00697998268372,0.0104009181827,-0.999921547294,0.0,0.434833320465,-0.0369644111363,0.304846180348,1.0,-0.18998,-0.249688,2.607
0.0374299963239,-0.315340837314,-0.131515800766,-2.46796727577,-0.0368280215576,2.14682131139,-0.24137188081,-0.612884257709,-0.51941782552,-0.0131971649835,-0.492827507008,-0.0812422377746,-0.0405837408894,-0.548044404586,0.57396140525,0.818858411017,0.00446708984827,0.0,0.818839440745,-0.573883443234,-0.0118537236375,0.0,-0.00714306992529,0.0104616106479,-0.999919762408,0.0,0.431553099901,-0.0412586256539,0.304797233124,1.0,-0.18998,-0.249688,2.624
0.0277721965437,-0.323649351462,-0.13161265943,-2.47551867823,-0.0381294376466,2.14633230794,-0.250191412255,-0.587957490007,-0.518780667395,-0.00463028056123,-0.466785367645,-0.0755262011372,-0.0254417207558,-0.554959040709,0.573892403391,0.818905705902,0.00465844093405,0.0,0.818890491897,-0.573815743049,-0.0116018192841,0.0,-0.00682784072168,0.0104731505812,-0.9999218438,0.0,0.428404664677,-0.0454711087674,0.30489427787,1.0,-0.18998,-0.249688,2.641
0.01740730001,-0.332273613434,-0.131743866728,-2.48354522754,-0.0394836719247,2.1456522612,-0.259694671588,-0.617988994257,-0.50987821526,-0.00956464179433,-0.477594252559,-0.0782600935669,-0.0480560993105,-0.557380213221,0.573806533739,0.818965717251,0.00468643864494,0.0,0.818950501557,-0.57372924221,-0.011643862495,0.0,-0.00684730913933,0.0105194881891,-0.99992122426,0.0,0.425182293676,-0.0496604575311,0.304875253188,1.0,-0.18998,-0.249688,2.658
0.00789943711423,-0.339821331662,-0.131933289941,-2.49052850162,-0.0406718178817,2.14491011027,-0.268171838148,-0.634639141894,-0.50441351742,-0.00965393055595,-0.460937042622,-0.0804823826693,-0.0397649656129,-0.562940591681,0.574009146887,0.818823767324,0.00467806110257,0.0,0.818807519771,-0.573930437552,-0.0117832643414,0.0,-0.00696366931613,0.0105943370947,-0.999919630436,0.0,0.422287190931,-0.0534866369858,0.304843710342,1.0,-0.18998,-0.249688,2.673
-0.00330517152698,-0.348760777197,-0.132037758292,-2.498646671,-0.0421188744653,2.14404180507,-0.278514073205,-0.623285164633,-0.500965390583,-0.0124358062301,-0.4385806302,-0.0806107297316,-0.0478034629592,-0.577625518304,0.573843136277,0.818940056887,0.00468882454436,0.0,0.818924050394,-0.573764573192,-0.0117627010627,0.0,-0.00694279933433,0.0105899403455,-0.999919822136,0.0,0.418881371621,-0.0578946943282,0.304855038123,1.0,-0.18998,-0.249688,2.691
-0.0135708747322,-0.35660602095,-0.132238318328,-2.50555436049,-0.0433339267831,2.14330777026,-0.287880783886,-0.647598082555,-0.475623670654,-0.00827044698688,-0.430591216222,-0.0789207518381,-0.0496758809998,-0.577672720194,0.573923501554,0.818882597907,0.00488386218753,0.0,0.818869993543,-0.573845674426,-0.0115681683367,0.0,-0.00667051697787,0.0106386967042,-0.99992115806,0.0,0.415906102488,-0.0619332728236,0.304942409243,1.0,-0.18998,-0.249688,2.707
-0.0246165314209,-0.364758479409,-0.132360934604,-2.51299101958,-0.0447164188798,2.1423042653,-0.297960591532,-0.635755339331,-0.479593383059,-0.00560692294154,-0.426124042339,-0.0679895797836,-0.0622582685732,-0.594923782965,0.573898174308,0.818901166295,0.00474470948737,0.0,0.818885919954,-0.573819472204,-0.011739264089,0.0,-0.00689082302985,0.0106227225422,-0.999919833949,0.0,0.412614618993,-0.0661824361161,0.304876394902,1.0,-0.18998,-0.249688,2.724
-0.0356013223476,-0.372803714715,-0.132478125204,-2.52019345843,-0.0459463467721,2.1413404988,-0.308203379841,-0.656054279054,-0.470386838402,-0.00917660018458,-0.426844644326,-0.0698258335192,-0.0591038655665,-0.595570462924,0.573756502491,0.819000208249,0.00478347560525,0.0,0.818984844959,-0.573676738517,-0.0118139880291,0.0,-0.00693162342733,0.0106961524131,-0.999918769161,0.0,0.409376358091,-0.0703366281837,0.30485479796,1.0,-0.18998,-0.249688,2.741
-0.0463571440754,-0.380253692785,-0.132691757802,-2.52659918192,-0.0471484849988,2.14042389415,-0.317901719318,-0.681816272995,-0.460556226319,-0.0102632314294,-0.393464025618,-0.0779669335332,-0.0505072365724,-0.616373781078,0.573984525995,0.818839669325,0.00490986350647,0.0,0.818826727961,-0.573905535116,-0.0116607564602,0.0,-0.00673062170625,0.0107136275098,-0.999919955255,0.0,0.406377214126,-0.0744297018589,0.304931503383,1.0,-0.18998,-0.249688,2.757
-0.0589720957266,-0.388882174906,-0.132830791993,-2.53412500073,-0.0485460454082,2.13931426419,-0.329690798017,-0.671323145632,-0.446060914662,-0.00454397395514,-0.397548024242,-0.0709074382083,-0.0706657344181,-0.622070156698,0.573827412908,0.818949511101,0.00495432772136,0.0,0.818937478799,-0.573748843836,-0.0115938309561,0.0,-0.00665235046952,0.0107103488839,-0.999920514171,0.0,0.402805069688,-0.0791108889518,0.304948211038,1.0,-0.18998,-0.249688,2.776
-0.0705957003406,-0.396492574168,-0.133051407154,-2.54080159944,-0.0497964725399,2.1381436494,-0.340376322893,-0.688623918204,-0.441805670395,-0.00924971513601,-0.374372443934,-0.0783790141987,-0.0697310976408,-0.636723912953,0.573925239399,0.818881195694,0.0049146536174,0.0,0.818867717899,-0.573845292877,-0.0117468006755,0.0,-0.00679911424225,0.0107664438692,-0.999918924579,0.0,0.399322293476,-0.0836540192761,0.304909920224,1.0,-0.18998,-0.249688,2.794
-0.0814651700271,-0.40347351029,-0.133123313166,-2.54684192282,-0.0509431925653,2.13709018648,-0.350536429418,-0.679015315103,-0.43939934299,-0.006636170948,-0.366292628542,-0.0720835041425,-0.0678585569179,-0.639606010413,0.573780846742,0.818982559804,0.00488400958893,0.0,0.818968529587,-0.573700782716,-0.0117773663706,0.0,-0.00684362929506,0.0107576845188,-0.999918715177,0.0,0.396477315069,-0.0873160182808,0.304896226857,1.0,-0.18998,-0.249688,2.809
-0.0925910449303,-0.410295194487,-0.133320419274,-2.55258651362,-0.0519902873713,2.13608862428,-0.360886113872,-0.710204001146,-0.421375002815,-0.0118380106368,-0.350845836831,-0.0615670320022,-0.0604091085602,-0.65180235376,0.57384372587,0.818937619358,0.00502998811076,0.0,0.818925837701,-0.573763738852,-0.0116786653636,0.0,-0.00667820220143,0.0108211244128,-0.999919149172,0.0,0.393483229438,-0.0913389846171,0.304941870373,1.0,-0.18998,-0.249688,2.825
-0.104569806606,-0.417425562816,-0.133423519367,-2.5585366817,-0.0531081865588,2.13498458529,-0.371997579724,-0.693151229066,-0.419316452754,-0.00645507948139,-0.354220255292,-0.0699299710325,-0.0692550214666,-0.651728096347,0.57388273222,0.818909704181,0.00512376421613,0.0,0.818899856407,-0.573803628318,-0.0115398530185,0.0,-0.00651018846515,0.0108185804517,-0.999920284704,0.0,0.390483154318,-0.0953464418791,0.304995536228,1.0,-0.18998,-0.249688,2.841
-0.115805503678,-0.423971139989,-0.133588083326,-2.56415136513,-0.0542130466724,2.1337628585,-0.382620807356,-0.71346627894,-0.407895149292,-0.0152413630229,-0.350350639534,-0.0742759633532,-0.0789526127018,-0.66743355238,0.57374273637,0.819008292801,0.00504338056944,0.0,0.818996249844,-0.573662019156,-0.0117378626395,0.0,-0.00672034034803,0.0108652323922,-0.999918388545,0.0,0.387204148949,-0.0995358126252,0.304942821773,1.0,-0.18998,-0.249688,2.858
-0.128068009523,-0.43075934487,-0.133759014036,-2.56987956027,-0.0553232999083,2.13258027123,-0.393956994163,-0.71676122297,-0.388485275225,-0.00769447846709,-0.330655835979,-0.0627764021758,-0.0679456666264,-0.67486527338,0.573869993328,0.818919039036,0.00505817779044,0.0,0.818906860068,-0.573788674025,-0.0117838446686,0.0,-0.00674781954123,0.0109047813042,-0.999917772957,0.0,0.383946941269,-0.103810797352,0.304923779169,1.0,-0.18998,-0.249688,2.875
-0.140233699713,-0.437263252634,-0.133851055463,-2.57532371023,-0.0563701087177,2.13140097459,-0.40553703102,-0.727916901777,-0.383521005893,-0.00405901091667,-0.313498358306,-0.0594318659325,-0.0677990653798,-0.679901681725,0.573697201683,0.819040053686,0.00506538639576,0.0,0.819027710543,-0.573615471831,-0.0118172221661,0.0,-0.00677332467745,0.0109284095169,-0.999917342553,0.0,0.380752823759,-0.107980066058,0.304909692727,1.0,-0.18998,-0.249688,2.892
-0.152057913669,-0.443345947548,-0.13405324182,-2.58012907679,-0.0573912936046,2.13029976372,-0.416531864557,-0.73615969639,-0.374409940424,-0.00554616288889,-0.300735878367,-0.0661161127799,-0.070661209854,-0.696433336059,0.573827336015,0.818948187598,0.00517700418108,0.0,0.81893870234,-0.573747536595,-0.0115720767763,0.0,-0.00650676318223,0.010880232553,-0.999919638057,0.0,0.37757400627,-0.112316936224,0.305014398245,1.0,-0.18998,-0.249688,2.909
-0.165951019453,-0.45034811253,-0.134185462221,-2.58589738263,-0.0584713278134,2.12891692537,-0.429735319981,-0.730753185225,-0.363640625117,-0.00841240830322,-0.308816039418,-0.0649195714991,-0.0780867795486,-0.695846566644,0.573747495231,0.819003768759,0.00523310387102,0.0,0.81899435083,-0.573666430041,-0.0116544950285,0.0,-0.00654314531147,0.0109728310995,-0.999918388783,0.0,0.374142452257,-0.11673007655,0.305000275407,1.0,-0.18998,-0.249688,2.927
-0.177248963914,-0.455660246999,-0.13438075659,-2.59033821004,-0.0593405423306,2.12776652305,-0.440304475671,-0.761018305667,-0.351730747775,-0.00652929985557,-0.287349449686,-0.0603137139263,-0.0765417192498,-0.698528940738,0.5738860557,0.818906741009,0.00522412717622,0.0,0.818895853529,-0.573802745267,-0.0118632836273,0.0,-0.00671743374896,0.011086402579,-0.999915980351,0.0,0.371218328698,-0.120517650819,0.304941102213,1.0,-0.18998,-0.249688,2.942
-0.190634277166,-0.461786598504,-0.134487281965,-2.59524634949,-0.0603135501473,2.12656326283,-0.453139651996,-0.75713532011,-0.327697539293,-0.00700947904158,-0.270606327422,-0.0515322711075,-0.0754174941319,-0.716867031101,0.573740575742,0.819008148996,0.00530570689959,0.0,0.818998784354,-0.573657778409,-0.0117682368576,0.0,-0.00659474882212,0.0110974961522,-0.999916673962,0.0,0.367865336152,-0.124946071897,0.304972155532,1.0,-0.18998,-0.249688,2.96
-0.20214005154,-0.466690144446,-0.13468628193,-2.59927097327,-0.0611955103511,2.12552485146,-0.463956552977,-0.770874809537,-0.32602820502,-0.00924284331863,-0.258294513859,-0.0606574544015,-0.0755384772906,-0.725829615046,0.573859531291,0.818924917795,0.00528812462398,0.0,0.818914867496,-0.573776007145,-0.0118439993432,0.0,-0.00666527548365,0.0111275300269,-0.99991587255,0.0,0.364981345386,-0.128761511301,0.304935775093,1.0,-0.18998,-0.249688,2.975
-0.215785059921,-0.472475052619,-0.134785234495,-2.60377688593,-0.0621175748336,2.12428348242,-0.476987109851,-0.759381256384,-0.31191188478,-0.00920316215674,-0.244160101829,-0.0503314906996,-0.0673730151574,-0.718032205107,0.57379850737,0.818967130972,0.00537198543775,0.0,0.818958801038,-0.573715770211,-0.0117236561777,0.0,-0.00651942182042,0.0111266653917,-0.999916843771,0.0,0.361616000765,-0.133199470915,0.304995079639,1.0,-0.18998,-0.249688,2.993
-0.229770971355,-0.478036377375,-0.135005126002,-2.60809939175,-0.0630454428759,2.1230696199,-0.49025270822,-0.772049898339,-0.29485345179,-0.00474300887923,-0.239363594294,-0.0551160203303,-0.0719711758461,-0.743324497257,0.573917064283,0.818883380819,0.00547346721274,0.0,0.818876833986,-0.573834778183,-0.0116243283483,0.0,-0.0063782262543,0.0111537106455,-0.999917453077,0.0,0.358195597727,-0.137756184689,0.305041805469,1.0,-0.18998,-0.249688,3.011
-0.241304257461,-0.482439428218,-0.135072361937,-2.61161674584,-0.0638092102641,2.12204499306,-0.501407531871,-0.762268234742,-0.286533554978,-0.00571105859187,-0.223058928501,-0.0497539388489,-0.0740579556856,-0.735813584871,0.573757573519,0.818995303907,0.0054484777679,0.0,0.818988175036,-0.573674948588,-0.0116691650993,0.0,-0.00643146003897,0.011157725537,-0.999917067302,0.0,0.3553532295,-0.141430479046,0.305025991132,1.0,-0.18998,-0.249688,3.026
-0.253900490912,-0.486910713954,-0.135257339879,-2.61519627455,-0.0645858768747,2.12094336068,-0.513400114146,-0.780308338239,-0.267784862544,-0.0112810398532,-0.219104593487,-0.0483727449068,-0.0738695093008,-0.747136574684,0.573861537502,0.818922379571,0.0054606698255,0.0,0.818914479211,-0.573777245449,-0.0118108105205,0.0,-0.00653905486241,0.0112498080644,-0.999915337706,0.0,0.352081207746,-0.145707377646,0.304987230646,1.0,-0.18998,-0.249688,3.043
-0.26959537895,-0.492123350832,-0.135376672435,-2.61935541285,-0.0654301657827,2.11971271598,-0.528556314662,-0.795499638202,-0.254887585541,-0.00582732178982,-0.203851334737,-0.0474168399815,-0.058582417122,-0.761064922778,0.573794646305,0.818968830067,0.00552323738816,0.0,0.81896121086,-0.573709223282,-0.011874726468,0.0,-0.00655642484243,0.011337189929,-0.999914237031,0.0,0.348505241509,-0.150397637728,0.304958559793,1.0,-0.189620571429,-0.249215608163,3.062
-0.282381591145,-0.496117649524,-0.135512971247,-2.62246768296,-0.0661414940541,2.11873193503,-0.540743046486,-0.797055182874,-0.237592073675,0.000133308772603,-0.189555028106,-0.0517075422132,-0.0608067404147,-0.752460735741,0.573906068745,0.81889056442,0.00555109567249,0.0,0.818883187734,-0.573820314177,-0.0118877578337,0.0,-0.00654956735875,0.0113683741606,-0.999913927914,0.0,0.345462812551,-0.154422496298,0.304956624797,1.0,-0.186978285714,-0.245742889796,3.078
-0.294860638948,-0.499935631853,-0.135513785913,-2.62538255118,-0.0667091469995,2.11775858737,-0.552844192278,-0.782190438418,-0.234882569684,0.000265281686147,-0.173880047972,-0.04690543613,-0.0573302825489,-0.752403463722,0.573810091906,0.818957344943,0.00562071993107,0.0,0.81895081774,-0.573723999428,-0.0118776051542,0.0,-0.0065026352587,0.0114188027363,-0.999913659612,0.0,0.342506521363,-0.15826383756,0.304977746625,1.0,-0.184336,-0.242270171429,3.094
-0.307556600442,-0.503442685699,-0.135577064038,-2.62803779669,-0.0673101047511,2.11689512174,-0.564936055875,-0.790329191697,-0.21106172015,-0.00429228336283,-0.168755529663,-0.0324876364908,-0.0503711244636,-0.748310387199,0.573943439849,0.818863562249,0.00566931893937,0.0,0.818858075989,-0.573857867143,-0.0118045163585,0.0,-0.00641302851188,0.0114177121497,-0.999914250781,0.0,0.339555060119,-0.162201556758,0.305004346808,1.0,-0.181693714286,-0.238797453061,3.11
-0.320703632795,-0.506860959066,-0.1355075531,-2.63061433204,-0.0678095854326,2.11608375951,-0.577674210033,-0.769562573313,-0.192997233171,0.00172017823772,-0.148691138768,-0.0231693690486,-0.0452878455061,-0.738317329204,0.57386934022,0.818914966608,0.00574497363322,0.0,0.818911098474,-0.573784659831,-0.0116843416316,0.0,-0.00627222525494,0.011410127772,-0.999915230494,0.0,0.336540177847,-0.166209087524,0.305037892181,1.0,-0.178886285714,-0.235107689796,3.127
-0.333913052373,-0.510057410412,-0.135519109837,-2.63304853959,-0.0683491399768,2.11525916598,-0.590330606998,-0.772823671829,-0.190884959261,0.00094705722333,-0.142196770952,-0.0348298446463,-0.0433501519388,-0.749672467313,0.573961725137,0.818849972645,0.00577990295694,0.0,0.818846700571,-0.573877169014,-0.0116543018089,0.0,-0.00622629024666,0.0114221975501,-0.999915379776,0.0,0.333488622966,-0.170236179827,0.30504712657,1.0,-0.176078857143,-0.231417926531,3.144
-0.347500731171,-0.513104798132,-0.135400534111,-2.63541837198,-0.0687878053902,2.11438990961,-0.603616295997,-0.75546869566,-0.162194305015,0.00965121987878,-0.12718495979,-0.0239843592593,-0.0535561699748,-0.735662425761,0.57380259764,0.818961300543,0.00580638067555,0.0,0.818957749188,-0.573716839719,-0.0117447762465,0.0,-0.00628741991031,0.0114945848743,-0.999914167751,0.0,0.330355474213,-0.174295056548,0.305026947976,1.0,-0.173106285714,-0.227511118367,3.162
-0.358227049631,-0.515240689866,-0.135406231888,-2.63712406956,-0.0691422494636,2.11378091534,-0.61385066821,-0.765973103965,-0.149116143921,-0.00333795909159,-0.118914746868,-0.0262022885807,-0.0482664624866,-0.724057876801,0.573961364905,0.818849841135,0.00583405271901,0.0,0.818845952742,-0.57387420302,-0.0118512314695,0.0,-0.00635648903368,0.0115795623896,-0.999912750585,0.0,0.32788850121,-0.177524512991,0.304988561951,1.0,-0.170794285714,-0.224472489796,3.176
-0.373809830428,-0.518109185674,-0.135241923734,-2.63936261086,-0.0695811820132,2.11299552661,-0.629004705251,-0.730941147112,-0.130312068468,0.00392952667803,-0.101082147723,-0.0179569799704,-0.034648327216,-0.714033683154,0.573880661362,0.818906278522,0.00585153075758,0.0,0.818902350595,-0.573792963063,-0.0118879195136,0.0,-0.00637764754592,0.011614303016,-0.999912212935,0.0,0.324362299563,-0.182154253484,0.304965751842,1.0,-0.167326285714,-0.219914546939,3.197
-0.386445374747,-0.520196318103,-0.135204895904,-2.64095487875,-0.0699448881443,2.11236515283,-0.641140873089,-0.736528451348,-0.123521196519,0.00295222011552,-0.0875792003892,-0.0268153576487,-0.0345511533552,-0.712152776685,0.574016780441,0.818810694728,0.00587612723603,0.0,0.818806767718,-0.573928377847,-0.0119348708609,0.0,-0.00640004694922,0.0116624534337,-0.999911509374,0.0,0.321499046299,-0.185927369027,0.30495701604,1.0,-0.164518857143,-0.216224783674,3.214
-0.396481621946,-0.521738853096,-0.135062062851,-2.64210490499,-0.0701506922901,2.11189838803,-0.651059629883,-0.719918706811,-0.104279782294,0.00775938193735,-0.0806245816675,-0.00716192422207,-0.0321683566622,-0.703445350129,0.573857730431,0.818921957032,0.00590596455027,0.0,0.818918366365,-0.57376914733,-0.0119340564662,0.0,-0.00638452355435,0.0116851783758,-0.999911343303,0.0,0.319252968849,-0.188878218447,0.304964812554,1.0,-0.162206857143,-0.213186155102,3.228
-0.410943375014,-0.523775691882,-0.134975545191,-2.64358516825,-0.0704883358955,2.11127984571,-0.665000744008,-0.720654922418,-0.0949237431832,0.00284015315326,-0.065843379909,-0.0169042929972,-0.024817990021,-0.694386315894,0.573993190265,0.818826679099,0.00595264867421,0.0,0.818823891057,-0.573904755381,-0.0118959693601,0.0,-0.00632460547282,0.0117026016652,-0.999911520326,0.0,0.316002471931,-0.193158847276,0.304988585529,1.0,-0.158904,-0.208845257143,3.248
-0.420087384083,-0.524897963837,-0.134840550162,-2.64440982016,-0.0706451823543,2.11094691391,-0.673981366397,-0.698157923884,-0.0794927324851,0.00401449918677,-0.064420470857,-0.00613603890184,-0.02117249029,-0.688891830016,0.573916956903,0.818879946844,0.00597546132034,0.0,0.818877623508,-0.573828760657,-0.0118633073856,0.0,-0.00628585397965,0.0117019501377,-0.999911772309,0.0,0.313972224,-0.19583649716,0.304999971924,1.0,-0.156757142857,-0.206023673469,3.261
-0.433387473391,-0.526321195581,-0.134732415135,-2.64547203627,-0.0708667835187,2.11051697944,-0.686935200015,-0.702318724743,-0.0752072003835,0.00146862925268,-0.0530768684048,-0.00776664119757,-0.0338210845575,-0.677183932261,0.573968328444,0.818843523139,0.0060323674928,0.0,0.818842012905,-0.573880039145,-0.0118408392659,0.0,-0.00623405927346,0.0117360486165,-0.999911696935,0.0,0.311007296858,-0.199747164223,0.305004125074,1.0,-0.153619428571,-0.201899820408,3.28
-0.44366215295,-0.527239864384,-0.134617611063,-2.64619149459,-0.0710344126735,2.11020323085,-0.697010769982,-0.669165866866,-0.0594674627296,0.0125048015802,-0.0453711945303,-0.0107534336182,-0.0193470908754,-0.670780283615,0.573937565641,0.818865020147,0.00604122731839,0.0,0.818863364659,-0.573848758294,-0.0118802156694,0.0,-0.00626166280466,0.0117656683148,-0.999911176369,0.0,0.308715645561,-0.202750616622,0.30498913098,1.0,-0.151142285714,-0.198644146939,3.295
-0.454415162703,-0.528064649647,-0.134460201097,-2.64684840131,-0.0711790298579,2.10994803652,-0.70757613281,-0.673842737919,-0.0482137063503,0.00777690709262,-0.0375088138224,-0.010215369857,-0.0157752847067,-0.660758450805,0.573890717927,0.818897752165,0.00605493830599,0.0,0.818896174462,-0.573801677069,-0.0118927602494,0.0,-0.00626474149644,0.0117837374065,-0.999910944308,0.0,0.306181857737,-0.206077803596,0.304971432739,1.0,-0.148334857143,-0.194954383674,3.312
-0.467197800032,-0.528837972667,-0.134337056903,-2.64744358825,-0.0713308890685,2.10965214483,-0.719949154043,-0.658008967669,-0.0356119709707,0.0134129636814,-0.0274431343321,-0.00615494911365,-0.00350050743811,-0.636627195917,0.574030523445,0.818799578438,0.00607909570917,0.0,0.818798144442,-0.57394103597,-0.0119177510365,0.0,-0.00626932773954,0.0118189327034,-0.999910500175,0.0,0.303491103355,-0.209614913742,0.304963817101,1.0,-0.145362285714,-0.19104757551,3.33
-0.478157645869,-0.529332337473,-0.134162945733,-2.64782489749,-0.0713721892334,2.10943779528,-0.730854032982,-0.642100301026,-0.0271026357807,0.0121185532729,-0.0189436351246,-0.00599754233487,-0.00438430684922,-0.642130629488,0.573913211511,0.818881400281,0.00613390804444,0.0,0.818880454473,-0.573823100206,-0.0119414342764,0.0,-0.00625896079556,0.0118765129624,-0.999909882864,0.0,0.301075830671,-0.212789685236,0.304957086116,1.0,-0.142554857143,-0.187357812245,3.347
-0.489822996346,-0.529722286028,-0.13405126914,-2.6481198926,-0.0714576592082,2.10924040316,-0.742155147517,-0.648544291891,-0.0177444021454,0.0017666670881,-0.0101266060225,-0.0120777844905,-0.00750777725186,-0.613508014077,0.574079350691,0.81876461394,0.00617680908453,0.0,0.818764046473,-0.573988684296,-0.0119655089762,0.0,-0.00625163718133,0.0119267304506,-0.999909330956,0.0,0.298483725258,-0.216187314038,0.304951229356,1.0,-0.139582285714,-0.183451004082,3.365
-0.499115100379,-0.529890403894,-0.133850647836,-2.64824901701,-0.0714861745476,2.10914155126,-0.751478989493,-0.610915042729,-0.00676144807173,0.0122352848513,-0.0109692545583,-0.00104405021178,-0.0051682666393,-0.617511994973,0.573892364283,0.818895671678,0.00617899881377,0.0,0.818895171023,-0.573801801489,-0.0119556842034,0.0,-0.00624505763205,0.0119214576894,-0.99990943495,0.0,0.296449320736,-0.218867965931,0.304950515041,1.0,-0.137105142857,-0.180195330612,3.38
-0.508416376207,-0.530008174497,-0.133720208752,-2.64834876851,-0.0715080163977,2.10907063355,-0.760624270213,-0.6208548702,-0.00614531572124,0.0116466212269,-0.0102744963646,0.000518945334983,-0.00313252845093,-0.610830569845,0.573932936696,0.81886690212,0.00622315755367,0.0,0.818867057865,-0.573842338533,-0.011935616923,0.0,-0.00620268979197,0.011946412394,-0.999909400831,0.0,0.294247871885,-0.221739278288,0.304949473135,1.0,-0.134462857143,-0.176722612245,3.396
-0.518874537108,-0.530037352775,-0.133585737835,-2.64834290353,-0.071527075162,2.10895617133,-0.770794365182,-0.599555882582,0.000935666427715,0.00977310802233,0.00184769142126,0.000854584485243,-0.00245583562659,-0.595017540227,0.574046301305,0.818787202707,0.0062536023752,0.0,0.818787622816,-0.573955297357,-0.0119537550601,0.0,-0.00619841279538,0.0119826118042,-0.999908994206,0.0,0.292060448213,-0.224582183047,0.304952305619,1.0,-0.131820571429,-0.173249893878,3.412
-0.528816999926,-0.529934254863,-0.133417482275,-2.64827204778,-0.0715294439379,2.10895845379,-0.780776100995,-0.587427497879,0.00491522215078,0.00976190398913,0.00366524199395,-0.000636794076135,-0.0015139961027,-0.580345150289,0.573898630588,0.818890550009,0.00627501523195,0.0,0.818891458792,-0.573807976242,-0.0119135225792,0.0,-0.00615533577556,0.0119759412449,-0.999909340227,0.0,0.28986076381,-0.227450196021,0.304951349665,1.0,-0.129013142857,-0.169560130612,3.429
-0.538829271863,-0.52977142045,-0.133269183024,-2.64813946232,-0.0715364542666,2.10894025778,-0.790506857325,-0.584185548857,0.0100349166587,0.00818993131289,0.0121138026975,-0.000638503316999,-0.001087752217,-0.571762557755,0.574029128506,0.81879894372,0.00629255827788,0.0,0.818800191454,-0.573938589636,-0.0118949023847,0.0,-0.0061281094701,0.0119805990359,-0.999909451661,0.0,0.287623307434,-0.230332936512,0.304954384468,1.0,-0.126205714286,-0.165870367347,3.446
-0.548446089923,-0.529441734341,-0.133055880831,-2.6478698487,-0.0715270371837,2.10895721251,-0.800084504996,-0.547522336294,0.0216526822077,0.0163901247963,0.0175260418793,0.0001945388382,3.04417748858e-06,-0.564074751088,0.573930054381,0.818868552176,0.00627166935679,0.0,0.818869687476,-0.573839933282,-0.0118706699739,0.0,-0.00612170187136,0.0119488442421,-0.999909870882,0.0,0.285499669089,-0.233097864363,0.304963446036,1.0,-0.123398285714,-0.162180604082,3.463
-0.557858804897,-0.529007039227,-0.132889571731,-2.64759816659,-0.0715301074362,2.10896405751,-0.809438324111,-0.557837603237,0.025487947504,0.00822510017472,0.0113127190065,-0.000400094221055,0.000430482763821,-0.541834952844,0.57387556476,0.818906860702,0.00625592269376,0.0,0.818907227798,-0.573784426853,-0.0119637227763,0.0,-0.00620774316202,0.0119889392995,-0.999908860476,0.0,0.283383693444,-0.235795312059,0.304932991734,1.0,-0.120590857143,-0.158490840816,3.48
-0.566707892932,-0.528525421417,-0.132761387413,-2.64723228967,-0.0715238733533,2.10902730576,-0.818054365334,-0.550177492414,0.0277959121633,0.00278832945083,0.0273236638801,0.00217193965809,0.00656778126228,-0.532929210998,0.573999404421,0.818820104993,0.00625030281251,0.0,0.818820441015,-0.573908344924,-0.0119600963122,0.0,-0.00620618586398,0.0119831945791,-0.999908939006,0.0,0.281401470607,-0.238351797049,0.304932018984,1.0,-0.117948571429,-0.155018122449,3.496
-0.575621372704,-0.527811117829,-0.132535092891,-2.64673398773,-0.0714751515344,2.10917634364,-0.827057959976,-0.516393199252,0.0415582551983,0.0137110723236,0.0313472823361,0.00377437609339,0.00277088898918,-0.527939318149,0.573815162047,0.818949503309,0.00621431703666,0.0,0.818949345125,-0.573724243706,-0.0119670048768,0.0,-0.00623518840467,0.0119562899058,-0.999909080645,0.0,0.279445184448,-0.240921987904,0.304915945177,1.0,-0.115141142857,-0.151328359184,3.513
-0.584477545056,-0.527073179494,-0.132367921284,-2.64616917836,-0.0714526632335,2.10928635962,-0.835792706301,-0.522703317531,0.0430773993489,0.0173163826265,0.0349684060562,0.00180754739198,0.000986366691305,-0.508711479549,0.573838014588,0.818933758659,0.00617890308631,0.0,0.818933126697,-0.573747215657,-0.01197553446,0.0,-0.00626216157172,0.011932355077,-0.999909197995,0.0,0.277474404689,-0.243487268192,0.304916452263,1.0,-0.112333714286,-0.147638595918,3.53
-0.593172209553,-0.526239430353,-0.13221126097,-2.64551518648,-0.0713955524525,2.10943490117,-0.844334377576,-0.509712263519,0.0506609202583,0.00687146959492,0.0395203089705,0.00893606967145,0.00573793759685,-0.501431793535,0.573913630078,0.818880879846,0.00616414910554,0.0,0.818880215124,-0.573823180128,-0.0119540004955,0.0,-0.00625189116921,0.0119084928393,-0.999909546737,0.0,0.275546294825,-0.246016141137,0.304925308537,1.0,-0.109526285714,-0.143948832653,3.547
-0.601860560787,-0.525207838207,-0.131954863538,-2.64477031343,-0.0712782933851,2.10959998304,-0.853131298022,-0.474753318654,0.0616009814602,0.0173968969632,0.0421551895149,0.00987427944457,0.00854464264984,-0.492766202841,0.573735486019,0.819005874626,0.00614136068522,0.0,0.819004507435,-0.57364440017,-0.0120193949666,0.0,-0.00632111962177,0.011925985108,-0.999908903014,0.0,0.273642456857,-0.248520852026,0.304906742456,1.0,-0.106553714286,-0.14004202449,3.565
-0.609562113297,-0.524334104464,-0.131796639831,-2.64409833188,-0.0712017346915,2.10974006044,-0.860749458038,-0.477886763515,0.0523467037116,0.0154728214099,0.0484720792041,0.0015351160223,0.0035195603453,-0.468822891698,0.573762024293,0.818987359481,0.00613118182951,0.0,0.818985773606,-0.57367081399,-0.0120352277598,0.0,-0.00633954138871,0.0119269369665,-0.999908775034,0.0,0.271921905384,-0.250749891754,0.304907959776,1.0,-0.103911428571,-0.136569306123,3.581
