nelsonifechukwu/NELSON_IML_WORK/CNN-GradCAM/train2dof/data_sample_2022-02-22-07-30-38/robot_state.csv
position_joint1,position_joint2,position_joint3,position_joint4,position_joint5,position_joint6,position_joint7,velocity_joint1,velocity_joint2,velocity_joint3,velocity_joint4,velocity_joint5,velocity_joint6,velocity_joint7,ee_T_00,ee_T_10,ee_T_20,ee_T_30,ee_T_01,ee_T_11,ee_T_21,ee_T_31,ee_T_02,ee_T_12,ee_T_22,ee_T_32,ee_T_03,ee_T_13,ee_T_23,ee_T_33,v_x,v_y,time
0.465063080871,0.54765779081,-0.124040808986,-1.35585711623,0.0795325358935,1.89415601857,0.159127902745,0.00151254379571,-0.00113155238434,-0.00278958777809,-0.000868136507521,4.96687163406e-05,8.80003339486e-05,-0.000941903367726,0.573835448086,0.818956216936,0.00208330575131,0.0,0.818914825801,-0.573776351372,-0.011830198265,0.0,-0.00849322636483,0.00849480063998,-0.999927849131,0.0,0.661698845948,0.260861027668,0.303296926372,1.0,0.0,0.0,0.0
0.465063002134,0.547657790514,-0.124039993459,-1.35585904025,0.0795346651031,1.89415348412,0.159130958905,0.000918653624848,-0.000433852740974,0.00129025652417,-0.00046468015132,6.90307739842e-05,0.000166814902868,0.00119434405027,0.573838097399,0.818954366418,0.00208100929196,0.0,0.818912916989,-0.573778981089,-0.0118347856055,0.0,-0.00849827357421,0.00849557981081,-0.999927799629,0.0,0.661697612643,0.260861391305,0.303295767508,1.0,-0.00022,-0.000289142857143,0.012
0.465059775847,0.547652960996,-0.124038513777,-1.35586050283,0.079531472746,1.89415633169,0.159135989139,-0.00051001566721,-0.00114040194737,-9.21357267908e-05,0.000154855330317,0.000227150130955,0.00021430605839,0.00223385223128,0.573843069905,0.818950872266,0.0020849071375,0.0,0.818909497958,-0.57378396188,-0.0118298835482,0.0,-0.00849197066986,0.00849601052373,-0.999927849517,0.0,0.661698654617,0.260859679775,0.303298685138,1.0,-0.00054,-0.000709714285714,0.028
0.465057386369,0.547634154714,-0.12404316441,-1.3558780372,0.0795314712856,1.89415664786,0.159127549652,-0.00127840610125,-0.00312634507274,-0.00139030360919,-0.000222589522142,4.83131523306e-05,-0.000489281264878,-0.00141817897004,0.573842290921,0.818951414734,0.00208623017965,0.0,0.818910063267,-0.573783183365,-0.0118285108412,0.0,-0.0084900953545,0.00849629822775,-0.999927862997,0.0,0.661696886536,0.260853594178,0.303303843153,1.0,-0.00088,-0.00115657142857,0.045
0.465061963135,0.547530435701,-0.124040684066,-1.35597937368,0.0795315557439,1.89417869038,0.159126186122,0.000546741067669,-0.00202092547811,-0.00123455977305,-0.00790985185602,-4.87936589006e-05,0.00338861184524,-0.000964370322688,0.573841216763,0.818952099731,0.00211262657538,0.0,0.818911004938,-0.573781917708,-0.0118247115814,0.0,-0.00847184855983,0.00851572398773,-0.999927852511,0.0,0.661679025903,0.260848905721,0.303330916401,1.0,-0.00126,-0.001656,0.064
0.465053171596,0.547392579979,-0.124035394389,-1.35616016065,0.079528003045,1.89421274505,0.15912025861,-0.00118134072296,-0.0117904893833,-0.000710580550572,-0.0095934421721,-0.000129450267877,0.00611666823319,-0.0013323195228,0.573848790039,0.818946794347,0.00211213172103,0.0,0.818905558141,-0.573789356376,-0.0118409567191,0.0,-0.0084853582158,0.00852471921932,-0.999927661313,0.0,0.66164928657,0.260828234501,0.303345295084,1.0,-0.0016,-0.00210285714286,0.081
0.465031604839,0.547242497778,-0.124038610332,-1.35635742852,0.0795233679385,1.89431138369,0.15911692476,-0.00240708278991,-0.0140119033728,0.000710073551234,-0.0153867858297,0.000524593829285,0.0124992431647,-0.00202501554541,0.573875925398,0.818927658806,0.00215842376662,0.0,0.818887013054,-0.573816293599,-0.0118181196707,0.0,-0.0084398088401,0.00854980416385,-0.999927832634,0.0,0.661634318774,0.260796613356,0.30336637682,1.0,-0.00192,-0.00252342857143,0.097
0.465020370186,0.547069296166,-0.124038622349,-1.35656526761,0.0795205146734,1.89441730937,0.15911007691,7.73747518941e-05,-0.0138662360889,-0.000165610298103,-0.0173196589489,0.000460151548832,0.00640254324736,0.000853191371741,0.573890533787,0.818917245873,0.00222408238057,0.0,0.818877410072,-0.573830600109,-0.0117888317521,0.0,-0.0083779924057,0.00858691509126,-0.999928034477,0.0,0.661615454239,0.260773517397,0.303399328128,1.0,-0.00224,-0.002944,0.113
0.464998749525,0.546861926536,-0.124035711061,-1.35679946351,0.0795148467518,1.89454164092,0.159093461151,-0.00277710188421,-0.0132227356604,0.000739663004139,-0.013429664352,-0.000356893113175,0.0089286107866,0.00137906294314,0.573904352056,0.818907317595,0.00231231079467,0.0,0.818868594942,-0.573844046344,-0.0117465567177,0.0,-0.00829259512803,0.00863504496486,-0.999928331864,0.0,0.661597304807,0.260743358217,0.303445425602,1.0,-0.00256,-0.00336457142857,0.129
0.464970868246,0.546618589665,-0.124036458843,-1.35717422514,0.0795086015972,1.89467404169,0.159037298658,-0.00158974601205,-0.00920780050579,0.00129354682853,-0.0255133201214,-0.000777376778767,0.0141027474547,0.00187389020629,0.573900998508,0.818909639671,0.00232225450851,0.0,0.818870894956,-0.573840498194,-0.0117595462065,0.0,-0.00829756181635,0.00865060848863,-0.99992815614,0.0,0.66155195312,0.260691164954,0.303450895722,1.0,-0.00292,-0.00383771428571,0.147
0.464928564279,0.546332013626,-0.124041095368,-1.35757741079,0.0795001979936,1.89482171185,0.158941621643,-0.00222984890115,-0.0180899513008,-5.86493770041e-05,-0.0211051614517,0.000226947029712,0.0124646755259,-0.00357569176946,0.573880808429,0.818923687906,0.00235754195283,0.0,0.818885280408,-0.573820051162,-0.0117555653608,0.0,-0.00827426539993,0.00867701681535,-0.999928120372,0.0,0.661509014446,0.260625064103,0.303474894075,1.0,-0.00326,-0.00428457142857,0.164
0.464892396467,0.54605912351,-0.124038590687,-1.35804694006,0.079477907033,1.89497930885,0.158920748375,-0.00349899799119,-0.0168559056372,0.000240815764868,-0.0235100883873,-0.000781184506661,0.0018865658139,-0.00305573407949,0.573911892797,0.818901990032,0.00232742971678,0.0,0.818863100664,-0.573851150602,-0.0117824540937,0.0,-0.00831323693945,0.00866810373304,-0.999927874434,0.0,0.661449972728,0.260557518618,0.303458203729,1.0,-0.0036,-0.00473142857143,0.181
0.464841270283,0.545753874776,-0.124043959139,-1.35855337859,0.079446923946,1.89515353201,0.158836072702,-0.00468932845787,-0.0112862518265,-0.00181977046323,-0.0363999055028,-0.00483911061742,0.0104946573795,-0.00850728525039,0.573908228952,0.818904627107,0.00230289914943,0.0,0.818865423559,-0.573847585627,-0.0117946373895,0.0,-0.00833733053591,0.00865497057776,-0.999927787595,0.0,0.661392777227,0.260471288499,0.30344852789,1.0,-0.00392,-0.005152,0.197
0.464780902006,0.545408813773,-0.124036872551,-1.35916072069,0.079397388602,1.89535021705,0.158767418693,-0.00318730833727,-0.0265755264043,0.00165202236314,-0.0328107063798,-0.00159904464283,0.0107850257684,-0.00516107701134,0.573929525279,0.818889898303,0.00223189848873,0.0,0.818849845937,-0.573869230283,-0.0118229964256,0.0,-0.00840107621954,0.00861332229269,-0.999927613679,0.0,0.661314597952,0.260360975311,0.303418414797,1.0,-0.00428,-0.00562514285714,0.215
0.46471629048,0.54500953471,-0.124044205442,-1.35985825287,0.0793596054401,1.89555063824,0.158694013108,-0.00191197967828,-0.0210367543583,-0.000142752721029,-0.0413490769619,-0.00101084259535,0.0161325618639,-0.00409851976158,0.573943735224,0.818880134375,0.00215898707641,0.0,0.818838999259,-0.573883589998,-0.0118770924135,0.0,-0.0084870711798,0.00858481088468,-0.999927132668,0.0,0.661229284893,0.260256164059,0.303388705902,1.0,-0.0046,-0.00604571428571,0.231
0.464644944291,0.544578711443,-0.12404248979,-1.36061663064,0.0793254771096,1.89580467025,0.158587788892,-0.00293805495959,-0.0209183484042,0.00102350159899,-0.0408088339466,-0.00228455836477,0.0149635817755,-0.00999832819066,0.573947158985,0.818877881585,0.00210253305776,0.0,0.818835847142,-0.573887076761,-0.0119258317609,0.0,-0.00855934809218,0.00856659162863,-0.999926672846,0.0,0.661137020936,0.260137323725,0.303354616888,1.0,-0.00496,-0.00651885714286,0.249
0.464587769559,0.544165226819,-0.124045025034,-1.36128622965,0.0792969383901,1.89603792385,0.158497881513,-0.00496049923697,-0.0274104357746,0.000563665720353,-0.048472373662,-0.00483689330791,0.0121659857048,-0.0110569547257,0.573951822742,0.818874647613,0.00208891596728,0.0,0.818832312825,-0.573891673082,-0.0119472985549,0.0,-0.00858469369661,0.0085678106321,-0.999926445122,0.0,0.661057464203,0.260035208112,0.303348816635,1.0,-0.00526,-0.00691314285714,0.264
0.464517222253,0.543688880006,-0.124047481452,-1.36205080006,0.0792598300151,1.89630740697,0.158411047426,-0.00742744839182,-0.0324954022639,-0.000407307041021,-0.0516664353354,-0.00542549416178,0.0213653044418,-0.0107836611459,0.573977765188,0.818856509926,0.00207077835089,0.0,0.818813825879,-0.573917575102,-0.0119700643455,0.0,-0.00861347485989,0.00856629765399,-0.999926210575,0.0,0.660961118101,0.259910393887,0.303341535881,1.0,-0.0056,-0.00736,0.281
0.464436861562,0.543103424878,-0.124053461831,-1.36299348876,0.0791999994041,1.89663009295,0.158296981559,-0.00589961203368,-0.0273895750687,0.000244186996637,-0.0503957149892,-0.00559958045812,0.0199903233212,-0.00132279045297,0.573985891199,0.818850879612,0.00204464274794,0.0,0.818807881504,-0.573925835849,-0.0119806107062,0.0,-0.00863702660648,0.00855103574412,-0.999926138052,0.0,0.66085709049,0.259766344813,0.303338996549,1.0,-0.00596,-0.00783314285714,0.299
0.464361893837,0.542559282274,-0.124054584376,-1.36384207422,0.0791475825758,1.89693028226,0.158169438113,-0.00233468455212,-0.0377378515389,-0.000209747499867,-0.0508684967811,-0.0054480124092,0.0160121267143,-0.00837499436716,0.573976775464,0.818857279544,0.00204055539518,0.0,0.818814215828,-0.573916726226,-0.0119840818291,0.0,-0.00864231016358,0.00854958501694,-0.999926104805,0.0,0.66075842825,0.259634454816,0.303346003434,1.0,-0.00628,-0.00825371428571,0.315
0.464280396315,0.541935799862,-0.124054564395,-1.36481650346,0.0790944426952,1.89728906202,0.158055681551,-0.00811650191608,-0.0364777661162,-0.000829744160079,-0.0519927628652,-0.0012601313071,0.0172716463835,-0.00570974969414,0.573990331925,0.81884775367,0.00204989466264,0.0,0.818804749496,-0.573930180147,-0.0119865516637,0.0,-0.0086388308153,0.00855879303709,-0.999926056098,0.0,0.660645867484,0.259488881771,0.30335420217,1.0,-0.00664,-0.00872685714286,0.333
0.464194611695,0.541337974283,-0.124060271157,-1.36572334683,0.0790393676493,1.89761774223,0.157943138384,-0.00958096795943,-0.0349298910845,-0.000814255055404,-0.0519749778034,-0.000354641704001,0.0269982861472,-0.0115139361509,0.574008003228,0.818835327252,0.00206542371648,0.0,0.818792542769,-0.573947801257,-0.0119766539744,0.0,-0.00862162796884,0.00856601369222,-0.999926142743,0.0,0.660544592378,0.259342498915,0.303373909414,1.0,-0.00696,-0.00914742857143,0.349
0.464117021173,0.540641936922,-0.124060222339,-1.36676604295,0.0789796906923,1.89800318428,0.157803281455,-0.00542841527062,-0.0423873302714,0.00112600801937,-0.0595446479783,-0.0033450222675,0.0188442026561,-0.0086652322568,0.573998835251,0.818841664107,0.00210075080424,0.0,0.818799303328,-0.57393845072,-0.0119625480471,0.0,-0.00858989647,0.00858674726212,-0.999926238005,0.0,0.660422521888,0.259193143532,0.303403026171,1.0,-0.0073,-0.00959428571429,0.366
0.464029664461,0.539998179838,-0.124063726055,-1.36774287119,0.0789170564065,1.8983535222,0.157687207745,-0.000584258750337,-0.044186465542,-0.000941888142558,-0.0656833345429,-0.00565843329286,0.0271059015205,-0.00647988098299,0.574015054131,0.818830262897,0.00211307752405,0.0,0.818788092097,-0.573954645942,-0.0119528884756,0.0,-0.00857474124104,0.00859146605207,-0.999926327548,0.0,0.660310611397,0.259039559625,0.303423503049,1.0,-0.0076,-0.00998857142857,0.381
0.463930661771,0.53925249463,-0.124066764506,-1.36889629578,0.0788498856622,1.89878079544,0.157551677816,-0.00616065412842,-0.0485274288378,-0.000310002649398,-0.065867219775,-0.00557510640978,0.0320132965964,-0.0166370253987,0.574033144351,0.818817537346,0.00212993486031,0.0,0.81877557088,-0.573972649094,-0.0119461091482,0.0,-0.00855932411293,0.0086015668351,-0.999926372799,0.0,0.660178881604,0.258863423985,0.303438511975,1.0,-0.00794,-0.0104354285714,0.398
0.463806786588,0.538395946514,-0.124072876364,-1.37020962451,0.0787793663174,1.8992916324,0.157375274391,-0.00728529910882,-0.0498138733389,-0.000694631264575,-0.0723676780734,-0.00526337775193,0.027866239769,-0.0129076602205,0.574048294898,0.818806788511,0.00217832811481,0.0,0.81876542958,-0.573987577014,-0.0119239112628,0.0,-0.00851321011669,0.00862860681103,-0.9999265335,0.0,0.660036820144,0.258656696784,0.303462946697,1.0,-0.00832,-0.0109348571429,0.417
0.463705156291,0.537624344842,-0.124084687008,-1.37144451712,0.0787070059535,1.89976402591,0.157231281855,-0.00890814018209,-0.0433027443847,-0.000575252860004,-0.0702928360937,-0.00485558084562,0.0277042858516,-0.0113743207525,0.574070833304,0.81879097541,0.00218262179461,0.0,0.818749718373,-0.574010141812,-0.0119164870382,0.0,-0.00850442873624,0.00862809474129,-0.999926612644,0.0,0.659898371561,0.258466648391,0.303461419646,1.0,-0.00866,-0.0113817142857,0.434
0.463599299962,0.536887110393,-0.124080444333,-1.37258379683,0.0786429874319,1.90018221524,0.157094282748,-0.0100130044911,-0.0494114724748,0.000329019464843,-0.076667107417,-0.00776930694633,0.025118233307,-0.00369273978992,0.574087961528,0.81877891994,0.00219990728152,0.0,0.818737810119,-0.574027118878,-0.0119168777263,0.0,-0.00849464538344,0.00864264970961,-0.999926570107,0.0,0.659767065069,0.258291716124,0.303475776275,1.0,-0.00896,-0.011776,0.449
0.463478616996,0.535990744661,-0.124094055012,-1.37398484927,0.0785608034351,1.90070234882,0.156917349007,-0.00776564515825,-0.0538120208614,-3.8066346292e-05,-0.0785667742539,-0.00724374492385,0.0296666364982,-0.0121521881643,0.57410657076,0.818765843184,0.00221050806335,0.0,0.818724904171,-0.574045716421,-0.0119077139286,0.0,-0.00848086003311,0.0086462612788,-0.9999266559,0.0,0.659608217479,0.258071646616,0.303487143292,1.0,-0.00932,-0.0122491428571,0.467
0.463379037794,0.53520224421,-0.124097597043,-1.37523062052,0.0784840912292,1.90115424437,0.156771148928,-0.00770802971397,-0.0499425455524,-0.00230321789103,-0.0868412762085,-0.00544704279414,0.0386574755351,-0.00927103110532,0.574118724913,0.818757338722,0.00220383619716,0.0,0.81871631518,-0.57405789829,-0.0119109852399,0.0,-0.00848724040672,0.00864280270971,-0.999926631664,0.0,0.659460596057,0.257884634703,0.303489884281,1.0,-0.00962,-0.0126434285714,0.482
0.46326070537,0.534305537257,-0.124098912872,-1.37667661943,0.0784148083992,1.90167713558,0.156595337016,-0.00781907722519,-0.0537806998752,-0.00204470852764,-0.0899025116665,-0.0113461475339,0.0366923780783,-0.0035216046784,0.574133344073,0.818747124145,0.0021901663378,0.0,0.818705728356,-0.574072373534,-0.0119409883417,0.0,-0.00851949990305,0.00864898781481,-0.99992630385,0.0,0.659287070792,0.257670224398,0.303479635525,1.0,-0.00996,-0.0130902857143,0.499
0.463114300133,0.533286913165,-0.124104673978,-1.37833073432,0.0783226067583,1.90227726579,0.156396334734,-0.00899310673263,-0.0570440310785,-0.000869119066492,-0.0911854502286,-0.00551010030485,0.0307070743713,-0.0138892434544,0.574160186586,0.818728376313,0.00216167990796,0.0,0.818686524336,-0.57409924331,-0.0119658097257,0.0,-0.00855589389599,0.00864019610587,-0.999926069113,0.0,0.659092862972,0.257413181197,0.303462947866,1.0,-0.01034,-0.0135897142857,0.518
0.463004501369,0.53244570978,-0.124104596483,-1.37967339028,0.078246597141,1.90278787778,0.156224171601,-0.00434537275609,-0.0570305147501,-0.00101216655297,-0.0881722873112,-0.00445468750181,0.0321890964828,-0.0182901710673,0.574163504415,0.81872604408,0.00216375706745,0.0,0.818684131329,-0.574102463434,-0.0119750361176,0.0,-0.00856222053486,0.0086472287639,-0.999925954166,0.0,0.658922978514,0.257204467968,0.303454981545,1.0,-0.01066,-0.0140102857143,0.534
0.462857689336,0.531417971528,-0.124099170729,-1.38132933747,0.0781487911427,1.90339561516,0.156008056376,-0.0067477528397,-0.0560315809991,0.00102564132131,-0.0904140532067,-0.00788133787603,0.0356086639897,-0.0123266131557,0.574165743872,0.818724496935,0.00215489764612,0.0,0.818682427272,-0.574104697484,-0.0119844275833,0.0,-0.00857497267771,0.00864539106424,-0.99992586078,0.0,0.65874071063,0.256963619576,0.303449972159,1.0,-0.011,-0.0144571428571,0.551
0.462730228882,0.530416295804,-0.124102386364,-1.38296484055,0.0780456359643,1.90396923102,0.155808028193,-0.0081713437716,-0.0539562014559,0.000891068900668,-0.0922762919332,-0.00447486905628,0.03649945901,-0.00382098222373,0.574169777843,0.81872181044,0.00210005322518,0.0,0.818679001308,-0.57410893586,-0.0120153853376,0.0,-0.00863176490261,0.00861830653618,-0.999925605946,0.0,0.658538914222,0.256719051971,0.30342714808,1.0,-0.01134,-0.014904,0.568
0.462605452259,0.529483239081,-0.12410780025,-1.38443079673,0.0779468672335,1.90450853674,0.155610023885,-0.00500230630147,-0.0599577744072,-0.000660466383749,-0.102097476175,-0.00186775176858,0.036909573188,-0.015812992976,0.57415725479,0.81873057927,0.00210528868918,0.0,0.818687895102,-0.57409644899,-0.0120060223543,0.0,-0.00862122486164,0.00861708510703,-0.999925707403,0.0,0.658354831877,0.256483898714,0.303437137451,1.0,-0.01166,-0.0153245714286,0.584
0.462463330392,0.528326385679,-0.124105698067,-1.38621770781,0.0778418229615,1.90518063563,0.155359901083,-0.00459337261359,-0.0611739903016,0.000827886979162,-0.0974936243964,-0.00590659596338,0.0363660007008,-0.00707739142536,0.574145511554,0.818738734739,0.00213604817402,0.0,0.818696440387,-0.574084567278,-0.0119914557927,0.0,-0.00859176246974,0.00863378178397,-0.999925816963,0.0,0.658155517033,0.256231941864,0.303455818354,1.0,-0.012,-0.0157714285714,0.601
0.462311163562,0.527219473275,-0.124106433055,-1.38795500189,0.077727029035,1.90584188426,0.155125379258,-0.0113407969833,-0.0645430443954,0.00054032027451,-0.110661692975,-0.00286902761118,0.0364428706013,-0.012356525098,0.574141811117,0.818741278445,0.00215559711309,0.0,0.818699330341,-0.574080878249,-0.0119707405502,0.0,-0.00856361721437,0.00863785487837,-0.999926023225,0.0,0.657955156843,0.255965983611,0.30346540607,1.0,-0.01234,-0.0162182857143,0.618
0.462159900119,0.526060284472,-0.12410888546,-1.38975815464,0.0776159007162,1.90651706328,0.154869467921,-0.0109246350563,-0.0664455515545,-0.000301238137311,-0.107358417259,-0.00432041769107,0.0293577474963,-0.0157494390196,0.574125332906,0.818752768485,0.00218016404599,0.0,0.818711154814,-0.57406431546,-0.0119563204946,0.0,-0.00853788050585,0.00864951763809,-0.999926142493,0.0,0.657742927731,0.255694061168,0.303481417022,1.0,-0.01268,-0.0166651428571,0.635
0.46202076117,0.525021513999,-0.124118090288,-1.3913811414,0.0775200089584,1.9071021121,0.154651343741,-0.00888088819325,-0.0722971752608,-0.000167373714328,-0.109443687038,-0.00362429991033,0.0366520322123,-0.00970925829148,0.574128692748,0.818750411789,0.0021804266127,0.0,0.818708777129,-0.574067649072,-0.011959073631,0.0,-0.00853994850098,0.00865134828124,-0.999926108996,0.0,0.657548897765,0.255442380174,0.303490605196,1.0,-0.01298,-0.0170594285714,0.65
0.461858935954,0.523846182382,-0.12411846978,-1.39327276489,0.0773955690519,1.90777528361,0.15439745588,-0.0095444157477,-0.0684047644874,0.00184940148058,-0.110552592389,-0.0112601537277,0.0359154247736,-0.0175080817629,0.574121561803,0.818755523727,0.00213811633107,0.0,0.818713349849,-0.574060705953,-0.0119792971619,0.0,-0.00858087235962,0.00862824330009,-0.999925958282,0.0,0.657317743398,0.25515224842,0.30347505291,1.0,-0.01332,-0.0175062857143,0.667
0.461709930502,0.522629658954,-0.124126960459,-1.39519333089,0.0772887596009,1.90850909714,0.154134363194,-0.00759940454205,-0.0669932498397,-0.000871116039024,-0.118896773055,-0.00918906592957,0.0485596777374,-0.0192203356695,0.574108608655,0.818764535374,0.0021651750992,0.0,0.818722669639,-0.574047597581,-0.011970498366,0.0,-0.00855827074206,0.00864521054638,-0.999926005431,0.0,0.657089969701,0.254869866364,0.303479907093,1.0,-0.01366,-0.0179531428571,0.684
0.461551981149,0.521478449205,-0.124127370123,-1.39705252573,0.0771645394089,1.90923824862,0.153873451258,-0.0074736359273,-0.0701795061577,-4.96169419375e-05,-0.118929930016,-0.011658481714,0.0487224786504,-0.0228995056319,0.574090837095,0.81877697356,0.00217376003981,0.0,0.818735346122,-0.574029920801,-0.0119511478931,0.0,-0.0085376857759,0.00864094504175,-0.999926218273,0.0,0.656874777541,0.254589659866,0.303467083027,1.0,-0.01398,-0.0183737142857,0.7
0.461369186528,0.520110802479,-0.12413832627,-1.39919481354,0.0770269992805,1.91003491461,0.153595779834,-0.00938583173354,-0.072041153492,-0.00145869928577,-0.113826724522,-0.00782079509686,0.0421788135267,-0.00937560086122,0.574098104368,0.818771847932,0.00218506226791,0.0,0.818730458564,-0.574037233047,-0.0119347474685,0.0,-0.00851769213306,0.00864085929369,-0.999926389526,0.0,0.656620740194,0.25425872894,0.303477357276,1.0,-0.01434,-0.0188468571429,0.718
0.461185173519,0.518695142502,-0.124134713674,-1.40139534052,0.0768852690659,1.91082441128,0.15329255322,-0.0120013321769,-0.0872366992888,0.00142554655836,-0.121924198355,-0.00706452405033,0.0464926825207,-0.0217035337192,0.57407650301,0.818786989938,0.00218648171862,0.0,0.818745600512,-0.574015609816,-0.0119360056156,0.0,-0.00851813547332,0.00864251904671,-0.999926371406,0.0,0.656349180461,0.25392813162,0.303492079692,1.0,-0.0147,-0.01932,0.736
0.461018019308,0.51744352834,-0.124139747021,-1.40337991466,0.076753733397,1.91153400348,0.153028504457,-0.0133637706547,-0.0747146426056,0.00028393679271,-0.125016416124,-0.00958265505236,0.0402350108412,-0.0242888807382,0.574070297166,0.818791412183,0.00215966397933,0.0,0.818749720113,-0.574009561519,-0.0119442873554,0.0,-0.00854037656614,0.00862525093295,-0.999926330794,0.0,0.656104788788,0.253623324769,0.303487423144,1.0,-0.01502,-0.0197405714286,0.752
0.460820588908,0.515999202397,-0.124143976731,-1.40564671376,0.0766067102735,1.91238127316,0.152708873134,-0.0121055159062,-0.080898562767,0.000315752937568,-0.123613425331,-0.00922629344972,0.044831935857,-0.0158733876167,0.574053453264,0.818803183478,0.00217403387018,0.0,0.818761751286,-0.573992734619,-0.011928207627,0.0,-0.00851913875168,0.00862761066667,-0.999926491603,0.0,0.655833675151,0.253275018471,0.303495129324,1.0,-0.01538,-0.0202137142857,0.77
0.46066913798,0.514878131702,-0.124151782307,-1.40745281276,0.0764958193802,1.91306664545,0.152469151688,-0.0105733874328,-0.0785121115253,-0.00108605510257,-0.134907395398,-0.00703083075809,0.0488927801169,-0.018983859957,0.574052241118,0.818804044077,0.00216997020548,0.0,0.81876259138,-0.573991571973,-0.011926489941,0.0,-0.00852007762388,0.00862328473292,-0.999926520919,0.0,0.655617481742,0.253000095955,0.303481187909,1.0,-0.01566,-0.0205817142857,0.784
0.460478363661,0.513465323281,-0.124149747071,-1.40972376487,0.0763665980386,1.91385113648,0.152152919412,-0.0174068730515,-0.0784598945942,0.000521052230939,-0.13504868316,-0.00969762487642,0.0443591907703,-0.0203643721639,0.574032418376,0.818818087468,0.00211404610359,0.0,0.818775680472,-0.57397175476,-0.0119815152189,0.0,-0.00859744415223,0.00860887344143,-0.999925982887,0.0,0.655326316761,0.25265768293,0.303458421615,1.0,-0.016,-0.0210285714286,0.801
0.460255792041,0.511873604751,-0.124152905972,-1.41227509283,0.0762099665327,1.9147696625,0.151794318082,-0.0124780709413,-0.0862284508991,-0.000331547173146,-0.134065895566,-0.0107933053527,0.0454628273707,-0.0176056494356,0.574014650741,0.818830636361,0.00207764118379,0.0,0.818787683759,-0.573954071146,-0.0120083321249,0.0,-0.0086404859758,0.00859427104958,-0.999925737496,0.0,0.655009627671,0.252265209552,0.303438826248,1.0,-0.01636,-0.0215017142857,0.82
0.460088122571,0.510590158728,-0.124153216297,-1.41432459961,0.0760862267773,1.91555335008,0.151502603704,-0.0121290779098,-0.0899113641485,-0.00223813919488,-0.141912516265,-0.00969846026677,0.05622210722,-0.0177291429382,0.573994244496,0.818844904393,0.0020920650509,0.0,0.818802160024,-0.573933626843,-0.011998400776,0.0,-0.00862428889836,0.00860016595104,-0.999925826642,0.0,0.654745459567,0.251931969828,0.303431196515,1.0,-0.0167,-0.0219485714286,0.836
0.459861514374,0.508918525425,-0.124158271298,-1.41697390211,0.0759113730753,1.91652463601,0.151138340511,-0.0131194409586,-0.091073684956,0.000864174945387,-0.136826205263,-0.00952386621593,0.04136731126,-0.0180260704941,0.573968758729,0.818862807171,0.00207700202235,0.0,0.818819900477,-0.573908241561,-0.0120019895277,0.0,-0.00863614053042,0.00858962299761,-0.999925814975,0.0,0.654433218029,0.251556038498,0.303423183078,1.0,-0.01706,-0.0224217142857,0.854
0.459685056715,0.507682364705,-0.124164625778,-1.41891873173,0.0757841553712,1.91722231385,0.150865101915,-0.0149940786594,-0.0881947717421,-0.001106286268,-0.144462630457,-0.0156700518569,0.0511334432162,-0.0197235491012,0.573960439193,0.818868675936,0.00206221085952,0.0,0.818825608779,-0.573900017635,-0.0120057930559,0.0,-0.00864783151218,0.00857960650172,-0.999925799928,0.0,0.654192590651,0.251249193255,0.303422873987,1.0,-0.01734,-0.0227897142857,0.868
0.459476655122,0.50611917618,-0.124162525855,-1.42134282872,0.0756358870201,1.91812071744,0.150533680524,-0.0105036914668,-0.0927464439388,0.00120204607482,-0.143954779771,-0.00633933211389,0.0558699480075,-0.0198611814892,0.573943628848,0.818880376125,0.00209461305174,0.0,0.818837679341,-0.573883021207,-0.0119949890917,0.0,-0.00862056428519,0.00859976122973,-0.999925862241,0.0,0.653892385267,0.250884066561,0.303439825072,1.0,-0.01768,-0.0232365714286,0.885
0.45923603033,0.504400865962,-0.124168097608,-1.4239605538,0.0754684285403,1.91913169478,0.150180221513,-0.00920217816584,-0.0982185714579,0.00175039391452,-0.145528653766,-0.00878727664942,0.0564079667571,-0.0231545274265,0.573945127457,0.818879094549,0.00218313523886,0.0,0.818837667513,-0.573884270505,-0.0119358799419,0.0,-0.00852133964772,0.00863833981624,-0.999926380218,0.0,0.653582095142,0.250477039236,0.303482370217,1.0,-0.01804,-0.0237097142857,0.903
0.459004759655,0.502736181408,-0.124172735986,-1.42643807623,0.0753081960851,1.92006834511,0.149827759887,-0.0116384333388,-0.0954281731837,-0.00130558747795,-0.145186224135,-0.016138218779,0.0473656057639,-0.0261185690023,0.573939903007,0.81888252827,0.00226705344924,0.0,0.818842334199,-0.57387885321,-0.0118760457933,0.0,-0.00842423456409,0.00867266288447,-0.999926905924,0.0,0.653304224621,0.250100450159,0.303539116223,1.0,-0.01836,-0.0241302857143,0.919
0.458759844104,0.500935146355,-0.124175069611,-1.42915715361,0.0751331788193,1.92102194251,0.14945033566,-0.0134545214975,-0.0959461028106,0.00063398101988,-0.153602611301,-0.0142619075542,0.0586780133145,-0.0205337019592,0.573917619475,0.818898018118,0.00231276442593,0.0,0.81885834058,-0.5738563117,-0.0118616392942,0.0,-0.00838643991132,0.0087015977595,-0.999926972244,0.0,0.652939500584,0.249665250168,0.303592545264,1.0,-0.01874,-0.0246297142857,0.938
0.458528201514,0.499336087738,-0.124178093842,-1.43159008856,0.0749799048751,1.92190710487,0.149103610525,-0.0127808858847,-0.101366505348,-0.000206273306538,-0.154200724611,-0.0101227435056,0.0548747505228,-0.0144905661653,0.573908003354,0.818904636374,0.00235523095804,0.0,0.81886549934,-0.573846519076,-0.0118411754181,0.0,-0.00834541303816,0.00872453069032,-0.999927115667,0.0,0.652638365049,0.249280095971,0.303626829379,1.0,-0.01906,-0.0250502857143,0.954
0.4582591012,0.497565867015,-0.124175318552,-1.43439564713,0.0748115314916,1.92295212387,0.148686230285,-0.0174861366509,-0.099213530985,-1.58754310796e-05,-0.155526281037,-0.00671636115987,0.0623573010045,-0.0285259160162,0.573881841447,0.818922941269,0.00236542231042,0.0,0.81888383696,-0.573820216579,-0.0118476796025,0.0,-0.00834517015525,0.00873634248644,-0.999927014564,0.0,0.652291380001,0.248840434728,0.303616302376,1.0,-0.01942,-0.0255234285714,0.972
0.45803704587,0.496193355447,-0.124181661993,-1.43661364991,0.0746691990352,1.92372902784,0.148356479952,-0.0138293782203,-0.10251287879,-0.00108526338893,-0.164219509132,-0.00801472772267,0.0565163047982,-0.024974930671,0.57387177294,0.818930174234,0.0023032265313,0.0,0.818890216456,-0.573810346676,-0.0118847103904,0.0,-0.00841129467978,0.00870655712357,-0.999926720307,0.0,0.652010231285,0.248476819158,0.303584701342,1.0,-0.0197,-0.0258914285714,0.986
0.457765645828,0.494523637441,-0.124176136094,-1.4393537909,0.074491316645,1.92466990411,0.147977157091,-0.017533227445,-0.099059346212,0.000647246267313,-0.163995847802,-0.0146190969028,0.0577366141657,-0.0202621261378,0.573869110287,0.818932350208,0.00219019239048,0.0,0.818890785461,-0.573808001241,-0.0119585157696,0.0,-0.0085366298629,0.00865631783297,-0.999926094325,0.0,0.651653598626,0.248035579804,0.303525035759,1.0,-0.020876,-0.0274370285714,1.003
0.457459353554,0.492337913672,-0.124245224306,-1.44271262593,0.0742915659007,1.92590399089,0.147491781362,-0.0145939765903,-0.134013404001,-0.00369704817875,-0.211940932341,-0.014988528876,0.0789503972972,-0.0267251589614,0.573887024295,0.818919684651,0.00223166722014,0.0,0.818878836349,-0.573825923807,-0.0119166877997,0.0,-0.00847838494594,0.00866646441344,-0.999926501991,0.0,0.651244008688,0.247477651211,0.303556860536,1.0,-0.02894,-0.0380354285714,1.021
0.457067114041,0.489535437217,-0.124265368523,-1.447211992,0.0740532128087,1.92758707019,0.146832222869,-0.0276917323848,-0.168426981141,0.000435414237556,-0.279079653199,-0.0218898190817,0.0911364864453,-0.0391139541786,0.573844116794,0.818949744435,0.00223441521868,0.0,0.818908584118,-0.573782655226,-0.0119558488047,0.0,-0.00850933445714,0.00869074262466,-0.999926028374,0.0,0.65067270932,0.246789715653,0.303511260286,1.0,-0.037004,-0.0486338285714,1.039
0.456614972309,0.486588269612,-0.124299509831,-1.45185520915,0.0737852336375,1.92931167299,0.146139359558,-0.0298992957012,-0.202771116283,0.000127461935026,-0.322078512403,-0.0168771939036,0.124037480052,-0.0521950272473,0.573830246528,0.818959390519,0.00226091801222,0.0,0.81891846175,-0.573768562354,-0.0119556162842,0.0,-0.00849408408536,0.00871216947673,-0.999925971579,0.0,0.650094288872,0.246037935829,0.303499751239,1.0,-0.043724,-0.0574658285714,1.054
0.455931051229,0.482126692508,-0.124425128363,-1.45882750207,0.0733561084603,1.93183102103,0.145066324224,-0.0372279434874,-0.2494607677,-0.00317752592754,-0.389781590921,-0.0203340673092,0.141038452729,-0.057129901963,0.573829537964,0.81895992945,0.00224548789497,0.0,0.818919076518,-0.573768200125,-0.0119308650501,0.0,-0.00848267416957,0.00868532287187,-0.999926301987,0.0,0.649224676496,0.244854587805,0.303499748311,1.0,-0.052236,-0.0686530285714,1.073
0.45528015355,0.478007851072,-0.124510615926,-1.46526678017,0.0729787253899,1.93409664688,0.144122543583,-0.0479780946076,-0.287095889342,-0.00715959416677,-0.443608950901,-0.0225992977322,0.158641547029,-0.0666620535612,0.573863530041,0.818936238341,0.00219848169379,0.0,0.818894612821,-0.573802216394,-0.01197399076,0.0,-0.00854460579246,0.00867192838314,-0.999925890939,0.0,0.64839850581,0.243766978079,0.303488271893,1.0,-0.058956,-0.0774850285714,1.088
0.454482151442,0.473078303348,-0.12459799613,-1.47286491151,0.0725160069059,1.93686113252,0.143020042432,-0.0563947305161,-0.313917553034,-0.0034551847274,-0.496236868256,-0.0294796373961,0.174108310595,-0.0769115681071,0.573919249084,0.818896992683,0.00227108069809,0.0,0.818856364921,-0.573857685642,-0.0119313518937,0.0,-0.00846743409541,0.00870748905041,-0.999926238377,0.0,0.647439501121,0.242477423903,0.303524910538,1.0,-0.066124,-0.0869058285714,1.104
0.453460958199,0.466855625338,-0.124648909048,-1.48227040167,0.0719460233705,1.94036764055,0.141522132454,-0.0636788171484,-0.35676623823,-0.00637994686914,-0.536018403484,-0.0312447710633,0.208022270424,-0.088236655907,0.57386036159,0.818937436463,0.00255097172246,0.0,0.818900383983,-0.573797650828,-0.0117967757099,0.0,-0.00819723749893,0.00885886425811,-0.999927160258,0.0,0.646253557606,0.24090259671,0.303650727236,1.0,-0.074188,-0.0975042285714,1.122
0.452365331961,0.460418333108,-0.124693657766,-1.49225209146,0.0712972424926,1.94384519069,0.139994170231,-0.0663932271376,-0.388236417825,-0.000964651999242,-0.604251686624,-0.0359762566785,0.207600609716,-0.0904576572393,0.573829901076,0.818958981112,0.00248571671581,0.0,0.81892086833,-0.573767213382,-0.0118550901685,0.0,-0.00828276928104,0.00883858068002,-0.999926634921,0.0,0.644927500121,0.239206927428,0.303638618828,1.0,-0.081804,-0.107513828571,1.139
0.45120676917,0.453804095507,-0.124784056333,-1.50253218221,0.0706117866646,1.94732082302,0.138407929296,-0.0755511153712,-0.427573211898,-0.00504192280272,-0.64801852131,-0.0404714100708,0.226151114521,-0.106086297045,0.573831867028,0.818958136538,0.00230345017288,0.0,0.818917538627,-0.573769780135,-0.0119604027869,0.0,-0.00847358222203,0.0087497644676,-0.999925817262,0.0,0.643539382044,0.237408351186,0.30359745081,1.0,-0.088972,-0.116934628571,1.155
0.449881093126,0.446064904005,-0.124879661482,-1.51394304179,0.0698264735555,1.95162887334,0.136620597453,-0.0807741144586,-0.458344241468,-0.00503406860349,-0.69728840107,-0.041934151415,0.249315430729,-0.108619650816,0.573826741494,0.818960190631,0.00279710743227,0.0,0.81892690665,-0.573763799492,-0.011600468003,0.0,-0.00789559451391,0.00894745755735,-0.99992879876,0.0,0.642086941539,0.235423018839,0.303849030577,1.0,-0.096588,-0.126944228571,1.172
0.4483981035,0.437968725876,-0.124899449449,-1.52642999096,0.0690048470267,1.95588676144,0.134633340773,-0.0905658857148,-0.482510148287,0.000466088393132,-0.742279375039,-0.0515917123979,0.248880294795,-0.119450749717,0.573757603306,0.819008989911,0.00268960867446,0.0,0.818973716706,-0.573694375983,-0.0117286491453,0.0,-0.00806301095734,0.00893229241056,-0.999927598382,0.0,0.640356556933,0.233256794571,0.30381279981,1.0,-0.104204,-0.136953828571,1.189
0.446782458102,0.429217234809,-0.124946922526,-1.53955729365,0.0681187494316,1.96057331844,0.132491146321,-0.102972405756,-0.516789121801,-6.27266293503e-05,-0.773653431128,-0.0523383090754,0.275499009868,-0.125420651752,0.573688589841,0.819056477337,0.00293865959845,0.0,0.819024482812,-0.573624570903,-0.0115972027715,0.0,-0.00781322712663,0.00906019149862,-0.999928430645,0.0,0.638576105595,0.230946364654,0.303939111965,1.0,-0.11182,-0.146963428571,1.206
0.44509468514,0.420597959529,-0.125004431293,-1.55274992738,0.0671604659667,1.9650367303,0.130285557909,-0.109386356911,-0.549989391034,-0.00095435559788,-0.821030071918,-0.0531352911494,0.276624935984,-0.139910548709,0.573617425252,0.81910684108,0.00278912975007,0.0,0.819072952732,-0.573553970792,-0.0116656586723,0.0,-0.00795585755585,0.00897629865297,-0.999928062609,0.0,0.636603311891,0.228401651192,0.303901984253,1.0,-0.119436,-0.156973028571,1.223
0.44292036124,0.409719167554,-0.125132411435,-1.56912114677,0.066003432602,1.97079044995,0.127592045974,-0.122410529037,-0.573775387602,-0.00426127822391,-0.867786920338,-0.0543167247508,0.300950638228,-0.14914817973,0.573625640871,0.819100428331,0.00297646502139,0.0,0.819069413933,-0.573562079612,-0.0115144644806,0.0,-0.00772446404039,0.00904309763529,-0.999929275019,0.0,0.634453259906,0.225536845695,0.303986544664,1.0,-0.1275,-0.167571428571,1.241
0.440869168343,0.400103593816,-0.125220425944,-1.58373365684,0.0650434049103,1.97565352445,0.125154632771,-0.134228486674,-0.618431563834,-0.0098403371048,-0.89885541802,-0.0545598465022,0.315073961713,-0.152483334737,0.573697143745,0.819050682294,0.00288339990601,0.0,0.819017582881,-0.573632861651,-0.0116741537792,0.0,-0.00790786292955,0.00905915831713,-0.999927696063,0.0,0.632345894327,0.22279044403,0.303945005989,1.0,-0.134668,-0.176992228571,1.257
0.43895962171,0.391290395992,-0.125341858925,-1.59687517921,0.0640443703707,1.98022533304,0.122894458939,-0.137703788531,-0.623947702851,-0.00813991846865,-0.940611589675,-0.0771297113444,0.317522858169,-0.164056199263,0.573733086115,0.819025011065,0.00302060392548,0.0,0.818994456424,-0.573669241103,-0.0115077826537,0.0,-0.0076924823578,0.00907642827564,-0.999929219578,0.0,0.63049119447,0.220257032181,0.30401638576,1.0,-0.14094,-0.185235428571,1.271
0.436499064473,0.380182095901,-0.125466130144,-1.61353163813,0.0627749930242,1.98573678617,0.119932535901,-0.146066868268,-0.664772770016,-0.00790265557948,-0.993006201692,-0.0747833297782,0.333063913696,-0.179685904149,0.573687289561,0.819057428318,0.00292742458356,0.0,0.819025940451,-0.573624063953,-0.0115190721534,0.0,-0.00775568974908,0.00900615535098,-0.999929366727,0.0,0.628038661709,0.217032777988,0.304012554403,1.0,-0.148556,-0.195245028571,1.288
0.433635251143,0.367949899685,-0.125592405675,-1.63182756361,0.061420755032,1.9917962733,0.116700091106,-0.168419145703,-0.682897801386,-0.00841210187809,-1.03484745956,-0.0775755191474,0.338543047537,-0.184653079093,0.573766322854,0.819002209124,0.00288705887868,0.0,0.818970062853,-0.573703060019,-0.0115577669812,0.0,-0.0078096725374,0.0089960454543,-0.999929037573,0.0,0.625318471623,0.213420932862,0.303993174794,1.0,-0.15662,-0.205843428571,1.306
0.430722175202,0.355917276276,-0.125752875629,-1.64955967506,0.0600212136425,1.99768056537,0.113429337037,-0.175697213441,-0.710369304368,-0.00461244080897,-1.06832713672,-0.081109825127,0.343423990433,-0.205934454903,0.573816224295,0.818966975419,0.00296324308685,0.0,0.818936453487,-0.573753457079,-0.0114368938247,0.0,-0.00766641498078,0.0089895560933,-0.999930204546,0.0,0.622670360387,0.209821256013,0.304056163541,1.0,-0.164236,-0.215853028571,1.323
0.427773709743,0.344143474163,-0.125902590497,-1.66682929815,0.0587797404541,2.0032783514,0.110177265412,-0.190447332466,-0.744663215746,-0.00856189869089,-1.08810396025,-0.0807950210148,0.361266811314,-0.202861088817,0.573913231659,0.818898649833,0.00305789621227,0.0,0.818868704137,-0.573849397544,-0.0114743725232,0.0,-0.00764172339462,0.00908948472553,-0.99992949018,0.0,0.620025587538,0.206280864224,0.304106235385,1.0,-0.171404,-0.225273828571,1.339
0.424308366608,0.330588762485,-0.125993254196,-1.68683000102,0.0571965976528,2.00964378032,0.106366862169,-0.195680591346,-0.778268514509,-0.0079926043701,-1.11339007593,-0.0891058815621,0.351135522297,-0.217420613621,0.573886154877,0.818918030277,0.00294751224958,0.0,0.818886366045,-0.573822331828,-0.0115671043292,0.0,-0.00778131175549,0.00905205290154,-0.999928753225,0.0,0.616866892454,0.202195126092,0.304055039512,1.0,-0.179468,-0.235872228571,1.357
0.421031293998,0.318007202423,-0.126040087099,-1.7050132378,0.0556472225797,2.01546948268,0.102798294978,-0.215021289368,-0.785480087466,-0.000838213947651,-1.15614505982,-0.0964367008974,0.35985097691,-0.223424627744,0.573783441995,0.818989617241,0.00305212130453,0.0,0.818959875848,-0.573719974069,-0.0114394058757,0.0,-0.00761783835089,0.00906348106246,-0.999929908469,0.0,0.613968151996,0.19843865115,0.304135768285,1.0,-0.186636,-0.245293028571,1.373
0.417331706426,0.304281118571,-0.126113676031,-1.72481043534,0.0540246246894,2.02168472482,0.0987052348796,-0.222220066314,-0.847224884591,-0.00639371325744,-1.17994766102,-0.0950139383493,0.368583450804,-0.254907213099,0.57361664821,0.819106139809,0.003133611973,0.0,0.819077293526,-0.573552768515,-0.0114173491194,0.0,-0.00755487439619,0.00911602745887,-0.999929908502,0.0,0.610743982283,0.194287006682,0.304183906275,1.0,-0.194252,-0.255302628571,1.39
0.413080194664,0.289316405837,-0.126272320955,-1.74625678883,0.0522742963787,2.02823057265,0.0943197770236,-0.241697564941,-0.87293807211,-0.00701685703567,-1.18675831294,-0.0896412561069,0.390191206548,-0.250184223067,0.57370101573,0.819046947014,0.00316070226792,0.0,0.819018003524,-0.573636503477,-0.011463798808,0.0,-0.00757644108736,0.0091656415485,-0.999929291778,0.0,0.607193383193,0.189623782562,0.304225689647,1.0,-0.202316,-0.265901028571,1.408
0.409082257185,0.275819482949,-0.126402228879,-1.76576880982,0.0506083426324,2.03401276399,0.0901429785316,-0.255014302342,-0.841765157123,-0.00741720845133,-1.21576959709,-0.100587927553,0.360694695295,-0.259821009495,0.573658268927,0.819077764369,0.00292460418294,0.0,0.819045257511,-0.573593918776,-0.0116460032909,0.0,-0.00786159852529,0.0090763840224,-0.999927904662,0.0,0.603872575273,0.185326292601,0.304122403942,1.0,-0.209484,-0.275321828571,1.424
0.404771741686,0.261782400498,-0.126585349306,-1.78553360023,0.0488671720856,2.04001764242,0.0858093780354,-0.280012140871,-0.869612882187,-0.0113469520172,-1.25410471343,-0.107468154335,0.369017455015,-0.277724505889,0.573731565122,0.819025839769,0.00308413283379,0.0,0.818995837126,-0.573667201431,-0.0115111977319,0.0,-0.00765884999409,0.00913040523175,-0.999928986337,0.0,0.600532567388,0.180828421104,0.30420971482,1.0,-0.216652,-0.284742628571,1.44
0.399611068163,0.245719168157,-0.126766677495,-1.80812591667,0.046837593226,2.04658096579,0.0807284718311,-0.289677756126,-0.89605700929,-0.00834624163916,-1.27700034959,-0.115114496797,0.361972740595,-0.29038926344,0.573821821914,0.818962744205,0.00304749078646,0.0,0.818932203506,-0.573757485846,-0.0115386479985,0.0,-0.00770135045236,0.00911699189219,-0.999928782294,0.0,0.596597824796,0.175593123099,0.304228472469,1.0,-0.224716,-0.295341028571,1.458
0.394557744465,0.230133095501,-0.126890238486,-1.8297945665,0.0449435552618,2.05288530412,0.0756699082438,-0.296110647032,-0.919787905724,-0.00723282829162,-1.27745946496,-0.109346845048,0.366990469271,-0.297025012908,0.573778812957,0.818992205237,0.00322311409771,0.0,0.818963369146,-0.573713249546,-0.0115262393057,0.0,-0.00759090303279,0.00925330244202,-0.999928374727,0.0,0.592743345414,0.170603713398,0.30429040926,1.0,-0.232332,-0.305350628571,1.475
0.389504847301,0.215155061609,-0.127019058874,-1.85053700305,0.0429039673606,2.05875222723,0.0706412763229,-0.322765953552,-0.966383721946,-0.011517407068,-1.30029198436,-0.127143727737,0.385174483638,-0.316287935872,0.573643428957,0.819087046314,0.0032208502095,0.0,0.819058815593,-0.573578665146,-0.0114419574193,0.0,-0.00752469301647,0.00920184660983,-0.999929350011,0.0,0.588742715731,0.165399755135,0.304320917785,1.0,-0.239948,-0.315360228571,1.492
0.384457806986,0.20094031942,-0.127166491676,-1.8702256772,0.041076015575,2.06402898929,0.0657931917757,-0.339808201403,-0.958033977152,-0.0109512789241,-1.31420271376,-0.127033567038,0.344028199273,-0.329240516592,0.573680858656,0.819061600564,0.00301890625183,0.0,0.819029853792,-0.573615650081,-0.0116589656654,0.0,-0.00781786972483,0.00916127616294,-0.999927473336,0.0,0.585310849309,0.160947024542,0.304239945029,1.0,-0.24622,-0.323603428571,1.506
0.378338171103,0.184359058889,-0.127415206965,-1.89274282602,0.0388990618735,2.07016151385,0.0599545325203,-0.375785827711,-0.96379506686,-0.0165452011231,-1.33716921117,-0.130098424413,0.347525015377,-0.354912478066,0.573755785096,0.819008727165,0.00312262655742,0.0,0.818978386883,-0.573690297986,-0.0116013239397,0.0,-0.00771031344047,0.0092138677815,-0.999927825249,0.0,0.581116742267,0.155316222969,0.304296646739,1.0,-0.253836,-0.333613028571,1.523
0.371456641307,0.166540142805,-0.12766262549,-1.91681436653,0.0364941912221,2.07651816775,0.053552668873,-0.382994546503,-0.995918029629,-0.00988102560042,-1.36481273052,-0.141497361718,0.351424560891,-0.362538569263,0.573884158857,0.8189187187,0.00313867446972,0.0,0.818888593344,-0.573818611283,-0.0115939612388,0.0,-0.00769363018307,0.00922399300527,-0.999927860402,0.0,0.576529637624,0.149173946197,0.304308353083,1.0,-0.2619,-0.344211428571,1.541
0.364725960781,0.149335538784,-0.12782990375,-1.93968050522,0.0341279270706,2.08240231404,0.0471844914562,-0.405520539674,-1.01404784564,-0.0135019448085,-1.3658352201,-0.144399250314,0.342865304202,-0.381364691372,0.573790309504,0.818984049071,0.0032488441317,0.0,0.818955572912,-0.573724698311,-0.011510301701,0.0,-0.00756295698417,0.00926533696913,-0.999928475048,0.0,0.572056678639,0.143335092501,0.30438398198,1.0,-0.269516,-0.354221028571,1.558
0.357594582329,0.131805243918,-0.128038074559,-1.96281013896,0.0317632564825,2.08808237721,0.0405100905939,-0.418809403708,-1.03463437593,-0.0107568961182,-1.37405946335,-0.135149339169,0.328997738952,-0.4054725673,0.573760369715,0.819004831276,0.00329717940311,0.0,0.818976362742,-0.573693853612,-0.0115683403639,0.0,-0.00758310108826,0.00933794702347,-0.999927647044,0.0,0.567418425838,0.137303409962,0.304424234995,1.0,-0.277132,-0.364230628571,1.575
0.349481076537,0.112975954607,-0.12836731428,-1.98750326982,0.0290603517679,2.09406948874,0.0331152265651,-0.453321677348,-1.05177339607,-0.0225495212484,-1.37512636612,-0.145248983569,0.322961416166,-0.413379412319,0.573874115959,0.818925133065,0.00329732740464,0.0,0.818897087906,-0.573808103857,-0.0115137425826,0.0,-0.00753700510141,0.00930778985932,-0.999928276729,0.0,0.562414548799,0.130599350581,0.304427685895,1.0,-0.285196,-0.374829028571,1.593
0.341964986209,0.0958884308554,-0.128583573659,-2.00952063083,0.0265799704296,2.09920535772,0.0261736688251,-0.47174429409,-1.08844788999,-0.01446072608,-1.37489128483,-0.15447341622,0.331439132494,-0.440289567494,0.573777196183,0.818992709208,0.00337909836248,0.0,0.818966170099,-0.573711513778,-0.011413066801,0.0,-0.00740873350404,0.0093161040771,-0.999929157927,0.0,0.55783451646,0.12459015203,0.304494038071,1.0,-0.292364,-0.384249828571,1.609
0.334091186106,0.0785904600369,-0.12879252112,-2.03168530227,0.0242177794746,2.10401992942,0.0189024653643,-0.506009841463,-1.12481529844,-0.0159374115328,-1.36737693251,-0.156476796529,0.307363906765,-0.465193641185,0.573698608271,0.819047751037,0.00338161055323,0.0,0.819019818854,-0.573631144288,-0.0116014451255,0.0,-0.00756248600896,0.00942552045568,-0.999926981519,0.0,0.553078302297,0.118477862983,0.304496608587,1.0,-0.299532,-0.393670628571,1.625
0.324712820686,0.0590627274249,-0.129112592723,-2.05654149435,0.0213132080644,2.10934372758,0.0104545315099,-0.532575512287,-1.07892357465,-0.0192948900141,-1.35741102972,-0.161152684307,0.27998961611,-0.465525712769,0.573723232407,0.81903081425,0.003305269346,0.0,0.819001833764,-0.573655936895,-0.0116451387888,0.0,-0.00764178724894,0.00938828907684,-0.999926728874,0.0,0.547682196528,0.111363518115,0.304458419727,1.0,-0.29998,-0.394259428571,1.643
0.316022371175,0.0417615707167,-0.129340921668,-2.07831259388,0.0187394395527,2.11370839654,0.00279021628925,-0.539351374122,-1.07404821243,-0.0109448993378,-1.34889298593,-0.158641239245,0.250116077474,-0.481640492768,0.573809470125,0.818970853379,0.00319064446076,0.0,0.818939780272,-0.573741813879,-0.0117776991045,0.0,-0.00781513661165,0.00937128138224,-0.999925548591,0.0,0.542829616589,0.105004526436,0.304412834319,1.0,-0.29998,-0.394259428571,1.659
0.307143504973,0.0244917248299,-0.129552652216,-2.09947387544,0.0161539474908,2.1178923181,-0.00511456083773,-0.561631052036,-1.06204449585,-0.0187401665221,-1.33066482077,-0.183887710198,0.261358468543,-0.49504128581,0.573797949625,0.818978311616,0.00334439982135,0.0,0.818949658859,-0.573730295491,-0.0116512313237,0.0,-0.00762346903542,0.00942452918835,-0.999926527786,0.0,0.537751952229,0.0982993588687,0.304509549435,1.0,-0.29998,-0.394259428571,1.676
0.296796840376,0.00536914087183,-0.129831058596,-2.12267490445,0.0132528831698,2.12215849359,-0.0141751589424,-0.581210557997,-1.05724815119,-0.020280100612,-1.28349662348,-0.165077017131,0.229607317009,-0.517163656922,0.573885052543,0.818916745641,0.00347233046069,0.0,0.818889940032,-0.573817218586,-0.0115677426218,0.0,-0.00748067916154,0.00948219362665,-0.999927061062,0.0,0.532693016326,0.0915474069124,0.304610948046,1.0,-0.29998,-0.394259428571,1.693
0.286843459018,-0.0125567096707,-0.129980998154,-2.14412653513,0.0106254863857,2.12598704411,-0.02302361576,-0.58230756711,-1.04815008129,-0.0103719969327,-1.25696672269,-0.157192431222,0.223044308496,-0.512911023881,0.573796252403,0.818977829599,0.00373125381362,0.0,0.818954163944,-0.573727384316,-0.0114766173869,0.0,-0.00725851245681,0.00964115151631,-0.999927178446,0.0,0.527626442357,0.0849268673487,0.304712577439,1.0,-0.29998,-0.394259428571,1.71
0.277181285266,-0.0292241419603,-0.130196767331,-2.16393404011,0.00798663498331,2.12922108484,-0.0314992374527,-0.610595605874,-1.04386654819,-0.0135379283142,-1.21154318358,-0.163363955078,0.212835788131,-0.52967788536,0.573776477144,0.818991650383,0.00373868713762,0.0,0.81896846589,-0.573708103251,-0.0114197654579,0.0,-0.00720791622771,0.00961444477165,-0.999927801591,0.0,0.522836470678,0.0786090269898,0.304752233214,1.0,-0.29998,-0.394259428571,1.726
0.265919349675,-0.0477105801486,-0.130493007247,-2.18584586291,0.00517509875245,2.13249327662,-0.0413026191482,-0.619063035986,-1.04018569444,-0.0121032950363,-1.19740972756,-0.151518577922,0.171667504833,-0.55261871847,0.573918688831,0.818892336436,0.0036642651055,0.0,0.818866952853,-0.5738488854,-0.0116239903298,0.0,-0.00741620493823,0.00967195710562,-0.999925723817,0.0,0.517403021999,0.0714414820432,0.304693950098,1.0,-0.29998,-0.394259428571,1.744
0.255772748007,-0.0640520539709,-0.130649782961,-2.20487007157,0.00258544157312,2.13526947175,-0.0502108830381,-0.64318517819,-1.02536298892,-0.0125109731374,-1.19644942943,-0.166643122054,0.160646307967,-0.553833339364,0.573829101009,0.818954940156,0.00370347553481,0.0,0.818930245749,-0.573759426333,-0.0115810272729,0.0,-0.00735957719357,0.00967860494174,-0.999926077883,0.0,0.512598512306,0.0651910166546,0.304700649506,1.0,-0.29998,-0.394259428571,1.76
0.244594060536,-0.0812486325419,-0.130959659333,-2.22453180537,-0.000148669940561,2.13783067337,-0.0599750530767,-0.674530142723,-1.01040202297,-0.0227522653899,-1.1618535238,-0.168115472588,0.144235743547,-0.583170664148,0.573898771977,0.818905860468,0.00376006855222,0.0,0.818881980954,-0.573829024948,-0.0115454881839,0.0,-0.00729717195788,0.00970518073,-0.999926277657,0.0,0.507527893146,0.0584236766399,0.304747861525,1.0,-0.29998,-0.394259428571,1.777
0.233288114259,-0.0982319444287,-0.131121338043,-2.24382507293,-0.00280746644422,2.14011622833,-0.0699737663309,-0.669954307889,-1.00218120218,-0.0129658535888,-1.1170512941,-0.158887797702,0.142408135585,-0.600735327653,0.573753590323,0.819007535526,0.00377110657356,0.0,0.818983212874,-0.573683051915,-0.0116189447426,0.0,-0.00735272493354,0.00975507205489,-0.999925385219,0.0,0.502412762787,0.0518245706406,0.304739179381,1.0,-0.29998,-0.394259428571,1.794
0.221563288724,-0.114991810791,-0.131393782423,-2.26280113667,-0.00556389439979,2.14203889955,-0.0801600164778,-0.70224157362,-0.999827111483,-0.0221370323343,-1.09664149213,-0.164946197897,0.101038019929,-0.60327915484,0.573806223386,0.818971665326,0.00354630750061,0.0,0.818943530673,-0.573735258327,-0.0118361236424,0.0,-0.0076589556991,0.00969605367127,-0.999923660557,0.0,0.497249715896,0.0450938055611,0.304640215859,1.0,-0.29998,-0.394259428571,1.811
0.21023234289,-0.130702002681,-0.13165490766,-2.28011922211,-0.00803819210163,2.14369118238,-0.0900619076181,-0.708622636605,-0.974511234743,-0.00866473956352,-1.07341447485,-0.146615605852,0.0952959840681,-0.6243111836,0.573867019607,0.818928707728,0.00362799773926,0.0,0.818901179994,-0.57379518106,-0.0118614711428,0.0,-0.00763211855694,0.00977806698063,-0.999923067127,0.0,0.492461471259,0.0387715138793,0.30466634231,1.0,-0.29998,-0.394259428571,1.827
0.197231417291,-0.148212811859,-0.131937031338,-2.29918887078,-0.0108580133083,2.14535940446,-0.101547506169,-0.728981772821,-0.954162975802,-0.0188435416677,-1.05921010146,-0.155774864854,0.0892965483781,-0.638051761992,0.573799539773,0.818975525489,0.00373144845326,0.0,0.818949396994,-0.573727424471,-0.0118099311746,0.0,-0.00753135528103,0.0098325898413,-0.999923296491,0.0,0.487075705748,0.0316976247284,0.304693381868,1.0,-0.29998,-0.394259428571,1.845
0.185270019697,-0.163557529395,-0.132245430925,-2.31576527496,-0.0133921454987,2.14642245516,-0.111933630422,-0.753460469302,-0.952247713112,-0.0125168508139,-1.01251027486,-0.151732624856,0.0662888067624,-0.642033251573,0.573930982987,0.818883857154,0.00363347783309,0.0,0.818855748043,-0.573858280586,-0.0119450659451,0.0,-0.00769666851796,0.00983112692839,-0.999922052081,0.0,0.482243840169,0.0253230981551,0.304662117149,1.0,-0.29998,-0.394259428571,1.861
0.17322462908,-0.17880296453,-0.132440337932,-2.33190042105,-0.0158088642741,2.14736425023,-0.122662547268,-0.76233173335,-0.949014648079,-0.0136660113102,-1.00603953099,-0.153970589964,0.0484862469996,-0.67080873164,0.57378792835,0.818983634197,0.00373725814369,0.0,0.818956521337,-0.573714414718,-0.0119471087125,0.0,-0.00764051474653,0.00991594959935,-0.999921645169,0.0,0.477448609999,0.0191146557255,0.304698921739,1.0,-0.29998,-0.394259428571,1.877
0.159159937921,-0.195844379572,-0.132796149431,-2.34956224485,-0.0186164919692,2.14824312217,-0.135019268725,-0.781196244242,-0.945755424998,-0.00740545354054,-0.96050755926,-0.154722457539,0.0494702276639,-0.691175041691,0.573856112196,0.818934953605,0.00393079633149,0.0,0.818911257596,-0.573783114087,-0.0117489179318,0.0,-0.00736631682589,0.00996135352095,-0.999923251461,0.0,0.472093322063,0.0119726076801,0.304804249259,1.0,-0.29998,-0.394259428571,1.895
0.146512119091,-0.210671937501,-0.133021670327,-2.36503074807,-0.0209847757333,2.14864255936,-0.146355387096,-0.795066895295,-0.918103464386,-0.0161517967946,-0.954076984326,-0.150957628117,0.0109684025966,-0.712257014995,0.573706678393,0.81903994328,0.00386851127054,0.0,0.819013937791,-0.573631912818,-0.0119726857152,0.0,-0.00758715238537,0.0100373676526,-0.999920840051,0.0,0.46723212211,0.00575560278238,0.304743825034,1.0,-0.29998,-0.394259428571,1.911
0.133424347186,-0.225333854483,-0.133357956657,-2.37988388488,-0.0234587443756,2.14896058074,-0.157869355741,-0.805240437264,-0.888711852341,-0.0101776487872,-0.917601793212,-0.152939094503,0.0039079810056,-0.721365119215,0.573798637963,0.818975084774,0.00395985998575,0.0,0.818950947978,-0.573724444705,-0.0118470778995,0.0,-0.00743073622032,0.0100409615714,-0.999921978581,0.0,0.462483283907,-0.000596297669142,0.304806297865,1.0,-0.29998,-0.394259428571,1.927
0.118468408271,-0.241616263016,-0.13365495496,-2.3962392397,-0.02612424886,2.14908567789,-0.171243644841,-0.85300561415,-0.892312111721,-0.0231143602483,-0.871928796891,-0.146173688224,0.00380061304792,-0.751581963668,0.573713296902,0.819034378199,0.00406044170053,0.0,0.819011570476,-0.573638805153,-0.0118032008609,0.0,-0.00733814163438,0.0100973964201,-0.999922094097,0.0,0.457106552571,-0.00763694779248,0.304839065621,1.0,-0.29998,-0.394259428571,1.945
0.103892080843,-0.256755085462,-0.133991523142,-2.41133056891,-0.0285866350502,2.14907068017,-0.184243769236,-0.854236712442,-0.895645676827,-0.0133974641922,-0.901973768253,-0.144309941868,-0.00257649833786,-0.776038829353,0.573750434481,0.819007785366,0.00417532563048,0.0,0.818986263868,-0.573675267024,-0.0117870480421,0.0,-0.00725854281641,0.0101825543197,-0.999921811515,0.0,0.452014866336,-0.0143532057143,0.304832920197,1.0,-0.29998,-0.394259428571,1.962
0.0899224762573,-0.270836009573,-0.134349806151,-2.42503520641,-0.0309339954625,2.1489051699,-0.196720587429,-0.883744222687,-0.89314043631,-0.0321386322579,-0.859561577476,-0.144945159008,-0.00328553348231,-0.792182458118,0.573800808237,0.818971554595,0.00435570110473,0.0,0.818953240015,-0.573726303188,-0.0115959734545,0.0,-0.0069979268462,0.0102210912604,-0.999923276213,0.0,0.447268239847,-0.0206744622276,0.304897147322,1.0,-0.29998,-0.394259428571,1.978
0.0738711562341,-0.28635002224,-0.134684590555,-2.44013659827,-0.0334876280872,2.14838107195,-0.211183351234,-0.905141131298,-0.875177823408,-0.0209407832616,-0.850101366459,-0.132440080425,-0.0300757576614,-0.812757175912,0.573750979855,0.819006310052,0.00438453090655,0.0,0.818987765907,-0.57367551309,-0.0116701275773,0.0,-0.00704274570218,0.0102868223574,-0.99992228749,0.0,0.441850564217,-0.0277330037747,0.304864693332,1.0,-0.29998,-0.394259428571,1.996
0.06014216768,-0.299082100611,-0.13505125792,-2.45215379227,-0.0356448940681,2.14784945162,-0.223550643332,-0.917904395427,-0.85348015737,-0.0280952921126,-0.804812645045,-0.143605314059,-0.032696804841,-0.830362229216,0.573792120141,0.818976664131,0.00453578806676,0.0,0.818960993345,-0.573717557588,-0.0114805224463,0.0,-0.00680014964811,0.0103022651661,-0.999923807746,0.0,0.437413944934,-0.0336923768914,0.304939838546,1.0,-0.29998,-0.394259428571,2.011
0.0443874631649,-0.313224934384,-0.135331595991,-2.46561541014,-0.0380253957806,2.14698280373,-0.23781497696,-0.93133072051,-0.823079260655,-0.0193860896115,-0.765512621458,-0.14883323807,-0.0543117357219,-0.854857451167,0.573708558701,0.819035412776,0.00449768755502,0.0,0.819018798274,-0.57363344023,-0.0115598972456,0.0,-0.0068880738437,0.0103159012569,-0.999923065351,0.0,0.432590771433,-0.0399269129152,0.304897114586,1.0,-0.29998,-0.394259428571,2.027
0.0272296849479,-0.327959289418,-0.135755254327,-2.47915142047,-0.0404594708371,2.14598397837,-0.253369140406,-0.948730342826,-0.794443931958,-0.0137732691187,-0.745294904308,-0.129999251148,-0.0574370130096,-0.868361034073,0.573767625159,0.818992869283,0.00470524013503,0.0,0.818979619144,-0.573692958786,-0.0113806575966,0.0,-0.0066214417678,0.0103835485712,-0.999924166339,0.0,0.426948827043,-0.0474368838394,0.304979604068,1.0,-0.29998,-0.394259428571,2.046
0.010706957779,-0.341501261781,-0.136132702525,-2.49165494873,-0.0427558682418,2.14479588454,-0.26844975378,-0.995737973337,-0.79523637012,-0.0424513583223,-0.718521429942,-0.135060372767,-0.0814583396333,-0.875376291679,0.573742480874,0.819010505723,0.00470149521736,0.0,0.818996748848,-0.573667111866,-0.0114506349538,0.0,-0.00668122577586,0.0104204256292,-0.999923385041,0.0,0.421830202542,-0.054128309558,0.30494931823,1.0,-0.29998,-0.394259428571,2.063
-0.00615287502391,-0.354778385014,-0.136500065461,-2.50351399032,-0.0449979988573,2.1434634616,-0.283915491709,-0.995207640121,-0.767593450258,-0.0267325370422,-0.684221583143,-0.130663003546,-0.0692595413841,-0.919425680506,0.573698542238,0.81904060644,0.00481814663493,0.0,0.819028983898,-0.573623863683,-0.0113107669315,0.0,-0.00650029866928,0.0104353731562,-0.999924421696,0.0,0.416781520945,-0.0608236430112,0.305029182661,1.0,-0.29998,-0.394259428571,2.08
-0.0234079486437,-0.367692035553,-0.13693536474,-2.51511969664,-0.0471480899811,2.14204015497,-0.299756190917,-1.01277371895,-0.75628639987,-0.0227422980705,-0.675949094546,-0.130676972211,-0.0863340988049,-0.945016747454,0.573757872202,0.818998609791,0.00489164058121,0.0,0.818987374616,-0.573682088565,-0.0113705048013,0.0,-0.0065063063063,0.0105303112589,-0.999923387327,0.0,0.411663784012,-0.0675478648062,0.305008233372,1.0,-0.29998,-0.394259428571,2.097
-0.0398351719163,-0.379461276401,-0.137261670607,-2.52558321055,-0.0491682597767,2.14050040022,-0.314931311457,-1.04078316516,-0.726216359589,-0.0288959312791,-0.629900956479,-0.123151808151,-0.0936172409652,-0.954827514336,0.573689798431,0.819046589271,0.00484217723382,0.0,0.819034003861,-0.57361302149,-0.0114956077697,0.0,-0.00663803022438,0.0105610240439,-0.999922197636,0.0,0.406853384273,-0.0737993686578,0.304974849127,1.0,-0.29998,-0.394259428571,2.113
-0.0555994525548,-0.390284641218,-0.137596941405,-2.53493435375,-0.0510414432102,2.13916844712,-0.329470641195,-1.05397061936,-0.709732852274,-0.0124031195986,-0.6253132263,-0.126645808219,-0.0996506704821,-0.968439749198,0.573706139026,0.819034461848,0.00495613258224,0.0,0.819024434956,-0.573630810835,-0.0112878123431,0.0,-0.00640224021907,0.010535283762,-0.999924006671,0.0,0.402407971339,-0.0797251386153,0.305034693452,1.0,-0.29998,-0.394259428571,2.128
-0.0737701451763,-0.402108752817,-0.138013236843,-2.54529576254,-0.0530221882488,2.13733590366,-0.346382833835,-1.07188703962,-0.695555689064,-0.0223340208317,-0.608017579031,-0.117854046158,-0.122844612261,-0.996579099114,0.573706627695,0.819034258674,0.00493308820964,0.0,0.819022211262,-0.573628561176,-0.0115601974128,0.0,-0.00663856523923,0.0106726761691,-0.999921008598,0.0,0.397249157907,-0.0864123294391,0.304958286889,1.0,-0.29998,-0.394259428571,2.145
-0.0944115307305,-0.414981886229,-0.1384340394,-2.55608368517,-0.055202852089,2.13542719027,-0.365671096079,-1.11447671774,-0.670144788883,-0.0327795549809,-0.561977517053,-0.121888887757,-0.0918819163193,-1.02954077227,0.573662963514,0.819063679855,0.0051224541043,0.0,0.819055304483,-0.573586396087,-0.0113049247204,0.0,-0.00632140495981,0.0106809954658,-0.999922975121,0.0,0.39162320915,-0.0938836577988,0.305056154799,1.0,-0.29998,-0.394259428571,2.164
-0.113221224523,-0.425941419668,-0.138743178173,-2.5654083459,-0.0571446181763,2.13346356099,-0.383336022804,-1.10549490321,-0.639299338835,-0.0118129632574,-0.540717887634,-0.11893721976,-0.125752146447,-1.04503072187,0.57352744506,0.819159199479,0.00502220793711,0.0,0.819148618129,-0.573449656318,-0.0114795464765,0.0,-0.00652371828833,0.0106979756219,-0.999921494127,0.0,0.386493600391,-0.100527508201,0.305006788995,1.0,-0.29998,-0.394259428571,2.181
-0.131248288339,-0.435885782344,-0.139125063018,-2.57380160753,-0.0589041125179,2.13161100228,-0.400233781778,-1.11393689946,-0.614130153735,-0.020680091439,-0.510796630113,-0.104551605332,-0.115352720794,-1.06443655139,0.573548882607,0.819144433116,0.0049823544176,0.0,0.819132236361,-0.573469424768,-0.0116595502357,0.0,-0.00669375662195,0.0107687364574,-0.999919610737,0.0,0.381645908813,-0.106818725806,0.30495165852,1.0,-0.29998,-0.394259428571,2.197
-0.148469883908,-0.444873171649,-0.139549043026,-2.58098841751,-0.0603488583854,2.13000487715,-0.416419711949,-1.16826556228,-0.59079674682,-0.0362387628826,-0.468035975661,-0.108252586428,-0.100454622494,-1.08684908038,0.573712829309,0.819027859289,0.00526327804109,0.0,0.819020147466,-0.573633907931,-0.0114404815516,0.0,-0.00635100063962,0.0108744911646,-0.999920701972,0.0,0.377220894868,-0.112788482774,0.305060062896,1.0,-0.29998,-0.394259428571,2.212
-0.16815164756,-0.454565182827,-0.139840729281,-2.58894959399,-0.0621694820679,2.12806294356,-0.435095175462,-1.15798305714,-0.560710446886,-0.0182818695647,-0.47857214501,-0.109761698577,-0.121774577903,-1.0971051526,0.573543940736,0.819146779258,0.00516226468716,0.0,0.819137716123,-0.57346526087,-0.0114779571975,0.0,-0.00644187623135,0.0108119266716,-0.9999207991,0.0,0.372116951085,-0.119442072928,0.305038843701,1.0,-0.29998,-0.394259428571,2.229
-0.189316172149,-0.464232011858,-0.140279308271,-2.59685058292,-0.0638935226994,2.12598754474,-0.455249363282,-1.17399049039,-0.518346774548,-0.0238872773127,-0.423894278801,-0.0879379328032,-0.112825043339,-1.12971855428,0.573523532009,0.819160959351,0.00517955668354,0.0,0.819150907269,-0.57344277811,-0.0116583985022,0.0,-0.00658005221393,0.0109294148682,-0.999918622091,0.0,0.366696393338,-0.126514413614,0.304991149776,1.0,-0.29998,-0.394259428571,2.247
-0.210836570858,-0.473355375378,-0.140592672247,-2.60406066914,-0.0654944735128,2.12407931707,-0.475658255797,-1.19482146651,-0.484674602953,-0.0113531728628,-0.373166079903,-0.0815343660494,-0.103393709764,-1.12722267282,0.573575952861,0.819123605618,0.00528128024261,0.0,0.81911552318,-0.573495971759,-0.0115272270597,0.0,-0.00641355432786,0.0109379294627,-0.999919610779,0.0,0.361361542132,-0.133587387058,0.305038373425,1.0,-0.293708,-0.386016228572,2.265
-0.229968132386,-0.480706758161,-0.140855281966,-2.60982771456,-0.066695419612,2.1224267437,-0.493765775479,-1.19627400984,-0.439022082005,-0.00652440864321,-0.353338133379,-0.0739136762668,-0.106609729141,-1.12510406988,0.57376664045,0.818989060249,0.00543216341317,0.0,0.818982801983,-0.573685951559,-0.0115041706391,0.0,-0.00630555546542,0.011049770494,-0.999919067996,0.0,0.356712862403,-0.139790704666,0.305067124322,1.0,-0.28654,-0.376595428572,2.281
-0.251180313888,-0.488323828447,-0.140919206037,-2.61596042424,-0.0679387355205,2.12054988125,-0.514023715119,-1.19197999171,-0.413612657908,-0.0113881229152,-0.329738773981,-0.0615395572833,-0.101216199711,-1.11842077538,0.573714254226,0.819025748302,0.00543369278995,0.0,0.819017955815,-0.573630871799,-0.0117455469032,0.0,-0.00650309661416,0.0111890950681,-0.999916253436,0.0,0.351531737418,-0.146471578419,0.30499925079,1.0,-0.278476,-0.365997028572,2.299
-0.26755214496,-0.493676643082,-0.140917438255,-2.62018720574,-0.0688020330223,2.11927005899,-0.529588611837,-1.16995003066,-0.372064226019,-0.00320750953822,-0.289481708282,-0.0574968964808,-0.0838618606861,-1.10528340236,0.573762019975,0.818992039727,0.00547084992624,0.0,0.818984408601,-0.573677946697,-0.0117855353151,0.0,-0.00651387906699,0.0112428498,-0.999915580291,0.0,0.34763794144,-0.151583736776,0.304983188729,1.0,-0.272204,-0.357753828572,2.313
-0.287155855919,-0.499614962593,-0.140832792762,-2.62477542598,-0.0697517858257,2.11781483446,-0.548268292165,-1.12875024506,-0.332883638773,0.0127970518937,-0.259478322389,-0.0588859307229,-0.0866642798935,-1.08960201157,0.573785950139,0.818975015851,0.00550942249575,0.0,0.818968068377,-0.573702055252,-0.0117474116295,0.0,-0.00646019399519,0.0112527574932,-0.999915817128,0.0,0.343043676638,-0.157636050523,0.305000123164,1.0,-0.264588,-0.347744228572,2.33
-0.308645218023,-0.505463321792,-0.140734844158,-2.62923174805,-0.0705679366346,2.11634849858,-0.568768690299,-1.12430940731,-0.291203806967,0.0104569299156,-0.222351779717,-0.0414997231112,-0.0712939780691,-1.07584679446,0.573916851449,0.818882231151,0.00566445309443,0.0,0.818877413068,-0.573832608227,-0.0116904663592,0.0,-0.00632278901536,0.0113480668267,-0.999915618299,0.0,0.33808298618,-0.164206178175,0.305032412188,1.0,-0.256076,-0.336557028572,2.349
-0.327456877936,-0.510114232181,-0.140523697616,-2.63270615587,-0.071179536664,2.11519791572,-0.586810767044,-1.10270544443,-0.260036809384,0.00681075302379,-0.193716835822,-0.0346620644252,-0.0761404681456,-1.04504648914,0.573930663566,0.818871687458,0.00578790118093,0.0,0.818869224325,-0.573847387982,-0.0115375760211,0.0,-0.00612654032591,0.0113615215567,-0.999916687195,0.0,0.333803785787,-0.169878960973,0.305087178656,1.0,-0.24846,-0.326547428572,2.366
-0.34262295249,-0.513460749797,-0.140320345798,-2.63529608095,-0.0716520831819,2.11421975168,-0.601445582017,-1.06912789914,-0.221681354083,0.0136078423237,-0.178550189644,-0.0266508696521,-0.0713979115965,-1.03831359186,0.573866653898,0.818916468261,0.00579900483373,0.0,0.818913484995,-0.5737821271,-0.0116413751103,0.0,-0.00620606794851,0.0114297002964,-0.999915419759,0.0,0.330333978301,-0.174397120913,0.305070133446,1.0,-0.242188,-0.318304228572,2.38
-0.360691370411,-0.516975224835,-0.140105809455,-2.63813733893,-0.0720912254537,2.11320350826,-0.618841242117,-1.05943110142,-0.19419772247,0.0256395043554,-0.163941004559,-0.0299488945564,-0.0572802608577,-1.02214158053,0.573910992878,0.818884886385,0.00587043485185,0.0,0.818881374292,-0.57382352673,-0.0118575676226,0.0,-0.00634151137905,0.0116126017452,-0.999912462526,0.0,0.326212080476,-0.179741816683,0.304994525775,1.0,-0.234572,-0.308294628572,2.397
-0.37825164762,-0.519973855908,-0.139761139451,-2.64050856038,-0.0724660120919,2.11237496229,-0.635779286473,-1.0282612237,-0.161292552691,0.0207377569411,-0.129571326714,-0.0292335435616,-0.0510150994011,-0.991005246114,0.573876248947,0.818909055339,0.00589549659639,0.0,0.818905430089,-0.573787889302,-0.011920635986,0.0,-0.00637927502669,0.0116690487059,-0.999911565166,0.0,0.322280123642,-0.184892197715,0.30495873344,1.0,-0.226956,-0.298285028572,2.414
-0.394406452673,-0.522352898476,-0.13947236736,-2.64235105389,-0.0727566221345,2.11166128118,-0.65135069625,-0.991261071311,-0.145440625533,0.026129622891,-0.109703400458,-0.0169918762512,-0.0376056391803,-0.968878488736,0.573916385631,0.818880632814,0.00593619466389,0.0,0.818877134847,-0.573827118702,-0.0119759245455,0.0,-0.0064006264222,0.0117344193319,-0.999910663702,0.0,0.318686141681,-0.189626642706,0.30494164116,1.0,-0.219788,-0.288864228572,2.43
-0.413099146937,-0.524823218011,-0.139142744501,-2.64415504593,-0.0730344634805,2.11092203239,-0.669395869504,-0.981587305106,-0.122466034329,0.0152917778955,-0.0891489143368,-0.0185384820814,-0.0323152090228,-0.943787228121,0.573987314984,0.818830328367,0.00601685013395,0.0,0.818828188132,-0.573898279813,-0.0119125836893,0.0,-0.00630144619458,0.011764664926,-0.999910938252,0.0,0.314545172107,-0.195086982611,0.304972712424,1.0,-0.211276,-0.277677028572,2.449
-0.429191066219,-0.526539933442,-0.138746566596,-2.64542697999,-0.0731876631809,2.1104031353,-0.685010722059,-0.944664847604,-0.096768828203,0.0233903421942,-0.0681638051405,-0.00912435086266,-0.0303516452891,-0.903622590554,0.573989619331,0.818828375894,0.00606255983038,0.0,0.818827059271,-0.5739008332,-0.0118670788013,0.0,-0.00623791282264,0.0117759948057,-0.999911203253,0.0,0.310808364424,-0.200020566051,0.304986018347,1.0,-0.203212,-0.267078628572,2.467
-0.444838610853,-0.527917858204,-0.138400397488,-2.64646136823,-0.0733290955129,2.10997881177,-0.70016669904,-0.899702021418,-0.0724475240298,0.0328561543167,-0.0578581442625,-0.00841939397025,-0.0205204314903,-0.873480038039,0.573993347554,0.818825564974,0.00608917156563,0.0,0.818824831106,-0.573904905914,-0.0118237824957,0.0,-0.00618712906914,0.0117729640403,-0.999911554464,0.0,0.307580936818,-0.204268856608,0.304995229908,1.0,-0.196044,-0.257657828572,2.483
-0.458171458286,-0.528835207351,-0.138060037293,-2.64714142284,-0.0733573438262,2.10967584881,-0.713109902397,-0.883917845954,-0.0604607353822,0.0130047834916,-0.0407991374744,-0.00293428603474,-0.013277140097,-0.847965417732,0.57401976349,0.818806641256,0.00614347286896,0.0,0.818806761131,-0.57393139114,-0.0117895331374,0.0,-0.00612753407409,0.0117979692926,-0.999911626718,0.0,0.3046722841,-0.208102693458,0.30500420757,1.0,-0.189324,-0.248825828572,2.498
-0.472818952473,-0.529558248074,-0.137623475453,-2.64767664937,-0.0733555210472,2.10939042771,-0.727285132821,-0.842457232768,-0.0370625953774,0.0312662407206,-0.021280135767,0.00187528706279,-0.00905978081429,-0.822012251052,0.574067520946,0.818772987867,0.00616624973501,0.0,0.818773479491,-0.573979198052,-0.0117735461088,0.0,-0.0061006799044,0.0118077995151,-0.999911674887,0.0,0.301493156505,-0.212295663475,0.305011887582,1.0,-0.181708,-0.238816228572,2.515
-0.486900386602,-0.529979825123,-0.137217495335,-2.64801663094,-0.0733581065966,2.10918093302,-0.740963469467,-0.82971944749,-0.0172567163089,0.0180600174945,-0.0109243638307,-0.000368476685402,-0.0174771694487,-0.784224613672,0.574090290766,0.818757054143,0.00616208086917,0.0,0.818757382515,-0.574001768185,-0.0117926077947,0.0,-0.00611835330133,0.011815498326,-0.999911475958,0.0,0.298430513305,-0.216327333245,0.305003853443,1.0,-0.174092,-0.228806628572,2.532
-0.499570065248,-0.530171980493,-0.136737191453,-2.64818248228,-0.0733344934422,2.10903064847,-0.753408860383,-0.775375776985,-0.0133300949875,0.0283418005399,-0.00953084646609,0.00243693489392,-0.0100940550011,-0.768128164992,0.573935757114,0.818865815573,0.00610489102006,0.0,0.818865325309,-0.5738473417,-0.0118133116335,0.0,-0.00617036038068,0.0117793923173,-0.999911582376,0.0,0.295690466557,-0.219919636914,0.304998231908,1.0,-0.166924,-0.219385828572,2.548
-0.514128835023,-0.530229884203,-0.13624507636,-2.64827153154,-0.0732983584445,2.10890584321,-0.76748402231,-0.761366502972,-0.00239396472668,0.0231331229097,-0.00247993731448,0.00477438278994,-0.00497095288636,-0.736727111451,0.573991080606,0.818827394677,0.00605673279846,0.0,0.818826046993,-0.573902401367,-0.0118610864499,0.0,-0.00623632908701,0.0117677949701,-0.999911309668,0.0,0.292346946196,-0.224252336533,0.304979676769,1.0,-0.157964,-0.207609828572,2.568
-0.526393192195,-0.530097777471,-0.135691755732,-2.64822565628,-0.0731801006103,2.10888806438,-0.779518953586,-0.705935071605,0.0087946986044,0.03280116181,0.00229464671518,0.00846205697006,-0.00524986521448,-0.694753283817,0.573846452799,0.81892909987,0.00601039903696,0.0,0.818927162919,-0.5737580087,-0.0118657568719,0.0,-0.00626881970562,0.0117314273884,-0.999911533842,0.0,0.289858119307,-0.227476943909,0.304966539686,1.0,-0.150796,-0.198189028572,2.584
-0.537534259927,-0.529878217671,-0.135277180876,-2.6480905999,-0.0730425244872,2.10888802209,-0.790317297214,-0.694884238474,0.00986281889941,0.0203987114407,0.00940385981711,0.0147522857018,-0.000814026833379,-0.66809094231,0.573901372004,0.818890510532,0.00602443974037,0.0,0.81888872439,-0.573812802432,-0.0118689398507,0.0,-0.00626258213739,0.0117451727697,-0.999911411567,0.0,0.287424924399,-0.230607436139,0.30495860953,1.0,-0.143628,-0.188768228572,2.6
-0.547506968973,-0.529551687248,-0.134832660918,-2.64786147487,-0.0728720117124,2.10891617721,-0.799980816882,-0.638858724469,0.022380177253,0.0353934054002,0.0130901553316,0.023447821989,0.00209793290004,-0.621266631914,0.573926600055,0.818872767708,0.00603282335921,0.0,0.81887108848,-0.57383798862,-0.0118680314096,0.0,-0.00625666496567,0.0117517098038,-0.999911371803,0.0,0.285128613086,-0.23356571827,0.304957150221,1.0,-0.13646,-0.179347428572,2.616
-0.558745990429,-0.528971486638,-0.134264006661,-2.64748965793,-0.0726300616763,2.10895506166,-0.811020505291,-0.618551281552,0.0393117039947,0.0249927716297,0.0216101489375,0.0116054498775,0.002509018391,-0.59980751997,0.573813894002,0.818951830802,0.00602169219508,0.0,0.818949510834,-0.573724422507,-0.011947075975,0.0,-0.00632940972604,0.0117870870026,-0.999910497571,0.0,0.282840288201,-0.236509958829,0.304932793327,1.0,-0.128844,-0.169337828572,2.633
-0.568423327463,-0.528388666189,-0.133845509999,-2.64707449064,-0.0723932056327,2.10905521005,-0.820269351349,-0.592080617057,0.0406445141835,0.0263236449323,0.0308253701094,0.0153126979623,0.0142820778545,-0.570121708159,0.573994203107,0.818825151393,0.00606408662828,0.0,0.818823367767,-0.573904493625,-0.0119445174353,0.0,-0.00630038603357,0.0118217272071,-0.999910271925,0.0,0.280746021454,-0.239217635891,0.304928023529,1.0,-0.121676,-0.159917028572,2.649
-0.57780558592,-0.527595808381,-0.133275061973,-2.64656366265,-0.0720793909467,2.10918282503,-0.829642357057,-0.541295871778,0.0470362949179,0.0301928552565,0.0270836140494,0.023858603949,0.00695876026787,-0.546561763575,0.573762363701,0.818987489784,0.00608181533723,0.0,0.818985390176,-0.573671605358,-0.0120235929047,0.0,-0.00635832982075,0.0118798317157,-0.999909216499,0.0,0.278757204326,-0.241804967746,0.304896062477,1.0,-0.11406,-0.149907428572,2.666
-0.586850035708,-0.526814710349,-0.132775092542,-2.6460237806,-0.071818197153,2.10930455435,-0.838327370023,-0.518479884711,0.0451443848016,0.0349402215563,0.0291241093868,0.0125249098694,0.0061580731631,-0.49997779791,0.573845775087,0.818929042335,0.00608251067614,0.0,0.818926626115,-0.573754388939,-0.012075972586,0.0,-0.00639962068148,0.0119111051206,-0.999908581036,0.0,0.276814831006,-0.24431039285,0.30487902458,1.0,-0.106444,-0.139897828572,2.683
-0.594865265782,-0.526014398513,-0.132327990102,-2.64544369637,-0.0715419239149,2.10943870622,-0.846029811879,-0.486199058484,0.0544956563985,0.030317445172,0.0357984181037,0.0214955333586,0.00386805089371,-0.469333166687,0.573926742022,0.818872134218,0.00610487460788,0.0,0.818869816873,-0.573834882789,-0.012103603208,0.0,-0.00640823676407,0.0119459091039,-0.999908110657,0.0,0.275006276224,-0.24666902509,0.304872935701,1.0,-0.0988280000001,-0.129888228572,2.7
-0.602511750036,-0.525120300739,-0.131735517625,-2.6448186039,-0.0711972132325,2.10958322469,-0.853632175492,-0.440256320154,0.0523940717143,0.0339668481955,0.0358389173591,0.0128366257951,0.0114461301973,-0.435867193698,0.573736119258,0.819005652129,0.00611180334633,0.0,0.819003013868,-0.573643504765,-0.012163043075,0.0,-0.0064557290263,0.0119841932259,-0.999907347045,0.0,0.273516601689,-0.248625499913,0.304856849504,1.0,-0.0916600000001,-0.120467428572,2.716
-0.609839811967,-0.52431813532,-0.131210818663,-2.6442118073,-0.0709030209125,2.10973993606,-0.860620753406,-0.423498174956,0.0477578825257,0.036396609507,0.0364900885869,0.0153181654776,0.00999809943782,-0.40396838787,0.573802252971,0.818959386603,0.00610282574748,0.0,0.818956759095,-0.573709901888,-0.0121458680006,0.0,-0.00644584514921,0.0119675072301,-0.999907610658,0.0,0.271973049615,-0.250634404646,0.304865347774,1.0,-0.0840440000001,-0.110457828572,2.733
-0.616934854072,-0.52343815161,-0.130670656852,-2.64353469338,-0.0705508414717,2.10991633276,-0.867422819909,-0.382973353949,0.0466513627606,0.021546656725,0.0313748090881,0.0223958447421,0.00785680644769,-0.365747636326,0.573847538614,0.818927495303,0.00612427669713,0.0,0.818925326388,-0.573755415933,-0.0121152543845,0.0,-0.0064078013744,0.0119678646198,-0.999907850903,0.0,0.270500061094,-0.252580264213,0.304879095558,1.0,-0.0759800000001,-0.0998594285715,2.751
-0.62264520939,-0.522652998743,-0.130190904494,-2.64294117133,-0.070227036065,2.11005825734,-0.872928078815,-0.339116170706,0.0448987665787,0.0311344858631,0.0347813669289,0.0159213092163,0.011987557034,-0.332352092587,0.573846653144,0.818927930711,0.00614897367843,0.0,0.818926047235,-0.573754353077,-0.0121168637181,0.0,-0.00639496083926,0.0119890072258,-0.999907679829,0.0,0.269327283937,-0.254136897247,0.304884905565,1.0,-0.0688120000001,-0.0904386285715,2.767
-0.628073764569,-0.521936705605,-0.129618417835,-2.6424177191,-0.0698789246252,2.11020421828,-0.878216886683,-0.307930026357,0.0381789578356,0.0345008005975,0.0284106180676,0.0190919490397,0.00954644318147,-0.304101724293,0.573732930108,0.819007572621,0.00615368179068,0.0,0.819005742675,-0.57364061875,-0.0121153162587,0.0,-0.00639265700901,0.011991087487,-0.999907669616,0.0,0.268225564787,-0.255573475058,0.304886555558,1.0,-0.0611960000001,-0.0804290285715,2.784
-0.63311564663,-0.521295551368,-0.129085078952,-2.64190826474,-0.0695524923428,2.11035160136,-0.882945686048,-0.284543319516,0.0384779545645,0.0362442584753,0.0275215777714,0.0130643159863,0.00075097007978,-0.271544785633,0.573778320984,0.818975774303,0.00615356603303,0.0,0.818974324786,-0.573686718633,-0.0120561646482,0.0,-0.00634360980665,0.0119574087135,-0.999908385299,0.0,0.267204089826,-0.256910714086,0.304908369504,1.0,-0.0535800000001,-0.0704194285715,2.801
-0.637736700304,-0.520586885091,-0.12857253939,-2.64138189155,-0.0691829093176,2.11049731179,-0.887263048433,-0.237523778611,0.0404331492156,0.0329178115533,0.0257080014148,0.0187791925047,0.00718201287159,-0.225845369213,0.573846274782,0.818927825533,0.00619809545926,0.0,0.818926970354,-0.573754491899,-0.0120477032693,0.0,-0.00631013581969,0.0119895480131,-0.99990821225,0.0,0.266242668079,-0.258195881213,0.304912335033,1.0,-0.0450680000001,-0.0592322285715,2.82
-0.641330593271,-0.520051314435,-0.12812754642,-2.64099236337,-0.0688727731754,2.11059392234,-0.89064465878,-0.221140521763,0.0279342054599,0.0266040280118,0.0250437697733,0.0180509709794,0.000424736100742,-0.194480885587,0.573861841329,0.818916687089,0.00622844883543,0.0,0.818916111403,-0.573769701956,-0.0120614469511,0.0,-0.00630374631339,0.0120224127255,-0.999907857942,0.0,0.265573786806,-0.259065179955,0.304911520059,1.0,-0.0383480000001,-0.0504002285715,2.835
-0.643716067687,-0.519716221034,-0.127775828941,-2.64075647049,-0.0686741935464,2.11064994661,-0.892754781449,-0.191746892346,0.0284589250047,0.0277180844842,0.0249755341694,0.0116772368777,0.0114837728092,-0.173812145384,0.57393547339,0.818865159392,0.00621852227973,0.0,0.81886433945,-0.573843143034,-0.0120825357698,0.0,-0.00632563299703,0.0120269535819,-0.999907665114,0.0,0.26510469855,-0.259663359541,0.304908841971,1.0,-0.0329720000001,-0.0433346285715,2.847
-0.646997819865,-0.519224609031,-0.127117747646,-2.64042852847,-0.0682891587802,2.11076394241,-0.895710382093,-0.145455170117,0.0220524829988,0.0374900196362,0.0119695572615,0.0186214407438,0.00526166559865,-0.134336690204,0.573917963211,0.818877490686,0.00621076918092,0.0,0.818876497747,-0.573825534283,-0.0120948147926,0.0,-0.00634039571635,0.0120275159533,-0.999907564849,0.0,0.264511108346,-0.260440996226,0.30490274773,1.0,-0.0240120000001,-0.0315586285715,2.867
-0.649330097428,-0.518853930283,-0.1265028134,-2.64020821388,-0.067974528698,2.1108227028,-0.89779917858,-0.10969856424,0.0150026438605,0.0286915138169,0.00993778132306,0.0144995030538,-0.000454512896395,-0.0998618113292,0.573827539635,0.818941147614,0.00617239042685,0.0,0.818939275232,-0.573734587095,-0.012158698727,0.0,-0.00641606834524,0.0120320407724,-0.999907027709,0.0,0.264116810249,-0.260949759565,0.304886326287,1.0,-0.01978,-0.0259965714286,2.886
-0.651062369001,-0.518598012181,-0.126133949354,-2.64002213727,-0.0677546093187,2.11086330137,-0.89947145402,-0.0980135424599,0.0190225614576,0.0214377352839,0.0129970821133,0.00899197765501,0.00110568611373,-0.0963814336391,0.573718735746,0.81901736392,0.00617387664427,0.0,0.819015446055,-0.573625678284,-0.012166644477,0.0,-0.00642332257844,0.0120369639702,-0.999906921881,0.0,0.263808012276,-0.261353460386,0.304889028902,1.0,-0.01944,-0.0255497142857,2.903
-0.652692897776,-0.518336495326,-0.125900870466,-2.6398146287,-0.0676122940762,2.11094564295,-0.901021101618,-0.0924299972555,0.0108116094193,0.0116935414763,0.0136776586662,0.00812096340882,0.00209149624757,-0.0891635230411,0.573691202697,0.819036695442,0.00616784956597,0.0,0.819034981612,-0.573598708542,-0.0121230093376,0.0,-0.00639144201622,0.0120067795308,-0.999907489078,0.0,0.263499931429,-0.26177869805,0.304899643691,1.0,-0.0191,-0.0251028571429,2.92
-0.654036922872,-0.518081695138,-0.125784303076,-2.63961780706,-0.067550545926,2.11101343442,-0.902338318889,-0.0849158528772,0.018712878668,0.011360897701,0.0123820808257,0.00178288670476,0.00104598897908,-0.0896981688197,0.573667128398,0.819053680283,0.0061515454535,0.0,0.819051886709,-0.57357496102,-0.0121044566253,0.0,-0.00638595025239,0.011982594485,-0.999907814285,0.0,0.263228927259,-0.262156958372,0.304903788963,1.0,-0.0188,-0.0247085714286,2.935
-0.655531873803,-0.517826163243,-0.12573739664,-2.63943691516,-0.0675104460802,2.11105191756,-0.903737817275,-0.0869818240804,0.0116260093594,0.00263976381747,0.00907720316906,0.00689270606006,0.000685857124746,-0.0701882580828,0.573738745421,0.819003463984,0.00615831841716,0.0,0.819001586192,-0.573646209109,-0.0121315906586,0.0,-0.00640324204077,0.0120042672757,-0.999907443746,0.0,0.262892258818,-0.262583690719,0.304896239313,1.0,-0.01846,-0.0242617142857,2.952
-0.656983008009,-0.51760268364,-0.125723197108,-2.6392383195,-0.0674736256772,2.11106299311,-0.905123920375,-0.0818044497039,0.0154510827757,-0.000126961570545,0.0175292169818,0.0012583822622,3.04325107774e-05,-0.0829155589392,0.573807935486,0.818954845272,0.00617749779842,0.0,0.818953176675,-0.573715221737,-0.0121361304798,0.0,-0.0063949414625,0.0120231209036,-0.999907270344,0.0,0.262559378865,-0.263007172623,0.304905408871,1.0,-0.01812,-0.0238148571429,2.969
-0.658257959561,-0.517382199128,-0.125710287669,-2.63903712431,-0.0674354062794,2.11113699815,-0.906463256076,-0.0822820569867,0.0108908794507,0.00157539432999,0.0127608572312,-0.000240654528143,0.00289070575995,-0.0764951087605,0.573772701901,0.818979437903,0.00618980990117,0.0,0.818978316751,-0.573680671183,-0.0120727421867,0.0,-0.00633647530816,0.0119965609686,-0.999907961567,0.0,0.262282618932,-0.263393816793,0.304922186444,1.0,-0.0178,-0.0233942857143,2.985
-0.659607283326,-0.517133753325,-0.125704241577,-2.6388433055,-0.067404409074,2.11120422817,-0.907808948955,-0.0819086211094,0.0144732724536,0.00144410485342,0.00853368214125,0.00033941243988,0.00222412473346,-0.0740422180497,0.573794755864,0.81896388929,0.00620266742539,0.0,0.818963057367,-0.573702895158,-0.0120517905818,0.0,-0.0063116145463,0.0119952406587,-0.999908134642,0.0,0.261980159738,-0.263798527679,0.304924544468,1.0,-0.01746,-0.0229474285714,3.002
-0.660948535526,-0.516920237205,-0.125700354195,-2.63867358414,-0.067377689589,2.1112043822,-0.909150042581,-0.0755795169755,0.0117957182038,0.000359318724355,0.0104160873609,0.000772919565286,7.06257614178e-06,-0.0907602704947,0.573812433865,0.818951347202,0.00622322733625,0.0,0.818950543901,-0.573720024269,-0.0120866578504,0.0,-0.00632811642726,0.0120322216278,-0.999907586022,0.0,0.261663160583,-0.26418650751,0.304923040916,1.0,-0.01712,-0.0225005714286,3.019
-0.662358977037,-0.516653725065,-0.125677054293,-2.63844786839,-0.0673482188569,2.11125631812,-0.910543510736,-0.0673200667871,0.017083755924,0.00281395064634,0.0119586872105,8.17690011315e-05,0.00630493917408,-0.0684988332009,0.573834077246,0.818936171668,0.00622458242532,0.0,0.818935506564,-0.573741886413,-0.0120677572394,0.0,-0.00631154076812,0.0120226533749,-0.99990780588,0.0,0.261351444989,-0.264608714819,0.30493229327,1.0,-0.01674,-0.0220011428571,3.038
-0.663600264655,-0.516405396044,-0.125629411121,-2.63826924773,-0.0673140988493,2.11135449852,-0.911789652724,-0.0704854581549,0.0156393518125,0.00208633530545,0.0122809238714,0.00126375188079,0.00112399524643,-0.0737359575459,0.573820226323,0.818945935734,0.00621684072394,0.0,0.818945399517,-0.573728510199,-0.0120322938696,0.0,-0.00628714044228,0.0119958576593,-0.999908281426,0.0,0.261086698248,-0.264975345245,0.304931362033,1.0,-0.0164,-0.0215542857143,3.055
-0.664676317449,-0.516197962378,-0.125574731726,-2.63811242245,-0.0672943430954,2.11136165904,-0.912930367574,-0.0663839110284,0.0116503581173,0.00173393683362,0.0116451348466,0.000919467961291,-0.000276139407954,-0.0754549615651,0.573745118532,0.818998646343,0.00620509067994,0.0,0.818997722035,-0.573653022448,-0.0120701300347,0.0,-0.00632597293111,0.0120073644983,-0.999907898391,0.0,0.260847320859,-0.265280585304,0.304927991621,1.0,-0.0161,-0.02116,3.07
-0.665936715565,-0.515955837459,-0.125512732229,-2.63792420396,-0.0672615798058,2.11138520161,-0.914176647399,-0.0699493329744,0.0169894507923,0.00576604489266,0.00819014158601,-0.000356039599533,0.00526003841145,-0.0698915473762,0.573736475669,0.819004763915,0.00619677917247,0.0,0.819003589761,-0.57364414984,-0.0120936435786,0.0,-0.00635012784345,0.0120139801383,-0.999907665816,0.0,0.260570318482,-0.265640685904,0.304927644962,1.0,-0.01574,-0.0206868571429,3.088
-0.666973476495,-0.515756930641,-0.125500429514,-2.63776403905,-0.0672379581561,2.11143920574,-0.915274685782,-0.0718549163983,0.00998204003148,-0.000321802077308,0.0129012086075,-0.000157207582605,0.00578032309705,-0.0717795164399,0.573695949588,0.819033114408,0.00620176031509,0.0,0.819032132796,-0.573603852272,-0.0120719927329,0.0,-0.00633013007218,0.012005325452,-0.999907896566,0.0,0.260339786948,-0.265951705578,0.304931905792,1.0,-0.01544,-0.0202925714286,3.103
-0.668141048391,-0.515518704306,-0.125485268247,-2.63757968788,-0.0672099583908,2.1115156071,-0.916425076853,-0.0656258601452,0.0163445956011,-8.60097185788e-06,0.014175968469,-0.000561879178937,0.00366860848692,-0.0690807740181,0.573720804422,0.819015680074,0.00620493896223,0.0,0.819014923389,-0.57362903647,-0.0120428686959,0.0,-0.00630408650997,0.0119914127964,-0.999908228045,0.0,0.260083162861,-0.266304338867,0.304934607473,1.0,-0.0151,-0.0198457142857,3.12
-0.669305704625,-0.515302585327,-0.125479072801,-2.63739961105,-0.0671815165374,2.1115364366,-0.917510751336,-0.0698391165361,0.0129608483837,0.00169317589533,0.00863458612345,3.06713789425e-05,0.000964441872782,-0.0659444318724,0.573802568588,0.818958292929,0.00621881221428,0.0,0.818957660207,-0.573710614711,-0.0120510687032,0.0,-0.0063016454011,0.0120081092697,-0.99990804306,0.0,0.259815776628,-0.266649162299,0.30493856027,1.0,-0.01476,-0.0193988571429,3.137
-0.670566845291,-0.515073704094,-0.125466329947,-2.63720144275,-0.0671507003219,2.11157952469,-0.918828234811,-0.0616507464838,0.0126019556687,0.00235171617888,0.0110623605025,0.000511910126306,0.00428597134859,-0.0683361851169,0.573770737494,0.818980516626,0.00622905160044,0.0,0.818980131939,-0.57367896479,-0.0120306171068,0.0,-0.00627948603923,0.0120045166756,-0.999908225606,0.0,0.259531101427,-0.267024826856,0.304948058575,1.0,-0.01438,-0.0188994285714,3.156
-0.671520076284,-0.514895454311,-0.125455705768,-2.63705437217,-0.0671271018595,2.11162525504,-0.919785745377,-0.0656826324536,0.0110020019061,0.00184038559508,0.00775996685791,-0.000180618584666,0.000835323482507,-0.0565038533609,0.573778931028,0.818974772625,0.00622952750429,0.0,0.818974528035,-0.573687410728,-0.0120093339844,0.0,-0.0062616606216,0.0119927580614,-0.999908478492,0.0,0.259302587424,-0.267328528571,0.304954306725,1.0,-0.01406,-0.0184788571429,3.172
-0.672519804294,-0.514695634454,-0.125418524903,-2.63688936286,-0.0671067250717,2.11166988834,-0.920767366951,-0.0656815527369,0.016885123269,0.000653748131669,0.0122022415763,0.00545148340052,0.000971459309346,-0.0654945919572,0.5737829902,0.818971970466,0.00622403796257,0.0,0.818971744715,-0.573691665518,-0.011995881568,0.0,-0.00625373246395,0.0119805746887,-0.99990867416,0.0,0.259099485001,-0.267604683285,0.304959046358,1.0,-0.01376,-0.0180845714286,3.187
-0.673557633219,-0.514490033153,-0.125378217375,-2.63671709758,-0.0670828806869,2.11170315207,-0.92183321911,-0.0614868516599,0.0137360554639,0.000154191391798,0.0107120075019,0.00283724311541,-0.000175136912144,-0.0657009290405,0.573750460359,0.818994821055,0.00621604564536,0.0,0.818994528899,-0.573659248746,-0.0119906155896,0.0,-0.00625448041223,0.0119707590637,-0.999908787041,0.0,0.258872048165,-0.267908782863,0.304965144298,1.0,-0.01342,-0.0176377142857,3.204
-0.674507320283,-0.51428973264,-0.125328075577,-2.63655357072,-0.0670620013316,2.11174294538,-0.922774576067,-0.0615593723095,0.0158175569572,0.00107240001125,0.0115886300286,-1.47147543098e-05,0.00422087695733,-0.0546175378574,0.573739001005,0.819002974175,0.00619950955375,0.0,0.819002526634,-0.573647976415,-0.0119836314699,0.0,-0.00625841419888,0.011953120871,-0.999908973434,0.0,0.25866901911,-0.268186822618,0.304970005291,1.0,-0.0131,-0.0172171428571,3.22
-0.675461996241,-0.514084716567,-0.125318996052,-2.63638964827,-0.0670374635262,2.11178434237,-0.923722977135,-0.0546574019863,0.0112380736637,7.94350039516e-05,0.00969574293699,0.00682777934215,0.00381770375455,-0.0548790422216,0.573756654592,0.818990555448,0.00620631121577,0.0,0.818990228581,-0.573665658945,-0.0119776515416,0.0,-0.00624935619525,0.011955395698,-0.99990900289,0.0,0.258455689387,-0.26847469277,0.304972461757,1.0,-0.01276,-0.0167702857143,3.237
-0.676429932607,-0.513877851514,-0.125312583141,-2.63623529381,-0.0670142073933,2.11182503882,-0.924699516411,-0.0607289888436,0.0111077230674,0.000923966880229,0.00889560468829,-0.000264322987873,0.00211580134757,-0.0564183702789,0.573763038847,0.818986012771,0.0062155482851,0.0,0.818985760554,-0.573671915518,-0.0119834993557,0.0,-0.00624875317348,0.0119663649355,-0.999908875445,0.0,0.258235483474,-0.268763874615,0.30496975262,1.0,-0.01242,-0.0163234285714,3.254
-0.677381483948,-0.513687349372,-0.125305843937,-2.63607663638,-0.0669903576337,2.1118540539,-0.925661052441,-0.0586915695201,0.00994863882374,0.000361383310596,0.0108989319008,0.000259874522517,0.00105166449162,-0.0557814674135,0.573769903679,0.818981119337,0.00622661243367,0.0,0.818980971231,-0.573678655413,-0.0119881602951,0.0,-0.00624612254578,0.0119781532928,-0.999908750735,0.0,0.258030788118,-0.269031194158,0.304970200763,1.0,-0.0121,-0.0159028571429,3.27
-0.678362381419,-0.513483776733,-0.125290371891,-2.63591344815,-0.066968526582,2.11190033204,-0.926596504499,-0.0507378499438,0.0126694028699,0.00401176965717,0.00316181538969,0.000171232847943,-0.000274953085986,-0.0531346336931,0.573812410629,0.81895134747,0.00622533424061,0.0,0.818951305506,-0.573721394324,-0.0119694530352,0.0,-0.00623091221541,0.0119666966996,-0.999908982809,0.0,0.257799507159,-0.269341827807,0.304977229717,1.0,-0.01172,-0.0154034285714,3.289
-0.679291931085,-0.513282191895,-0.125280303788,-2.63575154961,-0.0669498565254,2.11194662905,-0.927532361664,-0.0478255335763,0.0148112573584,0.00355979555756,0.011410591472,-3.45258301819e-05,0.00808776458293,-0.0512809137666,0.573816420054,0.818948533322,0.00622597358954,0.0,0.818948570866,-0.573725536994,-0.011957983869,0.0,-0.00622109308533,0.0119606699481,-0.999909116058,0.0,0.257591767433,-0.269623165418,0.304980422945,1.0,-0.01136,-0.0149302857143,3.307
-0.680085135439,-0.513107132444,-0.125266135861,-2.63561568623,-0.0669323689717,2.11197590171,-0.928365346226,-0.0485684257141,0.0111207474542,0.00291452486803,0.0106839103659,-0.000363932827313,0.00544130474159,-0.0492584845324,0.573788283021,0.818968235371,0.00622756950994,0.0,0.818968255149,-0.573697325178,-0.0119634043471,0.0,-0.00622502802806,0.0119648733357,-0.999909041279,0.0,0.257413521396,-0.269859630007,0.30498023242,1.0,-0.01104,-0.0145097142857,3.323
-0.68083016817,-0.512934593808,-0.12523323085,-2.63548741806,-0.0669136983392,2.11200348824,-0.929107421018,-0.0468339193167,0.0109858425167,0.00495172716371,0.00419427739688,0.000667225950402,0.000240383229091,-0.0538642876924,0.573781955551,0.818972715919,0.00622133147821,0.0,0.818972578668,-0.573690879766,-0.0119765088685,0.0,-0.00623943299466,0.0119672349691,-0.999908923234,0.0,0.257250542154,-0.270077269736,0.304977812959,1.0,-0.01074,-0.0141154285714,3.338
-0.681655045922,-0.512748184133,-0.125214236509,-2.63534497819,-0.0668957007256,2.11203969203,-0.929901266459,-0.0514279270649,0.015130145157,-4.39227201677e-07,0.00757484838703,-2.01340096731e-05,0.00625323433709,-0.0548750875802,0.573808935582,0.818953828975,0.0062191924138,0.0,0.818953645465,-0.573717827777,-0.0119802992733,0.0,-0.00624337060419,0.0119678634916,-0.999908891133,0.0,0.257066751386,-0.270323121306,0.304977096777,1.0,-0.0104,-0.0136685714286,3.355
-0.682458415252,-0.512576309968,-0.125193299333,-2.63520283819,-0.0668740169972,2.11208082956,-0.930663784489,-0.0428144663779,0.00844075649366,0.00026578751459,0.00893078465281,0.000874616756709,0.00102399393002,-0.0474529213352,0.573844055057,0.818929236529,0.00621714853116,0.0,0.818929128949,-0.573753145032,-0.0119648328642,0.0,-0.00623136289285,0.0119575824606,-0.999909089037,0.0,0.256890343655,-0.270563446317,0.304982080571,1.0,-0.01006,-0.0132217142857,3.372
-0.683186670244,-0.512407587126,-0.125190185058,-2.63507056714,-0.066854106604,2.11211217975,-0.931410260165,-0.0482032463693,0.0113745693365,-0.000972864124702,0.00641573832868,0.00189230827559,0.000519214697165,-0.0461644467501,0.573842264669,0.818930430751,0.00622509200115,0.0,0.818930415144,-0.573751299698,-0.011965289349,0.0,-0.00622720482725,0.0119643362648,-0.999909034151,0.0,0.25672622534,-0.270784372679,0.304982484018,1.0,-0.00974000000001,-0.0128011428571,3.388
-0.683916650397,-0.512237656738,-0.125179137159,-2.63492318133,-0.0668354112167,2.11214533614,-0.932160580562,-0.0386401288678,0.00873568080678,-0.000600147061954,0.00780501092039,6.07461108287e-05,0.0026764383908,-0.0405109410743,0.573839117141,0.81893261447,0.00622796093676,0.0,0.818932624815,-0.573748118877,-0.0119665784508,0.0,-0.00622666038755,0.0119674016201,-0.999909000859,0.0,0.256555195844,-0.271018880554,0.304983912564,1.0,-0.00938000000001,-0.012328,3.406
-0.684733695097,-0.512050697283,-0.125143284618,-2.63478094733,-0.0668073592621,2.1121813904,-0.932952257405,-0.0409775140646,0.00701056961067,0.00470231379347,0.00905118661148,0.00221257855178,0.00339289956427,-0.0370977531104,0.573842351656,0.818930395373,0.00622172655677,0.0,0.818930406422,-0.573751536187,-0.011954541504,0.0,-0.00622033199136,0.0119554134462,-0.999909183656,0.0,0.256397197201,-0.271236585247,0.304988833629,1.0,-0.00902000000001,-0.0118548571429,3.424
-0.685387228459,-0.511906237009,-0.125099614766,-2.63468655981,-0.0667873498848,2.11221715306,-0.933597733345,-0.0426132713929,0.00675194833482,0.00241135400055,0.00924793045678,0.00159027721923,-0.000312736435533,-0.045230027991,0.573836909657,0.818934260429,0.00621491049062,0.0,0.818934118052,-0.573745999689,-0.0119659948132,0.0,-0.00623370309833,0.011956361923,-0.999909089045,0.0,0.256246599545,-0.271430947302,0.304982454018,1.0,-0.00868000000001,-0.011408,3.441
-0.685960405159,-0.511763931372,-0.125074823975,-2.63460361456,-0.0667681787095,2.11224438039,-0.934165791564,-0.03526002587,0.0045333749023,0.00231184857803,0.00460977566995,0.000429126254382,0.00088248378397,-0.0408681036919,0.573836091427,0.818934816571,0.00621717649363,0.0,0.818934522677,-0.573744825206,-0.0119945829033,0.0,-0.00625582915325,0.0119746155842,-0.999908732427,0.0,0.256117812608,-0.27159404779,0.304970358245,1.0,-0.00838000000001,-0.0110137142857,3.456
-0.686576467324,-0.511618464183,-0.125053384759,-2.63454058636,-0.0667409736767,2.11226631217,-0.93481792091,-0.0343915941771,0.00761585036613,0.000951721336299,0.00466538197782,0.000207902382,0.000700809976061,-0.0376362501261,0.573806473135,0.818955445073,0.00623356032746,0.0,0.818955000139,-0.573714445773,-0.0120494547184,0.0,-0.00629180408004,0.0120192919226,-0.999907970677,0.0,0.255971978283,-0.271761885206,0.30494751541,1.0,-0.00804000000001,-0.0105668571429,3.473
-0.687153910531,-0.511487598279,-0.125045798917,-2.63448154911,-0.0667237101492,2.11227735907,-0.935389067507,-0.0379774478216,0.0105105059684,-0.000320668131151,0.00784232529694,0.000937785778742,-0.000111193445768,-0.0348607416827,0.573816922509,0.818948008235,0.00624869193167,0.0,0.818947391982,-0.573724122772,-0.0121056605312,0.0,-0.00632900313638,0.0120640151014,-0.999907197323,0.0,0.255830218951,-0.271921289825,0.304927002273,1.0,-0.00772000000001,-0.0101462857143,3.489
-0.687730688779,-0.511342911173,-0.125038913178,-2.63440523876,-0.0667004768586,2.11228939862,-0.935943349869,-0.0333521503342,0.00696503801008,0.00160524919888,0.00124020387797,0.000482562719018,0.00419578293933,-0.0365839638344,0.573844542492,0.818928516748,0.00626677035036,0.0,0.818927796131,-0.573751006979,-0.0121570397916,0.0,-0.0063603032211,0.0121085164956,-0.999906460811,0.0,0.255692597023,-0.272084497558,0.304909282637,1.0,-0.00738000000001,-0.00969942857144,3.506
-0.688309692946,-0.511216848271,-0.125014347255,-2.63432780545,-0.0666727982362,2.11230692956,-0.936527807284,-0.0316887806847,0.00391680755378,0.00117134265375,0.0054857939764,0.00350023068048,-0.000476999518835,-0.0339941618501,0.573838536685,0.818932639741,0.0062779202618,0.0,0.818931886831,-0.573744612774,-0.0121832239191,0.0,-0.00637543954195,0.0121326260619,-0.999906072167,0.0,0.25556021441,-0.272245452776,0.304899849689,1.0,-0.00702000000001,-0.00922628571429,3.524
-0.688838686846,-0.51110567176,-0.124989851387,-2.63425434405,-0.0666502841203,2.11232829146,-0.937054888615,-0.0296442898005,0.0109760218048,0.000950721467393,0.00468584939115,0.00106322170294,0.00316823192845,-0.0289769037132,0.573836146205,0.818934275051,0.00628310083167,0.0,0.818933505306,-0.57374203807,-0.0121956770924,0.0,-0.00638270178864,0.0121439959409,-0.999905887812,0.0,0.255440891313,-0.272393860989,0.304894443472,1.0,-0.00668000000001,-0.00877942857144,3.541
-0.689284397503,-0.511005594688,-0.124952342344,-2.63417800549,-0.0666331027891,2.11234642648,-0.937501138306,-0.0257585040461,0.00916335865771,0.000512138590541,0.00361263471132,-2.89642215997e-05,0.00104576949055,-0.0249831241775,0.573820276059,0.818945452921,0.00627557362309,0.0,0.81894456802,-0.573726174315,-0.0121991113648,0.0,-0.0063900689641,0.0121396781073,-0.999905893189,0.0,0.2553470456,-0.272519202531,0.304894477358,1.0,-0.00638000000001,-0.00838514285715,3.556
-0.68984461569,-0.510889999089,-0.124909333866,-2.63407170195,-0.0666036886145,2.11238039599,-0.938097897632,-0.0287843603754,0.00284929773832,0.00379513236424,0.00579405933293,0.00586046257991,3.27175818797e-05,-0.0327207648626,0.573777654292,0.818975352729,0.00627072234255,0.0,0.818974585331,-0.573683928096,-0.0121707077262,0.0,-0.00637021967404,0.0121190756902,-0.99990626976,0.0,0.255232991754,-0.272681387443,0.30490385174,1.0,-0.00598000000001,-0.00785942857144,3.576
-0.690212207241,-0.51081843064,-0.124888250116,-2.63400549849,-0.0665847956639,2.11241162364,-0.938469858843,-0.0226567940255,0.00566030406085,0.00281121491955,0.00814125129164,0.00196418977987,0.00275636197797,-0.0245215800752,0.573770461838,0.818980401985,0.00626938495469,0.0,0.81897979789,-0.573677087562,-0.0121423538071,0.0,-0.00634786951653,0.0121016565692,-0.999906622871,0.0,0.255157102797,-0.272789778043,0.304910569559,1.0,-0.00570000000001,-0.00749142857144,3.59
