nelsonifechukwu/NELSON_IML_WORK/CNN-GradCAM/train2dof/data_sample_2022-02-21-10-14-49/robot_state.csv
position_joint1,position_joint2,position_joint3,position_joint4,position_joint5,position_joint6,position_joint7,velocity_joint1,velocity_joint2,velocity_joint3,velocity_joint4,velocity_joint5,velocity_joint6,velocity_joint7,ee_T_00,ee_T_10,ee_T_20,ee_T_30,ee_T_01,ee_T_11,ee_T_21,ee_T_31,ee_T_02,ee_T_12,ee_T_22,ee_T_32,ee_T_03,ee_T_13,ee_T_23,ee_T_33,v_x,v_y,time
0.46508503043,0.547654605395,-0.123950894274,-1.35575500406,0.0794421707107,1.89408756335,0.159170824683,9.79114794907e-05,0.000522209722045,-0.000373433862549,-0.000668296831804,-6.45674013553e-05,0.000191918611193,-0.000475382355109,0.573759798969,0.819009210128,0.00208655539146,0.0,0.818968240759,-0.573701078583,-0.0117830370816,0.0,-0.00845351957094,0.00846961865176,-0.99992839922,0.0,0.661687384227,0.260920460886,0.303338694784,1.0,0.0,0.0,0.0
0.465082243765,0.547657111083,-0.123948389641,-1.35575249841,0.0794421711995,1.89408752023,0.159171799689,-0.000452432758757,0.000840654575276,0.00089959288897,0.000668256022897,-0.00222024708043,5.97912127923e-05,-0.000823093827878,0.573760997203,0.819008369604,0.0020869857967,0.0,0.818967395918,-0.573702265056,-0.0117839888765,0.0,-0.00845403980493,0.00847052961599,-0.999928387105,0.0,0.661688035584,0.260920328149,0.303338025721,1.0,-0.00016,-0.000210285714286,0.009
0.465086737,0.547646209533,-0.123947758957,-1.35575794456,0.0794421707127,1.89408672966,0.159174267488,0.000531632170245,-0.00110199557319,-0.00283729803055,-0.000580727452308,-0.000276441297982,-0.000173682348923,0.000500178297516,0.573759169427,0.819009638332,0.00209158299418,0.0,0.818968714844,-0.573700409922,-0.0117826424879,0.0,-0.00845031843624,0.00847350334542,-0.999928393366,0.0,0.661685600687,0.260923109871,0.303343066781,1.0,-0.00038,-0.000499428571429,0.02
0.465078339774,0.547642680792,-0.123949101012,-1.35576658012,0.0794428827895,1.89409074275,0.159175619411,0.00115958958935,-0.00258880885952,-7.16678449916e-05,-0.000673733919601,-0.000234740966152,-0.000115612105642,-0.0015508440185,0.5737570608,0.819011117276,0.00209089977352,0.0,0.818970180776,-0.573698300083,-0.0117834792409,0.0,-0.00845141756875,0.00847340212,-0.999928384934,0.0,0.661684749962,0.260919921858,0.303343746736,1.0,-0.00072,-0.000946285714286,0.037
0.465080423969,0.547594096623,-0.123948392568,-1.35580935417,0.0794420524232,1.89409377049,0.159169994583,0.000118277016868,-0.00629509141662,-0.000236825766452,-0.00609522156666,-0.000205019315664,-0.000570315216138,-0.000829763424111,0.573764013385,0.819006221639,0.00210065774513,0.0,0.81896537764,-0.573705179197,-0.0117823805717,0.0,-0.00844484735531,0.00848083520992,-0.999928377429,0.0,0.661678396807,0.260913607912,0.303356146589,1.0,-0.00102,-0.00134057142857,0.052
0.465077225294,0.547450107725,-0.123943130146,-1.35597207471,0.0794374330703,1.89412968688,0.15916628088,-0.00119906130977,-0.00487219849632,-0.00179748391934,-0.0128840380547,0.000139897251609,0.00583184916912,0.00112922549556,0.573767562544,0.819003681976,0.00212131638585,0.0,0.818963003338,-0.573708543489,-0.011783598456,0.0,-0.00843395556818,0.00849848982476,-0.999928319463,0.0,0.661651946274,0.260898805361,0.303383632554,1.0,-0.00138,-0.00181371428571,0.07
0.465065313451,0.547302816582,-0.123950635912,-1.35617490687,0.0794333583241,1.89418835871,0.159162725582,-0.00192391241512,-0.0161778091198,-0.000377104295379,-0.0129884111864,-0.000660786421565,0.0097948942978,0.000489569725998,0.57378978491,0.818988097373,0.00212743876115,0.0,0.818947442817,-0.573730683303,-0.0117871048715,0.0,-0.0084330840611,0.00850574466404,-0.999928265128,0.0,0.661626094219,0.260867762237,0.303396760756,1.0,-0.00172,-0.00226057142857,0.087
0.465048740135,0.547146953337,-0.123948477427,-1.35636611383,0.0794306923,1.89429477861,0.159155218221,-0.00513422711985,-0.0126997937526,0.000339304769192,-0.0137400110054,-0.000695197768235,0.0069820381957,-0.00197008850949,0.573805878095,0.818976650332,0.00219257284457,0.0,0.818936800858,-0.573746480735,-0.0117575059407,0.0,-0.00837130305181,0.00854226907667,-0.999928472904,0.0,0.661611573488,0.260844204164,0.303425322161,1.0,-0.00204,-0.00268114285714,0.103
0.465023573885,0.546939160792,-0.123943790681,-1.35658798681,0.0794282478821,1.89442060088,0.159132473341,-0.00269339730109,-0.0116988875524,0.00177087486622,-0.013989086316,9.62812930747e-05,0.0053435372652,-0.00161975094259,0.573816520525,0.818968913648,0.00229480974187,0.0,0.81893033265,-0.573756674878,-0.0117104739744,0.0,-0.00827401104248,0.00859911829462,-0.999928795418,0.0,0.661596901954,0.260814824228,0.303477666445,1.0,-0.00238,-0.003128,0.12
0.464997277111,0.546727134784,-0.12395087565,-1.35687608368,0.0794156979639,1.89455361727,0.159121918737,-0.00104521057023,-0.0137561500197,0.00280996772288,-0.0148155662329,-0.000229740618885,0.0036186841347,0.000599124960158,0.573847280221,0.818947223028,0.00234345450379,0.0,0.818909302687,-0.573787281977,-0.0116814346371,0.0,-0.00822199236569,0.00862260220096,-0.999929022267,0.0,0.661572139148,0.260768920066,0.303502471791,1.0,-0.00272,-0.00357485714286,0.137
0.46495915768,0.546485268216,-0.123944095106,-1.35723261098,0.0794024498744,1.89467944422,0.159064590602,-0.00314869375315,-0.0202711315177,0.00644214145247,-0.0297586554253,2.08067900478e-05,0.0135870147522,-0.00848381542542,0.573843174726,0.818950052891,0.00235978627081,0.0,0.818912229621,-0.573782996665,-0.0116867367636,0.0,-0.00821700665559,0.00863897829018,-0.999928921902,0.0,0.661530949167,0.260714881591,0.30351474008,1.0,-0.00304,-0.00399542857143,0.153
0.464918504345,0.546206459981,-0.123954672632,-1.35766227488,0.079384973926,1.89484124366,0.158932436766,-0.00362344273805,-0.0160735345705,0.00105561101206,-0.0290956399776,-0.00206097940564,0.0142283470678,-0.00270820072788,0.573800234481,0.818980083218,0.00237930724993,0.0,0.818942478984,-0.573739954422,-0.0116802275774,0.0,-0.00820092801346,0.00865079965491,-0.999928951699,0.0,0.661481524688,0.260643492794,0.303527866087,1.0,-0.0034,-0.00446857142857,0.171
0.46487425247,0.54589484329,-0.123951682387,-1.35818606946,0.0793309688642,1.8950173095,0.158918773819,0.000306917809216,-0.0206178795829,-0.000143537660088,-0.024559175212,-0.00486169591566,0.00541668124401,-0.00628518919643,0.573838803839,0.818953208843,0.00232719478663,0.0,0.818915051459,-0.573778839023,-0.0116931297531,0.0,-0.00824098967449,0.00861591231214,-0.999928923546,0.0,0.66142596292,0.260566023915,0.303505062247,1.0,-0.00372,-0.00488914285714,0.187
0.464818662449,0.545591087251,-0.123951971435,-1.35871493205,0.0792434516912,1.89520111787,0.158827742003,-0.00249529079863,-0.0146904140583,-0.00053916794794,-0.0335738698265,-0.00233332579076,0.011894314753,-0.00751480535191,0.573810357577,0.818973322515,0.00226217782719,0.0,0.818934827079,-0.573751161322,-0.0116662238955,0.0,-0.00825655795375,0.00854694086786,-0.999929387033,0.0,0.661365633365,0.260462842644,0.303487597295,1.0,-0.00406,-0.005336,0.204
0.464758107347,0.545214606996,-0.123954208279,-1.35936371462,0.0792394149027,1.89540782285,0.15874548916,-0.000681979245454,-0.0275989458946,8.65304490601e-05,-0.0414235733216,0.000710300629403,0.00854684956318,-0.00323921499074,0.573829155264,0.81896025327,0.00222509213957,0.0,0.818920929793,-0.573769737428,-0.0117280032339,0.0,-0.00832823831049,0.00855220936897,-0.999928747542,0.0,0.661284250191,0.260362807753,0.303463328578,1.0,-0.0044,-0.00578285714286,0.221
0.464689635039,0.544774756175,-0.123957231825,-1.36010151098,0.0792190134863,1.89564807873,0.158688517085,-0.00251849761583,-0.0295964691014,-0.000862354513218,-0.0402193707609,0.00053759220732,0.0237813601375,-0.00910459620459,0.573876274206,0.818927335434,0.00218816912256,0.0,0.818887286868,-0.573816740448,-0.0117773804141,0.0,-0.00838937220885,0.00855078769707,-0.999928248658,0.0,0.661193849197,0.260246981245,0.303444424442,1.0,-0.00476,-0.006256,0.239
0.46462787523,0.544404148416,-0.123960512436,-1.36074517668,0.0791891869925,1.89587267537,0.158574465116,-0.00170767729267,-0.0250104873861,0.000887668016091,-0.0414136959712,-0.00493336067497,0.0219594400575,-0.00720605745284,0.573863694625,0.818936250365,0.00215051878857,0.0,0.818895619551,-0.573804214547,-0.011808240785,0.0,-0.00843638211402,0.00853753547363,-0.999927966378,0.0,0.661118895078,0.260143124771,0.303419912909,1.0,-0.00506,-0.00665028571429,0.254
0.464564435937,0.543918113959,-0.123961576656,-1.36152435973,0.0791507999361,1.89615851593,0.15849705485,-0.00415992052968,-0.0300368287118,-0.000156600514646,-0.0460936781233,-0.00133930911913,0.0173603719631,-0.00274294718342,0.573886207701,0.818920480887,0.00214790507242,0.0,0.818879735416,-0.573826653503,-0.0118193720307,0.0,-0.00844676327377,0.00854201498977,-0.999927840482,0.0,0.661028351756,0.260027652306,0.303417773569,1.0,-0.0054,-0.00709714285714,0.271
0.464493213736,0.543402979419,-0.123963731058,-1.36236128871,0.0791029168543,1.89644244557,0.158404311197,-0.00204111972998,-0.0331680621377,-0.00094803865592,-0.0461166715548,-0.00186895913772,0.0164423089805,-0.0084549241619,0.573903799421,0.818908234358,0.00211650942421,0.0,0.81886702557,-0.573844311871,-0.011842595508,0.0,-0.00848361541948,0.00852981455922,-0.999927632648,0.0,0.66092759187,0.259898267461,0.303408536803,1.0,-0.00574,-0.007544,0.288
0.46442052655,0.54289285516,-0.123963337048,-1.36318369642,0.0790575314197,1.89672707216,0.158277561055,-0.00500693460888,-0.0347595617776,0.000753074932227,-0.0554848070109,-2.33443087191e-05,0.0117428369785,-0.00579269832907,0.573892801835,0.818915995205,0.00209563833814,0.0,0.818874437454,-0.573833321423,-0.0118626224129,0.0,-0.00851210801541,0.00852410239431,-0.999927439215,0.0,0.660829719095,0.25977150832,0.3034025904,1.0,-0.00606,-0.00796457142857,0.304
0.464359772495,0.542309644419,-0.123966185176,-1.36408501433,0.0790005451875,1.8970537576,0.158165343405,-0.00767448305103,-0.0358371836124,-0.00103954885628,-0.0481892380567,-0.00114455698317,0.0169195402697,-0.00830683854572,0.573885179444,0.818921326433,0.00209972087682,0.0,0.818879864707,-0.573825726578,-0.0118553615314,0.0,-0.00850389825926,0.00852319952534,-0.999927516765,0.0,0.660718892256,0.259631917966,0.303411360488,1.0,-0.00642,-0.00843771428571,0.322
0.46426854206,0.541662061767,-0.123968673207,-1.36508190639,0.0789366293794,1.89743287828,0.15801855775,-0.00673061163961,-0.0391537289142,0.000110929705938,-0.0517247768221,-0.00396594056395,0.0214741746557,-0.00715915448241,0.573882081535,0.81892343693,0.00212316767044,0.0,0.818882307606,-0.57382256299,-0.011839737907,0.0,-0.00847768056647,0.00853340217073,-0.999927652373,0.0,0.660612762904,0.259487181859,0.3034307925,1.0,-0.00676,-0.00888457142857,0.339
0.464196092895,0.541064635536,-0.123966172421,-1.36603435729,0.0788847791838,1.89778192338,0.157902018699,-0.0060376194975,-0.0337686238874,0.00111634380108,-0.0670638131141,-0.000351871222738,0.0245946439893,-0.00388166282128,0.57388320242,0.81892265674,0.00212112209316,0.0,0.818881422978,-0.573823613567,-0.0118500006264,0.0,-0.00848724745682,0.00853762816189,-0.999927535142,0.0,0.660499448126,0.25935085913,0.303429985021,1.0,-0.00708,-0.00930514285714,0.355
0.464101933041,0.540360697797,-0.123968611577,-1.36709204827,0.0788231308381,1.89817284551,0.157768631995,-0.0036366414437,-0.0398684724785,0.000504976598309,-0.0649116946983,-0.00852043285572,0.0213427012381,-0.0051767154567,0.573894860015,0.81891440221,0.00215369488013,0.0,0.818873577002,-0.573835125091,-0.0118347370137,0.0,-0.00845593361891,0.00855566329512,-0.999927646289,0.0,0.660380134848,0.259187508702,0.30345806191,1.0,-0.00742,-0.009752,0.372
0.46399764642,0.539628955333,-0.123971866149,-1.36819857115,0.078767066737,1.89859892449,0.157633776518,-0.000999717700699,-0.0423787718479,0.000175594372983,-0.0690148254604,-0.00466912345436,0.0266895680571,-0.0147209092161,0.573918425354,0.818897758855,0.00220192700234,0.0,0.818857497166,-0.573858433238,-0.0118171417058,0.0,-0.00841359846709,0.00858530508775,-0.999927749339,0.0,0.660259581445,0.259014863474,0.303485524691,1.0,-0.00776,-0.0101988571429,0.389
0.463902514119,0.538934565371,-0.123980270301,-1.36928183909,0.0786914959084,1.89901153565,0.157495294522,-0.00774756865535,-0.0405508480291,-0.000548143084667,-0.064701838912,-0.00195486844948,0.0251186558068,-0.0126330828876,0.573928545531,0.818890634766,0.00221355335104,0.0,0.818850661216,-0.573868646924,-0.0117948126292,0.0,-0.00838853423973,0.00858211451455,-0.999927987309,0.0,0.660140411963,0.258843490207,0.303496516299,1.0,-0.00808,-0.0106194285714,0.405
0.463781442483,0.538163917441,-0.123980721436,-1.37048826544,0.0786277542307,1.8994707282,0.157338458816,-0.0103246258888,-0.0468047558131,0.000224633936283,-0.0727487057188,-0.00633471497303,0.0322908250159,-0.00808800057441,0.573958379776,0.818869659085,0.00223754690064,0.0,0.818829940885,-0.573898326902,-0.0117891980338,0.0,-0.00836985329776,0.00859884495311,-0.999928000119,0.0,0.660001371209,0.258638883539,0.303506020319,1.0,-0.00844,-0.0110925714286,0.423
0.463669608477,0.537335628295,-0.123992140563,-1.37181558556,0.0785466522296,1.89997461252,0.157182883535,-0.00678079048303,-0.0443634878689,-0.00175899720626,-0.0727792131278,-0.00857187842807,0.0305325754228,-0.0104777513667,0.573972961814,0.818859441336,0.00223636786667,0.0,0.818819758224,-0.573912963462,-0.0117839218107,0.0,-0.00836605619342,0.00859500017976,-0.999928064951,0.0,0.659858928276,0.258445034863,0.303503626149,1.0,-0.00878,-0.0115394285714,0.44
0.463567467884,0.536544692868,-0.123996490202,-1.3730470825,0.0784742138532,1.90043614035,0.157028134899,-0.00347457614363,-0.0460954065098,-0.00159181692909,-0.0750421540344,-0.00349396315084,0.031338965186,-0.0134392670368,0.573985187388,0.818850850315,0.00224421448796,0.0,0.818811276799,-0.573925165234,-0.0117789897639,0.0,-0.00835738551878,0.00859871932917,-0.999928105482,0.0,0.6597263802,0.258267863901,0.303510270188,1.0,-0.00908,-0.0119337142857,0.455
0.463450410117,0.535676285481,-0.124005198278,-1.37440444583,0.0784016096744,1.90093637878,0.156859956979,-0.00729886890376,-0.0553105552465,-0.00331996556376,-0.0813246591961,-0.00335232545277,0.024439601323,-0.00664211822557,0.574000723585,0.818839900495,0.00226574115989,0.0,0.818800540694,-0.573940549077,-0.0117757201453,0.0,-0.00834218939968,0.00861462782922,-0.999928095447,0.0,0.659561580818,0.258049128647,0.303526478266,1.0,-0.00944,-0.0124068571429,0.473
0.46332718284,0.534734951434,-0.124005262368,-1.37590642672,0.0783115899432,1.90148359577,0.156674520975,-0.00465078126953,-0.0509081021901,0.000714511301819,-0.0887070277132,-0.00427683652391,0.0326905396227,-0.00388019510235,0.574008057142,0.818834792422,0.00225387566223,0.0,0.818795241483,-0.573947889061,-0.0117864357943,0.0,-0.00835769744002,0.00861113756911,-0.999927996009,0.0,0.659383406653,0.257824470263,0.303523194433,1.0,-0.0098,-0.01288,0.491
0.463227120102,0.53394240648,-0.124007985148,-1.37720040395,0.0782484461111,1.90194781215,0.156522296459,-0.00845671435226,-0.0550415433553,0.00636800263454,-0.0878490997144,-0.00132560947057,0.0310247960259,-0.0095666887157,0.57402118724,0.818825656469,0.00222885828602,0.0,0.818785621668,-0.57396095123,-0.0118185918679,0.0,-0.00839825031514,0.00860924500751,-0.99992767253,0.0,0.659225905854,0.257635004592,0.30350670489,1.0,-0.0101,-0.0132742857143,0.506
0.463087315088,0.532965923835,-0.12400952406,-1.37877148616,0.0781547825517,1.90254549523,0.156320114242,-0.00923486776712,-0.052101590506,-0.000244493027142,-0.0895898482645,-0.000306311854311,0.0325411346266,-0.00870934210372,0.574032111958,0.818817995258,0.00222979440523,0.0,0.818777968873,-0.573971867093,-0.0118186452514,0.0,-0.00839764183402,0.0086101542004,-0.999927669812,0.0,0.659046715582,0.257393687496,0.303499384495,1.0,-0.01046,-0.0137474285714,0.524
0.462946665143,0.531889890902,-0.1240095241,-1.38050157835,0.0780497015751,1.90319105755,0.156103287923,-0.0134160474346,-0.0581646513196,-0.000932117345314,-0.0963091543914,-0.00231720924131,0.0318486938477,-0.0164227851792,0.574036000281,0.818815294421,0.00222056426024,0.0,0.818775134194,-0.573975776779,-0.0118251510628,0.0,-0.00840822633727,0.00860637091825,-0.999927613435,0.0,0.658842685405,0.257136574948,0.303490430786,1.0,-0.01084,-0.0142468571429,0.543
0.462839104439,0.531056697768,-0.124002008123,-1.38183941162,0.0779740593185,1.90367626655,0.155931458938,-0.00861052684699,-0.0651458244273,0.00217503825796,-0.0926264301448,-0.00653437827968,0.0326518238749,-0.00924334849725,0.574030595222,0.818819117355,0.00220809977772,0.0,0.818778677516,-0.573970301196,-0.0118455684073,0.0,-0.00843215651852,0.00860782942683,-0.999927399369,0.0,0.658679460545,0.256942912016,0.303482674483,1.0,-0.01112,-0.0146148571429,0.557
0.462710291439,0.530091779116,-0.124011676689,-1.38338937168,0.077874113837,1.9042169821,0.15572680302,-0.0095184637351,-0.0640768793939,0.000332500022996,-0.098569264161,-0.00594386358545,0.0363810370495,-0.0155812598081,0.574032506723,0.818817892749,0.00216486503374,0.0,0.818776921485,-0.573972415394,-0.011864489471,0.0,-0.00847244657565,0.00858330941511,-0.999927269579,0.0,0.658491624467,0.25670168814,0.303471936878,1.0,-0.01144,-0.0150354285714,0.573
0.462558310481,0.528987266594,-0.124017619121,-1.38513507757,0.0777617020872,1.90486657418,0.155489720502,-0.0115376596406,-0.0611236533464,-0.00248217981406,-0.098099431819,-0.00710739050872,0.0423675595354,-0.00973463372283,0.574031507195,0.818818590566,0.00216596229467,0.0,0.81877770173,-0.573971480681,-0.0118558599467,0.0,-0.00846476091903,0.008579243961,-0.99992736956,0.0,0.658288773827,0.256431357847,0.303475437927,1.0,-0.0118,-0.0155085714286,0.591
0.462443417779,0.528023229349,-0.124012666969,-1.38664951523,0.0776632126359,1.9054479865,0.155278267636,-0.0106192306793,-0.0624175081766,0.000376663318109,-0.102549539194,-0.0095373192028,0.0380640563253,-0.00537554888178,0.574004547818,0.818837429837,0.00218848888355,0.0,0.818796876109,-0.573944478232,-0.0118388547737,0.0,-0.00843818876601,0.00858764968119,-0.999927521995,0.0,0.658109495331,0.256215030263,0.303483591254,1.0,-0.0121,-0.0159028571429,0.606
0.462283787445,0.526792352465,-0.124015900491,-1.38851248163,0.0775564105567,1.90616162592,0.155013976581,-0.00785261883165,-0.0761148937836,-0.000470198291914,-0.101776127946,-0.00671753701342,0.0424112495225,-0.00753441646439,0.573993135325,0.818845234994,0.0022602274227,0.0,0.818805588161,-0.573932760734,-0.0118043150752,0.0,-0.00836884971339,0.00862644875047,-0.99992777076,0.0,0.657895311341,0.255934273945,0.303525145993,1.0,-0.01246,-0.016376,0.624
0.462137140764,0.525635662706,-0.124024161375,-1.39033361488,0.0774355720348,1.90682376732,0.154780012465,-0.00835299429296,-0.0732485607797,-0.000878917503994,-0.107748194645,-0.00892365360775,0.0362587079805,-0.0128227463432,0.573992969454,0.818845378796,0.00225023177577,0.0,0.81880569022,-0.573932724305,-0.0117990057617,0.0,-0.00837024084206,0.00861521480567,-0.999927855969,0.0,0.657676692597,0.255657435349,0.303529778615,1.0,-0.0128,-0.0168228571429,0.641
0.461990179537,0.524525062215,-0.124025053908,-1.39207738508,0.0773225465683,1.90744094098,0.154531928344,-0.0108021525987,-0.0677523618476,-0.000135286604282,-0.11152840616,-0.012978701951,0.0353539253561,-0.0113766627252,0.573967327528,0.818863401239,0.00223247437387,0.0,0.818823468415,-0.573907140512,-0.0118096800967,0.0,-0.00838944335013,0.00860653863656,-0.999927769758,0.0,0.657447935099,0.255379386059,0.303533896704,1.0,-0.01314,-0.0172697142857,0.658
0.461830489493,0.523335696866,-0.124030441798,-1.39398406199,0.077205342085,1.90813675588,0.154279604808,-0.00254083833224,-0.0685243126166,-6.96058218048e-05,-0.11448964632,-0.0119904907291,0.0387055260923,-0.0127503619162,0.573972530771,0.81885980989,0.00221191497814,0.0,0.81881961725,-0.573912430822,-0.0118196047346,0.0,-0.00840931568949,0.00859545330715,-0.999927698182,0.0,0.65723364002,0.255100982239,0.303523543891,1.0,-0.01346,-0.0176902857143,0.674
0.46164393632,0.521960856023,-0.124031062085,-1.3961495982,0.0770807204133,1.90899609068,0.153972189836,-0.0110319546922,-0.0740770717021,-0.000103494176094,-0.116367205056,-0.00597332520633,0.0501495823274,-0.0218710505363,0.573956723272,0.818870728484,0.00227084670088,0.0,0.8188312901,-0.573896384992,-0.0117900189572,0.0,-0.00835143149078,0.00862656706986,-0.999927915368,0.0,0.656985892988,0.254777163398,0.303533525639,1.0,-0.01384,-0.0181897142857,0.693
0.461511943347,0.5209391102,-0.124034336319,-1.39780981783,0.076976232769,1.9096179998,0.153759432869,-0.0147635062356,-0.0723622753301,0.00125785712896,-0.122397413199,-0.0112927294421,0.0474265887713,-0.0170795429541,0.573953445714,0.818873077736,0.00225202441764,0.0,0.818833421629,-0.573893207996,-0.0117966241198,0.0,-0.00836767748604,0.00861491178456,-0.999927880034,0.0,0.656785491552,0.254530223551,0.303515112601,1.0,-0.01412,-0.0185577142857,0.707
0.461330750712,0.519554906336,-0.124046729855,-1.39998056509,0.0768351862351,1.91040624202,0.153463427808,-0.0113852305746,-0.0843698583331,-0.00329671141651,-0.125868245997,-0.0133041602404,0.0407765656829,-0.013482666749,0.573945582217,0.818878606876,0.00224560831176,0.0,0.818838949565,-0.573885454774,-0.0117900964872,0.0,-0.00836609691244,0.0086058310328,-0.999927971453,0.0,0.656523315024,0.254195267087,0.303522610629,1.0,-0.01448,-0.0190308571429,0.725
0.461162838945,0.518222068346,-0.124050629578,-1.40205826919,0.076697627058,1.91114464495,0.153173654841,-0.0124352708398,-0.0758071992868,-0.00321984706972,-0.124486979023,-0.00815343496787,0.0420657820075,-0.0199228930345,0.573921440287,0.818895558645,0.00223412428955,0.0,0.81885579164,-0.573861400739,-0.0117911890908,0.0,-0.00837383590563,0.00859680735458,-0.999927984295,0.0,0.656265537895,0.253881604045,0.303533306647,1.0,-0.01482,-0.0194777142857,0.742
0.460991309668,0.516923907988,-0.124054252017,-1.40406746001,0.0765738224698,1.91186935973,0.152909410923,-0.0100401440619,-0.0824439744697,0.00105943244602,-0.122450400375,-0.0129051907569,0.0524200186565,-0.0162573512185,0.573920879937,0.818895922269,0.00224476394025,0.0,0.81885626705,-0.573860772244,-0.0117887612875,0.0,-0.00836574764527,0.00860412092802,-0.999927989092,0.0,0.656019714521,0.253574724902,0.303550700298,1.0,-0.01514,-0.0198982857143,0.758
0.460793281693,0.515489703425,-0.124057460023,-1.40635701684,0.0764371639463,1.91274545202,0.152583206332,-0.0147396264253,-0.0876868552634,0.0010315578309,-0.12867409761,-0.00457446621601,0.0555403042325,-0.0210771636645,0.573902451209,0.818908793519,0.00226081746892,0.0,0.818869334145,-0.573842270989,-0.0117817029838,0.0,-0.00835094832707,0.00861302814471,-0.999928036115,0.0,0.655747793715,0.253227415349,0.303542829961,1.0,-0.0155,-0.0203714285714,0.776
0.460606804354,0.514105067083,-0.124060657333,-1.40859027443,0.0763092419342,1.91354961352,0.152285670885,-0.00986497519891,-0.0796401398939,0.000927384892666,-0.130558902193,-0.00979045820006,0.0445961776808,-0.0244586516075,0.573896794088,0.818912853271,0.00222606915791,0.0,0.818872809516,-0.573836612382,-0.0118157110433,0.0,-0.00839879936234,0.00860403184743,-0.99992771279,0.0,0.655469261567,0.252890357994,0.303520335517,1.0,-0.01584,-0.0208182857143,0.793
0.460466602114,0.513123054465,-0.12406171607,-1.41018656687,0.0762132818342,1.91410352816,0.152053918955,-0.0154808652362,-0.0776302349603,0.000569159005891,-0.134795945864,-0.00712255306449,0.0457664598539,-0.0226755800461,0.573880302584,0.818924545706,0.00217569470897,0.0,0.8188837517,-0.573820223972,-0.0118532132051,0.0,-0.00845859246807,0.00858413189771,-0.99992737981,0.0,0.655266974271,0.25264344649,0.303496747077,1.0,-0.01608,-0.0211337142857,0.805
0.460198540908,0.511177903883,-0.12407517345,-1.41329223468,0.0760147605799,1.91524975891,0.151621779725,-0.0110821632455,-0.0844404488152,-0.000215442799221,-0.13355579716,-0.00398390111101,0.0559358692687,-0.0198451090003,0.573863627934,0.818936286878,0.00215440736575,0.0,0.818895310883,-0.57380373215,-0.0118530032836,0.0,-0.00847081059972,0.00856640648564,-0.999927428391,0.0,0.654906772956,0.25218185799,0.303481058222,1.0,-0.01652,-0.021712,0.827
0.460020865355,0.509891582482,-0.124072492896,-1.41535615523,0.0758933440624,1.91603053898,0.151330206089,-0.0106172084828,-0.0817997037445,0.000209656458012,-0.14165081275,-0.0106266021291,0.0539771903992,-0.0211960391908,0.573844257493,0.818949850803,0.00215798819247,0.0,0.818908829264,-0.573784256666,-0.0118618319137,0.0,-0.00847618901799,0.00857420479131,-0.999927315974,0.0,0.654636878442,0.251853307089,0.303466442771,1.0,-0.01684,-0.0221325714286,0.843
0.459825230042,0.508473309738,-0.124076972067,-1.41759350782,0.0757460204112,1.91681941623,0.151013812689,-0.0132005250791,-0.0883554619437,0.00268293807691,-0.139399124864,-0.0111753964452,0.0465198012281,-0.0210437550553,0.573824706647,0.818963632028,0.00212658367458,0.0,0.818922215841,-0.573764848168,-0.0118764603346,0.0,-0.00850639390654,0.00855667772504,-0.999927209615,0.0,0.654355353353,0.251505629458,0.303462421132,1.0,-0.01716,-0.0225531428571,0.859
0.459614400176,0.506938770809,-0.124079814668,-1.41999505701,0.0755890620013,1.917685438,0.150684297577,-0.0132011351093,-0.0884551969848,0.000940797702694,-0.135321125372,-0.00132484118784,0.0459155718117,-0.0160252696572,0.573811295685,0.818973045259,0.00212013792118,0.0,0.818931569582,-0.573751489338,-0.0118768567061,0.0,-0.00851055706938,0.00855148705331,-0.999927218595,0.0,0.654056074555,0.251134751006,0.303467706307,1.0,-0.0175,-0.023,0.876
0.459397132359,0.505346754494,-0.124088675451,-1.42245191417,0.0754352500827,1.91862005729,0.150356439201,-0.0132981502218,-0.0939037234797,-4.96278461307e-05,-0.146943783315,-0.00854451121156,0.0576249159734,-0.017786139333,0.57381246893,0.818972080791,0.00217446259975,0.0,0.818931377993,-0.573752512446,-0.0118405870409,0.0,-0.0084496695092,0.00857517723549,-0.999927532084,0.0,0.653760567443,0.250755502418,0.303492418064,1.0,-0.01784,-0.0234468571429,0.893
0.459186197976,0.503784250069,-0.124092199615,-1.42477870726,0.0752897627209,1.91951358365,0.150022496883,-0.0119644213653,-0.0931575940344,0.000294026652093,-0.142369061646,-0.0097161759159,0.061961887938,-0.0229453622012,0.573794721575,0.818984221836,0.00228227454782,0.0,0.818944976386,-0.573734405611,-0.0117772819831,0.0,-0.00833614918581,0.00862696560787,-0.999928039451,0.0,0.653483047713,0.250397180696,0.303554022927,1.0,-0.01816,-0.0238674285714,0.909
0.458915336119,0.501916695754,-0.124098611284,-1.42756476108,0.0751140941927,1.92054930708,0.149640863412,-0.0164588756354,-0.0989846130155,0.000407267615669,-0.144732097398,-0.00924000192406,0.0531753454673,-0.0133393391132,0.573803775814,0.818977601637,0.00237944935112,0.0,0.81893965946,-0.573743136608,-0.0117215297622,0.0,-0.00823463614035,0.0086746504911,-0.999928468045,0.0,0.65314772317,0.249952469103,0.303621804524,1.0,-0.01854,-0.0243668571429,0.928
0.458709420308,0.50039376834,-0.124101829813,-1.4298579302,0.07496711347,1.92134877201,0.149313373409,-0.0145060508469,-0.0988189793692,-0.000327711943748,-0.154442352898,-0.00840938753048,0.0569148421128,-0.0174791835162,0.573783420299,0.818991792347,0.00240365534739,0.0,0.818954127805,-0.573722655773,-0.0117131424221,0.0,-0.00821409412358,0.00868945768894,-0.999928508436,0.0,0.652855114187,0.249594782976,0.303662402963,1.0,-0.01884,-0.0247611428571,0.943
0.458511155005,0.499008094237,-0.124096065627,-1.4320026125,0.0748375711046,1.92214378159,0.149008924227,-0.0127581760153,-0.102114046763,0.00025669324081,-0.150333627572,-0.0094679328822,0.0599779124886,-0.0178207807873,0.573766546116,0.819003515855,0.00243689890769,0.0,0.818966201472,-0.573705575659,-0.0117055630564,0.0,-0.00818899247106,0.0087121660632,-0.999928516727,0.0,0.652588099216,0.249265651032,0.303676864257,1.0,-0.01912,-0.0251291428571,0.957
0.458204536026,0.497037075463,-0.124098029475,-1.43512258348,0.0746412332874,1.92328989307,0.148546795252,-0.0171248769333,-0.0988581917258,0.001027482801,-0.159311888016,-0.0148052548613,0.0532441619352,-0.027932425726,0.573745747483,0.819018103319,0.00243116887734,0.0,0.818980683758,-0.573684767816,-0.0117121180345,0.0,-0.00819786997997,0.00871102598006,-0.999928453918,0.0,0.652202239581,0.24876654446,0.303665392185,1.0,-0.01952,-0.0256548571429,0.977
0.457937928229,0.495375616174,-0.124101789535,-1.43782191276,0.0744735577514,1.92421419606,0.148153362711,-0.0197497620452,-0.0990113055853,-0.000217674177052,-0.157808357377,-0.0135175671423,0.0533813477554,-0.0208454009327,0.573735257111,0.819025733311,0.00233448551946,0.0,0.818986912884,-0.573674486428,-0.0117799426266,0.0,-0.00830900134067,0.00867064843721,-0.999927887576,0.0,0.651853066585,0.248328148795,0.303618537806,1.0,-0.01986,-0.0261017142857,0.994
0.457669548335,0.493775153863,-0.124110075857,-1.44042158355,0.0743074165435,1.92514621212,0.147789189165,-0.0194433663476,-0.105731386596,-0.000717480070383,-0.166938787419,-0.0158704880426,0.0607410929084,-0.0209873213881,0.573748519976,0.819016619213,0.00227160275888,0.0,0.818976962689,-0.573687969359,-0.0118150453977,0.0,-0.00837368858296,0.00863942147391,-0.999927618248,0.0,0.651528127983,0.247897802354,0.303576838064,1.0,-0.0211371428571,-0.027780244898,1.01
0.457388172803,0.491902928592,-0.124122063715,-1.44340897329,0.0741191225401,1.92626285246,0.147366430604,-0.0171072423317,-0.115481829939,0.00453702528153,-0.185724779225,-0.00759357324345,0.0674155769026,-0.0250031423014,0.573746723243,0.819017896019,0.00226505420311,0.0,0.818978180627,-0.573686225318,-0.0118153052517,0.0,-0.00837767734836,0.00863418887743,-0.999927630034,0.0,0.651135171456,0.247389949015,0.303552996296,1.0,-0.0234514285714,-0.030821877551,1.028
0.457106086728,0.490114450431,-0.124129523325,-1.44630697967,0.0739453361567,1.92726914191,0.146949657632,-0.01861345188,-0.118854708622,0.000352458360502,-0.202749872553,-0.0155410190094,0.0653294079179,-0.0235110692936,0.573732810585,0.819027871132,0.00218065776672,0.0,0.818986882258,-0.573672467308,-0.0118799765855,0.0,-0.0084792118616,0.00860202807739,-0.999927051379,0.0,0.650780151293,0.246955939377,0.303507397502,1.0,-0.0252514285714,-0.0331875918367,1.042
0.456704028866,0.487574087924,-0.124158501414,-1.45028245587,0.0736990593406,1.92874470483,0.14637453686,-0.0231372879187,-0.141236153593,-0.00128036986505,-0.215204667762,-0.013485620064,0.0773865147465,-0.0366771037403,0.573742888311,0.819020739009,0.00220773338188,0.0,0.818980158589,-0.573682493031,-0.0118593393244,0.0,-0.00844666949175,0.00861246724935,-0.999927236944,0.0,0.650290510363,0.246300202066,0.303509677353,1.0,-0.0276942857143,-0.0363982040816,1.061
0.456274846257,0.484935230207,-0.124176251017,-1.45428408937,0.0734569134019,1.93027345945,0.145776669967,-0.0289766916805,-0.15819552878,-0.00137257839691,-0.228454200017,-0.00971297381486,0.0890913634252,-0.0367113533041,0.573749969348,0.819015389204,0.00234772688736,0.0,0.818976662314,-0.573689064529,-0.0117826451532,0.0,-0.0083034623316,0.00868319300411,-0.999927824732,0.0,0.649808864878,0.245636084687,0.303570460679,1.0,-0.0300085714286,-0.0394398367347,1.079
0.455861033167,0.482443029734,-0.124210986259,-1.45815632808,0.0732135999667,1.93158280873,0.145181417529,-0.0307795696095,-0.160582606924,-0.00689171032208,-0.252467430661,-0.0154380518698,0.0877012309916,-0.0407367511073,0.573749901983,0.819015614895,0.00228460808886,0.0,0.818975979209,-0.573689147655,-0.0118259986018,0.0,-0.00837518389761,0.00865637134728,-0.999927459134,0.0,0.649308403069,0.244971108392,0.30357110947,1.0,-0.0320657142857,-0.0421435102041,1.095
0.455452053551,0.479953595849,-0.124245118146,-1.46205870815,0.0729719882365,1.93298681591,0.144615935291,-0.02726475138,-0.170541067216,-0.00363861636028,-0.264023023912,-0.0233517847749,0.0929833297953,-0.0382622225596,0.573768138349,0.819002865034,0.00227538629232,0.0,0.818963140262,-0.573707449411,-0.0118272686848,0.0,-0.0083813222386,0.00864973397247,-0.999927465139,0.0,0.648785037276,0.244267784981,0.303562458191,1.0,-0.0341228571429,-0.0448471836735,1.111
0.45492023606,0.476763955068,-0.124267633965,-1.46690632046,0.0726785733477,1.93477353247,0.143910525576,-0.0306129533131,-0.183411534702,-0.000295678369492,-0.272878976754,-0.0181049527551,0.103171079319,-0.03766905448,0.573801266473,0.818979350005,0.0023828050019,0.0,0.818940916336,-0.573740051802,-0.0117845411878,0.0,-0.00828434471615,0.00871352893248,-0.999927719411,0.0,0.648211188192,0.243497000882,0.30361952838,1.0,-0.0363085714286,-0.0477198367347,1.128
0.45438096852,0.473591599879,-0.12429033582,-1.47179705134,0.0723768137338,1.93655414729,0.143207646526,-0.0348154655464,-0.186715782994,0.000999456157509,-0.290591680808,-0.0178811288236,0.103564770345,-0.0416906657658,0.573837386954,0.818953889229,0.00243465616984,0.0,0.818916059,-0.573775898668,-0.0117666189599,0.0,-0.00823952996497,0.00874607330187,-0.999927805568,0.0,0.647592764499,0.242669805563,0.30364146946,1.0,-0.0384942857143,-0.0505924897959,1.145
0.453858259779,0.470439484429,-0.124294648815,-1.47665281561,0.0720734662937,1.93824845001,0.142469076452,-0.0348339754029,-0.199706305921,0.00243296716705,-0.304799248743,-0.0174511567962,0.111966484761,-0.0515379323259,0.573812899275,0.818971054594,0.00243213159655,0.0,0.818932951296,-0.573751168713,-0.011796803995,0.0,-0.00826596180802,0.00876107968678,-0.999927456048,0.0,0.646952927325,0.241862754114,0.303655651462,1.0,-0.0405514285714,-0.0532961632653,1.161
0.453270379961,0.466892727359,-0.124298901672,-1.4819517198,0.0717238080993,1.94029459863,0.141613072925,-0.035446412981,-0.209625566528,0.00156992566024,-0.321872122209,-0.0230538795746,0.121739902255,-0.0469420194457,0.573752635923,0.819012529333,0.00267141694365,0.0,0.818977754322,-0.573690286728,-0.0116464475255,0.0,-0.00800617463695,0.00887018179477,-0.999928607973,0.0,0.646297402011,0.240982949166,0.303759018126,1.0,-0.0427371428571,-0.0561688163265,1.178
0.452606640125,0.462981364342,-0.124304286802,-1.48801276942,0.0713276919682,1.94235925488,0.140693568432,-0.0436172946443,-0.220197224476,0.00153190644581,-0.343200676507,-0.0217461224555,0.119854896152,-0.0520924317027,0.573722877838,0.819033608242,0.00259902234778,0.0,0.818997642983,-0.573660511878,-0.0117142989903,0.0,-0.00810360409912,0.00884952488624,-0.999928006163,0.0,0.645480132237,0.23996377434,0.303749887537,1.0,-0.0450514285714,-0.0592104489796,1.196
0.452015326609,0.459605497544,-0.124315941723,-1.49325538551,0.0709741370756,1.94419026327,0.139928929876,-0.0400159905556,-0.232271956848,0.00126548449271,-0.354462527504,-0.0209303893869,0.122857553225,-0.0524552045479,0.573733118627,0.819026582531,0.00255197960731,0.0,0.818990000719,-0.57367091534,-0.0117391020487,0.0,-0.00815079708381,0.00882532732363,-0.999927836448,0.0,0.644736075969,0.239009941679,0.303736494614,1.0,-0.0471085714286,-0.061914122449,1.212
0.451304040279,0.455704215264,-0.124326939991,-1.49942025363,0.0705540934979,1.94639416882,0.138965680901,-0.0401129456356,-0.229893470084,-0.00153127434637,-0.369757401678,-0.025912954115,0.121748404664,-0.0541416328927,0.573719887509,0.81903605917,0.00248422178327,0.0,0.818998508462,-0.573657840626,-0.0117843932967,0.0,-0.00822690813506,0.0087956840759,-0.999927474332,0.0,0.643918946687,0.237941631069,0.30367408339,1.0,-0.0492942857143,-0.0647867755102,1.229
0.450413220059,0.450763545512,-0.124396313013,-1.50690234362,0.0700319327481,1.94912112074,0.137773598578,-0.038672756965,-0.247500774457,-0.00515433954404,-0.378318755713,-0.0303257522689,0.152579428509,-0.0595688219491,0.573708776976,0.819043439764,0.00261340806789,0.0,0.819008131355,-0.573646876522,-0.0116485506862,0.0,-0.0080416504738,0.00882344810461,-0.999928736771,0.0,0.643006985085,0.236681498474,0.303747918769,1.0,-0.0517371428571,-0.0679973877551,1.248
0.44975669548,0.447170715838,-0.124428839155,-1.51237027164,0.0696778962911,1.95100707227,0.136965418309,-0.0522829061314,-0.252616825637,-0.00288312963098,-0.395513913661,-0.0325000257171,0.129287810054,-0.0604734502379,0.573757946731,0.819008972414,0.00262079550762,0.0,0.818973632844,-0.573695874831,-0.0116609951696,0.0,-0.00804707503085,0.00883712120516,-0.999928572385,0.0,0.642271626745,0.235715543516,0.303772999147,1.0,-0.0535371428571,-0.0703631020408,1.262
0.448925163848,0.442701312552,-0.124451554789,-1.51930736377,0.0691975012465,1.95333670485,0.135899237789,-0.0486067039853,-0.266677440682,-0.00354863047214,-0.409570252629,-0.035225745348,0.145359025003,-0.0706094269704,0.573758966419,0.819008665323,0.00249027730125,0.0,0.818971506069,-0.573697226968,-0.0117435478739,0.0,-0.00818955996266,0.00877760103818,-0.999927939817,0.0,0.641313125515,0.234493397288,0.303733978823,1.0,-0.0557228571429,-0.073235755102,1.279
0.448005373514,0.437838141494,-0.124451843874,-1.52683194381,0.0686950142748,1.95597405484,0.134673858159,-0.0516025748497,-0.278664562504,0.000500156617189,-0.42016752876,-0.028263401966,0.152618785628,-0.0627913817743,0.573702497751,0.819048291609,0.00246718205965,0.0,0.81901059793,-0.573640600576,-0.0117834099633,0.0,-0.00823606457115,0.00878098904312,-0.99992752811,0.0,0.64028428098,0.233182705265,0.303705585702,1.0,-0.0580371428571,-0.0762773877551,1.297
0.447120102524,0.433270484185,-0.124468263608,-1.53359440493,0.0682369376967,1.95846619005,0.133576010722,-0.0551573858988,-0.286915850757,-0.000440097951515,-0.428830711012,-0.0258529593887,0.160154009739,-0.0676854987901,0.573709152036,0.819042867006,0.00270883326001,0.0,0.819008477177,-0.573646567978,-0.0116394270217,0.0,-0.0079794304041,0.00889637449279,-0.999928589056,0.0,0.639398158263,0.23196863891,0.303819681215,1.0,-0.0600942857143,-0.0789810612245,1.313
0.446140497579,0.428403194201,-0.124514891976,-1.54117102745,0.0676726723582,1.96102143632,0.132379127245,-0.0591638151458,-0.286928214573,-0.000947734863515,-0.447341317346,-0.0330494800806,0.148268760565,-0.0741509087719,0.57373350639,0.819026350114,0.00253936326266,0.0,0.818989987172,-0.573671762926,-0.0116985569212,0.0,-0.00812482180513,0.00879173643616,-0.999928343753,0.0,0.63834695458,0.230575716677,0.303752557753,1.0,-0.06228,-0.0818537142857,1.33
0.445174931782,0.423599827713,-0.124573891228,-1.54853314309,0.0671385438104,1.96345719408,0.131135112318,-0.061514996594,-0.304287051161,-0.00439170486806,-0.461538435292,-0.0246349105557,0.153649334367,-0.0797210186672,0.573711945824,0.819041847209,0.0024088671747,0.0,0.819003869475,-0.573650768171,-0.0117560564823,0.0,-0.00824701249253,0.00871762941821,-0.999927992269,0.0,0.637313340092,0.229207798717,0.303728009998,1.0,-0.0643371428571,-0.0845573877551,1.346
0.444106045675,0.418371320389,-0.12462007317,-1.5564452647,0.0665873616877,1.96620877204,0.129888783401,-0.0582872665629,-0.309461278167,9.42147715694e-05,-0.462814168222,-0.0328902418951,0.176610533974,-0.0778856311216,0.573779049884,0.818994720129,0.00244892150283,0.0,0.818957316841,-0.57371777304,-0.0117293218813,0.0,-0.00820142080328,0.00873576953858,-0.999928208937,0.0,0.636222526822,0.227743265154,0.303751179561,1.0,-0.0665228571429,-0.0874300408163,1.363
0.443049987545,0.413306145735,-0.124631887449,-1.5639583025,0.0660782964589,1.96898175574,0.128610474882,-0.0714785635152,-0.312297130817,0.00114012402872,-0.472097717324,-0.0303259224425,0.160579515108,-0.0909677401462,0.573775697995,0.818996220966,0.00271759730057,0.0,0.818962386861,-0.573713569629,-0.0115799754792,0.0,-0.00792498628875,0.00887008926184,-0.999929255552,0.0,0.635212917805,0.226361345067,0.303847448924,1.0,-0.06858,-0.0901337142857,1.379
0.441819102046,0.407521461294,-0.124669466665,-1.57286352975,0.0654349632622,1.97185976913,0.127139584165,-0.0698335923986,-0.330120671638,-6.49141615204e-05,-0.504828536778,-0.0380351482525,0.158765021241,-0.0796756171405,0.573787931446,0.818988356797,0.0024956080084,0.0,0.818951391567,-0.573726302677,-0.0117258163045,0.0,-0.00817166840164,0.0087720824229,-0.99992813462,0.0,0.633916896633,0.224691795335,0.303771827171,1.0,-0.0708942857143,-0.0931753469388,1.397
0.440675366195,0.402248724074,-0.124729557029,-1.58097197043,0.0648764266526,1.97457912114,0.125790384827,-0.0754927266467,-0.333573212735,-0.00301097079265,-0.510852865904,-0.0447546914859,0.170255872423,-0.0884332630617,0.573833330987,0.818956867343,0.00238842641613,0.0,0.818918280745,-0.573771853216,-0.0118091836811,0.0,-0.00830096004154,0.00873259739193,-0.999927415268,0.0,0.632753617764,0.223155325313,0.303709003414,1.0,-0.0729514285714,-0.0958790204082,1.413
0.439323636381,0.396034099216,-0.124744192469,-1.59002955398,0.0642029343971,1.9778353581,0.124223946278,-0.0749113949459,-0.345959983305,0.000100917790612,-0.50933133171,-0.0391648902175,0.172356016932,-0.0865879999459,0.573835034381,0.818954680178,0.00270777283081,0.0,0.818920672925,-0.57377288028,-0.0115913852581,0.0,-0.00793932544717,0.00886916486573,-0.999929150003,0.0,0.631500379383,0.221436970422,0.303864470995,1.0,-0.0752657142857,-0.0989206530612,1.431
0.438246403587,0.391179317302,-0.124763991778,-1.59740626375,0.0636612069833,1.98024024261,0.122993719636,-0.0789891857537,-0.344625739579,-0.00259179594,-0.530582948709,-0.0367948607312,0.167121483604,-0.0865617832905,0.573856537263,0.81893997381,0.00259631244913,0.0,0.818904332397,-0.57379455636,-0.0116725478683,0.0,-0.00806952145895,0.00882466931583,-0.999928501461,0.0,0.630409350193,0.220034233508,0.303825514701,1.0,-0.0770657142857,-0.101286367347,1.445
0.436747621753,0.384447370345,-0.124783559346,-1.6076009757,0.062892368214,1.98355491597,0.121158141659,-0.0774297052982,-0.36187425635,5.49214501943e-06,-0.526592845076,-0.0351295111326,0.179922874959,-0.102200091446,0.573763667275,0.819005497975,0.00244853081002,0.0,0.818967755892,-0.573702038615,-0.0117699872236,0.0,-0.00823511568143,0.00875862744666,-0.999927732046,0.0,0.628885448092,0.218095398963,0.303776076412,1.0,-0.0795085714286,-0.104496979592,1.464
0.435362351095,0.378205945616,-0.124781087127,-1.61671902787,0.0622589200809,1.98674851521,0.119570902002,-0.0816469903278,-0.354931124856,-8.88156960006e-05,-0.540741989851,-0.0362100339408,0.18615993795,-0.0920077023322,0.573758663087,0.819008138639,0.0027225496828,0.0,0.818973756594,-0.573695835601,-0.0116542321182,0.0,-0.0079831492395,0.00891658505256,-0.999928379355,0.0,0.627561649018,0.21637450948,0.303887406064,1.0,-0.0816942857143,-0.107369632653,1.481
0.43387602303,0.371910040808,-0.124814038688,-1.62621887159,0.0615012303807,1.98982011783,0.117867308994,-0.092631729937,-0.374727926577,-0.00555780569403,-0.561193553051,-0.0525609390461,0.17838111274,-0.0916707506934,0.573733774762,0.819026070713,0.00256867506279,0.0,0.818989824751,-0.573671640011,-0.0117159422489,0.0,-0.00812224248721,0.00882572043333,-0.999928065331,0.0,0.626130072552,0.21450590816,0.30383529793,1.0,-0.08388,-0.110242285714,1.498
0.432444400606,0.365829770132,-0.124867173946,-1.63522079394,0.060811801316,1.99275050039,0.116336479011,-0.088626203643,-0.382957302391,-0.0027646919307,-0.545975323837,-0.0477887924772,0.190875071509,-0.0915783051058,0.573816940315,0.818967864185,0.00255016499944,0.0,0.818931412771,-0.573754899741,-0.011721906918,0.0,-0.00813685206887,0.00881480870052,-0.999928042804,0.0,0.624773247974,0.212719611649,0.303854179669,1.0,-0.0859371428571,-0.112945959184,1.514
0.430859751627,0.359241763027,-0.124890448951,-1.64485567529,0.0600651951453,1.9960752049,0.114488874832,-0.0952598843387,-0.37937036618,-0.00190967656523,-0.575672698222,-0.041551749749,0.185799640125,-0.112258243745,0.573742596103,0.819019293928,0.00275254271909,0.0,0.818985786255,-0.573680213299,-0.0115776371706,0.0,-0.00790338109117,0.00889704826572,-0.999929187043,0.0,0.623349234139,0.210811339573,0.303932063762,1.0,-0.0881228571428,-0.115818612245,1.531
0.429191127464,0.352603609543,-0.124924732154,-1.6548616276,0.0593217963023,1.99920128626,0.112675580543,-0.100852264634,-0.39288544233,-0.00310033121048,-0.59259391713,-0.0491602039036,0.17980284156,-0.112652384429,0.573779673757,0.818993980794,0.0025480009435,0.0,0.818957221776,-0.573717343272,-0.0117569481798,0.0,-0.00816719470364,0.008832771723,-0.999927636919,0.0,0.621786035493,0.208798577688,0.303840376736,1.0,-0.0903085714286,-0.118691265306,1.548
0.427567568665,0.346162713454,-0.124987143346,-1.66422653569,0.0586277385852,2.00230919099,0.110871146764,-0.094755290934,-0.41008267963,-0.00391487110057,-0.586121543223,-0.042510415033,0.20799681913,-0.116402138475,0.573794370687,0.818983214679,0.0026946510108,0.0,0.818948290966,-0.57373143579,-0.011691159534,0.0,-0.00802901200844,0.00891527301408,-0.999928023846,0.0,0.620367781306,0.206878180922,0.303909343864,1.0,-0.0923657142857,-0.121394938776,1.564
0.425678441141,0.338823127937,-0.124993590336,-1.67495057187,0.0577701660423,2.00577607979,0.108875841999,-0.108750290512,-0.405744856079,0.00165801639845,-0.609083583485,-0.0489715037514,0.184309462374,-0.117844752729,0.57381266319,0.818970258942,0.00273668264772,0.0,0.818935884974,-0.573749583923,-0.0116695394593,0.0,-0.00798698899659,0.00893746921535,-0.999928162245,0.0,0.618699806129,0.204691453935,0.303942235734,1.0,-0.09468,-0.124436571429,1.582
0.423867025099,0.331808948248,-0.125005110416,-1.6854053347,0.0569076800905,2.00897006051,0.106887741645,-0.104645824316,-0.416842463647,0.00109876793587,-0.605798379479,-0.0522669210871,0.187487815551,-0.113207939851,0.573755110769,0.819011341582,0.00249842500678,0.0,0.818973623516,-0.57369262948,-0.0118202269949,0.0,-0.00824773075155,0.00882822980042,-0.999927015985,0.0,0.6170075644,0.202566911965,0.303853803444,1.0,-0.0968657142857,-0.12730922449,1.599
0.422220318508,0.3253986472,-0.124996223396,-1.69446953892,0.0561941001453,2.01201284364,0.105059595576,-0.113140636345,-0.430754943078,0.000842885631033,-0.61159563042,-0.0524781761001,0.202098385793,-0.124702663209,0.573672900117,0.819067907622,0.00281305466635,0.0,0.819034419116,-0.573609457805,-0.0116429000183,0.0,-0.00792288353478,0.00898337777174,-0.999928260847,0.0,0.615598433685,0.200720366521,0.304002231929,1.0,-0.0987942857143,-0.129843918367,1.614
0.420014850146,0.317303436503,-0.125034153452,-1.70635267038,0.0552381064498,2.0157314661,0.102784175114,-0.113641909204,-0.428406060114,0.000411879609953,-0.627672970165,-0.0477626391609,0.185051622843,-0.122830372407,0.573722413384,0.819033503074,0.0027313226907,0.0,0.818998715576,-0.573658980135,-0.0117143201793,0.0,-0.00802772746205,0.00895789028707,-0.99992765328,0.0,0.613684411093,0.198228933612,0.30396017856,1.0,-0.101237142857,-0.133054530612,1.633
0.418112420099,0.310300398396,-0.125094078004,-1.71641961336,0.0543787937173,2.01888709094,0.100675564641,-0.117844352916,-0.444953200153,-0.00158519409435,-0.628271219652,-0.0690885252541,0.205574512691,-0.127943838064,0.573638312241,0.819092302247,0.00276297511111,0.0,0.819058239313,-0.573575130699,-0.0116583428413,0.0,-0.0079646384118,0.00895088197302,-0.999928220547,0.0,0.612061006485,0.196084684178,0.304004949922,1.0,-0.103294285714,-0.135758204082,1.649
0.416117117609,0.303252826348,-0.12510864215,-1.7266037315,0.0535301863392,2.02208825088,0.0985731702832,-0.127794484118,-0.447674746076,-0.000815674893006,-0.645290653166,-0.0538974509519,0.18895071273,-0.128422604899,0.573599193138,0.819119602614,0.00279090437615,0.0,0.819085890342,-0.57353590771,-0.0116453300187,0.0,-0.00793838706106,0.00896591491999,-0.999928294619,0.0,0.610404091824,0.193911140063,0.304013430671,1.0,-0.105351428571,-0.138461877551,1.665
0.413632978965,0.29479427735,-0.125201112825,-1.738961937,0.0525332511598,2.02573983186,0.0961241452664,-0.130358405892,-0.445450600218,-0.00633432278722,-0.637371905456,-0.0490001620257,0.205139128388,-0.143071320317,0.573744275864,0.819018697542,0.00257408039589,0.0,0.81898152688,-0.573681040534,-0.0118350860679,0.0,-0.00821661385202,0.00889860850457,-0.999926648322,0.0,0.608341751816,0.191193978783,0.30392827049,1.0,-0.107794285714,-0.141672489796,1.684
0.410817839271,0.285170101786,-0.125274396956,-1.75253727407,0.0513851279525,2.03007693549,0.0932297966565,-0.136214117282,-0.458573766934,-4.15107728761e-05,-0.666040203521,-0.0619462715211,0.182857722147,-0.130532868424,0.573740990179,0.819020153223,0.00283049532702,0.0,0.818986731619,-0.573677298772,-0.0116549219824,0.0,-0.00792197759705,0.00900521797374,-0.999928071573,0.0,0.606017603952,0.18806202724,0.304040505302,1.0,-0.110622857143,-0.145390040816,1.706
0.408866231687,0.278747394308,-0.125297584746,-1.76189963534,0.0505558903726,2.03273607783,0.0912228375921,-0.14559355893,-0.463520534332,-0.00013509922123,-0.67438423482,-0.0621750304967,0.186727455499,-0.129859411086,0.573710772647,0.819042112402,0.00259120851846,0.0,0.819005271658,-0.57364759369,-0.0118131347186,0.0,-0.00818917194962,0.00889970743035,-0.999926863661,0.0,0.604509986806,0.186135597317,0.303955970399,1.0,-0.112294285714,-0.14758677551,1.719
0.406855456198,0.272134524863,-0.125373666111,-1.77109610676,0.0497568509344,2.03564333879,0.0892330597817,-0.142753829313,-0.478901205164,-0.00559272055013,-0.651504782182,-0.0566197668202,0.217406344351,-0.147792131137,0.573773268617,0.818997563307,0.00282390133389,0.0,0.818964227324,-0.573709789995,-0.0116369295366,0.0,-0.0079106693985,0.00898980635244,-0.999928299775,0.0,0.602996151956,0.184046275997,0.304069638281,1.0,-0.114094285714,-0.149952489796,1.733
0.404169432787,0.263647061791,-0.12546928284,-1.7831766365,0.0487128864757,2.03922829789,0.0865972118471,-0.149592296788,-0.473564362875,-0.00296493199892,-0.672741749691,-0.0631074375651,0.201074723245,-0.150180067989,0.573860580947,0.818936511481,0.00278759745048,0.0,0.818902597567,-0.573797094026,-0.0116695109716,0.0,-0.00795722649065,0.00897961602414,-0.999928021931,0.0,0.600936324716,0.181276412993,0.304056245576,1.0,-0.116408571429,-0.152994122449,1.751
0.401869527725,0.256474163713,-0.125559817653,-1.79333245518,0.0477822423341,2.04214918027,0.0843523099616,-0.153610466256,-0.493065422824,-0.00582323225741,-0.668055889926,-0.0587070037746,0.20172973778,-0.15839193819,0.573922200728,0.818893655002,0.00269002030362,0.0,0.818858604807,-0.573859192116,-0.0117029850764,0.0,-0.0080399621396,0.00891952095126,-0.999927897978,0.0,0.599175682906,0.178916700819,0.304045411317,1.0,-0.118337142857,-0.155528816327,1.766
0.399073474361,0.247746260472,-0.125557427624,-1.80557295448,0.0466752940064,2.0458152383,0.0815671532623,-0.154955791318,-0.479430715463,0.000375661779259,-0.68642484102,-0.0513969699336,0.196047500788,-0.155783155267,0.573856817297,0.818939169917,0.00278138789747,0.0,0.818905400406,-0.573793606028,-0.0116443019235,0.0,-0.00794018523319,0.00896002811963,-0.999928333109,0.0,0.597042666345,0.176149277569,0.304075681517,1.0,-0.120651428571,-0.15857044898,1.784
0.396512002062,0.239931488855,-0.125570099268,-1.81665037058,0.0457158029006,2.0489064433,0.079008901257,-0.165401500527,-0.487260513639,-0.00194813794946,-0.687768244027,-0.0621348998649,0.195334227281,-0.166122366013,0.573807313526,0.818974304724,0.00264613821431,0.0,0.818937972264,-0.573743693031,-0.0118118242762,0.0,-0.00815553248203,0.00894490643649,-0.999926735286,0.0,0.595045126706,0.173625091724,0.304014268995,1.0,-0.122708571429,-0.161274122449,1.8
0.393894189087,0.231922720768,-0.125572185321,-1.8275369581,0.0447465995853,2.05222277196,0.0764867058392,-0.160293373179,-0.498254369927,0.000981843667085,-0.685504952517,-0.0626975849203,0.211068893095,-0.151253867116,0.57380635221,0.818973788478,0.00299179726314,0.0,0.818942204397,-0.57374181912,-0.0116076591747,0.0,-0.0077899993871,0.00911083302628,-0.999928151734,0.0,0.593140869824,0.171118764473,0.304163306373,1.0,-0.124765714286,-0.163977795918,1.816
0.390836860337,0.22291297139,-0.125567505554,-1.84027478655,0.043534093799,2.05564161881,0.0734302982977,-0.171321481145,-0.502016989194,-0.00167482483096,-0.720925717899,-0.0661794717436,0.183056962836,-0.173415580392,0.573663026482,0.81907519696,0.00270197573995,0.0,0.819039328219,-0.573598929329,-0.0118149906499,0.0,-0.00812767188503,0.00899102079402,-0.99992654855,0.0,0.590779924197,0.168172776977,0.304054597108,1.0,-0.12708,-0.167019428571,1.834
0.387811947383,0.21421364382,-0.125656632013,-1.85204793492,0.0424584913956,2.05910257087,0.0705627133694,-0.176727193942,-0.516534140886,-0.00442253264757,-0.692252385838,-0.0665092430657,0.202600909058,-0.175498307261,0.573738539912,0.819021287663,0.00299417346649,0.0,0.818989568368,-0.573673813747,-0.011627090242,0.0,-0.00780530578659,0.00912328226529,-0.999927918863,0.0,0.588687922158,0.165321542253,0.304187945163,1.0,-0.129265714286,-0.169892081633,1.851
0.384877940339,0.206021345126,-0.125693150277,-1.86342953501,0.0413847302078,2.0621672612,0.0677465391437,-0.183702717653,-0.511160182229,-0.001349038497,-0.710051672278,-0.0684592308087,0.175968675589,-0.17700461977,0.573717628599,0.819036375813,0.0028713465712,0.0,0.819002663905,-0.573652864392,-0.0117377421991,0.0,-0.00796663502815,0.00908596504336,-0.999926986317,0.0,0.58657000821,0.162584116539,0.304139866181,1.0,-0.131322857143,-0.172595755102,1.867
0.381677883268,0.197143507567,-0.125759081362,-1.87549141375,0.0402164620934,2.06544038816,0.0646732541396,-0.190678993591,-0.538025471407,-0.00263865143039,-0.698882063192,-0.0695567208718,0.20281037521,-0.189235007922,0.573693703727,0.819053000631,0.00290918573301,0.0,0.819019837159,-0.573628875878,-0.0117117889309,0.0,-0.00792393548519,0.0091018356329,-0.999927181266,0.0,0.584327391474,0.159632250172,0.304188979963,1.0,-0.133508571429,-0.175468408163,1.884
0.378342764074,0.188282702091,-0.125883879343,-1.88767361763,0.0390803105017,2.0687789685,0.0615433033502,-0.199516825123,-0.521590046713,-0.0057082726378,-0.735950798189,-0.0619278542742,0.183439041017,-0.189827431518,0.573783816533,0.818989882158,0.00290718232212,0.0,0.818956432855,-0.573718685595,-0.0117463945535,0.0,-0.00795242657936,0.0091209223676,-0.999926781163,0.0,0.582060060042,0.156584237923,0.304156525654,1.0,-0.135694285714,-0.178341061224,1.901
0.375079710059,0.179771999561,-0.126021614279,-1.8991514871,0.0379802105127,2.07178147245,0.0585164452915,-0.201322806122,-0.5366415812,-0.00786721837568,-0.70692220196,-0.0708169533202,0.18999695977,-0.193885424842,0.5738948777,0.818912016303,0.00291989806471,0.0,0.818878526362,-0.573829450947,-0.0117672082105,0.0,-0.00796093797133,0.00914435839841,-0.999926499387,0.0,0.57989328783,0.153641143338,0.304190144576,1.0,-0.137751428571,-0.181044734694,1.917
0.371580627727,0.170713358917,-0.126048698285,-1.91140468095,0.0366986961117,2.0750710612,0.0552815067131,-0.202065129508,-0.530182951086,-8.44570513616e-05,-0.739760475716,-0.0780587254526,0.184611371284,-0.198017616451,0.573871093808,0.818928654169,0.00292813488527,0.0,0.818895762631,-0.573806207038,-0.0117010089692,0.0,-0.00790226169838,0.00911288351702,-0.999927252161,0.0,0.577553813189,0.150570016994,0.304193005763,1.0,-0.139937142857,-0.183917387755,1.934
0.367984505525,0.161541228185,-0.12605896442,-1.92379156417,0.0354775575531,2.07819801933,0.0518506968602,-0.214968594973,-0.552405780196,6.88191322734e-05,-0.707786790764,-0.0723561649515,0.189079600799,-0.207570269816,0.57376408021,0.81900390563,0.00285126736714,0.0,0.818969407554,-0.573698784446,-0.0118135988078,0.0,-0.00803976973097,0.0091134948634,-0.99992615043,0.0,0.575120796526,0.147465625717,0.304163564768,1.0,-0.142122857143,-0.186790040816,1.951
0.36449650867,0.152772735425,-0.126092175675,-1.9353147449,0.0342547587812,2.0813200859,0.0486538363391,-0.222867964207,-0.540464114832,-0.00109779913763,-0.735977175449,-0.0763627477235,0.18829079068,-0.212591889871,0.573742634955,0.819018173902,0.00306048259748,0.0,0.818987184286,-0.573677537217,-0.0116112948912,0.0,-0.00775428071315,0.00916856747452,-0.999927901651,0.0,0.572752179958,0.144317391833,0.304259924596,1.0,-0.144308571429,-0.189662693878,1.968
0.360429423743,0.142874099317,-0.126147540266,-1.9486449541,0.032930567564,2.08444193794,0.0449335805515,-0.232306173322,-0.554201749562,-0.00339431031501,-0.717329730883,-0.0737915908207,0.176033680664,-0.204426922559,0.573771693662,0.818998593725,0.00284498331829,0.0,0.818963709307,-0.573706075053,-0.0118545006928,0.0,-0.00807679068683,0.00913189084849,-0.999925684249,0.0,0.570206257153,0.14106534145,0.304184108282,1.0,-0.146494285714,-0.192535346939,1.985
0.356488774146,0.13337324727,-0.126254320733,-1.96100488194,0.0316639367851,2.0876758736,0.0412723096093,-0.236386193667,-0.549684454136,-0.00818894426609,-0.743503365241,-0.0719098160417,0.181415079415,-0.221976790505,0.573768863857,0.818999579476,0.00311874767822,0.0,0.81896869434,-0.573702797769,-0.0116672372098,0.0,-0.00776637762677,0.00924863221705,-0.999927070431,0.0,0.567930048572,0.137985837668,0.304295459711,1.0,-0.148551428571,-0.195239020408,2.001
0.352647440532,0.124440802592,-0.126363253328,-1.97291879165,0.0303809513787,2.09040581365,0.0378179063429,-0.240965895118,-0.562230315389,-0.0061348883359,-0.746338706101,-0.0766913701345,0.165647987731,-0.210349498138,0.573836327765,0.818953181504,0.00288137865841,0.0,0.818918793236,-0.573770592681,-0.011834862081,0.0,-0.00803910239097,0.00915106511634,-0.999925812668,0.0,0.565333650928,0.134600879866,0.304212839845,1.0,-0.150737142857,-0.198111673469,2.018
0.348415201387,0.114720879217,-0.126491123062,-1.98536205097,0.029041932549,2.09353807333,0.0339788908054,-0.2510248434,-0.563574326304,-0.00497862270414,-0.729493329039,-0.0765817596857,0.176940443253,-0.227784700588,0.573890625531,0.818914081434,0.00316607930247,0.0,0.818884135321,-0.573824777545,-0.0116036415011,0.0,-0.00768575864444,0.00925205132215,-0.999927661714,0.0,0.562844692442,0.13118318136,0.304351043786,1.0,-0.152922857143,-0.200984326531,2.035
0.344098664826,0.105059975733,-0.126510540978,-1.99810067233,0.0276490209597,2.09638889096,0.0300639446229,-0.254410427495,-0.567579236252,-0.00385260826146,-0.762435696245,-0.08467942841,0.166135386094,-0.237746479016,0.573828915238,0.818958098663,0.002958981503,0.0,0.818924882037,-0.573763088683,-0.0117772045223,0.0,-0.00794743566942,0.00918146084546,-0.999926266803,0.0,0.560163968276,0.127765710149,0.304266607572,1.0,-0.155108571429,-0.203856979592,2.052
0.339994981773,0.0957729677685,-0.126520898626,-2.00985979594,0.0263625055529,2.09920317982,0.0262687421539,-0.2576371831,-0.579278825312,6.62288275522e-06,-0.732839709163,-0.0739612252958,0.177486889436,-0.235339186059,0.573700466431,0.819047148569,0.00320782455786,0.0,0.819017585218,-0.573634318499,-0.0116021827662,0.0,-0.00766276398968,0.00928362112625,-0.999927545589,0.0,0.557720159393,0.124587619642,0.304389598903,1.0,-0.157165714286,-0.206560653061,2.068
0.33546192604,0.0859673827662,-0.12656013724,-2.02270910926,0.02504059238,2.10196301413,0.0221601010877,-0.269152119316,-0.583915962268,-0.00418822023122,-0.773361737749,-0.0855384376087,0.153879917044,-0.25504817093,0.573673409184,0.819066799281,0.00302403895351,0.0,0.81903334308,-0.573606111044,-0.0118810436491,0.0,-0.0079969151354,0.00929280646384,-0.999924843724,0.0,0.554948211997,0.121098687395,0.30427458424,1.0,-0.159351428571,-0.209433306122,2.085
0.330474847419,0.0753341235248,-0.126685567983,-2.03595751171,0.0234592068011,2.10500923634,0.0176801999681,-0.279162798641,-0.592700871752,-0.00645915863191,-0.729809000951,-0.085160019856,0.165069394314,-0.248733441778,0.573662938881,0.819073152609,0.00327873922722,0.0,0.819044371967,-0.573596403975,-0.0115857238334,0.0,-0.00760902881257,0.00933191296278,-0.999927506413,0.0,0.552161140361,0.117300491077,0.304437023308,1.0,-0.161665714286,-0.212474938775,2.103
0.326180394714,0.0665370248668,-0.126815527915,-2.04733246132,0.0221982710316,2.10738297573,0.013883449746,-0.291862516922,-0.59107548793,-0.00839326188433,-0.767180652509,-0.0846030330626,0.143078889995,-0.251678499388,0.573749792703,0.819012955223,0.00311471527568,0.0,0.818981314212,-0.573682907046,-0.0117590831445,0.0,-0.00784413354676,0.0092978441387,-0.999926007094,0.0,0.549678412163,0.114051353517,0.304343328386,1.0,-0.163594285714,-0.215009632653,2.118
0.320829943225,0.0557466068997,-0.12696919288,-2.06071764274,0.0206263211946,2.11019923142,0.00913818758422,-0.292052987022,-0.61090601529,-0.00786925664236,-0.745695189457,-0.0853706785961,0.165936111254,-0.265054261232,0.573813805769,0.818967587775,0.00324859722054,0.0,0.818938140215,-0.573747009536,-0.0116378026547,0.0,-0.00766725784512,0.00933851179346,-0.999927000013,0.0,0.546770916696,0.110095632698,0.304448195448,1.0,-0.165908571429,-0.218051265306,2.136
0.315738364876,0.0456305210335,-0.127025819138,-2.07359250883,0.0192033420609,2.11281458615,0.00463422088863,-0.300090066135,-0.597628299509,-0.00476248789943,-0.768714888004,-0.0784010878805,0.147732534138,-0.26720702811,0.57382682138,0.818958813514,0.00316033761595,0.0,0.818927227796,-0.573759126824,-0.0118070682846,0.0,-0.00785638134216,0.00936347926232,-0.999925298474,0.0,0.543889985042,0.106416402148,0.304362875748,1.0,-0.168094285714,-0.220923918367,2.153
0.310807214601,0.0359024285413,-0.127053975685,-2.08553323066,0.017808075028,2.11521610548,0.000200927152515,-0.318057594911,-0.616723133736,-0.00139849354315,-0.75314508654,-0.0870206366581,0.156346210258,-0.287890676821,0.573732296253,0.819024482371,0.0033009717653,0.0,0.818994808265,-0.573664231877,-0.0117303026646,0.0,-0.00771390415225,0.00943371384972,-0.999925747606,0.0,0.541209856134,0.102931349223,0.304443199808,1.0,-0.16998,-0.223402285714,2.169
0.305075138036,0.0250460151146,-0.127146316604,-2.0990383552,0.0161269135677,2.11783823737,-0.00484352691339,-0.321735488704,-0.602727381629,-0.00839772927936,-0.739940046364,-0.0891535968078,0.149098977447,-0.281892690173,0.573715302295,0.819036713251,0.00321887571944,0.0,0.819006209041,-0.573647805022,-0.011737642304,0.0,-0.00776720852574,0.00937052461467,-0.999925929127,0.0,0.538139078145,0.0988978447724,0.304411829476,1.0,-0.16998,-0.223402285714,2.187
0.299202335663,0.0141359453531,-0.127327380884,-2.11225289195,0.0145163184429,2.12031445805,-0.00997644202688,-0.332557222022,-0.607199613576,-0.0116147545273,-0.724887066519,-0.0893714726074,0.145933744923,-0.289074290403,0.573823424974,0.81896051873,0.00333055770976,0.0,0.818931694872,-0.573755822707,-0.0116568411395,0.0,-0.00763571279864,0.00941664907684,-0.999926508605,0.0,0.535114753514,0.0948106297074,0.304493738002,1.0,-0.16998,-0.223402285714,2.205
0.294548237533,0.00580626031652,-0.127413552063,-2.12252153487,0.0133075131252,2.12211157695,-0.0140419155948,-0.330040247554,-0.602041413247,-0.00545250714855,-0.742166547173,-0.0797526504564,0.128875034555,-0.294011778904,0.57388013506,0.818921132694,0.00324282472264,0.0,0.818890341807,-0.573811810766,-0.0118051184297,0.0,-0.00780684013581,0.00943042236923,-0.999925057382,0.0,0.532706612854,0.0916485702684,0.304441604387,1.0,-0.16998,-0.223402285714,2.219
0.288885258352,-0.0043668228724,-0.127425229584,-2.13473770671,0.0118524383076,2.12429476741,-0.0190311931985,-0.335465549763,-0.610908069526,0.000613233676856,-0.699901419166,-0.0889910454869,0.132416247857,-0.301246306077,0.573829726926,0.818955927644,0.00337342183658,0.0,0.818926575866,-0.5737606425,-0.0117785974929,0.0,-0.00771076401189,0.00952167749832,-0.999924938071,0.0,0.529828181002,0.0879077925298,0.304496321039,1.0,-0.16998,-0.223402285714,2.236
0.282822437484,-0.015026520524,-0.127438640839,-2.14754682385,0.0101728009649,2.12655004818,-0.0243522015811,-0.335984551621,-0.591490793226,-0.00403588792297,-0.717381281474,-0.0921590332431,0.107696845614,-0.291479115875,0.573723313359,0.819030403142,0.00339195197076,0.0,0.819001900327,-0.573654935358,-0.0116897091727,0.0,-0.00762856410131,0.00948485640152,-0.99992591851,0.0,0.526777624256,0.0839429725397,0.304512570568,1.0,-0.16998,-0.223402285714,2.254
0.277293560901,-0.0244532430458,-0.127505874717,-2.15887067003,0.00875037090605,2.12824698958,-0.0292153056856,-0.34829282366,-0.589724808821,-0.00654388697931,-0.677243878177,-0.0931581789797,0.113312690459,-0.300674981071,0.573694403483,0.819051227799,0.00325031604023,0.0,0.819020032627,-0.573625472996,-0.0118638015603,0.0,-0.00785274834808,0.00946845280554,-0.99992433851,0.0,0.524002334953,0.0803593859723,0.304473667487,1.0,-0.16998,-0.223402285714,2.27
0.271243510729,-0.0344365876068,-0.127678741118,-2.17060348074,0.0071959180749,2.13026583027,-0.034358813656,-0.354886516721,-0.57551451243,-0.011946735665,-0.707028443282,-0.0879380792747,0.104684904211,-0.311688993491,0.573877860739,0.818922056124,0.0034079096777,0.0,0.818893822379,-0.573809486305,-0.0116759580416,0.0,-0.00760635511106,0.00949147274557,-0.999926024917,0.0,0.521187172747,0.0764653259264,0.304539584174,1.0,-0.16998,-0.223402285714,2.287
0.265226896223,-0.0443181949358,-0.127728834483,-2.18243176663,0.00581023391764,2.13192496345,-0.0396906631753,-0.354670956873,-0.577251549758,-0.0014532431315,-0.690213111198,-0.073465297158,0.0988951623725,-0.312374557843,0.573837569236,0.8189507964,0.00328391680932,0.0,0.818919000299,-0.573767242979,-0.0119820171299,0.0,-0.00792863122791,0.00956517761426,-0.999922819114,0.0,0.518209656629,0.0727036888312,0.304447526243,1.0,-0.16998,-0.223402285714,2.304
0.259471359184,-0.0536730671255,-0.127751084329,-2.19306028702,0.00433289494169,2.1336557412,-0.0446583772644,-0.364712996352,-0.573009282002,-0.000639723559637,-0.658270349137,-0.0975070618163,0.103117473172,-0.318035069058,0.573809167946,0.818969535524,0.00356168025554,0.0,0.81894302087,-0.573739960206,-0.0116418870015,0.0,-0.00749101672747,0.00959721945773,-0.999925886277,0.0,0.5155939957,0.0691734891778,0.304604951223,1.0,-0.16998,-0.223402285714,2.32
0.253264065182,-0.0634387235449,-0.127803936341,-2.20464174617,0.00284581411245,2.13514451676,-0.0501102131982,-0.363988268948,-0.569920701173,-0.000638862232897,-0.676400300087,-0.090092920597,0.0805140330586,-0.308730334542,0.573746103607,0.81901472616,0.00332172083467,0.0,0.818983709953,-0.573675998531,-0.0119280527572,0.0,-0.00786381074865,0.00956429318798,-0.99992333945,0.0,0.512436906378,0.0651729364423,0.304478631044,1.0,-0.16998,-0.223402285714,2.338
0.246543582602,-0.073821466477,-0.127952713549,-2.21643615372,0.00122863132764,2.13677087909,-0.055967261262,-0.379561191994,-0.570399737922,-0.013175122857,-0.646152989458,-0.0841494944537,0.0969192764713,-0.325196793109,0.573798778475,0.818977135617,0.00348712745403,0.0,0.818948934056,-0.573728903648,-0.011770107456,0.0,-0.0076389301522,0.00960963760746,-0.999924647967,0.0,0.509602617918,0.061328074933,0.304577179664,1.0,-0.16998,-0.223402285714,2.355
0.240822349725,-0.0823375401147,-0.128056471575,-2.22624710335,-4.35058158946e-05,2.13801789124,-0.0609314515045,-0.378575649882,-0.563192959237,-0.0026978006243,-0.657709273624,-0.0902409612444,0.0804793256564,-0.330198952549,0.57386979362,0.818927368054,0.00348894296018,0.0,0.818898572339,-0.573799126589,-0.0118506307262,0.0,-0.0077030017138,0.00965799536453,-0.999923690534,0.0,0.507050867635,0.0579370587996,0.30455249451,1.0,-0.16998,-0.223402285714,2.37
0.234039114108,-0.0925536526837,-0.128065818461,-2.23792392794,-0.00158385783541,2.13933725409,-0.0669140330095,-0.37461843593,-0.57275752542,-0.00395286765487,-0.623687860005,-0.0844159958084,0.0775642765276,-0.336808421911,0.573753165605,0.819009354301,0.00342482506752,0.0,0.818978793444,-0.573681591186,-0.0119964463598,0.0,-0.00786059403357,0.00968804470138,-0.999922173397,0.0,0.503938914493,0.054012365879,0.304520147355,1.0,-0.16998,-0.223402285714,2.388
0.227417632935,-0.102166535681,-0.128121922731,-2.24863690871,-0.0031352405825,2.14064760166,-0.0726656803213,-0.387066193703,-0.559016921648,-0.00193145779265,-0.631823688368,-0.0932523989768,0.063000764482,-0.339294717894,0.573721281042,0.819031232099,0.00353262335743,0.0,0.81900306918,-0.573650564887,-0.0118215472575,0.0,-0.00765587243039,0.00967568889547,-0.999923881434,0.0,0.501103491072,0.0502195428909,0.304589670831,1.0,-0.16998,-0.223402285714,2.405
0.221079367842,-0.111135050928,-0.128276081289,-2.25883354514,-0.00453270018312,2.14164154299,-0.0781365658424,-0.401748625669,-0.556916534644,-0.0135453540804,-0.633918414994,-0.0979483682403,0.0593604679141,-0.34972076111,0.57382875581,0.818956520193,0.00339469291217,0.0,0.818925483372,-0.573757181467,-0.0120206613866,0.0,-0.00789682162065,0.00967798803274,-0.999921985335,0.0,0.498320710199,0.0465888643931,0.304516273903,1.0,-0.16998,-0.223402285714,2.421
0.21425283016,-0.120703210958,-0.128384670874,-2.26923200838,-0.00602789034436,2.14280852308,-0.0840664902722,-0.399328065815,-0.561764920401,-0.000547818795521,-0.606920348529,-0.08141112519,0.0793185689728,-0.355084414129,0.573865265363,0.818929951508,0.00362472531774,0.0,0.818903008432,-0.573794243238,-0.01178032718,0.0,-0.00756756194464,0.00972880636032,-0.999924038281,0.0,0.495509699118,0.0427713600711,0.304636930688,1.0,-0.16998,-0.223402285714,2.438
0.207418318658,-0.130083993872,-0.128412973339,-2.27968027006,-0.00744390512325,2.14373047727,-0.0900959305758,-0.409928954844,-0.552209329276,-0.000723037753471,-0.615934795217,-0.0931983660397,0.0467687336119,-0.35257129569,0.573784560599,0.818986724678,0.00357347451942,0.0,0.818958149971,-0.573712497979,-0.0119274959883,0.0,-0.00771846248435,0.00977052723899,-0.999922478062,0.0,0.492587481669,0.0390394909536,0.304593595529,1.0,-0.16998,-0.223402285714,2.455
0.200833844496,-0.138918641549,-0.128504742953,-2.28940616759,-0.00887434507349,2.14453967187,-0.0958577324236,-0.405229751673,-0.55479366452,-0.00341973434171,-0.60311116525,-0.0806281912024,0.0565379077547,-0.362262517929,0.573761218347,0.81900336117,0.00350793588687,0.0,0.81897375163,-0.573689170425,-0.0119781792901,0.0,-0.00779785440332,0.00974570979194,-0.99992210427,0.0,0.489842367019,0.0354531498948,0.304573131745,1.0,-0.16998,-0.223402285714,2.471
0.193733715027,-0.148300696441,-0.128656391813,-2.2994188245,-0.0102881677406,2.14550811581,-0.102038307712,-0.422682656209,-0.545924631609,-0.00952745726723,-0.591336482468,-0.0790853706497,0.0551421432459,-0.367127775997,0.573864516473,0.818929774704,0.00377991235706,0.0,0.818904425436,-0.573792424673,-0.0117703989208,0.0,-0.00747038888808,0.00985019088901,-0.999923580595,0.0,0.486860901272,0.0314034118319,0.304676993448,1.0,-0.16998,-0.223402285714,2.489
0.186101770474,-0.158115084348,-0.128768102175,-2.31011969346,-0.0119109886677,2.14612766128,-0.108738381388,-0.414739496256,-0.542133103281,-0.00318952129385,-0.596040068003,-0.088968939631,0.0362515294556,-0.373070385735,0.573816630377,0.818964199284,0.00358634831855,0.0,0.818935650274,-0.573744336726,-0.011940841084,0.0,-0.00772162298502,0.00978903015622,-0.999922272693,0.0,0.483903099207,0.027585607433,0.304617514825,1.0,-0.16998,-0.223402285714,2.506
0.179297660987,-0.166836231885,-0.128792393967,-2.31927919935,-0.0131933974785,2.14678726583,-0.114708488526,-0.428847763437,-0.558427398345,-0.00190997882133,-0.563155587685,-0.0827127357005,0.0509953106963,-0.384513418058,0.57379071407,0.818981419398,0.00379447349647,0.0,0.818955878676,-0.573718082278,-0.0118143027726,0.0,-0.00749888077295,0.00988663394889,-0.999923007664,0.0,0.481234509277,0.0240851973014,0.304708006193,1.0,-0.16998,-0.223402285714,2.522
0.171922230365,-0.175931822075,-0.128865077131,-2.32903867293,-0.0146196766839,2.14735223743,-0.121188398296,-0.438706002521,-0.531415165529,-0.00809606924486,-0.577162661762,-0.0877881515043,0.0221328731924,-0.375006792075,0.573769889454,0.818996170986,0.00375935746261,0.0,0.818969648608,-0.573696693738,-0.0118981155739,0.0,-0.00758792624115,0.00990577083445,-0.999922146509,0.0,0.478330296908,0.0203095995356,0.304671747788,1.0,-0.16998,-0.223402285714,2.539
0.164330803076,-0.185063327651,-0.129061492068,-2.33870827179,-0.0160931851594,2.14778707431,-0.127807483557,-0.444639215991,-0.535815781553,-0.00628265040314,-0.562041214487,-0.0805418280369,0.029057825246,-0.40123103826,0.573880815558,0.818918656611,0.00371352797941,0.0,0.818891071434,-0.573807162985,-0.0119791374521,0.0,-0.00767923804421,0.00991576298569,-0.999921350381,0.0,0.475405537658,0.0164166695026,0.304653919162,1.0,-0.16998,-0.223402285714,2.556
0.157240191441,-0.193605779267,-0.129096568145,-2.34743961259,-0.0174038520608,2.14828666708,-0.13407725572,-0.44211791091,-0.536043812314,-0.00214452406659,-0.552800579702,-0.0855036322591,0.0293213808364,-0.391446754074,0.573819307751,0.818960680423,0.00394371327148,0.0,0.818937136185,-0.573746251255,-0.0117453415898,0.0,-0.00735642386863,0.00996954897756,-0.999923242615,0.0,0.47276794669,0.0129043143169,0.304765023241,1.0,-0.16998,-0.223402285714,2.572
0.149108029712,-0.20305312378,-0.129176095153,-2.3574007924,-0.0189094796115,2.14856775569,-0.141300689327,-0.458369855678,-0.521440670385,-0.00861876340397,-0.553654306577,-0.0866659013394,0.0146542662541,-0.404499396973,0.573743450886,0.819014394997,0.00382364412825,0.0,0.818988335259,-0.573669540714,-0.0119210598333,0.0,-0.00757015718515,0.00997134192541,-0.999921629459,0.0,0.469657151838,0.00890637604505,0.304698794932,1.0,-0.16998,-0.223402285714,2.59
0.141277600724,-0.211978063145,-0.129351531214,-2.36663046538,-0.0202545961631,2.14878817773,-0.148207374029,-0.473881713724,-0.528024619757,-0.01282954446,-0.530510865346,-0.0729579263363,0.0131922581924,-0.404945795597,0.573833928727,0.818950832336,0.00386048689249,0.0,0.818924314623,-0.573758634938,-0.0120309041533,0.0,-0.00763787833329,0.0100653813688,-0.99992017227,0.0,0.466741623418,0.00507591547611,0.304686560448,1.0,-0.16998,-0.223402285714,2.607
0.133839150019,-0.22033223529,-0.129441380325,-2.37497430737,-0.0215698129012,2.14906201195,-0.154719545211,-0.461579801945,-0.519498856137,-0.00293976279655,-0.526393666428,-0.0854488853633,0.0105509796932,-0.410170951693,0.5738816938,0.818916394852,0.00406037739951,0.0,0.818893628816,-0.573807235033,-0.0117995173066,0.0,-0.00733308542954,0.0100967385545,-0.999922137833,0.0,0.464102791358,0.00150998846695,0.304792188649,1.0,-0.16998,-0.223402285714,2.623
0.125884808119,-0.229021765269,-0.129485918155,-2.38399283382,-0.02300559407,2.14915443781,-0.161823778904,-0.469777890696,-0.519034839009,-0.00798852838657,-0.523222598913,-0.087805242977,0.00304299197247,-0.433207845419,0.573753232488,0.819007142485,0.00390841003598,0.0,0.818981731712,-0.573678415402,-0.0119476242678,0.0,-0.00754316436414,0.0100560980748,-0.99992098466,0.0,0.461167324213,-0.00223596836199,0.304708718776,1.0,-0.16998,-0.223402285714,2.64
0.11774599977,-0.237754739767,-0.129620583498,-2.39279936982,-0.0244065667669,2.14916849578,-0.169043141934,-0.483245178018,-0.521011126048,-0.00587284454031,-0.508086391289,-0.0862157127085,0.00250491644192,-0.433547653927,0.573764413166,0.818999333813,0.00390337023657,0.0,0.818973594018,-0.573689261953,-0.0119845701849,0.0,-0.00757617927223,0.0100732709723,-0.999920562205,0.0,0.458259465763,-0.00605401117597,0.304708590571,1.0,-0.16998,-0.223402285714,2.657
0.109938751014,-0.245920880818,-0.129780737624,-2.40077388999,-0.0256687371334,2.14924686002,-0.175925582239,-0.484634078776,-0.499384235772,-0.00952101367821,-0.504635106026,-0.0754918094835,0.00213074988198,-0.439021071135,0.573875284254,0.818920569996,0.00412371931408,0.0,0.818898601159,-0.573800580212,-0.0117780333669,0.0,-0.0072792214108,0.010136225378,-0.999922131904,0.0,0.455615562642,-0.0096809870933,0.304809121162,1.0,-0.16998,-0.223402285714,2.673
0.10166729898,-0.254438639487,-0.129837725442,-2.40940385055,-0.0269840472143,2.14919041746,-0.183323462305,-0.494675141503,-0.497848769304,-0.00711149354778,-0.503048009009,-0.0820124765596,-0.0116117700963,-0.438751684933,0.573814454667,0.818963398845,0.00408287507048,0.0,0.818940008073,-0.573738667809,-0.0119143249677,0.0,-0.00741503552911,0.0101804376322,-0.999920684823,0.0,0.452687510945,-0.0134188999606,0.304739843319,1.0,-0.16998,-0.223402285714,2.69
0.0931942656008,-0.262936621026,-0.129946280537,-2.41782617088,-0.0283498122232,2.14905801801,-0.190834790393,-0.499889305803,-0.494851984985,-0.00567735181193,-0.493937142634,-0.0728375001691,-0.012823218042,-0.449306881481,0.573840503181,0.818945165886,0.00407910312335,0.0,0.818921556677,-0.573764493354,-0.0119388893093,0.0,-0.00743699433417,0.0101916799497,-0.99992040722,0.0,0.449781711427,-0.017229625113,0.304724861982,1.0,-0.16998,-0.223402285714,2.707
0.085122602564,-0.270912124814,-0.130123515169,-2.42536446279,-0.0295927001624,2.1489636218,-0.198037174042,-0.504582424356,-0.498901759189,-0.0105548663859,-0.46928847985,-0.0760843748952,-0.0058454714386,-0.447486996095,0.573916756061,0.818890416607,0.00433469758193,0.0,0.818871454254,-0.573841750536,-0.0116590587741,0.0,-0.00706019697901,0.0102410864757,-0.99992263389,0.0,0.447157922809,-0.0208500267172,0.304856562422,1.0,-0.16998,-0.223402285714,2.723
0.0760673547834,-0.279681464788,-0.130168266143,-2.43404457303,-0.030996239821,2.14867354362,-0.206257928889,-0.510516961046,-0.484466347592,-0.00252658588079,-0.471906411713,-0.0756933056047,-0.0185221459344,-0.456844400064,0.573748360437,0.819008868873,0.00424717604388,0.0,0.81898806535,-0.573672650853,-0.0117892060247,0.0,-0.00721911454176,0.0102426213211,-0.999921483464,0.0,0.444061650661,-0.0247861163005,0.304787192131,1.0,-0.16998,-0.223402285714,2.741
0.0672603730542,-0.28794033485,-0.130282516901,-2.44203216828,-0.0323167361937,2.14835214718,-0.214100834914,-0.514779036894,-0.484305038208,-0.00864639814353,-0.465883769592,-0.0718852939624,-0.0227327822539,-0.466127888299,0.573790363515,0.818979394303,0.00425644751402,0.0,0.818958567322,-0.573714412182,-0.0118061494501,0.0,-0.00722714698714,0.0102603064853,-0.999921244127,0.0,0.441161037516,-0.0285993609199,0.304778582194,1.0,-0.16998,-0.223402285714,2.758
0.059373227112,-0.295214074953,-0.130448953699,-2.44880722004,-0.033377025697,2.1480987333,-0.221154425538,-0.527489806668,-0.485192787554,-0.00476425001998,-0.444151790752,-0.0669594250394,-0.0109631616521,-0.47044294192,0.573929907026,0.818880238712,0.00451257901178,0.0,0.81886332428,-0.573853971155,-0.0116285356062,0.0,-0.00693295010776,0.0103693494521,-0.999922202371,0.0,0.438504240059,-0.0322244397445,0.304873546754,1.0,-0.16998,-0.223402285714,2.774
0.0499715590062,-0.303775436196,-0.130535680438,-2.45690700178,-0.0347835438194,2.14765942728,-0.229713231095,-0.530085121865,-0.47634608974,-0.00664283557575,-0.453908619172,-0.0793822897407,-0.0237521993895,-0.484595646989,0.573778448587,0.818986329419,0.00452007341018,0.0,0.818969981354,-0.573703218073,-0.0115556962117,0.0,-0.00687090884925,0.0103324128121,-0.999923012965,0.0,0.435636091386,-0.0359624468983,0.304892633899,1.0,-0.16998,-0.223402285714,2.791
0.0408269593041,-0.311731936341,-0.130651010072,-2.4645762578,-0.0360553530318,2.14707721173,-0.237860308427,-0.541034623783,-0.467996576111,-0.00765198161472,-0.451836756547,-0.0692965533046,-0.0228732745957,-0.483058822308,0.573860124054,0.81892971882,0.00440687584912,0.0,0.81891066372,-0.573783399803,-0.0117763261666,0.0,-0.00711552826508,0.0103670012183,-0.999920944147,0.0,0.432679988434,-0.0397734164582,0.304811358143,1.0,-0.16998,-0.223402285714,2.808
0.0321369893774,-0.319181042353,-0.130826315505,-2.47149944814,-0.0372298995248,2.14660698756,-0.245697401603,-0.541359367098,-0.46541783242,-0.00955317579334,-0.423680951372,-0.0691094437651,-0.0292744695692,-0.488821984162,0.573931816408,0.818878964916,0.00450087040775,0.0,0.81886132258,-0.573855058428,-0.0117155111259,0.0,-0.00701087335448,0.0104096936944,-0.999921239864,0.0,0.429981542245,-0.0433866398516,0.304838287126,1.0,-0.16998,-0.223402285714,2.824
0.0229567163869,-0.327021061778,-0.130885328161,-2.47858067024,-0.0384334753379,2.14613052075,-0.254147740853,-0.546457712069,-0.455819138138,-0.00321821805348,-0.418228075793,-0.0739025265659,-0.0374997129106,-0.497302573509,0.573787538346,0.818978937472,0.00470188432795,0.0,0.818965233619,-0.573712235915,-0.0114439235652,0.0,-0.00667493230431,0.0104172610932,-0.999923460046,0.0,0.427190833788,-0.0471111744912,0.30494412274,1.0,-0.16998,-0.223402285714,2.841
0.0134787007611,-0.334682524351,-0.131012050775,-2.48586079344,-0.039638403452,2.14538412553,-0.262703197369,-0.566030808011,-0.448602381099,-0.011300085488,-0.425985061279,-0.0648665939835,-0.0509625453823,-0.504371394763,0.573848460355,0.81893696468,0.00457595135016,0.0,0.818919878068,-0.573770848629,-0.0117470621683,0.0,-0.00699469061602,0.0104885729982,-0.999920528912,0.0,0.424048811133,-0.051148975725,0.304834370345,1.0,-0.16998,-0.223402285714,2.859
0.00448633799411,-0.34190757721,-0.131164374969,-2.49242213041,-0.040762830223,2.14474485697,-0.270798918184,-0.552766026184,-0.451663351817,-0.00737077496699,-0.41009111582,-0.071404520043,-0.0369996405645,-0.505036719072,0.573948955258,0.818866040809,0.00466378263717,0.0,0.818850261453,-0.573871298132,-0.0116931347128,0.0,-0.00689883275464,0.0105304048268,-0.999920755201,0.0,0.421504760276,-0.0545199579489,0.304867646072,1.0,-0.16998,-0.223402285714,2.874
-0.00561148605309,-0.349873453295,-0.131270365107,-2.49960803187,-0.0420303901661,2.14395654001,-0.280122406336,-0.576150399462,-0.437773771078,-0.0112319841744,-0.392297272577,-0.0651659461411,-0.0369911285926,-0.51581515929,0.573827613195,0.818950850033,0.00470345258387,0.0,0.818935754902,-0.573750111632,-0.0116527098589,0.0,-0.00684452197736,0.0105386750802,-0.999921041306,0.0,0.418469475381,-0.0584898172819,0.304894228428,1.0,-0.16998,-0.223402285714,2.892
-0.0171951070662,-0.358585581537,-0.131457225349,-2.50736851812,-0.0434087042222,2.14307845864,-0.290622958706,-0.582590370962,-0.431420639251,-0.0118874657814,-0.389531674071,-0.0637084994646,-0.0449080583742,-0.520052790519,0.573943176219,0.818869234354,0.00481190201853,0.0,0.818856000703,-0.57386603901,-0.0115484321599,0.0,-0.00669539755648,0.0105686021552,-0.999921735087,0.0,0.415102980479,-0.0630214253832,0.304942035302,1.0,-0.16998,-0.223402285714,2.912
-0.0246413009183,-0.364154156429,-0.131510824518,-2.51245729172,-0.0443312671729,2.14238842536,-0.297566450071,-0.568115031045,-0.425884582577,-0.00501052648375,-0.380708977303,-0.0641958870601,-0.0536143164739,-0.539812778296,0.57378451913,0.818980979644,0.00471460385848,0.0,0.81896582349,-0.573706673129,-0.0116781875198,0.0,-0.00685954582819,0.0105620659943,-0.999920691552,0.0,0.412856473115,-0.0658647069637,0.304892010595,1.0,-0.16998,-0.223402285714,2.925
-0.0345517892372,-0.371379172555,-0.131607853556,-2.51892038625,-0.0454597432859,2.14154902671,-0.306726618652,-0.589313734811,-0.41823319672,-0.0083967743087,-0.37882332898,-0.0678185285637,-0.0547989177752,-0.538178244592,0.573711604133,0.819031926466,0.00473768024549,0.0,0.819016827292,-0.573633323361,-0.0117044369261,0.0,-0.00686874850422,0.0105954151223,-0.999920275558,0.0,0.409956791023,-0.0696234840493,0.304879845726,1.0,-0.16998,-0.223402285714,2.942
-0.0447614525895,-0.378461047635,-0.131774086217,-2.52508402072,-0.0465526420367,2.14064266873,-0.315903252367,-0.601175972542,-0.423691566439,-0.00849560626726,-0.346492096458,-0.0635244889557,-0.0503364371137,-0.549857658125,0.573945280065,0.818867654127,0.00482984658471,0.0,0.818853810759,-0.573866761831,-0.0116671835733,0.0,-0.0067823214039,0.0106514682986,-0.999920269991,0.0,0.407084456414,-0.0734939450995,0.304920754275,1.0,-0.16998,-0.223402285714,2.959
-0.0541782198008,-0.385017350026,-0.131841883316,-2.53072313294,-0.0476054519559,2.13986698416,-0.324762250538,-0.589464787553,-0.406769253721,-0.00444135216828,-0.357660846394,-0.0666300992171,-0.0531506933579,-0.554610982786,0.573750234082,0.819003810577,0.0049167116353,0.0,0.818992129738,-0.57367313943,-0.0114789993171,0.0,-0.00658088548524,0.0106130310124,-0.999922024719,0.0,0.404439287599,-0.0769969128717,0.30498202519,1.0,-0.16998,-0.223402285714,2.975
-0.0651325843738,-0.39227300459,-0.132007499067,-2.53719409261,-0.048808886937,2.13878788891,-0.334827898423,-0.615080394354,-0.405377401082,-0.0153757261788,-0.360258369808,-0.0739029547435,-0.0588592421411,-0.570462637585,0.573795332703,0.818972787792,0.00482036579069,0.0,0.818958749571,-0.573716756731,-0.01167888897,0.0,-0.00679929853798,0.0106491777522,-0.999920179091,0.0,0.401304375482,-0.0810454436477,0.304908869726,1.0,-0.16998,-0.223402285714,2.993
-0.0755606646404,-0.399027931936,-0.132139109324,-2.54300195599,-0.0498739730739,2.13779813581,-0.344436480962,-0.603996116271,-0.391538844368,-0.00548565730591,-0.337252300052,-0.0618551968558,-0.0557635776498,-0.549978223034,0.573842328626,0.818939599025,0.00486435258151,0.0,0.818926097955,-0.573763553382,-0.0116695244529,0.0,-0.00676577771636,0.0106802179919,-0.999920075404,0.0,0.398412512761,-0.084856122114,0.304925606178,1.0,-0.16998,-0.223402285714,3.01
-0.0853087215856,-0.405223626516,-0.132214471287,-2.5483541781,-0.0508642081301,2.13684132494,-0.353610440104,-0.62298420674,-0.381297532662,-0.00557865767767,-0.326850194898,-0.0701238037669,-0.0630832701483,-0.569584349149,0.57369562027,0.819042452917,0.0048520619178,0.0,0.819028517773,-0.573616476562,-0.0117120362279,0.0,-0.00680956332461,0.0106933268488,-0.999919638075,0.0,0.395699164072,-0.088358753551,0.304913664312,1.0,-0.16998,-0.223402285714,3.026
-0.0960444633118,-0.411675150773,-0.13239959273,-2.55374044986,-0.0518734660861,2.13589869852,-0.363453632006,-0.639654585128,-0.378749994084,-0.0111519119042,-0.315502445133,-0.0602477822349,-0.057231238404,-0.575474374999,0.573878182725,0.818913719792,0.00498977244518,0.0,0.818902283687,-0.573799719859,-0.011561927282,0.0,-0.00660521801817,0.0107214802895,-0.999920707334,0.0,0.39285562831,-0.0922423392009,0.304975389048,1.0,-0.16998,-0.223402285714,3.043
-0.106622172022,-0.418025407774,-0.132472834519,-2.55910326604,-0.0528179414617,2.13487382299,-0.373449668315,-0.613042658499,-0.372840670968,-0.00550380459702,-0.31295634778,-0.0518312128224,-0.0672431345602,-0.594805133578,0.573750812701,0.81900249867,0.00506547120142,0.0,0.818991842973,-0.573671818143,-0.0115651681427,0.0,-0.00656610995047,0.0107843118471,-0.999920289232,0.0,0.389817625624,-0.0961811983719,0.304986614951,1.0,-0.16998,-0.223402285714,3.061
-0.116801579781,-0.423893070038,-0.132621391154,-2.56414055458,-0.053805512502,2.13377201943,-0.38295681692,-0.6445104034,-0.362372561181,-0.0109210651094,-0.305480517781,-0.0621762980756,-0.0669959479386,-0.609175984553,0.573743040249,0.819008453577,0.00498233233988,0.0,0.818995776725,-0.57366277901,-0.0117337371398,0.0,-0.00675198129006,0.0108128673459,-0.999918743023,0.0,0.387205786175,-0.0995404964909,0.304939517437,1.0,-0.16998,-0.223402285714,3.076
-0.128406884479,-0.430305790775,-0.132766774895,-2.56952998826,-0.0548640253512,2.13268465767,-0.39370131549,-0.635713605067,-0.351162350934,-0.00357924033034,-0.29558022292,-0.051250471617,-0.0572455959894,-0.594802511596,0.573838226448,0.818941671729,0.00499750671133,0.0,0.818929253233,-0.573757997647,-0.0117211448475,0.0,-0.00673170411822,0.0108188537068,-0.999918814987,0.0,0.384142037073,-0.103589323302,0.304935118452,1.0,-0.16998,-0.223402285714,3.094
-0.138633978106,-0.435795476725,-0.132840895695,-2.57413884579,-0.0556800325184,2.13169076938,-0.403421204204,-0.645088905562,-0.342889788251,-0.00563972077496,-0.284921144798,-0.060189658818,-0.0633329581332,-0.590024467038,0.573731509708,0.819016145282,0.0050453381022,0.0,0.819003834843,-0.573650314998,-0.0117805567136,0.0,-0.00675433639918,0.0108912375324,-0.99991787657,0.0,0.381452999017,-0.107089313322,0.304919148719,1.0,-0.16998,-0.223402285714,3.11
-0.149900344373,-0.441584604921,-0.133028048793,-2.57880443609,-0.0566631091471,2.13059135541,-0.413875376013,-0.671566451269,-0.340358458196,-0.00498046297391,-0.265366771613,-0.0651333360155,-0.0648625164343,-0.616314978646,0.573878337952,0.818912990628,0.00509057076117,0.0,0.818901803921,-0.573797839695,-0.0116885242179,0.0,-0.00665105387111,0.0108766778403,-0.999918727378,0.0,0.378571030508,-0.110986069878,0.304973302274,1.0,-0.16998,-0.223402285714,3.127
-0.16095595144,-0.447311725612,-0.133098971161,-2.58340617638,-0.0575637496366,2.12956295098,-0.424441733351,-0.651936833581,-0.341883042502,-0.00884343423875,-0.273393361435,-0.0551791203998,-0.0656683443623,-0.625868911507,0.573711772568,0.819029172746,0.00517330732872,0.0,0.8190199251,-0.573632482286,-0.011527552074,0.0,-0.00647394895791,0.010850743025,-0.999920171494,0.0,0.375724299796,-0.114714104791,0.305030715228,1.0,-0.16998,-0.223402285714,3.144
-0.17298051781,-0.453093801164,-0.133303208174,-2.58826693418,-0.0584868304649,2.128326582,-0.435696936097,-0.676273168479,-0.31441186253,-0.0189286100364,-0.26816184777,-0.05171736974,-0.06891766353,-0.631378309672,0.57384899843,0.818933081498,0.00516545543817,0.0,0.818922163351,-0.57376710408,-0.0117706223121,0.0,-0.0066757121213,0.0109848772597,-0.999917380257,0.0,0.372588658157,-0.11875571416,0.304960855695,1.0,-0.16998,-0.223402285714,3.162
-0.1830025046,-0.457773410188,-0.133349261118,-2.59204090047,-0.0592139854409,2.12736621684,-0.445221169239,-0.660474811613,-0.310964631164,-0.00187702978435,-0.244205706912,-0.0362363855459,-0.0595486871396,-0.626327305931,0.573783808821,0.818978551746,0.0051980204335,0.0,0.818968058994,-0.573701820252,-0.0117595360475,0.0,-0.0066488220274,0.0110046559621,-0.99991734194,0.0,0.37005945818,-0.122072590279,0.304975495238,1.0,-0.16998,-0.223402285714,3.177
-0.195098053994,-0.463122364859,-0.133462107177,-2.59639838597,-0.0600820700353,2.12630929906,-0.456780472738,-0.680084068082,-0.292885043283,-0.0143415370728,-0.24082603307,-0.047855398957,-0.0639973849973,-0.633008426544,0.573706963271,0.819032134279,0.00523738615026,0.0,0.81902215346,-0.573624857283,-0.0117465803883,0.0,-0.00661665931413,0.0110288425861,-0.999917288805,0.0,0.367040281479,-0.126071560708,0.304966193809,1.0,-0.16998,-0.223402285714,3.195
-0.206787543514,-0.468114992834,-0.133608476424,-2.60046388367,-0.0609652369453,2.12520759997,-0.467713723053,-0.677077532784,-0.294559578957,-0.00338590565241,-0.229011278758,-0.0516442899044,-0.0656620800435,-0.645054140364,0.573840831412,0.818938597395,0.00519815377197,0.0,0.818927648016,-0.57375807532,-0.0118289991627,0.0,-0.006704870369,0.011045087209,-0.999916521897,0.0,0.364103624785,-0.129914754532,0.304939352952,1.0,-0.16998,-0.223402285714,3.212
-0.218317082506,-0.473015957703,-0.133697363345,-2.6042136058,-0.0617159577403,2.12417273971,-0.478819741737,-0.693874470649,-0.28228904404,-0.0108960865457,-0.211702088459,-0.049779472735,-0.056114472991,-0.66072730024,0.573731012013,0.819014786892,0.00531522419152,0.0,0.81900627476,-0.573649417623,-0.0116539463809,0.0,-0.00649580421399,0.0110396449631,-0.999917962018,0.0,0.361273913125,-0.133661995145,0.305020346678,1.0,-0.16998,-0.223402285714,3.229
-0.229503640338,-0.477432350024,-0.133868214903,-2.60763258806,-0.0624638740364,2.12323151612,-0.4893639748,-0.699067449149,-0.270887863323,-0.00536568626852,-0.213947340344,-0.0552264511908,-0.0630137585043,-0.655452717279,0.57387736227,0.818911751499,0.00539103251779,0.0,0.818904847891,-0.573796580352,-0.011536090216,0.0,-0.00635380615143,0.0110352561509,-0.999918922848,0.0,0.358555358328,-0.137313774007,0.305065887554,1.0,-0.16998,-0.223402285714,3.245
-0.24186460494,-0.4821327439,-0.133908608822,-2.61143088663,-0.0632268257528,2.12214324396,-0.501344981592,-0.695969150642,-0.255557270712,-0.00101636437803,-0.209461495005,-0.0456224253261,-0.0651572037697,-0.664207318795,0.573687238178,0.819045027951,0.0053797622696,0.0,0.819037397868,-0.5736055222,-0.0116272394514,0.0,-0.00643749525723,0.0110768386424,-0.999917927782,0.0,0.355510654945,-0.141236732876,0.305031408085,1.0,-0.16998,-0.223402285714,3.263
-0.252474082365,-0.485883575277,-0.134055028979,-2.6144601192,-0.0639001239175,2.12121115605,-0.511408041923,-0.720540625347,-0.252291149349,-0.0121674621207,-0.198760989918,-0.0309295688469,-0.0624350438929,-0.669789029437,0.573788420861,0.818974287562,0.00535829265795,0.0,0.818965557944,-0.573705354156,-0.0117613100784,0.0,-0.00655825562198,0.0111369750947,-0.999916475046,0.0,0.352914995865,-0.144629633613,0.30499152501,1.0,-0.16998,-0.223402285714,3.278
-0.264384116601,-0.489937041352,-0.134108566342,-2.61771307442,-0.0645635314773,2.12022769744,-0.52291742995,-0.697063788761,-0.237875196881,-0.00688255597867,-0.186505657682,-0.0377127255912,-0.0532748342691,-0.681253801926,0.573694297616,0.819040193454,0.005362955354,0.0,0.819030863252,-0.573610112814,-0.011858769748,0.0,-0.00663669141976,0.011195950091,-0.999915298927,0.0,0.350036806253,-0.148373453584,0.304957622944,1.0,-0.16998,-0.223402285714,3.295
-0.276467563483,-0.493853267742,-0.134264919001,-2.62077708264,-0.0652123886106,2.11930871418,-0.534529089141,-0.712527644208,-0.227661271101,-0.0103838377732,-0.18115871194,-0.0390240641253,-0.0555463941314,-0.704771144832,0.573747521233,0.819002401638,0.00544011862092,0.0,0.818993943882,-0.57366282641,-0.0118586837629,0.0,-0.00659162356721,0.0112595313995,-0.999914883103,0.0,0.347148840224,-0.152191715631,0.304955989429,1.0,-0.16998,-0.223402285714,3.312
-0.289280546578,-0.497865886462,-0.134326247953,-2.62383356004,-0.0658845204647,2.11831190624,-0.546862085355,-0.70863675382,-0.217972835076,-0.00256651834609,-0.160788869809,-0.0385850290332,-0.0629604277525,-0.682983541612,0.573727663454,0.819016062629,0.00547761314763,0.0,0.819008332816,-0.573643250928,-0.0118117882931,0.0,-0.00653197428785,0.0112631773616,-0.999915233481,0.0,0.344108304586,-0.156184042896,0.304984797322,1.0,-0.16998,-0.223402285714,3.33
-0.300705220326,-0.501199764828,-0.13440639393,-2.62638548453,-0.0664317327811,2.11746094977,-0.557918414397,-0.730046429214,-0.201928296282,-0.014922485996,-0.156907519087,-0.0337318014048,-0.0534174283757,-0.691454603112,0.573710760667,0.819027535223,0.00553231800395,0.0,0.81902043607,-0.573626017911,-0.0118094782587,0.0,-0.00649893144867,0.0113065239446,-0.999914959587,0.0,0.341412542166,-0.159730032184,0.304996697828,1.0,-0.16848,-0.221430857143,3.346
-0.314371963464,-0.504884460519,-0.134457722466,-2.62921199828,-0.0670952935103,2.11655169979,-0.571040627153,-0.702349099924,-0.190491566827,0.00267436717106,-0.145398250979,-0.0295350021105,-0.045724436219,-0.688722273697,0.573751645442,0.818998822037,0.00554308184974,0.0,0.818992162241,-0.573667379609,-0.0117610655153,0.0,-0.00645253779456,0.011287888608,-0.999915470591,0.0,0.338228261214,-0.163951286172,0.305006716811,1.0,-0.166037142857,-0.218220244898,3.365
-0.324303002606,-0.507411740108,-0.13447137264,-2.63112978587,-0.0675053849514,2.11594726787,-0.580681819108,-0.716395442079,-0.173894548907,0.00424676278221,-0.127037637963,-0.0358594651784,-0.0453136503337,-0.689258459977,0.573715814308,0.819023589931,0.00559199878134,0.0,0.819017929599,-0.573632029305,-0.0116907164562,0.0,-0.00636734554312,0.0112873134915,-0.999916023206,0.0,0.335937332919,-0.166994512431,0.305022929554,1.0,-0.164237142857,-0.215854530612,3.379
-0.337836824747,-0.510681853008,-0.134482132666,-2.63359958332,-0.0680328559896,2.11509199245,-0.593646932911,-0.695908264265,-0.167185537264,0.00515389797999,-0.124295289935,-0.0223604013382,-0.0497301779363,-0.681058590201,0.573824549959,0.81894703967,0.00564614739166,0.0,0.818942217538,-0.573740804773,-0.0116567651836,0.0,-0.00630696961962,0.0113130243117,-0.999916115289,0.0,0.332807178514,-0.171109889799,0.305040248589,1.0,-0.161794285714,-0.212643918367,3.398
-0.348234430009,-0.512985520742,-0.134447653472,-2.63537742275,-0.0683869792816,2.1144382442,-0.60387430679,-0.705710994059,-0.148444698359,0.00315246817849,-0.119663795926,-0.0199192981606,-0.0435508797284,-0.679392696832,0.573687796466,0.819042634908,0.00567637997569,0.0,0.819037792372,-0.573603234483,-0.0117120005629,0.0,-0.00633675988917,0.0113684203964,-0.999915298659,0.0,0.33040844065,-0.174237000081,0.305029937792,1.0,-0.159865714286,-0.21010922449,3.413
-0.359543267497,-0.515241058803,-0.134475851044,-2.63716319221,-0.0687572140578,2.11378177087,-0.61464439751,-0.705618688782,-0.131832892623,0.00117266800629,-0.109977474691,-0.0241172607818,-0.0392257628686,-0.672932748452,0.57389025436,0.818900506072,0.00571699290516,0.0,0.818895415963,-0.573804119594,-0.0118269587713,0.0,-0.00640479175453,0.0114692164787,-0.999913714135,0.0,0.327804891078,-0.177648591341,0.304994828059,1.0,-0.157808571429,-0.20740555102,3.429
-0.371163972023,-0.517409557342,-0.13439402832,-2.63886515248,-0.0690681278403,2.11317981905,-0.626023614573,-0.685155340642,-0.12606230135,0.00386440247305,-0.0941691977251,-0.0158373476457,-0.0407710739917,-0.665163635212,0.57380085587,0.818962828713,0.00576280225478,0.0,0.818957904591,-0.573713797374,-0.0118817554483,0.0,-0.00642464058113,0.0115374760368,-0.999912801518,0.0,0.325162960068,-0.18110814318,0.304971684626,1.0,-0.155622857143,-0.204532897959,3.446
-0.38355989769,-0.519568040945,-0.134381863915,-2.64052125229,-0.0694535637993,2.11252664711,-0.637953905506,-0.69200756465,-0.124658630526,-9.40756712317e-05,-0.0871556217279,-0.0137147384099,-0.0422470953683,-0.661077432561,0.573914773911,0.818882860514,0.00578272819457,0.0,0.818877759937,-0.573826834289,-0.011946774972,0.0,-0.00646484911793,0.0115920013493,-0.999911911736,0.0,0.322329948637,-0.184811899068,0.304958070972,1.0,-0.153308571429,-0.201491265306,3.464
-0.394271057263,-0.521285101206,-0.134270340374,-2.64178833622,-0.0697199636907,2.11204614044,-0.648459618668,-0.663053499249,-0.102301389937,0.00238465093433,-0.0688482826988,-0.0089680430165,-0.0286730635577,-0.653075842346,0.573817720642,0.818950701397,0.00580681152838,0.0,0.818946179817,-0.573730184966,-0.0118985849243,0.0,-0.00641293488602,0.0115833080128,-0.999912346779,0.0,0.319927088882,-0.187981960947,0.30497508321,1.0,-0.151251428571,-0.198787591837,3.48
-0.405647841717,-0.522938319157,-0.134190267318,-2.64299793936,-0.0699976692942,2.11154501518,-0.659550771948,-0.676742440432,-0.100749292332,6.06570064159e-05,-0.0627220639678,-0.0113793470112,-0.0300233084406,-0.65838319629,0.573807016964,0.818958020994,0.00583215517864,0.0,0.818953939931,-0.573719587324,-0.0118754491606,0.0,-0.00637959550766,0.0115907056768,-0.999912474321,0.0,0.317371102734,-0.191351481153,0.304991343475,1.0,-0.149065714286,-0.195914938776,3.497
-0.416951290417,-0.524400689362,-0.134144944299,-2.64404819741,-0.0702641061416,2.11111059888,-0.670490151666,-0.656419213155,-0.0816855383222,0.00838032993136,-0.058990543717,-0.0129056482794,-0.0267964016997,-0.63514008968,0.573898987698,0.818893337606,0.00586518921858,0.0,0.818889994873,-0.573811979134,-0.0118209897911,0.0,-0.0063147355286,0.0115872219338,-0.999912926411,0.0,0.314841376981,-0.194708514008,0.305014105963,1.0,-0.14688,-0.193042285714,3.514
-0.427299479522,-0.52555504877,-0.134034205331,-2.64494840918,-0.0704729719836,2.11077510524,-0.680710283441,-0.651899427715,-0.0675991124477,0.00254955416518,-0.0536029100673,-0.00575504083584,-0.0245135112121,-0.6260929786,0.573785181018,0.8189730528,0.00586955983759,0.0,0.818969718182,-0.573698089446,-0.0118258094054,0.0,-0.00631778560277,0.0115926891516,-0.999912843774,0.0,0.312532075942,-0.197748022369,0.305001805376,1.0,-0.144822857143,-0.190338612245,3.53
-0.439047024043,-0.526735045224,-0.134016429642,-2.64583638232,-0.0706628508434,2.11039571895,-0.692074138625,-0.644900034233,-0.0561978147549,0.00140797808299,-0.0438978346285,-0.0072377575051,-0.0130615323965,-0.63821228378,0.573955020508,0.818853446889,0.00595095398398,0.0,0.818850982524,-0.573867240889,-0.0118408257942,0.0,-0.0062809644002,0.0116692705979,-0.999912184949,0.0,0.309894018853,-0.201214333934,0.304997963439,1.0,-0.142508571429,-0.187296979592,3.548
-0.449062103908,-0.527596336119,-0.133869673563,-2.64651809844,-0.0707970330553,2.11012850109,-0.702044801064,-0.62237737857,-0.0479180155418,0.00639362809992,-0.0445294141798,-0.00796017566037,-0.0172243864608,-0.625611231101,0.573791723712,0.818967762212,0.00596734097263,0.0,0.818965384406,-0.573703679317,-0.0118547199174,0.0,-0.00628526898154,0.0116894109264,-0.999911922654,0.0,0.307666256689,-0.20412560532,0.304983855988,1.0,-0.140451428571,-0.184593306122,3.564
-0.459851173654,-0.528374554678,-0.133782668452,-2.64709766154,-0.0709480998709,2.10987274354,-0.712460681798,-0.63699721325,-0.0416276976725,0.00809767438233,-0.0295141113733,-0.00385279422648,-0.0144886595427,-0.619953251929,0.573938294855,0.818864834311,0.00599697664454,0.0,0.818862917251,-0.573850247698,-0.0118390400511,0.0,-0.0062533274329,0.0117058056225,-0.999911931127,0.0,0.305267069985,-0.207287731587,0.304985063999,1.0,-0.138265714286,-0.181720653061,3.581
