nelsonifechukwu/NELSON_IML_WORK/CNN-GradCAM/train2dof/data_sample_2022-02-22-11-35-57/robot_state.csv
position_joint1,position_joint2,position_joint3,position_joint4,position_joint5,position_joint6,position_joint7,velocity_joint1,velocity_joint2,velocity_joint3,velocity_joint4,velocity_joint5,velocity_joint6,velocity_joint7,ee_T_00,ee_T_10,ee_T_20,ee_T_30,ee_T_01,ee_T_11,ee_T_21,ee_T_31,ee_T_02,ee_T_12,ee_T_22,ee_T_32,ee_T_03,ee_T_13,ee_T_23,ee_T_33,v_x,v_y,time
0.465078816498,0.547772482936,-0.124002740753,-1.35584092569,0.0795280029906,1.89409476925,0.159147974874,0.000447264362518,-0.000514068219938,-0.000410269425798,6.18731694874e-05,-0.000116878506644,0.000359403614191,-0.00140864560735,0.573810096584,0.818974301667,0.0019527334217,0.0,0.818930987018,-0.573751313892,-0.0119254019203,0.0,-0.008646380813,0.00844223247522,-0.999926981739,0.0,0.661674694246,0.260888960089,0.303216793766,1.0,0.0,0.0,0.0
0.465070904176,0.54777357984,-0.123999998337,-1.3558391355,0.0795272909138,1.89409349777,0.159145026416,-0.0013938321577,-0.000313821526206,-0.00010656524782,0.000483013432366,-0.000190464007509,0.00394562199745,-0.00195882910323,0.573811952505,0.818973001804,0.0019525317531,0.0,0.818929677283,-0.573753163353,-0.0119263619594,0.0,-0.00864726367118,0.00844263778757,-0.999926970682,0.0,0.661676296319,0.260885308019,0.303216666187,1.0,-0.00018,-0.000236571428571,0.01
0.465072628605,0.54776964776,-0.124002846019,-1.35584688543,0.0795272909138,1.89409233221,0.159146296926,-0.00029889542502,0.000523045673355,-0.00159233685297,-0.00582717550866,-0.000170835329035,-6.21544585643e-05,-0.000793465211388,0.573813978277,0.81897159336,0.00194794882931,0.0,0.818928213999,-0.57375521275,-0.0119282463129,0.0,-0.00865141566042,0.00843998722232,-0.999926957144,0.0,0.661674594611,0.260883852511,0.30321575622,1.0,-0.00052,-0.000683428571429,0.027
0.46506981621,0.547754579665,-0.123994898998,-1.35586114455,0.0795280073717,1.89409546683,0.159146955617,-0.00242902054382,-0.00804071792466,0.00244198654539,-0.0011504382526,-0.00767800601145,-0.000498972619167,-0.000770423348906,0.573812232139,0.81897280151,0.00195436330795,0.0,0.818929448097,-0.573753383798,-0.0119314928303,0.0,-0.00865041209554,0.00844708483141,-0.999926905893,0.0,0.66167121837,0.260885426013,0.303219654419,1.0,-0.00086,-0.00113028571429,0.044
0.4650722721,0.547666199818,-0.124000215456,-1.35596001039,0.0795291659934,1.89411005707,0.159152440018,3.14757868021e-05,-0.0124066933512,-0.000438609298012,-0.00449560483316,4.12244649069e-05,-0.000145457672687,-0.000156201784775,0.573824076982,0.818964484438,0.00196183722659,0.0,0.818921162877,-0.57376513194,-0.0119352110473,0.0,-0.00864904668778,0.00845546427966,-0.999926846882,0.0,0.661654315943,0.260874579082,0.303236652683,1.0,-0.0012,-0.00157714285714,0.061
0.465071571584,0.547529323516,-0.123997484193,-1.35613512301,0.079525278833,1.89414992583,0.159146047295,5.86768715334e-05,-0.00697884526345,0.000341300073389,-0.0107668912881,0.000102975922827,0.00530214705407,0.000718487099274,0.573826072184,0.818963069149,0.00196904869578,0.0,0.818919733754,-0.573766991303,-0.0119438795829,0.0,-0.0086519877124,0.00846636534515,-0.999926729199,0.0,0.66162551093,0.260858785155,0.30325363248,1.0,-0.00154,-0.002024,0.078
0.465059473294,0.547386631963,-0.124000925733,-1.35633408098,0.079519749856,1.89423613074,0.159144389339,0.00135026238288,-0.0117900888826,0.000387058814276,-0.0158869874519,-0.000442524534652,0.00685732653024,0.000990032225204,0.573846770773,0.818948498605,0.00199679931026,0.0,0.818905502521,-0.573787549747,-0.0119319989216,0.0,-0.00862612009816,0.00848249230689,-0.99992681601,0.0,0.661605114024,0.260832009206,0.303267603951,1.0,-0.00186,-0.00244457142857,0.094
0.465041991105,0.547198233753,-0.123998141685,-1.35653948185,0.0795196253434,1.89435045132,0.159135221245,-8.75327380995e-05,-0.0120905827587,0.000158132557658,-0.0120825657119,-3.76731090917e-05,0.0139687459157,0.000759240907238,0.573863270715,0.818936712099,0.00208686414836,0.0,0.818894821951,-0.573803611155,-0.0118925736769,0.0,-0.00854197946062,0.0085337977747,-0.999927101784,0.0,0.661589727461,0.260807907407,0.303313124589,1.0,-0.0022,-0.00289142857143,0.111
0.465021944865,0.546990539197,-0.123998168053,-1.35679990929,0.0795136628761,1.8944753524,0.159115813343,0.00144207976071,-0.0101439791126,5.25594252113e-05,-0.0137812441398,-1.11376240529e-05,0.00605380742541,-0.000833073598286,0.57387693726,0.818926962985,0.00215338776374,0.0,0.8188858943,-0.573816963584,-0.0118630232721,0.0,-0.00847946244799,0.0085714593539,-0.999927311759,0.0,0.661565968217,0.260773970328,0.30334711576,1.0,-0.00254,-0.00333828571429,0.128
0.464984920365,0.546758295521,-0.123997781787,-1.35714863925,0.079509919482,1.89460522336,0.159101686072,-0.000432079849887,-0.0162716941345,-0.00158649337542,-0.0246294331117,0.000262908916646,0.00542896994478,0.000474190100469,0.573913941128,0.818900975894,0.00217411131056,0.0,0.818860023443,-0.573853724793,-0.0118706128366,0.0,-0.00847339770183,0.00859316848051,-0.999927176842,0.0,0.661527778246,0.260719566798,0.30335687582,1.0,-0.00288,-0.00378514285714,0.145
0.464946601377,0.546485833799,-0.124000993369,-1.35754829953,0.0794981049621,1.8947575683,0.159012872229,-0.00228022554348,-0.0159521877072,-0.000823120216996,-0.0300128928136,0.000110127044671,0.00872175724176,-0.00624522998358,0.573894074872,0.818914823821,0.00220205678383,0.0,0.818874143852,-0.573833657066,-0.0118666528105,0.0,-0.00845432637032,0.00861357493811,-0.999927162694,0.0,0.661485039612,0.260656927544,0.303372919238,1.0,-0.00322,-0.004232,0.162
0.464907544964,0.546215664315,-0.123997781631,-1.35797802824,0.0794842309858,1.89491212935,0.158931217803,-0.00226005166463,-0.0240340020024,0.000116228720474,-0.0288375669267,-0.00249745619666,0.0139171391797,-0.00264651085264,0.57387729206,0.818926575956,0.00220539151927,0.0,0.818885803697,-0.573816724826,-0.0118808128794,0.0,-0.0084641858342,0.00862425857315,-0.999926987196,0.0,0.661434581458,0.260593732909,0.303372987623,1.0,-0.00354,-0.00465257142857,0.178
0.464851539482,0.545901219195,-0.123998748915,-1.35850614573,0.0794644616,1.89509513667,0.158901892382,-0.0100136267627,-0.0199194913448,0.000461669132603,-0.0289448697942,-0.00107563041393,0.00654069841062,-0.000144494911857,0.573924069927,0.818893848635,0.00218484038698,0.0,0.818852685139,-0.573863453491,-0.0119064557714,0.0,-0.00849648692419,0.00862262998458,-0.999926727297,0.0,0.661374041621,0.260506784877,0.303360156669,1.0,-0.00388,-0.00509942857143,0.195
0.464791101027,0.545551481518,-0.124001345322,-1.35909679141,0.0793912092683,1.89529348197,0.158802409255,-0.00479015840616,-0.0213689923077,-0.000695484661708,-0.0356819284385,-0.0112664289778,0.013362389884,-0.00263214426756,0.573907384587,0.818905694044,0.00212722336318,0.0,0.818864091973,-0.573847317923,-0.0118996424515,0.0,-0.00852414765533,0.00857136452992,-0.999926932639,0.0,0.66130759801,0.260401384506,0.303343814579,1.0,-0.00422,-0.00554628571429,0.212
0.464729528695,0.545161696101,-0.124001346514,-1.35979071111,0.0793380839042,1.89550837136,0.158737411807,-0.00353392891037,-0.0260515257591,-0.000141863796304,-0.0427605875458,-0.000569811194431,0.00981965120332,-0.00179811830616,0.573929030159,0.818890734405,0.0020445898625,0.0,0.818848089311,-0.573869332479,-0.0119391278318,0.0,-0.00860367938621,0.00852658472294,-0.999926634336,0.0,0.661220274074,0.260289385698,0.303308031088,1.0,-0.00456,-0.00599314285714,0.229
0.464661518156,0.544736773714,-0.124002083267,-1.36049736921,0.0793214762996,1.89574946115,0.158652763669,-0.0045609159562,-0.0274438277522,0.000510939626389,-0.0390245260845,-0.0015728595728,0.0159458055011,-0.010689512989,0.573950861873,0.818875484524,0.00202383354636,0.0,0.818832298824,-0.573890981059,-0.0119814507692,0.0,-0.00865002302425,0.00853410857871,-0.999926170321,0.0,0.661135894806,0.260179357323,0.303293387402,1.0,-0.0049,-0.00644,0.246
0.464586348051,0.544260437162,-0.124004640485,-1.36130200832,0.079290232514,1.89603773175,0.158537011309,-0.00330275707879,-0.0288435970729,-0.000277113275015,-0.0489942598683,9.05053124209e-05,0.00720057850385,-0.00127638543818,0.573955997678,0.818871948864,0.0019977473943,0.0,0.81882825122,-0.573896057682,-0.0120148608886,0.0,-0.00869230055108,0.00853197774056,-0.999925821882,0.0,0.661042747362,0.260053422753,0.303272585766,1.0,-0.00526,-0.00691314285714,0.264
0.464518143378,0.543813209331,-0.124005216158,-1.36201687655,0.0792574214876,1.89629569674,0.158461760276,-0.00706112015918,-0.036418203431,0.000871960434512,-0.0530237630022,-5.30230516757e-05,0.0172056208042,-0.00817520848372,0.573981715991,0.818853929866,0.00199453066003,0.0,0.818810083608,-0.573921681879,-0.0120290045916,0.0,-0.00870546089835,0.00853773489152,-0.999925658253,0.0,0.660961167576,0.259941215109,0.303271161344,1.0,-0.00556,-0.00730742857143,0.279
0.464427692757,0.543229243273,-0.124010838853,-1.36296235761,0.0792056665419,1.89661487583,0.158332913064,-0.0067185119979,-0.0338597052751,0.000284907565847,-0.0501957172343,-0.00382728349546,0.017322180502,-0.00679850269875,0.573992903749,0.81884617007,0.00196038471523,0.0,0.818801801798,-0.573932940643,-0.0120555347232,0.0,-0.00874666747232,0.0085251220541,-0.999925406269,0.0,0.660850182064,0.25978689339,0.303262114259,1.0,-0.00594,-0.00780685714286,0.298
0.464366186698,0.542735718406,-0.124016187154,-1.36375565536,0.0791597116855,1.89690750582,0.158262802379,-0.00761783001581,-0.037471376315,5.09692143656e-05,-0.0539038418492,-0.00205858738277,0.0136964436187,-0.0070556695936,0.574021512659,0.818826132848,0.00195296496731,0.0,0.818781669492,-0.57396157987,-0.0120594128591,0.0,-0.00875380407564,0.00852157839435,-0.999925374023,0.0,0.660758537922,0.259667882434,0.303259149835,1.0,-0.00624,-0.00820114285714,0.313
0.464287685663,0.542144462143,-0.124017201218,-1.36467495807,0.0791105940248,1.89724198406,0.158106118483,-0.00474510119439,-0.0376285711547,0.000940318695184,-0.0533237603891,-0.000244209798924,0.0161776522282,-0.00603001693639,0.573996168308,0.818843877542,0.00196211121183,0.0,0.818799460272,-0.573936127576,-0.0120628447417,0.0,-0.00875162854766,0.00853076650556,-0.999925314721,0.0,0.660652246339,0.259528816118,0.303268755112,1.0,-0.00658,-0.008648,0.33
0.464217110465,0.541547420256,-0.124020426149,-1.36557111343,0.0790491207639,1.8975741713,0.15799132705,-0.00579033776695,-0.037687666743,0.000362201471708,-0.0518180314325,-0.00804429820026,0.0242996126812,-0.00396250290442,0.573995543156,0.818844258948,0.0019856800298,0.0,0.818800229953,-0.573935479408,-0.0120414204917,0.0,-0.00872056371723,0.00853776133888,-0.999925526427,0.0,0.660549988677,0.259394385193,0.303293235327,1.0,-0.0069,-0.00906857142857,0.346
0.4641282022,0.540876064121,-0.124019799801,-1.36659709135,0.0789960705604,1.89796191945,0.15785469723,-0.00111422770203,-0.0417045468661,-0.000824767014791,-0.0637089090321,-0.00526015840001,0.0146287901631,-0.0102217313485,0.573998816162,0.818841883964,0.00201866608196,0.0,0.81879820548,-0.573938532022,-0.0120335806627,0.0,-0.00869517702206,0.00856030603238,-0.999925554758,0.0,0.660434054241,0.259240778682,0.303313095337,1.0,-0.00724,-0.00951542857143,0.363
0.464028964738,0.540158135994,-0.124021198863,-1.36770011793,0.0789251016537,1.89836219464,0.157714674055,-0.0122203880609,-0.0487686592129,0.00014713677378,-0.0650143211097,-0.010519386822,0.0225522027024,-0.0094580641574,0.574008475042,0.818835087461,0.00202904478615,0.0,0.818791571935,-0.573948172522,-0.0120251356747,0.0,-0.00868220363425,0.00856405944545,-0.999925635348,0.0,0.660307988521,0.259068605928,0.303330218613,1.0,-0.00758,-0.00996228571429,0.38
0.463943828374,0.5394194166,-0.124023704627,-1.36884424104,0.0788610508955,1.89880295907,0.157578638217,-0.00453273852095,-0.0406986027573,0.000892509516278,-0.0664131331186,-0.00354353681238,0.032963869545,-0.00625028407017,0.574014860311,0.818830533536,0.00206019236334,0.0,0.818787407173,-0.573954407817,-0.0120110991776,0.0,-0.00865276485255,0.00858157420194,-0.999925740365,0.0,0.660177048593,0.258904368924,0.303345924329,1.0,-0.00792,-0.0104091428571,0.397
0.463832222456,0.538657323801,-0.124032914704,-1.37000716608,0.0787930936973,1.8992562421,0.15743349632,-0.00405577128722,-0.0442782640377,-0.00187153488188,-0.0734373546832,-0.00253617476438,0.0355424378994,-0.012780236754,0.574040088992,0.818812738639,0.0021028964613,0.0,0.818770221643,-0.573979506248,-0.0119832157397,0.0,-0.0086051559009,0.0086008008234,-0.99992598602,0.0,0.660053247497,0.258717072016,0.303370366098,1.0,-0.00826,-0.010856,0.414
0.463714692932,0.537877019675,-0.124033379674,-1.37123553152,0.0787276340305,1.89972539973,0.15728066857,-0.00603176011392,-0.0462707318665,-2.40996649824e-05,-0.0784294822203,-0.00304518218561,0.0219279744004,-0.0131683986631,0.574061911938,0.818797383771,0.0021242630444,0.0,0.818755078101,-0.574001170159,-0.011980218731,0.0,-0.00859020766888,0.00861680432518,-0.999925976768,0.0,0.659917076293,0.25852490135,0.303377496971,1.0,-0.0086,-0.0113028571429,0.431
0.463602717367,0.537005789569,-0.124039273871,-1.37259712326,0.078650174848,1.9002284928,0.157121733047,-0.00612743224069,-0.0557565388083,0.00142118835581,-0.0800058655861,-0.0129376942023,0.0319002633991,-0.0080326860092,0.574073063391,0.818789508182,0.00214617837592,0.0,0.818747440092,-0.574012180952,-0.011974654996,0.0,-0.00857295440048,0.00863167111429,-0.999925996615,0.0,0.659750777217,0.258309777526,0.303394905893,1.0,-0.00898,-0.0118022857143,0.45
0.463497155592,0.536217336027,-0.124050673402,-1.37383437985,0.0785724092686,1.90069993671,0.156959644985,-0.00609062698681,-0.0447289291008,-0.00148177554777,-0.0763513729974,-0.00686912181693,0.0356549668606,-0.0104984783895,0.574090969957,0.818776944674,0.00214941505675,0.0,0.818735028944,-0.574030182876,-0.0119602854781,0.0,-0.0085591416731,0.00862625937202,-0.999926161645,0.0,0.659621345455,0.258125636151,0.303397275569,1.0,-0.00928,-0.0121965714286,0.465
0.463369259329,0.535269309679,-0.124051072563,-1.37532743519,0.0784875632056,1.90123086617,0.156788699624,-0.00635343004779,-0.0512497494338,-0.000594729296361,-0.0791173770139,-0.0119197713367,0.0255798932945,-0.0143390792115,0.574115156044,0.81876000998,0.00214022426076,0.0,0.818717880537,-0.574054309316,-0.0119761824568,0.0,-0.00857717944535,0.00862811384857,-0.999925991083,0.0,0.659443316901,0.257898563222,0.303401681594,1.0,-0.00964,-0.0126697142857,0.483
0.463243872899,0.534373126127,-0.124054538376,-1.3767826935,0.078414929902,1.901766553,0.156600966295,-0.00909839216468,-0.0544004562169,-0.00149796860857,-0.0926892168757,-0.00543675879232,0.0269805282502,-0.0164719884545,0.574126959494,0.818751768792,0.00212658937473,0.0,0.818709313033,-0.574066018825,-0.0120005701809,0.0,-0.00860485103617,0.00863107557122,-0.999925727778,0.0,0.659272651567,0.257677477278,0.303387855561,1.0,-0.00998,-0.0131165714286,0.5
0.463115017064,0.533447411877,-0.12405738937,-1.3782598099,0.078320381267,1.9023079075,0.1564228101,-0.00797593122062,-0.0548813682555,0.000100646562769,-0.0870196452899,-0.00474736543674,0.0334023550218,-0.0118829607597,0.574144081792,0.818739795882,0.00211350046392,0.0,0.81869720302,-0.574083227415,-0.0120035273992,0.0,-0.00861460626307,0.00862223714005,-0.999925720034,0.0,0.659100400853,0.257449130574,0.303384697634,1.0,-0.01032,-0.0135634285714,0.517
0.462985964343,0.532509287894,-0.124055641372,-1.37978411021,0.0782438815268,1.90288573577,0.15623211386,-0.00578202815309,-0.0511496301888,0.000534770380897,-0.0927024893653,-0.007765098061,0.030618559512,-0.0114615410203,0.574155351736,0.818731893214,0.00211329300484,0.0,0.818689142412,-0.574094341474,-0.0120217338557,0.0,-0.00862951350833,0.00863263907326,-0.999925501745,0.0,0.658922381586,0.257223282513,0.303370703195,1.0,-0.01066,-0.0140102857143,0.534
0.462857210755,0.531532089426,-0.124053773526,-1.38135523108,0.0781484415276,1.90345333353,0.156017759186,-0.00629432129221,-0.057517998742,0.00115939131954,-0.0928318241519,-0.00318612847777,0.0278613987164,-0.0124174548718,0.574143964646,0.818739936886,0.00209057648113,0.0,0.818696836125,-0.574082998492,-0.0120394460791,0.0,-0.0086571775856,0.00862408969523,-0.999925336389,0.0,0.658732956938,0.256988946831,0.303360836379,1.0,-0.011,-0.0144571428571,0.551
0.462721572037,0.53052246771,-0.124058127305,-1.38300241134,0.0780513801017,1.90403114794,0.155814841463,-0.00300740917918,-0.0553214450644,-0.000363280017253,-0.0983292145598,-0.00970333920004,0.0322348947366,-0.0182215282602,0.57415540327,0.818732043898,0.00203963011689,0.0,0.818688197363,-0.57409457383,-0.0120748788328,0.0,-0.0087153174407,0.00860284366074,-0.99992501435,0.0,0.658531499453,0.256738318726,0.3033384998,1.0,-0.01134,-0.014904,0.568
0.462581434479,0.529544608757,-0.124061647976,-1.38454167759,0.0779559796516,1.90460509079,0.155609091045,-0.00818713994044,-0.0620304261391,-0.000662047745749,-0.0959391754835,-0.00581150034126,0.0384283819718,-0.0167652003594,0.574162182407,0.818727270222,0.00204748401889,0.0,0.818683549019,-0.574101340747,-0.0120683063853,0.0,-0.00870535582771,0.00860557229921,-0.999925077646,0.0,0.658354083324,0.256497630482,0.303344540324,1.0,-0.01166,-0.0153245714286,0.584
0.462448333053,0.528445529278,-0.124064190636,-1.38622989425,0.0778430423853,1.90524257096,0.155380827339,-0.00364257707971,-0.0634387564739,0.00104641575218,-0.0950695053566,-0.00103277165974,0.0389063987486,-0.0108510801015,0.57414722998,0.818737669585,0.0020817324065,0.0,0.818694505117,-0.574086352469,-0.0120380273352,0.0,-0.00866105903499,0.00861606881727,-0.999925371923,0.0,0.658156199594,0.256247562367,0.303370261499,1.0,-0.012,-0.0157714285714,0.601
0.462324267701,0.527525850617,-0.124067318581,-1.38766159356,0.0777553602721,1.90579790666,0.155181770057,-0.00626307096355,-0.0680366950532,-0.00151460533101,-0.100292151296,-0.00987675454511,0.0441007995445,-0.0184471175666,0.574142086917,0.818741188098,0.00211609146786,0.0,0.818698515209,-0.574081107987,-0.012015387995,0.0,-0.00862285092465,0.00863114705771,-0.999925572101,0.0,0.657993251292,0.256029711485,0.30338446682,1.0,-0.01228,-0.0161394285714,0.615
0.462160504875,0.526309219678,-0.124065247706,-1.38955759846,0.0776463466055,1.90651608477,0.154921162367,-0.0106147858167,-0.0651053634031,0.000354615687018,-0.112331281813,-0.000646822904165,0.0475978590229,-0.0168394225965,0.574134505335,0.818746411253,0.00215191668405,0.0,0.818704141584,-0.574073312941,-0.0120044501706,0.0,-0.00859340800596,0.00865411878066,-0.999925627018,0.0,0.65777148135,0.255745177846,0.303400383601,1.0,-0.01264,-0.0166125714286,0.633
0.462017008464,0.525120389574,-0.124070578709,-1.39140484842,0.0775213913265,1.90716820942,0.154677734234,-0.00688203178236,-0.0690797303101,0.000722287301966,-0.11175097468,-0.00938756730444,0.0442534191553,-0.0129541018301,0.574122015443,0.818755202683,0.00213924413005,0.0,0.818712837076,-0.574060947317,-0.0120027527418,0.0,-0.00859942530764,0.00864263762347,-0.999925674588,0.0,0.657543988818,0.255468121656,0.303414087146,1.0,-0.01298,-0.0170594285714,0.65
0.461870323319,0.524093490545,-0.124077511397,-1.39307570804,0.07741713994,1.9077672186,0.154449401014,-0.00498204227917,-0.063366401048,-0.000360250153863,-0.112005925832,-0.0162734647087,0.045046613609,-0.0179910494873,0.574121722821,0.818755516873,0.00209711166514,0.0,0.818712597805,-0.574060827912,-0.0120247641975,0.0,-0.00864163874544,0.00862077605352,-0.999925499375,0.0,0.65734256981,0.255206603599,0.303393092212,1.0,-0.01328,-0.0174537142857,0.665
0.461716362734,0.522877481325,-0.124077769805,-1.39500101159,0.0773050861648,1.90850432947,0.15418881157,-0.00608221400992,-0.0714312731962,0.00149775011438,-0.117250757883,-0.00529737596866,0.051100672472,-0.0151430443364,0.574107879047,0.81876516129,0.00212150309699,0.0,0.81872252276,-0.574046845413,-0.0120165260459,0.0,-0.00862103670744,0.00863587091662,-0.999925546958,0.0,0.657114072115,0.25492457423,0.30339542061,1.0,-0.01362,-0.0179005714286,0.682
0.461515718114,0.521448480517,-0.124084820049,-1.3973196625,0.0771598219862,1.90939965879,0.153879305695,-0.0137277547528,-0.0722795839989,-0.000808978548824,-0.116026193362,-0.00759732400348,0.0454891217603,-0.0180544529411,0.574108912248,0.818764444396,0.00211857775505,0.0,0.81872185119,-0.574047974385,-0.0120083466664,0.0,-0.00861600790244,0.00862879087503,-0.999925651424,0.0,0.656844600588,0.254569434025,0.303373780747,1.0,-0.01402,-0.0184262857143,0.702
0.46135980124,0.520222561173,-0.124092902665,-1.3992302085,0.0770373928065,1.91009595005,0.15362908385,-0.0125175291955,-0.0713630612488,-0.000900194606104,-0.117329737523,-0.0136153577283,0.0481171942612,-0.0169246410678,0.574106178276,0.818766349415,0.00212321297412,0.0,0.818723867769,-0.574045272551,-0.0120000128378,0.0,-0.00860655203653,0.00862777275921,-0.999925741642,0.0,0.656613120923,0.254279130264,0.303386037285,1.0,-0.01434,-0.0188468571429,0.718
0.461186264347,0.518896307012,-0.124099305415,-1.40130203919,0.0768994784306,1.91083528101,0.153343540431,-0.0121113681972,-0.081024367813,-0.000693786550135,-0.124569982837,-0.0145608221081,0.0453536393455,-0.0119003416092,0.57409172809,0.818776513801,0.00211070788462,0.0,0.81873393201,-0.574030939548,-0.0119989965772,0.0,-0.00861305078439,0.00861679874613,-0.999925780313,0.0,0.656359028345,0.253960899984,0.303395280228,1.0,-0.01468,-0.0192937142857,0.735
0.460998700544,0.51746812201,-0.124103192252,-1.40353848831,0.076761529394,1.91164874833,0.153037263806,-0.00955467317371,-0.0767056579359,0.00430222561278,-0.129279227636,-0.00613051969728,0.0471671658006,-0.0176943054473,0.574078572253,0.818785731029,0.00211339664803,0.0,0.818743160659,-0.574017750455,-0.0120002474437,0.0,-0.00861267000656,0.0086195799241,-0.999925759623,0.0,0.656085676172,0.253621785024,0.30340365636,1.0,-0.01504,-0.0197668571429,0.753
0.460845176009,0.516351895659,-0.124106380921,-1.40529088632,0.0766485140044,1.91230348555,0.152793890295,-0.009241719288,-0.0842918377556,0.000127746145559,-0.128026846316,-0.00588545485697,0.0464861526402,-0.0226689211681,0.574069460756,0.818792091088,0.00212431180622,0.0,0.81874971409,-0.574008645643,-0.0119886323685,0.0,-0.00859698954213,0.00862175339841,-0.999925875822,0.0,0.655876233369,0.253352060705,0.30340940574,1.0,-0.01532,-0.0201348571429,0.767
0.460664691795,0.514973249326,-0.124108930842,-1.40749017793,0.0765141336214,1.91312998801,0.152489158348,-0.0105902872397,-0.0810481423182,0.00052590457885,-0.129078924361,-0.00333196906081,0.0524060971693,-0.0123561897319,0.574049426604,0.818806130418,0.00212685383501,0.0,0.818763776879,-0.573988593713,-0.011988280097,0.0,-0.00859545288392,0.00862342222208,-0.999925874642,0.0,0.655609172894,0.253023669275,0.303401045406,1.0,-0.01566,-0.0205817142857,0.784
0.4604617136,0.513486166807,-0.124116084943,-1.40989143728,0.0763672483237,1.91396241902,0.152160785256,-0.0144974998235,-0.0801262551258,-0.000869396886036,-0.12947006442,-0.00830850908054,0.0434834660359,-0.015514135939,0.574038172173,0.81881420112,0.00205616975712,0.0,0.81877082488,-0.573977538168,-0.012036149917,0.0,-0.00867534225083,0.00859290674657,-0.999925447416,0.0,0.655304648608,0.252653827283,0.303372784643,1.0,-0.01602,-0.0210548571429,0.802
0.460265859145,0.512049573123,-0.124117666735,-1.412186074,0.0762263166317,1.91477958376,0.151837509787,-0.00599303781604,-0.0879980338375,-0.00110455473388,-0.134914797146,-0.00189831327958,0.0585628955616,-0.0263709591556,0.574017026649,0.818829112849,0.00202088346635,0.0,0.818785193079,-0.573956464706,-0.0120636278969,0.0,-0.00871831845331,0.00857956245835,-0.999925188217,0.0,0.655016780321,0.252303873301,0.303357895364,1.0,-0.01636,-0.0215017142857,0.819
0.460082679346,0.510775357601,-0.124119456624,-1.41421340206,0.0761099064557,1.91555253871,0.151539951742,-0.0132009466367,-0.0930083564829,-0.000927900622462,-0.139498017476,-0.0102475224002,0.0452813554915,-0.0259236631515,0.573999461917,0.818841379037,0.00203975414332,0.0,0.818797639126,-0.573938755357,-0.0120614328477,0.0,-0.00870587396697,0.00859356729427,-0.999925176381,0.0,0.654774229149,0.251992630559,0.303352284012,1.0,-0.01666,-0.021896,0.834
0.459870637549,0.509194772917,-0.124119515103,-1.41672190119,0.0759524191489,1.91647815316,0.151201362919,-0.01290873499,-0.0853314113498,-0.000402865688897,-0.144277681536,-0.0159545665383,0.0463824220269,-0.0138342547807,0.573984030823,0.818852208862,0.00203452787414,0.0,0.818808383106,-0.573923331346,-0.0120660015764,0.0,-0.00871277677567,0.00859174611748,-0.999925131907,0.0,0.654463618983,0.251614283795,0.303344819899,1.0,-0.01702,-0.0223691428571,0.852
0.459682391397,0.50786080936,-0.124127923979,-1.41881668004,0.0758109268611,1.91721896199,0.150910053958,-0.0131946896564,-0.0937278292112,-0.000158668865417,-0.137644736109,-0.00892802241202,0.0466629383229,-0.0189720109158,0.573975832223,0.818858017977,0.00200930837462,0.0,0.818813930492,-0.573915309206,-0.012071122237,0.0,-0.00873153050166,0.0085739471947,-0.999925121099,0.0,0.654202576393,0.251282667668,0.303345420487,1.0,-0.01732,-0.0227634285714,0.867
0.459463248122,0.506309404983,-0.124128041008,-1.42124885011,0.0756642513854,1.9181171091,0.150573387965,-0.00608352751421,-0.0924106571098,0.000126076709426,-0.146494102302,-0.0050997019288,0.052338865831,-0.0211760338217,0.573966005982,0.818864866993,0.00202496496389,0.0,0.818820914765,-0.573905348474,-0.0120709335828,0.0,-0.00872249313451,0.00858655451885,-0.999925091792,0.0,0.653903227715,0.250908351366,0.303350444217,1.0,-0.01766,-0.0232102857143,0.884
0.459255866816,0.50479488603,-0.124134348996,-1.42356521084,0.0755162160408,1.91902943021,0.150255040868,-0.0129811451788,-0.0928302487347,-0.000582516782256,-0.145285020998,-0.0110291303531,0.0592703967943,-0.0173970194212,0.57395943084,0.818869255439,0.00211214291494,0.0,0.818826577552,-0.573898538161,-0.0120104409582,0.0,-0.00862299113298,0.00862315063323,-0.999925639884,0.0,0.653631068674,0.250552121528,0.303385622188,1.0,-0.01798,-0.0236308571429,0.9
0.45903304126,0.503133888349,-0.12414005487,-1.42604814437,0.0753644991232,1.91996259201,0.149899092617,-0.0152922117897,-0.0954645650999,-0.00122163291184,-0.147613694743,-0.0172459485427,0.0611300643495,-0.0207167963079,0.573941174032,0.8188818019,0.00220684597459,0.0,0.818840374467,-0.573879906693,-0.0119599639686,0.0,-0.008527496464,0.00867153729969,-0.999926040387,0.0,0.65332985773,0.250169263531,0.303445004332,1.0,-0.01832,-0.0240777142857,0.917
0.45876628492,0.501226357076,-0.12414476525,-1.42888560686,0.0751787275701,1.92097111295,0.149509108513,-0.0172724949518,-0.106087973969,-0.000192876426252,-0.158170838989,-0.0182147756308,0.0480354206806,-0.0229200348821,0.573938172922,0.818883732292,0.00227014330764,0.0,0.818843162101,-0.573876682612,-0.011923755079,0.0,-0.00846154966266,0.00870255708007,-0.999926331125,0.0,0.652976256575,0.249719327104,0.303513494025,1.0,-0.0187,-0.0245771428571,0.936
0.458558077912,0.499723383249,-0.124146972949,-1.43116989282,0.0750337338532,1.92179514253,0.149179877303,-0.0174293515975,-0.101728900282,-0.000642005991108,-0.15133950851,-0.00885279500301,0.0613486702117,-0.0212576072796,0.573917766687,0.818897935907,0.00230533078765,0.0,0.818857809425,-0.573856123298,-0.0119073337825,0.0,-0.00842812513542,0.00872173645085,-0.999926446305,0.0,0.652689894702,0.249363509662,0.303546298932,1.0,-0.019,-0.0249714285714,0.951
0.458300040997,0.498049241297,-0.12414793217,-1.43381143771,0.0748673818878,1.92278559652,0.148801232265,-0.0224975022635,-0.0997904022164,-0.000591872549217,-0.155402631016,-0.00656229318706,0.0521287385424,-0.0222201083281,0.573909146764,0.818903931862,0.00232132365506,0.0,0.818864018071,-0.573847445603,-0.0118985706976,0.0,-0.00841186263233,0.00872971504625,-0.999926513621,0.0,0.652367314024,0.248943679902,0.303542380694,1.0,-0.01934,-0.0254182857143,0.968
0.458046401386,0.496364787063,-0.124150064013,-1.43649300661,0.0747060711903,1.92372965671,0.148407391593,-0.0158318238863,-0.100615045743,-0.0073279829658,-0.161243169909,-0.0124485547835,0.0565017544951,-0.0206648357739,0.573887944192,0.818918909308,0.00227912049878,0.0,0.818878285928,-0.573826249079,-0.0119388275918,0.0,-0.00846927556267,0.00871803935945,-0.999926130852,0.0,0.65202369126,0.248519313063,0.303522005915,1.0,-0.01968,-0.0258651428571,0.985
0.457795010468,0.494789715649,-0.12414872236,-1.4390695717,0.0745449384696,1.92461476713,0.148044742159,-0.0182926134522,-0.100295875801,-0.0015901794886,-0.162384991917,-0.00702279483441,0.0618166075607,-0.0272406642753,0.573882007738,0.818923338985,0.00218012861107,0.0,0.818881259996,-0.573820550858,-0.0120085112134,0.0,-0.00858321275203,0.00867690204635,-0.999925517141,0.0,0.651688254947,0.248105686326,0.303469649198,1.0,-0.01998,-0.0262594285714,1.001
0.457491442731,0.492653861751,-0.124205795415,-1.44231205481,0.0743607791243,1.92579903924,0.147590974104,-0.0161581911651,-0.153603121834,-0.00595761606379,-0.219160042661,-0.00678779158094,0.0874070687482,-0.0297575217412,0.57391342913,0.81890114639,0.00224392657829,0.0,0.81885995052,-0.573851756894,-0.0119703569212,0.0,-0.00851502173672,0.00870757784327,-0.999925833496,0.0,0.651291670304,0.247568812893,0.303517561048,1.0,-0.0325697142857,-0.0428059102041,1.018
0.457052750362,0.489127322678,-0.124258269033,-1.44786143217,0.0740631266398,1.92792250667,0.146745774161,-0.0305703381898,-0.213513812334,3.24379344495e-05,-0.336377661807,-0.0191579117522,0.127639308509,-0.0503053821597,0.573816664768,0.818968687616,0.00233898272132,0.0,0.818928553803,-0.573754437693,-0.0119421896824,0.0,-0.00843844016153,0.00876825600702,-0.999925952466,0.0,0.650593602074,0.246736918117,0.303514835416,1.0,-0.0466405714286,-0.0612990367347,1.037
0.456426259799,0.484829413751,-0.12433641262,-1.45465469972,0.0736733563249,1.9304920818,0.145722620341,-0.0394726737414,-0.279816113367,-0.00900067686821,-0.430215162517,-0.0244282338108,0.157331742817,-0.0642612567518,0.573780652698,0.818993748118,0.00239792288757,0.0,0.818954389086,-0.573718203121,-0.011911293145,0.0,-0.00837970394276,0.00879842842572,-0.999926181385,0.0,0.649751874815,0.245646589027,0.30349217091,1.0,-0.0592302857143,-0.0778455183673,1.054
0.455703672148,0.480161520551,-0.124470815076,-1.46210407039,0.0732240690192,1.93307314408,0.144589070018,-0.0480391842589,-0.331427941257,-0.00805155018606,-0.516534024097,-0.0280280483891,0.186575299779,-0.075153365953,0.573784740388,0.818991409291,0.00221135842116,0.0,0.818949612055,-0.573723038682,-0.0120064441711,0.0,-0.00856463225499,0.00870027308006,-0.999925473384,0.0,0.648791649412,0.244380683724,0.303412158575,1.0,-0.0703388571429,-0.092445355102,1.069
0.454631345099,0.473388496669,-0.124636330139,-1.47270500647,0.0725887222063,1.93679590031,0.143049692615,-0.0680846604836,-0.396793700459,-0.00455240779997,-0.621351606692,-0.0386870380715,0.21597832495,-0.0921510919125,0.573863353018,0.818936597111,0.00210923593118,0.0,0.818893393947,-0.573801998082,-0.0120674457773,0.0,-0.00867235615871,0.00865247085335,-0.999924959678,0.0,0.647426451793,0.242573368461,0.303382838238,1.0,-0.0836691428571,-0.109965159184,1.087
0.453441977826,0.46592889796,-0.124748687878,-1.48402494357,0.0719315208817,1.94100934358,0.14127325378,-0.0750957703384,-0.459890939282,-0.00109793437419,-0.697600190167,-0.0404576839759,0.259132451805,-0.106614532566,0.573827318707,0.818960988415,0.00241964081544,0.0,0.818921700878,-0.573764555085,-0.0119260245424,0.0,-0.00837880602912,0.00882514496945,-0.999925953471,0.0,0.645995888043,0.240677214383,0.303514358765,1.0,-0.0962588571428,-0.126511640816,1.104
0.452201583555,0.458601828945,-0.124820948813,-1.49542507542,0.0712120316553,1.9450346063,0.139500928759,-0.086863875449,-0.510336290683,-0.00540047809512,-0.764340612191,-0.0511723554466,0.273253135031,-0.126180348633,0.573786735025,0.81898957305,0.00236830022736,0.0,0.818949313237,-0.573723864662,-0.0119873419625,0.0,-0.00845892057722,0.00881786542228,-0.999925343169,0.0,0.64437989158,0.238601795433,0.30348740314,1.0,-0.108108,-0.1420848,1.12
0.45066832457,0.449841556426,-0.124967430018,-1.50882651774,0.0703028299019,1.94970841202,0.137384451944,-0.10022111998,-0.573235822871,-0.00600542692041,-0.862092784745,-0.059624248196,0.316368508677,-0.144632030071,0.573776853349,0.818996523467,0.0023588157519,0.0,0.818956524682,-0.573714423443,-0.0119464603915,0.0,-0.00843098523185,0.00878653917074,-0.99992585486,0.0,0.642712006373,0.236375608176,0.303534157518,1.0,-0.119216571429,-0.156684636735,1.135
0.448753930969,0.439022266766,-0.125104085322,-1.52538240497,0.0692106714898,1.95547688082,0.134838653262,-0.110505742083,-0.624587410454,-0.0093206060038,-0.970108609308,-0.0651385236271,0.32495468689,-0.153289674973,0.573802004819,0.818978889985,0.00236303316616,0.0,0.818938837956,-0.573739441964,-0.0119573961411,0.0,-0.00843725213192,0.00879652687375,-0.999925714187,0.0,0.640466255951,0.233477644957,0.303564094603,1.0,-0.132546857143,-0.174204440816,1.153
0.446668597032,0.427781226241,-0.125230138883,-1.54222587496,0.0680809300111,1.96141853193,0.132050350373,-0.130546375027,-0.673775970222,-0.0095527114469,-1.02243395845,-0.075668405987,0.35186980496,-0.16684425292,0.57374180612,0.819020252887,0.00262910111291,0.0,0.81898377293,-0.573678338357,-0.0118106171702,0.0,-0.00816503350585,0.0089296078981,-0.999926794486,0.0,0.638182175945,0.230463345533,0.303729509335,1.0,-0.145136571429,-0.190750922449,1.17
0.444482031655,0.416503465605,-0.125371392467,-1.55915478881,0.0668820028147,1.9673230122,0.129227542225,-0.138967696228,-0.721849458547,-0.00509474407699,-1.06032596702,-0.0736756757104,0.392683315243,-0.169616970041,0.573707727507,0.819043584733,0.0027922407197,0.0,0.819009681193,-0.573644187982,-0.011671958211,0.0,-0.0079582430545,0.00898333775951,-0.999927980412,0.0,0.635847851959,0.227364142801,0.303845552221,1.0,-0.156985714286,-0.206324081633,1.186
0.441889234609,0.403743387256,-0.125497160292,-1.5784614567,0.0655426763287,1.97397768195,0.126003199918,-0.156639277138,-0.770066537403,-0.00935274598539,-1.16981538818,-0.0773252083582,0.39139170247,-0.189571778943,0.573701538653,0.81904769862,0.0028563674247,0.0,0.819014484743,-0.573637618443,-0.0116577609588,0.0,-0.00790989476748,0.00902765550425,-0.999927964906,0.0,0.63311727229,0.223800583331,0.303864114348,1.0,-0.169575428571,-0.222870563265,1.203
0.43898767011,0.390045205442,-0.125666062847,-1.59874079195,0.064103806063,1.98094436184,0.12252349619,-0.178565405866,-0.792334365435,-0.012589176021,-1.22277529293,-0.097840983201,0.417911090887,-0.210170162805,0.573750454123,0.819012374268,0.00314548726542,0.0,0.818983104451,-0.573685825256,-0.0114889262126,0.0,-0.00760519770107,0.00916805407093,-0.999929051359,0.0,0.630228080806,0.219939186429,0.30403545292,1.0,-0.182165142857,-0.239417044898,1.22
0.435832829541,0.375670835843,-0.125811789089,-1.62023980274,0.0624705587716,1.98809510657,0.118661692825,-0.189381369297,-0.877729808258,-0.00920420243942,-1.28344522787,-0.0914041400077,0.432699263624,-0.233475959761,0.573628135039,0.819098239882,0.00309564463557,0.0,0.819068595639,-0.573563999337,-0.0114769858305,0.0,-0.00762537538728,0.00911924285574,-0.999929344034,0.0,0.627046768108,0.215806690015,0.30404697478,1.0,-0.194754857143,-0.255963526531,1.237
0.43227366385,0.360507477898,-0.125994081314,-1.64269052212,0.0607600477846,1.99554285857,0.114656474457,-0.219186635746,-0.918100357285,-0.0182480828421,-1.34333724638,-0.105406282212,0.458362693644,-0.245472695614,0.573721001342,0.819032941211,0.00316239317056,0.0,0.819004448419,-0.573657001011,-0.0114063825178,0.0,-0.0075282189814,0.00913427113714,-0.999929943051,0.0,0.62369696275,0.211335854815,0.30410274811,1.0,-0.207344571429,-0.272510008163,1.254
0.428334576574,0.344694515741,-0.126227277886,-1.66613599412,0.0589864222665,2.00309042378,0.11022730639,-0.235987755336,-0.964740818104,-0.0174195418206,-1.37968285272,-0.105588941127,0.459472260281,-0.264257275137,0.573791150396,0.818984233265,0.0030476699117,0.0,0.818953956769,-0.573727128,-0.0115041814458,0.0,-0.00767336005114,0.00909707398611,-0.999929178887,0.0,0.62010569729,0.206525464692,0.304065219787,1.0,-0.219934285714,-0.289056489796,1.271
0.423331925659,0.325117564499,-0.126416624988,-1.69475055115,0.0567209309083,2.01231986188,0.104704845515,-0.257254087953,-1.01356095096,-0.0111923055348,-1.45186835459,-0.126715216411,0.476071281326,-0.283484379745,0.573771467159,0.818997675553,0.00313971557814,0.0,0.818968596246,-0.573707172827,-0.0114570986951,0.0,-0.00758220583302,0.00914526086194,-0.99992943469,0.0,0.615618968285,0.20063191553,0.304110649358,1.0,-0.234745714286,-0.308522938775,1.291
0.419864793995,0.311992170852,-0.126521146183,-1.71392090996,0.0551579917759,2.01825683052,0.100895201842,-0.266640737352,-1.0033146704,-0.00322203525806,-1.4718523632,-0.123481829669,0.45421153282,-0.299331031004,0.573690037817,0.819055208951,0.00300867084315,0.0,0.819024085944,-0.573625749116,-0.0115669139016,0.0,-0.00774823919398,0.00910017236739,-0.999928573275,0.0,0.612498065961,0.196639723484,0.304069821344,1.0,-0.244373142857,-0.321176130612,1.304
0.414640781674,0.29303427459,-0.126698006747,-1.7411604119,0.0528682501363,2.02669268519,0.0952690244819,-0.301151289604,-1.06612441087,-0.00541906800721,-1.48451919528,-0.11592789619,0.455295995407,-0.310917907896,0.573586397679,0.819127597899,0.00306098998093,0.0,0.819097207562,-0.573522020682,-0.0115327038991,0.0,-0.00769135896551,0.00912242606572,-0.999928809636,0.0,0.608018532128,0.19081434782,0.304129905052,1.0,-0.257703428571,-0.338695934694,1.322
0.408928404567,0.273389153336,-0.126904059834,-1.76914318666,0.0505606350124,2.03523523248,0.0892879696072,-0.329203256013,-1.09620770729,-0.00763578104404,-1.53847955778,-0.12586528671,0.460783974189,-0.342330893876,0.573566778972,0.819140773239,0.00320789296854,0.0,0.819111669233,-0.573501204766,-0.0115407261352,0.0,-0.00761389543902,0.0092471777174,-0.999928256577,0.0,0.603316875135,0.184676880113,0.304188776299,1.0,-0.271033714286,-0.356215738775,1.34
0.403711633517,0.256506442044,-0.127159019351,-1.79304796255,0.0484194925476,2.04235601072,0.0839957667141,-0.358374209626,-1.1003625779,-0.0190960273572,-1.59989110936,-0.139437298892,0.460714203248,-0.359617318875,0.573620914407,0.819102917079,0.00319447785213,0.0,0.819074024408,-0.573555842023,-0.0114971962812,0.0,-0.00758532161881,0.00921172342839,-0.999928800989,0.0,0.599229334196,0.179213050048,0.304205284051,1.0,-0.282142285714,-0.37081557551,1.355
0.397391509458,0.236774310297,-0.127392893888,-1.82064486379,0.0459403941745,2.05037497057,0.0776844214772,-0.374003727679,-1.14598656051,-0.00388879752945,-1.58061484781,-0.141692276726,0.465845795881,-0.369323107268,0.573647165302,0.819084287901,0.00325667864339,0.0,0.819056058469,-0.573581727544,-0.0114857221884,0.0,-0.00753994838476,0.00925633256127,-0.999928732203,0.0,0.594378110929,0.172830977528,0.304258230388,1.0,-0.294732,-0.387362057143,1.372
0.391078807562,0.217696098325,-0.127572643878,-1.84715236583,0.0435335484996,2.05792952243,0.0713239371034,-0.40795495557,-1.20671396432,-0.00818400627709,-1.66209539357,-0.153610241616,0.466287927944,-0.410548033128,0.57351597407,0.819175880761,0.00332426934978,0.0,0.819147999901,-0.573449699623,-0.0115214218729,0.0,-0.00753191466294,0.00933096772715,-0.999928099067,0.0,0.589584829824,0.166656988435,0.304270887499,1.0,-0.306581142857,-0.402935216326,1.388
0.383820687429,0.196879611604,-0.127836313692,-1.87575397337,0.0407604510294,2.06577381849,0.0642219136184,-0.436584325168,-1.23189646136,-0.0120945221562,-1.67573868238,-0.161686985013,0.470993920897,-0.426280366176,0.573458244786,0.819216486583,0.0032766597162,0.0,0.819188051914,-0.573392201545,-0.0115354111206,0.0,-0.00757133361273,0.00929945614714,-0.999928094926,0.0,0.584290721065,0.159753588844,0.30428442339,1.0,-0.319170857143,-0.419481697959,1.405
0.376348123957,0.176682939612,-0.128229584723,-1.90306968316,0.0381249519088,2.07308987088,0.057086156103,-0.483963209216,-1.27894075359,-0.0229422672022,-1.69225633267,-0.155969504267,0.465357540632,-0.451902821606,0.573604137157,0.819113898642,0.00338552624338,0.0,0.819086694332,-0.573537519943,-0.0115085745328,0.0,-0.00748525114232,0.00937458595388,-0.999928041488,0.0,0.579158448331,0.152865908975,0.30435825738,1.0,-0.33102,-0.435054857143,1.421
0.367420515945,0.153426238837,-0.128597045723,-1.93421913689,0.034934161875,2.08116063248,0.0485877490733,-0.503355265037,-1.30341485988,-0.0200710117237,-1.73304402377,-0.189919639083,0.464799919808,-0.483882703791,0.573582003483,0.819129212246,0.00343013518142,0.0,0.819102772128,-0.573515491884,-0.0114619441172,0.0,-0.00742172048081,0.00938417878092,-0.999928425065,0.0,0.57312097856,0.144925276399,0.304407771947,1.0,-0.344350285714,-0.452574661224,1.439
0.359462819018,0.133610663634,-0.128913648014,-1.96041213653,0.0321811879024,2.08769982283,0.0411194842491,-0.544089591667,-1.34995223415,-0.0189096469713,-1.76488291273,-0.180948026416,0.446009901659,-0.514585545664,0.573573462178,0.819134952121,0.00348720517126,0.0,0.819109307388,-0.57350685931,-0.0114268007734,0.0,-0.00736029752741,0.00941069307877,-0.999928629891,0.0,0.567910395075,0.138090174198,0.304457792148,1.0,-0.355458857143,-0.467174497959,1.454
0.349163408752,0.109341559632,-0.129418305732,-1.99210428127,0.0287015046206,2.09527941038,0.0315844717789,-0.587968418826,-1.3791946513,-0.0327435747925,-1.78724709738,-0.2033240167,0.408705370507,-0.539752196276,0.573651286846,0.819080413234,0.00349637766011,0.0,0.819055262369,-0.573585128586,-0.0113720865479,0.0,-0.00730932384633,0.00938751934288,-0.999929221628,0.0,0.561460032545,0.129502881285,0.304504855173,1.0,-0.368789142857,-0.484694302041,1.472
0.33879501994,0.0859742968891,-0.129797547996,-2.02233813508,0.0253425753993,2.10214279995,0.0219756588555,-0.622142847212,-1.37428607781,-0.024553723285,-1.81055725515,-0.184987637966,0.3949208172,-0.574072998815,0.573557084791,0.819146628334,0.00343783011427,0.0,0.819120198232,-0.573490440711,-0.0114700550581,0.0,-0.00742423715993,0.00939490830732,-0.99992830563,0.0,0.555088453477,0.121226387591,0.304476233667,1.0,-0.37998,-0.499402285714,1.489
0.327738998954,0.0625620256904,-0.130200887341,-2.05221655858,0.0219066981579,2.10858337002,0.0118984415418,-0.665457123924,-1.35921234868,-0.0252482146823,-1.73969765573,-0.206485111987,0.352850221831,-0.594806488218,0.573533670369,0.819163328332,0.00336413002493,0.0,0.819135406939,-0.57346657925,-0.0115764624895,0.0,-0.00755394284247,0.00939534992806,-0.999927330033,0.0,0.548632939978,0.112745179821,0.304436385344,1.0,-0.37998,-0.499402285714,1.506
0.316046720024,0.0392786176677,-0.13069415787,-2.08136674739,0.0184191246164,2.11439374459,0.0016073691141,-0.691441045799,-1.35898781815,-0.0182773707648,-1.71797413935,-0.194552344866,0.323581237689,-0.603296185939,0.573810018749,0.8189701684,0.0032668877279,0.0,0.818940448726,-0.573742542357,-0.01169544491,0.0,-0.00770401634305,0.00938653068472,-0.999926267869,0.0,0.542164242916,0.104087147674,0.30443978806,1.0,-0.37998,-0.499402285714,1.523
0.306152029446,0.0202090677724,-0.131001443524,-2.10484686009,0.0155330389893,2.11892418361,-0.00715591016907,-0.718785635538,-1.32405274583,-0.0259568958768,-1.64624834749,-0.21508867445,0.307632511933,-0.63182986253,0.573863354716,0.81893257799,0.00332110249859,0.0,0.818903445813,-0.573795549311,-0.011685928602,0.0,-0.00766450136915,0.00942596994964,-0.999926200531,0.0,0.536825135253,0.0970461596293,0.304479895534,1.0,-0.37998,-0.499402285714,1.537
0.292181216197,-0.00522893897937,-0.131505257474,-2.13554192606,0.0116835021195,2.12448674269,-0.0194136214297,-0.73085594911,-1.32002444969,-0.01684850998,-1.53962782939,-0.19559516811,0.281428121476,-0.652188720201,0.574085586822,0.818775906236,0.00353571385975,0.0,0.818749511346,-0.57401700623,-0.0115957376433,0.0,-0.00746489443505,0.00955199374999,-0.999926514683,0.0,0.529689977708,0.0874396771134,0.304603933831,1.0,-0.37998,-0.499402285714,1.556
0.280150304192,-0.0264545845733,-0.131771458778,-2.16079586273,0.00839356021039,2.12870473658,-0.0300858746783,-0.760046136174,-1.31385005126,-0.0188772657967,-1.51574654424,-0.19568412194,0.247286759078,-0.671008945695,0.57397503258,0.818852895582,0.00365298135862,0.0,0.818828035789,-0.573906130633,-0.0115389743858,0.0,-0.00735239574744,0.00961443185727,-0.999926749806,0.0,0.523611141164,0.0795114422646,0.304680755097,1.0,-0.37998,-0.499402285714,1.572
0.266766953132,-0.0486852365995,-0.132249004891,-2.18698543986,0.00490837929998,2.13273619892,-0.0417302994359,-0.786515025465,-1.29098913575,-0.0249191843522,-1.49040740532,-0.19475023178,0.22756046288,-0.687419935091,0.574189175571,0.81870254252,0.00369924708719,0.0,0.818677924929,-0.574119635765,-0.01156918163,0.0,-0.00734804949778,0.00967157699912,-0.999926230663,0.0,0.51715567914,0.0709039145572,0.304695273587,1.0,-0.37998,-0.499402285714,1.589
0.253136324352,-0.0705975148674,-0.13251971504,-2.2124225757,0.00139081271676,2.13629894321,-0.0538017604627,-0.812095652822,-1.27379465264,-0.0173814272544,-1.44518543573,-0.207386873557,0.20004640656,-0.712675728209,0.574001007375,0.818834490074,0.00369706630326,0.0,0.818809724423,-0.573931343349,-0.0115842657398,0.0,-0.0073638758775,0.00967676035293,-0.999926064087,0.0,0.5106786621,0.0625144605423,0.304694647335,1.0,-0.37998,-0.499402285714,1.606
0.238903506597,-0.0922703953106,-0.132943738198,-2.23717768921,-0.00203927808317,2.13937604547,-0.0662834948275,-0.833184027025,-1.25430772224,-0.0118848362995,-1.41805646103,-0.195986106574,0.159249821894,-0.733987322951,0.574066769503,0.818788222912,0.00373323899276,0.0,0.818763115689,-0.573995917301,-0.0116787931788,0.0,-0.00741973722539,0.00976123339516,-0.999924830086,0.0,0.504202789648,0.0539923750364,0.304689526463,1.0,-0.37998,-0.499402285714,1.623
0.224364926972,-0.113591432666,-0.133217506657,-2.26121263007,-0.0056190008382,2.1420235428,-0.0791046295101,-0.869187595276,-1.22881140568,-0.0162840516897,-1.41340186545,-0.216191502929,0.145218159052,-0.764169145237,0.573854116956,0.818937793717,0.00361792433601,0.0,0.818911357522,-0.573783885165,-0.0117042106461,0.0,-0.00750925833842,0.00967945515389,-0.999924956778,0.0,0.497719489393,0.0456160605481,0.304651661,1.0,-0.37998,-0.499402285714,1.64
0.209232719833,-0.134690739966,-0.13360894134,-2.28453613622,-0.00903425306796,2.14419141725,-0.092425998828,-0.892792625519,-1.23100537947,-0.0175167840848,-1.36886767253,-0.203967217909,0.128505979101,-0.784189660823,0.573829767033,0.818954824512,0.00362502086157,0.0,0.818927661426,-0.57375846147,-0.011809324474,0.0,-0.00759156302097,0.00974535939688,-0.999923695159,0.0,0.49124328162,0.0371513168189,0.304641392671,1.0,-0.37998,-0.499402285714,1.657
0.19363451126,-0.155549548271,-0.134044756457,-2.30719281012,-0.0124852148426,2.14598691223,-0.106207249407,-0.937011297455,-1.20973530843,-0.0361669975622,-1.32636252936,-0.203082100284,0.0857501372995,-0.828519118814,0.573777540436,0.818991315422,0.00364777398977,0.0,0.818964120374,-0.573705743038,-0.0118421639484,0.0,-0.0076060269819,0.0097823520612,-0.999923224024,0.0,0.484771062275,0.0286783443061,0.304642536713,1.0,-0.37998,-0.499402285714,1.674
0.176606955344,-0.177278249944,-0.134457199652,-2.33041609815,-0.016043640634,2.14734279103,-0.121244586597,-0.952632923025,-1.19123086659,-0.020944529707,-1.28475828123,-0.191307514079,0.0568766734733,-0.847576951631,0.57371132376,0.819037866856,0.00361061589133,0.0,0.819008925809,-0.573638058563,-0.0120209864573,0.0,-0.00777460610065,0.00985389241397,-0.999921225049,0.0,0.478272694649,0.0202599269983,0.304608250597,1.0,-0.37998,-0.499402285714,1.691
0.160810256783,-0.196442088136,-0.135002980932,-2.3503877453,-0.0192721869265,2.14830625585,-0.135125964224,-0.996026352326,-1.19886558989,-0.0326303669756,-1.23979996475,-0.199331052688,0.0654448254625,-0.873527350933,0.573877298999,0.818920864776,0.00376959272457,0.0,0.818894458828,-0.573804029225,-0.011897405068,0.0,-0.00758017169479,0.00991474016918,-0.999922116429,0.0,0.471838195508,0.0116623973529,0.304687972135,1.0,-0.37998,-0.499402285714,1.708
0.143672395562,-0.216372056615,-0.135506705935,-2.37092593576,-0.0225510906886,2.14883749009,-0.150372829448,-1.02975492176,-1.17274063306,-0.0430485880145,-1.17529473224,-0.203910556572,0.0398855917392,-0.894740478013,0.573887628731,0.818913322418,0.00383495204795,0.0,0.818886707523,-0.57381273153,-0.0120106735055,0.0,-0.00763530323821,0.0100333613669,-0.999920513743,0.0,0.465368697099,0.00318391770498,0.304695355428,1.0,-0.37998,-0.499402285714,1.725
0.127077533146,-0.234847823419,-0.136002700184,-2.38970946379,-0.0257634775815,2.14904946879,-0.165089932969,-1.03659737001,-1.1433912688,-0.0307397948873,-1.15916981293,-0.19574034004,0.00697306893289,-0.926556055718,0.573904484881,0.818901725365,0.00378857879712,0.0,0.818874318563,-0.573829513017,-0.0120535177914,0.0,-0.00769679637711,0.0100201307185,-0.999920174967,0.0,0.459261533531,-0.00481218685031,0.30467879862,1.0,-0.37998,-0.499402285714,1.741
0.106644262993,-0.256409505844,-0.136636738067,-2.41104337443,-0.0293568456803,2.14906054872,-0.18329511273,-1.08567071747,-1.11478238663,-0.0282301755902,-1.1153148043,-0.203804224377,-0.0149019515879,-0.978206266008,0.574028668566,0.818813332476,0.00406953613784,0.0,0.818789970671,-0.573953173243,-0.0118947784807,0.0,-0.0074040225773,0.0101602348451,-0.999920971916,0.0,0.45210458935,-0.0143535762232,0.304764461947,1.0,-0.37998,-0.499402285714,1.76
0.0913260549232,-0.27201601267,-0.13704953492,-2.42616472965,-0.0320277036901,2.14890912481,-0.197092060668,-1.10714352023,-1.11194545173,-0.0346720261326,-1.06218944109,-0.191621677312,-0.00725964543977,-0.994714415454,0.573948899249,0.818868009427,0.00431173866453,0.0,0.818849260344,-0.573874699953,-0.0115958824254,0.0,-0.00702123460738,0.010186304088,-0.999923467808,0.0,0.446872555108,-0.0212919959933,0.304864580422,1.0,-0.37998,-0.499402285714,1.774
0.069909637093,-0.292630682689,-0.137626287957,-2.44617984829,-0.0355297518237,2.14806064754,-0.216455123807,-1.14244304992,-1.08148608008,-0.021124307158,-1.02568874768,-0.188017565234,-0.0406370672107,-1.02995789652,0.573870014517,0.818923390818,0.00429340323093,0.0,0.818903103839,-0.573794012945,-0.011784911252,0.0,-0.00718754879652,0.0102790863274,-0.999921336669,0.0,0.439617107269,-0.0307127334738,0.30480158094,1.0,-0.37998,-0.499402285714,1.793
0.052421121823,-0.308585402607,-0.138161150508,-2.4612486892,-0.0383392391427,2.14724294421,-0.232252447882,-1.1743485957,-1.05755120532,-0.0264598343633,-1.00877909573,-0.181582248302,-0.0613901861346,-1.05530989677,0.573895420909,0.818905125431,0.00438044549152,0.0,0.818886517805,-0.573819928888,-0.0116750618679,0.0,-0.00704731676561,0.010287550367,-0.999922247794,0.0,0.433948306032,-0.0382403587656,0.304834004382,1.0,-0.37998,-0.499402285714,1.808
0.0321359477003,-0.326284046306,-0.138780221174,-2.47768227535,-0.0412969448526,2.14600366746,-0.250624525244,-1.20599872626,-1.03105454845,-0.0329008420319,-0.941152819145,-0.174025315263,-0.077880194552,-1.09348274726,0.574020121012,0.818816635213,0.00457880701144,0.0,0.818800196145,-0.573943390683,-0.0116606168421,0.0,-0.00692006425837,0.0104427578253,-0.999921527681,0.0,0.427506967947,-0.046727642099,0.304872935565,1.0,-0.37998,-0.499402285714,1.825
0.00882746865227,-0.345458311533,-0.139440312125,-2.4953657814,-0.0447138320592,2.14428716156,-0.271914383569,-1.25282506221,-1.00454468604,-0.0522363850174,-0.910408766349,-0.180695961958,-0.100050218852,-1.1142339068,0.573971275535,0.818851133187,0.00453248732425,0.0,0.818833508312,-0.573893824679,-0.0117605510979,0.0,-0.00702910943975,0.0104617724333,-0.999920568314,0.0,0.420242315665,-0.0562049830008,0.30482387677,1.0,-0.37998,-0.499402285714,1.844
-0.0113026975523,-0.361123004166,-0.139943843633,-2.50929993508,-0.0474282172715,2.14266671411,-0.29043194466,-1.26902891231,-0.967811624403,-0.0303412429063,-0.873982278652,-0.177463495049,-0.0995173168429,-1.15153550896,0.573896965254,0.818902329789,0.00468982300155,0.0,0.818887471427,-0.573820131128,-0.011597980594,0.0,-0.00680662952829,0.0104966852589,-0.999921741634,0.0,0.414229735839,-0.0641572472976,0.304910377199,1.0,-0.37998,-0.499402285714,1.86
-0.0331701934127,-0.377230520939,-0.140575474709,-2.52364270341,-0.0503091135622,2.14067780606,-0.310695488415,-1.28917490343,-0.923724407592,-0.0403905384793,-0.817051543209,-0.157003236926,-0.128142845023,-1.21755105992,0.573795630288,0.818973418253,0.00467565603379,0.0,0.818957657559,-0.573717753828,-0.0117064499356,0.0,-0.00690489738263,0.0105464771846,-0.999920543949,0.0,0.407737542515,-0.0726112241771,0.304880931078,1.0,-0.37998,-0.499402285714,1.877
-0.0556796018931,-0.392792798028,-0.141169392795,-2.53704931543,-0.0530381659461,2.13867686997,-0.33147438603,-1.33023655533,-0.892568078456,-0.0306816327286,-0.793161318228,-0.148350227158,-0.12880735528,-1.24766346837,0.573849721217,0.81893438141,0.00487065748351,0.0,0.818922180293,-0.573772862059,-0.0114853076009,0.0,-0.00661118947691,0.0105797337034,-0.999922177676,0.0,0.401344154223,-0.0811036949929,0.304971662206,1.0,-0.37998,-0.499402285714,1.894
-0.075918906021,-0.405941001587,-0.141705638225,-2.54844853426,-0.0553654246702,2.13658184428,-0.350336896718,-1.35174241765,-0.86135993201,-0.023606710849,-0.749305235515,-0.155073870873,-0.156612376823,-1.27228143874,0.573819489882,0.81895573993,0.00484107097979,0.0,0.818941656415,-0.573740351759,-0.0117183212509,0.0,-0.0068193999785,0.0106889616051,-0.999919617711,0.0,0.395597285824,-0.0885498299295,0.304920292651,1.0,-0.37998,-0.499402285714,1.909
-0.100729921047,-0.421121984701,-0.142366583721,-2.56107655617,-0.0580723305735,2.13427690021,-0.373605425008,-1.38887669576,-0.831763527279,-0.0301643856414,-0.695886267654,-0.153210605868,-0.135435840639,-1.30447863138,0.573769990071,0.818988964013,0.00508155685345,0.0,0.818979650758,-0.573692824132,-0.0113851695001,0.0,-0.00640919886869,0.0106943661479,-0.999922273331,0.0,0.388864343765,-0.0975272052021,0.305043560154,1.0,-0.37998,-0.499402285714,1.927
-0.124733248685,-0.434597339013,-0.142995714112,-2.57255963956,-0.0604836724277,2.1317473457,-0.396149737201,-1.42418250348,-0.75852827754,-0.0448392460731,-0.654600698116,-0.138551704631,-0.14581641826,-1.3268707386,0.573795908167,0.818971092408,0.00503512386009,0.0,0.818958674697,-0.573714777567,-0.0117809185278,0.0,-0.00675963689479,0.0108836107523,-0.999917923795,0.0,0.382328727992,-0.105971658651,0.30492570341,1.0,-0.37998,-0.499402285714,1.944
-0.146300496337,-0.446072708355,-0.143507528068,-2.58177058834,-0.0625955235413,2.1296340538,-0.416562253066,-1.46620422303,-0.744770662638,-0.042776806947,-0.593867209965,-0.130355746495,-0.135429633773,-1.37159225483,0.573714349575,0.819027367934,0.00517325499099,0.0,0.819018171954,-0.573635146759,-0.0115195188256,0.0,-0.00646736481445,0.0108461119175,-0.999920264345,0.0,0.376699051958,-0.113448380139,0.305041798675,1.0,-0.37998,-0.499402285714,1.959
-0.171242482568,-0.458151515823,-0.144107171949,-2.59172234309,-0.0649138739655,2.12716442034,-0.440218120331,-1.49254845157,-0.689832746676,-0.0389828922509,-0.563911702739,-0.129075509689,-0.156721216166,-1.40919256221,0.573664368252,0.819062712036,0.00511988791437,0.0,0.81905183223,-0.573583692452,-0.0116872055977,0.0,-0.0066359978616,0.010898196817,-0.999918593106,0.0,0.370213168694,-0.121918334699,0.304980820793,1.0,-0.377922857143,-0.496698612245,1.976
-0.196372130443,-0.469203428984,-0.144498797783,-2.60077600602,-0.0668465520627,2.12479372544,-0.464139744208,-1.49928299822,-0.626542738933,-0.024651194153,-0.50572418107,-0.111753609932,-0.136186955158,-1.4149353371,0.573602211193,0.819105909556,0.00517292443004,0.0,0.819094094202,-0.573518706465,-0.0119123918846,0.0,-0.00679087240717,0.0110702993135,-0.999915662706,0.0,0.363844561992,-0.130209394019,0.304903619798,1.0,-0.365333142857,-0.480152130612,1.993
-0.2214269322,-0.479238923723,-0.144745172654,-2.6085950059,-0.0685652310012,2.12261517647,-0.487768796981,-1.47360161731,-0.570539466814,-0.00827920458609,-0.44962938217,-0.0977757067288,-0.1312416639,-1.3891668548,0.573762275044,0.818992776516,0.00533204010782,0.0,0.81898392732,-0.573679677483,-0.0117346212491,0.0,-0.00655181313151,0.0110999518413,-0.999916928957,0.0,0.357740136373,-0.138344796012,0.304983884717,1.0,-0.352743428572,-0.46360564898,2.01
-0.247583641004,-0.488690661487,-0.144789017002,-2.61608294181,-0.070085030729,2.12035657016,-0.512588635991,-1.44952820032,-0.497105977813,-0.00218788139769,-0.390693477404,-0.0823420543299,-0.126381061593,-1.37246949017,0.573826033165,0.818947493283,0.00542529343222,0.0,0.818938769425,-0.573741252401,-0.0118749369837,0.0,-0.00661236253571,0.0112573478494,-0.999914770759,0.0,0.35106330077,-0.147052474229,0.304959955337,1.0,-0.338672571429,-0.445112522449,2.029
-0.271780548047,-0.49647889749,-0.144677229522,-2.62217224331,-0.0712599632535,2.11849819206,-0.535585107755,-1.40835271242,-0.438463094842,0.0109736527997,-0.339148761305,-0.0553928693718,-0.101085893879,-1.34813346092,0.573842778595,0.818935055554,0.00553056421081,0.0,0.818927618641,-0.573757470259,-0.0118603393579,0.0,-0.00653977105112,0.0113353201112,-0.99991436729,0.0,0.345698718204,-0.154099035261,0.304965374553,1.0,-0.326823428572,-0.429539363265,2.045
-0.295352138538,-0.503232685949,-0.144451601345,-2.627370455,-0.0721755274537,2.11680166687,-0.558096071138,-1.36544111494,-0.370766288903,0.0060050723752,-0.284031376461,-0.0514977130413,-0.0908707690236,-1.3025376585,0.573848456432,0.818930052066,0.00568029713592,0.0,0.818924404321,-0.573762320979,-0.0118476129524,0.0,-0.00644334987786,0.0114506888148,-0.999913678758,0.0,0.340237934823,-0.161289231979,0.304986676628,1.0,-0.314233714286,-0.412992881633,2.062
-0.315770052405,-0.508428323702,-0.14416984125,-2.63125490261,-0.0728687107447,2.11552328849,-0.577541962379,-1.35460274387,-0.334933254275,0.0276129758053,-0.249705624629,-0.0518208997504,-0.0780069203417,-1.28923516892,0.573913161285,0.818883859868,0.00580122852201,0.0,0.818880721239,-0.573828278975,-0.0116712267019,0.0,-0.00622859011197,0.0114490052376,-0.999915058865,0.0,0.335612416989,-0.167463142559,0.305050967397,1.0,-0.303125142857,-0.398393044898,2.077
-0.338273573433,-0.513507489239,-0.143806287472,-2.63514147533,-0.0735578595836,2.11412604395,-0.599012050737,-1.29851173914,-0.274005390366,0.0441274097337,-0.217184940896,-0.0402634447314,-0.0882924569665,-1.24946727246,0.573971703633,0.818842505027,0.00584656239098,0.0,0.818839701127,-0.573886185571,-0.011701998563,0.0,-0.00622695231598,0.0115042349441,-0.999914435161,0.0,0.33050126758,-0.17417211259,0.305055215712,1.0,-0.290535428572,-0.381846563265,2.094
-0.358778865366,-0.517454794242,-0.143415919846,-2.63832314375,-0.0740115954914,2.11299432828,-0.618648742747,-1.27445626585,-0.228678806839,0.0127366822339,-0.189717375577,-0.0330439342635,-0.0568316820488,-1.21505781382,0.574020716654,0.818807733514,0.00590417565379,0.0,0.818804273523,-0.573932389667,-0.0119130455,0.0,-0.00636601870871,0.0116729239124,-0.99991160442,0.0,0.325862261047,-0.180197805123,0.304979029696,1.0,-0.278686285714,-0.366273404082,2.11
-0.38098596592,-0.521093243723,-0.14278862567,-2.64118958912,-0.0743964805011,2.11194965034,-0.639963073865,-1.22436561391,-0.192222262823,0.0329322864551,-0.145089967305,-0.0268857858255,-0.0560373635749,-1.15067415976,0.573969658842,0.818843502874,0.00590723552525,0.0,0.818839522625,-0.573880306317,-0.011999046192,0.0,-0.00643541878407,0.0117243920977,-0.999910558008,0.0,0.320937977701,-0.186649751062,0.304941908301,1.0,-0.265356,-0.3487536,2.128
-0.399950555491,-0.523692232505,-0.142229396874,-2.64320920874,-0.0746000670316,2.11115259957,-0.658295234687,-1.16985652592,-0.152006464451,0.0356182352832,-0.116553668493,-0.0047786349075,-0.0514759915778,-1.11195682165,0.573882698094,0.818904144758,0.00594957373515,0.0,0.818900235657,-0.573792312221,-0.0120637215989,0.0,-0.00646533642607,0.0117954955338,-0.999909528762,0.0,0.316769510914,-0.192126964563,0.304924374825,1.0,-0.253506857143,-0.333180440816,2.144
-0.419457282408,-0.525913849998,-0.141578506535,-2.64490580618,-0.0747885394099,2.1104891278,-0.677002918771,-1.12305847648,-0.117910391138,0.0468508742027,-0.0916061258192,-0.00626340674325,-0.0361450037074,-1.0808918628,0.573893806483,0.818896500679,0.00593017347802,0.0,0.818892536389,-0.573803859776,-0.0120370782814,0.0,-0.00645448912116,0.0117644059758,-0.999909965108,0.0,0.312521988411,-0.197734075023,0.304927471645,1.0,-0.240917142857,-0.316633959184,2.161
-0.438082819263,-0.527577549398,-0.140983330784,-2.64619944746,-0.074818452192,2.1099641793,-0.694905219919,-1.07849634548,-0.0921605510162,0.0328491486768,-0.0702828493056,-0.00321096018256,-0.0248698176943,-1.04642661381,0.573975003626,0.818839093421,0.00599843305768,0.0,0.818835874935,-0.573884491828,-0.0120476910972,0.0,-0.0064228364083,0.0118270334293,-0.999909430125,0.0,0.308477272396,-0.203066124953,0.304918897095,1.0,-0.228327428572,-0.300087477551,2.178
-0.455716167409,-0.528822882714,-0.140245833195,-2.64719489149,-0.0748097334354,2.10953408847,-0.711933469724,-1.02230396245,-0.0710976544576,0.0405885835867,-0.0569868938035,-0.00113633755827,-0.0219384725644,-0.989015973162,0.573894106907,0.818895995333,0.00597074411492,0.0,0.818892246832,-0.573803418524,-0.0120777426959,0.0,-0.00646450620383,0.0118209690117,-0.999909233306,0.0,0.304662860362,-0.208043722009,0.304904227782,1.0,-0.215737714286,-0.283540995918,2.195
-0.471678922602,-0.529604575446,-0.139610513028,-2.64779704518,-0.0747771837531,2.10922599307,-0.727201522528,-0.970834011746,-0.0404118264822,0.0524164948503,-0.0365985459356,0.00459442128157,-0.0118708356782,-0.934183087726,0.573992633248,0.818827130375,0.00594427787681,0.0,0.818823090001,-0.573902133561,-0.0120762277589,0.0,-0.00647703386856,0.0117992049212,-0.999909409294,0.0,0.301222218384,-0.212563778538,0.304906403871,1.0,-0.203888571429,-0.267967836735,2.211
-0.487668213247,-0.530081774953,-0.138880815304,-2.64817253476,-0.0746656692513,2.1090127221,-0.742588310441,-0.934276541107,-0.0214201135226,0.0380439159301,-0.0191096949315,0.00221145060388,-0.0117399091379,-0.883657035849,0.573996600595,0.818824619593,0.00590692437146,0.0,0.818820268992,-0.57390657799,-0.012056273405,0.0,-0.00648207553215,0.0117571957155,-0.999909871461,0.0,0.297800479687,-0.217060288994,0.3049109939,1.0,-0.191298857143,-0.251421355102,2.228
-0.504304701676,-0.530271601067,-0.13797188369,-2.64831003774,-0.074429722086,2.10886038433,-0.758773247874,-0.849630074883,-0.00683417920814,0.0469937722916,-0.00714206964211,0.0157834430747,-0.00528266707846,-0.832887502204,0.573817724912,0.818950295879,0.0058633059731,0.0,0.818945670225,-0.573728449394,-0.012016758165,0.0,-0.00647730691872,0.0116973830818,-0.999910603866,0.0,0.294275921285,-0.221691993435,0.304928836117,1.0,-0.177228,-0.232928228572,2.247
-0.517607128935,-0.530260743971,-0.137272919698,-2.64832522511,-0.0741852903456,2.10881649899,-0.77147563065,-0.806205111651,0.000404583181934,0.0454043578272,-0.00144589908547,0.0156119387754,-0.00170528578492,-0.771469770698,0.573919585707,0.818878862646,0.00587063495425,0.0,0.818874560393,-0.573830672422,-0.0119816789586,0.0,-0.00644291728097,0.0116840587957,-0.999910981831,0.0,0.291438813762,-0.225383520776,0.30493272612,1.0,-0.165378857143,-0.217355069388,2.263
-0.530609909735,-0.530014835044,-0.136370583265,-2.64818954097,-0.0737806600367,2.10881288418,-0.784059021907,-0.747524836624,0.0150462917382,0.04984496138,0.010637224796,0.0239406874815,-0.00310216245153,-0.712392314608,0.573807230575,0.818957484637,0.00588620407864,0.0,0.818953329522,-0.573718176422,-0.0119851995859,0.0,-0.0064384705962,0.0116979458324,-0.999910848106,0.0,0.288714733583,-0.228922808913,0.304928208452,1.0,-0.152789142857,-0.200808587755,2.28
-0.541482269691,-0.529688313139,-0.135718101022,-2.6480242287,-0.0734382755506,2.10881421506,-0.794415826122,-0.715677830766,0.0226702253597,0.0421853015386,0.0180807681199,0.0241075902165,-0.00151140276342,-0.670467523982,0.573925143269,0.818874451076,0.00594223860512,0.0,0.818870493328,-0.573834865101,-0.0120585924658,0.0,-0.00646473406397,0.0117868802006,-0.999909634251,0.0,0.286395536781,-0.231891365005,0.30490148351,1.0,-0.141680571429,-0.186208751021,2.295
-0.553348336563,-0.529139317606,-0.134766070192,-2.6477282061,-0.072968027286,2.1088833158,-0.805880858538,-0.639162012749,0.0263079120076,0.051396670943,0.0166390040148,0.0267685640098,-0.00122276304988,-0.604298985005,0.573812720664,0.818953162089,0.00595204250425,0.0,0.8189489203,-0.573721674408,-0.0121182983658,0.0,-0.00650962830465,0.0118282802686,-0.999908854109,0.0,0.284053312047,-0.23490285322,0.304875854733,1.0,-0.129090857143,-0.169662269388,2.312
-0.563174011731,-0.528611732024,-0.134025179559,-2.64740128515,-0.0725615924928,2.10897150334,-0.815180363293,-0.598644458946,0.0360935999107,0.0482050541829,0.0277931764622,0.0297860597978,0.00933697054833,-0.563531882991,0.573900443126,0.818891446774,0.00598553928467,0.0,0.818887278052,-0.573808570778,-0.0121695048157,0.0,-0.00653107540623,0.0118857950172,-0.999908032236,0.0,0.281859076648,-0.23771517323,0.304849120662,1.0,-0.116501142857,-0.153115787755,2.329
-0.572667003734,-0.527995572054,-0.133240213623,-2.64694905414,-0.0721084242278,2.1091062882,-0.824146855245,-0.527805074682,0.0389426835768,0.0489293067408,0.0261502178599,0.0247512045693,0.0136026196482,-0.515570401586,0.57399635234,0.818823960964,0.0060212417483,0.0,0.818820565741,-0.573904866402,-0.0121174394961,0.0,-0.00646655436504,0.0118859114859,-0.999908450201,0.0,0.27990273809,-0.240267881196,0.304861342471,1.0,-0.103911428572,-0.136569306123,2.346
-0.580561046122,-0.527352044345,-0.132417492186,-2.64651003257,-0.0716548144501,2.10920606872,-0.831711803884,-0.485488686115,0.0372229997418,0.0473836382116,0.0285390896795,0.02419228737,0.00445125870803,-0.459524462255,0.573903295285,0.818889168936,0.00602358381564,0.0,0.818885585452,-0.573811416921,-0.0121491831745,0.0,-0.00649255835067,0.0119053114324,-0.999908050896,0.0,0.278309251552,-0.242342900656,0.304855261155,1.0,-0.0920622857144,-0.120996146939,2.362
-0.588226975304,-0.526734629917,-0.131579240759,-2.646041079,-0.0711867898839,2.10932706856,-0.838784385896,-0.43364557659,0.0410775178157,0.0548475344446,0.0275348544319,0.0319234203251,0.00573138807624,-0.397672617409,0.574022784843,0.818805419798,0.006022781077,0.0,0.818802114083,-0.573931414393,-0.0121068760224,0.0,-0.00645663675214,0.0118813173208,-0.99990856889,0.0,0.276772036372,-0.244349587261,0.304874269733,1.0,-0.0794725714287,-0.104449665306,2.379
-0.594863698857,-0.526077644166,-0.130753901899,-2.64556251668,-0.0706946431547,2.10946572874,-0.844969036167,-0.370390716126,0.0407909859657,0.0557941451969,0.0282956816108,0.0342626805735,0.00973732410072,-0.343905870226,0.574046266245,0.818788859311,0.00603613943215,0.0,0.818785875011,-0.573955104855,-0.0120820277513,0.0,-0.00642828044427,0.0118781773177,-0.999908788897,0.0,0.275477625579,-0.24606750963,0.304884092625,1.0,-0.066882857143,-0.0879031836736,2.396
-0.60037131313,-0.525487053401,-0.12981192485,-2.64518873356,-0.070163515391,2.10956897117,-0.850140094617,-0.306034907237,0.0266298788548,0.0581722317425,0.0188887197359,0.023545710908,0.00187370146857,-0.284191004218,0.573903541396,0.818888976599,0.00602628235142,0.0,0.818885523549,-0.573811825902,-0.012134029765,0.0,-0.00647859586985,0.0118988271212,-0.999908218642,0.0,0.274450250114,-0.247408883572,0.304870206499,1.0,-0.0542931428573,-0.071356702041,2.413
-0.605094325966,-0.525031501395,-0.128911208635,-2.64487952205,-0.0696633474725,2.10963023472,-0.854436602683,-0.263121494457,0.0264195720947,0.0536975168196,0.0167275305981,0.0362453488883,0.00777970106233,-0.241539706172,0.573846351679,0.818929157724,0.0060121706567,0.0,0.818925331044,-0.573754363021,-0.0121647025884,0.0,-0.00651264588782,0.0119044182419,-0.999907930897,0.0,0.273581196599,-0.248524453674,0.304871541553,1.0,-0.0417034285715,-0.0548102204083,2.43
-0.608683071834,-0.524640017286,-0.128073285659,-2.64460725135,-0.0691731321951,2.10975586227,-0.857501210672,-0.207976418351,0.0285472795683,0.0501079684491,0.0174860047887,0.0328013991188,0.00949755948616,-0.170868510681,0.573906897139,0.818886769791,0.00600654467349,0.0,0.818883222946,-0.573815567152,-0.0121123479383,0.0,-0.00647211724767,0.0118702472224,-0.999908600288,0.0,0.272980017628,-0.249343079852,0.304883297436,1.0,-0.0298542857144,-0.0392370612246,2.446
-0.611489036965,-0.524316460105,-0.127228042272,-2.64442375845,-0.0686463040728,2.10982355242,-0.859869185051,-0.147782735568,0.0140009461938,0.0529559277642,0.0083121358112,0.0316615333503,0.000709592678405,-0.129820091346,0.573902574032,0.818889595806,0.00603426056801,0.0,0.818886197894,-0.573810733855,-0.0121401611502,0.0,-0.00647905291433,0.0119088717096,-0.999908096101,0.0,0.272547840569,-0.24991274405,0.304874672914,1.0,-0.0199066666667,-0.0261630476191,2.463
-0.613783008438,-0.524117579255,-0.126607709573,-2.6442818251,-0.0682623807039,2.10982129683,-0.861799551668,-0.115973354679,0.00671672225315,0.035092808015,0.010335118301,0.0281847535344,-0.000642702176262,-0.103160850645,0.573932854317,0.818868198008,0.00605804658269,0.0,0.818864921973,-0.573840555867,-0.0121656444528,0.0,-0.00648583140453,0.0119432148315,-0.99990764254,0.0,0.272165111625,-0.250389930532,0.304881243894,1.0,-0.0195466666667,-0.0256899047619,2.481
-0.615461745736,-0.523965071419,-0.126185955629,-2.64409431325,-0.0680598862216,2.10986604124,-0.863371233634,-0.100126570126,0.00671548187661,0.0228567590376,0.0117914951548,0.0180679580148,0.00248344857529,-0.0982795816945,0.573818042078,0.818948980771,0.00601401538938,0.0,0.818945811231,-0.573727213121,-0.012066071947,0.0,-0.00643121685476,0.0118491106241,-0.999909114884,0.0,0.27189831087,-0.250781109895,0.304924590237,1.0,-0.0192266666667,-0.0252693333333,2.497
-0.617037299352,-0.523761185906,-0.12593601178,-2.64388408812,-0.0678998548691,2.10998674746,-0.864842233537,-0.0877298682471,0.00956313477362,0.0119043831658,0.0112386139859,0.00581117858782,0.00780197639239,-0.0919902864218,0.57380584373,0.818957556152,0.00601014349475,0.0,0.81895525348,-0.573716732402,-0.0119226952167,0.0,-0.00631618305643,0.0117635772629,-0.999910858068,0.0,0.271633836305,-0.25120191984,0.304961730795,1.0,-0.0188866666667,-0.0248224761905,2.514
-0.618747754417,-0.523567668956,-0.12577536565,-2.64371138453,-0.0678007940608,2.10998439456,-0.866514527889,-0.094696132215,0.00921270799121,0.00537883611985,0.008713503403,0.000325954261681,-0.000526202897052,-0.0990807830981,0.573774689018,0.818979345021,0.00601544454029,0.0,0.818977046796,-0.573685442687,-0.0119313273521,0.0,-0.00632065938832,0.0117726313054,-0.999910723223,0.0,0.271282136326,-0.251659544948,0.304972920437,1.0,-0.0185066666667,-0.0243230476191,2.533
-0.620078803614,-0.523427017319,-0.125684918897,-2.64357644214,-0.0677822693843,2.10998520819,-0.867801552862,-0.0923691290974,0.0123517834123,0.0083327115159,0.0106279218435,-9.07189589527e-05,0.000640793830047,-0.0909084263797,0.573766174708,0.818985487011,0.00599130429801,0.0,0.818982886298,-0.573677048521,-0.0119341046283,0.0,-0.00633690672963,0.0117543875562,-0.999910835018,0.0,0.271012802984,-0.252004923516,0.304981817032,1.0,-0.0182266666667,-0.0239550476191,2.547
-0.621556644082,-0.523219694843,-0.125601414622,-2.6433892566,-0.067736849729,2.11002202765,-0.869265452138,-0.0780274266826,0.00789891135514,-0.000177463247687,0.0131531560736,0.00366706904845,0.00553722993602,-0.0839174321933,0.57374308552,0.819001761356,0.00597776002509,0.0,0.818999199133,-0.573654416173,-0.0119025008525,0.0,-0.00631912238823,0.01172498398,-0.999911292787,0.0,0.270690610025,-0.252455057325,0.304999025352,1.0,-0.0178466666667,-0.0234556190476,2.566
-0.622812487681,-0.523009399454,-0.125579727897,-2.64325207094,-0.0677010277071,2.11011299573,-0.870569482387,-0.0789373682519,0.0150579292642,0.00247355426004,0.00616146104487,0.00564487815248,0.00626695825634,-0.0851746475605,0.573710928688,0.819024190082,0.00599109897615,0.0,0.819021947564,-0.573622485488,-0.0118760453006,0.0,-0.00629026040523,0.0117204841857,-0.999911527524,0.0,0.270423356024,-0.25282950613,0.304992489259,1.0,-0.0175266666667,-0.0230350476191,2.582
-0.624079537575,-0.522828377445,-0.125586716819,-2.64313292755,-0.0676812008549,2.11011126014,-0.871735244417,-0.081313212539,0.0108606566378,-0.000547367767516,0.00846034867053,0.00010982327009,8.02736729986e-05,-0.0691245684032,0.573813733545,0.818952004971,0.00601328952234,0.0,0.818949679446,-0.573724489213,-0.0119323054567,0.0,-0.00632213573866,0.0117717289129,-0.999910724514,0.0,0.270126720728,-0.253198090437,0.304979879384,1.0,-0.0172066666667,-0.0226144761905,2.598
-0.625323559225,-0.522656855969,-0.125582076087,-2.64303060644,-0.0676595338226,2.11011554368,-0.873008945091,-0.0834229581459,0.0152931758086,0.000122560152674,0.00497983052456,-8.81242938278e-05,0.00112278145825,-0.0741252247189,0.573800994895,0.818960777577,0.00603406569489,0.0,0.818958336337,-0.573710950082,-0.0119889950395,0.0,-0.00635682952591,0.0118211732785,-0.999909921233,0.0,0.269835274395,-0.253554095303,0.304963895406,1.0,-0.0168866666667,-0.0221939047619,2.614
-0.626610029867,-0.522457321005,-0.125579645618,-2.64289697557,-0.0676243275494,2.1101248697,-0.874279275097,-0.0741389619413,0.0130634016816,0.00286431706385,0.00627054321021,0.00330858932443,0.000147080383341,-0.0772342167909,0.573834709856,0.818936935793,0.00606365074052,0.0,0.818934545328,-0.573743911958,-0.0120366465565,0.0,-0.00637839455545,0.0118730072388,-0.999909169766,0.0,0.269540833617,-0.253928389342,0.304952232502,1.0,-0.0165466666667,-0.0217470476191,2.631
-0.627907555851,-0.522261768654,-0.125557988102,-2.6427542801,-0.0675926074423,2.11017064518,-0.875631246632,-0.0722250606639,0.0145809982238,0.00122332469018,0.00717260849741,-1.6511217593e-05,0.00295436921927,-0.0761317427164,0.573795610179,0.818964233248,0.00607694827507,0.0,0.818962022819,-0.573704776891,-0.0120324999178,0.0,-0.00636793541741,0.0118812142344,-0.999909138946,0.0,0.269271463622,-0.254286982226,0.304950310037,1.0,-0.0162066666667,-0.0213001904762,2.648
-0.629188746029,-0.522067444883,-0.125476683262,-2.64263010467,-0.0675671476003,2.11021076512,-0.876954147212,-0.0686606146421,0.0138308840399,0.00379910254668,0.00088131536175,-0.000467579593159,0.00224610600366,-0.0707607195322,0.573721747894,0.819016116019,0.00605843179041,0.0,0.819013520443,-0.573630740941,-0.0120570842416,0.0,-0.00639976680452,0.0118795777133,-0.999908955165,0.0,0.268979579507,-0.254666388731,0.304940132309,1.0,-0.0158266666667,-0.0208007619048,2.667
-0.630228060196,-0.521907846419,-0.125397904318,-2.64252135281,-0.067539986263,2.11023744251,-0.877950372014,-0.0656024055812,0.00913338672893,0.00380152257612,0.00786947233616,0.000402246538433,0.00293156426805,-0.0730499643725,0.573718662833,0.819018406329,0.00604093636509,0.0,0.819015487187,-0.573627554298,-0.0120750817642,0.0,-0.0064245903633,0.0118755488446,-0.999908843834,0.0,0.268760050003,-0.254953963626,0.304935088222,1.0,-0.0155266666667,-0.0204064761905,2.682
-0.63130289927,-0.521750771169,-0.125373777239,-2.64240888731,-0.0675152873246,2.11026757886,-0.879073559802,-0.0691329410457,0.0136933406282,0.000547184404132,0.00378788912253,0.000214867831147,0.00308797818992,-0.0636264931926,0.573672264819,0.819050844468,0.00604926902694,0.0,0.819048035055,-0.573581132369,-0.0120726038455,0.0,-0.00641845337118,0.0118805886385,-0.999908823378,0.0,0.268506177788,-0.255285323948,0.304935574205,1.0,-0.0151866666667,-0.0199596190476,2.699
-0.632570811649,-0.521556576561,-0.125361730138,-2.64225534228,-0.0674854617766,2.1102993569,-0.88039790715,-0.0643047406114,0.0115395066615,2.66290964453e-05,0.00846541420084,0.00468691595078,0.00311286845335,-0.061633743317,0.57364453556,0.819070142954,0.00606585887521,0.0,0.819067462913,-0.573553176664,-0.0120826999136,0.0,-0.00641760967731,0.0118997515266,-0.999908600923,0.0,0.26823869759,-0.255639140163,0.304933083361,1.0,-0.0148266666667,-0.0194864761905,2.717
-0.633641229571,-0.521391294744,-0.12536244312,-2.64212634024,-0.0674612163616,2.11032816553,-0.881419797246,-0.06820011454,0.00442449901959,9.93373732613e-05,0.00178559091337,0.00621226969207,0.00572678224219,-0.0684837019626,0.573707395522,0.819025982055,0.00608374418931,0.0,0.819023579841,-0.573616029347,-0.0120736673381,0.0,-0.00639903726443,0.0119097114865,-0.99990860137,0.0,0.267982848625,-0.255982122027,0.304937425073,1.0,-0.0144866666667,-0.0190396190476,2.734
-0.634697352899,-0.521224487945,-0.125351342531,-2.64201354343,-0.0674392752405,2.11036245156,-0.88248157096,-0.0671665900426,0.00977869256772,0.0009989186436,0.00271558691843,0.00185765421985,0.000281402398693,-0.0659274916145,0.573704828381,0.819027697639,0.00609485798902,0.0,0.819025281712,-0.573613119456,-0.0120964459942,0.0,-0.00641135724698,0.0119318619799,-0.999908258376,0.0,0.267759761649,-0.256266290812,0.304926573084,1.0,-0.0141866666667,-0.0186453333333,2.749
-0.635757466474,-0.521055035898,-0.12533252171,-2.64190113211,-0.0674193368463,2.11037654181,-0.883546960609,-0.0639886851577,0.00838514429849,0.00106244664449,0.00929271457548,-1.79300633441e-05,4.77934684669e-05,-0.0530196148615,0.573701724438,0.819029810178,0.00610314004327,0.0,0.819027259634,-0.573609528652,-0.0121327456258,0.0,-0.00643638498368,0.0119594454089,-0.999907768054,0.0,0.26751835027,-0.256571390843,0.304917027061,1.0,-0.0138466666667,-0.0181984761905,2.766
-0.636713823866,-0.520906629393,-0.125291381617,-2.64177435801,-0.0673948074933,2.11040597237,-0.884486161031,-0.0610187628808,0.00995605216489,0.00567500646752,0.00604978268322,0.00128076018727,0.00026964394916,-0.0589110087393,0.573690413018,0.81903782179,0.00609125528483,0.0,0.819035206934,-0.573598440471,-0.0121204700143,0.0,-0.00643331268886,0.0119425799128,-0.999907989403,0.0,0.26730474971,-0.256863202206,0.304923185966,1.0,-0.0135066666667,-0.0177516190476,2.783
-0.637771808794,-0.520731194199,-0.125233139005,-2.64162023839,-0.0673694974167,2.11045622753,-0.885616433355,-0.0577584812902,0.0118181046382,0.00263859733524,0.0119315289112,0.00344042525831,0.00381141569182,-0.0634935431,0.573621984512,0.819085803067,0.00608383102924,0.0,0.819083326386,-0.573530495324,-0.0120839675409,0.0,-0.00640866702052,0.0119150233993,-0.999908476414,0.0,0.267097485555,-0.257159611728,0.30493478877,1.0,-0.0131666666667,-0.0173047619048,2.8
-0.638719737394,-0.520576216297,-0.125186976512,-2.64149700244,-0.0673497150325,2.11047661841,-0.886562720262,-0.0593735288086,0.0080165063629,0.00237437377321,0.00697916276005,0.000475197455676,-0.000365782954566,-0.0562452689312,0.573605513904,0.819097406223,0.00607457320037,0.0,0.819094778899,-0.57351401262,-0.0120899715034,0.0,-0.00641913503689,0.0119107548287,-0.999908460123,0.0,0.266893669135,-0.257432012962,0.304936642506,1.0,-0.0128466666667,-0.0168841904762,2.816
-0.639683329288,-0.52041659344,-0.125165655074,-2.64137810937,-0.0673276969544,2.11050651886,-0.887543259322,-0.056990556817,0.0106343612751,-8.40717548663e-05,-0.0006156841764,4.72386114593e-05,0.00275861797314,-0.0592224231122,0.573592187125,0.819106700219,0.00607975552555,0.0,0.819104102616,-0.573500595944,-0.0120947273678,0.0,-0.00642025241692,0.0119176232686,-0.999908371109,0.0,0.266680801792,-0.257713809767,0.304935031981,1.0,-0.0125066666667,-0.0164373333333,2.833
-0.640639954527,-0.520272037386,-0.125174845362,-2.64127654286,-0.0673178159836,2.11052924081,-0.888469431345,-0.0639038208067,0.00890280533571,-0.00177767382238,0.0090220810736,0.00102816666356,0.00150833825584,-0.0518365329851,0.573633264074,0.819077843999,0.00609185672359,0.0,0.819075299779,-0.573541417591,-0.0121096036835,0.0,-0.00642489963497,0.0119363906722,-0.9999081174,0.0,0.266456964377,-0.257996380632,0.304929740816,1.0,-0.0121666666667,-0.0159904761905,2.85
-0.641571296631,-0.520126106479,-0.125169151281,-2.64117512839,-0.0673050721381,2.110553514,-0.889438607243,-0.0539831345093,0.0107977694316,-0.000474727482832,0.00866061404794,0.00337008969209,0.00557691338188,-0.0568075745427,0.573609075024,0.819094727593,0.00609944105243,0.0,0.819092177601,-0.573517005882,-0.0121241683086,0.0,-0.00643283302006,0.011950767512,-0.999907894666,0.0,0.266243007174,-0.258268617998,0.30492435492,1.0,-0.0118266666667,-0.0155436190476,2.867
-0.642485229025,-0.519985095454,-0.125168115127,-2.64107227787,-0.0673005656951,2.11059328626,-0.890319556406,-0.053649980082,0.0075438266936,-0.000358725232711,0.00904751221535,-0.000684900420751,0.000555198088197,-0.0505752946291,0.573642711011,0.819071172101,0.00609934738551,0.0,0.819068663402,-0.573550714159,-0.0121181608168,0.0,-0.00642747488384,0.0119475089606,-0.999907968063,0.0,0.266034451329,-0.258540517931,0.304922632157,1.0,-0.0114866666667,-0.0150967619048,2.884
-0.643319965024,-0.519844781314,-0.125147979586,-2.64096379725,-0.0672890960729,2.11061833724,-0.891103212888,-0.0516033843975,0.00482937983794,0.00122905743117,0.0030063048875,0.00418322605725,0.00345854820369,-0.0469746590323,0.573680860878,0.819044482937,0.00609522222666,0.0,0.819041912056,-0.573588858504,-0.0121208331761,0.0,-0.00643147380799,0.0119459624748,-0.999907960827,0.0,0.265849840903,-0.258785693428,0.304922917925,1.0,-0.0111666666667,-0.0146761904762,2.9
-0.644194612694,-0.519693665178,-0.125111004653,-2.64084905741,-0.0672828734471,2.11064642899,-0.891969321034,-0.0536519518751,0.00885415100752,0.00271998038091,0.00345280175856,-0.000592552419963,0.00113904070321,-0.0545325541941,0.573670326775,0.819051985781,0.0060784592455,0.0,0.819049184503,-0.573578378487,-0.012125345286,0.0,-0.00644493942213,0.0119347376612,-0.999908008165,0.0,0.265659536873,-0.259040021062,0.304922720539,1.0,-0.0108266666667,-0.0142293333333,2.917
-0.645035940601,-0.519560004072,-0.125095342381,-2.64075811628,-0.0672730233254,2.11068123098,-0.892812497894,-0.0507818424475,0.00838332115472,-0.000348047099763,-6.55029468858e-05,0.00166391433333,0.00470657748767,-0.0472221998079,0.573666747411,0.819054502496,0.00607715046103,0.0,0.819051663269,-0.573574766983,-0.0121287458819,0.0,-0.00644852791874,0.0119355881904,-0.999907974877,0.0,0.265469303834,-0.259284822801,0.30491819811,1.0,-0.0104866666667,-0.0137824761905,2.934
-0.646059695271,-0.519415661972,-0.125073634757,-2.64064917588,-0.0672624744162,2.11070802204,-0.89376946579,-0.0532021200863,0.00781213114457,0.000969136877784,0.00451581290018,0.00113022821692,0.00351797503641,-0.0378553947238,0.573716282612,0.81901983287,0.00607349417809,0.0,0.819016932207,-0.573624282376,-0.0121323670045,0.0,-0.0064528696947,0.0119350608536,-0.999907953161,0.0,0.265235512491,-0.259579782386,0.304917376718,1.0,-0.0100666666667,-0.0132304761905,2.955
-0.64665946712,-0.51935452271,-0.125079800512,-2.64059486691,-0.0672542483522,2.11072665451,-0.894351178177,-0.0486162659872,0.00432005078947,-0.00214834267159,0.00478481741442,0.00164761887929,-0.000505409683423,-0.0512935312703,0.573741754262,0.819001919616,0.00608292558273,0.0,0.818999233917,-0.573649877528,-0.0121169202731,0.0,-0.00643443533077,0.0119341242548,-0.999908083136,0.0,0.265093275733,-0.259754790389,0.304920997664,1.0,-0.00980666666667,-0.0128887619048,2.968
-0.647488268962,-0.519245299258,-0.125068709414,-2.64050272748,-0.0672441350879,2.11074328793,-0.895150097094,-0.0419202113164,0.00642769249023,-0.000168385193784,0.00137083129216,0.000317344775511,0.000186610262147,-0.0465992648906,0.573767461006,0.818983898657,0.00608451580825,0.0,0.818981260288,-0.57367562121,-0.012112961168,0.0,-0.00642990557123,0.0119333571536,-0.99990812143,0.0,0.264902621916,-0.259995016661,0.304924343809,1.0,-0.00944666666667,-0.0124156190476,2.986
-0.648178427986,-0.519142691147,-0.125063820105,-2.64042252882,-0.06723373307,2.11077266818,-0.895812767522,-0.0381432233159,0.00826152112778,-0.000237674943852,0.00525790296675,0.00111496775159,-0.000349031510075,-0.04362452508,0.573795132314,0.81896448705,0.00608785547492,0.0,0.81896196072,-0.573703399291,-0.0121022078816,0.0,-0.00641877867093,0.0119301397212,-0.999908231313,0.0,0.264745928676,-0.260198568096,0.30492563771,1.0,-0.00912666666667,-0.0119950476191,3.002
-0.648923458029,-0.519037262697,-0.12505800774,-2.64032371286,-0.0672164993173,2.11080432587,-0.896552542645,-0.034828461863,0.00724347734941,0.000999651000655,0.00514550694873,-0.000108313873314,0.00159448741966,-0.0418182880257,0.573807726092,0.818955613246,0.00609458046439,0.0,0.818953358493,-0.573716303661,-0.0120725484947,0.0,-0.00639044421541,0.0119187282123,-0.999908548889,0.0,0.264580182652,-0.260420692652,0.304934569223,1.0,-0.00876666666667,-0.0115219047619,3.02
-0.64950049852,-0.518928612986,-0.125053226679,-2.64024035567,-0.0672078714422,2.11082079156,-0.897102936878,-0.0399389958746,0.00958057270626,-0.000333018817766,0.00397471847069,-0.000474968958312,0.00042782280105,-0.0403870171157,0.573834208724,0.818937044609,0.00609629128497,0.0,0.818934775849,-0.573742705607,-0.0120783926264,0.0,-0.00639386360676,0.0119236893803,-0.999908467881,0.0,0.264451011278,-0.260593241455,0.304933961487,1.0,-0.00846666666667,-0.0111276190476,3.035
-0.650197732234,-0.518790798767,-0.125014824681,-2.64013961304,-0.0671947769636,2.11084554444,-0.897795046424,-0.0403314470983,0.00625635573837,-6.4750349025e-05,0.00703977783131,0.000558794798422,0.000763692322108,-0.0320032846723,0.573822060401,0.818945644586,0.00608449773231,0.0,0.818943176503,-0.573730525978,-0.0120873538133,0.0,-0.00640814705235,0.0119190776494,-0.999908431427,0.0,0.264302768711,-0.260794826944,0.304932012837,1.0,-0.00810666666667,-0.0106544761905,3.053
-0.650788890332,-0.518662734562,-0.124980355053,-2.6400684197,-0.0671797218433,2.11086549448,-0.898390808101,-0.0363857712323,0.00811153778546,0.00246539419624,0.000746300801867,0.000443858785577,-0.000394102642365,-0.0357759893623,0.573804156982,0.818958224704,0.00607968093311,0.0,0.818955481939,-0.573712253935,-0.0121208575165,0.0,-0.00643861246553,0.0119342162284,-0.999908055149,0.0,0.264174055037,-0.260960874015,0.304919722353,1.0,-0.00778666666667,-0.0102339047619,3.069
-0.651355430468,-0.51855996264,-0.124964266828,-2.64000512882,-0.0671665073722,2.1108937457,-0.89899123451,-0.0337198118611,0.00261802317067,-0.000437811731165,0.00211140619612,0.00530818743886,0.00418522141261,-0.0308072985103,0.573774030882,0.818979316582,0.00608172644695,0.0,0.818976546061,-0.573682024339,-0.0121284316247,0.0,-0.00644408157221,0.0119400003032,-0.999907950866,0.0,0.264047553548,-0.261124123335,0.304913425487,1.0,-0.00746666666667,-0.00981333333334,3.085
-0.651939000782,-0.51846025481,-0.124936729981,-2.63995515411,-0.0671529992847,2.11090943877,-0.89953491434,-0.0356539720467,0.0040841533273,0.00190924471477,0.00265061539548,0.000290600991676,0.00051439134103,-0.0268539631162,0.573795705975,0.818964136351,0.00608096017547,0.0,0.818961161002,-0.573703337684,-0.0121591118823,0.0,-0.00646933396725,0.011957146604,-0.999907582911,0.0,0.263914062271,-0.261284144253,0.304901403129,1.0,-0.00712666666667,-0.00936647619048,3.102
-0.652558235295,-0.518381277399,-0.124932272684,-2.639907571,-0.0671411024423,2.11092508684,-0.900143055116,-0.0328321005143,0.00394594292937,-0.000211927384434,-0.00027720249385,0.000338306583113,-0.000889739634073,-0.0354914348809,0.573809273603,0.818954558693,0.0060905848885,0.0,0.818951624537,-0.573716703388,-0.0121707773902,0.0,-0.00647316797112,0.0119718298171,-0.999907382405,0.0,0.263765867573,-0.261458432274,0.304895378358,1.0,-0.00674666666667,-0.00886704761905,3.121
-0.65298799338,-0.518328017016,-0.124925882885,-2.63986404508,-0.0671262728067,2.11093396676,-0.900571839637,-0.0310102795099,0.00352465477164,0.00107477910083,0.00868558562316,0.000513443296747,-6.94612542959e-05,-0.0272600993379,0.573814125733,0.818951089838,0.00609987404864,0.0,0.818948283349,-0.573721524789,-0.0121683234218,0.0,-0.00646575717342,0.0119780678616,-0.999907355646,0.0,0.263666389599,-0.261580408058,0.304896451591,1.0,-0.00646666666667,-0.00849904761905,3.135
-0.65353313221,-0.518271469636,-0.12491892233,-2.63978810618,-0.0671136995741,2.11094899618,-0.901112178532,-0.0250439232604,0.00319954136528,0.000555900879752,0.00424140763695,0.000294708105273,0.00510746141316,-0.0363859841014,0.573822250488,0.818945374524,0.00610289205775,0.0,0.818942848348,-0.57373008151,-0.0121306063986,0.0,-0.00643301509803,0.0119589619154,-0.999907795522,0.0,0.263544896524,-0.261742009816,0.30491157506,1.0,-0.00608666666667,-0.00799961904763,3.154
-0.653976982185,-0.518222480804,-0.124915029893,-2.6397103064,-0.0671009476852,2.11096480219,-0.901556887052,-0.0249935948718,0.00471653537899,0.00200168834981,0.00596654700009,0.00219487069467,0.00374896868282,-0.0340999767859,0.573828041864,0.818941295702,0.00610569125524,0.0,0.818939107441,-0.573736420919,-0.0120832328744,0.0,-0.00639252401434,0.0119341169753,-0.999908352045,0.0,0.263449893259,-0.261878240983,0.304930321952,1.0,-0.00576666666667,-0.00757904761905,3.17
-0.654408453607,-0.518172743485,-0.124899303213,-2.63962016285,-0.0670821789209,2.11099024595,-0.901968407392,-0.0252296189951,0.00494598899182,-0.000497088057514,0.00684996444286,-0.000223339142347,0.00390293558232,-0.0241886312384,0.573845609046,0.818928996331,0.00610433031836,0.0,0.818927229834,-0.573754812901,-0.0120147330927,0.0,-0.00633694641891,0.0118938331398,-0.999909185798,0.0,0.263365523956,-0.262012519047,0.304955506189,1.0,-0.00544666666667,-0.00715847619048,3.186
-0.654840771062,-0.518115295989,-0.124877509336,-2.63953557394,-0.0670632301703,2.11100760897,-0.902394277852,-0.0250717941973,0.00255349016988,0.00371577591658,0.00315886916413,0.000432358002668,-8.91873395596e-05,-0.0320713680034,0.573847673983,0.818927564069,0.00610235808484,0.0,0.81892607302,-0.573757451823,-0.0119674686421,0.0,-0.00629933780002,0.0118651126265,-0.999909764652,0.0,0.263279499128,-0.262142952833,0.304974779389,1.0,-0.00510666666667,-0.00671161904763,3.203
-0.655252654538,-0.518046474385,-0.124845675867,-2.63947622854,-0.0670374836952,2.11102773409,-0.902783858197,-0.0214435645182,0.00459114345553,0.00412796959343,0.00300359677896,0.000143769348735,0.00148387192424,-0.0213036789298,0.573857386217,0.818920740831,0.00610470492639,0.0,0.818919366562,-0.573767314906,-0.0119535064715,0.0,-0.00628641525425,0.0118590973956,-0.999909917339,0.0,0.263196002149,-0.262258801982,0.304978867376,1.0,-0.00474666666667,-0.00623847619048,3.221
-0.655578730406,-0.517990350859,-0.12480519931,-2.6394548751,-0.0670151830057,2.11104209845,-0.903109480059,-0.021630207287,0.00651226991543,0.0038316362596,7.50150340075e-05,0.00587830899288,0.000537121398174,-0.0256891439513,0.573839792419,0.8189330673,0.00610498325916,0.0,0.818931584474,-0.573749512173,-0.011970970443,0.0,-0.00630081368689,0.0118692113268,-0.999909706708,0.0,0.26312725436,-0.262340126102,0.304970080861,1.0,-0.00444666666667,-0.0058441904762,3.236
-0.655916898356,-0.517922794345,-0.124755994546,-2.639433382,-0.0669912128986,2.11105143811,-0.90342093544,-0.0176432613853,0.00319791144141,0.00107934474071,0.000668037185608,0.00211790095633,0.000231724906011,-0.0229672512915,0.573838284953,0.81893413628,0.00610328261361,0.0,0.818932419273,-0.57374761329,-0.0120048243985,0.0,-0.00632953853042,0.0118872327063,-0.999909311208,0.0,0.263056361731,-0.262421676714,0.304956921024,1.0,-0.00410666666667,-0.00539733333334,3.253
-0.656225334129,-0.517864183628,-0.124710084632,-2.63942819686,-0.0669700094134,2.11105739727,-0.903735560765,-0.0196120009181,0.000795083663839,0.00335552310056,0.000841710019257,-1.28682616931e-05,0.000383360115098,-0.0202642328243,0.573810197892,0.818953815504,0.00610342261681,0.0,0.818951814284,-0.573718995337,-0.0120493639738,0.0,-0.00636634568082,0.0119126863078,-0.999908774613,0.0,0.262988220002,-0.26249185423,0.304939279562,1.0,-0.00376666666667,-0.00495047619048,3.27
-0.656504585561,-0.517800296103,-0.124677841219,-2.63941184163,-0.0669451904673,2.11106542219,-0.904032221757,-0.0133951234345,0.000423059207458,0.00100333980277,-0.0004911885472,0.0019093382776,-6.12206079503e-05,-0.0190862320453,0.573784701422,0.818971619264,0.00611147731662,0.0,0.818969480375,-0.573693015876,-0.0120855554751,0.0,-0.00639173814472,0.0119398501212,-0.999908288626,0.0,0.262927802624,-0.262560030223,0.304924624477,1.0,-0.00340666666667,-0.00447733333334,3.288
-0.656745517858,-0.517753051642,-0.12465151261,-2.63939540417,-0.0669233875474,2.11106771594,-0.904274554094,-0.0153626337289,0.00123989982731,0.000205955304004,0.000737856924748,0.00222947581642,-0.000419894142515,-0.0149531501407,0.573775154481,0.818978250399,0.00611918087348,0.0,0.818976038205,-0.573683112876,-0.0121112240806,0.0,-0.00640848175915,0.0119608122593,-0.999907930927,0.0,0.262875346676,-0.262619205155,0.30491550943,1.0,-0.00308666666667,-0.00405676190477,3.304
-0.656966273333,-0.51772672318,-0.124642677379,-2.63938497854,-0.0669042556417,2.11107285166,-0.904501069516,-0.012023564536,4.46923285806e-05,0.000331150798131,-0.00230575377451,0.00130771385706,-5.60303415247e-05,-0.0114143943337,0.573772933588,0.818979705054,0.00613272311797,0.0,0.818977604431,-0.573680711318,-0.0121190678003,0.0,-0.00640716896983,0.0119763865545,-0.999907752921,0.0,0.262823633022,-0.262676347399,0.304911200615,1.0,-0.00276666666667,-0.0036361904762,3.32
-0.657176941798,-0.517700374241,-0.124624207551,-2.6393581347,-0.0668840553837,2.11107798197,-0.904717885663,-0.00737774185065,-0.00197702269932,-0.000206376367178,0.00314976299669,0.000284765883452,0.000321676668128,-0.00977870221012,0.573764767078,0.818985373595,0.00613977180355,0.0,0.818983408673,-0.57367259735,-0.0121109153128,0.0,-0.0063965668181,0.0119774183461,-0.999907808442,0.0,0.262780514829,-0.262732863427,0.304914569424,1.0,-0.00242666666667,-0.00318933333334,3.337
-0.657380736832,-0.517672424254,-0.124595433601,-2.6393389781,-0.0668601031411,2.11108285645,-0.904921325784,-0.00807463608825,3.75025678206e-05,0.00188417487613,0.00239743358876,0.000659022741005,0.000441187474769,-0.00850166065356,0.573755867224,0.818991561716,0.00614602023675,0.0,0.818989662816,-0.573663642872,-0.0121121405517,0.0,-0.00639411565455,0.0119831694607,-0.999907755213,0.0,0.262739966104,-0.262782901868,0.304914078174,1.0,-0.00208666666667,-0.00274247619048,3.354
-0.657555218963,-0.517662423229,-0.124564405568,-2.63931897169,-0.0668441635761,2.11108161789,-0.905095372377,-0.0100143889904,0.00209301519239,0.0053416388759,0.00361169982576,-0.000133205215314,0.000104934444489,-0.00432605435665,0.573741969972,0.819001314155,0.0061437941552,0.0,0.818999453787,-0.573649885027,-0.0121016943468,0.0,-0.0063870397331,0.0119752445724,-0.999907895379,0.0,0.262706516785,-0.262825212815,0.30492011431,1.0,-0.00176666666667,-0.00232190476191,3.37
-0.657726734248,-0.517651932797,-0.124535709935,-2.63930061611,-0.0668277920671,2.11108775151,-0.905253854101,-0.0126103317916,-0.000304318293054,-0.000213025057009,0.000761692203829,0.000108966090694,0.000391946872718,-0.00658092009324,0.573740150796,0.81900259983,0.00614229084841,0.0,0.819000821123,-0.573648262776,-0.0120860463049,0.0,-0.00637511161138,0.0119650216417,-0.999908093881,0.0,0.262674138533,-0.262867811817,0.304925794345,1.0,-0.00142666666667,-0.00187504761905,3.387
-0.657883450951,-0.517648145334,-0.124506478085,-2.63928740595,-0.0668047668129,2.11108497521,-0.905364322523,-0.0123676769801,-0.00152722097746,0.00143505560203,0.00178015427768,8.67838194961e-05,-0.00093609204958,-0.00488532397957,0.573767730215,0.818983242641,0.00614710807057,0.0,0.818981580586,-0.573675916486,-0.0120772681232,0.0,-0.00636475489495,0.0119641453488,-0.999908170344,0.0,0.262643938127,-0.262903259755,0.304930863818,1.0,-0.00108666666667,-0.0014281904762,3.404
-0.658002835971,-0.517641404913,-0.124481066122,-2.63928277205,-0.0667896116747,2.11109030993,-0.905449536104,-0.00629203257626,2.21827562524e-05,0.00331524753658,0.00215410561875,0.00486114868014,-7.16322884742e-05,-0.00260225132974,0.573784385972,0.818971571821,0.00614734612541,0.0,0.818969943592,-0.573692625429,-0.0120726932435,0.0,-0.0063606278854,0.0119618448919,-0.999908224128,0.0,0.262621252714,-0.262929404628,0.304931545835,1.0,-0.000746666666672,-0.00098133333334,3.421
-0.658077963396,-0.517629680826,-0.124477077383,-2.63927495686,-0.0667760435867,2.11109209976,-0.905495923931,-0.00339142680054,0.000993815984828,0.000604079038253,0.00030805848588,0.0039240913167,0.000148842602562,-0.00703083435992,0.573811294984,0.818952649293,0.00615653026539,0.0,0.818951129631,-0.573719467804,-0.0120733773199,0.0,-0.00635552543827,0.0119699681492,-0.999908159362,0.0,0.262605403065,-0.262948972598,0.304931029929,1.0,-0.000386666666672,-0.000508190476198,3.439
-0.658096380869,-0.517624352737,-0.124470070555,-2.63927073021,-0.0667627872073,2.1110950741,-0.905525902272,-2.42144373919e-05,0.00100821075967,0.00176396262172,0.00317756386228,0.000122771091394,-0.000161118808129,-0.00277743974809,0.573802727446,0.818958596967,0.00616387301682,0.0,0.818957184203,-0.573710891233,-0.0120702370819,0.0,-0.00634886557902,0.0119741135869,-0.999908152037,0.0,0.262604610717,-0.262952374409,0.304931412846,1.0,-6.66666666721e-05,-8.76190476261e-05,3.455
-0.658089888884,-0.517622981494,-0.124444807882,-2.63927921339,-0.0667538440153,2.11109426467,-0.905545080261,0.00168830427184,-0.000831469411095,0.00118941513557,-0.00207054240187,-0.000236248866703,-0.00041350941235,-0.00129698996159,0.573767206622,0.818983507734,0.00616064653769,0.0,0.818981988058,-0.573675269816,-0.0120803534669,0.0,-0.00635952213275,0.0119769998072,-0.99990804975,0.0,0.262610591837,-0.262941953782,0.30492758279,1.0,0.0,0.0,3.472
-0.658087383676,-0.517614524656,-0.12441264774,-2.63927152193,-0.066742228056,2.11109579055,-0.905550593259,6.42661027341e-05,0.00140309278269,0.000907729985237,0.000439348609877,4.97959941097e-05,-0.000105844016708,-0.00182197054714,0.573743160532,0.81900040604,0.00615366152885,0.0,0.818998806988,-0.573651281313,-0.0120792591529,0.0,-0.00636298483726,0.0119704642425,-0.999908105983,0.0,0.262621179271,-0.26293519803,0.304928851958,1.0,0.0,0.0,3.49
-0.658092394984,-0.51761381374,-0.124389772141,-2.63927082423,-0.066736826909,2.11109594801,-0.905549538537,-0.00125316082223,0.00065253237183,0.00142604486347,-0.000635699298205,6.61311307862e-05,-0.000468750820293,0.00106777939369,0.573734230327,0.819006713362,0.00614681379457,0.0,0.819005032202,-0.573642396308,-0.012079126082,0.0,-0.00636693494118,0.0119647098932,-0.99990814971,0.0,0.26262554963,-0.262931191645,0.304929460257,1.0,0.0,0.0,3.506
-0.658089889318,-0.517616175058,-0.124369152047,-2.63927007218,-0.066731316496,2.11109690833,-0.90555620568,-0.000492879370861,-0.00150549574416,0.0023849361387,0.000204707691864,6.33126738287e-05,-8.4318604112e-05,-0.00380567867727,0.573714453851,0.819020610393,0.00614101741821,0.0,0.819018884191,-0.57362270658,-0.0120749631738,0.0,-0.00636713926364,0.0119574203536,-0.999908235608,0.0,0.26263161682,-0.262925870378,0.304931241227,1.0,0.0,0.0,3.522
-0.658092383107,-0.517607761976,-0.124370870936,-2.63926573175,-0.0667302363985,2.1111013727,-0.905555669715,0.000118326605065,-3.89186269952e-05,-0.00238483446398,0.000562880786821,0.000508776181344,-5.52038278394e-05,0.000801208029703,0.573718852869,0.819017521817,0.00614196386502,0.0,0.819015810309,-0.573627104977,-0.0120745103946,0.0,-0.00636616119813,0.0119579699923,-0.999908235262,0.0,0.262632184709,-0.262928398106,0.304930453392,1.0,0.0,0.0,3.538
-0.658095894299,-0.51761010987,-0.124367772888,-2.63926748638,-0.0667279664815,2.11110218647,-0.905565033222,-0.00078944702713,-0.000331222604597,5.1506947961e-05,-0.000573754149676,-0.000250725946482,-0.000474031217402,-0.00180227772522,0.573712736634,0.819021801962,0.00614252683221,0.0,0.819020106904,-0.573621004715,-0.012072876103,0.0,-0.00636458886583,0.0119574459888,-0.999908251538,0.0,0.262631928015,-0.262928121328,0.30493066516,1.0,0.0,0.0,3.556
-0.658095189182,-0.517607328606,-0.124373391583,-2.63926195752,-0.0667278438042,2.11110656043,-0.905560433082,-0.000675586336997,8.66831910775e-05,-0.000312751028174,0.000755806772428,-3.63554333516e-05,-6.00199797204e-05,0.00138502604423,0.573720231335,0.819016540144,0.00614410517846,0.0,0.819014910159,-0.57362857462,-0.0120657456342,0.0,-0.0063577333538,0.0119547062924,-0.99990832791,0.0,0.26263277438,-0.262931143175,0.30493239333,1.0,0.0,0.0,3.574
