nelsonifechukwu/NELSON_IML_WORK/CNN-GradCAM/train2dof/data_sample_2022-02-21-10-38-28/robot_state.csv
position_joint1,position_joint2,position_joint3,position_joint4,position_joint5,position_joint6,position_joint7,velocity_joint1,velocity_joint2,velocity_joint3,velocity_joint4,velocity_joint5,velocity_joint6,velocity_joint7,ee_T_00,ee_T_10,ee_T_20,ee_T_30,ee_T_01,ee_T_11,ee_T_21,ee_T_31,ee_T_02,ee_T_12,ee_T_22,ee_T_32,ee_T_03,ee_T_13,ee_T_23,ee_T_33,v_x,v_y,time
0.465072650835,0.54768482618,-0.123969374993,-1.35574543552,0.0794826998161,1.89408791755,0.159168468704,-0.000621200749455,0.00337063578365,0.000416483407969,0.000108561989598,9.67991658721e-05,-5.70908732509e-05,0.00511737634286,0.573791192224,0.818987218115,0.00208595082884,0.0,0.818945979766,-0.57373220889,-0.0118144661013,0.0,-0.00847928280158,0.00848748104531,-0.999928029624,0.0,0.661694047179,0.26090890302,0.303322557446,1.0,0.0,0.0,0.0
0.465071870752,0.547681261287,-0.12396900024,-1.35574367463,0.0794818925491,1.89408791705,0.159171626575,-0.00122594168595,0.000108394317934,0.000820646317767,0.00152728393468,0.000361439691918,0.000104326574267,0.000914095739381,0.573793838605,0.818985353327,0.00209014757001,0.0,0.818944177301,-0.573734846108,-0.011811338966,0.0,-0.00847428627819,0.00848915114899,-0.999928057805,0.0,0.661694708235,0.26090872963,0.303325907143,1.0,-0.00026,-0.000341714285714,0.014
0.465064827016,0.547670752821,-0.123970322153,-1.35575535612,0.0794826996551,1.89409078837,0.159168468704,-0.00341938605568,0.000337651409888,8.38699814386e-05,-0.000218842590437,-0.000104261276291,-1.63388361734e-07,0.00826287500759,0.573798797489,0.818981873635,0.00209226169574,0.0,0.818940716551,-0.573739787465,-0.0118112639385,0.0,-0.00847296042048,0.00849089081303,-0.999928054269,0.0,0.661694977052,0.260902381326,0.303328086124,1.0,-0.00064,-0.000841142857143,0.033
0.465068817569,0.54764488634,-0.123970038969,-1.35577915885,0.0794817177381,1.894093457,0.15917442025,0.000519767628358,0.000943154178736,0.000441660271165,-0.00226448495783,0.000454772467167,-6.20272908985e-05,0.00144415287629,0.573801216891,0.818980166287,0.00209705144837,0.0,0.818939058793,-0.57374217493,-0.0118102324935,0.0,-0.00846934237359,0.00849424665649,-0.999928056419,0.0,0.661689685751,0.260902722812,0.303335301435,1.0,-0.00092,-0.00120914285714,0.047
0.465069028746,0.547514470887,-0.123967319974,-1.35592988577,0.0794803005157,1.89412275458,0.159165209792,0.000451427175871,-0.0108971604491,0.000359188050923,-0.0127004574486,0.000136001810199,0.00373004150563,-0.000126830125792,0.573799424582,0.818981384955,0.00211148000308,0.0,0.818940348656,-0.573740208979,-0.0118162957148,0.0,-0.00846604824899,0.00850952368646,-0.999927954422,0.0,0.661663821727,0.260890018226,0.303358397402,1.0,-0.0013,-0.00170857142857,0.066
0.465064786992,0.547376357596,-0.123969825949,-1.35610801584,0.0794762497601,1.89415414413,0.159161997124,0.000140659634151,-0.00778178285398,-0.000517354609642,-0.0123032131866,-5.63231967662e-05,-3.56049421623e-05,-0.003630567242,0.57381131318,0.818973036271,0.00211887455355,0.0,0.818932010457,-0.573751980736,-0.0118225949473,0.0,-0.00846684102152,0.00851931695322,-0.999927864319,0.0,0.661636505681,0.260863686652,0.303379452764,1.0,-0.00164,-0.00215542857143,0.083
0.465046024407,0.547224858905,-0.123969977935,-1.35630175985,0.0794740707363,1.89426208359,0.159156329699,0.0021534677503,-0.00774936477965,-0.000398050151248,-0.013393947756,-1.6772348078e-05,0.00874127610212,-0.0018524486907,0.573831941005,0.818958451524,0.00216911532505,0.0,0.818918039464,-0.573772368799,-0.0118008620025,0.0,-0.00841999934501,0.00854820379717,-0.99992801332,0.0,0.661620961753,0.260841382072,0.303398722067,1.0,-0.00194,-0.00254971428571,0.098
0.465029990368,0.547046309002,-0.123962882374,-1.35650274143,0.0794681110954,1.89437956749,0.159145919649,-0.00038640324693,-0.00903962500697,0.00693498826243,-0.0159167022408,-0.00465215632352,0.0104152317941,0.00168562691579,0.573841456806,0.818951553064,0.00225456995495,0.0,0.818912222853,-0.573781524873,-0.0117592464739,0.0,-0.00833678308485,0.00859440348978,-0.999928314569,0.0,0.661605912432,0.260820395938,0.303439489747,1.0,-0.00226,-0.00297028571429,0.114
0.465007059414,0.546834058782,-0.123964770086,-1.35676170754,0.0794641775101,1.89450168362,0.159122032022,-0.00166160447358,-0.0150997836032,0.000236595128049,-0.0209509266753,-0.000414423412782,0.00637569803504,0.000811508602672,0.573868145826,0.818932646692,0.00232772194345,0.0,0.818894235206,-0.573807902739,-0.0117247261192,0.0,-0.00826625489704,0.0086347711651,-0.999928552326,0.0,0.661583313843,0.260776974259,0.303478821153,1.0,-0.00262,-0.00344342857143,0.132
0.464968733842,0.546593778835,-0.12396229664,-1.3571198225,0.0794576948589,1.89464240022,0.159095790975,-0.0013153485819,-0.0186148264867,0.00140477094926,-0.0247367016854,0.00041272309457,0.000540991353286,-0.00136441235754,0.573882054382,0.818922828526,0.0023527595262,0.0,0.818884586339,-0.573821553323,-0.0117305626244,0.0,-0.00825652036226,0.00865876459737,-0.999928425272,0.0,0.661545160619,0.260729075801,0.30348906642,1.0,-0.00294,-0.003864,0.148
0.464937418109,0.546332849735,-0.123967557062,-1.35750662797,0.0794461717103,1.89478626048,0.158958525901,-0.00409443982959,-0.0191610922702,0.00103516021952,-0.0223412351952,7.39568009526e-05,0.0113384090351,-0.00756808101083,0.573817533323,0.818967976922,0.00237447452606,0.0,0.818929931429,-0.573756870054,-0.0117289546122,0.0,-0.00824342586955,0.00867497508498,-0.999928392805,0.0,0.661502002022,0.260670728833,0.303502382633,1.0,-0.00326,-0.00428457142857,0.164
0.464895916971,0.546054582899,-0.12397005047,-1.35797456149,0.0794275106554,1.89494837436,0.15893330872,0.000508225891775,-0.0174699921199,-0.000341238390324,-0.0282712586247,-0.000292063839135,0.00899518831329,0.00119405584607,0.573853805772,0.818942617669,0.00235488182109,0.0,0.818904229271,-0.5737931181,-0.011750225707,0.0,-0.00827170487178,0.00867150137665,-0.999928189403,0.0,0.661446710824,0.260597922414,0.303490823566,1.0,-0.0036,-0.00473142857143,0.181
0.4648455187,0.545748160776,-0.123967978698,-1.35846781816,0.0793892063099,1.89512004438,0.158879850912,-0.00147483214517,-0.0206287256287,0.000718276079971,-0.0255973185757,-0.0011670737104,0.0151898233561,-0.00148196083571,0.573867206601,0.818933276769,0.00233758192098,0.0,0.818894710339,-0.573806631037,-0.0117537422578,0.0,-0.00828437015444,0.00865948742864,-0.999928188666,0.0,0.66139058506,0.2605167088,0.303487771196,1.0,-0.00392,-0.005152,0.197
0.464781612576,0.545389806788,-0.123973269388,-1.3591212204,0.0792804958168,1.89533308338,0.158794975162,-0.00597290837188,-0.0173220496102,-0.000990741024474,-0.0434374705456,-0.00606432187685,0.00678260011616,-5.40852068575e-06,0.573861288895,0.818937730742,0.00222736984682,0.0,0.818898319337,-0.573801737828,-0.0117411734478,0.0,-0.00833738177116,0.00856195919626,-0.99992858791,0.0,0.661316392775,0.260395374606,0.30344894195,1.0,-0.00428,-0.00562514285714,0.215
0.46470996995,0.544985609893,-0.123973920574,-1.35980757584,0.0792739499997,1.89554683765,0.15869823006,-0.00515479698209,-0.0272965961373,-0.000710687949094,-0.0370107065315,4.96822689582e-05,0.0133951209977,-0.00338239337603,0.573877562813,0.818926431148,0.00218864526368,0.0,0.818886149396,-0.573817783164,-0.0118056322556,0.0,-0.00841222267855,0.00856740370776,-0.999927914453,0.0,0.661231125421,0.260284902171,0.303426948274,1.0,-0.00462,-0.006072,0.232
0.464653528695,0.544592625054,-0.123981755064,-1.36048309321,0.0792500063735,1.89577770669,0.158620733558,-0.00135257701556,-0.0221531880221,-0.00151628081551,-0.0448819195932,-0.00428572291616,0.00896059267113,-0.00875407605659,0.573897073089,0.818912857717,0.00215124765191,0.0,0.818871944536,-0.573837290794,-0.0118426790283,0.0,-0.00846381895641,0.00855823995241,-0.999927557525,0.0,0.661150052102,0.260179811332,0.303403836391,1.0,-0.00494,-0.00649257142857,0.248
0.46457270687,0.544093186039,-0.123974235222,-1.36128819513,0.0792188402011,1.89606500494,0.158533854167,-0.0062541111132,-0.0355272244413,0.00173828082328,-0.0426271578419,0.000624076941265,0.00891958023871,-0.00211265845932,0.573923403194,0.818894417339,0.00214648966715,0.0,0.818853228218,-0.573863420334,-0.0118706504011,0.0,-0.00848918088456,0.00857066908153,-0.999927236072,0.0,0.661056372369,0.260056181468,0.303398723334,1.0,-0.0053,-0.00696571428571,0.266
0.464520653217,0.543680271355,-0.123984981152,-1.36196735675,0.0791848767747,1.89631127546,0.158475100804,0.000552182134633,-0.0314551837856,-0.0014049367789,-0.0520092372705,-0.00084641109523,0.0180829068721,-0.00658097505111,0.573952928995,0.818873776542,0.00212609762746,0.0,0.818832284,-0.573892986107,-0.0118860454978,0.0,-0.00851318235389,0.00856311287038,-0.999927096755,0.0,0.660971581818,0.259943612846,0.303387583034,1.0,-0.0056,-0.00736,0.281
0.464436165936,0.543157333561,-0.123988525446,-1.36282184859,0.0791308449049,1.896602153,0.158331407554,-0.00582032740939,-0.0315285674671,-0.0013447573823,-0.0486394207623,-0.00507687447863,0.0163359320979,-0.0126288362703,0.573941291088,0.818882018296,0.00209317856064,0.0,0.818840105349,-0.573881491216,-0.0119022188188,0.0,-0.00854544106104,0.00854531791266,-0.999926973823,0.0,0.660878801136,0.259810105326,0.303377852061,1.0,-0.00592,-0.00778057142857,0.297
0.464354590002,0.542558653424,-0.123995622823,-1.36377802912,0.0790782871984,1.89693002296,0.158213607464,-0.00852778864057,-0.0360853805786,0.000238149158717,-0.0533078838925,-0.00087457121847,0.0173764583008,-0.00140738389485,0.573955617194,0.81887203792,0.00206927640069,0.0,0.818829757166,-0.573895856858,-0.0119214580288,0.0,-0.00857476456875,0.00853693725595,-0.999926794378,0.0,0.660765413492,0.259660191304,0.30337483048,1.0,-0.00628,-0.00825371428571,0.315
0.464291963502,0.542007330187,-0.123998168049,-1.364649844,0.0790255611001,1.8972656813,0.158091701293,-0.00186997034738,-0.0337540228763,-0.00176764993585,-0.055055784957,-0.000621180769382,0.0185867203686,-0.0104167599038,0.57394333868,0.818880615443,0.00208051379269,0.0,0.818838502665,-0.573883555359,-0.0119129485512,0.0,-0.00856147482394,0.00854112670693,-0.999926872478,0.0,0.660665683183,0.259535338308,0.303378921989,1.0,-0.0066,-0.00867428571429,0.331
0.464195106482,0.541261881383,-0.123995912064,-1.36578199095,0.078953517761,1.89768328723,0.157942279458,-0.00414506945008,-0.0396580959993,0.00117138697226,-0.0563166191321,-0.00532554400936,0.0282460586198,-0.00816817791337,0.573942268613,0.81888130144,0.00210555272972,0.0,0.818839526607,-0.573882395294,-0.011898442718,0.0,-0.00853523694388,0.00855329368442,-0.999926992784,0.0,0.66053606109,0.259364748032,0.303403202662,1.0,-0.007,-0.0092,0.351
0.464119374574,0.540608998577,-0.124001675285,-1.36677823726,0.0789068639918,1.89805233592,0.157822725695,-0.00405891106779,-0.0435524720261,-0.000404295051646,-0.0608891624043,-0.00206793892182,0.0206049882752,-0.012559142587,0.573953177914,0.818873583185,0.00213335990707,0.0,0.818832071473,-0.573893091242,-0.0118956064417,0.0,-0.00851684133487,0.00857454971899,-0.999926967589,0.0,0.660420424274,0.259219196989,0.303422708796,1.0,-0.00732,-0.00962057142857,0.367
0.464025760503,0.539891898338,-0.123996738916,-1.36787298243,0.0788362533502,1.89846293053,0.157680140136,-0.00136476090574,-0.0364774395873,0.000877157046138,-0.0648467393474,-0.00941756024222,0.0194645267702,-0.0039102357088,0.573951362727,0.818874785786,0.00215993725706,0.0,0.81883363518,-0.573891184563,-0.0118799444495,0.0,-0.00848878145053,0.00858730491409,-0.999927096734,0.0,0.660295346482,0.259056146221,0.303443831218,1.0,-0.00766,-0.0100674285714,0.384
0.46394984758,0.539235180983,-0.12399952395,-1.36888606326,0.0787734032614,1.89885026497,0.157560382307,-0.00229146166004,-0.0462998237333,2.50692039716e-05,-0.0653478425847,-0.00988786186993,0.0150962004669,-0.00961461178416,0.573956703032,0.818870979229,0.00218387780584,0.0,0.818830178015,-0.57389646698,-0.0118630375988,0.0,-0.00846114036122,0.00859726052456,-0.999927245461,0.0,0.660179470917,0.25890889084,0.303459295806,1.0,-0.00796,-0.0104617142857,0.399
0.463840386861,0.538526630102,-0.123995289805,-1.36998294013,0.0787169852841,1.89929037367,0.157426634171,-0.00907146201793,-0.0454018579997,0.00142630802055,-0.0646165318915,-0.00209573872362,0.0323453022348,-0.000196183789111,0.573979566901,0.818854821685,0.00223264064204,0.0,0.818814586421,-0.573919065393,-0.0118459420702,0.0,-0.00841891384111,0.0086276135312,-0.999927340448,0.0,0.660062635916,0.258738918829,0.303475761293,1.0,-0.00828,-0.0108822857143,0.415
0.463713249792,0.537549800238,-0.124014110022,-1.37151170359,0.0786237442326,1.89986756283,0.157234032446,-0.00697491795221,-0.0543632188814,-0.00028877752738,-0.0743915531932,-0.00796314961149,0.0324574091911,-0.00760905831008,0.573998621942,0.818841422944,0.00224788372388,0.0,0.818801486843,-0.573938161984,-0.0118261685864,0.0,-0.00839377206653,0.00862894114066,-0.999927540357,0.0,0.659891822328,0.258499524134,0.303488600979,1.0,-0.0087,-0.0114342857143,0.436
0.463617805255,0.53692564694,-0.124015548702,-1.37250057557,0.0785721768187,1.90023494838,0.15711817937,-0.0113977762892,-0.0475748596508,-0.00491581258248,-0.0780349945727,-0.00770471389036,0.0303427716883,-0.00325317905264,0.57402361199,0.818823889199,0.00225349863574,0.0,0.818783953237,-0.573963052069,-0.0118321461111,0.0,-0.00839518057472,0.00863722606326,-0.999927457003,0.0,0.659780190079,0.258343104527,0.303490502491,1.0,-0.00896,-0.011776,0.449
0.46349559816,0.536031977245,-0.124020212455,-1.37390711764,0.0784835651976,1.90076026512,0.156949101706,-0.00274368266533,-0.0423072556352,0.000101157043567,-0.0760765101855,-0.00909074509066,0.0257041120011,-0.000697921128326,0.57404216258,0.818810866633,0.00225990404315,0.0,0.818771060821,-0.573981623637,-0.0118233916343,0.0,-0.00838413957935,0.00863763563481,-0.999927546102,0.0,0.659619760547,0.258125858411,0.303497511502,1.0,-0.00932,-0.0122491428571,0.467
0.463373996594,0.535113177169,-0.12402437196,-1.37532390891,0.0784125270006,1.90126904902,0.156764693934,-0.0067299477025,-0.0567388505671,0.00087835294747,-0.0855529500051,-0.000164305340953,0.0272307388136,-0.0161017446617,0.574052307276,0.818803708032,0.00227664799922,0.0,0.818763976358,-0.573991553826,-0.0118319083884,0.0,-0.00838139510676,0.00865633833979,-0.999927407376,0.0,0.659452717082,0.257910155173,0.303515767305,1.0,-0.00966,-0.012696,0.484
0.46326012979,0.534275064565,-0.124035028354,-1.3766924958,0.0783358113337,1.90177152237,0.156602971641,-0.00729787530323,-0.0566553852252,-0.00294034726285,-0.0877444107589,-0.00261076758787,0.0355656744868,-0.0135688574637,0.574075132529,0.818787773239,0.00225200084073,0.0,0.818747693997,-0.574014444698,-0.0118481118071,0.0,-0.00840856996264,0.00864569330752,-0.999927271324,0.0,0.65929295426,0.257699111855,0.303499535392,1.0,-0.00998,-0.0131165714286,0.5
0.463132120502,0.533352733895,-0.124031465393,-1.37816829481,0.0782427188927,1.90231744348,0.156409965418,-0.00893675806704,-0.0563103692552,0.000493557807352,-0.0876139256683,-0.0135328737353,0.0367190038894,-0.0112718833649,0.574075215504,0.81878773916,0.00224322219601,0.0,0.818747541416,-0.57401455773,-0.0118531785434,0.0,-0.00841775713255,0.00864141505854,-0.999927231008,0.0,0.659120093197,0.257475707786,0.303494784153,1.0,-0.01032,-0.0135634285714,0.517
0.46300023573,0.532361949813,-0.124031478841,-1.37978108057,0.0781622735701,1.9029273823,0.156209961275,-0.0091373491554,-0.0538438227249,-0.000368991080819,-0.0901300856126,-0.0107966776137,0.0364966391576,-0.00333075723685,0.574086164741,0.818780070942,0.00224004066266,0.0,0.818739673816,-0.574025356064,-0.0118736690206,0.0,-0.00843624584793,0.00865068582343,-0.999926995031,0.0,0.658930621116,0.257238702629,0.303478614786,1.0,-0.01068,-0.0140365714286,0.535
0.462885941818,0.531491445878,-0.124036565866,-1.38116841258,0.0780751987557,1.90342669616,0.156039157121,-0.0071053096753,-0.0554865034896,-0.000262031835217,-0.0908280622548,-0.0033207334179,0.032971861611,-0.0102048155398,0.574095661677,0.818773461972,0.00222173707239,0.0,0.818732839761,-0.574034937951,-0.0118816669634,0.0,-0.00845320164148,0.00864038891394,-0.999926940862,0.0,0.658765051431,0.257026993041,0.30347529343,1.0,-0.01098,-0.0144308571429,0.55
0.462748600521,0.530427342048,-0.124039594048,-1.38290471482,0.0779635242725,1.90404097928,0.155819976447,-0.00876319901439,-0.0593534044543,-0.0010523925947,-0.0896520830101,-0.00759767773956,0.0251594026339,-0.0097751462834,0.57409513826,0.818773974733,0.00216735482081,0.0,0.818732647115,-0.574034635419,-0.0119095251019,0.0,-0.00850723626111,0.00861185041444,-0.999926728797,0.0,0.658552489231,0.256766269665,0.303452005251,1.0,-0.01134,-0.014904,0.568
0.462611349502,0.529449551605,-0.124041815893,-1.38445675916,0.0778711162844,1.90461010698,0.155613177146,-0.00638963469234,-0.0600475361551,-0.00393534353814,-0.100169679158,-0.0112580053882,0.0392006210719,-0.00938116241492,0.574096275302,0.818773139329,0.00218171923523,0.0,0.81873191974,-0.574035634184,-0.011911388966,0.0,-0.00850050441367,0.00862469326889,-0.999926675357,0.0,0.658360457224,0.25651707534,0.303460848954,1.0,-0.01168,-0.0153508571429,0.585
0.462476099427,0.528353943418,-0.124037069837,-1.38614066882,0.0777632603129,1.905254072,0.155375248276,-0.00102062301922,-0.0657064438944,0.00053293272895,-0.0985319318146,-0.00600291553923,0.0315222250443,-0.0127429194184,0.574074110486,0.818788611468,0.00220732899836,0.0,0.818747808929,-0.574013454299,-0.0118880847239,0.0,-0.00846695485611,0.00863205363805,-0.999926896491,0.0,0.658172908127,0.256281355643,0.303477077352,1.0,-0.012,-0.0157714285714,0.601
0.46233162744,0.527238325961,-0.124042852758,-1.38787448611,0.0776565682754,1.90591729325,0.155135549679,-0.00659209614541,-0.0691789520178,-0.00128181436244,-0.106333785225,-0.00520848272157,0.0404834774824,-0.0111466217975,0.574065406095,0.818794619366,0.0022422587492,0.0,0.818754321698,-0.574004663659,-0.0118639664183,0.0,-0.00842724713911,0.00864671821723,-0.999927105228,0.0,0.657972750865,0.256019494378,0.30349479802,1.0,-0.01234,-0.0162182857143,0.618
0.462179729552,0.526066035178,-0.124045340663,-1.38968578211,0.077542659825,1.90658921387,0.15488734087,-0.00932400358419,-0.0722608234333,-0.000800609933597,-0.107894743992,-0.0105959142969,0.0390108924079,-0.0182517232393,0.574055336845,0.818801609871,0.00226733636499,0.0,0.818761665702,-0.573994525073,-0.0118476522667,0.0,-0.00839959980751,0.00865778280085,-0.999927242113,0.0,0.657758658419,0.255745682735,0.303515864774,1.0,-0.01268,-0.0166651428571,0.635
0.462029449319,0.524898588379,-0.124044629292,-1.39152828906,0.0774233388229,1.90724565247,0.154630916184,-0.0110656932991,-0.0635600202932,0.000722875319322,-0.105381208967,-0.00922499337291,0.0359248866763,-0.0162732141902,0.574034777996,0.818816076625,0.00224793524179,0.0,0.818775877361,-0.573974042212,-0.0118578421038,0.0,-0.00841929736889,0.00864753540128,-0.999927165129,0.0,0.657532589565,0.255469163169,0.303516920312,1.0,-0.01302,-0.017112,0.652
0.461869495824,0.523721211143,-0.124052833877,-1.39342956139,0.0773060947702,1.90792781828,0.15437643816,-0.0129678619388,-0.071080785674,-0.00111629424856,-0.116413281773,-0.00916386770834,0.0401887190225,-0.0169315354295,0.574033623855,0.818816992152,0.00220883435678,0.0,0.818776274333,-0.573973033143,-0.0118792556617,0.0,-0.00845928790198,0.00862779945335,-0.999926998098,0.0,0.657301887424,0.255176359576,0.303499232848,1.0,-0.01336,-0.0175588571429,0.669
0.461716739536,0.522504218721,-0.12405100712,-1.39535323267,0.077189375848,1.90867082412,0.154122421503,-0.0101308224929,-0.0776903785508,0.000825328659896,-0.113380483515,-0.00669078124554,0.0389828839003,-0.0143386222516,0.574021245363,0.81882559078,0.00223800301871,0.0,0.818785256897,-0.57396054492,-0.0118635097798,0.0,-0.00842978227143,0.00864251693001,-0.99992712018,0.0,0.657074338944,0.254896201249,0.303503356403,1.0,-0.0137,-0.0180057142857,0.686
0.461569730334,0.52143221573,-0.124061713816,-1.39709693936,0.0770815499596,1.90934556782,0.153875485463,-0.0101694266138,-0.0737523422919,0.000876442523699,-0.122119978397,-0.00182303469808,0.0518909668978,-0.0137046182595,0.574011408608,0.818832496779,0.00223425757584,0.0,0.818792189303,-0.573950801197,-0.0118564515459,0.0,-0.00842625612805,0.00863529736115,-0.999927212275,0.0,0.656872052286,0.254628818414,0.303485466007,1.0,-0.014,-0.0184,0.701
0.461385035872,0.520068930699,-0.124064515566,-1.39924843937,0.0769454098962,1.91013579843,0.153590855664,-0.0118418076957,-0.0756842875702,-0.000330543715354,-0.121126441627,-0.00579914061606,0.0480075228499,-0.012994929097,0.574009487018,0.818833850761,0.00223171757713,0.0,0.818793527387,-0.573948907433,-0.0118557187285,0.0,-0.00842713420336,0.00863277714041,-0.999927226636,0.0,0.656612983898,0.254300049254,0.303487473441,1.0,-0.01436,-0.0188731428571,0.719
0.461185067642,0.518484180153,-0.124066655632,-1.40169420295,0.0767900194512,1.91100484695,0.153263485404,-0.00560148524668,-0.0774686152582,-6.36966413921e-05,-0.121889923915,-0.00921523997363,0.04038669292,-0.0167838199247,0.573994405124,0.818844411437,0.00223598860519,0.0,0.818804124953,-0.573933791449,-0.0118555849475,0.0,-0.00842473226296,0.00863604239319,-0.99992721868,0.0,0.65630983654,0.253931951499,0.303511200731,1.0,-0.01476,-0.0193988571429,0.739
0.461044536651,0.517453858881,-0.124074421349,-1.40331707985,0.0766827959467,1.91159736012,0.153032805608,-0.0142438414191,-0.0796994076449,-0.000450492819593,-0.120193076328,-0.00678030453463,0.0522890567414,-0.0204069055703,0.573983077192,0.818852369979,0.00222938974874,0.0,0.818812068913,-0.573922563947,-0.0118504555607,0.0,-0.0084244387371,0.00862757828903,-0.999927294219,0.0,0.656114376447,0.253679019693,0.303513330155,1.0,-0.01502,-0.0197405714286,0.752
0.460812201275,0.515780842364,-0.124080568292,-1.40597249833,0.0765155424863,1.9125913537,0.152673275043,-0.0116023464524,-0.0801920502432,-0.000581460190242,-0.130812467353,-0.010177749285,0.0506356945602,-0.0135386381085,0.573978565165,0.818855522827,0.00223301785856,0.0,0.818815315295,-0.573918085694,-0.0118430255108,0.0,-0.00841631955199,0.00862623809361,-0.999927374154,0.0,0.655796798306,0.253270271716,0.303509244359,1.0,-0.01544,-0.0202925714286,0.773
0.460693875386,0.514894381281,-0.124083982516,-1.40739105445,0.076424794513,1.91312643628,0.152482858827,-0.0152630365851,-0.0789025945747,-0.000265126369746,-0.127261208568,-0.0126267516397,0.0464150343994,-0.0123815562015,0.573972297552,0.818859921427,0.00223105920539,0.0,0.818819729583,-0.573911868735,-0.0118390992793,0.0,-0.00841429454905,0.00862231631584,-0.999927425021,0.0,0.655625903648,0.253055625382,0.303502061973,1.0,-0.01566,-0.0205817142857,0.784
0.460466707665,0.513240847677,-0.124084434308,-1.41004657357,0.0762717835649,1.91405264316,0.152103548476,-0.00822849248718,-0.0756542521338,-0.000824000210514,-0.132959469527,-0.0101786562683,0.0552598222034,-0.0215343017645,0.573946083978,0.818878452563,0.00217244444039,0.0,0.818837283575,-0.573885672804,-0.0118947248817,0.0,-0.00849376269672,0.0086059749618,-0.999926893923,0.0,0.655288976998,0.252651218038,0.303477293583,1.0,-0.01606,-0.0211074285714,0.804
0.460256415287,0.511730907984,-0.124084326844,-1.41246018572,0.0761314148701,1.91493091836,0.151763086967,-0.0147346497335,-0.081771385776,-0.000115891130956,-0.128784616319,-0.0139507173505,0.0512154951349,-0.0198963054514,0.573927968522,0.818891197544,0.00215416660607,0.0,0.818849656605,-0.573867498065,-0.0119197920562,0.0,-0.00852497072287,0.00860520630258,-0.999926634958,0.0,0.654990074677,0.252283852456,0.303462315022,1.0,-0.01642,-0.0215805714286,0.822
0.460052691347,0.51026739206,-0.124079827787,-1.41478535556,0.0759914128576,1.91582107847,0.151441899305,-0.0146136007026,-0.0876836319912,0.00245177293187,-0.132393466221,-0.0100366505691,0.0491022850466,-0.0136002488588,0.573912153586,0.818902238838,0.00217027489968,0.0,0.818860893051,-0.573851604977,-0.0119130264511,0.0,-0.00851035214837,0.00861434976172,-0.999926680754,0.0,0.654725018925,0.251948969842,0.303456363786,1.0,-0.01674,-0.0220011428571,0.838
0.459835891364,0.508663051223,-0.124093837247,-1.4173194649,0.0758213245114,1.91672430503,0.15109677927,-0.0147693035356,-0.0851927871398,-0.000826308651884,-0.141394762334,-0.0101545529207,0.0448932738456,-0.0167154492764,0.573902878932,0.818908806152,0.00214468206916,0.0,0.818867201184,-0.573842510186,-0.0119175177727,0.0,-0.00852881471554,0.00859587306007,-0.999926682455,0.0,0.654393969331,0.251538339843,0.303452540075,1.0,-0.01712,-0.0225005714286,0.857
0.45965711453,0.507419395061,-0.12409683678,-1.41929482328,0.0757034358688,1.91743001856,0.15081320438,-0.014415796819,-0.089648708107,0.000675468587329,-0.142493823421,-0.0146118136528,0.0558613258088,-0.0210681223946,0.573889721915,0.81891808061,0.00212396605557,0.0,0.81887611461,-0.573829347729,-0.0119388235314,0.0,-0.00855828916837,0.0085909985909,-0.999926472512,0.0,0.654147046497,0.251230467871,0.303443500557,1.0,-0.0174,-0.0228685714286,0.871
0.459483404185,0.506127503722,-0.124106383702,-1.42129764387,0.0755728987938,1.91817703885,0.150545566064,-0.0126955917258,-0.0931102715695,-0.000680554622985,-0.138030922153,-0.00806035096284,0.049668726536,-0.0208067830131,0.573887884065,0.818919306676,0.00214769136105,0.0,0.818877739654,-0.573827503709,-0.011915971941,0.0,-0.00852597925933,0.00859729409555,-0.999926694419,0.0,0.653903282667,0.250920257765,0.303458479288,1.0,-0.01768,-0.0232365714286,0.885
0.459212354282,0.504115331335,-0.124118483103,-1.42435287577,0.0753805691547,1.91935157084,0.150118238657,-0.010863103061,-0.104188430272,-0.00310424244307,-0.14624822529,-0.00584000175424,0.0539130581862,-0.0229276407123,0.573874199205,0.818928613582,0.00225305217334,0.0,0.818888538943,-0.573813523064,-0.0118468746387,0.0,-0.00840907471869,0.00864378071833,-0.999927283615,0.0,0.653538782485,0.250448575839,0.303512442288,1.0,-0.0181,-0.0237885714286,0.906
0.459028081051,0.502753181097,-0.124116056856,-1.4263824037,0.0752451910528,1.92012554332,0.149839970336,-0.0112630405695,-0.0998297844251,-0.00100181434829,-0.145619589181,-0.0117286848603,0.0562632911897,-0.0242973577767,0.573863000186,0.818936221564,0.00233857442251,0.0,0.818897352185,-0.573802091422,-0.0117912410355,0.0,-0.00831455556755,0.00868177651014,-0.999927744851,0.0,0.653294279635,0.250137395065,0.303564652585,1.0,-0.01838,-0.0241565714286,0.92
0.458735569783,0.500635959482,-0.124116468586,-1.42955301413,0.0750489705225,1.92124383603,0.149386267984,-0.0112730301079,-0.105849310455,0.0012050211823,-0.15054829499,-0.00658604085817,0.0544939363307,-0.0186800326352,0.573839910193,0.818952231083,0.00239740991539,0.0,0.818914020188,-0.573778670366,-0.0117733543682,0.0,-0.00826639130727,0.00871946108184,-0.999927816281,0.0,0.652893687564,0.24964217833,0.30363011686,1.0,-0.0188,-0.0247085714286,0.941
0.458555515336,0.499339828078,-0.124118541994,-1.43154555316,0.0749225980468,1.92196577214,0.149108744649,-0.0152471147637,-0.0997878323966,-0.000114476387087,-0.154796805346,-0.0134743846607,0.0540049811397,-0.00847812591678,0.573828785489,0.818959967099,0.00241746452023,0.0,0.81892200479,-0.573767459245,-0.0117643394748,0.0,-0.00824761938583,0.0087305996154,-0.999927874101,0.0,0.652643599697,0.24933278702,0.303648502582,1.0,-0.01906,-0.0250502857143,0.954
0.45826732399,0.497481813804,-0.124117070116,-1.43450424167,0.0747398058208,1.92305727221,0.148672944844,-0.0156426683569,-0.0911127998705,0.000809571465842,-0.153380731344,-0.00661606038929,0.051958068668,-0.0228902349833,0.573807763839,0.818974722157,0.00240863586065,0.0,0.818936576003,-0.573746400214,-0.0117770805724,0.0,-0.00826334423008,0.00873046836091,-0.999927745422,0.0,0.652277031476,0.248863772979,0.303630367613,1.0,-0.01944,-0.0255497142857,0.973
0.458045100891,0.496093608088,-0.124117073043,-1.43672157213,0.0746031013209,1.92383510174,0.148344100404,-0.0137943918602,-0.100984778728,0.000360624071409,-0.160123825399,-0.00855701066363,0.0543695129925,-0.0229006122171,0.573795482333,0.818983451209,0.00236600948938,0.0,0.818944638836,-0.57373416388,-0.0118124772729,0.0,-0.00831692305472,0.0087157446862,-0.99992742966,0.0,0.651994934319,0.248505010332,0.30360985613,1.0,-0.01972,-0.0259177142857,0.987
0.457787684834,0.49452274863,-0.124122362757,-1.43928628176,0.0744377083019,1.92472452586,0.147982265964,-0.020104430528,-0.096405405481,-0.000516759633827,-0.158906403091,-0.00875021508631,0.0576422018019,-0.0159205502494,0.573798019872,0.818981937977,0.00227256668265,0.0,0.81894184178,-0.573736993055,-0.0118688451065,0.0,-0.00841667623893,0.00867158671983,-0.999926978906,0.0,0.651666247767,0.248084544726,0.303560665917,1.0,-0.0202725714286,-0.0266439510204,1.003
0.457530862414,0.492822532337,-0.12413999236,-1.44200131077,0.0742646214865,1.92572594074,0.147602943638,-0.0176474845902,-0.115397618417,-0.00688001279206,-0.184047463387,-0.00663680409688,0.0626778941956,-0.0278338040756,0.57379995589,0.818980635943,0.00225288084855,0.0,0.818940344911,-0.573739069695,-0.0118717430388,0.0,-0.00843032421138,0.00865714732809,-0.999926989052,0.0,0.651328711251,0.247647487836,0.303539434695,1.0,-0.0226131428571,-0.0297201306122,1.019
0.457193604994,0.490584259564,-0.124164703848,-1.44560212018,0.0740537089791,1.92701719963,0.147081219685,-0.0218128003975,-0.119560431551,-0.00174679719017,-0.194522124002,-0.0112326310373,0.0653596809165,-0.0282854514102,0.573789847973,0.818987880215,0.00219301728491,0.0,0.818946666988,-0.573729056768,-0.0119194358697,0.0,-0.00850383950317,0.00863538174955,-0.999926554751,0.0,0.650869719827,0.247069756318,0.303495597369,1.0,-0.0253925714286,-0.0333730938776,1.038
0.456851132996,0.488489055208,-0.124177780556,-1.44896989515,0.0738500707507,1.92822024728,0.146599336958,-0.0246752182526,-0.134395308699,-0.0026038513664,-0.217668590574,-0.00704554672253,0.0815970915327,-0.0344972141398,0.573797564574,0.818982630409,0.00213374735465,0.0,0.818940511149,-0.573736879782,-0.0119657376854,0.0,-0.00857568688338,0.00861348912783,-0.999926129971,0.0,0.650442251871,0.246516641503,0.303454077965,1.0,-0.0277331428571,-0.0364492734694,1.054
0.456426262384,0.485818237879,-0.12420335368,-1.45302290092,0.0735918908167,1.92978943185,0.146002462539,-0.0270889292845,-0.15260243589,-0.000797789430905,-0.231142554507,-0.0125242368742,0.0873507248079,-0.0343963207258,0.573806142108,0.81897622224,0.00228157528349,0.0,0.818936248279,-0.573745083959,-0.011863675213,0.0,-0.00840718716962,0.00867608144946,-0.999927019744,0.0,0.649959440773,0.245845092308,0.303516892354,1.0,-0.0303662857143,-0.0399099755102,1.072
0.455976492188,0.483130117103,-0.124237996808,-1.45718928974,0.0733306720983,1.93125232542,0.145357806423,-0.0267433540171,-0.16427262985,-0.00276121889868,-0.254572578489,-0.0165152245333,0.0845645630558,-0.0348354198296,0.573805309615,0.81897685489,0.00226378299977,0.0,0.818936620536,-0.573744292034,-0.0118762706459,0.0,-0.00842772046662,0.00866872885439,-0.999926910663,0.0,0.649433286022,0.245131847301,0.303527267194,1.0,-0.0328531428571,-0.0431784163265,1.089
0.455534474663,0.480396579011,-0.124285005444,-1.46146649689,0.0730712641218,1.93275464307,0.144731247994,-0.0307077929122,-0.173476272014,-0.0043928064347,-0.273506864201,-0.0198661919196,0.0990547727458,-0.0388400636887,0.57382684715,0.818961869915,0.00222531238809,0.0,0.818921067831,-0.57376591156,-0.0119042133611,0.0,-0.00847245156417,0.0086534790242,-0.999926664744,0.0,0.648886585101,0.244407200577,0.303518575195,1.0,-0.0351937142857,-0.0462545959184,1.105
0.455013456563,0.477259261732,-0.124311787733,-1.46621964403,0.0727758160573,1.934510543,0.144034598798,-0.0294367096333,-0.190870067743,-0.00386545963941,-0.278787571517,-0.0192768934595,0.10460125915,-0.0367516872171,0.573853188637,0.818943089596,0.00234110989841,0.0,0.818903825383,-0.573791824943,-0.0118411697924,0.0,-0.00835409529544,0.0087124046348,-0.999927148895,0.0,0.648297175533,0.243603829237,0.303582268201,1.0,-0.0376805714286,-0.0495230367347,1.122
0.454533122884,0.474338825136,-0.124338179396,-1.4706858367,0.072495856128,1.93617394165,0.143389877893,-0.0300834452411,-0.200548581301,-0.00223530534748,-0.302437437232,-0.0197432242288,0.109518042604,-0.0513494499861,0.573877327014,0.818925900164,0.00243525791614,0.0,0.818887922456,-0.573815666631,-0.0117855032093,0.0,-0.00825422359935,0.00875780498973,-0.9999275817,0.0,0.647739805836,0.242854866668,0.303622295045,1.0,-0.0398748571429,-0.052406955102,1.137
0.453941914693,0.470863223435,-0.124347199189,-1.47604969318,0.0721705719713,1.93802875178,0.142588345202,-0.0361370578617,-0.208157651953,-0.00300378953051,-0.317689737911,-0.023508275781,0.106662990308,-0.0549838492905,0.573879718683,0.818924275781,0.00241783412627,0.0,0.818885713993,-0.57381774566,-0.0118376131827,0.0,-0.00830687260798,0.00877346486439,-0.999927008427,0.0,0.64703409491,0.241952125435,0.303632758481,1.0,-0.0423617142857,-0.0556753959184,1.154
0.45325804018,0.466714253882,-0.124349295904,-1.48228885487,0.0717719168789,1.94040273888,0.141572411706,-0.0373774745461,-0.226686423018,0.000249550591004,-0.336547858081,-0.0267289685786,0.125725692552,-0.0521159106215,0.573797240966,0.818981330814,0.00265573689893,0.0,0.818945942508,-0.573734488115,-0.0117058659886,0.0,-0.0080633530999,0.00889186976114,-0.999927955899,0.0,0.646251304375,0.240922638523,0.30373280924,1.0,-0.0451411428571,-0.0593283591837,1.173
0.452633965652,0.463049702436,-0.12435148118,-1.48795626884,0.0713964517177,1.94234531276,0.140722541475,-0.0440922828863,-0.227458704221,-0.000261001925806,-0.360206402598,-0.0250022422345,0.125739190582,-0.054043677903,0.573776911147,0.81899574731,0.00260173499721,0.0,0.81895947097,-0.573714150473,-0.0117560774319,0.0,-0.00813568187519,0.00887625220837,-0.999927508786,0.0,0.645490040022,0.23996915959,0.303730120741,1.0,-0.0474817142857,-0.0624045387755,1.189
0.451937352083,0.459000902596,-0.124363844171,-1.49422784011,0.0709727107058,1.94452306002,0.139797746576,-0.040171258202,-0.245810410356,-0.00145226972478,-0.374994449393,-0.0318903916414,0.131689163025,-0.0557852087956,0.573774302348,0.818997729836,0.00255252632454,0.0,0.818960747169,-0.573711650433,-0.0117891329124,0.0,-0.00819101670399,0.00885489086208,-0.99992724643,0.0,0.644650502942,0.238905833793,0.303721816211,1.0,-0.0499685714286,-0.0656729795918,1.206
0.451273506299,0.455341127993,-0.124364229242,-1.5000138567,0.0705932309447,1.94659251518,0.13889694133,-0.0480848381376,-0.238268506565,7.49767994533e-05,-0.393703564054,-0.0247503182615,0.141307055224,-0.0590235310554,0.573743536349,0.819019447714,0.00249913305894,0.0,0.818981622155,-0.573680928967,-0.0118339010268,0.0,-0.008258649113,0.00883653840125,-0.999926852477,0.0,0.643881940489,0.237923425425,0.303664053929,1.0,-0.0521628571429,-0.0685568979592,1.221
0.450471232709,0.45088065539,-0.124419370846,-1.50672106595,0.070117898554,1.94905232562,0.137814757736,-0.0454286485182,-0.272611046715,-0.00493042246072,-0.399365689552,-0.0280079376064,0.147635478889,-0.0557402524092,0.573729709237,0.81902867274,0.00264591575961,0.0,0.818993264294,-0.573667118155,-0.0116969008749,0.0,-0.00806237755581,0.00887801765231,-0.99992808685,0.0,0.643023044868,0.236733742375,0.303748690009,1.0,-0.0546497142857,-0.0718253387755,1.238
0.449641946549,0.446248701612,-0.124463998721,-1.51376165482,0.0696516880802,1.95148470529,0.136778411264,-0.0491444768761,-0.278858827981,-0.000767363943555,-0.422205648537,-0.0310965116584,0.138890321248,-0.0617695662398,0.573782076588,0.818991949719,0.00265740139091,0.0,0.818956629156,-0.573719370657,-0.0116991536519,0.0,-0.00805706512934,0.0088892323074,-0.999928030035,0.0,0.642073754821,0.235497461333,0.303784872314,1.0,-0.0571365714286,-0.0750937795918,1.255
0.448808921131,0.44178052588,-0.124478890695,-1.52073262307,0.0691717562599,1.9538381697,0.135686524673,-0.0536767436994,-0.287782513874,-0.00155506309211,-0.432147032804,-0.0296567980622,0.153421397255,-0.0730911304249,0.573758772439,0.819008711041,0.00251975988952,0.0,0.818971420498,-0.57369637167,-0.0117912018589,0.0,-0.0082116780302,0.00882908682743,-0.999927305143,0.0,0.64110830739,0.234276876394,0.30372985533,1.0,-0.0594771428571,-0.0781699591837,1.271
0.447763054163,0.436295700611,-0.124490574061,-1.52920643991,0.0686096951137,1.95681288467,0.134303937401,-0.0613948848211,-0.292636205481,-0.000494637683774,-0.441993577849,-0.0262162583203,0.161464349656,-0.0726295068165,0.5737098596,0.819043021072,0.00250470191475,0.0,0.819005287623,-0.573647256478,-0.0118283930529,0.0,-0.008251306262,0.00883759998096,-0.999926903714,0.0,0.639952644443,0.232789157508,0.303702538662,1.0,-0.0622565714286,-0.081822922449,1.29
0.446743971577,0.431139544407,-0.124522784365,-1.53690374349,0.0680642040512,1.95965584028,0.133050747082,-0.0661733702962,-0.30526930648,-0.00221585045882,-0.465752750523,-0.0300034973301,0.168063293498,-0.0749122597193,0.573725007744,0.819031684926,0.00273157041593,0.0,0.818997337235,-0.573662060994,-0.0116596860493,0.0,-0.00798280768993,0.00892677423413,-0.999928291171,0.0,0.63894702226,0.231388834779,0.303801920365,1.0,-0.0647434285714,-0.0850913632653,1.307
0.445686225074,0.425875748025,-0.12459810188,-1.54510497703,0.0674617965217,1.96231685561,0.131738163165,-0.0651365307734,-0.315749554097,-0.0086430055215,-0.487730478652,-0.0356590457162,0.156614813529,-0.0747880467082,0.573753673278,0.819012461231,0.00246122923639,0.0,0.818974679464,-0.573691780501,-0.0117882265071,0.0,-0.00824287612318,0.00877939171533,-0.999927486008,0.0,0.637786903025,0.229863796977,0.303714705241,1.0,-0.0672302857143,-0.0883598040816,1.324
0.444575589034,0.420366608926,-0.124672770202,-1.55348517154,0.0668623155442,1.96510337075,0.130361518975,-0.0638897387087,-0.329571155433,-0.0017289560211,-0.493012789413,-0.0388754558699,0.166311930474,-0.0821149449982,0.573776577071,0.81899670306,0.00236365895769,0.0,0.81895772107,-0.573715124377,-0.0118302182121,0.0,-0.00833300325543,0.00872380682544,-0.999927225478,0.0,0.636611355832,0.228299073172,0.303712366413,1.0,-0.0697171428571,-0.091628244898,1.341
0.443469432739,0.415017253683,-0.124691476829,-1.56138771981,0.066325693436,1.96805095669,0.129082820802,-0.071476639833,-0.335026709194,-0.000840588514905,-0.502734749968,-0.0314385015668,0.186404347758,-0.0833526623383,0.573829638913,0.818958530029,0.00268672660625,0.0,0.818923944393,-0.573767216845,-0.0116404929512,0.0,-0.00799167921342,0.00888005558543,-0.999928636292,0.0,0.635560563856,0.226845712022,0.303833376237,1.0,-0.0720577142857,-0.0947044244898,1.357
0.442254865664,0.409270817219,-0.124716009019,-1.57014305228,0.065722132716,1.97101375494,0.127588187443,-0.074027359986,-0.342145342733,-0.00167433949761,-0.526275530341,-0.0338125296318,0.168499460725,-0.078587311948,0.573808398168,0.818973551086,0.00264418514912,0.0,0.81893812547,-0.573745809027,-0.0116978705919,0.0,-0.00806331171495,0.00887793134344,-0.999928080083,0.0,0.63431604824,0.225221024281,0.303812331704,1.0,-0.0745445714286,-0.0979728653061,1.374
0.441140641023,0.404074982646,-0.124769728395,-1.578195431,0.06513321511,1.97363813856,0.126303642756,-0.076979367447,-0.345815508135,0.0010632072019,-0.538384948008,-0.0411700444477,0.170108041227,-0.0888165121714,0.573867064777,0.818933126792,0.00242336699755,0.0,0.818894727983,-0.573805168392,-0.0118237096098,0.0,-0.00829244662826,0.00876988883437,-0.999927159537,0.0,0.633144023833,0.223700812113,0.303718310486,1.0,-0.0767388571429,-0.100856783673,1.389
0.439799682804,0.397903486049,-0.12481906161,-1.58727497126,0.0644933031485,1.97688185595,0.124727242119,-0.0828015211921,-0.360768897734,-0.00157035360871,-0.535685663544,-0.0342512081665,0.193146851636,-0.0948879280419,0.573892161381,0.818914708218,0.00268973440009,0.0,0.818879996681,-0.573829537714,-0.0116601708628,0.0,-0.00800539050105,0.00889442160029,-0.99992839893,0.0,0.63188928099,0.221968617802,0.303837369496,1.0,-0.0792257142857,-0.10412522449,1.406
0.438401673627,0.391648804797,-0.124835116383,-1.59670818642,0.063785775762,1.98003501185,0.123120473612,-0.0810366005486,-0.36248074719,-0.00102818681336,-0.558726835053,-0.0345993901193,0.184318058043,-0.0963597692635,0.573899086716,0.818910008002,0.00264271876576,0.0,0.818874679865,-0.57383661953,-0.0116850187325,0.0,-0.00805264501918,0.00887024784188,-0.999928234231,0.0,0.630517336511,0.220169512266,0.303826731933,1.0,-0.0817125714286,-0.107393665306,1.423
0.4370640432,0.385652722932,-0.124866988053,-1.60585253797,0.0631012599621,1.98296258283,0.121512820788,-0.0852006926334,-0.373625848001,-0.00180365106797,-0.572165870067,-0.0374055000553,0.188794582289,-0.0999614782221,0.573855631891,0.818941096973,0.00243728064419,0.0,0.818902845833,-0.573793648736,-0.0118205185433,0.0,-0.00828197172246,0.00877933622302,-0.999927163447,0.0,0.629143453568,0.218422951865,0.30375199138,1.0,-0.0840531428571,-0.110469844898,1.439
0.435409640589,0.378257360235,-0.124872043569,-1.61665207708,0.0623394511903,1.98670859133,0.119599714465,-0.0960615175646,-0.388319065213,-0.000534509350537,-0.578398426975,-0.0403054326344,0.193675059543,-0.0999069037854,0.573836910348,0.818953297751,0.00272824591572,0.0,0.818918657029,-0.573773681608,-0.0116936891144,0.0,-0.0080113438029,0.00894465412561,-0.999927903168,0.0,0.627575166682,0.216366835909,0.303883933599,1.0,-0.0868325714286,-0.114122808163,1.458
0.433933384237,0.371967467324,-0.124892155975,-1.626121451,0.0616012876111,1.98980033773,0.117898648754,-0.097307574855,-0.392368603301,-0.00533138773188,-0.595263584161,-0.0539209837091,0.19222716411,-0.106690267185,0.57380199179,0.818978108119,0.0026228878179,0.0,0.818942102409,-0.57373914648,-0.0117461312947,0.0,-0.00811512720889,0.00888811792054,-0.999927570412,0.0,0.626150233123,0.214519506106,0.303843712002,1.0,-0.0891731428571,-0.117198987755,1.474
0.432317503308,0.365086012772,-0.124961506677,-1.63630706448,0.0608133506967,1.99312242072,0.116157258605,-0.090386983042,-0.412179809613,-7.71815259926e-05,-0.591850475446,-0.0431941356053,0.209565816865,-0.109484488411,0.573889637831,0.818916757714,0.00260277279868,0.0,0.81888062973,-0.573827006211,-0.0117400211607,0.0,-0.0081207150904,0.00886900747633,-0.999927694732,0.0,0.624616779766,0.212494773834,0.303866309644,1.0,-0.09166,-0.120467428571,1.491
0.430533935282,0.357656278119,-0.12498777499,-1.64724208901,0.0599735575474,1.99678391267,0.114073025144,-0.0990917722779,-0.406571205193,-0.00259452595994,-0.618315557549,-0.0407971080713,0.195379196399,-0.122974237026,0.573804196404,0.818976283845,0.0027087984095,0.0,0.818941607979,-0.573741282128,-0.0116760783173,0.0,-0.00800843594487,0.0089183021661,-0.99992816184,0.0,0.622969697646,0.210333390424,0.303911785442,1.0,-0.0942931428571,-0.123928130612,1.509
0.428845855799,0.350999926117,-0.125019508829,-1.65727227733,0.0592167913493,1.99995789581,0.112247024041,-0.102600959267,-0.409478169206,-0.00157737778112,-0.624932623212,-0.0480002824321,0.195846329745,-0.113521695104,0.573839839999,0.818951874878,0.0025321067414,0.0,0.818914434311,-0.573777048502,-0.0118234846944,0.0,-0.00823015868157,0.00885853587929,-0.999926892743,0.0,0.621409682095,0.208309895198,0.303821982857,1.0,-0.0966337142857,-0.127004310204,1.525
0.427000085289,0.343664838453,-0.125085677798,-1.66781232838,0.0584236249479,2.00353250681,0.110241769969,-0.113705382446,-0.431070718963,-0.00051076160278,-0.621055527972,-0.0512144438444,0.210524760632,-0.11505154504,0.573883269176,0.818920481815,0.00282572543917,0.0,0.818887051049,-0.573819635571,-0.0116520538249,0.0,-0.00792080129064,0.00900104201154,-0.999928118491,0.0,0.619828902253,0.206145254075,0.303958238543,1.0,-0.0991205714286,-0.13027275102,1.542
0.425088822073,0.336285591589,-0.125090999479,-1.67875380311,0.0575400513603,2.00695643607,0.108141578827,-0.115710011535,-0.429482665063,-0.00103938472464,-0.647399130273,-0.0486114383495,0.203652298418,-0.121583207502,0.573828500451,0.818959338317,0.00268349664092,0.0,0.818923826433,-0.57376510962,-0.0117521225436,0.0,-0.00808496941852,0.00894145434443,-0.999927339192,0.0,0.618090524732,0.20391854144,0.303906268331,1.0,-0.101607428571,-0.133541191837,1.559
0.423263643028,0.329143541111,-0.125100321475,-1.68917495414,0.0566596779813,2.01022407924,0.106142430007,-0.110355945489,-0.451343064388,-1.64301812151e-05,-0.63590289681,-0.0556676363731,0.22083762678,-0.137212845108,0.57376110334,0.819006728918,0.00263081387088,0.0,0.818970672261,-0.573698065854,-0.0117607020499,0.0,-0.00812295767843,0.00890256419059,-0.999927378318,0.0,0.616421843177,0.201796400769,0.303917804934,1.0,-0.103948,-0.136617371429,1.575
0.421098638325,0.321005801774,-0.12510092518,-1.70096336587,0.0557518380576,2.01409000839,0.103831624921,-0.12555817085,-0.453724458744,-0.00119726140942,-0.665303305151,-0.0463716682696,0.213056573201,-0.127491091771,0.573739797223,0.819021067033,0.00280779999267,0.0,0.818987063126,-0.573675858064,-0.011702444492,0.0,-0.00797393502762,0.00901388354489,-0.99992758051,0.0,0.614560294313,0.199373086722,0.303967329377,1.0,-0.106581142857,-0.140078073469,1.593
0.418963905584,0.313202766713,-0.125157941108,-1.71237760384,0.0548230196561,2.01756631923,0.101545749995,-0.129409006419,-0.464706448402,-0.00585520344684,-0.664155825025,-0.0531704086584,0.206789974316,-0.150488760336,0.57372456239,0.819032191763,0.0026725022396,0.0,0.818996126196,-0.573660771731,-0.0118072500721,0.0,-0.00813756488133,0.00896305092861,-0.999926719193,0.0,0.612697261226,0.196956721312,0.303927948792,1.0,-0.109068,-0.143346514286,1.61
0.416899304523,0.305658549717,-0.125214903058,-1.72306990714,0.0538812686328,2.02103904158,0.0993490812518,-0.132375425286,-0.475495267021,-0.00155360719509,-0.680790221686,-0.0579140393106,0.215435945045,-0.132979701615,0.57368582006,0.819058636988,0.00287679320084,0.0,0.819026054206,-0.573622252337,-0.0116009076036,0.0,-0.00785178214542,0.00901161827766,-0.999928567575,0.0,0.610996096942,0.194665638283,0.304045061949,1.0,-0.111408571429,-0.146422693878,1.626
0.414577732405,0.297649800502,-0.125245172129,-1.7348490702,0.0529322229676,2.02451553442,0.0969911283475,-0.142580965027,-0.472298239255,-0.00302377994085,-0.70385468248,-0.0586588149414,0.200504961732,-0.13179171352,0.573726324603,0.819031094427,0.00263015591401,0.0,0.818994497085,-0.573662711571,-0.0118259882462,0.0,-0.00817718715866,0.00893913609741,-0.999926610035,0.0,0.609017100377,0.19213321249,0.30393384583,1.0,-0.113895428571,-0.149691134694,1.643
0.412032406092,0.28888850694,-0.125361979723,-1.74714058346,0.0519227150625,2.02846204794,0.0943923982854,-0.141677032544,-0.485123123783,-0.00747563392909,-0.685964323035,-0.0627201009547,0.224195304461,-0.152628203572,0.573804230663,0.818975441095,0.00294595615699,0.0,0.818943351886,-0.573739953047,-0.0116189320023,0.0,-0.00782555788071,0.00907973836153,-0.999928156917,0.0,0.607039286843,0.189398577631,0.304084796665,1.0,-0.116528571429,-0.153151836735,1.661
0.409709612079,0.281108695568,-0.125379381092,-1.75840529827,0.0509662993331,2.03178910101,0.0919929007684,-0.145451607037,-0.500183182432,-0.00248163352457,-0.720533018751,-0.0619696027492,0.206742764193,-0.15136540395,0.573758692674,0.819007864165,0.0027978417079,0.0,0.818973404629,-0.573694417896,-0.0117483738108,0.0,-0.00801705872546,0.00903226344693,-0.999927069834,0.0,0.605118149841,0.18694025679,0.304020959551,1.0,-0.118869142857,-0.156228016327,1.677
0.407115150548,0.272638186968,-0.125448641897,-1.77038506581,0.0498974187428,2.03541430893,0.0894162058833,-0.15120361325,-0.507157712354,-0.00733057074797,-0.695413851803,-0.0605380660097,0.227336852486,-0.144385915254,0.573800311011,0.818978554485,0.0028420552694,0.0,0.818945004079,-0.573736255197,-0.0116848905542,0.0,-0.00793923748296,0.00903245470104,-0.999927689021,0.0,0.603105471162,0.184233996098,0.304067322527,1.0,-0.121356,-0.159496457143,1.694
0.404603775257,0.26460228519,-0.125565512959,-1.78177164393,0.0489025764216,2.03886644921,0.0869135557488,-0.152943307812,-0.509732220411,-0.00974438593176,-0.711180880051,-0.0577745214179,0.200847648385,-0.153753372157,0.573869821543,0.81892969949,0.0028848078364,0.0,0.818896926577,-0.573805865722,-0.0116361079347,0.0,-0.00787398631487,0.00904014550578,-0.999928135472,0.0,0.601183836804,0.181621123184,0.304085552735,1.0,-0.123696571429,-0.162572636735,1.71
0.401974452196,0.256471997071,-0.125679513571,-1.79334574531,0.0478638923382,2.0421564981,0.0843650739025,-0.164607656282,-0.524466505359,-0.005146543535,-0.722582441137,-0.0591962012437,0.209309940329,-0.160939998405,0.573972667744,0.818858192492,0.00271738333367,0.0,0.818823129865,-0.573909146824,-0.0117354203652,0.0,-0.00805026895037,0.00896103938819,-0.999927443839,0.0,0.599172490189,0.178920098667,0.304043450801,1.0,-0.126037142857,-0.165648816327,1.726
0.398971834409,0.247181808841,-0.125687952206,-1.8063742751,0.0466791013572,2.04603762911,0.0813899766715,-0.172308557146,-0.50971487442,0.00122328314717,-0.72587103231,-0.0635628044255,0.210931461413,-0.174551251095,0.573922191443,0.818893311221,0.00279462114449,0.0,0.818859378545,-0.573858548228,-0.0116803979202,0.0,-0.00796143577878,0.00899221443294,-0.999927875209,0.0,0.596903732885,0.175950617799,0.304073484374,1.0,-0.128670285714,-0.169109518367,1.744
0.396054648091,0.238280134008,-0.125701337202,-1.81884251112,0.0456052904192,2.04958437051,0.0785045103074,-0.179154133616,-0.533842980706,-0.000441957696583,-0.734562789312,-0.0664916603624,0.209484129155,-0.171954543952,0.573890059361,0.818915853203,0.00278783786123,0.0,0.818881104135,-0.573825623656,-0.0117744565276,0.0,-0.00804271116108,0.00904032535583,-0.999926790978,0.0,0.594673847368,0.173097327125,0.304072681485,1.0,-0.131157142857,-0.172377959184,1.761
0.393268935209,0.22978673038,-0.125695394981,-1.83054211319,0.0445380718389,2.05307317522,0.0757876320077,-0.174780439202,-0.522030537042,0.00132075830109,-0.743354905615,-0.070117552527,0.215005642248,-0.175081411642,0.573842392587,0.818948528446,0.00299384811861,0.0,0.818916633396,-0.573777453443,-0.0116502518903,0.0,-0.007823304715,0.00913729636247,-0.999927650242,0.0,0.592597757534,0.170419691456,0.304151907999,1.0,-0.133497714286,-0.175454138775,1.777
0.390159349753,0.220676024956,-0.12570286105,-1.84334385983,0.0433246345839,2.05651059751,0.0726994832967,-0.188871166629,-0.539490482035,-0.00164932307837,-0.757677015797,-0.0719550981666,0.200543284357,-0.187492165499,0.573723563508,0.819032621613,0.002753962723,0.0,0.818997096727,-0.573658897594,-0.0118309621082,0.0,-0.00811026483975,0.00904336332787,-0.99992621787,0.0,0.590227157326,0.167436058464,0.304071537853,1.0,-0.135984571429,-0.178722579592,1.794
0.386918135667,0.211386119919,-0.12579943881,-1.85594447887,0.0421811532655,2.06018782332,0.0696153958198,-0.196518563481,-0.538973689029,-0.00616636685662,-0.746484076765,-0.0674078810588,0.211935468169,-0.192827771588,0.573795473087,0.81898125232,0.00303484983272,0.0,0.818949608224,-0.573730073665,-0.0116657046274,0.0,-0.00781295919054,0.00917929431697,-0.999927346473,0.0,0.587973684326,0.164386567694,0.304192611933,1.0,-0.138471428571,-0.181991020408,1.811
0.383782998924,0.202681169642,-0.12585804698,-1.86813576877,0.0410114449979,2.06335825246,0.066583451866,-0.197574649106,-0.541968833543,-0.00505950517338,-0.771431578978,-0.0722347061553,0.191432710757,-0.20527462609,0.573757333795,0.819008982021,0.00274885177205,0.0,0.818972993705,-0.57369224048,-0.0118825795043,0.0,-0.00815510142271,0.0090691271088,-0.999925619861,0.0,0.585672246919,0.161445328387,0.304081590829,1.0,-0.140812,-0.1850672,1.827
0.380313317749,0.193166466853,-0.125946534732,-1.88093802283,0.039795697126,2.06697257375,0.063318467234,-0.207995747366,-0.550109560257,-0.00914577808198,-0.765916415945,-0.0718737105977,0.205188192253,-0.19267134943,0.573808893341,0.818972028889,0.00298608806713,0.0,0.818939444237,-0.573743298834,-0.0117286238014,0.0,-0.00789231876404,0.00917559060458,-0.999926757239,0.0,0.583323771273,0.158278873858,0.304191777869,1.0,-0.143298857143,-0.188335640816,1.844
0.376449101813,0.183094865572,-0.126127475737,-1.89479397876,0.0385068018082,2.07058200918,0.0597183363316,-0.217439887272,-0.56526346281,-0.0149647540669,-0.769254986381,-0.0758687902225,0.194397715769,-0.204226380268,0.573960842525,0.818866066138,0.00283969655043,0.0,0.81883080808,-0.573894874015,-0.0118965633353,0.0,-0.00811216090916,0.00915356877077,-0.999925199715,0.0,0.580705052051,0.154752160773,0.304121991763,1.0,-0.145932,-0.191796342857,1.862
0.37317156938,0.174515606781,-0.126200205117,-1.90618726767,0.0373530037466,2.07371473035,0.0566902460834,-0.212944880951,-0.578359331345,-0.00377003792529,-0.767832694498,-0.0740134376953,0.203651494998,-0.201982982396,0.574000805116,0.81883729852,0.00304978372282,0.0,0.818805411622,-0.573934814582,-0.0117163736193,0.0,-0.00784357768056,0.00922256486997,-0.999926708607,0.0,0.578570161192,0.15185742358,0.304233246196,1.0,-0.148126285714,-0.194680261224,1.877
0.369180108494,0.164277194952,-0.126198516329,-1.92022437997,0.0359105319449,2.07724749216,0.0528973116358,-0.231300119952,-0.565317945042,-0.000633937680303,-0.785940588066,-0.075206743201,0.19113807894,-0.209935684492,0.573861090053,0.818936144459,0.00279061336406,0.0,0.818900397416,-0.573795488174,-0.0119005783164,0.0,-0.00814472917701,0.00911468872379,-0.999925290127,0.0,0.575806638352,0.148375605883,0.304116042739,1.0,-0.150759428571,-0.198140963265,1.895
0.365283069844,0.154338960397,-0.126238173504,-1.93320873782,0.0345628259749,2.08077950105,0.0492432715378,-0.231641867933,-0.565911199636,-0.00264580100029,-0.779592733884,-0.0913178098791,0.20775682606,-0.210323066093,0.573791943274,0.818983366842,0.00313010712704,0.0,0.818952924011,-0.573726188597,-0.011623926732,0.0,-0.00772412693237,0.00923330366189,-0.999927539358,0.0,0.573317952266,0.14505597704,0.304279305102,1.0,-0.153246285714,-0.201409404082,1.912
0.361713439251,0.145608935607,-0.1262795584,-1.94504653269,0.0333647763973,2.08357268659,0.0459720994165,-0.235697216789,-0.57940038739,-0.00338141909995,-0.803826000642,-0.0792525174851,0.183178249218,-0.216063326422,0.573792153618,0.818984249871,0.00284777292138,0.0,0.818949083413,-0.573726162149,-0.0118927097175,0.0,-0.0081062561886,0.00915630083205,-0.999925222587,0.0,0.570760825676,0.141816676751,0.304160719117,1.0,-0.155586857143,-0.204485583673,1.928
0.357287492854,0.134883536826,-0.126395877095,-1.95898712143,0.0319709182968,2.08716050914,0.0418806895169,-0.24794310991,-0.584695112562,-0.0042831678343,-0.777726316213,-0.0794093247078,0.191374851545,-0.242871246925,0.573825831908,0.818959493348,0.00316382551553,0.0,0.81892870092,-0.573759019038,-0.0117097302634,0.0,-0.00777467102603,0.0093104724846,-0.99992643209,0.0,0.568179989176,0.138334782322,0.304304949335,1.0,-0.158073714286,-0.20775402449,1.945
0.352947941617,0.124798909389,-0.126534193778,-1.9724441858,0.0305108739986,2.09031344914,0.0379510208463,-0.258694605925,-0.591828129305,-0.00456560481614,-0.774467269933,-0.0799756912318,0.176988942067,-0.225023157997,0.573884563184,0.818919192171,0.00293457567337,0.0,0.818885171063,-0.573818256097,-0.0118504212424,0.0,-0.00802077872031,0.00920403152669,-0.999925473679,0.0,0.565436508332,0.134723237463,0.304218282522,1.0,-0.160560571429,-0.211022465306,1.962
0.348707069177,0.115034905271,-0.126663250655,-1.98494849863,0.0291653008452,2.09344550974,0.0341383940963,-0.268173462146,-0.60094056575,-0.00599971999724,-0.798166727364,-0.0865648762797,0.184953159869,-0.252150643107,0.573967459142,0.818860073873,0.00320658139389,0.0,0.818830293226,-0.573901035752,-0.0116318081114,0.0,-0.0076847108207,0.00930210442428,-0.999927205387,0.0,0.562931687525,0.131293498658,0.30435458603,1.0,-0.162901142857,-0.214098644898,1.978
0.343847493272,0.104142661669,-0.126718300479,-1.99928649964,0.0276026480695,2.09666249838,0.0296867486534,-0.27524128045,-0.615378193551,-0.00280865437256,-0.770240704834,-0.0891369616175,0.174581728645,-0.25802392697,0.573890898706,0.818914524949,0.00299735079282,0.0,0.818881384708,-0.573824438084,-0.011812660007,0.0,-0.00795375885808,0.00923383061504,-0.999925734288,0.0,0.559919620086,0.127430009704,0.304269925806,1.0,-0.165534285714,-0.217559346939,1.996
0.340015834009,0.0954745609369,-0.126721570256,-2.01026760791,0.0264030431224,2.09930394373,0.0261538149343,-0.271288606832,-0.614020896514,0.00513572473561,-0.807040940705,-0.0761703434256,0.184030952875,-0.25321190058,0.573774736309,0.818995001182,0.00323835049017,0.0,0.818965394203,-0.57370794643,-0.0116456945789,0.0,-0.00768004610059,0.00933428203577,-0.999926941367,0.0,0.557637248204,0.124468532845,0.304381687784,1.0,-0.167582285714,-0.220251004082,2.01
0.334877839427,0.0843856605182,-0.126766104174,-2.02472552579,0.0248867913461,2.10237459764,0.0215133718044,-0.2936128726,-0.626433961103,-0.00272477045951,-0.774463310021,-0.0893192157115,0.163483292322,-0.26187053869,0.573747209698,0.819015056841,0.00303692828316,0.0,0.818981295289,-0.573679303792,-0.0119348761778,0.0,-0.00803277504378,0.0093349690912,-0.999924163563,0.0,0.554514067015,0.120520692483,0.304277530497,1.0,-0.170215428571,-0.223711706122,2.028
0.330146527777,0.0743013885296,-0.126897152183,-2.03729238809,0.0233952707991,2.10531942972,0.0172611893995,-0.298992802264,-0.618174967885,-0.0124814071441,-0.808418060543,-0.0932145402197,0.179054795832,-0.260780204537,0.573747628636,0.819013652263,0.00332309230655,0.0,0.818985002187,-0.57368039456,-0.0116240264601,0.0,-0.00761399005238,0.00939100118249,-0.999926915455,0.0,0.551878202065,0.116918668416,0.304431294708,1.0,-0.172556,-0.226787885714,2.044
0.324926222405,0.063668022837,-0.127072819817,-2.05100092491,0.0218612810755,2.10807946563,0.0126103727379,-0.311100080628,-0.61463633662,-0.0107472316134,-0.788622837431,-0.0914786716431,0.153140894273,-0.281079081397,0.57383324967,0.818954641245,0.00307311858204,0.0,0.818921685342,-0.573765588449,-0.0118772762127,0.0,-0.007963854117,0.00933239913242,-0.999924738845,0.0,0.548865837155,0.112970078651,0.304320980479,1.0,-0.175042857143,-0.230056326531,2.061
0.319536715067,0.0527764932838,-0.127206837985,-2.06446147565,0.0203116871682,2.11100412564,0.00783918884721,-0.318218977096,-0.622621616802,-0.00485713671532,-0.796528308041,-0.0850831444693,0.165037284877,-0.289779476213,0.573897843108,0.818908378308,0.0033287405921,0.0,0.818879291319,-0.573829941391,-0.011689803873,0.0,-0.00766289484796,0.00943477161468,-0.999926129835,0.0,0.545948398717,0.109018217985,0.304447081801,1.0,-0.177529714286,-0.233324767347,2.078
0.314082181305,0.0419880271986,-0.127249450998,-2.07820445077,0.0187437981728,2.11367638591,0.00301415590625,-0.322352529401,-0.63517034855,-0.00212911062352,-0.830387744751,-0.0965523443632,0.150994781859,-0.285702989342,0.573872108882,0.818927246114,0.00311690874834,0.0,0.818894249845,-0.573803563871,-0.0119341761885,0.0,-0.00798488242633,0.00940129051232,-0.999923925801,0.0,0.542836398264,0.105092552797,0.304329292381,1.0,-0.17998,-0.236545142857,2.095
0.308089942837,0.0303558800305,-0.127306119686,-2.09241560121,0.0169958339341,2.11663469609,-0.00232012423395,-0.33396833943,-0.63822250389,-0.00730791906574,-0.788263880271,-0.0984901502293,0.148357253734,-0.291278554019,0.573787072699,0.818985909537,0.00334993817387,0.0,0.818957022544,-0.573719023722,-0.0116886246256,0.0,-0.00765104291784,0.00945041905021,-0.999926072828,0.0,0.539667043675,0.100878114831,0.304446933033,1.0,-0.17998,-0.236545142857,2.113
0.302280335082,0.0195154708222,-0.127433056716,-2.10589771241,0.0154091362306,2.11905797386,-0.00746296250187,-0.344223681833,-0.636491330341,-0.0109298910437,-0.79293275255,-0.0894745101529,0.151060311644,-0.301030289727,0.573811626558,0.818969331389,0.00319348889516,0.0,0.818937393671,-0.573742881183,-0.01189110765,0.0,-0.0079063631839,0.00943870501909,-0.999924197261,0.0,0.536548908056,0.0968151470673,0.304381891969,1.0,-0.17998,-0.236545142857,2.13
0.296678456739,0.00928217261628,-0.127605753484,-2.11823552033,0.0138398763582,2.12138401092,-0.012306547168,-0.347791209572,-0.625559727932,-0.0107249449235,-0.791283492736,-0.0891490966713,0.144173507788,-0.306947400471,0.573942621678,0.818877138727,0.00329326475218,0.0,0.818847196054,-0.573874348566,-0.0117579111131,0.0,-0.00773851343572,0.00944522878779,-0.999925448753,0.0,0.533538232318,0.0927104064411,0.304458593662,1.0,-0.17998,-0.236545142857,2.147
0.290350766531,-0.00209756578663,-0.12763162539,-2.13210271679,0.0122258010039,2.12378171283,-0.0178835345804,-0.354612144056,-0.632779379609,0.00128084115344,-0.766889670254,-0.0953012514793,0.135190615926,-0.310872249397,0.573897550909,0.818908729774,0.00329245524837,0.0,0.818877691678,-0.573827967044,-0.0118969412656,0.0,-0.00785335735969,0.00952392697445,-0.999923806894,0.0,0.530436945094,0.0887356048257,0.304443609168,1.0,-0.17998,-0.236545142857,2.164
0.285017003721,-0.0115699343128,-0.127655621048,-2.14332949564,0.0107816138671,2.12587841369,-0.0225663117437,-0.363882316144,-0.622672071805,-0.00369564343053,-0.74118795039,-0.101183769293,0.132540963894,-0.307936480415,0.573831400282,0.818954176516,0.0035110851305,0.0,0.818926972563,-0.573762309152,-0.0116693232613,0.0,-0.00754225792165,0.00957173070917,-0.999925745401,0.0,0.527803534033,0.0852410000556,0.304545284785,1.0,-0.17998,-0.236545142857,2.179
0.277738343708,-0.0240407017639,-0.127737829228,-2.15838796903,0.00886641499583,2.12815279726,-0.0289771133858,-0.369035825057,-0.629876358564,-0.00656180826598,-0.740365166137,-0.0924968632733,0.116478153791,-0.324352594974,0.573766405831,0.819000711657,0.00326997654011,0.0,0.818969300049,-0.573696824323,-0.0119157979674,0.0,-0.00788322363506,0.00951507816533,-0.999923656122,0.0,0.524117402713,0.0805045587577,0.304468061307,1.0,-0.17998,-0.236545142857,2.199
0.272109517345,-0.0333957498365,-0.127906046207,-2.16932162697,0.00742881221822,2.13007040741,-0.0337664612943,-0.375866456471,-0.607484332141,-0.0122976020569,-0.73249256985,-0.0960511242633,0.119485180854,-0.328555443473,0.573944691772,0.818874873931,0.0034897754358,0.0,0.81884732383,-0.573875565641,-0.0116894104917,0.0,-0.00756961342902,0.00956685256956,-0.999925585373,0.0,0.521505113241,0.0768767468258,0.304561707868,1.0,-0.17998,-0.236545142857,2.214
0.265727972158,-0.0438408646522,-0.127994480615,-2.18184246759,0.00591388602329,2.13185490515,-0.0393965776616,-0.369960767567,-0.597665461905,-0.00269193149226,-0.720671765831,-0.0810958953396,0.102508261615,-0.334119768821,0.573932996127,0.818883701987,0.00333848439726,0.0,0.818852477444,-0.573862283279,-0.0119769326137,0.0,-0.00789203658439,0.00960786802021,-0.999922699328,0.0,0.518366040657,0.0728608121844,0.304460976445,1.0,-0.17998,-0.236545142857,2.231
0.259260192359,-0.0543646066658,-0.128006493822,-2.19385468387,0.00428751818209,2.13377403026,-0.045000493046,-0.384395303316,-0.611607397152,-0.00347226062846,-0.707858556477,-0.0988320483583,0.109719578987,-0.334076936053,0.57388731346,0.818914531426,0.0036178128165,0.0,0.81888829823,-0.573817341014,-0.0116773744541,0.0,-0.00748695204571,0.00966426770144,-0.999925270947,0.0,0.5153959142,0.0689019280312,0.304609892216,1.0,-0.17998,-0.236545142857,2.248
0.252298554313,-0.065258809836,-0.128092413175,-2.20680578315,0.00259930803664,2.13542551593,-0.0511404946045,-0.386060153042,-0.599817058714,-0.00407628766991,-0.724762540619,-0.0960249839628,0.0816911382073,-0.347053673348,0.573819261906,0.818963399215,0.00333950796465,0.0,0.818932024202,-0.573748362215,-0.0119959781981,0.0,-0.0079083821176,0.0096185385595,-0.999922467598,0.0,0.512053891952,0.0646514317646,0.304463740562,1.0,-0.17998,-0.236545142857,2.266
0.245122264555,-0.0762437282082,-0.128262583643,-2.21922933021,0.000910486486061,2.13714693077,-0.0573190443296,-0.402701266631,-0.603527186975,-0.0122263938206,-0.6902935149,-0.0955615364966,0.0899522824983,-0.343233788445,0.573949046951,0.818871604588,0.00354028316683,0.0,0.818843548835,-0.573878281252,-0.0118198028659,0.0,-0.00764735655506,0.00968308905169,-0.999923874965,0.0,0.508886813943,0.0603290864582,0.304571821844,1.0,-0.17998,-0.236545142857,2.284
0.239511758401,-0.0846728529546,-0.128339189623,-2.22896263476,-0.000352152387074,2.13833903277,-0.0622306389715,-0.398533057989,-0.610889627562,0.00110281365628,-0.69709225077,-0.080757517818,0.0818223562022,-0.355807832129,0.573951996134,0.818869718096,0.00349825979235,0.0,0.8188402791,-0.573880326678,-0.0119463331741,0.0,-0.00777505770007,0.00972132496212,-0.999922519158,0.0,0.506332195566,0.0570204921492,0.304527191207,1.0,-0.17998,-0.236545142857,2.298
0.232671756069,-0.0949055064497,-0.128355529184,-2.24051469152,-0.00190586335749,2.13968407064,-0.0682731441531,-0.409025166504,-0.612674807937,-0.00343315588409,-0.660875867017,-0.0963025884837,0.0989130379029,-0.372782681666,0.573829986894,0.818955037054,0.00354123233417,0.0,0.818925878095,-0.573757827464,-0.0119627969814,0.0,-0.00776533258125,0.0097648064366,-0.999922171054,0.0,0.503264628138,0.053078734705,0.304554238491,1.0,-0.17998,-0.236545142857,2.315
0.226097954966,-0.104465420351,-0.128417351861,-2.25122651757,-0.00345415971801,2.14091068799,-0.0739774994951,-0.409735304846,-0.596420302249,-0.0040215954088,-0.668271928896,-0.0882630043211,0.0702059413639,-0.352901728767,0.57380047797,0.818975633817,0.00355943770017,0.0,0.818947216557,-0.573728893768,-0.0118894848876,0.0,-0.00769519432376,0.00973737118297,-0.999922980827,0.0,0.500400145381,0.0493166934475,0.304583266474,1.0,-0.17998,-0.236545142857,2.331
0.218471806055,-0.115130883876,-0.12863611918,-2.26327250192,-0.00514267749733,2.14206904094,-0.0805610443519,-0.425590227997,-0.597917165289,-0.00598348551547,-0.655225540456,-0.0984106772608,0.0675196303298,-0.366912838859,0.573950061171,0.818871393455,0.00342274227815,0.0,0.81884021434,-0.573877738645,-0.0120744096398,0.0,-0.00792330559655,0.00973297456197,-0.999921242116,0.0,0.497107209907,0.0449538141178,0.304519066695,1.0,-0.17998,-0.236545142857,2.349
0.21125786763,-0.125199662038,-0.128696688023,-2.27424845818,-0.00663226533925,2.14327029453,-0.0868779327963,-0.425076330649,-0.584700504286,-0.00246262129975,-0.655103893049,-0.0850847470169,0.0592365040806,-0.368450301228,0.573938161484,0.818878622761,0.00367897799009,0.0,0.818851231659,-0.573865455855,-0.0119099071531,0.0,-0.00764167711138,0.00984827548317,-0.999922305102,0.0,0.494113856266,0.0409799755845,0.30461531693,1.0,-0.17998,-0.236545142857,2.366
0.204813178886,-0.133988961291,-0.128740238142,-2.28398431552,-0.00802182013236,2.14407360162,-0.092550367103,-0.435125415024,-0.589478641257,-0.00712356646317,-0.653377190739,-0.104841508172,0.043713685991,-0.371430216664,0.573858118655,0.818935105765,0.00359153177294,0.0,0.818905979247,-0.573784983231,-0.0120223572359,0.0,-0.00778491328009,0.00984044360773,-0.999921277299,0.0,0.491371319114,0.0374670919228,0.304581680177,1.0,-0.17998,-0.236545142857,2.381
0.196932054962,-0.144531660536,-0.128860483738,-2.29527634073,-0.00968823733021,2.14514544786,-0.099458386632,-0.442714936202,-0.582640002112,-0.00911536629845,-0.618973032207,-0.0895419192014,0.0570733101001,-0.386201585191,0.573847493479,0.81894156318,0.00381014769897,0.0,0.818916425057,-0.573775063267,-0.0117818693804,0.0,-0.00746263846944,0.00988137899218,-0.999923330749,0.0,0.488210623041,0.0332105097247,0.304692511375,1.0,-0.17998,-0.236545142857,2.399
0.189315029534,-0.154330351839,-0.129035973691,-2.30598876495,-0.0112415805046,2.14591477713,-0.106100508251,-0.445263270966,-0.5766594436,-0.00858194353516,-0.631207763757,-0.0922608084529,0.0315411225287,-0.400880216459,0.573928809934,0.818884895053,0.00374121408993,0.0,0.818858144627,-0.573855665259,-0.0119063566924,0.0,-0.00760316513457,0.00989711530559,-0.999922116461,0.0,0.485122222226,0.0291292324041,0.304645083181,1.0,-0.17998,-0.236545142857,2.416
0.18217142651,-0.163538269994,-0.129060743841,-2.3158939666,-0.0127165890096,2.14649331493,-0.112389348272,-0.454669786382,-0.578110749198,0.00458018242545,-0.600478712362,-0.087788988636,0.0387848676233,-0.396607604544,0.573824968339,0.818958007432,0.00366533423747,0.0,0.818929878145,-0.573751608796,-0.011987200994,0.0,-0.0077141713469,0.00988039717956,-0.99992143157,0.0,0.482208939463,0.0254158676641,0.304634450403,1.0,-0.17998,-0.236545142857,2.432
0.174390145193,-0.173262043611,-0.129142314049,-2.32614647331,-0.014128570548,2.14724920736,-0.11924179729,-0.461869264748,-0.57027121164,0.000783389931351,-0.612743874843,-0.0847247275439,0.0457917076132,-0.410193062875,0.573839662328,0.818946588404,0.00390821980598,0.0,0.818921717534,-0.573765557231,-0.0118765646216,0.0,-0.00748401425449,0.0100159627464,-0.999921831955,0.0,0.47920810759,0.0214285946125,0.304699934464,1.0,-0.17998,-0.236545142857,2.449
0.165970657808,-0.183469299981,-0.129358014369,-2.33704639374,-0.0158445202982,2.14770383937,-0.126582907434,-0.469100709561,-0.562520833848,-0.0119906687112,-0.597420980422,-0.0944171982272,0.0222303477859,-0.40666659846,0.573916989319,0.818893189881,0.00373896220044,0.0,0.818865525764,-0.573842706952,-0.0120226991311,0.0,-0.00769987849869,0.00996193033493,-0.999920732766,0.0,0.476091376935,0.0173275653357,0.304641895588,1.0,-0.17998,-0.236545142857,2.466
0.158869997895,-0.191983104953,-0.129434772861,-2.34577723625,-0.0171286548712,2.14818589147,-0.13282294917,-0.474893684441,-0.564003419751,-0.00588120015908,-0.580607967746,-0.0949243005627,0.0371281047883,-0.408944600994,0.573940958151,0.818875338756,0.00396270549964,0.0,0.818851213486,-0.573866699064,-0.0118511087354,0.0,-0.00743065901908,0.0100468963437,-0.999921919542,0.0,0.473271517993,0.0135470914423,0.304742927619,1.0,-0.17998,-0.236545142857,2.482
0.150316145981,-0.202024556303,-0.129506643914,-2.35627265278,-0.0187330830512,2.14855298218,-0.140433055813,-0.479814569798,-0.561564741463,-0.00727567857046,-0.583925669313,-0.0910846986349,0.0104096702214,-0.414136526804,0.573833062398,0.818951116025,0.00392848077856,0.0,0.818926214867,-0.573758493684,-0.0119076626755,0.0,-0.00749793878191,0.0100503399334,-0.9999213827,0.0,0.470016108846,0.00933784845375,0.304724339159,1.0,-0.17998,-0.236545142857,2.5
0.142060737745,-0.211462538508,-0.129677159776,-2.36609109244,-0.020164020359,2.14877123089,-0.147728927761,-0.489436126555,-0.557075461726,-0.0159048324898,-0.567405351407,-0.0856707754845,0.0159701833668,-0.427567673564,0.573897934018,0.818905705177,0.00391845129125,0.0,0.818879420415,-0.573821721119,-0.0120778348106,0.0,-0.00764226250577,0.0101403788012,-0.999919381021,0.0,0.466911899391,0.00530052241101,0.304686155807,1.0,-0.17998,-0.236545142857,2.517
0.134170984076,-0.220325587749,-0.129783637829,-2.37492305829,-0.0215478819173,2.14907173748,-0.154612882177,-0.485954504733,-0.551561187003,-0.0025957602448,-0.554261631365,-0.0939855466688,0.0140667166675,-0.437112775653,0.573981805076,0.818845730954,0.0041597165465,0.0,0.818823854853,-0.573906441332,-0.0118168617881,0.0,-0.00728903904488,0.0101889349657,-0.999921524678,0.0,0.464122496918,0.00151337756481,0.30480863334,1.0,-0.17998,-0.236545142857,2.533
0.125778609248,-0.229536637932,-0.129824967214,-2.38448400443,-0.0230844696493,2.14915762166,-0.162140357401,-0.503144671026,-0.542393400445,-0.0078640833029,-0.558349117516,-0.086329363619,0.00308524864724,-0.445521117497,0.573803790361,0.818971365002,0.00398250858399,0.0,0.818946479612,-0.573728108838,-0.0119777944657,0.0,-0.0075247384395,0.0101345603712,-0.999920331325,0.0,0.461007072421,-0.00243667584334,0.304717733251,1.0,-0.17998,-0.236545142857,2.55
0.118161313494,-0.237663775323,-0.12995049439,-2.39270614048,-0.024384402193,2.14917050807,-0.168881191808,-0.512263758264,-0.54232504779,-0.00837540144532,-0.539601769077,-0.0940603536333,0.00473560615493,-0.450655284434,0.573831899741,0.818951741318,0.00396776172859,0.0,0.818926260376,-0.573755726243,-0.0120371745699,0.0,-0.00758148502954,0.0101568145756,-0.999919676875,0.0,0.458290692572,-0.00600745873467,0.304704917679,1.0,-0.17998,-0.236545142857,2.565
0.109386931171,-0.246869673242,-0.130115471259,-2.40168194987,-0.0258215917179,2.14924732658,-0.176634514798,-0.514524714022,-0.543112329414,-0.00291050932674,-0.533234287066,-0.073099470957,-0.000273655315926,-0.457478952089,0.573919667003,0.818889040635,0.00420735742573,0.0,0.818867811096,-0.573844192129,-0.0117939820187,0.0,-0.00724373446191,0.0102142644547,-0.999921595483,0.0,0.455311487038,-0.0100762825577,0.304822390207,1.0,-0.17998,-0.236545142857,2.582
0.100651987282,-0.255872532949,-0.130199928266,-2.4108240844,-0.0271959606884,2.14917296304,-0.184515650822,-0.520032726759,-0.527355570505,-0.00486424366361,-0.531171518864,-0.0744886025116,-0.0123908263873,-0.475407507272,0.573822568402,0.818957309758,0.00416313441202,0.0,0.818934255979,-0.573745516943,-0.0119796941864,0.0,-0.00742242132192,0.010283750263,-0.999919572837,0.0,0.452201717746,-0.0140238296778,0.304734628139,1.0,-0.17998,-0.236545142857,2.599
0.0921727080112,-0.264331105238,-0.130356885433,-2.41914890919,-0.028587491143,2.14903700162,-0.191965347113,-0.530265493368,-0.533710815695,-0.0128298905993,-0.508654948998,-0.0790477980956,-0.00452778252827,-0.465800412988,0.573931340475,0.818881004089,0.00417905056292,0.0,0.818858321963,-0.573854442669,-0.011952994712,0.0,-0.00739005586147,0.0102824465781,-0.999919825969,0.0,0.449322532593,-0.017855068531,0.304740968745,1.0,-0.17998,-0.236545142857,2.615
0.0815023310579,-0.274810830434,-0.130522874785,-2.42917262336,-0.0302171638267,2.14887191917,-0.201512120543,-0.52980555888,-0.516912393191,-0.00612059750498,-0.505690627167,-0.0900451887413,-0.013195453625,-0.485419963404,0.573958358219,0.818860800883,0.00442026122712,0.0,0.818842368673,-0.573882231368,-0.0117092565036,0.0,-0.00705167754864,0.0103403218953,-0.999921672726,0.0,0.445812080677,-0.022588136546,0.304848912023,1.0,-0.17998,-0.236545142857,2.635
0.0734548522076,-0.282526748381,-0.130593946606,-2.43681019503,-0.0314797242207,2.14855267158,-0.20884023738,-0.546287743397,-0.51399985833,-0.00610950015713,-0.50059900997,-0.0841560003531,-0.0222612394558,-0.481661486568,0.573806897496,0.81896758439,0.00429965183382,0.0,0.818946735488,-0.573729966932,-0.011870820465,0.0,-0.00725511773997,0.010332943436,-0.999920293597,0.0,0.443059917039,-0.0260834031097,0.304773256447,1.0,-0.17998,-0.236545142857,2.65
0.0635056166888,-0.291758595795,-0.130771609251,-2.44566988423,-0.032901344525,2.14819299723,-0.217691315554,-0.549254378105,-0.507925933398,-0.0107780155459,-0.480926884936,-0.0782319335725,-0.01630062057,-0.494378004756,0.573932282821,0.818879188268,0.00439962028678,0.0,0.818859424151,-0.573854678621,-0.0118658419251,0.0,-0.00719208678797,0.0104130607619,-0.99991991782,0.0,0.439823415978,-0.0303840780562,0.30478393301,1.0,-0.17998,-0.236545142857,2.668
0.0540913228506,-0.300421146955,-0.13089467876,-2.45369226844,-0.0342589123873,2.14786235335,-0.226199852508,-0.546857215878,-0.505763261249,-0.00260600739964,-0.477123361671,-0.0875326724632,-0.0234377121398,-0.497577246518,0.573902921944,0.818898536932,0.00462269369241,0.0,0.818883068287,-0.573826686295,-0.011584535815,0.0,-0.00683406600363,0.0104340454359,-0.999922210093,0.0,0.436852651203,-0.0343909634648,0.304901819215,1.0,-0.17998,-0.236545142857,2.685
0.0451204507474,-0.308364720427,-0.131025415632,-2.46138760127,-0.0355849674108,2.14731240123,-0.234263221076,-0.570778362384,-0.499368799466,-0.00507402653282,-0.472745776503,-0.0737925257164,-0.0382931211976,-0.506184668445,0.573899744745,0.818901602443,0.00447162140587,0.0,0.818883123424,-0.573822412043,-0.011790526289,0.0,-0.0070895007857,0.0104285161125,-0.999920489354,0.0,0.433912601097,-0.0381607309367,0.304814024108,1.0,-0.17998,-0.236545142857,2.701
0.0359120976134,-0.316301492008,-0.131201570155,-2.46885248694,-0.0368183116132,2.1467718411,-0.242509970773,-0.579012854009,-0.498120514558,-0.012084990037,-0.464114331526,-0.0792597468235,-0.0251489992835,-0.521941203782,0.574010492694,0.818823686063,0.0045246348557,0.0,0.818805379297,-0.57393220141,-0.0118459242381,0.0,-0.00710302646144,0.0105046824152,-0.999919596099,0.0,0.430833721602,-0.0422364336749,0.304807173279,1.0,-0.17998,-0.236545142857,2.718
0.0256545796698,-0.325149497744,-0.131289427199,-2.47684998881,-0.0381906391192,2.1462543361,-0.251946807768,-0.568446017916,-0.495813427981,-0.00674395889506,-0.435432693151,-0.0672984487584,-0.0301918868937,-0.529258535065,0.573863930868,0.818925117033,0.00475272998996,0.0,0.818911398461,-0.573787421274,-0.0115266456322,0.0,-0.00671253217541,0.0105069932269,-0.999922269482,0.0,0.427880578005,-0.0461837683189,0.304932016498,1.0,-0.17998,-0.236545142857,2.735
0.0156889350313,-0.33326956933,-0.131414668162,-2.48450441118,-0.0394783178455,2.14555118743,-0.260948827713,-0.591008612391,-0.472008650691,-0.0104543305806,-0.455467848818,-0.0777024549483,-0.0521321800374,-0.525034321779,0.573900093727,0.818900136497,0.00468996441187,0.0,0.818884595495,-0.573822206531,-0.0116979252016,0.0,-0.00688835943923,0.0105541831807,-0.999920576707,0.0,0.424783691475,-0.050203449459,0.304861627724,1.0,-0.17998,-0.236545142857,2.752
0.00317767267737,-0.343289479838,-0.13160179435,-2.49368217957,-0.0410385775145,2.14459294437,-0.272244933406,-0.586298274884,-0.477812458672,-0.00611240362594,-0.437256415896,-0.0749541315837,-0.043713607853,-0.548637216084,0.57400335817,0.818827528336,0.00472975156531,0.0,0.818811919267,-0.573924428329,-0.011770230879,0.0,-0.0069234023923,0.0106291336516,-0.999919540772,0.0,0.42097482802,-0.055194411674,0.304858282766,1.0,-0.17998,-0.236545142857,2.773
-0.00268283019616,-0.347947554705,-0.131632862916,-2.49792702107,-0.0417919421985,2.14413746336,-0.277733347966,-0.595947588281,-0.470525209088,-0.00449400527338,-0.420486765176,-0.0691521433575,-0.0461681686187,-0.543273634154,0.573835286506,0.818945374497,0.00472064114362,0.0,0.818929659754,-0.573756434206,-0.0117691751808,0.0,-0.0069299467692,0.0106196455185,-0.999919596251,0.0,0.419191061916,-0.057485161578,0.304855830742,1.0,-0.17998,-0.236545142857,2.783
-0.0155201191433,-0.35768539544,-0.131870306801,-2.50652997011,-0.0433345231545,2.14319257183,-0.289400229489,-0.613129823025,-0.452031084825,-0.0185435528111,-0.416372546253,-0.069761468705,-0.0515991969762,-0.569453986345,0.573955175195,0.81886028785,0.00490232082511,0.0,0.818847909168,-0.573877266387,-0.0115642412915,0.0,-0.006656295633,0.0106518163747,-0.999921113157,0.0,0.415474198201,-0.0625338762119,0.304948257651,1.0,-0.17998,-0.236545142857,2.804
-0.0246675495158,-0.364500632173,-0.131944710808,-2.51275579399,-0.0444704483093,2.14234583974,-0.297812377775,-0.598817999383,-0.452487092607,-0.00450055193642,-0.41415418108,-0.068871645955,-0.0519155035065,-0.555976407709,0.573862417865,0.818926005351,0.0047822613068,0.0,0.818911265654,-0.573783629645,-0.0117231496173,0.0,-0.00685654084534,0.0106439275724,-0.999919844114,0.0,0.412723533527,-0.066033751528,0.304888136746,1.0,-0.17998,-0.236545142857,2.819
-0.0363567970333,-0.372998986313,-0.13206988731,-2.52038108407,-0.045778601095,2.14131733097,-0.308657624813,-0.62693738101,-0.436966348834,-0.0118010268374,-0.400129570734,-0.0659413040265,-0.0575638837724,-0.56734643781,0.573759433848,0.818998045462,0.00480213510995,0.0,0.818982830252,-0.573679460208,-0.0118214884164,0.0,-0.00692702299639,0.0107157630163,-0.999918591074,0.0,0.409288716951,-0.0704579075089,0.304856827027,1.0,-0.17998,-0.236545142857,2.838
-0.0452945729726,-0.379171271473,-0.132245562378,-2.52569165025,-0.0467602190698,2.14055413362,-0.316685783589,-0.637741702728,-0.435855456381,-0.00740565816803,-0.373879274103,-0.0726896100549,-0.0503315162609,-0.571597888842,0.573981937245,0.818841470451,0.00491211629097,0.0,0.818828253439,-0.573902455,-0.0117051448728,0.0,-0.00676571270182,0.0107409281292,-0.999919425551,0.0,0.406802065686,-0.0738601611231,0.304919508384,1.0,-0.17998,-0.236545142857,2.852
-0.0584806750694,-0.388235841319,-0.132358368311,-2.53357407778,-0.0482182535594,2.13940682144,-0.329030557242,-0.629945286614,-0.429528844457,-0.0101790384789,-0.381010262224,-0.0713340730763,-0.0718534004534,-0.596354284599,0.573777229152,0.818984570772,0.00497102049556,0.0,0.818972720805,-0.573698563156,-0.011592588627,0.0,-0.00664241179211,0.0107229000106,-0.999920445726,0.0,0.403074112545,-0.0787489429573,0.304952714761,1.0,-0.17998,-0.236545142857,2.873
-0.0669001048717,-0.393767526201,-0.132512803212,-2.53848774003,-0.0491338399526,2.13854873548,-0.336733112749,-0.652944250351,-0.420282071025,-0.0117817555769,-0.372587572414,-0.060415785553,-0.0658095160313,-0.591069598146,0.573864697631,0.818923685758,0.00490434697764,0.0,0.818909962189,-0.57378461854,-0.011765723791,0.0,-0.00682132236439,0.010768359448,-0.999918752697,0.0,0.400666965632,-0.0818579248214,0.304898031154,1.0,-0.17998,-0.236545142857,2.886
-0.0798106472029,-0.402102268369,-0.132645346717,-2.54567246576,-0.0504823678724,2.13731806304,-0.348731977763,-0.640542289185,-0.411463603885,-0.00737878180969,-0.358640778435,-0.0645074067132,-0.0606102788884,-0.585312559046,0.573799978074,0.818968960613,0.00491666714411,0.0,0.818955395443,-0.573719866673,-0.0117610271931,0.0,-0.00681125773547,0.0107752156871,-0.999918747446,0.0,0.397074860866,-0.0865463730535,0.304903928102,1.0,-0.17998,-0.236545142857,2.906
-0.0889714236932,-0.40780201648,-0.13277006934,-2.55050423413,-0.0514137279503,2.13646506023,-0.357276766053,-0.657719678787,-0.405040299081,-0.00553799475278,-0.339272910579,-0.0686163799428,-0.0576343423725,-0.597333633153,0.573771076298,0.818988949442,0.00495979811076,0.0,0.818976296927,-0.573691390449,-0.0116944643835,0.0,-0.00673237324425,0.0107721099028,-0.999919315144,0.0,0.394581706068,-0.089857490743,0.304930558868,1.0,-0.17998,-0.236545142857,2.92
-0.0997306179015,-0.414188791755,-0.132954982351,-2.55581065056,-0.052381921512,2.13552749887,-0.367172825932,-0.67330527544,-0.391559762878,-0.00541800838694,-0.325680718415,-0.069636220333,-0.0612496935462,-0.613978915527,0.573948726128,0.818863402278,0.00513177238899,0.0,0.818853672534,-0.573869610908,-0.0115360112438,0.0,-0.00650157436713,0.0108234580104,-0.999920287967,0.0,0.391749593926,-0.0937320715118,0.304997742916,1.0,-0.17998,-0.236545142857,2.936
-0.110941783679,-0.42088842828,-0.133058464986,-2.56152220656,-0.0534017111771,2.13434809711,-0.377797954601,-0.662021672811,-0.392687173891,-0.01012947234,-0.332529445309,-0.0627218682602,-0.0763182940009,-0.621088383147,0.573794182246,0.818971622408,0.00514441564798,0.0,0.818961200059,-0.573713634521,-0.0116604143672,0.0,-0.00659825411024,0.0109039646743,-0.99991878,0.0,0.388666900185,-0.0976571281797,0.304973830043,1.0,-0.17998,-0.236545142857,2.953
-0.122522996172,-0.427360485154,-0.133272016715,-2.56706919751,-0.0545138571819,2.1331473785,-0.38850883172,-0.68417580478,-0.369446980933,-0.0149033158768,-0.32618857987,-0.0595377971137,-0.0690005561341,-0.621255555244,0.573917846597,0.818885415451,0.00507233868604,0.0,0.818873002161,-0.573835794781,-0.0118420378623,0.0,-0.00678671325863,0.0109501689018,-0.999917013719,0.0,0.385542093851,-0.101731801767,0.304916090881,1.0,-0.17998,-0.236545142857,2.97
-0.136040824177,-0.43475048867,-0.133347247764,-2.57322529016,-0.0556512864689,2.13189262365,-0.40128731197,-0.676307339343,-0.357804409333,-0.00457384952037,-0.305632241449,-0.0535759491332,-0.0648949302633,-0.637998187924,0.573787064476,0.818976595891,0.00514654494289,0.0,0.818965369175,-0.573705141907,-0.0117847843198,0.0,-0.00669899222509,0.0109770102209,-0.999917310956,0.0,0.381997414834,-0.106374735663,0.304928539712,1.0,-0.17998,-0.236545142857,2.99
-0.145058306745,-0.439433563741,-0.133491515901,-2.57705849584,-0.0564465561463,2.13100284436,-0.409732771767,-0.705358092963,-0.357885798012,-0.0123226453024,-0.288036815497,-0.0571776989676,-0.0653165544021,-0.644927546416,0.573828303294,0.81894760093,0.00516257404666,0.0,0.818936687128,-0.573746491071,-0.0117649207734,0.0,-0.00667297337375,0.0109790771939,-0.999917462239,0.0,0.379666303361,-0.109492707536,0.30494798085,1.0,-0.17998,-0.236545142857,3.003
-0.157597281469,-0.445874034899,-0.133604927151,-2.58219056555,-0.057524034547,2.12982708095,-0.421506732694,-0.68388676161,-0.363905936227,-0.000248272423074,-0.293438183178,-0.0510329859676,-0.0671060338886,-0.663698187631,0.573814859408,0.818956605137,0.00522809009953,0.0,0.818947823794,-0.573734978587,-0.0115491622739,0.0,-0.00645884891955,0.0109088239648,-0.999919637186,0.0,0.376470783209,-0.113766369038,0.305032927063,1.0,-0.17998,-0.236545142857,3.021
-0.168752761732,-0.451383864303,-0.133758180869,-2.58681372551,-0.0583763156288,2.12868930837,-0.432108845365,-0.698964508992,-0.340958489932,-0.0179318721583,-0.285059993599,-0.0566438105028,-0.0830278433128,-0.673882302594,0.573780160293,0.818980821249,0.00524299350991,0.0,0.818970980471,-0.573698134581,-0.0117358607042,0.0,-0.00660367638254,0.0110278758922,-0.999917385293,0.0,0.373544781185,-0.117505331754,0.30497737363,1.0,-0.17998,-0.236545142857,3.037
-0.180863428352,-0.457051089639,-0.133905730591,-2.59146720307,-0.0592965565658,2.12748759423,-0.443465422208,-0.704778070632,-0.334341303704,-0.00400195289267,-0.269025951407,-0.0449850429528,-0.0693785242035,-0.678975061029,0.573871105006,0.818917056172,0.00524946201815,0.0,0.818906576334,-0.573787837034,-0.0118441635426,0.0,-0.00668743883802,0.0110960558224,-0.999916074332,0.0,0.370448250001,-0.121546425054,0.304953995986,1.0,-0.17998,-0.236545142857,3.054
-0.192163279904,-0.462163484331,-0.133978895279,-2.59557878558,-0.0601165602477,2.12648562079,-0.454318423535,-0.713582444388,-0.312671340353,-0.00870195748252,-0.258878558979,-0.0561378922022,-0.0604556288813,-0.690971876893,0.573724394385,0.819019520862,0.00530005999013,0.0,0.819010073556,-0.573641603603,-0.0117710208187,0.0,-0.00660048799889,0.0110943379132,-0.99991667114,0.0,0.367624393313,-0.125275608169,0.304971988324,1.0,-0.17998,-0.236545142857,3.07
-0.203812472771,-0.467103652804,-0.134158410084,-2.5996234259,-0.0609902775295,2.12542380137,-0.46523524082,-0.727270777875,-0.304808985433,-0.00646536760412,-0.242067748729,-0.0563163504035,-0.0730554156683,-0.686159758682,0.573867835391,0.818919139337,0.00528182094836,0.0,0.818908965133,-0.573784262098,-0.0118521852074,0.0,-0.00667548409769,0.0111271326283,-0.999915808872,0.0,0.364710891592,-0.129128320415,0.304938543874,1.0,-0.17998,-0.236545142857,3.086
-0.217445058479,-0.472914011004,-0.134253772125,-2.60412108901,-0.0619012439442,2.12418657922,-0.478315501886,-0.721926950434,-0.303884050479,-0.00899114297112,-0.232608306012,-0.0517114082442,-0.0649465496142,-0.69016826791,0.573759146765,0.81899462542,0.00538441610243,0.0,0.818986598818,-0.573676618143,-0.0116976772307,0.0,-0.0064915461439,0.0111216280632,-0.999917081171,0.0,0.361347828092,-0.133555728779,0.305011120282,1.0,-0.17998,-0.236545142857,3.105
-0.22927071725,-0.477591968222,-0.134450209357,-2.6077499531,-0.062687253356,2.12316665124,-0.489465274017,-0.738647577073,-0.290592769052,-0.00452012695701,-0.23058028654,-0.0508847071111,-0.0628390335218,-0.689264148712,0.573923203942,0.81887910066,0.00547004385982,0.0,0.818872632137,-0.573841142295,-0.0116061469625,0.0,-0.00636521752005,0.0111405207531,-0.999917683014,0.0,0.358463096181,-0.137416281583,0.305053532181,1.0,-0.17998,-0.236545142857,3.121
-0.24162723474,-0.48230404917,-0.134497575784,-2.61152788742,-0.0634905970131,2.12209910548,-0.501443953956,-0.730267213195,-0.272596357525,-0.00204969767939,-0.217831162798,-0.0476529310305,-0.0578070770842,-0.69454211468,0.573718818519,0.819022462308,0.00544705546405,0.0,0.819015513893,-0.573636550748,-0.0116379787433,0.0,-0.00640725925813,0.0111383647927,-0.999917438521,0.0,0.355426412727,-0.141347390215,0.305033983676,1.0,-0.17998,-0.236545142857,3.138
-0.252845212493,-0.486274623747,-0.134667544952,-2.61471193861,-0.0641687014078,2.12111302697,-0.512106775071,-0.754454594401,-0.263097094823,-0.00985358904998,-0.211136997097,-0.0432754218016,-0.0704118554099,-0.716372447058,0.573832934243,0.818942381775,0.00546679177128,0.0,0.818934828226,-0.573749086857,-0.0117677249768,0.0,-0.0065006470914,0.0112298705428,-0.999915812254,0.0,0.352685546927,-0.144935170547,0.305001351889,1.0,-0.17998,-0.236545142857,3.153
-0.264720623454,-0.490293352206,-0.134722698333,-2.61794305106,-0.0648314131985,2.12014196809,-0.523576951209,-0.738990680648,-0.249959166172,-0.00677400660862,-0.198701822178,-0.0395472372681,-0.0614913435536,-0.723553927429,0.573744354016,0.8190044169,0.00547067029856,0.0,0.818996263996,-0.573659390807,-0.0118646449336,0.0,-0.00657902188138,0.0112879489072,-0.999914645698,0.0,0.349817675802,-0.1486671187,0.304964759176,1.0,-0.17998,-0.236545142857,3.169
-0.27828518125,-0.494666590549,-0.134929925229,-2.62135269908,-0.0655524983969,2.1191156711,-0.536577741521,-0.765554417311,-0.245374048802,-0.0134319417567,-0.178443882167,-0.040927273138,-0.0558576021404,-0.719297634761,0.573858524442,0.818923690207,0.00557946635817,0.0,0.81891682679,-0.573772925714,-0.0118577999159,0.0,-0.00650941185493,0.0113740374335,-0.999914125728,0.0,0.346575511703,-0.152958934975,0.304966673566,1.0,-0.17998,-0.236545142857,3.187
-0.291033249955,-0.498634173185,-0.134956985189,-2.62438395494,-0.0662004457039,2.11811097629,-0.548909032804,-0.736081298553,-0.234322390733,-0.00416813354794,-0.172052680183,-0.035764422345,-0.060311785924,-0.715910271264,0.573773096516,0.818983323012,0.00561224045373,0.0,0.818976969232,-0.573687540908,-0.0118353781815,0.0,-0.00647342956086,0.0113873365065,-0.999914207958,0.0,0.343547547982,-0.15690883378,0.304989219308,1.0,-0.177712571429,-0.233565093878,3.204
-0.304650116063,-0.502485721092,-0.135042303397,-2.62732193799,-0.0668537884234,2.11713966455,-0.561950345104,-0.759973527808,-0.212512547386,-0.00685404600113,-0.159348727226,-0.0356083928332,-0.0560545663666,-0.7221249287,0.573861555553,0.818920982609,0.00566446836809,0.0,0.81891543935,-0.57377602684,-0.011803436719,0.0,-0.00641606937087,0.0114124788843,-0.999914291017,0.0,0.340359838615,-0.161137093385,0.305007494475,1.0,-0.175079428571,-0.230104391837,3.222
-0.317333947775,-0.505816997256,-0.135029069411,-2.62986770896,-0.0673869392663,2.11632721586,-0.57419802996,-0.734251584084,-0.19073373616,-0.00108154761774,-0.143004609387,-0.0203877281282,-0.0471488586762,-0.721903094844,0.573838179513,0.818937035887,0.00571155733691,0.0,0.818932422142,-0.57375305661,-0.0117415883719,0.0,-0.00633872013782,0.0114153709613,-0.999914751333,0.0,0.337430565,-0.165026592392,0.305022137847,1.0,-0.172592571429,-0.22683595102,3.239
-0.329272522149,-0.508780216664,-0.13505610393,-2.63210901893,-0.0678650126086,2.11559313435,-0.585626489167,-0.752925608563,-0.185728190057,-0.00776016830028,-0.134477987146,-0.0235379692894,-0.0419055637375,-0.71651386629,0.573944240936,0.81886226466,0.00577466135518,0.0,0.818858791778,-0.573859462738,-0.0116766028568,0.0,-0.00624780568567,0.0114305712575,-0.999915149883,0.0,0.334677028372,-0.168680012271,0.305040933398,1.0,-0.170252,-0.223759771429,3.255
-0.341010144229,-0.511547422597,-0.134981823159,-2.63423511431,-0.06831293162,2.11485341095,-0.597036541722,-0.722487308507,-0.16828050376,0.00482317622607,-0.125072112735,-0.0188989628275,-0.0475981809533,-0.708121451191,0.5738477756,0.818929849061,0.00577751312725,0.0,0.818926352422,-0.573762895164,-0.0116840208876,0.0,-0.00625359120415,0.0114364273344,-0.999915046755,0.0,0.331963772721,-0.17221127073,0.305038921937,1.0,-0.167911428571,-0.220683591837,3.271
-0.353416382189,-0.514144925196,-0.134952640509,-2.63628115668,-0.0687145396414,2.1140918356,-0.609040322752,-0.7374365535,-0.147850857972,-0.00321598448568,-0.112849260353,-0.018427344457,-0.0447718576356,-0.707941715379,0.573869279129,0.818914540756,0.00581139496322,0.0,0.818910652682,-0.573782756782,-0.0118083802912,0.0,-0.00633569808228,0.0115357020257,-0.999913389504,0.0,0.329107370664,-0.175940257,0.305005302372,1.0,-0.165424571429,-0.21741515102,3.288
-0.36646423432,-0.516670144861,-0.134878013105,-2.63826202513,-0.0691178208783,2.11338782655,-0.621631978724,-0.707713746191,-0.132906756919,0.011094722838,-0.100966412405,-0.0113176178534,-0.0349025407224,-0.690782237824,0.573905184498,0.818889229599,0.00583230260217,0.0,0.818885176008,-0.573817781205,-0.0118730530388,0.0,-0.0063761590783,0.0115902159853,-0.999912501916,0.0,0.326129465525,-0.17983905873,0.30497868898,1.0,-0.162791428571,-0.21395444898,3.306
-0.377838419622,-0.518648424427,-0.134790875806,-2.63982095075,-0.0694461969844,2.1128202711,-0.63268224875,-0.712383488709,-0.125058637908,0.00220128771093,-0.0921854107957,-0.0266014314662,-0.0400289190471,-0.694345262448,0.573879770581,0.818907010644,0.00583641469217,0.0,0.818902602647,-0.573791616616,-0.0119354505847,0.0,-0.00642526204379,0.0116291927229,-0.999911735047,0.0,0.323552549003,-0.183224287881,0.304952616612,1.0,-0.160450857143,-0.210878269388,3.322
-0.389921026957,-0.520649456722,-0.134731070317,-2.64130311869,-0.0697697845745,2.11221599011,-0.644344137114,-0.698169428119,-0.109344078868,0.0098962808217,-0.0826243915415,-0.0135515368155,-0.0381783929689,-0.686609106506,0.573922321683,0.818876899281,0.00587702303376,0.0,0.818872999729,-0.573833963392,-0.011930619165,0.0,-0.00639739617759,0.0116600086227,-0.999911554849,0.0,0.320666240069,-0.187019660846,0.304966672464,1.0,-0.157817714286,-0.207417567347,3.34
-0.400959044618,-0.522339491132,-0.134591206113,-2.64255236163,-0.0700257925913,2.11173465356,-0.655227557235,-0.691367928186,-0.104211275536,0.00777130722418,-0.0745252746781,-0.0201441710104,-0.0346642078115,-0.678514071687,0.573805178906,0.818958866105,0.00589399608809,0.0,0.818955385043,-0.573717139143,-0.011894051588,0.0,-0.00635937486581,0.0116520125725,-0.999911890596,0.0,0.318345300082,-0.190069549342,0.304980091448,1.0,-0.155623428571,-0.20453364898,3.355
-0.412833059851,-0.523962591427,-0.134558438801,-2.64369670021,-0.0702955579969,2.11125354544,-0.666648277824,-0.693527437198,-0.0916337716231,0.00332072733203,-0.0654246689437,-0.0168597516104,-0.0238729878858,-0.670042392665,0.573971884913,0.818841594188,0.00595532188886,0.0,0.818839319722,-0.573884332968,-0.0118189573052,0.0,-0.006260308442,0.0116604254257,-0.999912417673,0.0,0.315685478503,-0.193601238479,0.305014972517,1.0,-0.153136571429,-0.201265208163,3.372
-0.423593882721,-0.525214701655,-0.134413996017,-2.64463605078,-0.0704868645681,2.11087802231,-0.677289287929,-0.674191089039,-0.0754163745594,0.00747485346044,-0.0540928664507,-0.0125724507013,-0.0255690052765,-0.662325753746,0.573820615317,0.818947467519,0.00597442738131,0.0,0.818945569747,-0.573733261991,-0.0117917250188,0.0,-0.00622919556315,0.0116592902191,-0.99991262522,0.0,0.313147558015,-0.196956604204,0.305020548483,1.0,-0.150649714286,-0.197996767347,3.389
-0.435116817437,-0.52642861652,-0.134370185217,-2.64555085503,-0.0706834965347,2.11047992056,-0.688441161575,-0.680284583302,-0.0637661172003,-0.00106138786137,-0.0560163220998,-0.00554407540001,-0.0262855288664,-0.654001958084,0.57396879239,0.818843164106,0.00603695784707,0.0,0.818841804897,-0.573880657515,-0.0118252434872,0.0,-0.00621864618292,0.0117308600391,-0.999911853796,0.0,0.310708363436,-0.200151621335,0.305013830564,1.0,-0.148309142857,-0.194920587755,3.405
-0.446303578162,-0.527411874037,-0.134222333619,-2.6463289765,-0.0708457978687,2.11015736425,-0.699478769327,-0.649632494923,-0.0512989831008,0.0130598918381,-0.0438095537785,-0.00909881648729,-0.0174910790792,-0.64959539807,0.573872869092,0.818910281873,0.00605204622791,0.0,0.818908872386,-0.573784230862,-0.0118601030067,0.0,-0.00623991174386,0.0117624921567,-0.99991134971,0.0,0.308217339278,-0.203411538233,0.30499585227,1.0,-0.145822285714,-0.191652146939,3.422
-0.457387732426,-0.528234066676,-0.134117751087,-2.64698303611,-0.0709940464042,2.10988017396,-0.710277042252,-0.653276228425,-0.0435928862803,0.00728118164783,-0.0382121318124,-0.00829127623058,-0.0179596824856,-0.618258137663,0.57393264146,0.818868166997,0.00608235530288,0.0,0.818866921982,-0.573843437912,-0.011892003609,0.0,-0.00624778380883,0.0118060759124,-0.999910786905,0.0,0.305744781078,-0.206647985813,0.304977919094,1.0,-0.143335428571,-0.188383706123,3.439
-0.468391646636,-0.528871668024,-0.134013726985,-2.64748678499,-0.0711299917571,2.1096272586,-0.721020634541,-0.633188332191,-0.0319251938279,0.0115031477618,-0.0232255954119,0.000273124065893,-0.0103583102299,-0.641277546749,0.573985717126,0.818830808901,0.00610326401474,0.0,0.818829552456,-0.573895882751,-0.0119342652603,0.0,-0.0062696266971,0.0118478588535,-0.999910155975,0.0,0.303296088595,-0.20986168421,0.304962766322,1.0,-0.140848571429,-0.185115265306,3.456
-0.478395928051,-0.52930576029,-0.133873488956,-2.64784246318,-0.071202269636,2.10944234991,-0.730954298547,-0.631197156228,-0.0250727625685,0.0102114718539,-0.0222685973681,-0.0109662206928,-0.010799400785,-0.621235954763,0.573893604936,0.818895161097,0.00613125159489,0.0,0.818894007157,-0.573803179844,-0.0119692416088,0.0,-0.00628354335159,0.0118901453248,-0.999909566674,0.0,0.30108404385,-0.212766657616,0.304947294523,1.0,-0.138508,-0.182039085714,3.472
-0.489096627562,-0.529679969783,-0.133781485594,-2.64809193253,-0.0712651535353,2.10924689304,-0.741328828362,-0.625081269071,-0.0148690438379,0.00151114830684,-0.00842483886364,-0.00461682699189,-0.00945265159643,-0.608633115769,0.574064657695,0.818774801281,0.00619196852233,0.0,0.818774363148,-0.573973801124,-0.0119735030601,0.0,-0.00624969520547,0.0119436199708,-0.999909141498,0.0,0.298572801659,-0.216070955804,0.304955611028,1.0,-0.135874857143,-0.178578383674,3.49
-0.499339735271,-0.529875189358,-0.13358544779,-2.64826155137,-0.0713084870859,2.10911349561,-0.751587386502,-0.589696491893,-0.00991128744677,0.0102173286471,-0.00794129411281,-0.000710244878604,-0.00685766693489,-0.601705054514,0.573875563062,0.818907318557,0.00619585633469,0.0,0.818906731013,-0.573784348473,-0.0120014270085,0.0,-0.00627309179661,0.0119613844326,-0.999908782641,0.0,0.2964529657,-0.218843602818,0.304943752973,1.0,-0.133534285714,-0.175502204082,3.506
-0.510837895171,-0.530028878196,-0.133460383145,-2.64839844715,-0.071341001813,2.10901763464,-0.762834355036,-0.607490016483,-0.00450418811484,0.00719188954214,-0.00527083776116,-0.00116905111843,-0.00584323105286,-0.590877266305,0.57397155544,0.818839589807,0.00625512683362,0.0,0.818839711159,-0.573879946426,-0.0120033920156,0.0,-0.00623928086767,0.0120117830995,-0.999908390024,0.0,0.293889233846,-0.222171173992,0.304932555958,1.0,-0.130754857143,-0.171849240816,3.525
-0.520326233703,-0.530027147414,-0.133333474232,-2.6483774454,-0.0713753180065,2.10898083627,-0.772134839629,-0.574357170461,-0.00148892906982,0.00923708073976,0.0035205812892,0.000481220656359,0.000120267631467,-0.573724192411,0.574022380458,0.818803830676,0.00627220093172,0.0,0.818804457678,-0.573931235215,-0.0119559287175,0.0,-0.00618986737901,0.0119989077615,-0.999908851723,0.0,0.291788057049,-0.2249234704,0.304941511428,1.0,-0.128414285714,-0.168773061225,3.541
-0.530051294591,-0.529919708385,-0.133172943019,-2.6482887788,-0.0713876481344,2.10898500982,-0.781847074854,-0.577961555235,0.00407562249,0.00305089371196,0.00866449665247,-0.00157441490159,-0.00124424529334,-0.552738583354,0.57391948666,0.818875857148,0.0062849274536,0.0,0.818876956082,-0.573828906059,-0.0119022800325,0.0,-0.00614013493486,0.0119777633178,-0.999909411861,0.0,0.28963706841,-0.227733062681,0.304947017219,1.0,-0.125927428571,-0.165504620408,3.558
-0.540381762147,-0.529726289963,-0.133044656763,-2.64812957539,-0.0713846592991,2.10896807339,-0.791932572882,-0.569190365594,0.0164499067365,0.00327406668579,0.0137063800146,-0.000487053012118,0.00105050025926,-0.571425332926,0.574039893064,0.818791170809,0.00632192048061,0.0,0.818792833264,-0.573949295154,-0.0118848512706,0.0,-0.006102866982,0.0119989529515,-0.999909385966,0.0,0.287326561453,-0.230714556286,0.304950590066,1.0,-0.123294285714,-0.162043918367,3.576
-0.549165933612,-0.529415486965,-0.132831487372,-2.64786394908,-0.0713825590521,2.1089803029,-0.800727475521,-0.533029873868,0.0211989693595,0.013347752458,0.0177789351439,3.874245573e-05,0.00260474347972,-0.539979198709,0.573896612634,0.818891871924,0.00628705053492,0.0,0.818893280703,-0.573806579996,-0.011855398485,0.0,-0.0061008559525,0.0119524265917,-0.999909955474,0.0,0.285391604622,-0.233238774136,0.304964305363,1.0,-0.120953714286,-0.158967738776,3.592
