nelsonifechukwu/NELSON_IML_WORK/CNN-GradCAM/train2dof/data_sample_2022-02-22-14-23-54/robot_state.csv
position_joint1,position_joint2,position_joint3,position_joint4,position_joint5,position_joint6,position_joint7,velocity_joint1,velocity_joint2,velocity_joint3,velocity_joint4,velocity_joint5,velocity_joint6,velocity_joint7,ee_T_00,ee_T_10,ee_T_20,ee_T_30,ee_T_01,ee_T_11,ee_T_21,ee_T_31,ee_T_02,ee_T_12,ee_T_22,ee_T_32,ee_T_03,ee_T_13,ee_T_23,ee_T_33,v_x,v_y,time
0.465085432613,0.54774622033,-0.124014707023,-1.35583449098,0.0795082319313,1.89411045325,0.159160782669,0.000347074872128,0.00100407014971,-0.000173749037853,-0.00147301681293,-0.000125219369817,9.20943220026e-05,-0.000766901363756,0.573818001005,0.818968698359,0.00197983125845,0.0,0.818926009048,-0.573759372127,-0.01187945717,0.0,-0.00859312228016,0.00843814413778,-0.999927475357,0.0,0.66168213124,0.260885392198,0.303240182863,1.0,0.0,0.0,0.0
0.465088216673,0.547743714687,-0.124013122108,-1.35582947967,0.0795082319313,1.89410666316,0.159162504459,0.00115248750826,-0.000165838214712,-0.000115832684579,0.000683182311154,-8.3479578474e-05,-0.000175962726304,0.000300954315537,0.573815719125,0.818970288387,0.00198346311391,0.0,0.818927638706,-0.573757068142,-0.0118783930648,0.0,-0.00859019040061,0.00844048392832,-0.9999274808,0.0,0.661681500734,0.260888522789,0.303243961317,1.0,-0.0,-0.0,0.001
0.465088216672,0.547738414212,-0.124015411502,-1.3558320648,0.0795089435205,1.89410883958,0.159169208994,0.0013734740837,-0.000918010397271,-0.000157498661958,-0.00122704342459,0.000253208903,5.99777858346e-05,0.00961751440541,0.573823144665,0.818965075781,0.00198751067584,0.0,0.818922485038,-0.573764482361,-0.0118755708081,0.0,-0.00858548000975,0.00844225710708,-0.999927506286,0.0,0.661681968895,0.260887224767,0.303246751999,1.0,-0.00032,-0.000420571428571,0.017
0.465076954052,0.547732780433,-0.124016236126,-1.3558415186,0.0795078733593,1.89410850317,0.159166005855,-0.00240491769513,3.10334980754e-05,-0.00551884984375,-0.00114210509742,-0.000119179877404,-2.5661035928e-05,-0.000871223341273,0.573830541762,0.818959902161,0.00198365715082,0.0,0.818917265272,-0.573771898259,-0.0118772180726,0.0,-0.00858896398593,0.00844012406895,-0.999927494373,0.0,0.661683070646,0.26087804987,0.303246239521,1.0,-0.00066,-0.000867428571429,0.034
0.465079054928,0.547699977285,-0.124015762714,-1.35587154696,0.0795059618838,1.89411563626,0.159160825047,-0.00254792846155,-0.000936952094089,-0.000807872346991,-0.0040233026631,0.000420552972578,0.000549034005369,0.000296714706082,0.573825372533,0.818963502145,0.00199271010459,0.0,0.818920976334,-0.573766686018,-0.0118731393086,0.0,-0.00858048227762,0.00844514328649,-0.999927524813,0.0,0.661677928615,0.260876756954,0.3032557856,1.0,-0.001,-0.00131428571429,0.051
0.465086419631,0.547569826599,-0.124007756893,-1.35601921895,0.0795061803394,1.89413706026,0.159156587019,0.00117120111647,-0.0106740958408,0.000629739941524,-0.00938302683738,0.000219665788389,0.00245571499835,-0.00164675029334,0.573818315544,0.818968416267,0.00200519453405,0.0,0.818925885845,-0.573759414242,-0.0118859144781,0.0,-0.00858385458048,0.00846262406632,-0.999927348078,0.0,0.661648015321,0.260871933978,0.303279293303,1.0,-0.00134,-0.00176114285714,0.068
0.465080789993,0.54744546855,-0.124010514967,-1.35619854076,0.0795013823551,1.89417400375,0.159160411334,-6.60138189595e-05,-0.00899880948319,-0.000205665539864,-0.0147331264039,0.000357719007459,-0.000970465119757,0.000368482118254,0.573836012317,0.818956041101,0.00199514771874,0.0,0.818913285884,-0.573777057527,-0.0119023258343,0.0,-0.00860287728977,0.00846399912641,-0.999927172959,0.0,0.661618989904,0.260848293199,0.303285200458,1.0,-0.00168,-0.002208,0.085
0.465059502855,0.547283685402,-0.124013742277,-1.35640547328,0.0794992380029,1.89428650548,0.159146556121,-0.0020016560832,-0.00938537717521,-2.617437438e-05,-0.015986151321,-0.00234867245093,0.00673187839204,-0.00250772197517,0.573856103284,0.818941815314,0.00205493426071,0.0,0.818899826474,-0.573796890007,-0.011872241537,0.0,-0.00854372464141,0.00849590714774,-0.999927409531,0.0,0.66160560666,0.260817600274,0.30331130501,1.0,-0.002,-0.00262857142857,0.101
0.465042862374,0.547081753185,-0.124008047353,-1.35663100143,0.0794957680126,1.89440584841,0.159134976815,-0.00208156712978,-0.0112000059606,0.000640034189218,-0.0141309479404,-0.000488180725755,0.00766004381391,-0.000312437659445,0.573868120305,0.818933167977,0.00214331192357,0.0,0.81889226201,-0.573808484625,-0.0118335579019,0.0,-0.00846120539849,0.00854620771992,-0.999927682553,0.0,0.661586257347,0.260793325564,0.303357162217,1.0,-0.00234,-0.00307542857143,0.118
0.465017337966,0.546859934279,-0.124015899931,-1.35692146,0.0794888305474,1.89454154236,0.159120148119,-0.00155090391115,-0.0145182003928,-0.000898269181832,-0.0188045760928,6.14271173955e-05,0.0127292439044,-0.00466286704774,0.573896917486,0.818912827121,0.00220376441098,0.0,0.818872693529,-0.573837027243,-0.0118035951674,0.0,-0.00840167562867,0.0085788145497,-0.999927905295,0.0,0.66156140859,0.260748427454,0.303388052672,1.0,-0.00268,-0.00352228571429,0.135
0.464989617908,0.54661725199,-0.124012673239,-1.35729576426,0.0794766352837,1.89467098589,0.159057364858,-0.0026196551713,-0.0108100787146,-4.81936093175e-05,-0.0231245441319,-0.00247415004002,0.01122400219,-0.00406061336252,0.573883603357,0.818922143742,0.00220888852622,0.0,0.818881952222,-0.573823567607,-0.0118156034702,0.0,-0.00840870892261,0.00858976542353,-0.999927752162,0.0,0.661514927243,0.260697522697,0.303392878045,1.0,-0.00302,-0.00396914285714,0.152
0.464951655299,0.546330824757,-0.124010926869,-1.35771701702,0.0794626366502,1.89483072848,0.158960496598,-0.00496982352745,-0.0188065767412,0.000241305349411,-0.029152666219,-0.00100648289352,0.00948193230921,-0.000119017658797,0.573854000647,0.81894281036,0.00223745422173,0.0,0.818902880613,-0.573793745092,-0.0118134295842,0.0,-0.00839084753617,0.00861160733582,-0.999927714336,0.0,0.66146795727,0.260635756856,0.303408998992,1.0,-0.00336,-0.004416,0.169
0.464910459317,0.546059454177,-0.124010909235,-1.3581743605,0.0794429962827,1.89498328646,0.158937126087,-0.00367511594456,-0.0198416790882,0.00076296354237,-0.0291532548079,-0.00102770031273,0.0056143214204,-0.000505155245779,0.573888887732,0.818918429892,0.00221283119167,0.0,0.818878084038,-0.573828625858,-0.0118380120017,0.0,-0.00842474252189,0.00860590819754,-0.999927478399,0.0,0.661412390552,0.260564960775,0.303396684511,1.0,-0.00368,-0.00483657142857,0.185
0.464846229411,0.545727893505,-0.124013057747,-1.35873020645,0.0793855091498,1.89517395031,0.158857595847,-0.00348420098215,-0.0219212600098,0.000545647901376,-0.036442715844,-0.00627488671378,0.0126429182419,-0.0116511705617,0.573893619109,0.818915228235,0.002170210041,0.0,0.818874524746,-0.573833724786,-0.011837057093,0.0,-0.00844836925683,0.00857050625942,-0.999927583118,0.0,0.661351969016,0.260463233293,0.303383395276,1.0,-0.00402,-0.00528342857143,0.202
0.464789359019,0.545353070357,-0.124016216595,-1.35936162051,0.0793463717442,1.89538219183,0.15877499813,-0.0051626881065,-0.022749573229,-0.000675930911167,-0.0408062384816,-0.000583907796427,0.0079771820019,-0.00396211267589,0.573899526437,0.818911200123,0.00212762074126,0.0,0.818869925092,-0.573839782988,-0.0118615404268,0.0,-0.00849279839444,0.00854974167979,-0.99992738451,0.0,0.661276058368,0.260361553782,0.303366334469,1.0,-0.00436,-0.00573028571429,0.219
0.464716993644,0.544943782127,-0.124011591167,-1.36005146975,0.0793260262118,1.89560666469,0.158717565483,-0.0080670930174,-0.0297553340762,0.00166413698611,-0.0362579916659,-0.00185191826608,0.012953976155,-0.00240164461969,0.57394148213,0.818881886363,0.00209240989134,0.0,0.818839890309,-0.573881612285,-0.0119111720682,0.0,-0.00855321216585,0.00854982904734,-0.999926868818,0.0,0.661191982995,0.260251800908,0.30334701334,1.0,-0.0047,-0.00617714285714,0.236
0.464648075196,0.54451420508,-0.124019038106,-1.36077401818,0.0792981113873,1.89585819716,0.158598868905,-0.00311878874898,-0.0240292837547,-2.54683716421e-05,-0.0428673809271,-0.000781457256572,0.0175893470207,-0.00656790850936,0.57393878416,0.818883850312,0.00206364626348,0.0,0.81884134114,-0.573878894855,-0.0119423189151,0.0,-0.00859525454311,0.00854412337309,-0.999926557081,0.0,0.661108531439,0.260134338542,0.303329186685,1.0,-0.00504,-0.006624,0.253
0.46457036835,0.544044560851,-0.124017427378,-1.3615523545,0.0792575824574,1.89614338498,0.158503536393,-0.00599657262399,-0.0246341998283,-0.00410027927042,-0.041612047521,-0.00043263226337,0.0205328117834,-0.00164202210496,0.573955874881,0.818871914593,0.00204648050931,0.0,0.818829101883,-0.573895975493,-0.0119606907442,0.0,-0.00861997276254,0.00854079095442,-0.999926372769,0.0,0.661020833178,0.260010466541,0.303315719668,1.0,-0.00538,-0.00707085714286,0.27
0.464504975368,0.543564172113,-0.124028195326,-1.36233734122,0.0792137841851,1.89641080146,0.158422519652,-0.00385351677871,-0.0303667804772,-0.00119113989472,-0.0508174449758,-0.00136961320639,0.0164585963974,-0.00431543000773,0.573982525251,0.818853307467,0.00201704180023,0.0,0.818810061823,-0.573922697274,-0.0119819494203,0.0,-0.00865399945848,0.00852916791973,-0.999926178069,0.0,0.660921988504,0.259877504652,0.303306715298,1.0,-0.00572,-0.00751771428571,0.287
0.464419100304,0.543025728512,-0.124028994218,-1.36320365787,0.0791671720224,1.89671870001,0.158303469303,-0.00650522284519,-0.0290602273137,-0.000463920619843,-0.0517995749209,-0.00168884182182,0.017926816974,-0.00595669042956,0.573991723662,0.818846902421,0.00199961618417,0.0,0.818803384487,-0.573931923794,-0.0119963037595,0.0,-0.00867565964384,0.00852323567044,-0.999926040957,0.0,0.660829224719,0.259745550326,0.303300764885,1.0,-0.00604,-0.00793828571429,0.303
0.464359351446,0.542435069056,-0.124030402564,-1.364101289,0.0791038514417,1.89703965273,0.158178812649,-0.00635797442838,-0.0345497892983,0.00068832948052,-0.0523665537979,-0.00645374144502,0.0201043790592,-0.00609256061225,0.573972491907,0.81886036553,0.0020067881408,0.0,0.818817007985,-0.573912729854,-0.0119846921999,0.0,-0.0086622349503,0.00852223998735,-0.99992616583,0.0,0.660721319415,0.259617991341,0.303319108404,1.0,-0.00638,-0.00838514285714,0.32
0.464267994048,0.541844427045,-0.12403010467,-1.3650457471,0.0790556350548,1.89738912861,0.158058486663,-0.00593185497471,-0.034912430618,0.000568173220673,-0.0622154141304,-0.000910001012944,0.0180343579081,-0.00606302382656,0.573988205455,0.81884934998,0.00200722117241,0.0,0.818805906269,-0.573928349289,-0.0119951925012,0.0,-0.00867042138086,0.00852878777462,-0.999926039051,0.0,0.660615128279,0.259469358749,0.303317529918,1.0,-0.00672,-0.008832,0.337
0.464194108017,0.54122572952,-0.124038581541,-1.36597187711,0.0789990965732,1.89773431132,0.157934993382,-0.00799277697464,-0.0398993899729,-0.0015845688922,-0.0578695006356,-0.00747188036844,0.0220831327022,-0.00587258456873,0.573989813194,0.818848148848,0.00203724795281,0.0,0.81880514335,-0.573929876444,-0.0119741826562,0.0,-0.00863596610526,0.00854133241514,-0.999926230144,0.0,0.660510842582,0.259328102464,0.303344322215,1.0,-0.00704,-0.00925257142857,0.353
0.464111540484,0.540541763495,-0.124035427886,-1.3670376268,0.0789325198397,1.89812461874,0.157798334599,-0.00121171933606,-0.0428894840712,0.000367244254761,-0.0664539390224,-0.00497799526884,0.017819273625,-0.00920532685348,0.573984582614,0.818851798897,0.00204383604166,0.0,0.818808867266,-0.573924607039,-0.0119721018537,0.0,-0.00863053550699,0.0085454774866,-0.999926241616,0.0,0.660385016802,0.259173579997,0.303354233045,1.0,-0.00738,-0.00969942857143,0.37
0.464010475531,0.539808694882,-0.124039273843,-1.3681428598,0.0788686997182,1.89853900655,0.157666176453,-0.00986073341269,-0.0413538203519,7.02094567508e-05,-0.0697755925679,-0.000545122210769,0.0242908814391,-0.00865864686697,0.574005960903,0.81883672101,0.00208040253199,0.0,0.818794261111,-0.573945825561,-0.0119538359639,0.0,-0.00859436696362,0.00856515965877,-0.999926384739,0.0,0.660262210124,0.259000833228,0.30338226554,1.0,-0.00772,-0.0101462857143,0.387
0.463912498862,0.539056860056,-0.124039589571,-1.36930534135,0.0788103926005,1.89897685424,0.157516749098,-0.00838852426534,-0.0463923070328,0.000453995002413,-0.0660835597471,-0.00328620359616,0.0248026062926,-0.00983312138453,0.574012804672,0.818831849029,0.00210950005877,0.0,0.818789663184,-0.573952443151,-0.0119510403641,0.0,-0.00857530486775,0.00858745237579,-0.999926357192,0.0,0.660129199585,0.258828113801,0.303398124765,1.0,-0.00806,-0.0105931428571,0.404
0.463800599648,0.538280744626,-0.124042461445,-1.37049560895,0.0787377970476,1.899443179,0.157374974784,-0.000171519459122,-0.0511456184771,-0.00101121109143,-0.0698407176053,-0.00211398310483,0.0215873701644,-0.00314657407758,0.574036825892,0.81881489986,0.00215155502276,0.0,0.818773311869,-0.573976339259,-0.0119236169976,0.0,-0.00852845778138,0.00860639678589,-0.999926594977,0.0,0.660000824277,0.258641376289,0.303420311108,1.0,-0.0084,-0.01104,0.421
0.46369984828,0.537539501286,-0.124046031362,-1.37167157416,0.0786657495808,1.89988934216,0.157227911338,-0.00799214901419,-0.0455097925204,-0.00041455477219,-0.0764291060269,-0.0132935443845,0.0251782857063,-0.00449985165013,0.574047081946,0.818807691154,0.00215859154161,0.0,0.818766223728,-0.57398659464,-0.011916667187,0.0,-0.00851862014725,0.00860827560627,-0.999926662662,0.0,0.659867812354,0.258461564981,0.303422826452,1.0,-0.00872,-0.0114605714286,0.437
0.463589694947,0.536707254037,-0.124056539766,-1.37297353401,0.0785979055579,1.9003664836,0.157066608618,-0.00668772269485,-0.0480102792529,-0.0010380611849,-0.0723237108425,-0.00436977029564,0.0254892006364,-0.011108350199,0.574066111617,0.818794324829,0.00216795318081,0.0,0.81875291457,-0.57400551846,-0.0119195873076,0.0,-0.00851543730081,0.00861781504286,-0.999926607603,0.0,0.659717691196,0.258260555109,0.303432418312,1.0,-0.00906,-0.0119074285714,0.454
0.463464744833,0.535848358199,-0.124060181703,-1.37432630517,0.0785110547776,1.90086800978,0.156909757966,-0.00464605205706,-0.0504322191802,-0.000959977380936,-0.0853105818409,-0.00541278476441,0.0294905824878,-0.0114735160928,0.574093678144,0.818774991918,0.0021698448902,0.0,0.818733657529,-0.57403312573,-0.0119128289857,0.0,-0.00850852742733,0.00861577073301,-0.99992668404,0.0,0.659564344801,0.258046689639,0.303438339231,1.0,-0.0094,-0.0123542857143,0.471
0.463347207817,0.534957142779,-0.124060168507,-1.3757401744,0.0784344880699,1.9013716197,0.156734133933,-0.0074180228184,-0.0523548226824,-0.00143451591821,-0.0855715838828,-0.00699895633148,0.0300339215639,-0.00723664310452,0.574103111253,0.81876840787,0.00215843105322,0.0,0.818726799129,-0.574042476906,-0.0119335659588,0.0,-0.00853195995894,0.00861842862408,-0.99992646147,0.0,0.659394419802,0.257834830719,0.303437902236,1.0,-0.00974,-0.0128011428571,0.488
0.463227873208,0.534121639152,-0.124064117418,-1.3771232103,0.0783710717849,1.90187489665,0.15656164693,-0.00821135874857,-0.0528285227742,-6.15176519267e-05,-0.0875127748695,-0.00177561012025,0.0254854968655,-0.00637925060077,0.574121252082,0.818755763649,0.00212938990088,0.0,0.818713577801,-0.574060534733,-0.0119719207781,0.0,-0.00857984562244,0.00861686047247,-0.999926065249,0.0,0.65923042544,0.257624524928,0.303412809444,1.0,-0.01006,-0.0132217142857,0.504
0.463097964221,0.533198829778,-0.124062033542,-1.3786041314,0.0782725752923,1.90243527434,0.156362645833,-0.00911166026012,-0.0532242598581,0.00116266595154,-0.0890197628897,-0.0074535353065,0.0260949464278,-0.0103007073625,0.574117921068,0.818758110085,0.00212527175335,0.0,0.818715935962,-0.574057286857,-0.0119663908208,0.0,-0.008577716944,0.00861027904797,-0.999926140206,0.0,0.659060286064,0.257398513215,0.303407225906,1.0,-0.0104,-0.0136685714286,0.521
0.462962996246,0.532245857272,-0.124062059238,-1.38014818431,0.0781906824713,1.90301947047,0.156181559324,-0.00524757161346,-0.0567954938018,0.000780224347294,-0.0862881199272,-0.00311901010982,0.0361719951781,-0.014310235358,0.57414271038,0.818740731665,0.00212351877342,0.0,0.818698426687,-0.574081971934,-0.0119800893403,0.0,-0.00858967864492,0.0086169683466,-0.999925979899,0.0,0.658881457448,0.257165154957,0.303394843935,1.0,-0.01074,-0.0141154285714,0.538
0.462831972682,0.531255916199,-0.124067376237,-1.38174368807,0.0780978720898,1.90359735119,0.155972956584,-0.00544479657213,-0.0582816685158,-0.00177299220102,-0.0969214384014,-0.00754280177242,0.0411752453105,-0.0142025186993,0.5741449698,0.81873920806,0.00209993823653,0.0,0.81869654313,-0.574084276938,-0.0119983390979,0.0,-0.00861813505275,0.00860816394789,-0.999925810879,0.0,0.65869070827,0.256923545042,0.303383426649,1.0,-0.01108,-0.0145622857143,0.555
0.462693571075,0.530218601076,-0.124070518798,-1.38338486719,0.0779924761535,1.90417054332,0.155754562503,-0.0123580185309,-0.0642238845122,-0.00136491646798,-0.099208234825,-0.00573808281208,0.0375460882241,-0.0112160213087,0.574142418468,0.818741072364,0.00207042061509,0.0,0.818698017531,-0.574081845239,-0.0120140733521,0.0,-0.00864799091328,0.00859300382504,-0.999925683508,0.0,0.658491244146,0.256671233532,0.303382914343,1.0,-0.01142,-0.0150091428571,0.572
0.462569582082,0.529229697247,-0.124073741551,-1.38492630734,0.0779036607291,1.90474265003,0.155551765498,-0.0121922933971,-0.0670512367296,0.000100222708001,-0.0992902973661,-0.00689151369929,0.0393909676968,-0.0102103821238,0.574140010952,0.818742714978,0.00208839546862,0.0,0.81869985189,-0.574079319697,-0.0120097507308,0.0,-0.00863415750395,0.00860521315397,-0.999925698055,0.0,0.658308567984,0.256442179028,0.303395465751,1.0,-0.01174,-0.0154297142857,0.588
0.462434638452,0.528155515486,-0.124074425398,-1.38663580441,0.077792349059,1.90539966889,0.155314523148,-0.00954887286889,-0.0560673125372,0.000174629782407,-0.102314158061,-0.000169870560449,0.0429854981273,-0.0189790089597,0.574119600175,0.818756996558,0.0021005199528,0.0,0.818714372446,-0.574058941272,-0.0119939650059,0.0,-0.0086144863604,0.00860586195819,-0.999925862134,0.0,0.65810878951,0.256190705157,0.303395117868,1.0,-0.01208,-0.0158765714286,0.605
0.462288373696,0.527000755078,-0.12407166898,-1.38839840597,0.0776896406929,1.9060719564,0.155070708308,-0.0107139483077,-0.0686111768017,0.000274286699555,-0.111358876155,-0.000664000743435,0.0416171536752,-0.0198670074335,0.574105548685,0.818766700241,0.00215788034949,0.0,0.81872478376,-0.574044612851,-0.0119690356644,0.0,-0.00856129307761,0.00863836622517,-0.99992603871,0.0,0.657902873918,0.2559309874,0.303427141247,1.0,-0.01242,-0.0163234285714,0.622
0.462137253606,0.525827223755,-0.124082395554,-1.39020564076,0.077572577164,1.90673828637,0.154827818095,-0.0079474793046,-0.0731485497762,-0.00157392006034,-0.109212013466,-0.00415121361605,0.0442361111223,-0.0136399549201,0.574103885916,0.818767809871,0.00217912770113,0.0,0.818726263946,-0.574042957734,-0.0119471462135,0.0,-0.00853119008048,0.00864317855617,-0.999926254411,0.0,0.657690338576,0.255652510555,0.303450724815,1.0,-0.01276,-0.0167702857143,0.639
0.461979517633,0.524671141822,-0.124085000946,-1.39203778711,0.0774515767478,1.9073909915,0.154575614395,-0.011929817387,-0.071484623106,-0.000472854493665,-0.108299324003,-0.00152479017687,0.0392166320746,-0.0213358462798,0.574094201489,0.818774668113,0.00215350280198,0.0,0.818732821019,-0.574033412672,-0.0119564135029,0.0,-0.00855359061817,0.00862741719127,-0.999926199157,0.0,0.657468243955,0.255369718374,0.303448443843,1.0,-0.0131,-0.0172171428571,0.656
0.461828738456,0.523473572971,-0.124095245558,-1.39395081843,0.0773341582131,1.90808378448,0.154314282643,-0.00733420151657,-0.0744128119727,-0.0014200998646,-0.114509873745,-0.00470564660186,0.0432588411622,-0.0182207578966,0.574081954641,0.818783314878,0.00213061832478,0.0,0.818741173549,-0.574021265789,-0.0119676254369,0.0,-0.00857603691404,0.00861498861608,-0.999926114051,0.0,0.657235391116,0.255081316218,0.303440275405,1.0,-0.01344,-0.017664,0.673
0.461669572666,0.522253687041,-0.12409536819,-1.39588890363,0.0772174186651,1.9088469177,0.154059416678,-0.00986779092468,-0.0764053968175,-0.000780254971941,-0.108659280405,-0.00208294056365,0.046382468116,-0.0282383688186,0.57407638148,0.818787128728,0.00216632353668,0.0,0.818745479939,-0.574015573869,-0.0119460008633,0.0,-0.00853789267948,0.00863175074047,-0.999926295918,0.0,0.657010448862,0.254795486316,0.303441323205,1.0,-0.01378,-0.0181108571429,0.69
0.461517916479,0.521072437567,-0.124096760042,-1.39777933197,0.0771068653694,1.90957824602,0.153806454465,-0.0140379257012,-0.0753726145348,0.00134611620959,-0.120626748093,-0.0100462141008,0.0512557304423,-0.0171995902304,0.574069986838,0.818791578459,0.00217902704548,0.0,0.818750089611,-0.574009122499,-0.0119400565632,0.0,-0.00852580050605,0.00863867302405,-0.999926339314,0.0,0.656773861839,0.254496406789,0.303431846498,1.0,-0.01412,-0.0185577142857,0.707
0.461347103526,0.519782466865,-0.124099887802,-1.39982942807,0.0769710001775,1.91031479349,0.153530314307,-0.0108815612641,-0.0761397071515,0.00184174274824,-0.123270408198,-0.0129738719799,0.0478684776095,-0.0183238331119,0.5740543008,0.818802632739,0.00215760386519,0.0,0.81876089604,-0.573993557643,-0.0119472926499,0.0,-0.00854418845942,0.00862512246291,-0.999926299337,0.0,0.656535285126,0.25420554493,0.303428920878,1.0,-0.01444,-0.0189782857143,0.723
0.461185981222,0.518509518494,-0.1241082023,-1.40178088679,0.0768424256303,1.91101496405,0.153263035095,-0.00598637343731,-0.0770229746783,-0.000601811681599,-0.119593528056,-0.0140859482191,0.0454830713257,-0.0188332129086,0.574042033801,0.818811200296,0.00216993106492,0.0,0.818769692661,-0.573981311017,-0.0119328070406,0.0,-0.00852538031835,0.00862677270577,-0.999926445636,0.0,0.656297021835,0.253906786237,0.30345455651,1.0,-0.01476,-0.0193988571429,0.739
0.461004079288,0.517168496032,-0.124111383696,-1.40391292418,0.0767011225316,1.91177525234,0.152966303176,-0.0110936170951,-0.0797918327152,-0.000968279660936,-0.128021004125,-0.00919937157148,0.0382011276346,-0.0202417923226,0.574024888804,0.818823306412,0.00213700988375,0.0,0.818781404799,-0.57396433804,-0.0119455729813,0.0,-0.00855491081079,0.00860696586775,-0.999926364109,0.0,0.656033897575,0.253578928821,0.303446725006,1.0,-0.0151,-0.0198457142857,0.756
0.46081983208,0.515819835357,-0.124115332913,-1.40605388887,0.0765730337185,1.91259160024,0.152678654193,-0.0113223590017,-0.0800459140816,-0.00178518245743,-0.130366200265,-0.0119910272475,0.0412094436748,-0.0235392378063,0.574021831712,0.818825400371,0.00215576583522,0.0,0.818783737487,-0.573961198844,-0.0119365132422,0.0,-0.00853675865039,0.00861709110893,-0.99992643204,0.0,0.655779328538,0.253254046627,0.303444512842,1.0,-0.01544,-0.0202925714286,0.773
0.460625389015,0.514428814723,-0.12411597716,-1.40828372873,0.0764401138945,1.91340988297,0.152381550489,-0.0141733269402,-0.0849062187159,0.00022784523002,-0.131161259023,-0.00808817508414,0.0504190968389,-0.0180934191288,0.574019893258,0.818826804076,0.0021386845986,0.0,0.818784840083,-0.573959251522,-0.0119545030949,0.0,-0.00856131458388,0.00861341095237,-0.999926253803,0.0,0.655506425088,0.252913860363,0.303429355181,1.0,-0.01578,-0.0207394285714,0.79
0.460441804469,0.513030505346,-0.124118732838,-1.41055890617,0.0762958608199,1.91419800051,0.152052336464,-0.0119287570897,-0.0879957651559,-0.000667628739055,-0.135324608534,-0.00861576145978,0.052189854016,-0.0209377414135,0.573982861843,0.818852964052,0.00206021241625,0.0,0.818809903491,-0.573922478296,-0.0120032392368,0.0,-0.00864665228636,0.00857674106708,-0.999925834708,0.0,0.65521436138,0.252570535432,0.303394748788,1.0,-0.01612,-0.0211862857143,0.807
0.460238352763,0.511608752991,-0.1241270197,-1.4128666615,0.0761615498682,1.91503280899,0.151731289461,-0.0112247763236,-0.0774955177646,-0.00200896418145,-0.135999009014,-0.010157565219,0.0536961321994,-0.021372329893,0.573977104469,0.81885710619,0.00201744606535,0.0,0.818813385408,-0.573916802317,-0.0120370592723,0.0,-0.00869895280988,0.00856107309727,-0.99992551535,0.0,0.65492932095,0.252212186856,0.303364864426,1.0,-0.01646,-0.0216331428571,0.824
0.460040855911,0.510139449038,-0.124122352659,-1.41518216789,0.0760236415761,1.91591086872,0.151415059641,-0.00465525337191,-0.0813153287795,0.000725887275304,-0.137542531644,-0.0155612800583,0.0489715794652,-0.00640702878016,0.573960394807,0.818868747751,0.00204598407843,0.0,0.818825332296,-0.573899906737,-0.0120299267929,0.0,-0.00867690807403,0.00858017031934,-0.9999255432,0.0,0.654647180113,0.251867392826,0.303367395259,1.0,-0.0168,-0.02208,0.841
0.459838869823,0.508715600373,-0.124130569986,-1.41740909357,0.0758808717021,1.91672046941,0.151096467788,-0.00914104216724,-0.0850001182957,-0.000692611630906,-0.140330712321,-0.00170372512974,0.0510313557266,-0.0217534177222,0.573943923464,0.818880314776,0.00203707937831,0.0,0.818836803116,-0.573883495175,-0.0120320708836,0.0,-0.00868394695184,0.00857393461095,-0.999925535583,0.0,0.654354460639,0.251499259602,0.303370332332,1.0,-0.01714,-0.0225268571429,0.858
0.459631414921,0.507190466703,-0.124131260998,-1.41980569169,0.075719900504,1.917585636,0.150772072015,-0.011147486977,-0.0916660086067,-0.00044294606448,-0.14876289305,-0.0125670606409,0.0478347578007,-0.0127487112228,0.573933180507,0.818887853511,0.00203336832167,0.0,0.818844361539,-0.573872836623,-0.0120260493563,0.0,-0.00868125803803,0.00856732588868,-0.999925615576,0.0,0.654075161874,0.25114908632,0.303375245942,1.0,-0.01746,-0.0229474285714,0.874
0.45940212131,0.505615602648,-0.124147577038,-1.42224854415,0.0755664967757,1.91850841819,0.150438511845,-0.0153096094682,-0.0943745082297,-0.00213362773724,-0.146310373659,-0.00851628957388,0.0527781043976,-0.0190461499661,0.573944376428,0.818879906657,0.00207319602197,0.0,0.818837032767,-0.573883960302,-0.0119941977358,0.0,-0.00863219977534,0.008581777245,-0.999925916369,0.0,0.653784956283,0.250758298242,0.303393952028,1.0,-0.0178,-0.0233942857143,0.891
0.45918621432,0.503966602245,-0.124143306951,-1.42472696625,0.075414920801,1.91945419146,0.150086490349,-0.0133126757326,-0.101817795311,5.06391134417e-05,-0.144025384276,-0.00447247312888,0.0513235639702,-0.0201356432661,0.573916667252,0.818899066857,0.00217353453768,0.0,0.818857487994,-0.573855825963,-0.0119437123909,0.0,-0.00853356377185,0.00863467688586,-0.999926307607,0.0,0.653483619451,0.250386975506,0.303448209585,1.0,-0.01814,-0.0238411428571,0.908
0.45894759567,0.502287714245,-0.124148761611,-1.42721518039,0.0752543809696,1.92038841649,0.149744271556,-0.014094301596,-0.103254815053,-0.000768502601134,-0.149026405277,-0.00393961945538,0.0505879841272,-0.0203082898512,0.573919897723,0.818896525823,0.00227549863864,0.0,0.818856365386,-0.573858738463,-0.0118805748087,0.0,-0.00842330883224,0.00868197197862,-0.999926832939,0.0,0.65318568741,0.249992261836,0.303517289748,1.0,-0.01848,-0.024288,0.925
0.458733846334,0.500679088764,-0.124150435719,-1.42964182984,0.0751005838711,1.92123209889,0.149401947545,-0.0138525313866,-0.104385882169,-9.57318201901e-05,-0.150034646669,-0.0145780431069,0.0572499176867,-0.0226314746157,0.573897828001,0.818911929927,0.00229802978443,0.0,0.818871997223,-0.573836514894,-0.0118765836472,0.0,-0.0084073445003,0.00869790526009,-0.999926828824,0.0,0.652874112088,0.24961753686,0.30355807348,1.0,-0.0188,-0.0247085714286,0.941
0.458492028555,0.49898464766,-0.124145175398,-1.43224747321,0.0749384330584,1.92218849637,0.14903008814,-0.0107598126755,-0.0968858621564,0.0015464419128,-0.159910392548,-0.00481928619801,0.0545133759069,-0.0172698593694,0.573876403453,0.81892683242,0.00233743528594,0.0,0.818887351329,-0.573814874911,-0.0118634761055,0.0,-0.00837422500215,0.00872243312396,-0.999926893086,0.0,0.652548975963,0.249214770307,0.303582532116,1.0,-0.01914,-0.0251554285714,0.958
0.458226557443,0.497312880732,-0.124151047552,-1.43489503955,0.0747739094412,1.92317333098,0.148642549089,-0.0230696367687,-0.0989672074537,0.000685991996087,-0.161251738473,-0.00451315103953,0.0524582990528,-0.0229443105154,0.573870685259,0.818930826699,0.00234191875904,0.0,0.818891396444,-0.573809132117,-0.0118620246849,0.0,-0.00837052446947,0.00872521334484,-0.999926899814,0.0,0.652226120738,0.248786435925,0.303573487285,1.0,-0.01948,-0.0256022857143,0.975
0.457965891696,0.49563566556,-0.124146898493,-1.43760051881,0.0746028749752,1.92410374112,0.148251118801,-0.0152601674668,-0.0991532149567,-0.00188707332194,-0.1632570784,-0.00709751997173,0.0582306697564,-0.0239802178182,0.57385078519,0.818945004616,0.00225890495982,0.0,0.818904336892,-0.573789401301,-0.0119229558055,0.0,-0.00846827241316,0.00869199196677,-0.999926366108,0.0,0.651874123797,0.248355863527,0.303535050672,1.0,-0.01982,-0.0260491428571,0.992
0.457700003593,0.49405474913,-0.124159778637,-1.4401931338,0.0744426990623,1.92501657828,0.147884572095,-0.0170368452277,-0.100127651669,-0.00331697938854,-0.166437517753,-0.00940529690265,0.0526548562479,-0.0243195522538,0.573864798276,0.818935421431,0.00217157248723,0.0,0.818893533477,-0.573803684928,-0.0119774326908,0.0,-0.00856285245452,0.00865188023777,-0.999925908518,0.0,0.651546740328,0.247924670769,0.303481724667,1.0,-0.025756,-0.0338507428571,1.008
0.457376175717,0.491358377107,-0.124255016979,-1.44418909238,0.0742145082207,1.92652352171,0.147303779389,-0.0228725498248,-0.176150138347,-0.00534772781743,-0.269553456034,-0.0144541716411,0.114332927425,-0.0421791924095,0.573862048915,0.818936888035,0.00233861747796,0.0,0.818897443481,-0.573800539609,-0.0118602152823,0.0,-0.0083710289922,0.00872138323012,-0.999926929004,0.0,0.651061364933,0.247285030141,0.303589569678,1.0,-0.0397834285714,-0.0522867918367,1.025
0.456883500214,0.487653270878,-0.124275002046,-1.45009400842,0.0739105412564,1.92878363196,0.146406849895,-0.0350329540718,-0.242158915546,0.00152239610896,-0.396328489769,-0.0212735031582,0.148596010474,-0.0497750782824,0.573759335841,0.819008634753,0.00241404972229,0.0,0.818969698531,-0.573697049694,-0.0118774980812,0.0,-0.00834300091287,0.0087920282576,-0.99992654459,0.0,0.650313075453,0.2464056117,0.30355160439,1.0,-0.0538108571429,-0.0707228408163,1.042
0.456149704824,0.482719412025,-0.124410826187,-1.45790266436,0.0734514791628,1.93166223892,0.145210935933,-0.0511060182461,-0.311286673061,-0.0105423501296,-0.492475677214,-0.0332675279233,0.172073929297,-0.0689504882912,0.573741027434,0.819021501534,0.00240007607922,0.0,0.818982557195,-0.573678980842,-0.0118635935453,0.0,-0.00833982556751,0.00877241969085,-0.999926743298,0.0,0.649340831,0.245110029291,0.303513896706,1.0,-0.0678382857143,-0.0891588897959,1.059
0.455194596405,0.476559554926,-0.124577306703,-1.4676764798,0.0728673521564,1.93503350143,0.143754545355,-0.0602410020116,-0.391461281361,-0.0122147660955,-0.603535369869,-0.0433659786306,0.216961682967,-0.0855605252737,0.573768881548,0.819002603774,0.00218001824148,0.0,0.818960668144,-0.573707585896,-0.0119906972247,0.0,-0.00856988424239,0.00866540496709,-0.999925731162,0.0,0.648070540979,0.243451476096,0.303427676885,1.0,-0.0818657142857,-0.107594938776,1.076
0.454022032388,0.469225489989,-0.124720566105,-1.47903115013,0.0722162248652,1.93909419119,0.142084650131,-0.0751478220391,-0.460305783612,-0.0070584787236,-0.682128792306,-0.0368753545099,0.259186450775,-0.103838264804,0.573835365531,0.818955903796,0.00222436646506,0.0,0.818914174047,-0.573773499415,-0.0120122360146,0.0,-0.00856137390429,0.00871477885729,-0.999925374969,0.0,0.646609943194,0.241531970677,0.303449721732,1.0,-0.0958931428571,-0.126030987755,1.093
0.4526474397,0.460786495421,-0.124825420922,-1.49197800482,0.0714015733283,1.94386476938,0.139998041314,-0.087622688035,-0.502544034605,-0.00170930702355,-0.789013649373,-0.0481049890921,0.281154130656,-0.1263422349,0.57371815097,0.819037432564,0.00243191422867,0.0,0.818998547339,-0.573655608929,-0.0118898571356,0.0,-0.00834331745892,0.0088133307556,-0.999926354416,0.0,0.644946767937,0.23935601419,0.303522138089,1.0,-0.109920571429,-0.144467036735,1.11
0.451093725428,0.451855806598,-0.124970845583,-1.5057995463,0.0705063142945,1.94860126445,0.137825951074,-0.100418181216,-0.588602002471,-0.00979229307318,-0.888035794925,-0.064502641048,0.307960720084,-0.141681766824,0.573710530629,0.819043202982,0.00228157736713,0.0,0.819002180597,-0.573648404816,-0.0119867731682,0.0,-0.0085090256971,0.00874572321602,-0.999925551632,0.0,0.643093962276,0.236934909402,0.303497302573,1.0,-0.123122857143,-0.161818612245,1.126
0.449228651896,0.441240248952,-0.125120275537,-1.52190988258,0.0694150295802,1.95436156835,0.135335599195,-0.114650228746,-0.643166103303,-0.0131763649074,-0.98650264413,-0.0624910543433,0.343110062257,-0.15993036576,0.573734151424,0.819026143185,0.00245909945822,0.0,0.818987939395,-0.573671849619,-0.0118368484863,0.0,-0.00828413172385,0.0088053465501,-0.999926916846,0.0,0.640955558674,0.234107964737,0.303604449473,1.0,-0.137150285714,-0.180254661224,1.143
0.447227051077,0.43026260419,-0.125254912779,-1.5384443066,0.0683273529705,1.96010328784,0.13263684161,-0.127358467737,-0.699914859478,-0.00614947269387,-1.05874208653,-0.0714708591204,0.365523895579,-0.176636448146,0.573688001411,0.819058000383,0.00261073669541,0.0,0.819021496324,-0.573624843046,-0.0117930021928,0.0,-0.00816172650594,0.00890392476156,-0.999927050511,0.0,0.638544204282,0.230978956217,0.303733154036,1.0,-0.151177714286,-0.198690710204,1.16
0.444665005274,0.417010847011,-0.125414318318,-1.55841443825,0.0669256138245,1.96703499548,0.129324175101,-0.147981175766,-0.75838334036,-0.00894723969276,-1.1196033927,-0.0790626136958,0.392108299971,-0.190118618367,0.573649933605,0.819084258354,0.00273464673354,0.0,0.819049777038,-0.57358679177,-0.0116791241751,0.0,-0.00799778349875,0.00893971272215,-0.99992805591,0.0,0.635935661469,0.227522530727,0.303830353144,1.0,-0.165205142857,-0.217126759184,1.177
0.442092432729,0.404303189855,-0.125562703498,-1.57749006475,0.0655798996298,1.97367328228,0.126138869575,-0.170701056706,-0.804242438629,-0.0103778417505,-1.22420513037,-0.0829064791114,0.408729337971,-0.206594257081,0.573662765528,0.819074737902,0.00288999637854,0.0,0.81904235475,-0.573599189853,-0.0115904023506,0.0,-0.0078358570506,0.00901618529462,-0.999928651328,0.0,0.633083688069,0.22375413735,0.303902475433,1.0,-0.179232571429,-0.235562808163,1.194
0.439052024501,0.389909371365,-0.125744352955,-1.5988551481,0.0641005757793,1.98101373855,0.122452350662,-0.185464123426,-0.841118668271,-0.0126346828864,-1.28080434777,-0.104238015571,0.440695262011,-0.222033787242,0.57370250727,0.819045709064,0.00321037645423,0.0,0.81901756519,-0.573638038341,-0.0114182213449,0.0,-0.00751059574842,0.00918019366823,-0.999929655024,0.0,0.630217300217,0.219925773574,0.304079835838,1.0,-0.192434857143,-0.252914383673,1.21
0.435710043962,0.374675999036,-0.12590599511,-1.6215353181,0.0623777244406,1.98855462167,0.118371438948,-0.199865312556,-0.922424650831,-0.0104902192367,-1.3638739415,-0.0918934834488,0.460340344688,-0.244508278432,0.573584058479,0.819128646108,0.00321494708812,0.0,0.819100884703,-0.573519987549,-0.0113715197328,0.0,-0.00747104498977,0.00915606472621,-0.999930172545,0.0,0.626864269905,0.21555415253,0.304135493763,1.0,-0.206462285714,-0.271350432653,1.227
0.432629228387,0.361527822603,-0.126066903956,-1.64103580678,0.0608970106308,1.99501529367,0.114898689088,-0.225269444515,-0.964412443941,-0.0193224091569,-1.41454176637,-0.112274303957,0.482567565623,-0.256419158777,0.573665367675,0.819071569003,0.00324925881239,0.0,0.819044437533,-0.5736014192,-0.0113299663808,0.0,-0.00741641666317,0.00916107306505,-0.999930533339,0.0,0.623951159127,0.211675422787,0.304168346277,1.0,-0.218014285714,-0.286533061224,1.241
0.427759796752,0.341761894053,-0.126330857213,-1.67017752423,0.0586776220292,2.00446824219,0.109409680788,-0.251771680729,-1.02740178579,-0.0130801335482,-1.48160938207,-0.113684062609,0.493458646696,-0.281324167336,0.573716808429,0.819035513339,0.00325553635853,0.0,0.819008295815,-0.573652629257,-0.0113498561492,0.0,-0.007428531288,0.00917809123769,-0.999930287352,0.0,0.619488399103,0.205733546686,0.304194658545,1.0,-0.234517142857,-0.308222530612,1.261
0.423543051972,0.325271000127,-0.126488603175,-1.69438291028,0.0567834982319,2.01225307681,0.104711611721,-0.270426033863,-1.05524038042,-0.0139019969274,-1.53413189013,-0.131972759316,0.510153503608,-0.316241674423,0.573668886827,0.819069019935,0.00327043886671,0.0,0.819041728488,-0.573604342373,-0.0113777109758,0.0,-0.00744333594995,0.00920584193344,-0.999929922157,0.0,0.615674228301,0.200762663852,0.304180069033,1.0,-0.247719428571,-0.325574106122,1.277
0.418710653749,0.30692229356,-0.126672683106,-1.72095316902,0.0546168773007,2.0206162956,0.0993853753521,-0.288590157463,-1.11104358547,-0.0176235015062,-1.59008172706,-0.129077861285,0.519005242988,-0.330532516003,0.573564250972,0.819142080522,0.00332397752624,0.0,0.819115426697,-0.573499501799,-0.0113572040806,0.0,-0.00739700673946,0.00923698536193,-0.999929978745,0.0,0.611376764229,0.195205614672,0.304224574939,1.0,-0.261746857143,-0.344010155102,1.294
0.413364698257,0.287808972306,-0.126878483294,-1.74839430564,0.0523076103953,2.02902038174,0.0936914916596,-0.318494655037,-1.15825736994,-0.0150951001174,-1.63182471621,-0.135473631214,0.523572275602,-0.338468261114,0.573510935006,0.819179440934,0.00331630543771,0.0,0.819152591005,-0.573446093453,-0.0113735418634,0.0,-0.00741539203645,0.009239588711,-0.999929818518,0.0,0.606829834929,0.189280887402,0.30426072278,1.0,-0.275774285714,-0.362446204082,1.311
0.407529391297,0.268037027361,-0.127109013485,-1.77650439369,0.0499320551206,2.03755901298,0.0876046108627,-0.354692902492,-1.19962325328,-0.0169562985392,-1.65092138238,-0.15576529318,0.527657747155,-0.372140740903,0.573486436852,0.819196109189,0.0034334149076,0.0,0.819170499577,-0.573420928078,-0.0113524784053,0.0,-0.00733125532586,0.00932322409617,-0.99992966262,0.0,0.602084500701,0.183051772205,0.3043117365,1.0,-0.289801714286,-0.380882253061,1.328
0.401118553034,0.247637054662,-0.127429744855,-1.80525364139,0.0473267272904,2.04605056034,0.0811975894162,-0.386048034154,-1.2127953635,-0.0181349341833,-1.69607025488,-0.157633931442,0.499792587922,-0.383365416272,0.573604220397,0.81911364253,0.00343305480442,0.0,0.81908853108,-0.573539337598,-0.0112850955974,0.0,-0.00727492384749,0.00928533305058,-0.999930426616,0.0,0.59712953129,0.176412450278,0.304345558024,1.0,-0.303829142857,-0.399318302041,1.345
0.39470174195,0.227817416927,-0.127663066371,-1.83283554707,0.0448600595939,2.05404345679,0.0747256235735,-0.413320249642,-1.26108955103,-0.00699341260491,-1.7180694346,-0.149135645371,0.473434785252,-0.412865660917,0.573525622669,0.819167940535,0.00360447546284,0.0,0.819144525446,-0.573459633428,-0.0112712980995,0.0,-0.00716620284529,0.00941714591253,-0.999929978998,0.0,0.59190851241,0.169623809433,0.304419277536,1.0,-0.317856571429,-0.41775435102,1.362
0.387819613418,0.207415649868,-0.127879300556,-1.86100071442,0.0422011101282,2.06189744929,0.0678611269119,-0.44217295591,-1.28776681134,-0.0158760124535,-1.7917964166,-0.173032322258,0.484378751156,-0.437213484545,0.573403505037,0.819253652569,0.00355247309032,0.0,0.819229519381,-0.573337606906,-0.011301768995,0.0,-0.00722238816279,0.00939094558205,-0.999929821163,0.0,0.586726817056,0.162931232216,0.304417824463,1.0,-0.331058857143,-0.435105926531,1.378
0.379358417425,0.183780836758,-0.128248978028,-1.89336229411,0.0390780800379,2.07054622501,0.0595891538674,-0.486697871691,-1.33287112737,-0.0257014321823,-1.81229964603,-0.170327570292,0.4657506999,-0.484749306297,0.573377273862,0.819272464112,0.00344648623545,0.0,0.819246472052,-0.573311042258,-0.01141988424,0.0,-0.00738023017769,0.00937160421515,-0.999928850087,0.0,0.580982840779,0.155421329283,0.304399805605,1.0,-0.345086285714,-0.45354197551,1.395
0.37059233226,0.160863832082,-0.128694748381,-1.92419745458,0.0360162537528,2.07855706531,0.0512990417599,-0.524417305524,-1.35862869016,-0.0198641773512,-1.80332952808,-0.184943416003,0.455744114393,-0.503837670536,0.573531656103,0.819164349665,0.00345754062031,0.0,0.819138179407,-0.573464963848,-0.0114597197857,0.0,-0.00740475806332,0.00940489666953,-0.999928356172,0.0,0.575071167291,0.147519847807,0.304437107574,1.0,-0.359113714286,-0.47197802449,1.412
0.361851160598,0.138773873847,-0.129052824417,-1.95352455097,0.0329127701605,2.08599503607,0.0430584025362,-0.566091394731,-1.39169387732,-0.0266775697228,-1.81410147495,-0.185125209001,0.466763078186,-0.530631332703,0.573502781652,0.819184353227,0.00350738753084,0.0,0.819159263715,-0.573436508852,-0.0113761982968,0.0,-0.00730808028624,0.00939757128751,-0.999929136297,0.0,0.569288475099,0.139920490801,0.304486747475,1.0,-0.372316,-0.4893296,1.428
0.351771111731,0.114684653244,-0.129554754817,-1.98508359543,0.0295540629334,2.09369813825,0.0336574073565,-0.610497840107,-1.43508913546,-0.0366212141303,-1.86347121634,-0.208860298322,0.468188562663,-0.5620204893,0.573579242262,0.819130320484,0.00362185174,0.0,0.819106702185,-0.573512638326,-0.011323030353,0.0,-0.00719799831867,0.00946152036815,-0.999929331729,0.0,0.562916530361,0.131448460719,0.30453904992,1.0,-0.386343428571,-0.50776564898,1.445
0.340976771427,0.0900577432947,-0.129998807092,-2.0168743332,0.0259442464461,2.10100549432,0.023664697257,-0.642026244097,-1.45909520658,-0.00666195569242,-1.87984924432,-0.204470005405,0.415458728183,-0.586282954447,0.573507506886,0.819180567424,0.00361723677502,0.0,0.819157249196,-0.573441397888,-0.0112743593945,0.0,-0.00716160069639,0.00942919701566,-0.999929898402,0.0,0.556275373174,0.122734432037,0.304582871652,1.0,-0.39998,-0.525688,1.462
0.329474054364,0.0652970800576,-0.130452885754,-2.04862310615,0.0223764907279,2.10790949808,0.0130803633864,-0.688719208343,-1.44061080753,-0.0283422931522,-1.86993189791,-0.222531409805,0.392892213006,-0.631175250568,0.573454371033,0.819218142285,0.00353080651464,0.0,0.819192633727,-0.573387110343,-0.0114628722945,0.0,-0.00736621582424,0.00946602716015,-0.99992806401,0.0,0.549429865082,0.113824323357,0.304505010387,1.0,-0.39998,-0.525688,1.479
0.317192907491,0.0407447823283,-0.130983517,-2.07944893086,0.0186349468568,2.1140829727,0.00228025920306,-0.741040714212,-1.42999992132,-0.0242195149561,-1.78891137653,-0.211688960732,0.359668119494,-0.639279061009,0.573740038041,0.819018821473,0.00335942309295,0.0,0.818990861868,-0.573672961898,-0.0115779041995,0.0,-0.00755545672259,0.00939422487809,-0.999927329166,0.0,0.542607319953,0.104681414852,0.304487722637,1.0,-0.39998,-0.525688,1.496
0.305328401415,0.0178467803921,-0.131357568928,-2.10746803797,0.0152194850022,2.11947370099,-0.0082444137446,-0.753410575461,-1.41794293606,-0.0274414439366,-1.72904930209,-0.215808552256,0.32698225272,-0.652233861707,0.573812128014,0.818967524018,0.00354728765805,0.0,0.818941832547,-0.57374426031,-0.0115128435715,0.0,-0.00739355140944,0.0095114146487,-0.999927431561,0.0,0.536240176165,0.0962516195153,0.304607849744,1.0,-0.39998,-0.525688,1.512
0.291380815828,-0.00754933668906,-0.131844738554,-2.13802344317,0.0113430148096,2.12503483672,-0.0204992926733,-0.774184479443,-1.38949328928,-0.0173768611078,-1.6342567471,-0.21563600029,0.321717783252,-0.68858128227,0.57398371415,0.818846073513,0.00381453579671,0.0,0.818824211921,-0.573915566701,-0.011339275628,0.0,-0.00709603647167,0.0096321792576,-0.999928431134,0.0,0.529128443054,0.0866922999478,0.304753881788,1.0,-0.39998,-0.525688,1.53
0.277884627385,-0.0312270422748,-0.132177870882,-2.16615959985,0.00763006421578,2.12970612836,-0.032462905718,-0.803705473348,-1.39560803444,-0.0178947071162,-1.65652937831,-0.226322106586,0.287194642628,-0.704356533672,0.573872905934,0.818923207221,0.00392624639506,0.0,0.818903004421,-0.573804785545,-0.0112554136935,0.0,-0.00696455459903,0.0096745781984,-0.999928946234,0.0,0.52233460846,0.0778178702299,0.304825794034,1.0,-0.39998,-0.525688,1.547
0.264531308384,-0.0532194615287,-0.132667953713,-2.19194758445,0.00419525178781,2.13357625545,-0.0440637255428,-0.833188744117,-1.38559264733,-0.0275459916118,-1.55895701132,-0.214530389081,0.249824836879,-0.730689006093,0.574116099785,0.818752422535,0.00399017057582,0.0,0.818732568745,-0.574047120545,-0.0112973966549,0.0,-0.00695935893923,0.00975308768767,-0.999928219726,0.0,0.515939530911,0.0692822892503,0.304852220798,1.0,-0.39998,-0.525688,1.563
0.250042201502,-0.0762867920121,-0.133041476194,-2.21861914209,0.000484753526111,2.1372067739,-0.0568577629325,-0.868650945805,-1.38292940333,-0.0308686538424,-1.55517167155,-0.221696338971,0.220380703187,-0.765040478533,0.574014021527,0.818824011179,0.0039860642072,0.0,0.81880388651,-0.573944762482,-0.0113292523014,0.0,-0.00698901769869,0.00976714258691,-0.999927875678,0.0,0.509107324954,0.0603867847731,0.304851320783,1.0,-0.39998,-0.525688,1.58
0.235868093768,-0.0975735021998,-0.1334499865,-2.24291339124,-0.00294443449096,2.14010026933,-0.0693386639753,-0.888412891578,-1.3458555076,-0.010937796048,-1.49818232644,-0.215155612497,0.192993743925,-0.783161316117,0.57400635718,0.818829692057,0.00392227292684,0.0,0.818807908308,-0.573936117371,-0.0114755989444,0.0,-0.00714556462917,0.00979884349568,-0.999926459082,0.0,0.502696686669,0.0519679429975,0.304806356135,1.0,-0.39998,-0.525688,1.596
0.220364668322,-0.119935571422,-0.133853438569,-2.26795149463,-0.00663916179929,2.14271022448,-0.0829189189955,-0.929963933927,-1.31486269346,-0.031263038968,-1.42228730144,-0.198857163068,0.152766991822,-0.797661064209,0.573986691834,0.818843770893,0.00386048816981,0.0,0.818820854974,-0.573916181733,-0.0115486235204,0.0,-0.00724106121492,0.00978999292126,-0.999925858787,0.0,0.495891314593,0.0430728267088,0.304786601415,1.0,-0.39998,-0.525688,1.613
0.204377881915,-0.141992069959,-0.134226476548,-2.29234950304,-0.010266041567,2.14483815717,-0.0970757238973,-0.948844856397,-1.30301528116,-0.0218169742083,-1.39192679983,-0.200804903361,0.118175882779,-0.841748645528,0.573832980431,0.818952036532,0.00374423960346,0.0,0.818926482029,-0.573761351127,-0.0117505695887,0.0,-0.00747499683808,0.00980931019478,-0.999923948036,0.0,0.489036575501,0.0342295861185,0.304707952529,1.0,-0.39998,-0.525688,1.63
0.187739266061,-0.163719341276,-0.134738180404,-2.31598672318,-0.0139383155232,2.14652869516,-0.111734638656,-0.987995881721,-1.2589287947,-0.0216507575072,-1.35934324745,-0.20154192361,0.0813017653073,-0.867132460123,0.573836744267,0.818950021934,0.00360546871672,0.0,0.818921763673,-0.573764431678,-0.0119276496341,0.0,-0.00769960746156,0.00979730906169,-0.999922361376,0.0,0.482194434857,0.0252690878345,0.304621622827,1.0,-0.39998,-0.525688,1.647
0.170634885959,-0.185271161267,-0.135162446755,-2.33889808302,-0.0175324229098,2.14772723329,-0.126929910104,-1.02443740275,-1.25306458558,-0.0296454872544,-1.34660077417,-0.226373317556,0.0580817497812,-0.900428928528,0.573693951791,0.819050289509,0.00355244073145,0.0,0.819020303466,-0.573620549079,-0.0120811873033,0.0,-0.00785749823659,0.00984061463458,-0.999920707869,0.0,0.475329791718,0.0164097377395,0.304588193804,1.0,-0.39998,-0.525688,1.664
0.153915918408,-0.205263917877,-0.135719457137,-2.35961727883,-0.02088335309,2.14856965474,-0.141755475275,-1.04405146647,-1.2366358204,-0.0368569674737,-1.3000205598,-0.210807732232,0.0425616121721,-0.937426730406,0.573740308446,0.819017178952,0.00369674811179,0.0,0.818989056147,-0.57366632826,-0.0120256655843,0.0,-0.00772867558703,0.00992739646163,-0.999920854055,0.0,0.468949639983,0.00795914396604,0.304640236589,1.0,-0.39998,-0.525688,1.68
0.135567903758,-0.226126512813,-0.136352805942,-2.38088197031,-0.0243989258947,2.14896958552,-0.157920623241,-1.09227322498,-1.19583121,-0.0319167301527,-1.24394594497,-0.215190910553,0.00505526534417,-0.950286485057,0.573942621075,0.818874991639,0.00378981305168,0.0,0.818847527116,-0.573867542638,-0.0120630735515,0.0,-0.00770344686581,0.0100269841485,-0.999920055052,0.0,0.462152195834,-0.00104086313187,0.304675902449,1.0,-0.39998,-0.525688,1.697
0.116718617128,-0.246706393708,-0.136937843651,-2.4013549184,-0.0278736262746,2.14913407315,-0.174753059926,-1.13101491216,-1.22428239453,-0.0428516533456,-1.19246515995,-0.210439830329,0.0174556700356,-1.00487805086,0.573953403984,0.818866197709,0.00404811145282,0.0,0.818842854377,-0.573878402011,-0.0118619746688,0.0,-0.00739038865054,0.0101231827786,-0.999921448578,0.0,0.455400355183,-0.00997343069327,0.30478175239,1.0,-0.39998,-0.525688,1.714
0.0972997025003,-0.266719280752,-0.137543010892,-2.4211237241,-0.0312970163708,2.14889486399,-0.192162611336,-1.14871066228,-1.17218561253,-0.0383350181593,-1.13047893223,-0.196584316539,-0.0125770536408,-1.02201769194,0.57396520589,0.818857432529,0.00414662751759,0.0,0.818835137223,-0.573889541801,-0.0118557480571,0.0,-0.00732860234694,0.010200387576,-0.999921118729,0.0,0.448616202177,-0.0188980091127,0.30478195491,1.0,-0.39998,-0.525688,1.731
0.0772457832363,-0.28637637944,-0.138155663167,-2.44010193345,-0.034675580766,2.14833533029,-0.210228187938,-1.18583810314,-1.15524253772,-0.0236169126127,-1.10780913351,-0.193450017164,-0.0496972564998,-1.08485945887,0.573960301232,0.818860006077,0.00431392610051,0.0,0.818840255307,-0.573884605125,-0.0117406639703,0.0,-0.00713840182969,0.0102712891327,-0.999921768859,0.0,0.441847493274,-0.0278386868822,0.304826562403,1.0,-0.39998,-0.525688,1.748
0.0566203629616,-0.305529345359,-0.138781220222,-2.45819615269,-0.038050409802,2.14744598191,-0.228898705555,-1.21760486802,-1.10719307198,-0.0321851392216,-1.05582395764,-0.202214495405,-0.0634951965249,-1.09505901257,0.573922500779,0.818885697057,0.00446376029274,0.0,0.818868896609,-0.573847826674,-0.0115390159328,0.0,-0.00688774857321,0.0102779332284,-0.999923458575,0.0,0.435115738434,-0.0367786287875,0.304899581852,1.0,-0.39998,-0.525688,1.765
0.036687533386,-0.323060657649,-0.139376856914,-2.47462961058,-0.0410057123456,2.14619928549,-0.246978359201,-1.26757469631,-1.08477135166,-0.0524863586464,-0.983275395162,-0.171789807322,-0.077050958757,-1.1584685589,0.573985010605,0.818841377108,0.00455561617048,0.0,0.81882464269,-0.57390836633,-0.0116678396074,0.0,-0.00693973722945,0.0104276165878,-0.999921549352,0.0,0.428712198195,-0.0451506809852,0.30488370358,1.0,-0.39998,-0.525688,1.781
0.0149340968738,-0.341219984253,-0.139953801061,-2.49139127991,-0.0442784418035,2.14468484574,-0.266900394191,-1.30451261432,-1.05959167294,-0.025997610131,-0.979577955026,-0.193244583355,-0.101878436469,-1.15361744293,0.573823390884,0.818954809086,0.00452588676037,0.0,0.81893779529,-0.573747024368,-0.0116613195981,0.0,-0.00695351358048,0.010398157876,-0.99992176042,0.0,0.421905968351,-0.054037659483,0.304862416291,1.0,-0.39998,-0.525688,1.798
-0.007464279825,-0.358898402995,-0.140686994597,-2.50722759257,-0.0473668315155,2.14287151732,-0.287429544792,-1.31883546458,-1.01691789405,-0.0389742395359,-0.915280966365,-0.170352044431,-0.102137476266,-1.24355487692,0.57389446198,0.818904071523,0.0046920201277,0.0,0.818889265267,-0.573817658115,-0.0115936778997,0.0,-0.0068018769917,0.010495994536,-0.999921781225,0.0,0.415128238251,-0.0629915880312,0.304925433375,1.0,-0.39998,-0.525688,1.815
-0.030495042578,-0.375888234176,-0.141364692843,-2.52245418866,-0.0504833530232,2.1408322751,-0.308672963984,-1.3643556989,-0.988736690834,-0.0413802804104,-0.877231777486,-0.180243554351,-0.134036231069,-1.25410165006,0.573835803555,0.818945610556,0.00461567013345,0.0,0.81892910529,-0.573758164336,-0.0117233215286,0.0,-0.00695261814347,0.0105073705418,-0.999920624982,0.0,0.408278086993,-0.071932108698,0.304863701754,1.0,-0.39998,-0.525688,1.832
-0.0540935023508,-0.392342852375,-0.142061883494,-2.53662286173,-0.0533484572008,2.13868942077,-0.330456315697,-1.40192871221,-0.961327599677,-0.0344588519778,-0.830964375257,-0.167793569512,-0.126589592159,-1.32201054143,0.573940541067,0.818870800865,0.004859394067,0.0,0.818858140325,-0.573863198742,-0.0115378530885,0.0,-0.00665951179185,0.010601400143,-0.999921627538,0.0,0.401535406545,-0.0808659697391,0.304962827532,1.0,-0.39998,-0.525688,1.849
-0.0782203028391,-0.407992196128,-0.14274559216,-2.55011946609,-0.0561700373389,2.13621035502,-0.352957196788,-1.42269241049,-0.906391852487,-0.0234778682227,-0.781455049558,-0.168463372759,-0.164280075806,-1.33503636685,0.573903134487,0.818897084724,0.00484806737111,0.0,0.818882980031,-0.57382378397,-0.0117335786037,0.0,-0.00682678838499,0.0107041434836,-0.999919404889,0.0,0.394704902065,-0.0897562117062,0.304929404945,1.0,-0.39998,-0.525688,1.866
-0.10152370591,-0.422146129622,-0.143416591165,-2.56185984262,-0.0587421889935,2.13407515054,-0.374797118423,-1.46524210233,-0.858825989968,-0.0349657781916,-0.721719387408,-0.172880017307,-0.142963394008,-1.39287275547,0.573893006047,0.818902747188,0.00508479683925,0.0,0.818893525125,-0.573815893028,-0.0113781509403,0.0,-0.00639998504327,0.0106939543464,-0.99992233675,0.0,0.388401512715,-0.0981932062778,0.305051832117,1.0,-0.39998,-0.525688,1.882
-0.126770029212,-0.436256599642,-0.144073008686,-2.57384619604,-0.0613262003917,2.13140309155,-0.398544452987,-1.50050076236,-0.780370129896,-0.0364288016226,-0.68715596289,-0.17135871936,-0.151928516076,-1.41432179297,0.573864543151,0.818923169699,0.00500750895853,0.0,0.818910574278,-0.573783784073,-0.0117638161925,0.0,-0.00676056436694,0.0108517479717,-0.999918263827,0.0,0.381534538901,-0.107059559795,0.304937073958,1.0,-0.39998,-0.525688,1.899
-0.152539196635,-0.449753555838,-0.144738022017,-2.58467844419,-0.0638248442493,2.12895884062,-0.422974212135,-1.52647851738,-0.768434525311,-0.0349874441535,-0.631133036187,-0.151820313082,-0.138392472399,-1.44391792465,0.573786586596,0.818976521532,0.00521124970411,0.0,0.818968340445,-0.573708145784,-0.0114266228923,0.0,-0.00636852207799,0.0108244998727,-0.999921132955,0.0,0.37483172655,-0.115973704043,0.305064458021,1.0,-0.39998,-0.525688,1.916
-0.17729101784,-0.461475845503,-0.145311698144,-2.59429972265,-0.0659594408498,2.12643216496,-0.446512279789,-1.55091919343,-0.698125825572,-0.0347692525792,-0.575383003191,-0.121482375962,-0.151022570601,-1.47305310917,0.573748393037,0.819003151038,0.00523134580433,0.0,0.818993353001,-0.57366673548,-0.0117094511249,0.0,-0.00658915516014,0.0110029280477,-0.999917755922,0.0,0.368411933992,-0.124304110863,0.304997847989,1.0,-0.391772,-0.514900342857,1.932
-0.203643944443,-0.472694975767,-0.145634799457,-2.60339341313,-0.0679737512004,2.12401635151,-0.4714483169,-1.55483904892,-0.640885789438,-0.0217821794658,-0.504448669876,-0.101380764846,-0.146499903064,-1.45545154343,0.573762076266,0.81899341387,0.00525497652117,0.0,0.818983116915,-0.573678993389,-0.0118242823594,0.0,-0.00666946814308,0.0110882753312,-0.999916280668,0.0,0.361819343401,-0.132948036955,0.304952289955,1.0,-0.377744571429,-0.496464293878,1.949
-0.229763868448,-0.482823512466,-0.145851717352,-2.61130209433,-0.0696582116134,2.12180896191,-0.496131319815,-1.52316091166,-0.570749322222,-0.0203747185828,-0.453377043443,-0.0859252438845,-0.121738627743,-1.44323433184,0.57391420504,0.818885545012,0.00544943345877,0.0,0.818878420509,-0.573831534244,-0.011672601846,0.0,-0.00643159199001,0.0111617103701,-0.99991702198,0.0,0.355481048709,-0.141357973234,0.305014353353,1.0,-0.363717142857,-0.478028244898,1.966
-0.255410323092,-0.491693130476,-0.145814712405,-2.61837534776,-0.0710814817225,2.11960126975,-0.520449716927,-1.50232170051,-0.498953066031,-0.00238684513631,-0.402380572803,-0.0691222949851,-0.120842934968,-1.4155718008,0.573949325381,0.818860729777,0.00547941827596,0.0,0.818852447725,-0.573863874795,-0.0119024771211,0.0,-0.00660215801005,0.011318471697,-0.999914148169,0.0,0.349297721362,-0.149377685957,0.30495853638,1.0,-0.349689714286,-0.459592195918,1.983
-0.28051444918,-0.499438595457,-0.145630035429,-2.62436515351,-0.072133705681,2.1177594975,-0.544330173257,-1.46360830701,-0.431287492399,0.000292002047556,-0.338219303023,-0.0542729529152,-0.113501438254,-1.38405165351,0.574011522692,0.818815701084,0.00568914541216,0.0,0.818810224856,-0.573925423534,-0.011839374695,0.0,-0.00642924448397,0.011454488465,-0.999913726033,0.0,0.343437146555,-0.15709961196,0.304986864214,1.0,-0.335662285714,-0.441156146939,2.0
-0.304904244231,-0.506030572711,-0.14533284565,-2.62940709075,-0.073006419706,2.11608844571,-0.567564392647,-1.43137857183,-0.374536217905,0.00574205555776,-0.279838241597,-0.039560880477,-0.0991148803983,-1.36359344949,0.574068364538,0.818774806161,0.00583751098639,0.0,0.818771333477,-0.573981845845,-0.0117936855147,0.0,-0.00630586864764,0.0115501907868,-0.999913410808,0.0,0.337841842119,-0.16449731263,0.305017030948,1.0,-0.321634857143,-0.422720097959,2.017
-0.328627920927,-0.511703581948,-0.144916660335,-2.63366197972,-0.0737953317116,2.11467952401,-0.590241257358,-1.39119003064,-0.319876475997,0.0224891250122,-0.235654289916,-0.032126236515,-0.0897062137744,-1.31979755903,0.574033183194,0.818799000103,0.00590329776472,0.0,0.818797507892,-0.573948532447,-0.0115961231863,0.0,-0.00610682255658,0.011490386229,-0.999915335287,0.0,0.332486982526,-0.171609793463,0.305077629705,1.0,-0.307607428572,-0.40428404898,2.034
-0.350210282258,-0.516091567343,-0.144399871143,-2.63715916301,-0.0743284729094,2.11336021036,-0.610946803102,-1.33326967885,-0.257728494764,0.0393412023466,-0.208055561858,-0.0263825618145,-0.0793231240619,-1.27334170235,0.5739443071,0.818861429452,0.00588545698401,0.0,0.818858195099,-0.573856928634,-0.0118418190937,0.0,-0.00631952031231,0.0116161229842,-0.999912560852,0.0,0.327601046093,-0.177941243397,0.305009964065,1.0,-0.294405142857,-0.38693247347,2.05
-0.372373714176,-0.519952355432,-0.143826963126,-2.64025738398,-0.0747290332139,2.11227768397,-0.632173419915,-1.2817504002,-0.213470115223,0.0369635245056,-0.164778863375,-0.00926597895878,-0.0630240527364,-1.24538169912,0.573946418099,0.818859686154,0.00592203036949,0.0,0.818855981353,-0.573857161343,-0.011982782549,0.0,-0.00641394150833,0.0117269908936,-0.999910665529,0.0,0.322652046305,-0.184394343847,0.304946046051,1.0,-0.280377714286,-0.36849642449,2.067
-0.392432750113,-0.522883134325,-0.143187767622,-2.6425450627,-0.0750077597025,2.11139080189,-0.651440508168,-1.22650630673,-0.172470964175,0.0521287660774,-0.131471748827,-0.0215334328634,-0.053746092236,-1.19699155564,0.573893753292,0.818896710597,0.00590628538761,0.0,0.818892443189,-0.573803920446,-0.0120405261942,0.0,-0.00647102217081,0.0117468214031,-0.999910064985,0.0,0.317966333828,-0.19054693662,0.304928077159,1.0,-0.266350285714,-0.35006037551,2.084
-0.412955629566,-0.525368829286,-0.142549191895,-2.64442783846,-0.0751268822059,2.11062812053,-0.671100443703,-1.1914497806,-0.128804219597,0.0374073165739,-0.101972477654,-0.0146131899666,-0.0405505267279,-1.14167191757,0.573950596985,0.818856311216,0.00598336889392,0.0,0.818852907194,-0.573860173365,-0.0120484316841,0.0,-0.00643244105845,0.0118149310455,-0.999909511459,0.0,0.313512732959,-0.196423026238,0.304932878086,1.0,-0.252322857143,-0.331624326531,2.101
-0.432467440176,-0.527260592818,-0.141781125863,-2.64589963235,-0.0751982490801,2.11006395821,-0.689894241691,-1.14540500549,-0.10123116782,0.0346500800077,-0.0784227023743,-0.0072996674875,-0.0293274590833,-1.08441864828,0.573899461999,0.818892166806,0.00598110044003,0.0,0.818888844581,-0.573809263066,-0.0120306584037,0.0,-0.00641992469596,0.0118024720482,-0.999909739037,0.0,0.309545564535,-0.201647660307,0.30492613229,1.0,-0.239120571429,-0.314272751021,2.117
-0.451000141635,-0.528603663162,-0.141041432808,-2.64696532055,-0.0751599344159,2.10960230595,-0.707723765625,-1.06145822739,-0.0673534290323,0.0477960818694,-0.0587537005339,0.00487253900784,-0.0267779057402,-1.01835596337,0.573905251185,0.818887988212,0.00599769345605,0.0,0.818884662023,-0.573814576541,-0.0120618801908,0.0,-0.00643588878362,0.011834023401,-0.999909263496,0.0,0.305548266502,-0.206898724108,0.304912815595,1.0,-0.225093142857,-0.295836702041,2.134
-0.468701413158,-0.529558250725,-0.140293935676,-2.64769299463,-0.0751538050467,2.10925102052,-0.724612419986,-1.01304568269,-0.0540223516251,0.0490598194422,-0.041090108264,-0.00122516532838,-0.0153146647724,-0.969848797782,0.574002125904,0.818820568445,0.00593153016084,0.0,0.818816633094,-0.573912171884,-0.0120369112294,0.0,-0.00645201735928,0.0117662747276,-0.999909959072,0.0,0.301737645387,-0.211903560579,0.304920432619,1.0,-0.211065714286,-0.277400653061,2.151
-0.484312933338,-0.530042804263,-0.139502033094,-2.64808790834,-0.075000975053,2.10903021495,-0.739629380284,-0.968549744598,-0.0243571467371,0.0433499739528,-0.0191078058078,0.00820372012819,-0.00943805844785,-0.907307437205,0.573972103759,0.818841886644,0.0058936987802,0.0,0.818837509311,-0.573882405058,-0.0120360048169,0.0,-0.00647341949462,0.0117345385616,-0.99991019369,0.0,0.298415433336,-0.216270570335,0.304920012197,1.0,-0.197863428572,-0.260049077551,2.167
-0.499867720442,-0.530269177842,-0.138600512085,-2.64825971458,-0.074743018371,2.10887840756,-0.75465325222,-0.886030542212,-0.00757279285257,0.0535448924946,-0.00738044479849,0.0128173037319,-0.00402841759754,-0.865988773946,0.573870749011,0.818913145444,0.00586264021197,0.0,0.818908619374,-0.573781661089,-0.0120010588746,0.0,-0.00646407388592,0.0116882482822,-0.999910796322,0.0,0.295134298541,-0.220585252246,0.304935567557,1.0,-0.183836,-0.241613028572,2.184
-0.514472790099,-0.530299175968,-0.137758883944,-2.64830171367,-0.0743992406045,2.10881187382,-0.768634674087,-0.849690415394,-0.00217071670642,0.0428328664018,-0.000196951860457,0.022799812935,-0.00169986651021,-0.798455752348,0.57393197815,0.818869952019,0.00590195203534,0.0,0.818866148706,-0.573843102737,-0.0119612225833,0.0,-0.00640801466885,0.0116980620953,-0.999911042389,0.0,0.292042999805,-0.224614767729,0.304944143942,1.0,-0.169808571429,-0.223176979592,2.201
-0.527898239867,-0.530097216869,-0.13677283545,-2.64822229581,-0.073964124825,2.10881110402,-0.781597026826,-0.75833923619,0.0156934198662,0.0588775667774,0.00267698443071,0.0264860858585,0.00118027217791,-0.735141324873,0.57380624825,0.81895799494,0.00591091320486,0.0,0.818954241201,-0.573717239931,-0.0119677201719,0.0,-0.00640999071876,0.0117081454685,-0.999910911706,0.0,0.289237279004,-0.228248345981,0.304932620431,1.0,-0.155781142857,-0.204740930612,2.218
-0.540416532715,-0.529753994782,-0.135888812675,-2.6480259395,-0.0735230572472,2.108814049,-0.793488698647,-0.718080176772,0.0208040981154,0.0459962325422,0.0102273163979,0.0315437815062,-0.00158534060071,-0.679161851618,0.57389553681,0.818895147472,0.0059495527887,0.0,0.818891605727,-0.573805820598,-0.0120068821385,0.0,-0.00641861307754,0.0117629613802,-0.999910213042,0.0,0.286604086474,-0.231636045857,0.304920183108,1.0,-0.141753714286,-0.186304881633,2.235
-0.551736153656,-0.529237262912,-0.134886579617,-2.64774433024,-0.0730309408957,2.1088767521,-0.804362272007,-0.63906937713,0.0331482235011,0.0607354759909,0.0222332853027,0.0333899675244,0.00879207568945,-0.629065494116,0.573780334248,0.818975898761,0.00594576994004,0.0,0.81897184466,-0.573689811614,-0.0120774420494,0.0,-0.00648023108485,0.0117994440875,-0.999909385757,0.0,0.284267202382,-0.234644694905,0.304891138662,1.0,-0.127726285714,-0.167868832653,2.252
-0.562127197069,-0.528657844999,-0.133986503199,-2.64741840738,-0.0725334893284,2.10896972221,-0.814185790176,-0.597140786625,0.0363332879384,0.051126513497,0.0241360916286,0.0307360721259,0.00146414224942,-0.558597777486,0.573841226181,0.818932974985,0.00598134760354,0.0,0.818928898895,-0.573749652861,-0.0121466579281,0.0,-0.00651562804804,0.0118687799971,-0.999908335125,0.0,0.282114237875,-0.237404356089,0.304859035585,1.0,-0.113698857143,-0.149432783674,2.269
-0.571518321121,-0.528065788409,-0.133118972908,-2.64700333318,-0.0720486549343,2.10907996822,-0.822921261214,-0.521909674753,0.0372723503731,0.0582973981503,0.0272062427354,0.0292367091213,0.0100631696883,-0.494696035477,0.573996122441,0.818824247861,0.00600411855557,0.0,0.818820562727,-0.573904588892,-0.012130779222,0.0,-0.00648730988193,0.011879544688,-0.999908391418,0.0,0.280191548016,-0.239896484247,0.304863198347,1.0,-0.0996714285715,-0.130996734694,2.286
-0.579165375352,-0.527450084724,-0.132217568574,-2.64660929107,-0.0715384421863,2.10920210369,-0.830201815366,-0.467850939162,0.041199395129,0.0498507866858,0.0304582433742,0.0321866092341,0.00657587955198,-0.430376416386,0.573899847541,0.81889164672,0.00601521614367,0.0,0.81888792158,-0.573807947246,-0.0121555941616,0.0,-0.00650266088855,0.0119021106343,-0.999908023352,0.0,0.278674501476,-0.241872925816,0.304850768839,1.0,-0.0864691428573,-0.113645159184,2.302
-0.586495815272,-0.526889901968,-0.131296186454,-2.646181767,-0.0710266397438,2.10930709418,-0.836908238589,-0.406872762789,0.0286479494195,0.0540999870562,0.0257340821896,0.0302961823401,0.00781025627356,-0.373431189593,0.574002050863,0.81882003829,0.00601143912725,0.0,0.818816558701,-0.573910686097,-0.0121125753915,0.0,-0.00646811482319,0.0118751376482,-0.999908568118,0.0,0.277231612001,-0.243754017232,0.304872607475,1.0,-0.0724417142858,-0.0952091102042,2.319
-0.592698564394,-0.526321222232,-0.130376395662,-2.64576471397,-0.0704772448532,2.10942578423,-0.842522677783,-0.345476442941,0.0304131087918,0.0504610977803,0.0275670514324,0.0346068931049,0.00593770018844,-0.315949307909,0.574091283074,0.818757357968,0.00602780000657,0.0,0.818754290018,-0.574000194292,-0.012080415202,0.0,-0.00643109427749,0.0118707767273,-0.99990885869,0.0,0.276055386013,-0.245310759362,0.304887454451,1.0,-0.0584142857144,-0.0767730612246,2.336
-0.598214746465,-0.525764887261,-0.129273410335,-2.64540967889,-0.0698264589511,2.10954007371,-0.847564248927,-0.255739493744,0.0266814707973,0.0569842514174,0.015713675344,0.0330340850014,0.00879690149028,-0.237829874305,0.573997722518,0.818822871699,0.00603872735071,0.0,0.818819800725,-0.57390633778,-0.0120994338086,0.0,-0.00644175326211,0.0118899058934,-0.999908562796,0.0,0.275070845855,-0.246605191318,0.304882544823,1.0,-0.0427365714287,-0.0561680653063,2.355
-0.601481868663,-0.525476137821,-0.128405417365,-2.64522870044,-0.0693747757709,2.10957431012,-0.850416679819,-0.222471723643,0.0212108221887,0.0664612693281,0.0126795647472,0.0336141720202,-1.63147465384e-05,-0.18351259478,0.573926386144,0.818873171006,0.00599833274859,0.0,0.818869421511,-0.573834912691,-0.0121289073067,0.0,-0.00649010899271,0.0118731798018,-0.999908448853,0.0,0.274523186484,-0.247303469932,0.304883506125,1.0,-0.0311845714287,-0.0409854367349,2.369
-0.604851703831,-0.525157335658,-0.127286172554,-2.64503799089,-0.0687517503852,2.10964171938,-0.853173558507,-0.152615700074,0.0203503825364,0.0567902680267,0.00856550261885,0.0328557640979,0.0103968643032,-0.120196200851,0.573913210402,0.818882586097,0.0059736098421,0.0,0.818878492248,-0.573821807325,-0.0121365263689,0.0,-0.00651072785503,0.0118572017202,-0.999908504409,0.0,0.27402190895,-0.247960263137,0.304886720377,1.0,-0.0198715789474,-0.0261169323308,2.388
-0.606773120065,-0.524954852007,-0.126748393715,-2.64488858416,-0.0683894924856,2.10970685633,-0.854786623866,-0.115431870699,0.0111219188318,0.0375769884257,0.00449459504671,0.0204919691306,5.2982204915e-06,-0.102244835286,0.573947886235,0.81885801352,0.00601036442655,0.0,0.81885463249,-0.573856744211,-0.0120944149897,0.0,-0.00645464474376,0.0118634070796,-0.999908794408,0.0,0.273728899345,-0.248369427406,0.304899190813,1.0,-0.0195715789474,-0.0257226466165,2.403
-0.608607441484,-0.524777164037,-0.126275449658,-2.64471622395,-0.0681649718677,2.10973324151,-0.856451435991,-0.104070688669,0.0118126927388,0.0184422747309,0.00790840717191,0.0109969502542,0.00666484146512,-0.0939996898147,0.573856962075,0.818922077782,0.00596359795694,0.0,0.818918412759,-0.573766634619,-0.0120511055098,0.0,-0.00644732696468,0.0117995381484,-0.999909597351,0.0,0.273431492766,-0.248784382402,0.304926155295,1.0,-0.0192315789474,-0.0252757894737,2.42
-0.610232738942,-0.524586714629,-0.125997589958,-2.64453669085,-0.0679892925889,2.10979736369,-0.857982602898,-0.0896595123715,0.00944743277013,0.0146033873981,0.00767033092679,0.00612845278015,0.00186884135047,-0.0892899429048,0.573827538862,0.818942670705,0.00596696265796,0.0,0.818939449786,-0.57373793809,-0.0119876137094,0.0,-0.00639381863538,0.0117656305126,-0.999910340492,0.0,0.273163922888,-0.249172910258,0.304947668617,1.0,-0.0189115789474,-0.0248552180451,2.436
-0.61163748878,-0.524395443268,-0.125845396672,-2.64439632188,-0.0678850062114,2.10984006526,-0.859349602472,-0.0884501417203,0.006879547444,0.00942830617122,0.0126892975319,0.00594450830471,0.0014666163427,-0.088922339388,0.573796979232,0.818964000088,0.00597830116799,0.0,0.818960990913,-0.573707456656,-0.0119748253255,0.0,-0.00637727767311,0.0117673406049,-0.999910426001,0.0,0.272874817471,-0.249573240082,0.304951197012,1.0,-0.0185715789474,-0.0244083609023,2.453
-0.613134349843,-0.524252273501,-0.12574373067,-2.64425277338,-0.0678470334069,2.10984295158,-0.860843265389,-0.0871728590516,0.014078231976,0.00420400764017,0.0143554158856,-5.70274764144e-06,0.000336161534169,-0.0830294669664,0.573751311324,0.818996115577,0.00596173846451,0.0,0.818992991298,-0.57366205053,-0.0119615587406,0.0,-0.00637656980128,0.0117458081745,-0.999910683685,0.0,0.272556757517,-0.249988296027,0.304966636894,1.0,-0.0182315789474,-0.0239615037594,2.47
-0.61456027345,-0.524100942462,-0.125689516466,-2.64409186103,-0.0678138956884,2.10986754148,-0.862212908194,-0.0776383065859,0.0176938834765,0.00061765738323,0.00663617993128,1.05782087968e-05,0.00335077424293,-0.0778673495992,0.573781451984,0.818975014054,0.00595974961468,0.0,0.81897214273,-0.573692707432,-0.0119186313358,0.0,-0.00634211847909,0.0117197841477,-0.999911208154,0.0,0.272253003914,-0.250401880737,0.304987687108,1.0,-0.0178915789474,-0.0235146466165,2.487
-0.615924421063,-0.523917795179,-0.125674772161,-2.64393225377,-0.0677657174316,2.10992959681,-0.863623374139,-0.079979683772,0.0141936966034,0.00202658550332,0.00756871660735,0.00130146619122,0.00341767744626,-0.0817541839569,0.573761957128,0.818988465577,0.00598804694573,0.0,0.818986229634,-0.573673601613,-0.0118701888784,0.0,-0.00628648435193,0.0117150163437,-0.999911615347,0.0,0.271962236033,-0.250809784197,0.304998733825,1.0,-0.0175515789474,-0.0230677894737,2.504
-0.617280294492,-0.523739839988,-0.125679753147,-2.64378904094,-0.0677452389813,2.10994328874,-0.864875214685,-0.0785221110836,0.00971205826706,0.00127825672547,0.00536830664241,0.000782460150741,-0.000159542049674,-0.0777297489503,0.57386697771,0.81891474666,0.00600637149667,0.0,0.81891265232,-0.573778348821,-0.0118836524371,0.0,-0.00628549332042,0.011738555325,-0.999911345516,0.0,0.27165478346,-0.251211889344,0.304999604271,1.0,-0.0172115789474,-0.0226209323308,2.521
-0.618547622812,-0.523578593066,-0.125676839509,-2.64369208548,-0.0677247870942,2.10994042666,-0.866134647067,-0.0754307196689,0.0131628910253,0.00155549009179,0.00664318068822,0.000218684923251,0.000113406906718,-0.0813897944977,0.573885427984,0.818901662352,0.00602742453012,0.0,0.818899445355,-0.573795971428,-0.011942716204,0.0,-0.00632151994786,0.0117898323955,-0.999910515115,0.0,0.271357403459,-0.251574337249,0.304984345233,1.0,-0.0168915789474,-0.0222003609023,2.537
-0.619829521574,-0.523402924715,-0.125650853988,-2.64359036682,-0.0676950770186,2.10996422844,-0.867444874777,-0.0734099040548,0.0121741216628,-0.000297128157527,0.00193601482512,0.000335646807542,-0.000255514830097,-0.0733221674305,0.573862112625,0.818917886791,0.00604295365242,0.0,0.818915588816,-0.573772069727,-0.0119840434204,0.0,-0.00634679168401,0.0118260851122,-0.999909926917,0.0,0.271066646633,-0.251938832804,0.304968783817,1.0,-0.0165515789474,-0.0217535037594,2.554
-0.621070298347,-0.523211647524,-0.125581815506,-2.64347576557,-0.0676641357376,2.10999260421,-0.868688661916,-0.0734766335435,0.00928905423952,0.00669888782001,0.00799730660991,0.00026444809333,0.000649348669729,-0.0819035154334,0.573830264529,0.818940257931,0.00603559042828,0.0,0.81893761388,-0.573739793735,-0.0120241655902,0.0,-0.00638433778075,0.0118428301562,-0.999909489706,0.0,0.270798374307,-0.252285707362,0.304954755105,1.0,-0.0162115789474,-0.0213066466165,2.571
-0.622269555256,-0.523040078316,-0.12549931148,-2.64336257892,-0.0676351596587,2.11003169452,-0.869953523262,-0.0724504769025,0.00732059063052,0.000666813909642,0.00852361927999,0.00335200043593,0.0029388450936,-0.0760004376068,0.573736606731,0.819005996018,0.00601925944147,0.0,0.81900307623,-0.573646107308,-0.0120354309151,0.0,-0.00640428863902,0.011835187157,-0.999909452617,0.0,0.270544671706,-0.252619690051,0.304948539487,1.0,-0.0158715789474,-0.0208597894737,2.588
-0.623354272009,-0.522866374231,-0.125410740603,-2.6432469773,-0.0676123343053,2.11005956277,-0.871049647911,-0.064122767145,0.015210949263,0.00668573275029,0.0122018273305,0.00178067435548,0.00100055933674,-0.0634678280679,0.573680533612,0.819045463575,0.00599340078726,0.0,0.819042079226,-0.573589919683,-0.0120591623014,0.0,-0.00643937187912,0.0118271818163,-0.999909322019,0.0,0.270318985872,-0.252920787195,0.304941809277,1.0,-0.0155515789474,-0.0204392180451,2.604
-0.624476783751,-0.522691667629,-0.125347617303,-2.64313247628,-0.067581338342,2.11008687275,-0.872195431989,-0.0634252795524,0.00915500259319,-0.000574550668414,0.00701314873628,0.00198580948963,0.0054137316593,-0.0664641008425,0.573636178866,0.81907656808,0.0059880564442,0.0,0.819072951691,-0.57354529904,-0.012084562805,0.0,-0.00646388505496,0.0118370253968,-0.999909047374,0.0,0.270078364834,-0.253236340731,0.304933553999,1.0,-0.0152115789474,-0.0199923609023,2.621
-0.625624413055,-0.52252171834,-0.125335772989,-2.64302080039,-0.0675570096245,2.1101087751,-0.873399724439,-0.0691514097565,0.00941376313809,-0.000392842198603,0.00530813317271,0.00502465018146,0.00167904956758,-0.0700382878681,0.573597778655,0.819103342061,0.00600418587466,0.0,0.819099727412,-0.573506455511,-0.0121131722225,0.0,-0.0064786252248,0.0118663441564,-0.999908604469,0.0,0.26981815491,-0.253569174634,0.304924069501,1.0,-0.0148715789474,-0.0195455037594,2.638
-0.626760148431,-0.522370535058,-0.125343646919,-2.64291540517,-0.0675323136578,2.11014270918,-0.874496803921,-0.0595321940891,0.00976602936214,-0.00020889853314,0.00171102760025,5.22707745343e-05,0.00496937924806,-0.0659285816449,0.573651178354,0.81906576527,0.00602865140656,0.0,0.819062417898,-0.573559642855,-0.0121176968088,0.0,-0.00646752398226,0.0118894017589,-0.999908402435,0.0,0.269557306502,-0.253903257956,0.304919173453,1.0,-0.0145315789474,-0.0190986466165,2.655
-0.627882455805,-0.522219553101,-0.125357310825,-2.64278648466,-0.0675065276519,2.1101649421,-0.875612500111,-0.0674878972715,0.00525520481049,-0.00185143779254,0.0049989315693,6.99436014069e-05,8.80690023865e-05,-0.0735262316642,0.573683996617,0.819042582877,0.00605527551224,0.0,0.819039605026,-0.573592379488,-0.0121100988396,0.0,-0.00644555083976,0.0119071096143,-0.999908333606,0.0,0.269301971561,-0.254238951359,0.304923900249,1.0,-0.0141915789474,-0.0186517894737,2.672
-0.628982978201,-0.522073462447,-0.125346693435,-2.64266402745,-0.0674799011669,2.11019167207,-0.876714037801,-0.0639270605617,0.00670662971682,0.00152485913923,0.0103287302489,0.000461162630758,0.000719239486157,-0.0548426658853,0.573693403283,0.819035880345,0.00607063743723,0.0,0.819033153278,-0.573601810758,-0.0120997283844,0.0,-0.00642810682375,0.0119138170562,-0.999908366005,0.0,0.269056319304,-0.25456212798,0.304928439907,1.0,-0.0138515789474,-0.0182049323308,2.689
-0.629977061546,-0.521932716422,-0.125324009543,-2.64255742305,-0.0674590526957,2.11022339631,-0.877650475222,-0.0571806051216,0.00510472576722,7.72862453081e-05,0.00710704090604,0.000342984560351,-1.81824834591e-05,-0.0602074518832,0.573739076412,0.819003857877,0.00607452739126,0.0,0.819001204478,-0.573647499929,-0.0120962717495,0.0,-0.0064223794282,0.0119153784396,-0.999908384203,0.0,0.268836682608,-0.254851159122,0.304928440786,1.0,-0.0135315789474,-0.0177843609023,2.705
-0.63097680191,-0.521781497908,-0.125278672122,-2.6424261515,-0.0674342267809,2.11026023818,-0.878664919608,-0.0583411669373,0.0106956805072,0.00420066113499,0.00635216998728,8.12548554359e-05,0.00165101275923,-0.0681490253505,0.573712337583,0.81902263689,0.00606802010179,0.0,0.819020050885,-0.57362107735,-0.0120732253493,0.0,-0.00640762399978,0.0118966175166,-0.999908702256,0.0,0.268626831526,-0.255142841265,0.304936773555,1.0,-0.0131915789474,-0.0173375037594,2.722
-0.631943908999,-0.5216192855,-0.125241074358,-2.64231644849,-0.0674064286076,2.11028428703,-0.879736842839,-0.053521289403,0.0104852065196,0.00251842608023,0.0117402339861,0.000636690349228,0.000147999064966,-0.0548141228911,0.573617591118,0.819088961901,0.00607277140841,0.0,0.819086284658,-0.573526046078,-0.0120946126877,0.0,-0.00642379485431,0.0119120357095,-0.999908414939,0.0,0.268416266193,-0.255419619974,0.304929984298,1.0,-0.0128515789474,-0.0168906466165,2.739
-0.632906432186,-0.521469038661,-0.125182499134,-2.64221305068,-0.0673872442504,2.11031334514,-0.880695576085,-0.0549815167534,0.00886844928558,0.00203727829583,0.00705169738471,0.00110107012701,0.000592499140181,-0.0566072342355,0.573592905639,0.819106354245,0.00605854248333,0.0,0.819103425794,-0.573501306008,-0.0121068889601,0.0,-0.0064423716863,0.0119072277713,-0.999908352687,0.0,0.268209915516,-0.255690537837,0.304925637403,1.0,-0.0125115789474,-0.0164437894737,2.756
-0.633845158338,-0.521326277441,-0.125158153704,-2.64212360799,-0.0673713916238,2.11032954947,-0.881623499462,-0.054340383957,0.00289029085935,0.00119375443023,0.00325380782145,-4.07429762277e-05,-9.21218074329e-05,-0.0587754579027,0.573596111264,0.819104090587,0.00606109134445,0.0,0.819100989606,-0.573504119867,-0.012138378129,0.0,-0.00646665882483,0.0119274020496,-0.999907955466,0.0,0.267996628235,-0.255957651458,0.304915783812,1.0,-0.0121715789474,-0.0159969323308,2.773
-0.634710286341,-0.521172872123,-0.125145751171,-2.64203929352,-0.0673575304951,2.11033791063,-0.882527657618,-0.05198292795,0.00749174597414,-0.000137810096345,0.000373803764088,-0.000120321974765,0.000268875691485,-0.0551022842925,0.57356158856,0.81912819557,0.00607044077702,0.0,0.819124855631,-0.573468897972,-0.0121918352775,0.0,-0.00650559230176,0.0119654477063,-0.999907248364,0.0,0.267783514848,-0.256221053904,0.304899077862,1.0,-0.0118315789474,-0.015550075188,2.79
-0.635623044746,-0.521031079302,-0.125141864746,-2.64195292763,-0.0673479621755,2.11036426554,-0.883413687196,-0.0509755858519,0.00770614636829,0.000734554815628,0.00672680634926,-0.0005325640629,0.00504529664359,-0.0529546073726,0.573593837144,0.819105574087,0.00607580378318,0.0,0.819102134621,-0.573500803742,-0.0122175311621,0.0,-0.00652309511324,0.0119848351733,-0.999906902144,0.0,0.267585372172,-0.256470790807,0.304888198982,1.0,-0.0115115789474,-0.0151295037594,2.806
-0.636512847434,-0.520901577446,-0.125138670856,-2.64185378017,-0.0673396819052,2.11039371584,-0.884234561374,-0.0543667664331,0.00382438174566,0.00142657964057,0.002797605211,0.000462349298241,0.00107913826667,-0.0495529651001,0.573656782524,0.81906147242,0.00607841770372,0.0,0.819058094503,-0.573563774219,-0.0122139933777,0.0,-0.00651777668806,0.0119854481218,-0.999906929479,0.0,0.267383356291,-0.256734261336,0.30488823629,1.0,-0.0111715789474,-0.0146826466165,2.823
-0.637382637983,-0.520756275812,-0.125136860452,-2.64173068378,-0.0673334705427,2.11042530495,-0.885080856337,-0.0519755105058,0.00931792593962,-0.00052658899336,0.00520293508859,-0.000277530370838,0.00471408083159,-0.0472726848444,0.573683797641,0.819042559415,0.00607726031202,0.0,0.819039258975,-0.573590959178,-0.0122004388894,0.0,-0.00650694240123,0.0119769394907,-0.999907101995,0.0,0.267191307141,-0.256998850999,0.304893489484,1.0,-0.0108315789474,-0.0142357894737,2.84
-0.63817589661,-0.520635542678,-0.125129770425,-2.64162004033,-0.0673268172671,2.11046461679,-0.885892894887,-0.0505213140017,0.00943106967767,-0.000465013640289,0.00437879498952,-0.000329424921907,0.00612661557949,-0.0431636310837,0.573671928813,0.819050899329,0.00607365635329,0.0,0.819047770238,-0.573579511444,-0.0121672109003,0.0,-0.00648196498429,0.0119548322063,-0.999907528783,0.0,0.267018756802,-0.257239977457,0.304902896134,1.0,-0.0105115789474,-0.0138152180451,2.856
-0.639004246577,-0.520497703234,-0.125116684502,-2.64148397131,-0.067318585189,2.11049592546,-0.886692577368,-0.0457344267182,0.0132974544355,-0.000281811649321,0.00710087860055,0.00104300492921,0.00148850192289,-0.0504585693404,0.573696610872,0.819033667641,0.00606604037023,0.0,0.819030665635,-0.573604639999,-0.012133945063,0.0,-0.00645872497562,0.0119297059252,-0.99990797926,0.0,0.266842629746,-0.257493935,0.304917020312,1.0,-0.0101715789474,-0.0133683609023,2.873
-0.639799889215,-0.520398647708,-0.125109885274,-2.64138074414,-0.067309937401,2.11052070451,-0.887462149297,-0.0444040655036,0.00695739540693,0.000381021938004,0.00961124576206,-7.66734007381e-05,0.000261393955393,-0.0389086359096,0.573727690834,0.819011915537,0.00606348743336,0.0,0.819009075199,-0.573636085048,-0.0121046921733,0.0,-0.00643577583943,0.0119110776493,-0.999908349309,0.0,0.266653867428,-0.257746490301,0.304928002649,1.0,-0.00981157894737,-0.0128952180451,2.891
-0.640558720171,-0.520293075018,-0.12510629296,-2.64131016691,-0.0673029871605,2.11054843314,-0.888199123745,-0.0475693131691,0.00543687661838,-0.00016049787291,0.00293185319816,0.000554605060019,0.00288209950348,-0.0415520008364,0.573744176349,0.81900032532,0.00606911304552,0.0,0.818997557547,-0.573652541161,-0.0121041171748,0.0,-0.0064318376155,0.0119154849096,-0.99990832214,0.0,0.266489745132,-0.25795259949,0.30492546905,1.0,-0.00949157894737,-0.0124746466165,2.907
-0.641287234366,-0.520211057902,-0.125093285128,-2.64125258859,-0.067290336715,2.11056405573,-0.888945932154,-0.0408293768138,0.00628938041345,0.00156439448416,0.000698194729967,0.00214904276414,0.000612826265276,-0.0409043593863,0.573728427297,0.819011312035,0.00607530836852,0.0,0.819008589942,-0.573636703382,-0.0121082218067,0.0,-0.00643187459724,0.0119227903455,-0.999908234819,0.0,0.266319669888,-0.25815796568,0.304923111362,1.0,-0.00915157894737,-0.0120277894737,2.924
-0.641997014979,-0.52013691297,-0.125079978418,-2.64120256045,-0.0672794732892,2.11058177475,-0.889660488869,-0.0404442848239,0.00670419873829,0.0015445227001,0.00324532522849,0.0014424526728,0.00148560696708,-0.0423088952984,0.57372238501,0.819015509526,0.00608004888853,0.0,0.819012830647,-0.573630607181,-0.0121101875159,0.0,-0.00643085307703,0.0119277533614,-0.999908182199,0.0,0.266152946246,-0.258356852403,0.304920401698,1.0,-0.00881157894737,-0.0115809323308,2.941
-0.642675103247,-0.520053749002,-0.125063775194,-2.64114969139,-0.0672682576262,2.11059619956,-0.890318109817,-0.0390863941957,0.00367055111408,-0.000249231275089,0.00307170681794,0.00114765336762,0.00139287364252,-0.040038660074,0.57373529092,0.819006445355,0.00608319994303,0.0,0.819003729532,-0.573643351851,-0.0121219961742,0.0,-0.00643852975361,0.0119372102707,-0.999908019943,0.0,0.2659948562,-0.258546643798,0.304915450782,1.0,-0.00847157894737,-0.011134075188,2.958
-0.643299093605,-0.519947645768,-0.125032461667,-2.64107838385,-0.0672610451426,2.11061857002,-0.890891376606,-0.034889785613,0.00531340469696,0.00438763593504,0.00587876184085,-4.09201965538e-05,0.0072038451766,-0.0362246162398,0.573761515725,0.818988158371,0.00607177261639,0.0,0.818985246443,-0.573669534208,-0.0121317159129,0.0,-0.00645266493849,0.0119336336625,-0.999907971517,0.0,0.265858553832,-0.258724468875,0.304911468212,1.0,-0.00815157894737,-0.0107135037594,2.974
-0.643947907059,-0.519825191561,-0.125002715568,-2.64097973118,-0.0672555327158,2.11063684,-0.891515981778,-0.033700545497,0.00668629398847,0.000859272440539,0.0112608061034,-0.000255897511196,0.000144814337604,-0.035821048825,0.573767756011,0.818983892626,0.00605744858943,0.0,0.818980791478,-0.573675831798,-0.0121346653163,0.0,-0.00646320801511,0.0119236432957,-0.999908022606,0.0,0.265720519795,-0.258915464557,0.304913502349,1.0,-0.00781157894737,-0.0102666466165,2.991
-0.644640261236,-0.519690709596,-0.124977438976,-2.64086613366,-0.0672395238895,2.11067152949,-0.892201098299,-0.0370632238837,0.0112183915296,0.000967002771488,0.00888516850635,-0.000152284425537,-0.000579587823941,-0.0344398033914,0.573768478081,0.818983430622,0.0060515146262,0.0,0.818980371632,-0.573676800314,-0.0121172011591,0.0,-0.00645229765374,0.0119087690459,-0.99990827033,0.0,0.265576830788,-0.259123763715,0.304919198046,1.0,-0.00743157894737,-0.00976721804512,3.01
-0.64515875375,-0.51960703394,-0.124964586304,-2.64079568488,-0.0672317198591,2.11068887403,-0.892718966353,-0.0369587204541,0.0046609833783,0.00275313986194,0.00507538312844,-0.000115081998468,-5.17409329557e-05,-0.0317203750435,0.573766859559,0.818984583032,0.00604901056844,0.0,0.818981538084,-0.573675279233,-0.0121103747032,0.0,-0.00644816649692,0.0119027888063,-0.999908368186,0.0,0.265463065728,-0.259276812886,0.304922202514,1.0,-0.00713157894737,-0.00937293233083,3.025
-0.645768871449,-0.519543438733,-0.124960328235,-2.64074569327,-0.0672174715279,2.11070606939,-0.893268485277,-0.0339651109514,3.32970866625e-05,0.000539421752137,0.00285338912838,0.00164404848333,0.0001478642028,-0.0260719889454,0.573822155915,0.818945767887,0.00605884002974,0.0,0.818942894117,-0.573730600719,-0.0121029283554,0.0,-0.00643562393151,0.0119070016774,-0.999908398832,0.0,0.2653198599,-0.259450444438,0.304923088795,1.0,-0.00677157894737,-0.00889978947369,3.043
-0.646320730631,-0.519490399667,-0.124950899791,-2.64070657105,-0.0672090678619,2.11071804113,-0.89378711692,-0.0291239981096,0.00400251935635,-1.66278037172e-05,-0.000813448712644,0.00425986257317,-0.000609813950895,-0.0242553445843,0.57384832541,0.818927403442,0.00606252570042,0.0,0.818924584676,-0.573756761561,-0.0121016560082,0.0,-0.00643208645701,0.011909495671,-0.999908391892,0.0,0.265189167726,-0.259604680427,0.304922593021,1.0,-0.00643157894737,-0.00845293233083,3.06
-0.646764688275,-0.519463142636,-0.124954328238,-2.64066244254,-0.0671983045371,2.1107313552,-0.894211456785,-0.0270397359394,-0.00124234371401,-9.15257699771e-05,0.00334193612983,5.44308034745e-05,0.00142767766285,-0.0236191033299,0.573873576916,0.818909640604,0.00607166734589,0.0,0.81890714639,-0.573782349369,-0.0120684731633,0.0,-0.00639929667279,0.0118981387182,-0.999908737484,0.0,0.265085777458,-0.259734729004,0.30493367318,1.0,-0.00613157894737,-0.00805864661655,3.075
-0.647263202437,-0.519395328321,-0.124935519918,-2.64059080489,-0.0671869329627,2.11075132736,-0.894679004326,-0.0340950697457,0.00706317782176,0.00360047574587,0.00841482314579,0.000186410792461,0.00103559852312,-0.0308348964826,0.573894077022,0.818895304624,0.00606756338055,0.0,0.818892932377,-0.57380318913,-0.0120421073073,0.0,-0.00637976074386,0.0118798075507,-0.99990908028,0.0,0.264979515781,-0.259881546122,0.304943417349,1.0,-0.00579157894737,-0.00761178947369,3.092
-0.647782555608,-0.519353766223,-0.124932006444,-2.64050881574,-0.0671744316492,2.11077818636,-0.895178023609,-0.0286577839746,0.00418049499507,-0.000915445609955,0.00457169146123,-0.000175053654206,-0.000624963727413,-0.0296563507979,0.573917542309,0.818878847524,0.00606915227185,0.0,0.818876942742,-0.573827477295,-0.0119718774017,0.0,-0.00632099253063,0.0118409872883,-0.999909913979,0.0,0.26486859489,-0.260041130101,0.304967755418,1.0,-0.00541157894737,-0.00711236090226,3.111
-0.648133620881,-0.519307967555,-0.124920234676,-2.64044605022,-0.0671609153093,2.11079224571,-0.895515393332,-0.025890114785,0.0045700280292,0.00109622209914,0.0051345795098,-0.000117795633764,0.00184056806074,-0.0196047349497,0.573929287511,0.818870610473,0.00606985524175,0.0,0.81886892504,-0.573839611503,-0.0119386253429,0.0,-0.00629318721233,0.011822570195,-0.999910307292,0.0,0.264796703298,-0.260147414301,0.304980901993,1.0,-0.00513157894737,-0.00674436090226,3.125
-0.648547073995,-0.519238014508,-0.124906475513,-2.64039586257,-0.0671434392203,2.11080969548,-0.895926434728,-0.0195357830194,0.00316897666435,-0.000381449983016,0.0064518144717,2.75318207052e-06,0.000146948070219,-0.0223891342049,0.573931604048,0.818868940327,0.00607612906798,0.0,0.818867334612,-0.573841898477,-0.0119377870094,0.0,-0.00628886663864,0.0118272445728,-0.999910279196,0.0,0.264706424159,-0.260266202872,0.304979778541,1.0,-0.00477157894737,-0.00627121804512,3.143
-0.648886093325,-0.519207123833,-0.124887521327,-2.64036163262,-0.0671287986612,2.1108131418,-0.896273478619,-0.0213096146765,0.00499963653313,0.00355801886643,0.00444263499763,0.0058981297764,0.000131533098288,-0.0180479119997,0.573919563929,0.818877357114,0.00607906629918,0.0,0.818875844237,-0.573829951739,-0.0119283323909,0.0,-0.00627961188399,0.0118241315233,-0.999910374178,0.0,0.264631334815,-0.260359026942,0.304984709994,1.0,-0.00445157894737,-0.00585064661655,3.159
-0.649225376235,-0.519157435497,-0.124849969854,-2.64034502136,-0.0671065147734,2.11081520977,-0.89660203802,-0.0221014896346,0.00255710848398,0.0026454293005,0.00127691485559,0.00309107519738,-0.000204328479169,-0.0233716230607,0.573912224347,0.818882475911,0.00608245776885,0.0,0.818880827159,-0.573822261227,-0.0119561839104,0.0,-0.006300581118,0.011842836163,-0.999910020906,0.0,0.264556189341,-0.260442031923,0.304975039723,1.0,-0.00411157894737,-0.00540378947369,3.176
-0.649548540227,-0.519088406258,-0.12478545663,-2.64033529885,-0.0670860141014,2.11082146464,-0.896924745204,-0.0137837584117,0.00730173996629,0.00464309525098,-0.0012192666299,0.000315514553942,0.000461312352473,-0.0154162309071,0.573876367855,0.818907680775,0.00607220608346,0.0,0.818905586953,-0.573785870677,-0.0120067135222,0.0,-0.00634836609537,0.0118631610355,-0.999909477732,0.0,0.264489577491,-0.260513532907,0.304956108769,1.0,-0.00375157894737,-0.00493064661655,3.194
-0.649811490927,-0.519044274432,-0.124744340353,-2.64031964249,-0.0670611322316,2.11082699247,-0.897191046529,-0.0139612968899,0.00226004225789,0.00548618987328,0.00158994486981,2.05550050551e-06,-0.000146409139396,-0.0109809712303,0.573856007213,0.818921929025,0.00607487027423,0.0,0.818919737357,-0.573765255571,-0.0120267272825,0.0,-0.00636352372815,0.0118766695303,-0.999909221023,0.0,0.26443573615,-0.26057560428,0.304948429402,1.0,-0.00343157894737,-0.00451007518798,3.21
-0.650061009603,-0.519000138452,-0.124706967518,-2.64029777761,-0.0670407137916,2.11083348709,-0.897436008261,-0.0135280109331,0.00249654018535,0.00126003063121,0.0023153447659,0.00051878350904,-0.000563866666516,-0.00600705101639,0.573843158509,0.818930936387,0.00607435276791,0.0,0.818928651793,-0.573752250996,-0.0120401266952,0.0,-0.00637498139296,0.011883834655,-0.999909062908,0.0,0.264385745658,-0.260637110885,0.304943560122,1.0,-0.00311157894737,-0.0040895037594,3.226
-0.650299488849,-0.518952529768,-0.124674847031,-2.64027621609,-0.0670133143876,2.1108450738,-0.897689536314,-0.014428010824,-0.00163347104589,0.000446598761387,0.00409042222454,0.00517798643678,-1.66654568554e-05,-0.0172358900873,0.573820955025,0.818946437164,0.00608206638621,0.0,0.818944169704,-0.573729863919,-0.01205143384,0.0,-0.00638013852332,0.0118964671261,-0.9999088798,0.0,0.264338757897,-0.260696707237,0.30493758875,1.0,-0.00277157894737,-0.00364264661655,3.243
-0.650503462573,-0.518902086301,-0.124653812803,-2.64025133038,-0.0669973333104,2.11085153882,-0.897913734025,-0.00424346383833,0.00312843733293,0.000973823022286,0.00231469021245,0.000221023879287,0.00292268517199,-0.015207433276,0.573797676331,0.818962722374,0.00608546638564,0.0,0.818960384409,-0.573706361574,-0.0120684033588,0.0,-0.00639242476483,0.0119088069762,-0.999908654439,0.0,0.264297205202,-0.26075083963,0.304931377915,1.0,-0.00243157894737,-0.00319578947369,3.26
-0.650690694924,-0.518883997892,-0.124632652423,-2.64024903303,-0.0669761697587,2.11085871125,-0.898107110097,-0.00785060047184,-0.00168596095188,0.00179816516653,-0.000577788715603,0.000301273995156,0.000385413303583,-0.019330205661,0.573786851104,0.818970237527,0.00609478841663,0.0,0.818967971435,-0.573695405978,-0.0120743457296,0.0,-0.00639210074285,0.0119197668136,-0.99990852592,0.0,0.26425614662,-0.260794843419,0.304926884257,1.0,-0.00211157894737,-0.00277521804512,3.276
-0.650891592387,-0.518863262942,-0.1246130664,-2.64023626134,-0.0669537920791,2.1108594425,-0.898279063484,-0.00659148311547,0.00220073112057,-0.000312692552049,-0.00185870950085,0.00013229899395,-0.00022941733911,-0.00712439795011,0.573806896104,0.81895611755,0.00610494986736,0.0,0.818953945285,-0.573715330754,-0.0120789760327,0.0,-0.00638977100624,0.0119309022319,-0.999908408005,0.0,0.264212608749,-0.260844410221,0.304925589024,1.0,-0.00175157894737,-0.00230207518798,3.294
-0.651056419841,-0.51885259889,-0.124582351572,-2.6402262087,-0.066933911121,2.11086302863,-0.898427712238,-0.00975675162005,-0.000348928267694,0.000528787388644,0.000126935308835,-7.47310975541e-05,0.000286553025931,-0.0106467559939,0.573807351162,0.818955784295,0.00610688323818,0.0,0.818953667027,-0.573715833006,-0.012073985358,0.0,-0.00638456746707,0.0119296256605,-0.999908456475,0.0,0.264180727842,-0.260882138532,0.304927270399,1.0,-0.00143157894737,-0.00188150375941,3.31
-0.651217017603,-0.518850963775,-0.124559473276,-2.6402143678,-0.0669167276298,2.11085915852,-0.898564510584,-0.00878097280435,-0.000394828443561,-0.000267926903503,0.000739539856166,-2.69745470596e-05,-0.00762067441803,-0.0104546569847,0.573818498881,0.818947946545,0.00611049048902,0.0,0.818945925872,-0.573727055501,-0.0120657856676,0.0,-0.00637561943038,0.0119279619609,-0.999908533417,0.0,0.264147427105,-0.26092029495,0.3049322668,1.0,-0.00109157894737,-0.00143464661655,3.327
-0.651351583589,-0.518838086683,-0.12453759029,-2.64020768795,-0.0668967795789,2.11086474179,-0.898637508025,-0.0109445455974,0.00248703097466,0.00209442093273,0.00133791715772,0.000355855947468,9.59160837651e-05,-0.000396009634312,0.573862271765,0.818917230731,0.00611630265886,0.0,0.818915291652,-0.573770805017,-0.0120646305672,0.0,-0.00637070060934,0.0119323998167,-0.999908511819,0.0,0.264121003894,-0.26095132096,0.304931563308,1.0,-0.000751578947374,-0.000987789473691,3.344
-0.651419359972,-0.518840176767,-0.124529608979,-2.640207094,-0.0668761428804,2.11086070988,-0.898684656491,-0.00226693929854,-0.00162058329539,0.00112733891768,-2.81084965112e-05,0.000519192679711,-8.91639924505e-05,-0.00684050478308,0.573882324784,0.818903070723,0.0061306575382,0.0,0.818901309932,-0.573790775356,-0.0120638969061,0.0,-0.00636156995891,0.0119438906481,-0.99990843276,0.0,0.264106453135,-0.260965011687,0.304932459579,1.0,-0.000431578947374,-0.00056721804512,3.36
-0.651434174789,-0.518831307045,-0.124515430286,-2.64019934313,-0.0668599835146,2.11086260224,-0.898718958013,-0.000417901184616,0.000908899153121,0.00497892994894,0.000552576175941,0.000407276954949,5.60491672929e-05,0.00127214998471,0.57386360042,0.818916146966,0.00613671354465,0.0,0.818914469858,-0.573772037748,-0.0120617849996,0.0,-0.0063566382468,0.0119474929127,-0.999908421088,0.0,0.264109008685,-0.260966297734,0.30493321989,1.0,-7.15789473736e-05,-9.40751879768e-05,3.378
-0.651429120465,-0.518833377785,-0.124492485407,-2.64020625576,-0.0668454458448,2.11086546315,-0.898735825578,-0.000714347899236,-0.000477658667775,0.00138484052857,-0.000687602619455,-0.000157218751965,-0.000249647365994,0.000392126677768,0.573835243342,0.818936004648,0.00613845993704,0.0,0.818934339499,-0.573743658842,-0.0120626874748,0.0,-0.00635678900992,0.0119492208961,-0.999908399481,0.0,0.26411554856,-0.260957145375,0.304931634205,1.0,0.0,0.0,3.394
-0.651413566055,-0.518827834825,-0.124449246504,-2.64019838989,-0.0668259215001,2.11086162841,-0.898742750209,0.000684851148019,-4.54698169284e-05,0.00155323219158,0.00180573006828,0.00449384786966,0.00336216290142,-0.00173260692054,0.573794882336,0.818964324379,0.00613313140576,0.0,0.818962587408,-0.573703324954,-0.0120632609354,0.0,-0.006360904929,0.0119448725298,-0.999908425261,0.0,0.264131865891,-0.260943007166,0.304933867806,1.0,0.0,0.0,3.411
-0.651418855648,-0.518827026904,-0.124408924575,-2.64018694429,-0.0668190433985,2.11086814511,-0.898743161518,-0.000154246462146,-0.00217500990065,-0.00130062909171,0.00232137973191,0.00099415442906,-0.00199553276356,0.00181346456391,0.573773734045,0.818979264961,0.00611658284394,0.0,0.818977435022,-0.573682482513,-0.0120464552357,0.0,-0.00635694301477,0.0119215124573,-0.999908729243,0.0,0.264143538297,-0.260938744149,0.304940277946,1.0,0.0,0.0,3.43
-0.65141251346,-0.518825236502,-0.124389895436,-2.64020396431,-0.0668128287195,2.11086784649,-0.898749423832,0.00032655336871,0.000123558189213,0.000856006390195,-0.000649760281705,-0.00039981782301,5.54535840507e-05,0.00035697715211,0.573751789888,0.818994649543,0.00611510608806,0.0,0.81899268086,-0.573660325435,-0.0120650993165,0.0,-0.00637338074523,0.0119308291623,-0.999908513482,0.0,0.264145907249,-0.260927845195,0.304932310696,1.0,0.0,0.0,3.446
-0.651412747029,-0.518818492099,-0.124386510284,-2.64019622171,-0.0668065972284,2.11087125295,-0.898754759111,-0.00282314820101,0.000954983474262,0.000572158396096,0.00151769376305,-0.000292404345593,4.26676522991e-05,-0.00192036023803,0.573748254511,0.818997108325,0.00611750780389,0.0,0.818995198725,-0.573656832487,-0.0120602614825,0.0,-0.00636809173583,0.0119299931834,-0.999908557154,0.0,0.264149308611,-0.260928887511,0.304933718961,1.0,0.0,0.0,3.463
-0.65141501868,-0.518818924514,-0.124384120505,-2.64018888952,-0.066799891263,2.11087526607,-0.898753378401,0.000348026964251,0.000357023435392,0.000847103373833,-0.00144520665746,0.000371718906912,0.000293314766672,0.000254687682745,0.573752742894,0.81899394217,0.00612042576793,0.0,0.818992145688,-0.573661448174,-0.0120480322624,0.0,-0.00635633550769,0.0119254017902,-0.999908686726,0.0,0.264152165436,-0.260930739465,0.304937612428,1.0,0.0,0.0,3.478
-0.651417884058,-0.518823860601,-0.124380894842,-2.64018360499,-0.0667965205,2.11087292639,-0.898754205285,-0.000430364114235,-0.0019775677417,0.000606099123569,0.00121580620847,0.000434810582026,-0.000365656787516,0.000874353252572,0.573753782458,0.818993209794,0.00612097436867,0.0,0.818991471306,-0.5736625806,-0.0120399521701,0.0,-0.0063493873668,0.0119212234227,-0.999908780696,0.0,0.264153376796,-0.260931562236,0.30494170953,1.0,0.0,0.0,3.495
-0.651417775794,-0.518821186226,-0.124380868148,-2.64018886723,-0.0667957278533,2.11087211405,-0.898756101088,-0.00114125009455,0.000245392805459,0.0011867731571,0.000406899881362,-0.000175276698785,6.94036387188e-07,0.000281720397148,0.573752232103,0.818994283525,0.00612263103976,0.0,0.818992510063,-0.573660917313,-0.0120485397351,0.0,-0.00635549339217,0.0119274951713,-0.99990866711,0.0,0.264152085796,-0.260929937602,0.304938265514,1.0,0.0,0.0,3.512
-0.651422926715,-0.518815657641,-0.124382450911,-2.64019103979,-0.0667956749364,2.11087211308,-0.898755793935,-0.00209300720924,-0.000188263463496,0.000501395959123,-0.00099407468032,2.44326453074e-05,0.000300790491674,0.00122638613016,0.573757774662,0.818990390383,0.00612399995271,0.0,0.818988585327,-0.573666360069,-0.0120561739356,0.0,-0.00636088030275,0.011933039334,-0.999908566707,0.0,0.264149778957,-0.260930986706,0.304935205211,1.0,0.0,0.0,3.529
-0.651425972128,-0.518815306615,-0.124384045467,-2.64018779129,-0.0667962722867,2.11087211259,-0.898758146772,-0.000720935612625,0.00099869040546,0.00646692290501,-0.000694393116733,-6.33598196869e-05,-2.85084409957e-05,-0.000438126766296,0.573759369198,0.818989274441,0.00612384762309,0.0,0.818987485843,-0.573667989526,-0.0120533284894,0.0,-0.00635861382302,0.0119312944337,-0.999908601945,0.0,0.264149320724,-0.260933027335,0.30493651406,1.0,0.0,0.0,3.546
-0.651418177833,-0.518814936726,-0.124385946154,-2.64019563893,-0.0667956619351,2.11087048501,-0.898762012333,0.000884745479427,-0.000780472643728,0.000231253231591,-0.000528535935778,0.000221026617733,-7.09131132385e-05,-0.000999457274038,0.573751070903,0.818995066509,0.00612670983524,0.0,0.818993249983,-0.57365955829,-0.0120629418778,0.0,-0.006364966773,0.0119390896848,-0.999908468479,0.0,0.264148927454,-0.260929072889,0.304932629133,1.0,0.0,0.0,3.563
