nelsonifechukwu/NELSON_IML_WORK/CNN-GradCAM/train2dof/data_sample_2022-02-21-07-48-24/robot_state.csv
position_joint1,position_joint2,position_joint3,position_joint4,position_joint5,position_joint6,position_joint7,velocity_joint1,velocity_joint2,velocity_joint3,velocity_joint4,velocity_joint5,velocity_joint6,velocity_joint7,ee_T_00,ee_T_10,ee_T_20,ee_T_30,ee_T_01,ee_T_11,ee_T_21,ee_T_31,ee_T_02,ee_T_12,ee_T_22,ee_T_32,ee_T_03,ee_T_13,ee_T_23,ee_T_33,v_x,v_y,time
0.465094541756,0.547508407617,-0.124005533594,-1.35573655381,0.0794191573434,1.89411833789,0.159129804896,0.000677465714671,0.00135689011427,-0.00186880188979,0.00016995738275,-2.88607226372e-05,0.000338238088269,0.000161304086646,0.57374941618,0.81901610674,0.00222962643651,0.0,0.818977526237,-0.573690694866,-0.0116423813757,0.0,-0.00825634088805,0.0085059872273,-0.99992973804,0.0,0.661712983114,0.260897634058,0.30345548984,1.0,0.0,0.0,0.0
0.465091497259,0.547508371704,-0.1240002351,-1.35573974287,0.0794216703036,1.89411988921,0.159135754735,0.000549116685867,0.00138906535806,-0.000559021465918,0.000233479279317,-0.000297514993528,-0.00010183523314,0.00106612367512,0.573753930532,0.819012940747,0.00223091663358,0.0,0.818974328227,-0.57369515372,-0.0116476265391,0.0,-0.00825984983119,0.00851009880527,-0.999929674077,0.0,0.661711998898,0.260898820322,0.303453961249,1.0,-0.0003,-0.000394285714286,0.016
0.46509385972,0.547507300868,-0.123998046104,-1.35574589149,0.0794235512381,1.89411931011,0.159135779363,-0.00327253198606,0.00256029589178,0.000458609073193,-0.00165189667777,0.00025820370471,-0.000215450180579,0.00113548527757,0.573751315286,0.819014781026,0.002227906978,0.0,0.818976095206,-0.573692514547,-0.0116533744108,0.0,-0.00826631148697,0.00851090531431,-0.999929613815,0.0,0.661709277367,0.260901199254,0.303451673534,1.0,-0.00062,-0.000814857142857,0.032
0.465093241015,0.547456835879,-0.124000679887,-1.35578109289,0.0794196359847,1.89412439076,0.159127907153,0.000932135247775,-0.00621321532119,0.00102714727403,-0.00291970533925,7.94255895712e-05,0.000448598154814,-0.00186384648437,0.573748041371,0.819017028559,0.00224473933912,0.0,0.81897857925,-0.573689198143,-0.0116420601518,0.0,-0.00824742158874,0.00851816664545,-0.999929707967,0.0,0.661704539682,0.260895461969,0.303471189008,1.0,-0.00096,-0.00126171428571,0.049
0.465090317537,0.547321933246,-0.123998715958,-1.35591532544,0.0794153775639,1.89414371784,0.159131698414,-0.00118445678762,-0.00804458307329,-8.67727363796e-06,-0.00399598942209,-0.000174781720817,0.000262197025868,0.00147162774572,0.5737582575,0.819009811211,0.00226671388475,0.0,0.81897156669,-0.573699249977,-0.0116400357227,0.0,-0.00823304991591,0.00853510516218,-0.999929681962,0.0,0.661681732831,0.26088112346,0.303504462959,1.0,-0.0013,-0.00170857142857,0.066
0.465079033232,0.547192331483,-0.124003431395,-1.35610632854,0.0794125030811,1.89418491071,0.159127842307,-0.00117689144224,-0.00579296982643,-0.00170990194631,-0.0108688561649,0.000188231645075,0.00127246854757,-8.4711436807e-05,0.573777359996,0.818996463129,0.00225420472939,0.0,0.818957967431,-0.573718303764,-0.0116577188704,0.0,-0.00825451093428,0.00853519840943,-0.999929504234,0.0,0.661653766772,0.260852283882,0.303509076974,1.0,-0.00164,-0.00215542857143,0.083
0.465063539884,0.547008553332,-0.124001874678,-1.35632771045,0.0794093314689,1.89430097867,0.159120134326,-0.000899909624637,-0.0109199567068,0.00664071515526,-0.00804076878382,-0.00118183497769,0.00915564904056,-0.00294208332358,0.573794344892,0.818984361422,0.00232646017002,0.0,0.818946749422,-0.573734968929,-0.0116255727213,0.0,-0.00818654831439,0.00857609999401,-0.999929712998,0.0,0.661634870041,0.2608264471,0.303543902616,1.0,-0.002,-0.00262857142857,0.101
0.465038895108,0.546829383654,-0.124000514833,-1.35650919513,0.0794001556039,1.89441453016,0.159113037633,-0.000629822643681,-0.0149850450509,-0.000459028023862,-0.0106533671374,-0.00025853423777,0.00838498569883,0.000306012101998,0.573815666761,0.818969145287,0.00242209613489,0.0,0.818932810385,-0.573755990637,-0.0115698826431,0.0,-0.0080858404095,0.00862267993128,-0.999930131847,0.0,0.661627257514,0.260797975542,0.303594228152,1.0,-0.0023,-0.00302285714286,0.116
0.465007335658,0.546589933509,-0.12399814183,-1.35682208881,0.0793855389234,1.89455655028,0.159095640371,-0.000399307794844,-0.0161049016759,7.0889721638e-05,-0.0214872932481,-0.000839917966896,0.0123272593832,-0.00114169774976,0.573839329856,0.818952382587,0.00248303570502,0.0,0.818916822537,-0.573779426299,-0.0115392643839,0.0,-0.00802554777489,0.0086552500913,-0.999930336188,0.0,0.661598640745,0.260751754035,0.303627114362,1.0,-0.00268,-0.00352228571429,0.135
0.464972254866,0.546374024931,-0.1239990942,-1.35714604918,0.0793683035606,1.89466877557,0.159073338275,-0.00375997897829,-0.0139492422558,7.32953282611e-05,-0.0261188886098,-0.00174115876552,0.0056470666592,-0.00159743940206,0.573863948492,0.818935117322,0.00248779812507,0.0,0.818899594558,-0.573803999451,-0.0115399804279,0.0,-0.008023141182,0.00865980233789,-0.999930316087,0.0,0.661562732943,0.260697201115,0.303635559606,1.0,-0.00298,-0.00391657142857,0.15
0.464942986631,0.546118288985,-0.124001673872,-1.35753589546,0.0793349007721,1.89481371857,0.15897654749,-0.00289900671761,-0.0142666125455,-0.00102170758076,-0.0233885112902,-0.00318198438805,0.00326990055838,-0.00618166930026,0.573823394499,0.818963522799,0.0024914156982,0.0,0.818928137089,-0.573763535597,-0.0115264219821,0.0,-0.0080103898969,0.00865458763226,-0.999930463466,0.0,0.661519028148,0.260637858481,0.303643701478,1.0,-0.0033,-0.00433714285714,0.166
0.464896633012,0.545804235292,-0.124003417549,-1.35804728518,0.0792915226323,1.89497765144,0.158902659814,-0.00611969404325,-0.0122121053779,-0.000625084540504,-0.0282839748811,-0.000299560441107,0.0102949105848,0.000271059037931,0.573819011147,0.818966700652,0.00245612911257,0.0,0.81893093768,-0.573759358072,-0.011535390613,0.0,-0.00803802848506,0.00863079272147,-0.999930447339,0.0,0.661457540367,0.26055370666,0.303636864472,1.0,-0.00366,-0.00481028571429,0.184
0.464845364022,0.545501805564,-0.123998839781,-1.35855650617,0.079261630342,1.89515305394,0.158863616008,-0.0110243320738,-0.0183070711388,0.000986328324458,-0.0326107115495,-0.000403590115605,0.00792339385231,-0.00527269772265,0.573846304164,0.818947653867,0.00243029320359,0.0,0.818911509834,-0.573786686389,-0.0115552795314,0.0,-0.00806885452822,0.0086213155164,-0.999930280822,0.0,0.661397560603,0.260473036772,0.303623622759,1.0,-0.00398,-0.00523085714286,0.2
0.464786531379,0.54514390601,-0.124003812636,-1.3591780521,0.0792295584391,1.89536109347,0.158771302557,-0.00529585840494,-0.0273298372545,-0.000308492466821,-0.0368288312003,-0.00865653072335,0.00934200274708,-0.00455105966437,0.573848497773,0.818946251913,0.00238432014063,0.0,0.818909456011,-0.573788979589,-0.0115869176155,0.0,-0.00812112248869,0.00860184318892,-0.999930025383,0.0,0.66132398426,0.260371094267,0.303599307133,1.0,-0.00432,-0.00567771428571,0.217
0.464717841476,0.544722655931,-0.124009797751,-1.35991328819,0.0792060401443,1.89558809299,0.158680833434,-0.00647820313031,-0.0248838180266,0.00476681453608,-0.0402597699447,-0.000100001860221,0.00864918686955,-0.00213978458717,0.573869439486,0.818931761094,0.00232034400304,0.0,0.818893921127,-0.573809920798,-0.0116476451372,0.0,-0.00820734815311,0.00858450846364,-0.999929470338,0.0,0.661231974024,0.260252056751,0.303567382409,1.0,-0.00468,-0.00615085714286,0.235
0.464659554439,0.544348106454,-0.124009791634,-1.36055353047,0.079173371985,1.89580518851,0.158628504188,-0.00264425666052,-0.0275356353822,-0.000183310737368,-0.0426751674854,-0.000465966912211,0.0169024750133,-0.0045468856538,0.573901275874,0.818909560067,0.00228142122315,0.0,0.818871134069,-0.573841810891,-0.0116785599912,0.0,-0.00825466846644,0.00857069547605,-0.999929199307,0.0,0.661154939652,0.260151885321,0.303546513917,1.0,-0.00498,-0.00654514285714,0.25
0.464589947138,0.543846328498,-0.124011576172,-1.361368236,0.0791335939389,1.89609729447,0.158493509762,-0.00875162948726,-0.0263442371838,-0.000656103665104,-0.0450571041589,-0.00178029786037,0.0177236025334,-0.00948634099371,0.573886308069,0.818920110955,0.00225924457753,0.0,0.818881276445,-0.573826802036,-0.011704838972,0.0,-0.00828907252904,0.00856746485788,-0.999928942387,0.0,0.661053795701,0.26001865849,0.303533106614,1.0,-0.00536,-0.00704457142857,0.269
0.464521325582,0.543352641812,-0.12401442123,-1.36219931209,0.0790778578629,1.89638039097,0.158422524721,-0.00532411441061,-0.0256721419173,-0.000164465202364,-0.0511854766032,-0.00600685473209,0.0143322320002,-0.00425489801822,0.573915188381,0.818899985837,0.00221735043215,0.0,0.818860657527,-0.573855887445,-0.011721386446,0.0,-0.00832636390288,0.00854294722127,-0.999928842327,0.0,0.660959559868,0.25989911487,0.303517460338,1.0,-0.00568,-0.00746514285714,0.285
0.464452539473,0.542851052491,-0.124017316394,-1.36300337274,0.0790157187874,1.89665636655,0.158309855507,-0.00774064921093,-0.0326497813067,-0.00039048372635,-0.0536036894332,-0.000847938318395,0.018029916828,-0.00657871729301,0.573909337458,0.818904168396,0.0021868387979,0.0,0.818864541977,-0.573850252942,-0.011725868525,0.0,-0.00834760533318,0.00852047423248,-0.999928856971,0.0,0.66086466186,0.259771790738,0.303513524294,1.0,-0.006,-0.00788571428571,0.301
0.464376039264,0.542274901942,-0.124015613017,-1.3639084287,0.078978566344,1.89698003784,0.158183957853,-0.0125727374808,-0.0315410133084,0.00189496666297,-0.053276313607,0.000429101223382,0.0208470814859,-0.0127341656713,0.573908031695,0.818905068264,0.00219253938073,0.0,0.818865328564,-0.573848734438,-0.0117452357058,0.0,-0.0083602080585,0.00853624393524,-0.999928617183,0.0,0.660757404418,0.259638311515,0.303518229772,1.0,-0.00634,-0.00833257142857,0.318
0.464303373253,0.541701980011,-0.124023701686,-1.36479390536,0.078925234913,1.89730680533,0.158055865342,-0.00697925187095,-0.0389618350428,-1.16776684988e-05,-0.0550815860803,-0.00268247277583,0.0181237716571,-0.00379368202465,0.573903243641,0.81890839651,0.00220271787587,0.0,0.818868817049,-0.573843936893,-0.0117364158689,0.0,-0.00834719391161,0.00853946852844,-0.999928698374,0.0,0.660657205928,0.259501572781,0.303530458089,1.0,-0.00666,-0.00875314285714,0.334
0.464219591488,0.541065515672,-0.124029661673,-1.36575570227,0.0788677060626,1.89767094258,0.157942317178,-0.00695330698625,-0.0418915080227,0.000583470725045,-0.0565843835326,-0.00305552069352,0.0234915395846,-0.00919898072284,0.573921066072,0.818895820408,0.00223430932386,0.0,0.818856679182,-0.573861666596,-0.011716376209,0.0,-0.00831246707634,0.00855401892894,-0.999928863295,0.0,0.660551014573,0.259352363001,0.303554373777,1.0,-0.007,-0.0092,0.351
0.464133972182,0.540379809086,-0.124029039243,-1.36680456587,0.0788002460165,1.89805639185,0.157799491946,-0.00402909418573,-0.043949078831,0.000293574075607,-0.061445724994,-0.00554958074154,0.0209806377529,-0.0154001656057,0.573913841906,0.818900836783,0.00225133007573,0.0,0.818861935722,-0.573854399395,-0.0117049315204,0.0,-0.00829340222176,0.00856131555371,-0.999928959154,0.0,0.660429619259,0.259195915425,0.303573178004,1.0,-0.00734,-0.00964685714286,0.368
0.46403504101,0.53966900662,-0.124035367107,-1.36791212334,0.0787370749133,1.89847115651,0.157663735317,-0.0038589942756,-0.0408987189197,-0.000808992822679,-0.0656043395291,-0.00118855800823,0.0267111718279,-0.0028490395948,0.573932579039,0.81888766306,0.00226647440283,0.0,0.818848952988,-0.573873072081,-0.0116977019675,0.0,-0.00827859458759,0.00856975744515,-0.999929009545,0.0,0.660305776786,0.259022699563,0.30358445938,1.0,-0.00768,-0.0100937142857,0.385
0.463915660559,0.538883970169,-0.124033945061,-1.36913027921,0.0786677523439,1.89892292678,0.157510849032,-0.0114332184982,-0.0413451840841,-0.00114812265937,-0.0654047187888,-0.00700854079867,0.0215802230964,-0.00930487535618,0.573952940716,0.818873341413,0.00228461547522,0.0,0.818834812964,-0.57389330819,-0.011694733572,0.0,-0.00826553916128,0.00858311466146,-0.999929002982,0.0,0.660169330191,0.258829852595,0.303598376938,1.0,-0.00804,-0.0105668571429,0.403
0.463822473962,0.538201645208,-0.12404393379,-1.37019909089,0.078612389282,1.8993353765,0.157381970182,-0.0145038888762,-0.0446023732346,-0.001376398354,-0.0666548208564,-8.81075601492e-05,0.0289601864037,-0.0110801067095,0.573975047592,0.81885778036,0.00230807008744,0.0,0.818819535949,-0.573915304654,-0.0116849275741,0.0,-0.00824381582856,0.00859691525562,-0.999929063758,0.0,0.660051709256,0.258663657328,0.303607683916,1.0,-0.00834,-0.0109611428571,0.418
0.463721720244,0.537413015239,-0.124048586538,-1.37143978924,0.0785238396906,1.89979886261,0.157228231466,-0.0102970652525,-0.0521126519214,-0.00054669717506,-0.0723618731989,-0.00586247053132,0.0260674852131,-0.0162400217639,0.573979649944,0.818854553821,0.00230825427597,0.0,0.818816444911,-0.573920044619,-0.0116687115415,0.0,-0.00823038264631,0.00858780486795,-0.999929252702,0.0,0.659909618388,0.258474669785,0.303614336241,1.0,-0.00868,-0.011408,0.435
0.463589414634,0.536496698877,-0.124055174458,-1.37289036699,0.0784553111337,1.90034419004,0.157053292238,-0.00922128704372,-0.0496346755524,-7.08238167953e-05,-0.077023948324,-0.000737709342379,0.0269842896761,-0.0163035869065,0.574010973398,0.818832548562,0.00232523885025,0.0,0.818794521137,-0.57395115704,-0.0116768313472,0.0,-0.008226954437,0.00860668786412,-0.99992911856,0.0,0.659745753775,0.2582492962,0.303618302636,1.0,-0.00906,-0.0119074285714,0.454
0.463487945773,0.535684685814,-0.124066993323,-1.37415805328,0.0783739613997,1.90080401429,0.156905360786,-0.00753724268714,-0.0514771517471,0.000634009516173,-0.0806305385156,-0.00610288062254,0.0344409696114,-0.00413735771719,0.574029040435,0.818819889282,0.00232304854161,0.0,0.818781906031,-0.573969305797,-0.0116693299409,0.0,-0.0082218791881,0.00860076997267,-0.999929211224,0.0,0.659598117961,0.258053725441,0.303628237723,1.0,-0.00938,-0.012328,0.47
0.463381922707,0.534842208812,-0.124065247741,-1.37547596181,0.078291639699,1.90128485592,0.15674810538,-0.00711852785312,-0.0462011084088,0.000702262190403,-0.0743026456375,-0.00316184501247,0.0278213033572,-0.0080746109592,0.574036059188,0.818814959689,0.00232625066965,0.0,0.818777009108,-0.573976302728,-0.0116687687432,0.0,-0.00821950790045,0.00860314022774,-0.999929210328,0.0,0.65944165579,0.257858746819,0.303636995628,1.0,-0.0097,-0.0127485714286,0.486
0.463265179617,0.534011232159,-0.124071209446,-1.37686001555,0.07822713307,1.90178711323,0.156579016646,-0.00255918563373,-0.0482181661885,0.000928119295167,-0.086589806243,-0.00486360046221,0.0297183945336,-0.0112402787486,0.574056008992,0.818801074393,0.00229041765494,0.0,0.818762487546,-0.573996203384,-0.011708731334,0.0,-0.00827259003097,0.0085969411544,-0.999928825896,0.0,0.659277018452,0.257648560936,0.303608167174,1.0,-0.01002,-0.0131691428571,0.502
0.463119247095,0.533033595845,-0.124074416637,-1.37843044218,0.0781256413046,1.90237051534,0.156384744823,-0.00882415087486,-0.0512017236391,-0.00228317178707,-0.0894460725466,-0.00777810359756,0.0310909336109,-0.00405477616138,0.574077391751,0.818786121344,0.00227654918168,0.0,0.818747409861,-0.574017692611,-0.0117095822901,0.0,-0.00828102339283,0.0085862905182,-0.999928847602,0.0,0.65909763734,0.257400091449,0.303600776727,1.0,-0.01038,-0.0136422857143,0.52
0.463006326182,0.532196338493,-0.124074434491,-1.37976718215,0.0780576380015,1.90288400507,0.156210968487,-0.00617330981471,-0.0564307682061,-0.00105819003881,-0.0897095682113,-0.00507972361533,0.037496245755,-0.015625278343,0.574077724386,0.818785839308,0.00229403869272,0.0,0.818747279696,-0.574017882096,-0.0117093947772,0.0,-0.00827082663766,0.00860050623321,-0.999928809826,0.0,0.658933530512,0.257185489051,0.30360109201,1.0,-0.0107,-0.0140628571429,0.536
0.462866045369,0.531147846157,-0.124066776601,-1.38144407689,0.0779455765094,1.90349411531,0.155994673554,-0.00316679531556,-0.0624916247367,0.00264460105936,-0.0997510608689,-0.00439308384403,0.0354126009339,-0.018238940548,0.574076076728,0.818787051936,0.00227345820247,0.0,0.81874821265,-0.574016298424,-0.0117217886061,0.0,-0.00829280633644,0.00859075365367,-0.999928711616,0.0,0.658742389414,0.256951833075,0.303592743189,1.0,-0.01104,-0.0145097142857,0.553
0.462735290306,0.530190626178,-0.12408012735,-1.38297815891,0.0778581675781,1.90403538301,0.155798046728,-0.00945534572889,-0.057589632609,-0.000991049464056,-0.0917799500937,-0.0149755239936,0.0361346672643,-0.0185769824403,0.574091391423,0.818776398418,0.00224289729597,0.0,0.818737121199,-0.574031683829,-0.0117430504177,0.0,-0.00832759874805,0.00857809258396,-0.999928531159,0.0,0.658558916963,0.256711015265,0.303584338574,1.0,-0.01136,-0.0149302857143,0.569
0.46259342744,0.52908531115,-0.124080406428,-1.38472951623,0.0777391095398,1.90467294558,0.155559628617,-0.00867644072541,-0.0619186792195,0.00216385193341,-0.100972847113,-0.00959216994659,0.0329429100062,-0.0109380666233,0.574075481034,0.818787594415,0.0022280505337,0.0,0.818748199261,-0.574015908688,-0.0117417920788,0.0,-0.00833525771817,0.00856505220197,-0.999928579129,0.0,0.658348953419,0.256448088479,0.303584489564,1.0,-0.01172,-0.0154034285714,0.587
0.462465991692,0.528061263312,-0.124089684887,-1.38632456746,0.0776486741793,1.90529516922,0.15532434945,-0.00608279110848,-0.0585573348243,-0.000392703763701,-0.0969661900933,-0.00832798500382,0.0398751062328,-0.0165455648524,0.574056031231,0.81880111175,0.00227141061958,0.0,0.818762287558,-0.573996306221,-0.0117176712151,0.0,-0.00829082053649,0.00858651050482,-0.999928764529,0.0,0.658166643277,0.256210486709,0.303600552137,1.0,-0.01204,-0.015824,0.603
0.46231782809,0.526861096068,-0.124084378575,-1.3881805007,0.077531145586,1.90600640657,0.155090443068,-0.00503128550197,-0.0677939469712,0.00139744061707,-0.103893601781,-0.00405496810171,0.0468820277474,-0.0149236508944,0.574050858814,0.818804613813,0.0023157710604,0.0,0.818766391885,-0.573990997408,-0.0116909073381,0.0,-0.00824349584019,0.00860741663274,-0.999928976055,0.0,0.657948615978,0.255940773437,0.303623358135,1.0,-0.0124,-0.0162971428571,0.621
0.462165843509,0.525700254394,-0.124092912872,-1.39000145295,0.0774070812772,1.90667757235,0.154840813852,-0.00582352478558,-0.0695884217451,-0.000551849039831,-0.109515009265,-0.0107159916932,0.040926040262,-0.013322727003,0.574041642409,0.818811076798,0.00231520942335,0.0,0.818772975296,-0.573981917575,-0.0116756209164,0.0,-0.00823139787036,0.00859808905486,-0.999929155967,0.0,0.657733651527,0.255660414165,0.303631790166,1.0,-0.01274,-0.016744,0.638
0.462032316611,0.524666983941,-0.124101455005,-1.39162860982,0.0773091011938,1.90726059042,0.154611546932,-0.00761462015292,-0.0757408674301,-0.00335607481624,-0.110225037051,-0.00653961306329,0.0375167047601,-0.0169856876476,0.574030336295,0.81881903274,0.00230467720699,0.0,0.818780777024,-0.573970633161,-0.0116832506576,0.0,-0.0082438096859,0.00859373115431,-0.999929091179,0.0,0.657536547702,0.25541178263,0.303634837921,1.0,-0.01304,-0.0171382857143,0.653
0.461872250663,0.523481495023,-0.124110957867,-1.39352132236,0.0771794529129,1.90793177639,0.154361545786,-0.0101004954507,-0.07336475825,-0.00450851383883,-0.110189196122,-0.00475397499545,0.0337974538579,-0.0132064101316,0.574029861361,0.818819480116,0.00226365823502,0.0,0.818780796313,-0.573970417968,-0.0116924671517,0.0,-0.00827490632873,0.00856543010138,-0.999929077151,0.0,0.657306838582,0.255116543869,0.303625906628,1.0,-0.01338,-0.0175851428571,0.67
0.461699367577,0.522124073101,-0.124109581921,-1.39570203761,0.0770635304274,1.90876443873,0.154073283567,-0.0070354381902,-0.0725523381308,0.000277270281813,-0.11676103012,-0.00702705303032,0.0428409348638,-0.0190912276857,0.574020263317,0.818826167878,0.00227837673782,0.0,0.81878752095,-0.573960606741,-0.0117031767671,0.0,-0.00827532821512,0.00858353231006,-0.999928918432,0.0,0.657045470975,0.254800428594,0.303614114929,1.0,-0.01376,-0.0180845714286,0.689
0.461544800671,0.520947281474,-0.124114221532,-1.39758110457,0.076936536699,1.9094950304,0.153809895151,-0.00794476415151,-0.0705343119047,-0.000700721964053,-0.117367862483,-0.00784585651783,0.0418075617277,-0.0130408779748,0.574000741742,0.818839815387,0.00229174998841,0.0,0.818801488862,-0.573941190689,-0.011678114922,0.0,-0.00824733453647,0.00857990011968,-0.999929180886,0.0,0.656826637193,0.254517634349,0.303609907039,1.0,-0.01408,-0.0185051428571,0.705
0.461393287996,0.519822978319,-0.124118163196,-1.39937557646,0.0768200208419,1.91014817922,0.153571835496,-0.0104127711918,-0.0778896169966,-0.000607617413477,-0.122971779591,-0.00483600055397,0.0504357759714,-0.0142684245455,0.573996752207,0.818842668078,0.00227162761675,0.0,0.81880411829,-0.573937315069,-0.0116842262882,0.0,-0.00826393027932,0.00856689092848,-0.999929155409,0.0,0.656608811669,0.25424311487,0.30360206265,1.0,-0.01438,-0.0188994285714,0.72
0.461212945787,0.518394365294,-0.124121670427,-1.4015811591,0.0766765297225,1.91093830433,0.15328160557,-0.0165297359703,-0.0766640932975,-0.00103088053103,-0.123348780675,-0.011094378874,0.0498423292237,-0.0119969284157,0.573987437907,0.81884917968,0.00227792969085,0.0,0.818810739527,-0.573928007574,-0.011677408032,0.0,-0.00825482726996,0.00856804377385,-0.999929220721,0.0,0.656337231325,0.253910119243,0.30362363798,1.0,-0.01474,-0.0193725714286,0.738
0.461047729487,0.51711922986,-0.12412725596,-1.40357308527,0.076540941512,1.91165563524,0.152999674796,-0.0107528716529,-0.0869494150914,-0.00083736660583,-0.120828226065,-0.0121401641616,0.0414867284517,-0.0115382964793,0.573964516029,0.818865269325,0.00226978717258,0.0,0.818826812999,-0.573905211258,-0.0116707200401,0.0,-0.00825426354224,0.00855730653092,-0.999929317321,0.0,0.656093055195,0.253605579352,0.303632549769,1.0,-0.01506,-0.0197931428571,0.754
0.460857020115,0.515780504893,-0.124129472459,-1.40571809725,0.0764216925781,1.91246831149,0.152706559545,-0.0137998506288,-0.0815876715249,-4.51909156801e-05,-0.128891929391,-0.00715516207139,0.0512260989676,-0.00795094880378,0.57396365812,0.818865845442,0.00227886531865,0.0,0.818827403677,-0.573904212975,-0.0116783654137,0.0,-0.00825532310125,0.00856911968802,-0.999929207408,0.0,0.655837409732,0.253278030168,0.303621069645,1.0,-0.0154,-0.02024,0.771
0.460684948468,0.514556741684,-0.124131833272,-1.40766292325,0.0762963780916,1.91319345591,0.152436091224,-0.0101662717808,-0.0860203195872,0.000914581836409,-0.125280334637,-0.0105501761417,0.0448569284752,-0.0240175190012,0.573953408303,0.818873035054,0.00227694090832,0.0,0.818834609533,-0.573894014268,-0.0116743102817,0.0,-0.00825321403433,0.00856511310031,-0.999929259146,0.0,0.655603652451,0.25297805064,0.30361625801,1.0,-0.0157,-0.0206342857143,0.786
0.460468661444,0.512999994964,-0.124134773837,-1.41020142512,0.0761469904506,1.91407619835,0.152094655062,-0.0108435833658,-0.0842331099955,0.000232164711676,-0.135383690498,-0.00735421123729,0.0480453691343,-0.025474148245,0.573945824516,0.818878573685,0.00219521790421,0.0,0.818838926734,-0.573886571637,-0.0117371998797,0.0,-0.00835169621556,0.00853421104512,-0.999928705665,0.0,0.655280825241,0.252589590553,0.303575571686,1.0,-0.01608,-0.0211337142857,0.805
0.460260517037,0.511504299864,-0.124143362849,-1.41262522456,0.075996473206,1.91495022414,0.151751920683,-0.0132972451474,-0.0831601198287,-0.00086545593934,-0.130884226283,-0.00875889587809,0.049381280968,-0.0182930448029,0.57392789384,0.818891273819,0.00214504923219,0.0,0.818850956223,-0.573868816188,-0.0117660614008,0.0,-0.00840430995377,0.0085095102879,-0.999928475347,0.0,0.654980164864,0.252215265201,0.303545591738,1.0,-0.01644,-0.0216068571429,0.823
0.460061792058,0.510051624977,-0.124143257378,-1.4149424522,0.0758660990531,1.91583717642,0.151421214645,-0.0104518095446,-0.0795155110477,-0.000331008390756,-0.135882611682,-0.00588440800172,0.0530402015347,-0.0197415246839,0.573905820106,0.818906683578,0.00216798072077,0.0,0.818866557189,-0.573846548371,-0.0117663648309,0.0,-0.00839162811277,0.00852823636182,-0.999928422319,0.0,0.654699967753,0.251868380457,0.303536570057,1.0,-0.01678,-0.0220537142857,0.84
0.459869613247,0.508613219146,-0.124149344677,-1.41718081616,0.075713888455,1.91664566539,0.15112067591,-0.0124806655112,-0.0866027551705,-0.00170269240172,-0.140090084716,-0.00258175196803,0.0507453185231,-0.0170650248526,0.573896416671,0.818913278946,0.00216596392967,0.0,0.818873221589,-0.573837250629,-0.0117560051285,0.0,-0.00838439934641,0.00852054312541,-0.999928548544,0.0,0.654422560645,0.25152267347,0.303547909012,1.0,-0.0171,-0.0224742857143,0.856
0.459671921844,0.50717804665,-0.124152204344,-1.41943322447,0.0755674032831,1.91744987749,0.150800505468,-0.0149298790669,-0.095005651902,0.00362302799374,-0.146972583319,-0.0165539502562,0.0608486722628,-0.0175263795839,0.573875081872,0.818928271075,0.00215038170639,0.0,0.818888015858,-0.573815983089,-0.0117635852055,0.0,-0.00839977082274,0.00851191411253,-0.999928493028,0.0,0.654140324293,0.25117424714,0.303549386573,1.0,-0.01742,-0.0228948571429,0.872
0.459474843103,0.505715538364,-0.124153634945,-1.42172688432,0.0754259936608,1.91831178516,0.150499185829,-0.00960808933969,-0.091062335812,0.000687655421692,-0.141050873721,-0.00222462751308,0.0561325547294,-0.0177150806677,0.573871166627,0.81893095117,0.0021744496138,0.0,0.818890997459,-0.573811964416,-0.0117520498522,0.0,-0.00837655343388,0.0085249639041,-0.999928576621,0.0,0.65385882701,0.250827256237,0.3035548437,1.0,-0.01774,-0.0233154285714,0.888
0.459221299867,0.503866638621,-0.124161409695,-1.42449660371,0.075249369479,1.919390342,0.150112891294,-0.0153203837434,-0.0999178182599,-0.00115339188319,-0.143649825479,-0.00687424408461,0.0582839841539,-0.020636042097,0.573863048152,0.818936290796,0.00230227812702,0.0,0.818898118802,-0.573803494022,-0.0116691118976,0.0,-0.00823536253703,0.00858196857943,-0.999929261808,0.0,0.653533007382,0.250397291228,0.303621970594,1.0,-0.01812,-0.0238148571429,0.907
0.45902683344,0.502404609505,-0.124155043132,-1.42668134636,0.0751091394613,1.92020213254,0.149803986872,-0.012426222192,-0.0982439257718,0.000975819173271,-0.146124184745,-0.0142304162308,0.0550548269303,-0.0178203215911,0.573838785353,0.818953077586,0.00237740153208,0.0,0.818915872433,-0.573778954795,-0.0116297812805,0.0,-0.00816029931612,0.00862067738842,-0.999929544236,0.0,0.65326319768,0.25006646282,0.303673105695,1.0,-0.01842,-0.0242091428571,0.922
0.458766875587,0.500475675434,-0.124155301196,-1.4295485091,0.0749273684321,1.92121932688,0.149395891732,-0.0135394419603,-0.102467761218,0.000161988154489,-0.15232949002,-0.00908591334379,0.0553282482931,-0.017902655647,0.573814552566,0.818969856202,0.00244556685654,0.0,0.818933479706,-0.57375442566,-0.0116000755303,0.0,-0.00809711327634,0.00865921544257,-0.999929724903,0.0,0.652901484102,0.249621577197,0.303742668757,1.0,-0.0188,-0.0247085714286,0.941
0.458510807248,0.498781047873,-0.124160010205,-1.43216121086,0.0747545416837,1.92217459072,0.149028339473,-0.0156148494529,-0.10410974696,-0.00018939571697,-0.158612960847,-0.011226363252,0.050204396463,-0.0231889563985,0.573812665957,0.818971104303,0.00247014263176,0.0,0.818935107992,-0.573752519984,-0.011579361448,0.0,-0.00806606716927,0.00866743766047,-0.999929904586,0.0,0.652580811838,0.249201077318,0.303764003233,1.0,-0.01914,-0.0251554285714,0.958
0.458288606405,0.497302322037,-0.124154730525,-1.4344939891,0.0746161354214,1.92304123431,0.148687512794,-0.0163780633838,-0.101379466722,0.00143176925839,-0.154205277444,-0.0136404044042,0.0602726469534,-0.0270245384921,0.57379282607,0.818984962231,0.00248420848014,0.0,0.818949038327,-0.573732515734,-0.0115853318708,0.0,-0.00806309664335,0.00868218761996,-0.999929800581,0.0,0.652290749088,0.248838473512,0.303759550846,1.0,-0.01944,-0.0255497142857,0.973
0.458019137794,0.495635957793,-0.124159993969,-1.43718862934,0.0744460836938,1.92397726605,0.148291783015,-0.0227647858309,-0.1019324118,-0.000246672848378,-0.15829591914,-0.00755000577191,0.0572996895232,-0.0224525161809,0.573783148712,0.81899198326,0.00240343745031,0.0,0.818954925821,-0.573723031037,-0.0116387298594,0.0,-0.00815327600708,0.00864658047801,-0.999929377874,0.0,0.651946660408,0.24839830309,0.303719472981,1.0,-0.01978,-0.0259965714286,0.99
0.457731894595,0.493857495416,-0.124160205237,-1.44009385486,0.0742579132771,1.92499982513,0.147888282725,-0.0149082204586,-0.0996985110784,-0.00277206071555,-0.164608829165,-0.0129308433182,0.0627881788309,-0.0276977195156,0.57378317977,0.818992231333,0.00230966039281,0.0,0.818953894813,-0.573723337004,-0.011696052697,0.0,-0.00825402914382,0.00860266930966,-0.999928930016,0.0,0.651574655409,0.247929127532,0.303663964562,1.0,-0.02038,-0.0267851428571,1.008
0.457457158474,0.492206813152,-0.124160881644,-1.44277157853,0.0740856359467,1.92598360614,0.14750914799,-0.0182101971008,-0.110946033228,9.48701092134e-08,-0.172309549962,-0.018110504833,0.065324858417,-0.023197002792,0.573785830209,0.818990493043,0.00226721373002,0.0,0.818951596313,-0.573726135436,-0.0117196976957,0.0,-0.00829772097941,0.00858149999598,-0.999928750304,0.0,0.651241554014,0.247493111602,0.303623748473,1.0,-0.0212942857143,-0.0279867755102,1.024
0.457181136796,0.490481133304,-0.12416431811,-1.44557864234,0.0739109736256,1.92695911839,0.14710608735,-0.0214553550298,-0.109518341442,-0.000863622462276,-0.180141930127,-0.00847924518478,0.0540663841846,-0.0301737755794,0.573776944445,0.818996964138,0.00217661607458,0.0,0.818956757505,-0.573717459511,-0.0117835856132,0.0,-0.00840211996609,0.00854386868648,-0.999928200766,0.0,0.650877033523,0.247039609771,0.303572895959,1.0,-0.0222085714286,-0.0291884081633,1.04
0.456824514813,0.488323637037,-0.124170336754,-1.4490091308,0.0736845122279,1.92822669663,0.146622530558,-0.0204203668054,-0.120461402707,0.000777686553638,-0.183477817538,-0.00947286112324,0.0719118452682,-0.0300514342035,0.573786428959,0.818990359508,0.00216145233693,0.0,0.818950027477,-0.57372707446,-0.0117831841256,0.0,-0.00841039240345,0.00853131684621,-0.999928238391,0.0,0.650451913155,0.246475522947,0.30355004805,1.0,-0.0232942857143,-0.0306153469388,1.059
0.456519126157,0.486478975723,-0.124177104142,-1.45180812803,0.0735068665741,1.92931945394,0.146213438194,-0.0189970645526,-0.120823521889,0.000335293111299,-0.193576398605,-0.0169272008595,0.0752816004805,-0.0227802147139,0.5737970515,0.818982613197,0.00227373518294,0.0,0.818943835907,-0.573737366953,-0.0117121429413,0.0,-0.00828767415857,0.00858261974102,-0.999928824015,0.0,0.650121046484,0.246011058817,0.303594121164,1.0,-0.0241514285714,-0.031741877551,1.074
0.456183672394,0.484472176242,-0.12420034601,-1.45486917911,0.0733157701673,1.93041594786,0.1457435804,-0.0246671645583,-0.135091557177,-0.00442629424996,-0.19626323363,-0.0189122806329,0.0721262717528,-0.0360018026134,0.573802581757,0.818978646286,0.00230672889696,0.0,0.818940299212,-0.57374277608,-0.01169444843,0.0,-0.00825419342208,0.00859954352232,-0.999928955547,0.0,0.649741296427,0.24548695901,0.303626031787,1.0,-0.0250657142857,-0.0329435102041,1.09
0.455821423857,0.48223777086,-0.12422428341,-1.45829641859,0.073099514251,1.93156824291,0.145234963136,-0.0192404267865,-0.132436417645,-0.00281411720622,-0.207434608876,-0.0104728248072,0.0706493314339,-0.0315940265468,0.573808698183,0.818974459424,0.00227147568539,0.0,0.818935555181,-0.573748919605,-0.0117252127091,0.0,-0.0082995528118,0.0085883865951,-0.999928675976,0.0,0.649295068085,0.244904859186,0.303645413116,1.0,-0.0260371428571,-0.034220244898,1.107
0.455468495874,0.480107124107,-0.124250544643,-1.46162725229,0.0728958816282,1.93280230041,0.144740911462,-0.0243553945121,-0.127781124686,0.00148168599419,-0.210843751764,-0.0124536285726,0.0804410145546,-0.0291880187773,0.573819711376,0.818966674314,0.00229610552867,0.0,0.818928102188,-0.573759852256,-0.0117107765193,0.0,-0.00827348182092,0.00860038532939,-0.9999287889,0.0,0.648881736286,0.244345030026,0.303644923026,1.0,-0.0269514285714,-0.035421877551,1.123
0.455045023316,0.477592680896,-0.124270697934,-1.46544303658,0.0726564142521,1.93421032103,0.144181598248,-0.0258608553871,-0.142876934825,-0.00362936713234,-0.214264433054,-0.00923268505097,0.0767913987062,-0.0304302517404,0.573843290351,0.818949904444,0.00238307184412,0.0,0.818912485938,-0.573783135821,-0.0116619176836,0.0,-0.00818331749127,0.00864380692349,-0.999929156449,0.0,0.648409376022,0.243697020684,0.30369299676,1.0,-0.02798,-0.0367737142857,1.141
0.454627144088,0.475175088962,-0.124281472214,-1.4691828578,0.0724324852723,1.93558063853,0.143653684191,-0.024162979978,-0.145601178208,-0.000894201454178,-0.224498955204,-0.0158668096229,0.0750691320892,-0.025852093915,0.573880997467,0.818923351008,0.00242751357372,0.0,0.818886380112,-0.573820541825,-0.0116545762522,0.0,-0.00815140442464,0.00867636469461,-0.99992913514,0.0,0.647938857311,0.24306616041,0.303705344289,1.0,-0.0289514285714,-0.0380504489796,1.158
0.454202173578,0.472661441959,-0.124279371138,-1.47306642883,0.0721775257426,1.93691776627,0.143085480487,-0.0227895030994,-0.146578799997,0.000775174681344,-0.232022223639,-0.0146379486392,0.0775036794177,-0.0336350739676,0.573878444584,0.818925225279,0.00239857132822,0.0,0.818887748409,-0.573817955222,-0.0116857465146,0.0,-0.00819356705358,0.00867052564247,-0.99992884119,0.0,0.647426501858,0.242416013189,0.303710971294,1.0,-0.0299228571429,-0.0393271836735,1.175
0.45373870239,0.469940563002,-0.124281582074,-1.47724342719,0.0719153093442,1.93846148396,0.142440749671,-0.0241465685878,-0.15760528836,-0.000493528358733,-0.233555425303,-0.0187778338542,0.0935122794665,-0.0370869273638,0.573859640353,0.818938179814,0.00247340206324,0.0,0.818901600833,-0.573798806298,-0.0116552540039,0.0,-0.00812585379569,0.0087141205538,-0.999929014782,0.0,0.646895999131,0.241719378007,0.303736609313,1.0,-0.0309514285714,-0.0406790204082,1.193
0.453343453341,0.46758754951,-0.124273982644,-1.48080089319,0.0716750409291,1.93983370143,0.141868727243,-0.0267239039377,-0.163772064624,-0.00207996854566,-0.241735655534,-0.0169250353643,0.0892159455477,-0.0345972933485,0.573813859903,0.818969830074,0.00261122812474,0.0,0.818935233218,-0.573752766814,-0.0115582554125,0.0,-0.00796781651494,0.00877088273199,-0.999929790293,0.0,0.64642398659,0.241088285957,0.303792028765,1.0,-0.0318657142857,-0.0418806530612,1.209
0.452846054517,0.464696099478,-0.124282918512,-1.48528983953,0.0713613327987,1.94133590091,0.141189197761,-0.0274605523429,-0.165660321941,0.00106688421446,-0.260064777459,-0.0205406760024,0.0832516730653,-0.0420517902323,0.573794288035,0.818983844079,0.00251496652898,0.0,0.818947903824,-0.573733422837,-0.0116205526408,0.0,-0.00807427997202,0.00872760132958,-0.999929314991,0.0,0.645847282311,0.240366545007,0.303774395568,1.0,-0.0328371428571,-0.0431573877551,1.226
0.45240829067,0.462261331792,-0.12428871968,-1.489140758,0.0711131465888,1.94269327332,0.14062160406,-0.0254103881084,-0.167146886464,-0.000312482614719,-0.253380702322,-0.0194863511686,0.0922562975259,-0.0391254332012,0.573804522838,0.818976831944,0.00246276508605,0.0,0.818940094708,-0.573743711879,-0.0116628152735,0.0,-0.00813873621821,0.0087092009049,-0.999928952872,0.0,0.645338467616,0.239710398288,0.303737278059,1.0,-0.0336942857143,-0.0442839183673,1.241
0.451894533994,0.45942130958,-0.124286533451,-1.49354425198,0.0708122879886,1.94423448013,0.139970560699,-0.0321750981962,-0.172560999956,0.000517883618863,-0.260461182086,-0.0118229266774,0.0912762258075,-0.0337203467934,0.573812175358,0.818971550537,0.00243592372102,0.0,0.818934424812,-0.573751417018,-0.0116818760427,0.0,-0.00816966674059,0.0086982319636,-0.999928796118,0.0,0.644754750878,0.238954694895,0.303730152074,1.0,-0.0346657142857,-0.0455606530612,1.258
0.451345469291,0.456577106165,-0.124300287347,-1.4980919534,0.0705080186056,1.94584480279,0.139261259083,-0.032976189096,-0.17133963396,-0.0023782966255,-0.264246436039,-0.0211383528457,0.0951431249827,-0.0477383987772,0.573817418246,0.818968138535,0.00234637637747,0.0,0.818929818353,-0.573756954104,-0.0117327375523,0.0,-0.00826264755119,0.0086541333707,-0.999928414753,0.0,0.644157270218,0.238154595941,0.303662193915,1.0,-0.0356371428571,-0.0468373877551,1.275
0.450785620216,0.45360341356,-0.124339499215,-1.50276569258,0.0701950789002,1.94743590745,0.138528271449,-0.0364161923448,-0.180001109382,-0.00261367362613,-0.280451812098,-0.0172780317582,0.09871573936,-0.0439016977171,0.57383209022,0.818958149025,0.00224260576126,0.0,0.818918459758,-0.57377199567,-0.0117898326497,0.0,-0.00836879626621,0.00860206118489,-0.999927981303,0.0,0.643532296369,0.237317600251,0.303620169824,1.0,-0.0366085714286,-0.048114122449,1.292
0.450261013934,0.450624854726,-0.124363133289,-1.5071291768,0.0699044199022,1.94910928724,0.137829633326,-0.0338844126149,-0.187319671576,-0.00309665804174,-0.271495944018,-0.0185984436954,0.108497038375,-0.0426488934448,0.573825919992,0.818961798908,0.00247636351439,0.0,0.818925382744,-0.573765213099,-0.0116380683814,0.0,-0.00811043832897,0.00870634985894,-0.999929207625,0.0,0.642985883278,0.23655805006,0.303732924311,1.0,-0.0375228571429,-0.049315755102,1.308
0.449677130771,0.447450614291,-0.124379351169,-1.51193172302,0.0695653222082,1.95072358806,0.13712934096,-0.0302523368287,-0.190854847669,0.000847732959143,-0.283359756999,-0.0169200671117,0.0948914538274,-0.0436367023254,0.573864606536,0.818934763227,0.00245231414545,0.0,0.818898049958,-0.573803996039,-0.0116492405481,0.0,-0.00813297697888,0.00869344949104,-0.9999291368,0.0,0.642332421624,0.235705577481,0.303763624794,1.0,-0.0384942857143,-0.0505924897959,1.325
0.449028087631,0.443871009741,-0.124379085612,-1.5174222312,0.069182304859,1.9526546419,0.13629066216,-0.0339427792445,-0.184029852507,1.9278440783e-05,-0.284898996816,-0.0206193212301,0.0991376933501,-0.0447775747898,0.573848540729,0.818946005893,0.0024573637626,0.0,0.818909362832,-0.573787919296,-0.0116458592289,0.0,-0.00812748073956,0.00869548493211,-0.99992916379,0.0,0.641587484857,0.234760479126,0.303769119919,1.0,-0.03958,-0.0520194285714,1.344
0.448418004297,0.44063603906,-0.124383968147,-1.52242026689,0.0688431758099,1.95444765418,0.135468176599,-0.0375183877905,-0.186889380262,-0.00053335205292,-0.290206014367,-0.0181919244899,0.107344293052,-0.046556690411,0.573806320629,0.818975536331,0.00247471203659,0.0,0.8189390983,-0.573745621524,-0.0116388125617,0.0,-0.00811220374948,0.00870523025897,-0.999929203052,0.0,0.640916298987,0.233889082972,0.303758695777,1.0,-0.0405514285714,-0.0532961632653,1.361
0.447795600123,0.43753642616,-0.124390031902,-1.52727835367,0.0685154295923,1.95612614977,0.134682361137,-0.0353908146603,-0.197963246611,-0.000867803662151,-0.308996350519,-0.0273933817594,0.110303164494,-0.049454911732,0.573799933681,0.818980226736,0.00240233719291,0.0,0.818942705021,-0.57373934116,-0.0116944943931,0.0,-0.00819940217523,0.00867784370171,-0.999928729877,0.0,0.640252554043,0.233018982476,0.303710271543,1.0,-0.0414657142857,-0.0544977959184,1.377
0.447199885768,0.434474060475,-0.124406440972,-1.53182994671,0.068194369642,1.95773604812,0.133960339314,-0.041203060721,-0.2106096894,-0.00125534828623,-0.296396557785,-0.0322023388785,0.117162488504,-0.0535206199038,0.573817716848,0.818967498006,0.0024923768246,0.0,0.818931262058,-0.57375692497,-0.0116329693162,0.0,-0.00809716120796,0.00871645701048,-0.999929227174,0.0,0.639644415603,0.232192406581,0.303773559818,1.0,-0.0423228571429,-0.0556243265306,1.392
0.446543322652,0.431219904628,-0.124422639944,-1.53681590799,0.0678361104711,1.95949430866,0.133175862854,-0.039545817469,-0.204924219286,-0.00395954381154,-0.322629449203,-0.0219792567291,0.110160852162,-0.0477835672404,0.573840711053,0.818951374603,0.00249625214136,0.0,0.818915322701,-0.573780046861,-0.0116146016212,0.0,-0.00807964985078,0.00870931806214,-0.999929431029,0.0,0.638971064691,0.231283757754,0.303771827072,1.0,-0.0432371428571,-0.0568259591837,1.408
0.445718290428,0.427052299235,-0.124443356763,-1.54323816752,0.0673771372658,1.96158622303,0.132150270824,-0.0399109745799,-0.207599078285,0.000123035589833,-0.317092466709,-0.0214873679529,0.110553281617,-0.0576449608657,0.573837750506,0.818953895245,0.00234530581621,0.0,0.818915748012,-0.573777483577,-0.0117108453795,0.0,-0.00824511751476,0.00864089939998,-0.999928673904,0.0,0.6380567386,0.230117338827,0.303734647451,1.0,-0.04438,-0.058328,1.428
0.444948733829,0.423202864491,-0.124458740132,-1.54898712503,0.066963987251,1.96364011442,0.131172411033,-0.0471591317856,-0.211631621857,-0.00358101321039,-0.326293356828,-0.0131941848261,0.108340271169,-0.0491974731489,0.573806632508,0.818975367445,0.00245823303328,0.0,0.818938865952,-0.573746152629,-0.0116289757871,0.0,-0.00811359918505,0.00868609324263,-0.999929358151,0.0,0.637278122522,0.229069236164,0.303793514085,1.0,-0.0454085714286,-0.0596798367347,1.446
0.444289952732,0.419966764979,-0.124464572296,-1.55393263185,0.0666167574645,1.96531265845,0.130391044683,-0.0431480072408,-0.21915355073,-0.000238027989565,-0.330625196212,-0.0229980533063,0.116086286675,-0.04675980966,0.573820771066,0.818965572954,0.00242072512819,0.0,0.818928473067,-0.573760303698,-0.0116626241172,0.0,-0.00816252881157,0.00867482371379,-0.999929057762,0.0,0.636579826501,0.228169569829,0.303782177073,1.0,-0.0462657142857,-0.0608063673469,1.461
0.443522758151,0.416214990329,-0.124472508661,-1.55949128224,0.0662360783057,1.96736227351,0.129493962741,-0.0471216906361,-0.222570783985,0.00119273987262,-0.328906254303,-0.0282572049982,0.121363237294,-0.054364504158,0.573848617978,0.818945420152,0.00262856568331,0.0,0.818911071217,-0.573787488211,-0.0115465454517,0.0,-0.00794790543701,0.00877869970651,-0.999929880157,0.0,0.635785843748,0.227092394303,0.303863544354,1.0,-0.0472942857143,-0.0621582040816,1.479
0.442735597456,0.412422447727,-0.124483850203,-1.56526824197,0.0658225955804,1.96934482747,0.128491169745,-0.0477014215312,-0.226455940477,-0.00216131189974,-0.34671835228,-0.0320488991757,0.117691968091,-0.0700627315328,0.573799046553,0.818980228829,0.00260496895119,0.0,0.81894557889,-0.573738007168,-0.0115578911756,0.0,-0.00797126813664,0.00876540350365,-0.99992981083,0.0,0.635017139527,0.226093932781,0.303849127739,1.0,-0.0482085714286,-0.0633598367347,1.495
0.441928282284,0.408543996119,-0.124505140807,-1.57115831175,0.0654001151479,1.97121920553,0.127557907868,-0.0485613322473,-0.228967174423,0.000655581153492,-0.349397632192,-0.0131996374909,0.11749045767,-0.0528923195856,0.573831641017,0.818957772606,0.00248220822665,0.0,0.818921315158,-0.573770786985,-0.0116494842182,0.0,-0.00811637334499,0.00871774371496,-0.999929060198,0.0,0.634153127754,0.224995535734,0.303831651699,1.0,-0.04918,-0.0646365714286,1.512
0.441101069703,0.404695131377,-0.124511556592,-1.57707035283,0.0650140884295,1.97328102414,0.126578395558,-0.0512062819757,-0.222469828928,0.0011739378366,-0.353732717481,-0.0256239264329,0.121142921261,-0.0608773840274,0.57384279494,0.818949936899,0.0024888651906,0.0,0.818913233996,-0.573781559353,-0.0116869257788,0.0,-0.00814309895887,0.00874479115968,-0.999928606735,0.0,0.633313605543,0.223909208884,0.303796328257,1.0,-0.0501514285714,-0.0659133061224,1.529
0.440322821009,0.401210851244,-0.124527565055,-1.58232107411,0.0646524419736,1.97510848459,0.125660506096,-0.0462600158142,-0.234829759703,-0.00198306598512,-0.348134773186,-0.0165103293554,0.125612532468,-0.0655973602491,0.573848337416,0.818945903497,0.00253765484861,0.0,0.81890973912,-0.573786824583,-0.0116733032856,0.0,-0.0081038870135,0.00877698493681,-0.999928643229,0.0,0.63257644253,0.22290983139,0.303805862925,1.0,-0.0510085714286,-0.0670398367347,1.544
0.43947710587,0.397360321467,-0.124550092704,-1.58793738781,0.0642130936546,1.97708866639,0.124684394151,-0.0576768882648,-0.240798942663,-0.000989269413513,-0.357602256664,-0.0294356539496,0.115067250942,-0.0588405607255,0.573854146768,0.818941355411,0.0026872915068,0.0,0.818907554967,-0.57379258572,-0.0115426120369,0.0,-0.00791092671411,0.00882458899994,-0.999929769468,0.0,0.631797260711,0.221825932351,0.303897394518,1.0,-0.0519228571429,-0.0682414693878,1.56
0.438465803634,0.392749003019,-0.124559106796,-1.59492838374,0.0636920184635,1.97933303439,0.123555568085,-0.0563899903136,-0.248031606451,-0.00162857227157,-0.368774734631,-0.0297739327953,0.113862578805,-0.0582114726766,0.573887617409,0.818918309461,0.00255967099002,0.0,0.81888267206,-0.573826284204,-0.0116323625702,0.0,-0.00805730332614,0.00877190794659,-0.999929064231,0.0,0.630755591812,0.220504620656,0.303865764492,1.0,-0.0530085714286,-0.0696684081633,1.579
0.437616713047,0.388860482578,-0.124558065079,-1.60078389278,0.0632497007058,1.98130548519,0.122537569788,-0.0583909275171,-0.243623129052,0.00196424110167,-0.366181413354,-0.024653970219,0.127392142218,-0.0581000343393,0.573846960188,0.818946834976,0.00254846373506,0.0,0.818911056363,-0.573785675731,-0.0116373103779,0.0,-0.00806822185355,0.00876516907114,-0.999929035286,0.0,0.629894574682,0.219408764502,0.303860439939,1.0,-0.0539228571429,-0.0708700408163,1.595
0.436679411816,0.384727271366,-0.124564013466,-1.60709330899,0.0627846432785,1.98341691396,0.121381440354,-0.0532589588735,-0.254193184139,-0.000797421381641,-0.373042347414,-0.0235540507099,0.129410365344,-0.0700852574893,0.573772115187,0.818999436132,0.00249606676611,0.0,0.818962824574,-0.573710860296,-0.0116827926959,0.0,-0.00813633666839,0.00874761498424,-0.999928637083,0.0,0.62890777512,0.218146188087,0.303817721198,1.0,-0.0549514285714,-0.072221877551,1.613
0.435766587666,0.380658832452,-0.124575419892,-1.61299271843,0.0623615848378,1.98550855989,0.120354096445,-0.0599402951242,-0.254626331988,0.000165454011088,-0.373698465087,-0.035011383607,0.133991522666,-0.0622330988806,0.573795138399,0.818982673057,0.00269579004937,0.0,0.818948754984,-0.573733302447,-0.0115663855404,0.0,-0.00792615742284,0.00884461998288,-0.999929471876,0.0,0.628119904644,0.217079764985,0.303907900406,1.0,-0.0558085714286,-0.0733484081633,1.628
0.434628459882,0.375854762017,-0.124587231244,-1.6203141506,0.061791695159,1.98781065228,0.119065408718,-0.0603944583484,-0.252324055195,-0.0022897989864,-0.395045612832,-0.0275001588097,0.11795023735,-0.0684480599705,0.573787286297,0.818988880234,0.00247205155196,0.0,0.818951897127,-0.573726051959,-0.0117027516549,0.0,-0.00816630032295,0.00873954968596,-0.999928463346,0.0,0.626941257634,0.215570789387,0.303825077155,1.0,-0.0569514285714,-0.0748504489796,1.648
0.433766548583,0.372228673748,-0.124617547927,-1.6257071167,0.0613754279094,1.98957756036,0.118091323561,-0.0599666433573,-0.260907919345,-0.00144956502567,-0.373593468161,-0.0251170237022,0.123615334849,-0.0628343470222,0.573793568958,0.818984470518,0.00247470694094,0.0,0.818947600554,-0.573732408457,-0.0116917891535,0.0,-0.00815573119894,0.00873549692263,-0.999928585021,0.0,0.626200967874,0.214573874353,0.30384003878,1.0,-0.0576942857143,-0.0758267755102,1.661
0.43245687418,0.366745837942,-0.124641242872,-1.63378684583,0.0607638525129,1.9922924207,0.116709070732,-0.0643646059093,-0.264685788198,-0.00109598752343,-0.379508109513,-0.0259876238037,0.132470440377,-0.0753326665847,0.573866288455,0.81893327253,0.00255441166698,0.0,0.818897497007,-0.573804900255,-0.0116435707598,0.0,-0.00806972894175,0.00877382297996,-0.999928947228,0.0,0.625002322095,0.21297561618,0.303881401689,1.0,-0.0588942857143,-0.0774039183673,1.682
0.431617186022,0.363295609588,-0.124657671659,-1.63874171314,0.0603687828781,1.99404506834,0.115742523877,-0.0621535587613,-0.267146406637,0.000926511835178,-0.38536535679,-0.0239576797518,0.133460078016,-0.0732859397237,0.573835780364,0.81895405566,0.00273839255418,0.0,0.818921033088,-0.573774184965,-0.011501005832,0.0,-0.00784772750746,0.00884238615937,-0.999930110248,0.0,0.624290351821,0.211976827644,0.30396829076,1.0,-0.0596371428571,-0.078380244898,1.695
0.43030213681,0.357970354831,-0.1246793279,-1.64675721255,0.0597588048714,1.99653908349,0.114283400982,-0.070011164347,-0.267371055106,-0.00302965615202,-0.409737057813,-0.0345988307573,0.115687050731,-0.0697439731177,0.573845733309,0.818947688561,0.00255042455201,0.0,0.818911859858,-0.573784360083,-0.0116456347839,0.0,-0.00807392741668,0.00877153962502,-0.999928933369,0.0,0.622980895631,0.210288485511,0.303901161888,1.0,-0.0608371428571,-0.0799573877551,1.716
0.429425622322,0.354446744394,-0.124700594972,-1.65200707817,0.0593695534141,1.99821479486,0.113325560989,-0.0690617160028,-0.270042673505,-0.000768350438366,-0.403030035983,-0.031421339987,0.134489964188,-0.0712208779293,0.573854568643,0.818941593318,0.00251946092347,0.0,0.818905166217,-0.573793091186,-0.0116860665396,0.0,-0.00812471310602,0.00876947107899,-0.999928540154,0.0,0.622230870447,0.209319490105,0.303887099824,1.0,-0.0615228571429,-0.0808586122449,1.728
0.427978136806,0.348774071917,-0.12471168721,-1.6604567583,0.0587425906925,2.00100104583,0.111735918738,-0.0692919522874,-0.274763447984,-4.66284523231e-05,-0.39103914749,-0.0280477295329,0.139674145858,-0.076651133094,0.573851782991,0.818943531296,0.00252400620499,0.0,0.818906872491,-0.573789975792,-0.0117194184628,0.0,-0.00814944938355,0.00879230448706,-0.999928138346,0.0,0.620936362954,0.207620015578,0.303859612843,1.0,-0.0627228571429,-0.082435755102,1.749
0.427050093783,0.345126846973,-0.124717380516,-1.6656160509,0.0583452026473,2.002802686,0.110756166839,-0.0730994304954,-0.284228478382,-0.000767052094074,-0.394065123464,-0.0324907707501,0.127553947464,-0.064368173367,0.573870260265,0.818929835364,0.00275609067024,0.0,0.818896390344,-0.573807868264,-0.0115749341792,0.0,-0.00789774448558,0.00889963453685,-0.999929208563,0.0,0.620174157154,0.206563839667,0.303966807256,1.0,-0.0634657142857,-0.0834120816326,1.762
0.425543296296,0.339241830052,-0.124722023564,-1.67432653037,0.0576350114302,2.00544957879,0.109146830234,-0.0734329272093,-0.282130527095,-0.00235946227325,-0.42686334215,-0.0327532252698,0.132246860657,-0.0758274635792,0.573864595928,0.818934365442,0.00258409383222,0.0,0.818898463578,-0.573802546066,-0.0116915088344,0.0,-0.00809197454377,0.0088256233826,-0.99992831159,0.0,0.618777075838,0.204793001267,0.303928768405,1.0,-0.0646657142857,-0.0849892244898,1.783
0.424613715082,0.335563092196,-0.124722918642,-1.67977997733,0.0571830919496,2.00713184329,0.108091663107,-0.0693946953502,-0.283184926409,-0.00015002245044,-0.408069665297,-0.0345084314333,0.130533935438,-0.078838047035,0.573803533693,0.818977446389,0.00248876044902,0.0,0.818940236608,-0.573741761164,-0.0117485004413,0.0,-0.00819400884724,0.00877964617517,-0.999927885416,0.0,0.617897230462,0.203697138532,0.303898870405,1.0,-0.0654085714286,-0.0859655510204,1.796
0.42313550218,0.329827199635,-0.124715121888,-1.68803270205,0.0565284242996,2.00987784769,0.106479763148,-0.0727921658059,-0.291443533222,0.00038680234587,-0.409589783689,-0.0306479831276,0.144800976516,-0.0842354011242,0.57375651171,0.819009835383,0.0026649047163,0.0,0.818974990442,-0.573694200693,-0.0116480051189,0.0,-0.00801114461321,0.00886577979371,-0.999928607207,0.0,0.616611825645,0.202022038066,0.30397322932,1.0,-0.0665514285714,-0.0874675918367,1.816
0.422129150176,0.326104251597,-0.124722782443,-1.69338882642,0.0561038620089,2.01170288435,0.10539600871,-0.0790125325851,-0.282543899712,-0.000762644881048,-0.42317192689,-0.0310227656142,0.13749667402,-0.0821059045047,0.57374079568,0.819020353862,0.00281180250875,0.0,0.818987567577,-0.573678164917,-0.0115531014268,0.0,-0.00784930663896,0.00893148886118,-0.999929305947,0.0,0.615791386558,0.200903607284,0.30402111979,1.0,-0.0672942857143,-0.0884439183673,1.829
0.420442707361,0.320012436192,-0.124762523828,-1.702457978,0.0553534821872,2.01441564363,0.103705792919,-0.0797239338721,-0.294704664379,-0.000863542478801,-0.428126624104,-0.0310432486868,0.130774604783,-0.0822691385559,0.573820713396,0.818965181556,0.00256265042945,0.0,0.818928924847,-0.573758662632,-0.0117115329626,0.0,-0.00812115119318,0.0088191185559,-0.999928132443,0.0,0.614310533923,0.198981189516,0.303925610788,1.0,-0.0684942857143,-0.0900210612245,1.85
0.419408524445,0.316159585358,-0.124797275558,-1.70807908772,0.0548918253427,2.01615171554,0.102576247509,-0.0792340958314,-0.303130844148,-0.00308218461144,-0.436649030872,-0.0362690446657,0.127817102498,-0.0882909811582,0.573799818964,0.818979955803,0.00251925602252,0.0,0.818943108152,-0.573737898536,-0.0117369627851,0.0,-0.00816710184882,0.00879796386668,-0.999927944544,0.0,0.613397592304,0.19779834146,0.303916018843,1.0,-0.0692371428571,-0.0909973877551,1.863
0.417745888545,0.310149454388,-0.124807021849,-1.71655070425,0.0541647068522,2.01896078291,0.100793061166,-0.0843607284499,-0.305084621118,9.18712548625e-05,-0.419215346367,-0.0379384957338,0.14084497461,-0.0796473590709,0.573738524827,0.819022090954,0.00276885547748,0.0,0.818989024827,-0.573676348383,-0.0115399922017,0.0,-0.00786323303474,0.00888877148613,-0.999929577174,0.0,0.612068523542,0.195990694376,0.304040043796,1.0,-0.07038,-0.0924994285714,1.883
0.416622803136,0.306257033371,-0.124812881499,-1.72212053898,0.0537085441927,2.02072821672,0.0996574786111,-0.0889256507226,-0.300117400547,-0.000243751708712,-0.433366116192,-0.0357897692704,0.130735318948,-0.0899948783557,0.573756598941,0.819009208676,0.00283340370484,0.0,0.818976972128,-0.573694204358,-0.0115076457757,0.0,-0.00779951074118,0.00892325188936,-0.999929769138,0.0,0.611174339102,0.194785526317,0.30407185461,1.0,-0.0711228571429,-0.093475755102,1.896
0.414785196432,0.299926686838,-0.124871024075,-1.73144310998,0.0529321934314,2.02342019023,0.0977899480092,-0.0915100279425,-0.307520361453,-0.000238297116333,-0.445187762341,-0.0339796009249,0.126795501632,-0.0877052699981,0.573805514156,0.818975826717,0.00256399650647,0.0,0.818939682387,-0.573743563573,-0.0116990072718,0.0,-0.00811028380769,0.00881288304267,-0.999928275622,0.0,0.609606733096,0.192752715388,0.303976655005,1.0,-0.0723228571429,-0.0950528979592,1.917
0.41362210135,0.2960165095,-0.124899588905,-1.73720121067,0.0524906502502,2.02519634872,0.0966578716482,-0.0886359423539,-0.305205574945,-0.000661591728782,-0.446999874786,-0.027120401562,0.143148897057,-0.0910369173256,0.573881356935,0.81892285309,0.00250913335626,0.0,0.818885608175,-0.573819177563,-0.0117753592621,0.0,-0.00820347990657,0.00881252201449,-0.99992751856,0.0,0.608655702548,0.191500078897,0.303922550365,1.0,-0.0730657142857,-0.0960292244898,1.93
0.411700070337,0.289445412852,-0.124924441247,-1.74629773258,0.0517278927948,2.02821447839,0.0946629696331,-0.0949711246549,-0.315649842263,0.000735490530458,-0.443441232586,-0.0415192260859,0.135280466389,-0.0944831140531,0.573856407219,0.818939071947,0.00289261689816,0.0,0.818907296527,-0.573793459723,-0.0115174725971,0.0,-0.00777249330678,0.00897833338952,-0.999929486453,0.0,0.607208847131,0.189494706962,0.304095905404,1.0,-0.0742657142857,-0.0976063673469,1.951
0.410501047535,0.285421868856,-0.124939929717,-1.75215648457,0.0512199998439,2.02985678047,0.0934595139087,-0.0934666304099,-0.302044840452,-8.38889955802e-05,-0.459403708652,-0.0400463249092,0.123514586788,-0.0883655396174,0.573863538366,0.818934667811,0.00271957591592,0.0,0.818900363218,-0.573800837356,-0.0116422107731,0.0,-0.00797386859592,0.00890827348587,-0.999928527487,0.0,0.606194761083,0.188209675837,0.30404352224,1.0,-0.0750085714286,-0.0985826938775,1.964
0.408628727557,0.279164030263,-0.124950674105,-1.76124625192,0.0504107807856,2.0325128823,0.0915088803579,-0.0938348372603,-0.315532203658,-0.00116606858777,-0.455134078743,-0.039962753512,0.132551657415,-0.0980740423003,0.573792459702,0.818985046878,0.00254029119291,0.0,0.818948277981,-0.573730253445,-0.0117499436247,0.0,-0.00816574343621,0.00882256601352,-0.999927738871,0.0,0.604631451537,0.186226028332,0.303972589681,1.0,-0.0761514285714,-0.100084734694,1.984
0.407372815915,0.275013924761,-0.124952900128,-1.76703911514,0.0499289605219,2.03436111478,0.0902964937105,-0.0987070717116,-0.324664759881,-0.00402357238302,-0.437596161762,-0.0390904803447,0.147370040394,-0.0928890025253,0.573829351729,0.818958674091,0.00270409447505,0.0,0.818924085061,-0.573766615267,-0.0116602321608,0.0,-0.00799788311972,0.0089056030162,-0.999928359484,0.0,0.603672368708,0.184946053864,0.304037135104,1.0,-0.0768942857143,-0.101061061224,1.997
0.405283412301,0.268328431543,-0.124993158293,-1.77649122001,0.0491132329535,2.03725885977,0.0881861709035,-0.100479593604,-0.318204845797,-0.00108444408463,-0.457573388319,-0.0421808744946,0.132766481994,-0.104621493867,0.57382538288,0.818961172568,0.00278831303234,0.0,0.818927755653,-0.573762449101,-0.0116073220191,0.0,-0.00790626895706,0.00894417513856,-0.999928743782,0.0,0.602082226709,0.182807333412,0.304069004458,1.0,-0.0780942857143,-0.102638204082,2.018
0.404065322493,0.264432193674,-0.125039223022,-1.78203837643,0.0486194585209,2.03877417672,0.0870280797251,-0.101321255847,-0.325501385265,-0.00518041759319,-0.460466586603,-0.0382732089284,0.130338131772,-0.105668793575,0.573888642168,0.81891734564,0.00263710104322,0.0,0.818881792503,-0.573826028847,-0.0117066402678,0.0,-0.00807368899874,0.00887795284505,-0.999927996157,0.0,0.601022827731,0.181429000163,0.304038754813,1.0,-0.0788371428571,-0.103614530612,2.031
0.402114710952,0.258300668795,-0.125061745565,-1.79080285622,0.0478329029577,2.0413339759,0.0850725470202,-0.101558399726,-0.325801911337,-0.000563032695041,-0.458529850863,-0.0328182256346,0.130759683671,-0.110408909352,0.573863031904,0.818935498207,0.00257240981516,0.0,0.818899004523,-0.573800545354,-0.0117516570708,0.0,-0.00814795585662,0.00885055579402,-0.999927636621,0.0,0.5995789533,0.179554870238,0.304008255539,1.0,-0.0798657142857,-0.104966367347,2.049
0.400548275274,0.253330985298,-0.125049200597,-1.79752996051,0.0472195327268,2.04344593905,0.0835627368537,-0.103450231572,-0.329621812531,0.00057615830206,-0.452906262085,-0.0411440169595,0.139137267569,-0.110810724156,0.573860386655,0.818936467036,0.0028401565094,0.0,0.818903879184,-0.573797455269,-0.0115613098732,0.0,-0.00783845459878,0.00896056545578,-0.999929130937,0.0,0.598441699055,0.178025417538,0.304145580108,1.0,-0.0807228571429,-0.106092897959,2.064
0.398618669014,0.247445720403,-0.125058674885,-1.80596288379,0.0464929784672,2.04582204814,0.0816103961429,-0.109095768951,-0.325574047307,-0.00191064103155,-0.473223626562,-0.0464614290146,0.127186748853,-0.110621144546,0.573809793118,0.818972394377,0.00269916144482,0.0,0.818937395976,-0.57374669238,-0.0117056122129,0.0,-0.00803809306868,0.00892741104747,-0.999927842593,0.0,0.596935731848,0.176108530341,0.304071951451,1.0,-0.0817514285714,-0.107444734694,2.082
0.396886993128,0.242159070212,-0.125056574016,-1.8135070944,0.0458180939932,2.04795749038,0.0799265760254,-0.10913576687,-0.326874947731,0.000898636792651,-0.475699141349,-0.0393314891655,0.130476924647,-0.111461952561,0.573797190002,0.818981586744,0.00258693285596,0.0,0.8189447846,-0.573734118202,-0.0118045876289,0.0,-0.00818368582753,0.00889216558284,-0.999926975672,0.0,0.595579342552,0.174400540218,0.304012148052,1.0,-0.0826657142857,-0.108646367347,2.098
0.394997862533,0.236358950901,-0.125062244413,-1.82130395655,0.0451572562888,2.05031765634,0.0780609446946,-0.108262655627,-0.342935775387,-0.00160897741792,-0.460212182992,-0.0403018840735,0.142073583225,-0.109471383938,0.573777906726,0.818994066859,0.00289466810723,0.0,0.818961248223,-0.573713730175,-0.0116523224753,0.0,-0.00788262389991,0.00905664057305,-0.999927918153,0.0,0.594223426844,0.172595267919,0.304162758242,1.0,-0.0836371428571,-0.109923102041,2.115
0.393080430928,0.230651829308,-0.12505787253,-1.82925537833,0.0443728010528,2.05262599438,0.0762158058601,-0.117625064807,-0.336287739912,0.000371271085028,-0.476048400727,-0.0492259436949,0.129736468554,-0.12449997448,0.573741728545,0.819019405724,0.00289635548011,0.0,0.818987001775,-0.573678002856,-0.0116011578801,0.0,-0.00784014895247,0.00902831968913,-0.999928508198,0.0,0.592803260472,0.170749835607,0.304170370956,1.0,-0.0846085714286,-0.111199836735,2.132
0.391200017734,0.2252051503,-0.125075344658,-1.83695007071,0.0436612939008,2.05469001131,0.0743652638972,-0.119283515182,-0.344171710616,-0.000455959916937,-0.483297200837,-0.0469078116268,0.127581690607,-0.115511055851,0.573703471159,0.819046800119,0.00272273682859,0.0,0.819011735621,-0.573639886417,-0.0117390173471,0.0,-0.00805308919651,0.00896484101662,-0.999927387054,0.0,0.591299785447,0.168829901833,0.304106460433,1.0,-0.08558,-0.112476571429,2.149
0.389045100507,0.219067098212,-0.125147476021,-1.84542152615,0.0429032965178,2.05713312218,0.0723280464421,-0.125184032635,-0.351095048421,-0.00592811992881,-0.459323614127,-0.0376319334294,0.145904995309,-0.116117882044,0.573776661997,0.818995236108,0.0028093205305,0.0,0.818961267286,-0.573712730103,-0.011700124134,0.0,-0.00797075643812,0.00901415642289,-0.999927603392,0.0,0.589873771054,0.166891040605,0.304132571342,1.0,-0.0865514285714,-0.113753306122,2.166
0.387070516842,0.213537231172,-0.125190621841,-1.85290117171,0.0422192717926,2.05935310561,0.0705074427045,-0.122811903432,-0.349222955609,-0.000427281862751,-0.47573190491,-0.0405314596406,0.130845035694,-0.111839634458,0.573855258942,0.818939439384,0.00301385251108,0.0,0.818908385166,-0.573790933999,-0.0115657972461,0.0,-0.00774251533293,0.00910533797251,-0.999928570587,0.0,0.588550912399,0.165060554578,0.304217459681,1.0,-0.0874657142857,-0.114954938776,2.182
0.384554603849,0.206597790427,-0.125259882511,-1.86261954633,0.0412578764666,2.0618472388,0.0681204710781,-0.118652818792,-0.34777424858,-0.00588949815418,-0.488847114798,-0.0492746115359,0.125551509411,-0.115611423532,0.573872224048,0.818928519996,0.00273797455917,0.0,0.8188936583,-0.573808568614,-0.0117324286492,0.0,-0.00803710190609,0.00897519772588,-0.999927422776,0.0,0.586724951594,0.162682403553,0.304132583623,1.0,-0.0886085714286,-0.116456979592,2.202
0.382788491371,0.201731770498,-0.12528311478,-1.86937113171,0.0406036726616,2.06366584763,0.066413420191,-0.12861776178,-0.353921338246,0.00308696715168,-0.473647870035,-0.037985985443,0.139637425648,-0.124744658834,0.573839712022,0.818951552834,0.00266193891306,0.0,0.818915597882,-0.573776218263,-0.0117831151721,0.0,-0.00812259960987,0.00894169486894,-0.999927032072,0.0,0.585462371266,0.161048134771,0.30410006337,1.0,-0.0894085714286,-0.117508408163,2.216
0.38042963311,0.195343764448,-0.125305481132,-1.87784986333,0.0398176653046,2.0661965377,0.0642171679829,-0.137340445611,-0.344292085155,-0.003065283554,-0.476911873029,-0.0424371480681,0.134921242251,-0.117981119478,0.573874666903,0.818925862459,0.00300755448659,0.0,0.81889480452,-0.5738104512,-0.0115590711072,0.0,-0.00774040510549,0.00909650396061,-0.999928667328,0.0,0.583941981823,0.158946170102,0.30423793366,1.0,-0.0904371428571,-0.118860244898,2.234
0.378281822609,0.189737015379,-0.125376534627,-1.8856719706,0.0390810175582,2.06819930602,0.0621904974555,-0.136156876741,-0.352379895276,-0.00728323646639,-0.485428204548,-0.0488111143757,0.115175505312,-0.140286026981,0.573912284574,0.818900143502,0.00282692200317,0.0,0.818866230571,-0.573848078125,-0.0117143742134,0.0,-0.00797083242911,0.00903806824286,-0.99992738694,0.0,0.58245416824,0.156982527742,0.304154979826,1.0,-0.0913514285714,-0.120061877551,2.25
0.37597642466,0.183656807998,-0.125446303633,-1.89400810739,0.0382796856795,2.07032079846,0.0600755502118,-0.138034876549,-0.359103162926,-0.0027030505647,-0.482885837321,-0.0457332144321,0.12676471422,-0.124179518295,0.573981767529,0.818851833936,0.00271136589797,0.0,0.818816041398,-0.573917543304,-0.0118190836325,0.0,-0.00812213422897,0.00900422176447,-0.99992647476,0.0,0.580766426801,0.154769262164,0.304119525117,1.0,-0.09238,-0.121413714286,2.268
0.373791424865,0.177829286845,-0.125429451266,-1.9016134063,0.0375314859293,2.07249798708,0.0580213927157,-0.131041219786,-0.368092120391,0.00138863222506,-0.480066099016,-0.0460024717085,0.13435999886,-0.115679412997,0.573939623144,0.818880326176,0.00301119393762,0.0,0.818848896356,-0.573874895053,-0.0116119191579,0.0,-0.00778087334855,0.00913042912706,-0.999928044048,0.0,0.579445128036,0.153004283921,0.304262797891,1.0,-0.0932371428571,-0.122540244898,2.283
0.371450956318,0.17170253221,-0.125414459762,-1.9099449948,0.036680589829,2.07463961504,0.0558187339203,-0.136167549796,-0.361940441427,0.00113004054665,-0.498369089017,-0.048435474262,0.114716098972,-0.124483831948,0.573868767018,0.818930272128,0.00293164355716,0.0,0.818897707247,-0.573804193103,-0.0116636162743,0.0,-0.00786965059886,0.00909427637071,-0.999927678753,0.0,0.577821448421,0.150956543896,0.304236085228,1.0,-0.0942085714286,-0.123816979592,2.3
0.369193709014,0.165923453194,-0.125417656693,-1.91788313253,0.0358856277038,2.07659240638,0.0536726409918,-0.144691239153,-0.356828320174,0.000394300403007,-0.497824853964,-0.0505459749745,0.129194752495,-0.13804565404,0.573798678977,0.818980005857,0.0027518925042,0.0,0.818944608473,-0.573734183056,-0.0118136509269,0.0,-0.00809644498919,0.00903247872835,-0.999926428247,0.0,0.576247975429,0.148986863541,0.304158897595,1.0,-0.0951228571428,-0.125018612245,2.316
0.36674683399,0.159626507472,-0.125418424769,-1.92610317281,0.0350764032614,2.07881441736,0.0513572888919,-0.144028858383,-0.381625084056,-0.00033559170143,-0.479013544738,-0.0456132292666,0.136073434314,-0.131568023106,0.573737243565,0.819022228716,0.00298514944187,0.0,0.818990073412,-0.573672175591,-0.0116722536854,0.0,-0.00784748914124,0.00914179042398,-0.999927419657,0.0,0.574669944305,0.146910396152,0.304270565565,1.0,-0.0960942857143,-0.126295346939,2.333
0.364198246191,0.153379413824,-0.125431499194,-1.93443630518,0.0341985658582,2.08096765562,0.0490539678056,-0.152562068846,-0.365598969263,-0.00175659291477,-0.498140679961,-0.0518415332174,0.112486068529,-0.136210970213,0.573746669825,0.819015567405,0.00300101894101,0.0,0.818983856167,-0.573681825507,-0.0116341446539,0.0,-0.00780706587071,0.00913301365496,-0.999927816287,0.0,0.573045239063,0.144756333583,0.304283420254,1.0,-0.0970657142857,-0.127572081633,2.35
0.361756650915,0.147451556741,-0.125465061018,-1.94246927948,0.0333738967464,2.08281039284,0.0468379594121,-0.152522285026,-0.371810897086,-0.00259302468429,-0.508832624218,-0.0482968646733,0.124668740658,-0.136197929259,0.573762563601,0.819005255816,0.00276739172537,0.0,0.818969863476,-0.573697796015,-0.011829981729,0.0,-0.00810132665433,0.00905418538881,-0.999926192393,0.0,0.571312664596,0.142553463113,0.304202976631,1.0,-0.0980371428571,-0.128848816327,2.367
0.358808160666,0.140341813213,-0.125503489433,-1.95176553908,0.0324650234735,2.08525313014,0.0441709074246,-0.155416707684,-0.37834228957,-0.00381017143238,-0.477048752667,-0.0444850852525,0.135631930976,-0.142253407984,0.573815124543,0.818967660736,0.00298670638985,0.0,0.818935163892,-0.573749619848,-0.0117182749531,0.0,-0.00788341835063,0.00917021884363,-0.999926876727,0.0,0.569597574987,0.140241028641,0.304285206914,1.0,-0.0990657142857,-0.130200653061,2.385
0.356105850181,0.134004409066,-0.12555275882,-1.96011252063,0.0315852395921,2.08742127308,0.0416499663866,-0.16131710249,-0.373031921166,-0.00323771720253,-0.493457170102,-0.050828731293,0.124233791535,-0.148911768888,0.573780598942,0.818991498385,0.00308167994374,0.0,0.818960575687,-0.573715180569,-0.0116281536021,0.0,-0.0077555016941,0.00919596036995,-0.999927640635,0.0,0.567955256296,0.13801495083,0.304311075889,1.0,-0.100037142857,-0.131477387755,2.402
0.353332393552,0.127567803943,-0.125649833015,-1.96869183364,0.0306397774289,2.08932481419,0.0391539658085,-0.162885144544,-0.370385527043,-0.00524143590397,-0.510375370921,-0.051127288432,0.118999143917,-0.14719439553,0.573831917673,0.818956379908,0.00285043308942,0.0,0.818922220874,-0.573767012901,-0.0117710648453,0.0,-0.00800465828863,0.00908907070203,-0.99992665443,0.0,0.566189348999,0.135695220062,0.304253011933,1.0,-0.101008571429,-0.132754122449,2.419
0.350848525408,0.121859158712,-0.125734888729,-1.97616451414,0.0298572554534,2.09118030961,0.037002599846,-0.167215616366,-0.381261214761,-0.00501006989168,-0.489705640009,-0.0497576738928,0.122409994186,-0.145164785787,0.573963410362,0.818864040857,0.00290397285289,0.0,0.818830689867,-0.573898427589,-0.0117321372076,0.0,-0.00794059270871,0.00911185500846,-0.999926957875,0.0,0.564689615506,0.133662149699,0.304268766143,1.0,-0.101865714286,-0.133880653061,2.434
0.347950038902,0.115327191021,-0.125751817601,-1.98449730062,0.0289900932192,2.09334065583,0.0343560164994,-0.172991557706,-0.384368166846,-1.54466810727e-05,-0.497026115914,-0.0528555096651,0.123207566406,-0.15643488859,0.573945419302,0.818875626455,0.00317977381661,0.0,0.818846273504,-0.573880022307,-0.0115432779524,0.0,-0.00762784715551,0.00922913513427,-0.999928316937,0.0,0.563032585558,0.131384948072,0.304377826649,1.0,-0.102837142857,-0.135157387755,2.451
0.34505569073,0.108831463589,-0.125760585759,-1.99308235868,0.0280206109717,2.09520017888,0.0317474084786,-0.168940378786,-0.393500546684,0.000500096747144,-0.503531873055,-0.0548153334808,0.105768653294,-0.146093144769,0.573901423163,0.818907281418,0.00296105254209,0.0,0.818874799074,-0.573836398721,-0.0116875081325,0.0,-0.00787197734413,0.00913238468263,-0.99992731312,0.0,0.561216500581,0.129080975911,0.304311289287,1.0,-0.103808571429,-0.136434122449,2.468
0.34232826038,0.102664297104,-0.125744651016,-2.00112248348,0.0271370272513,2.09705374784,0.0292343310394,-0.174268850414,-0.396250516403,0.000816325282291,-0.492878869646,-0.0528769455228,0.120999884403,-0.162049485951,0.573800898277,0.818977850755,0.00292506594695,0.0,0.818944797821,-0.573735891267,-0.0117171710007,0.0,-0.00791804065178,0.00911896635433,-0.999927071883,0.0,0.559525136934,0.126948974288,0.304295139793,1.0,-0.104722857143,-0.137635755102,2.484
0.339037686572,0.0952233500632,-0.125735751802,-2.01052030478,0.0262000321538,2.09930229968,0.0261727339812,-0.173961322441,-0.382917533782,3.89537622893e-05,-0.50483660846,-0.0519847451198,0.113162980471,-0.168715905538,0.573705454849,0.819043720767,0.00319083836936,0.0,0.819013853913,-0.573639260266,-0.0116212340746,0.0,-0.00768805665342,0.0092806848927,-0.999927378699,0.0,0.557565425032,0.124428507834,0.304401259512,1.0,-0.105808571429,-0.139062693878,2.503
0.336312508504,0.0893976892943,-0.1257695147,-2.0181368781,0.025400101472,2.10090629597,0.0237915081862,-0.182692163606,-0.386607596821,-0.00273760794502,-0.498945720026,-0.0570127355299,0.101223583324,-0.164486214423,0.573767516844,0.819000761302,0.00305556901838,0.0,0.818968362407,-0.573700848074,-0.0117858048555,0.0,-0.00789975270672,0.00926490471927,-0.999925874977,0.0,0.555925788013,0.122327004462,0.304340641876,1.0,-0.106665714286,-0.14018922449,2.518
0.332950819832,0.0823488023247,-0.125828298955,-2.02721679267,0.0243707906758,2.10288723355,0.0207601789017,-0.18458532855,-0.396694045518,-0.0070982256495,-0.495560294001,-0.0492677000594,0.115559380545,-0.163869688957,0.573752426565,0.81901158222,0.00298799284915,0.0,0.818978227485,-0.573685910602,-0.0118273320757,0.0,-0.00797270605751,0.00923323933401,-0.999925588856,0.0,0.553989240504,0.119758200485,0.304319782566,1.0,-0.107694285714,-0.141541061224,2.536
0.329571608654,0.0751691019971,-0.125879461343,-2.03612923617,0.0233516927223,2.10498569838,0.0177669972109,-0.187451504493,-0.39883130443,-0.00472947821397,-0.504851253693,-0.0521425405695,0.104308928296,-0.16816512746,0.57377143185,0.818997304732,0.00324125534062,0.0,0.818968035331,-0.573704997963,-0.0116051419823,0.0,-0.00764520280975,0.00931336276138,-0.999927403439,0.0,0.552118012595,0.117220980615,0.304444422309,1.0,-0.108722857143,-0.142892897959,2.554
0.326467799258,0.0688541479528,-0.125952570153,-2.04431840236,0.0224317309375,2.10666205004,0.0150094074822,-0.193626212903,-0.393827077683,-0.00375528220552,-0.507156167665,-0.0570362073762,0.0940246234115,-0.171075612485,0.573802769477,0.81897598876,0.00307546345857,0.0,0.818944039564,-0.573736251172,-0.0117524914405,0.0,-0.00786065476447,0.00926242293543,-0.999926206091,0.0,0.550325272158,0.11488094903,0.304366153351,1.0,-0.109637142857,-0.144094530612,2.57
0.323492232171,0.0628908895753,-0.126063973217,-2.05192551033,0.0215453718078,2.10818963218,0.0123668815307,-0.200397187358,-0.403438015191,-0.00360957874022,-0.494144550568,-0.0585603165616,0.101149182384,-0.172401564477,0.573856993614,0.818938414569,0.00296157474238,0.0,0.818904778823,-0.573790631326,-0.0118330691328,0.0,-0.00799138489284,0.00921591462203,-0.999925599575,0.0,0.548658852909,0.112641679481,0.304334407828,1.0,-0.110494285714,-0.145221061224,2.585
0.31968384403,0.0552548184879,-0.126087749718,-2.06130596199,0.0204642170114,2.1103801969,0.00902659605803,-0.199271779277,-0.402070767645,-0.000783283493727,-0.491879149614,-0.0512176393789,0.110359703625,-0.171792941633,0.573876103575,0.818923800826,0.00328223818396,0.0,0.818895230184,-0.57380973113,-0.0115646592679,0.0,-0.00758734059287,0.00932467032178,-0.999927738782,0.0,0.546658986317,0.109900828087,0.304463198413,1.0,-0.11158,-0.146648,2.604
0.316249415467,0.0484198109017,-0.126092937261,-2.0699707165,0.0195002749032,2.11204415493,0.00598929921706,-0.205371560778,-0.394046164447,0.000557093617684,-0.507497561351,-0.0552391162666,0.0976403736769,-0.177943014228,0.573856912643,0.818937694989,0.00316898080016,0.0,0.818906856325,-0.573789942556,-0.011722174999,0.0,-0.00778155148162,0.00932213073909,-0.999926269949,0.0,0.544701225982,0.107431237144,0.304414923147,1.0,-0.112551428571,-0.147924734694,2.621
0.312766547892,0.0415367808221,-0.12609962192,-2.07864908062,0.0185012775745,2.11371664673,0.002877598662,-0.210239562847,-0.411549704158,-0.00207472561516,-0.494270063913,-0.0581564620277,0.103610213626,-0.188864025027,0.573795335047,0.818981206728,0.00307301255547,0.0,0.818948584829,-0.573728072732,-0.0118347314225,0.0,-0.00792950171822,0.00930753216404,-0.99992524363,0.0,0.542731154448,0.104947399681,0.304373467431,1.0,-0.113522857143,-0.149201469388,2.638
0.309595722016,0.0353808660228,-0.126127254096,-2.08607145933,0.0176140298751,2.11533235386,4.82670846287e-05,-0.207028528232,-0.40441334774,-0.00201779917339,-0.50120653468,-0.0644337281655,0.107751732737,-0.18430239926,0.573760522291,0.819004632256,0.00331998566643,0.0,0.818976001825,-0.573693370306,-0.0116177538111,0.0,-0.00761048694686,0.00938497777165,-0.999926998676,0.0,0.541101311575,0.102726180517,0.304489849279,1.0,-0.11438,-0.150328,2.653
0.306149795593,0.0288703100816,-0.126203791212,-2.09419510862,0.0166486248909,2.1168484518,-0.00292676954235,-0.211045977873,-0.412410579986,-0.00231565044456,-0.510003225767,-0.0619806669608,0.0834057986227,-0.190490223119,0.573835302476,0.818952584678,0.00323366403285,0.0,0.818922523396,-0.573768042323,-0.0116996232943,0.0,-0.0077262124085,0.00936195742823,-0.999926326984,0.0,0.539245783569,0.100289023901,0.304458626227,1.0,-0.115294285714,-0.151529632653,2.669
0.301974633823,0.0210767977957,-0.126283242662,-2.1039258985,0.0155042419568,2.11858217275,-0.0066341192802,-0.220831075724,-0.41378665637,-0.00569799172514,-0.511363514661,-0.0570926715271,0.0937553957747,-0.203772424834,0.573815393747,0.818967112298,0.00308379221387,0.0,0.818934327088,-0.573747733399,-0.0118681606718,0.0,-0.00795046755181,0.00933573633232,-0.99992481422,0.0,0.536873920736,0.0972208470637,0.304392235259,1.0,-0.116437142857,-0.153031673469,2.689
0.298395873801,0.0143786249814,-0.126364129919,-2.11185801503,0.0145045520839,2.12019718088,-0.00975009902755,-0.225989123957,-0.416546992713,-0.0041570678258,-0.501507378074,-0.059807210545,0.1024037148,-0.202286720287,0.573873654033,0.818925307636,0.00333415987863,0.0,0.818896846349,-0.573806423361,-0.0116142348612,0.0,-0.00759817479022,0.00939561730318,-0.999926992393,0.0,0.535202504197,0.0949108498008,0.30453201225,1.0,-0.117294285714,-0.154158204082,2.704
0.294479115667,0.00742046160858,-0.126414542714,-2.12051748444,0.0134899431611,2.12168605786,-0.0131982869644,-0.233777533037,-0.402023605151,-1.73568138766e-05,-0.508564637784,-0.0482802798746,0.0820348322247,-0.205111909881,0.57388350891,0.818918983567,0.00318801759672,0.0,0.818887745203,-0.573815694519,-0.0117964563163,0.0,-0.00783115825888,0.00938060089057,-0.999925335856,0.0,0.533164010034,0.0922567077886,0.304452542263,1.0,-0.118265714286,-0.155434938775,2.721
0.291038901603,0.00119235745334,-0.126423104021,-2.12815665307,0.0125835912525,2.12303519881,-0.016229176001,-0.23357980241,-0.409230201414,0.000437997210245,-0.508514157201,-0.0632170300686,0.0887500141891,-0.213668054576,0.573848304577,0.818943799084,0.00315026619817,0.0,0.818911612451,-0.573780084167,-0.0118715166236,0.0,-0.00791469730276,0.00939242009242,-0.999924567161,0.0,0.531356037934,0.0899600442978,0.304421283369,1.0,-0.119122857143,-0.156561469388,2.736
0.287098036566,-0.00599730383525,-0.126416128942,-2.13660379471,0.0115479337584,2.12463355673,-0.0197856229848,-0.231532224397,-0.435018652724,0.000735849371257,-0.495644673838,-0.0621708483863,0.0950030382046,-0.204851009697,0.573718342721,0.81903383752,0.00340339892627,0.0,0.819005593997,-0.57365006588,-0.011669868009,0.0,-0.00760580319581,0.00948280266647,-0.999926111376,0.0,0.529382457176,0.0873768591477,0.30454334557,1.0,-0.11998,-0.157688,2.753
0.283012337723,-0.0130757569386,-0.126453919539,-2.14517081512,0.0104624548517,2.12609696663,-0.0233007409198,-0.242927496413,-0.417893804524,-0.0047926699779,-0.508031653458,-0.0656777285874,0.0845038497739,-0.213885274267,0.573748422511,0.819012933649,0.00336289811326,0.0,0.818984141117,-0.573680245002,-0.0116918772457,0.0,-0.00764671769232,0.00946253853205,-0.999925991298,0.0,0.527336533293,0.0846957710929,0.304524071641,1.0,-0.11998,-0.157688,2.77
0.278615428485,-0.0205097023538,-0.126546983925,-2.15424805807,0.00933057597666,2.1274259787,-0.0271923131743,-0.240836043592,-0.404757793327,-0.00233106806223,-0.498479530561,-0.0612778866095,0.0671005946133,-0.209329976487,0.573741291942,0.819018842796,0.0031324059754,0.0,0.818986011467,-0.573672664038,-0.011930400579,0.0,-0.00797440072745,0.00941054129974,-0.999923922429,0.0,0.525110268459,0.0818103107632,0.304432718576,1.0,-0.11998,-0.157688,2.788
0.274144969687,-0.0281021429233,-0.12663299512,-2.162973709,0.00821407013871,2.12901757986,-0.0309931204293,-0.25220012612,-0.421116327921,-0.00512893394574,-0.479213406363,-0.0630545376885,0.0896909578813,-0.20928343148,0.573862121046,0.818932871283,0.00345908395777,0.0,0.818905431828,-0.573793747552,-0.0116351146943,0.0,-0.00754372237711,0.00950979733232,-0.99992632529,0.0,0.523047888801,0.0789436559086,0.304590336014,1.0,-0.11998,-0.157688,2.806
0.270117038377,-0.0346812601862,-0.126724407288,-2.17087126339,0.00721774711969,2.13022022657,-0.0344499053392,-0.255115075524,-0.417820666669,-0.00650094120712,-0.504113310495,-0.0542703203497,0.0633487783827,-0.206643980883,0.57395315927,0.818869417262,0.00337569807321,0.0,0.818840427401,-0.573884460835,-0.0117357133045,0.0,-0.00767290377333,0.00950009068665,-0.999925434632,0.0,0.521105329742,0.0763650550773,0.304543829127,1.0,-0.11998,-0.157688,2.822
0.265843750113,-0.0416725643416,-0.126729533969,-2.17920840853,0.00620469202449,2.13142403321,-0.0382288218307,-0.248699753613,-0.405200508313,0.000158652051742,-0.487536407437,-0.0633856787455,0.0734096658699,-0.223520519038,0.573895238304,0.818910302942,0.00330425322238,0.0,0.818879493543,-0.573825703471,-0.0118820870278,0.0,-0.00783444889514,0.00952504175822,-0.999923944603,0.0,0.519018490072,0.0737046809287,0.304498662611,1.0,-0.11998,-0.157688,2.839
0.2618209399,-0.0482558967583,-0.126718876414,-2.18681742976,0.00523102361424,2.13265748202,-0.0417075141963,-0.252742411282,-0.41672436558,-0.000286396888425,-0.458317795617,-0.063382598879,0.0776659099941,-0.216016150018,0.57387822572,0.818921593045,0.0034573673906,0.0,0.818893201439,-0.573808686984,-0.0117584982023,0.0,-0.00764556783772,0.0095793451686,-0.999924887898,0.0,0.517140802181,0.0712393318415,0.304560824382,1.0,-0.11998,-0.157688,2.855
0.257728655011,-0.054839418864,-0.126731966535,-2.19435991328,0.00419658507687,2.1337926329,-0.0453110159636,-0.257689449426,-0.410502614067,-0.0032582492034,-0.47970653841,-0.0626781853567,0.0693955644497,-0.224748330465,0.573802196116,0.818974453103,0.0035541240898,0.0,0.818948004635,-0.573733223514,-0.0116232887358,0.0,-0.00748020148189,0.00958029588464,-0.99992612953,0.0,0.515257981517,0.0687372520264,0.304631135492,1.0,-0.11998,-0.157688,2.871
0.253295484538,-0.0617514992259,-0.126767610086,-2.20255055024,0.00317665802128,2.13481700656,-0.0491489309749,-0.25787379089,-0.416379371231,-0.0035974557908,-0.482527643698,-0.0599447945978,0.062053323812,-0.223290495034,0.57382876297,0.818956480099,0.00340314462965,0.0,0.818926901742,-0.573758817975,-0.0118446317402,0.0,-0.00774780284712,0.00958390158685,-0.999924057307,0.0,0.51314498461,0.0660430450021,0.3045523669,1.0,-0.11998,-0.157688,2.888
0.249107367088,-0.0681991782681,-0.126810703436,-2.21007300473,0.00217549370352,2.13585239104,-0.0528070081532,-0.263083621343,-0.41148978451,-0.000647672199395,-0.465566844915,-0.0650089692822,0.0681613349473,-0.229320485766,0.573813572834,0.818967268417,0.00336805495398,0.0,0.818937092746,-0.573743580781,-0.0118780697003,0.0,-0.00779550047454,0.00957420707851,-0.999923779461,0.0,0.511220422313,0.0635189731743,0.304525817315,1.0,-0.11998,-0.157688,2.904
0.244575674652,-0.0751131947836,-0.126910261958,-2.21778022344,0.0011151558245,2.13697501019,-0.0567441224628,-0.273289520078,-0.402931930242,-0.00953366405116,-0.458840380082,-0.056428872541,0.0551623546039,-0.239607846148,0.573863321345,0.81893146267,0.00359092818647,0.0,0.81890518521,-0.573793830646,-0.011648366857,0.0,-0.00747890566037,0.00962538552293,-0.999925706202,0.0,0.509272639414,0.0608022941334,0.304646859775,1.0,-0.11998,-0.157688,2.921
0.239511039875,-0.0827339720948,-0.126923537203,-2.22666574527,-1.85903092856e-05,2.13799314606,-0.0611634236866,-0.268040725021,-0.401301112891,-0.000335606723857,-0.460377055072,-0.0632849371267,0.0560586870716,-0.220560147908,0.573836460046,0.818950890223,0.00345013417078,0.0,0.818921611197,-0.573765961255,-0.0118643719163,0.0,-0.00773691735351,0.00963378409532,-0.999923662243,0.0,0.506921575848,0.0578328620912,0.304567062593,1.0,-0.11998,-0.157688,2.94
0.235518641062,-0.0887220904421,-0.126902908298,-2.23361035033,-0.000919242792546,2.13879773225,-0.0646798433971,-0.270182363295,-0.406077574607,0.00171874431998,-0.457675768952,-0.0618151939659,0.048387387935,-0.22995500259,0.573754765437,0.819008493546,0.00336207363189,0.0,0.818977328769,-0.573683688144,-0.0119961585935,0.0,-0.00789634100611,0.00963650077467,-0.999922389814,0.0,0.505072477581,0.0555291560358,0.304509096423,1.0,-0.11998,-0.157688,2.955
0.230600649679,-0.0959914875421,-0.126932565482,-2.24157953492,-0.00203853371538,2.13984900075,-0.0690018642143,-0.273889500449,-0.388126778178,-0.000597831269856,-0.43663535776,-0.0685377770034,0.061104372855,-0.236829558246,0.573700280699,0.819045663781,0.00359659110713,0.0,0.819018724345,-0.573629850202,-0.0117418495226,0.0,-0.00755414435892,0.00968216423926,-0.999924592456,0.0,0.502994488896,0.0527059398562,0.30463898215,1.0,-0.11998,-0.157688,2.973
0.226153528171,-0.102331652525,-0.127021283294,-2.24877705682,-0.00302797271551,2.1405945858,-0.0727971183949,-0.27458645749,-0.398702522667,-0.00666091304417,-0.447838029017,-0.05583939852,0.0389051092478,-0.231138473196,0.573799296717,0.818976652444,0.00351521565107,0.0,0.818948172997,-0.573728516005,-0.0118417383938,0.0,-0.00768147570218,0.00967374684702,-0.999923703866,0.0,0.50093346153,0.0499813029824,0.304609356088,1.0,-0.11998,-0.157688,2.99
0.221630776677,-0.108703732947,-0.127128358184,-2.25600715587,-0.00401299113986,2.14129888655,-0.0766806880472,-0.287862110251,-0.388236617908,-0.0112765906766,-0.455191940556,-0.0640139928244,0.0449644723151,-0.24553414649,0.573896674907,0.818908766701,0.00343296536372,0.0,0.818878558266,-0.573825353596,-0.0119631636329,0.0,-0.00782696770612,0.00967698786991,-0.999922544241,0.0,0.49908673867,0.0475502600517,0.304568338889,1.0,-0.11998,-0.157688,3.005
0.216820703828,-0.115434340097,-0.1272105547,-2.26345264323,-0.00507796154238,2.14211393451,-0.0808419082344,-0.27879519631,-0.402721769832,-4.35466496933e-05,-0.423742427995,-0.0511828152767,0.0546417701074,-0.232028815758,0.573939027886,0.818878830502,0.00349286778114,0.0,0.818849803722,-0.57386798347,-0.0118862691336,0.0,-0.00772911798655,0.0096823142633,-0.999923253818,0.0,0.497072629361,0.0448389504155,0.304602047342,1.0,-0.11998,-0.157688,3.022
0.212018514373,-0.122111437694,-0.127200273973,-2.27069585702,-0.00606928256825,2.14295167907,-0.0850863815432,-0.285448654457,-0.383460077901,-0.000569528923872,-0.438533140525,-0.0520298549704,0.0391531135727,-0.250911829099,0.573860851079,0.818932712909,0.00369894953495,0.0,0.818907058612,-0.573790005105,-0.0117049689805,0.0,-0.00746330542091,0.00974630699122,-0.999924651447,0.0,0.495110948237,0.0422145276837,0.304689405015,1.0,-0.11998,-0.157688,3.039
0.20746597439,-0.128346335477,-0.127195798508,-2.27771936163,-0.00702620419633,2.14348777881,-0.0890539680913,-0.289449963985,-0.383803356444,0.000794853008817,-0.43138023671,-0.0609750397371,0.0297730741626,-0.249674170434,0.57382195679,0.818960638459,0.00354703563768,0.0,0.818931973485,-0.573750304606,-0.0119062029927,0.0,-0.00771574737899,0.00973700906158,-0.999922825971,0.0,0.493124921169,0.039734122583,0.30461903796,1.0,-0.11998,-0.157688,3.055
0.201936936172,-0.135807102091,-0.127225537489,-2.28593056116,-0.00819469661103,2.14420066672,-0.0938887421399,-0.294953256697,-0.386812018669,-9.85489437649e-05,-0.430459537836,-0.0579444490889,0.0366741785822,-0.255415868411,0.573784428148,0.818987025433,0.00352549119623,0.0,0.818957927677,-0.573712667289,-0.0119346130228,0.0,-0.0077518235082,0.00973531150749,-0.999922563473,0.0,0.49081729204,0.0367388908651,0.304612046471,1.0,-0.11998,-0.157688,3.074
0.196938983339,-0.142479530368,-0.12729768773,-2.29295660924,-0.0091775331739,2.14493406298,-0.0982820278323,-0.298979766681,-0.399000972744,-0.00695343155692,-0.411418810952,-0.0554057219778,0.0433615605574,-0.261168142123,0.573800509947,0.818974467929,0.00381347182794,0.0,0.81895013389,-0.573729086288,-0.0116773563212,0.0,-0.00737569897757,0.00982370541275,-0.999924544091,0.0,0.488870922208,0.0340526520557,0.304742548433,1.0,-0.11998,-0.157688,3.091
0.192153774958,-0.148606314474,-0.12742253529,-2.299690649,-0.0101326569089,2.14545646148,-0.102375478882,-0.301111426114,-0.38533206099,-0.0080315872196,-0.429180330271,-0.0578006554903,0.0352748277972,-0.266587249763,0.573942254033,0.818875307834,0.00377705661516,0.0,0.818850057524,-0.573870339733,-0.0117542914822,0.0,-0.00745790188062,0.00983931701178,-0.999923780865,0.0,0.486946327774,0.0314699524688,0.304708237471,1.0,-0.11998,-0.157688,3.107
0.187403155317,-0.154769669656,-0.127426838104,-2.30646029697,-0.0111265955277,2.14582958757,-0.106596764958,-0.290617316531,-0.384464479121,0.00121957544696,-0.412096768901,-0.0522815525787,0.0260329325411,-0.258338202032,0.573829804234,0.818954836033,0.00361651938931,0.0,0.818926771098,-0.573757515997,-0.0119165145045,0.0,-0.00768422994601,0.00979990440991,-0.999922454235,0.0,0.484959685678,0.028976077759,0.304651612369,1.0,-0.11998,-0.157688,3.123
0.182347987363,-0.161288689876,-0.127415838821,-2.31349318248,-0.0121610745204,2.14631252238,-0.111042210413,-0.299085535902,-0.381034012373,0.000227464889956,-0.408655320671,-0.0591577127713,0.0378444135686,-0.264464871711,0.573743592349,0.819015346261,0.00359161925256,0.0,0.818986945625,-0.573671391523,-0.0119274618085,0.0,-0.00770851346142,0.00978498245833,-0.999922413459,0.0,0.482906973651,0.0263592764047,0.304644052786,1.0,-0.11998,-0.157688,3.14
0.176846777918,-0.16817728219,-0.127434719609,-2.3206159931,-0.0131345218462,2.14689078449,-0.1158789265,-0.306648555786,-0.375673928944,-0.00214658679916,-0.393159579453,-0.0571003476578,0.0351120236407,-0.270729952667,0.57374666753,0.819011872729,0.00388081539015,0.0,0.818987974896,-0.57367445071,-0.0117076248397,0.0,-0.00736250085886,0.00989574239749,-0.999923931039,0.0,0.480848171865,0.0235477740087,0.304766780138,1.0,-0.11998,-0.157688,3.158
0.171917863133,-0.174236034006,-0.127470462013,-2.32722374186,-0.0140482266612,2.14717535031,-0.120184387041,-0.306525907982,-0.373061181086,-0.00140344553813,-0.407544630254,-0.0475091444731,0.0187826449427,-0.267924101761,0.573760533087,0.819002763598,0.00375110528531,0.0,0.81897590543,-0.573687070434,-0.0119314057139,0.0,-0.00762004036068,0.00991802550302,-0.999921780818,0.0,0.478856914955,0.0210322729933,0.304687364339,1.0,-0.11998,-0.157688,3.174
0.166549027861,-0.180656898957,-0.127628523743,-2.33406384803,-0.0151111212086,2.14751176679,-0.124850483433,-0.314929602662,-0.383439377465,-0.00771475629649,-0.395815399778,-0.0619951537481,0.0257999108842,-0.287664715129,0.573861400741,0.818932363262,0.00369107615943,0.0,0.818904555309,-0.573787923179,-0.0119789569786,0.0,-0.00769220872292,0.00989709066175,-0.999921435675,0.0,0.476801408023,0.0182547662333,0.304665521821,1.0,-0.11998,-0.157688,3.191
0.161533534393,-0.186710208966,-0.12766191045,-2.34039344508,-0.0160269541539,2.14784279743,-0.129224001882,-0.310416869466,-0.379083582856,-0.000590097728412,-0.388781945269,-0.0572836429357,0.0207146241075,-0.270866682811,0.573882774928,0.818917082594,0.00375757616641,0.0,0.818890168573,-0.57380908829,-0.011948594518,0.0,-0.00762892368994,0.00993432602536,-0.999921551268,0.0,0.47489008123,0.0157465108815,0.304689187541,1.0,-0.11998,-0.157688,3.207
0.156208440881,-0.193114124489,-0.127666277065,-2.34690782246,-0.0170113640416,2.14823206496,-0.133964025542,-0.318799844026,-0.378599922833,-0.00183429729826,-0.387663227306,-0.0622608719388,0.0150223073592,-0.27946464879,0.573794983897,0.818977705441,0.00394732142944,0.0,0.818954334214,-0.573722090405,-0.0117263956316,0.0,-0.00733913238649,0.00996141477388,-0.999923450746,0.0,0.472925480247,0.0131200756747,0.304787383037,1.0,-0.11998,-0.157688,3.224
0.151059577266,-0.199065301024,-0.127688917796,-2.35320438075,-0.0179689728416,2.14840538802,-0.138527257948,-0.321904270062,-0.367457938137,-0.00458422775774,-0.397901010002,-0.0606175454882,0.0103967423799,-0.283606153303,0.57373445297,0.819020622039,0.00383992849371,0.0,0.818995309939,-0.573661195213,-0.0118432388097,0.0,-0.00749718319169,0.00993994894157,-0.999922491826,0.0,0.470962844337,0.0105913240481,0.304740560269,1.0,-0.11998,-0.157688,3.24
0.145582253937,-0.205357492738,-0.127756110019,-2.35982635518,-0.0189213320571,2.14860123642,-0.143312292401,-0.322202197016,-0.369702452784,-0.00695142040479,-0.386619758024,-0.0561121234394,0.014957014993,-0.286075689219,0.573788379197,0.818983019757,0.00380212426154,0.0,0.818956413289,-0.573714189499,-0.0119653166544,0.0,-0.00761820520096,0.00997952583462,-0.999921182901,0.0,0.468887932329,0.00791451812167,0.304695379633,1.0,-0.11998,-0.157688,3.257
0.139980385878,-0.211658224205,-0.12789614183,-2.36626001502,-0.019859248141,2.14877843915,-0.148213078387,-0.332723610906,-0.369782688326,-0.0113282364781,-0.37292745322,-0.0506211946629,0.00838888264344,-0.286430771842,0.573913024608,0.818895249003,0.00389335928148,0.0,0.818869599594,-0.573838180534,-0.0119611171494,0.0,-0.00756088937074,0.010052988028,-0.999920882062,0.0,0.466861238938,0.00517275939718,0.304724049997,1.0,-0.11998,-0.157688,3.274
0.134430261276,-0.217923700285,-0.127909865953,-2.37248335876,-0.020816089184,2.14899705303,-0.153089187174,-0.323810117625,-0.367975643053,0.000152677903038,-0.36550946033,-0.0525232101584,0.00735831636649,-0.285299721001,0.573905604824,0.818899563059,0.00407544762413,0.0,0.818877312776,-0.573831534347,-0.0117500515124,0.0,-0.00728363191865,0.0100809061075,-0.999922659028,0.0,0.464900115673,0.00253296186944,0.304823905936,1.0,-0.11998,-0.157688,3.291
0.128191762367,-0.224855410319,-0.127898392525,-2.37967745809,-0.0219600995256,2.14907628596,-0.158704826898,-0.32878014576,-0.364128703134,0.000493956267836,-0.379015464923,-0.0640343007285,0.000328235737307,-0.28175129464,0.573725512886,0.819026402168,0.00394148649402,0.0,0.81900204855,-0.5736514236,-0.0118505516595,0.0,-0.00744501869069,0.0100272423973,-0.999922010012,0.0,0.46256897618,-0.000401091963428,0.304766270031,1.0,-0.11998,-0.157688,3.31
0.122774772213,-0.230641474842,-0.127941974119,-2.38561924407,-0.0228532077845,2.1490897184,-0.163455711755,-0.340115575493,-0.363832875294,-0.00346888637807,-0.362858832649,-0.0582574668817,-0.00101707256515,-0.294947531095,0.573762268734,0.819000912727,0.00388726534438,0.0,0.818975166625,-0.573687446703,-0.0119639812867,0.0,-0.00756858198228,0.0100482482892,-0.999920871506,0.0,0.460619140502,-0.00293916615012,0.304729810866,1.0,-0.11998,-0.157688,3.326
0.116998834616,-0.236780880673,-0.128050984068,-2.39178741176,-0.0237754032911,2.14912454433,-0.168528170576,-0.346340832239,-0.36262900223,-0.0117452395068,-0.355485367904,-0.0584044253123,0.00203903483905,-0.300262926155,0.573858915199,0.818932901782,0.0039490157959,0.0,0.818907684618,-0.573783487187,-0.0119775125444,0.0,-0.0075430442768,0.0101074763377,-0.99992046754,0.0,0.458587022533,-0.00564655406709,0.304741978158,1.0,-0.11998,-0.157688,3.343
0.110775363305,-0.243293420284,-0.12816940698,-2.39810079115,-0.0248367994107,2.14922258062,-0.174037622232,-0.343170949352,-0.364465154914,-0.00336353601653,-0.348782378608,-0.0583625491005,0.00506561635106,-0.312335195674,0.573900203762,0.818903099402,0.004125144041,0.0,0.818881632058,-0.573826165191,-0.0117111793386,0.0,-0.0072233445439,0.0100992473353,-0.999922911277,0.0,0.456507401715,-0.00855064631209,0.304850512076,1.0,-0.11998,-0.157688,3.361
0.106034066979,-0.248302391922,-0.128164753106,-2.40314516061,-0.0255952449333,2.14922076359,-0.178317651162,-0.339205150782,-0.362326826761,-0.000313235068938,-0.36055315708,-0.0484940697053,0.000849616844329,-0.301969653782,0.573802786152,0.818971329145,0.0041317726046,0.0,0.818949734642,-0.573728443148,-0.0117368034479,0.0,-0.0072417294815,0.0101185194099,-0.999922583463,0.0,0.454813882244,-0.0106914729211,0.304834289149,1.0,-0.11998,-0.157688,3.375
0.0997750794751,-0.254642742844,-0.12818396524,-2.40961309795,-0.0265629568912,2.14916652765,-0.183915454535,-0.349014473799,-0.349666400699,-0.00216098632113,-0.352701868525,-0.0593489648668,0.00135890598807,-0.317291164452,0.573753448136,0.819006221713,0.00406650321569,0.0,0.818982915027,-0.573678135745,-0.0118797459464,0.0,-0.00739686427125,0.0101466372115,-0.999921162968,0.0,0.45261183319,-0.0135032334176,0.304759985074,1.0,-0.11998,-0.157688,3.393
0.0938059484065,-0.260605689957,-0.128228439745,-2.41552193137,-0.0274782632569,2.14911272604,-0.189171753226,-0.354416361186,-0.349792220473,-0.0014541305938,-0.347330765707,-0.0468336248794,-0.0118498920921,-0.311833707516,0.573800167557,0.818973314215,0.00410185521067,0.0,0.818950420437,-0.573724660842,-0.011873049653,0.0,-0.00737051723989,0.0101721697754,-0.999921098106,0.0,0.450584474738,-0.016174730898,0.304756358041,1.0,-0.11998,-0.157688,3.41
0.0884627941897,-0.265896688826,-0.128369423717,-2.42057864311,-0.0282996909685,2.14903779864,-0.193927882884,-0.356393061478,-0.348496098968,-0.00995353678083,-0.336068479601,-0.0503957570008,0.00215952421081,-0.317045625031,0.573881584911,0.818915589829,0.00423439922707,0.0,0.818894984788,-0.573806413762,-0.0117452252199,0.0,-0.00718876100963,0.0102080932924,-0.999922055236,0.0,0.448830002482,-0.0185942028441,0.304823814653,1.0,-0.11998,-0.157688,3.425
0.0823881107286,-0.271843527707,-0.128410234728,-2.42626530492,-0.0292283584088,2.14895304298,-0.199340805401,-0.353951309774,-0.345686997267,0.00133628025086,-0.34046484045,-0.0591683543328,-0.00978850582895,-0.311388383275,0.573875859698,0.818918978305,0.00435333537535,0.0,0.818900755971,-0.57380152965,-0.0115802997785,0.0,-0.00698551125837,0.0102108007104,-0.999923468162,0.0,0.446842621569,-0.0212713958596,0.304889220206,1.0,-0.11998,-0.157688,3.442
0.0756309715566,-0.278408367619,-0.128408010221,-2.43281817899,-0.0302649138211,2.14870128457,-0.205463902263,-0.3574000501,-0.348721867775,-0.00200200609949,-0.341867878543,-0.0585653748133,-0.0117163600559,-0.318090662379,0.573736848734,0.819017010052,0.00423232233952,0.0,0.818996359854,-0.573661681015,-0.011746709419,0.0,-0.00719297216544,0.0102059731315,-0.999922046594,0.0,0.444499857864,-0.0241918192515,0.304810986795,1.0,-0.11998,-0.157688,3.461
0.0704835040967,-0.283206648195,-0.128442873856,-2.43747269642,-0.0310270312106,2.14854273238,-0.210041360754,-0.36866205558,-0.345958927373,-0.0016987864014,-0.333822388245,-0.0497368525621,-0.00306360103958,-0.329957073434,0.573749941456,0.819007818884,0.00423605801118,0.0,0.818987279576,-0.573674848161,-0.0117367534529,0.0,-0.00718251119548,0.010203435681,-0.999922147686,0.0,0.442822417578,-0.0264189456801,0.304807689293,1.0,-0.11998,-0.157688,3.475
0.0627418907194,-0.290404770601,-0.128608997868,-2.44432695671,-0.0320948602061,2.14828262395,-0.216995577239,-0.374701894944,-0.342460186183,-0.0123359862296,-0.32638824628,-0.0450683835857,-0.0137503618316,-0.325423619574,0.573836564888,0.818946395822,0.00437543926267,0.0,0.818927662908,-0.573761009813,-0.0116847526293,0.0,-0.00705886550717,0.0102885046456,-0.999922156515,0.0,0.440322890419,-0.0297775184223,0.304843126785,1.0,-0.11998,-0.157688,3.496
0.057902853269,-0.294804499221,-0.128683150621,-2.44841946258,-0.0327444042741,2.1481415066,-0.221281045546,-0.372753219299,-0.341750311345,-0.00781592500005,-0.31725219987,-0.0485060853513,-0.00450627336242,-0.322661863696,0.573928642731,0.81888110111,0.00451687929072,0.0,0.818864770585,-0.573853486426,-0.0115503468585,0.0,-0.00686646602574,0.0103279870655,-0.999923089206,0.0,0.438818436977,-0.0318500192335,0.304902428222,1.0,-0.11998,-0.157688,3.509
0.0509096114454,-0.301213355722,-0.128675387398,-2.45450240741,-0.0337183652993,2.14779688867,-0.227671624375,-0.373327478598,-0.334543644733,-0.000921586577088,-0.322229282765,-0.0559080768871,-0.0214989263536,-0.339068093842,0.573785788943,0.818981077424,0.00453983816642,0.0,0.818965041379,-0.57371058404,-0.0115400892668,0.0,-0.00684669335547,0.0103397070477,-0.999923103668,0.0,0.436543740672,-0.0347674834859,0.304912669473,1.0,-0.11998,-0.157688,3.528
0.0452225166647,-0.306200115342,-0.128708551296,-2.45936142129,-0.0345692763784,2.14744013001,-0.232700335942,-0.372855834977,-0.338112545787,-0.0060341639239,-0.318846468827,-0.0534622437491,-0.0266314650032,-0.338605975186,0.573812083592,0.818963468309,0.0043905808422,0.0,0.818944918781,-0.573736465745,-0.0116805298813,0.0,-0.00704702660543,0.0102982713335,-0.999922139481,0.0,0.434686854752,-0.0371434880257,0.304846274422,1.0,-0.11998,-0.157688,3.543
0.0391663970339,-0.311499724903,-0.128792710812,-2.4643457626,-0.035375053745,2.14715624795,-0.238206210435,-0.378954991722,-0.336431084735,-0.0109738390804,-0.309504040745,-0.0494214217359,-0.0163583019432,-0.348118713432,0.573802927857,0.818969525512,0.00445681117402,0.0,0.818951899118,-0.573727199746,-0.0116462055817,0.0,-0.00698102807101,0.0103327397734,-0.999922246845,0.0,0.432781607704,-0.039667726402,0.304855606972,1.0,-0.11998,-0.157688,3.559
0.0318322904,-0.317731222098,-0.128931968807,-2.47014444614,-0.036307953776,2.14674281583,-0.244763164587,-0.383489107292,-0.32978793687,-0.00241062852933,-0.301146508293,-0.0594048399728,-0.0196486317618,-0.351298781033,0.573934687343,0.818876706685,0.00454541687884,0.0,0.818860106439,-0.573858483096,-0.0116324701721,0.0,-0.00691726600878,0.0103985388845,-0.999922007869,0.0,0.430517997774,-0.0427141457611,0.304875568878,1.0,-0.11998,-0.157688,3.578
0.0261387032992,-0.322622892911,-0.128913267753,-2.47458152065,-0.0370655055879,2.14644573118,-0.250032861824,-0.380927818819,-0.329552456112,0.00139420870172,-0.296394908261,-0.05472385242,-0.0188994269409,-0.356370265425,0.573775596964,0.818987677672,0.00463627554613,0.0,0.818973171485,-0.573700549513,-0.0114617091937,0.0,-0.00672729428745,0.0103736340473,-0.999923562693,0.0,0.428780977744,-0.0450138771243,0.30493903599,1.0,-0.11998,-0.157688,3.593
