nelsonifechukwu/NELSON_IML_WORK/CNN-GradCAM/train2dof/data_sample_2022-02-22-07-27-27/robot_state.csv
position_joint1,position_joint2,position_joint3,position_joint4,position_joint5,position_joint6,position_joint7,velocity_joint1,velocity_joint2,velocity_joint3,velocity_joint4,velocity_joint5,velocity_joint6,velocity_joint7,ee_T_00,ee_T_10,ee_T_20,ee_T_30,ee_T_01,ee_T_11,ee_T_21,ee_T_31,ee_T_02,ee_T_12,ee_T_22,ee_T_32,ee_T_03,ee_T_13,ee_T_23,ee_T_33,v_x,v_y,time
0.465060980006,0.547672014118,-0.124055276857,-1.35586967047,0.0795185254367,1.8941529553,0.159137371299,-0.00260186234159,-0.000598442808436,-0.00089099964858,-0.000155575168544,-0.000310971826711,0.000389572463569,0.000483166578065,0.573852010918,0.818944703936,0.00204654887117,0.0,0.818903017257,-0.57379324081,-0.0118284415335,0.0,-0.00851270753639,0.00846386296116,-0.999927945821,0.0,0.661699634028,0.260847102599,0.303281061991,1.0,0.0,0.0,0.0
0.465060743795,0.547679645767,-0.124052741973,-1.35587039946,0.0795194930147,1.89415144412,0.159135781831,-0.000670593036513,0.00121419869541,-0.000100542704168,0.000357179092103,0.000118103970934,-0.000292914282211,0.00044593987338,0.573849431363,0.818946529844,0.00203918646234,0.0,0.81890472257,-0.573790666369,-0.0118352625919,0.0,-0.0085225451558,0.00846172104698,-0.99992788015,0.0,0.661698387716,0.260848278869,0.303275095228,1.0,-0.0002,-0.000262857142857,0.011
0.465057820804,0.547677104913,-0.124052774126,-1.35587314128,0.0795185253946,1.89414981701,0.159130350739,-0.000672658222646,0.000786980743902,-0.000776790781239,-0.000498403396108,-0.000278126041621,-0.000578064963267,-0.00136158449568,0.573847277714,0.81894804346,0.00203736964579,0.0,0.818906216191,-0.573788523881,-0.0118357867588,0.0,-0.0085240392014,0.0084605115698,-0.999927877649,0.0,0.661698325728,0.260845766341,0.303275448072,1.0,-0.00054,-0.000709714285714,0.028
0.465062371267,0.547649470131,-0.124057407735,-1.35588562527,0.0795173266963,1.89415270081,0.159134216143,0.000240114502275,-0.00418257528995,-0.00175365732368,-0.00137460023081,0.000420222463911,-0.000327419933584,-0.00126665158302,0.573850288364,0.818945897575,0.00205189935168,0.0,0.818904285489,-0.573791502081,-0.0118249840889,0.0,-0.00850682358008,0.0084662427032,-0.99992797575,0.0,0.661696716038,0.260844981733,0.303289484467,1.0,-0.00088,-0.00115657142857,0.045
0.465061960839,0.547571865457,-0.124057437003,-1.35596001544,0.0795168708382,1.8941721227,0.159140171744,0.000514920244824,-0.00941977698634,-0.00199747555923,-0.00585683067741,0.00011894355747,0.000521981097677,0.00150596701553,0.573859460055,0.818939414125,0.00207436738598,0.0,0.818898049293,-0.57380053843,-0.0118183697473,0.0,-0.00848841910218,0.00848094197224,-0.999928007591,0.0,0.66168572819,0.260838130994,0.303310739039,1.0,-0.0012,-0.00157714285714,0.061
0.46505108434,0.547454911567,-0.124054929832,-1.35610622755,0.0795163795882,1.89420450447,0.159129433196,-0.00202729111389,-0.0041453840029,-0.000510476615895,-0.0110084917326,0.000104978202817,0.00187326202022,-0.00439254930517,0.573865693687,0.818935022414,0.00208364457698,0.0,0.81889366275,-0.573806618987,-0.0118270882029,0.0,-0.00849017115479,0.00849360704364,-0.999927885216,0.0,0.661664043559,0.260818684508,0.303326722264,1.0,-0.0015,-0.00197142857143,0.076
0.46503444512,0.547307807466,-0.124058385466,-1.35632060761,0.0795123009505,1.89429337432,0.159123167326,-0.00304713074678,-0.00880095816056,-0.00164485702469,-0.00880016562287,-0.000115784358668,0.00953158222055,-0.00116308109102,0.573887583951,0.818919626307,0.00210559688005,0.0,0.818878503481,-0.57382837071,-0.0118213538297,0.0,-0.00847265055842,0.00850852002582,-0.999927907041,0.0,0.661641862134,0.260787535967,0.303336711371,1.0,-0.00184,-0.00241828571429,0.093
0.465016866881,0.547098023316,-0.124053836599,-1.35655566237,0.0795067179537,1.89440891008,0.159116161303,0.000136584179058,-0.0133803759216,-0.00108102680486,-0.0106838085792,-0.000148521577669,0.0084758295183,0.00174314311193,0.573904834413,0.818907319903,0.00218845760522,0.0,0.818867216867,-0.573845236689,-0.0117844122033,0.0,-0.00839466706497,0.00855535203967,-0.999928165178,0.0,0.661620402331,0.260760345982,0.303383300596,1.0,-0.00222,-0.00291771428571,0.112
0.464989552364,0.546910150225,-0.124053461848,-1.35677466551,0.0795056521041,1.89452005683,0.159094693076,-0.00369646446972,-0.0164672739895,0.000518432144767,-0.0128646998397,-0.00163869877248,0.00961394444583,-0.000581479189583,0.57392145511,0.818895468073,0.00226332409608,0.0,0.818856271694,-0.573861500807,-0.0117529187812,0.0,-0.0083257376602,0.00859875493231,-0.999928369188,0.0,0.661604401946,0.260726347241,0.303421768189,1.0,-0.00252,-0.003312,0.127
0.464959408374,0.546676367576,-0.124048201365,-1.35711088429,0.0794977372302,1.89465233522,0.159028758796,-0.000777109812088,-0.0127660660196,0.00170233815539,-0.0219720492931,0.000213244443019,0.00998894971983,-0.00193854786401,0.573905217723,0.81890675354,0.00229716718921,0.0,0.818867869822,-0.573845005985,-0.0117502246756,0.0,-0.00830428030616,0.00862475770692,-0.999928323673,0.0,0.661566923314,0.260680310533,0.303438608949,1.0,-0.00286,-0.00375885714286,0.144
0.464921503411,0.54638229151,-0.124050786914,-1.35753771772,0.0794858739053,1.89480456539,0.158956686614,0.000976706699434,-0.019714210401,0.000537989457506,-0.0246543155735,0.00012982675697,0.00731795202808,-0.00075506044772,0.573899716251,0.818910540139,0.00232160212237,0.0,0.818871854883,-0.573839289383,-0.011751686789,0.0,-0.00829151330112,0.00864555080357,-0.999928250055,0.0,0.661518244425,0.260615346461,0.303456987492,1.0,-0.00322,-0.004232,0.162
0.464880271345,0.546092589136,-0.124056418299,-1.35799902111,0.0794688744599,1.89496538807,0.15892857996,-0.00268751415256,-0.0167377792251,-0.000420825373199,-0.0279429400059,-0.00213503298926,0.0120289483103,-0.00464037616658,0.573935653697,0.818885367646,0.00231667251035,0.0,0.818846536931,-0.57387515611,-0.0117643978434,0.0,-0.0083043723395,0.0086491731523,-0.999928112018,0.0,0.66146507153,0.26054201761,0.303456679646,1.0,-0.00356,-0.00467885714286,0.179
0.464831327998,0.545790006388,-0.12405676942,-1.35848730463,0.0794426756228,1.89512637503,0.158853638929,-0.00767770921369,-0.0207317202664,-0.00154509003813,-0.0328070247277,-0.0063621114443,0.00667963451039,-0.00748128514522,0.573934859799,0.818885977292,0.0022977821187,0.0,0.818846842101,-0.573874372684,-0.0117813606007,0.0,-0.00832911307861,0.00864343158916,-0.999927955888,0.0,0.661407348497,0.26046213301,0.303452452589,1.0,-0.00388,-0.00509942857143,0.195
0.464777354006,0.545441511861,-0.124053874086,-1.35908614863,0.0794016075132,1.8953166743,0.158776660763,0.000150343362154,-0.0231216178264,-0.000612404962987,-0.0403155371111,-0.00310390502048,0.00949028256051,-0.00197377542162,0.573936430182,0.818885023997,0.00224465702348,0.0,0.818845176216,-0.573876124421,-0.0118117783344,0.0,-0.00838449473902,0.00861740237898,-0.9999277177,0.0,0.661332635853,0.260367860725,0.303430495075,1.0,-0.00422,-0.00554628571429,0.212
0.464719077574,0.545044726067,-0.124059163801,-1.35978117264,0.0793576726872,1.89552765257,0.158701307405,-0.00284665715759,-0.0292779693907,-0.00103396594875,-0.0413864635254,-0.00216463061542,0.0160274664138,-0.00254280052601,0.573953083931,0.818873558061,0.00216800721659,0.0,0.81883268412,-0.573893047164,-0.0118554938753,0.0,-0.00846410914476,0.00857989762923,-0.999927369469,0.0,0.66124430582,0.26025616105,0.303398977323,1.0,-0.00456,-0.00599314285714,0.229
0.464653530242,0.544654826802,-0.124053886754,-1.36043668236,0.0793228372547,1.89573942063,0.15860025089,-0.00294294876967,-0.0263597530484,-0.00012136674364,-0.0408565121209,-0.00500213696359,0.015122017852,-0.00175672189658,0.573947497765,0.81887758251,0.00212639907188,0.0,0.81883604573,-0.573887505893,-0.0118914967286,0.0,-0.00851753022252,0.0085664319301,-0.999927031299,0.0,0.6611639139,0.2601519103,0.303381096636,1.0,-0.00488,-0.00641371428571,0.245
0.46459589847,0.544219987743,-0.12405985407,-1.36114013977,0.0792924112411,1.89599977546,0.158552727681,-0.00496499155437,-0.0309828438767,-2.90704909574e-05,-0.0464107505163,-0.00618161739795,0.0142909018625,-0.000755404785997,0.573991138774,0.818847001129,0.00212326442035,0.0,0.818805341686,-0.573931071869,-0.0119031118489,0.0,-0.00852838421481,0.00857098599236,-0.999926899759,0.0,0.661083570126,0.26004529958,0.30337676234,1.0,-0.0052,-0.00683428571429,0.261
0.464519296747,0.543699915964,-0.12406199028,-1.36200080211,0.0792490166908,1.89629210159,0.158407836113,-0.0018094409617,-0.0322824290622,-0.000498602937603,-0.0489713420455,-0.00206669885335,0.0166593317165,-0.00673597468863,0.573973029489,0.818859789226,0.00208660231631,0.0,0.81881753465,-0.573912996862,-0.011935823547,0.0,-0.00857640288765,0.00855955216305,-0.999926586995,0.0,0.66098034874,0.259910896752,0.303360495538,1.0,-0.00556,-0.00730742857143,0.279
0.464436862773,0.543177335272,-0.124060273689,-1.36284427882,0.0791963430888,1.89657857627,0.158317289936,-0.00064143548141,-0.0309957772968,0.000258165793163,-0.0508477906359,-0.00712566122026,0.0240499253087,-0.00724771985459,0.573997991131,0.818842367549,0.00205674159363,0.0,0.818799687342,-0.573938042553,-0.0119558446391,0.0,-0.00860967564896,0.00854685473235,-0.999926409672,0.0,0.660881005285,0.259775056338,0.303353469946,1.0,-0.0059,-0.00775428571429,0.296
0.464363725487,0.542605507031,-0.124071166493,-1.36373418906,0.0791435999903,1.89689329374,0.158195317568,-0.0029991576786,-0.0393449009299,-0.00112147547238,-0.055540326854,-0.000343904155511,0.0167970501409,-0.00726363374002,0.57400099754,0.818840271658,0.00205212925791,0.0,0.818797548399,-0.573941084694,-0.0119562927959,0.0,-0.00861265856917,0.00854336688339,-0.99992641379,0.0,0.66077824867,0.259635104297,0.303361980571,1.0,-0.00624,-0.00820114285714,0.313
0.46427764486,0.542063490691,-0.124064287271,-1.36459297729,0.0790988740656,1.89721267453,0.158080601326,-0.00311741986507,-0.0362777567282,0.000218407432292,-0.059635357486,-0.00561975092761,0.023958725345,-0.000871291588786,0.574008578301,0.818834939353,0.00205937693129,0.0,0.818792204804,-0.57394852938,-0.0119648600428,0.0,-0.00861543496018,0.0085542987776,-0.99992629641,0.0,0.660681514982,0.259501822212,0.303363986349,1.0,-0.00656,-0.00862171428571,0.329
0.464203537597,0.541437673381,-0.124075026903,-1.36555756819,0.0790376098373,1.89755702728,0.15795446792,-0.00385898476373,-0.0370247539873,-0.00167066011157,-0.0596887705627,-0.00612051100674,0.0213018529998,-0.0126997765844,0.574010632223,0.818833497407,0.00206022321506,0.0,0.818790829179,-0.57395063443,-0.0119580178454,0.0,-0.00860932490927,0.00855108589305,-0.999926376517,0.0,0.660569276616,0.259353808634,0.303377532755,1.0,-0.0069,-0.00906857142857,0.346
0.464107443222,0.54075885688,-0.12407484943,-1.36658529203,0.0789816728198,1.89793209018,0.157822948198,-0.00353468427078,-0.0406569721041,0.00014724181611,-0.063329805534,-0.00525300876643,0.0230690971666,-0.00425298103831,0.574023516644,0.818824399086,0.00208631294806,0.0,0.818782001035,-0.573963339502,-0.01195268127,0.0,-0.00858984529261,0.00856952061617,-0.999926386228,0.0,0.660452724055,0.259193756159,0.303400721106,1.0,-0.00724,-0.00951542857143,0.363
0.464028617468,0.540087162133,-0.124077965383,-1.36761314394,0.078914747441,1.89830550053,0.157701937459,-0.00155100530289,-0.0438384077568,0.000719520813889,-0.0615788003885,-0.00286145362649,0.0262442278159,-0.00857531043802,0.574030165835,0.818819708629,0.00209770671272,0.0,0.818777501242,-0.573969982965,-0.0119419017373,0.0,-0.00857440889876,0.00857273194687,-0.999926491188,0.0,0.660332327668,0.259041211094,0.303418657946,1.0,-0.00756,-0.009936,0.379
0.463932117428,0.539387115787,-0.124079032095,-1.36869955863,0.0788560982883,1.89871116491,0.157577043235,-0.00319257608477,-0.0451572516987,0.000115688411693,-0.0713328648417,-0.000600627103704,0.0189409129304,-0.00620759942334,0.574052146586,0.818804248748,0.00211710490732,0.0,0.818762233473,-0.573991820478,-0.0119390938946,0.0,-0.00856074472811,0.00858723335178,-0.999926483834,0.0,0.660209032689,0.258875136653,0.303431404453,1.0,-0.00788,-0.0103565714286,0.395
0.463823159047,0.538544502978,-0.124081830965,-1.36999701421,0.0787791048504,1.89921391253,0.157408349444,-0.000496026786429,-0.047594041961,0.00122477829022,-0.0695875653736,-0.00555568173114,0.0312397602322,-0.00897287337041,0.574056462316,0.818801119198,0.00215689013997,0.0,0.818759644757,-0.573995996037,-0.0119158530062,0.0,-0.00851883148736,0.00860651272904,-0.999926676036,0.0,0.660064448155,0.258680283432,0.303452754184,1.0,-0.00826,-0.010856,0.414
0.463721044306,0.537802444042,-0.124087922928,-1.37115478178,0.0787122525577,1.89965744175,0.157261615188,-0.00775322791132,-0.0388938957303,-0.000122738919682,-0.0741702376532,-0.00279005352934,0.0250123821071,-0.00968263212369,0.574070331316,0.818791335056,0.00217973444629,0.0,0.818750170913,-0.57400978393,-0.0119026250341,0.0,-0.00849474089389,0.00861776776604,-0.999926784048,0.0,0.659935887629,0.258500933321,0.303464407278,1.0,-0.00858,-0.0112765714286,0.43
0.463608581625,0.53693336142,-0.124088456138,-1.37250441738,0.0786402892499,1.90014917266,0.157094785177,-0.000821324173454,-0.0520690469591,-0.000601788665769,-0.0771406120715,-0.00256675532159,0.0219053860395,-0.0178082206034,0.574081265172,0.81878363005,0.00219432030255,0.0,0.818742549123,-0.574020549283,-0.0119077352221,0.0,-0.00849043719265,0.00863275730705,-0.999926691302,0.0,0.65977724578,0.258299331193,0.303478289803,1.0,-0.00894,-0.0117497142857,0.448
0.463508102276,0.536188484518,-0.124094299062,-1.37367661005,0.0785693286641,1.90058726037,0.156965563489,-0.00532718191856,-0.0472532449371,-0.000585297620522,-0.0820035269756,-0.000251723441711,0.0300507549706,-0.0132887754664,0.574107385286,0.818765297673,0.00220099719196,0.0,0.818724328315,-0.574046664319,-0.0119016096159,0.0,-0.00848131313531,0.00863497817499,-0.999926749557,0.0,0.659643561752,0.258118524465,0.303484312027,1.0,-0.00924,-0.012144,0.463
0.463395171634,0.535303366393,-0.124097255958,-1.37506602438,0.0784866963582,1.90109519083,0.15679640025,-0.00690589449673,-0.0571651910792,0.000772692950254,-0.0868244509909,-0.00932252910987,0.0361707515748,-0.00858042087882,0.574117599521,0.818758128294,0.00220367296233,0.0,0.818717171848,-0.574056844194,-0.0119029011832,0.0,-0.00848072682786,0.00863801625859,-0.999926728289,0.0,0.659480004895,0.257910102463,0.303491733154,1.0,-0.00958,-0.0125908571429,0.48
0.463266724185,0.53435590491,-0.124098126447,-1.3765925513,0.0784083749149,1.90163458377,0.15660742546,-0.0043922385095,-0.0534250748415,-0.00122130106743,-0.0866437353206,-0.00653072648582,0.0321620639573,-0.0108801579208,0.574131312322,0.818748583836,0.00217705766877,0.0,0.818707101242,-0.574070480618,-0.011937862413,0.0,-0.00852448752522,0.00863643946494,-0.999926369802,0.0,0.659295426375,0.257680050899,0.30348038232,1.0,-0.00994,-0.013064,0.498
0.463154100634,0.533499365807,-0.124101371478,-1.37798418465,0.0783214758392,1.90214044734,0.156434835413,-0.00258666334992,-0.0513452622226,-0.000358318575145,-0.0864547391265,3.6877457682e-05,0.0287055126363,-0.0147661010673,0.574137394152,0.818744393761,0.0021487724656,0.0,0.818702547255,-0.574076682085,-0.011951949867,0.0,-0.00855219643681,0.00862143283204,-0.999926262697,0.0,0.659129702049,0.257470235027,0.303466067704,1.0,-0.01026,-0.0134845714286,0.514
0.463011320275,0.532495939714,-0.124100860012,-1.3795802638,0.0782412776781,1.90275704762,0.156231600849,-0.00845474499467,-0.0592592427559,-6.63545894339e-05,-0.0884558408735,-0.00437040412842,0.0362562926133,-0.00741732695086,0.574153524561,0.818733009869,0.00217616326029,0.0,0.818691387714,-0.57409256416,-0.0119535082772,0.0,-0.00853757703896,0.0086449214692,-0.999926184831,0.0,0.658948509085,0.257228977939,0.303467343513,1.0,-0.01062,-0.0139577142857,0.532
0.462885917736,0.531579484179,-0.124101811123,-1.38105191316,0.0781575685509,1.90329271089,0.156043918575,-0.00770281981523,-0.056819950018,0.000205627217983,-0.0891754128329,-0.00461438136201,0.0315497814627,-0.0218725685632,0.574161031862,0.818727784142,0.0021614500774,0.0,0.818685890949,-0.574100050833,-0.011970400818,0.0,-0.00855977593991,0.00864265276566,-0.999926014658,0.0,0.658773506272,0.257005937882,0.303459336278,1.0,-0.01094,-0.0143782857143,0.548
0.462736950327,0.530518262976,-0.124104682909,-1.38278785024,0.0780385552106,1.90390772971,0.155832848088,-0.0115795780462,-0.0572252364101,-0.000206739493673,-0.0980139770577,-0.00809173403015,0.0380270617399,-0.0141672460263,0.574174625594,0.818718407359,0.00210135106038,0.0,0.818675798379,-0.574113960567,-0.011993512106,0.0,-0.00861305997834,0.0086068612888,-0.99992586582,0.0,0.658564482576,0.256736510424,0.303434258027,1.0,-0.0113,-0.0148514285714,0.566
0.462617744591,0.52966261841,-0.124105007092,-1.38414089842,0.0779582679235,1.90439800284,0.155642394608,-0.00996396805374,-0.0635656094786,0.00112948834617,-0.100474705163,-0.00594491943245,0.0349543521807,-0.00943858054382,0.574168435503,0.818722762028,0.00209607029053,0.0,0.818680034497,-0.574107743762,-0.0120019402466,0.0,-0.00862305750373,0.00860731186961,-0.999925775776,0.0,0.658403799353,0.256528727327,0.303435497737,1.0,-0.01158,-0.0152194285714,0.58
0.462487518739,0.528582077328,-0.124118804837,-1.38582007712,0.0778424276145,1.90502555154,0.15541390562,-0.00913397888005,-0.0690490189457,-0.000429219257926,-0.106038207231,-0.00517497583465,0.0395047935042,-0.0163715276812,0.5741576462,0.818730294922,0.002109120498,0.0,0.818687919131,-0.574097082835,-0.0119740323049,0.0,-0.00859282851373,0.00860185928786,-0.999926082926,0.0,0.658207654548,0.256273685203,0.303451995899,1.0,-0.01192,-0.0156662857143,0.597
0.462324909191,0.527333501492,-0.12411779224,-1.38775098006,0.0777347941125,1.90577058081,0.155136468986,-0.013902869622,-0.0673923190663,0.000301794480783,-0.0951536927009,-0.00531041513763,0.0342045079892,-0.0118055194827,0.57413870496,0.818743427172,0.00216675590938,0.0,0.818701732493,-0.574077835634,-0.0119523532742,0.0,-0.00854218860329,0.00863640172448,-0.999926219068,0.0,0.657984382272,0.255987560065,0.303476430149,1.0,-0.0123,-0.0161657142857,0.616
0.462180149084,0.526182403083,-0.124120848951,-1.38954055132,0.077616711004,1.90644853787,0.154899841662,-0.00752390700906,-0.069098262536,-0.000435770609038,-0.103877321633,-0.00848996162339,0.0414364567553,-0.014175093292,0.574130554136,0.818749071914,0.00219338747292,0.0,0.818707823588,-0.574069678014,-0.0119269141643,0.0,-0.00850615643237,0.008643515737,-0.999926464766,0.0,0.657774600377,0.25572013172,0.303493489262,1.0,-0.01264,-0.0166125714286,0.633
0.462036672974,0.525075952808,-0.12412193693,-1.39127550953,0.0775163135177,1.90705888713,0.154658481596,-0.00864363292333,-0.06991038028,0.00022572462946,-0.114286334346,-0.00360269750437,0.0441107355284,-0.0175038284098,0.574117441875,0.818758298598,0.0021813557371,0.0,0.818716781953,-0.574056503132,-0.0119460898015,0.0,-0.00852890292202,0.00864453750073,-0.999926262175,0.0,0.657560663363,0.255458912588,0.303498943994,1.0,-0.01296,-0.0170331428571,0.649
0.461879039322,0.52390300921,-0.124132288613,-1.39316565545,0.0773959283961,1.9077324902,0.154407667379,-0.00871530443563,-0.0645095256832,0.000242531742055,-0.117289568822,-0.00278405660562,0.0373222168669,-0.00852747172738,0.574117518395,0.81875835844,0.00213833077756,0.0,0.818716308079,-0.574056783581,-0.0119650746522,0.0,-0.00856914657509,0.00862021121218,-0.999926128114,0.0,0.657330893588,0.255166547855,0.303482797489,1.0,-0.0133,-0.01748,0.666
0.461726246352,0.522673199685,-0.124139427104,-1.39508427435,0.0772684538924,1.90847267861,0.154151887021,-0.00799160843827,-0.0786015022627,-0.0012756493092,-0.110763751702,-0.00743124080267,0.0500778192107,-0.0166815043748,0.574106924294,0.818765696699,0.0021726222435,0.0,0.818724241611,-0.5740462001,-0.0119299308945,0.0,-0.00852079668898,0.00862800054722,-0.999926474112,0.0,0.657107026246,0.25487997796,0.303498388449,1.0,-0.01364,-0.0179268571429,0.683
0.461579768355,0.521595211543,-0.12414438813,-1.39682105689,0.0771709770491,1.90914794584,0.153906037212,-0.0127514971788,-0.0738130940756,-0.000881802407305,-0.117432928202,-0.00981058838155,0.048754548102,-0.0170230417436,0.574096061466,0.818773274211,0.00218736082892,0.0,0.818731977003,-0.574035244202,-0.0119262378139,0.0,-0.00850942640912,0.00863783471801,-0.999926486035,0.0,0.65690470271,0.254618867121,0.303487904924,1.0,-0.01394,-0.0183211428571,0.698
0.46139497028,0.52017804223,-0.124145318397,-1.39908630259,0.0770177188207,1.90999708559,0.153612017602,-0.00891924158719,-0.0736995030839,0.000149918014036,-0.12175647854,-0.00494041140051,0.0506446147663,-0.0135255532628,0.574086861987,0.818779750752,0.0021775110269,0.0,0.818738442645,-0.574026204876,-0.0119174474028,0.0,-0.00850798002822,0.00862462802021,-0.999926612341,0.0,0.656632581818,0.254279535291,0.303478705069,1.0,-0.01432,-0.0188205714286,0.717
0.461243394046,0.519016028848,-0.124145515156,-1.40090163782,0.0769045651598,1.91064683161,0.153374623743,-0.0118289959399,-0.0755094403836,0.00139147159933,-0.121342318268,-0.00626314619737,0.0443245820218,-0.00658469101403,0.574082639411,0.818782722128,0.00217347041431,0.0,0.818741325628,-0.574021962969,-0.0119237007024,0.0,-0.00851546431436,0.00862486567441,-0.999926546582,0.0,0.656408649168,0.254005515009,0.303486779921,1.0,-0.01462,-0.0192148571429,0.732
0.461052405069,0.51757400269,-0.124149335918,-1.40314727644,0.07676158637,1.91144288665,0.153065653834,-0.0133631295432,-0.0884918863369,-0.000175708960966,-0.127232360005,-0.0104589321549,0.044866218961,-0.0119805607816,0.574069048524,0.818792276161,0.00216400698598,0.0,0.818750742787,-0.574008398493,-0.0119300689729,0.0,-0.00852625430153,0.00862063164514,-0.999926491147,0.0,0.656131283071,0.253661293293,0.303498988277,1.0,-0.01498,-0.019688,0.75
0.460860103466,0.516240639958,-0.124158224914,-1.40527705465,0.076618193246,1.91223840659,0.152755788962,-0.0114940388402,-0.0776241992379,0.000314435463439,-0.126059904264,-0.0126884814166,0.0500293126879,-0.0194903695166,0.574053094359,0.818803492414,0.00215234022585,0.0,0.818761939554,-0.573992627629,-0.0119204305972,0.0,-0.00852522691932,0.00860538000856,-0.999926631279,0.0,0.655879063096,0.253325510319,0.303489818235,1.0,-0.01532,-0.0201348571429,0.767
0.460683634238,0.51494501001,-0.124164172869,-1.40734121243,0.0764943457306,1.91301706037,0.152488654411,-0.0107893999597,-0.081007463707,-0.00150302051473,-0.133055775935,-0.00968801323354,0.047684932389,-0.0182133895454,0.574058741732,0.818799516087,0.00215879549969,0.0,0.818758041276,-0.573998241988,-0.0119178413369,0.0,-0.00851934192152,0.00860923793134,-0.999926648227,0.0,0.655631540976,0.253011156803,0.303483499569,1.0,-0.01564,-0.0205554285714,0.783
0.460482569929,0.513461189048,-0.124167735423,-1.4097423309,0.0763502829964,1.91384992894,0.152152874692,-0.0131252772936,-0.0799276815478,-0.00123090923952,-0.132835575377,-0.00733182746632,0.0553542083749,-0.025136180405,0.574038132831,0.818814147562,0.00208823130268,0.0,0.818771612382,-0.573977784163,-0.0119706702415,0.0,-0.00860332141424,0.00858157092674,-0.999926167025,0.0,0.655325657225,0.252645109338,0.303452931085,1.0,-0.016,-0.0210285714286,0.801
0.460322217842,0.51230289908,-0.124161580723,-1.4116061018,0.0762360012677,1.91451463503,0.151890823089,-0.0139700744754,-0.0844596622876,0.0016782701603,-0.129490809431,-0.00869574349953,0.0503922807642,-0.0140870998401,0.574017258718,0.818828865997,0.00205470315732,0.0,0.818785789823,-0.57395694984,-0.0119998756635,0.0,-0.00864669990042,0.00857066249264,-0.999925886416,0.0,0.655090551673,0.252364345351,0.303434726955,1.0,-0.01628,-0.0213965714286,0.815
0.460125361323,0.510860208958,-0.124167445834,-1.41392158663,0.076095935153,1.91539042025,0.15156442537,-0.00999928105917,-0.0848265316262,-0.00016928424325,-0.13307963513,-0.00384411785802,0.0566269898922,-0.0198083750361,0.573998873246,0.8188417548,0.00205450974036,0.0,0.81879866934,-0.57393856079,-0.0120006011245,0.0,-0.00864759741298,0.00857072637834,-0.999925878107,0.0,0.654810083529,0.252012938554,0.303419030117,1.0,-0.01662,-0.0218434285714,0.832
0.459898399909,0.50919332266,-0.124168501667,-1.41654640175,0.0759251002579,1.91637787078,0.151193365673,-0.0125242576464,-0.0841222578237,0.00111748904026,-0.139169959054,-0.0112356592293,0.0551289765076,-0.0201016313716,0.573972325991,0.81886031855,0.00207234212941,0.0,0.818817536437,-0.573912012257,-0.0119829508577,0.0,-0.00862318693797,0.00857491734679,-0.999926052986,0.0,0.654491132885,0.251613585426,0.303421974829,1.0,-0.017,-0.0223428571429,0.851
0.459698162,0.507769402458,-0.124176345517,-1.41878887111,0.0757845199846,1.91717109012,0.150881472754,-0.0135390615263,-0.0882526364285,0.000864994356235,-0.135738650457,-0.00870014708292,0.0524210139107,-0.0192519631056,0.573964746862,0.818865691737,0.00204820834191,0.0,0.818822562855,-0.573904503659,-0.011999089117,0.0,-0.0086503329639,0.00856433824147,-0.99992590918,0.0,0.654210478606,0.251261784982,0.30341973446,1.0,-0.01732,-0.0227634285714,0.867
0.459503702461,0.506405785731,-0.124182758774,-1.42093028537,0.0756467873457,1.91796039827,0.150599460196,-0.0122900917489,-0.0948096040889,-0.000808294491636,-0.146506342105,-0.00778196194767,0.0520431784138,-0.0168172630111,0.573975312283,0.818858245165,0.0020644891847,0.0,0.818815365924,-0.573915036302,-0.0119864312752,0.0,-0.00863051285855,0.00857051611056,-0.999926027515,0.0,0.653931035349,0.250905202261,0.30343083205,1.0,-0.01764,-0.023184,0.883
0.459283205858,0.504801273448,-0.124186301741,-1.42339277673,0.0754935265799,1.91891351743,0.150255253472,-0.0129346446601,-0.100596077074,-0.0032701961585,-0.149556367184,-0.0111477799319,0.0617811400062,-0.0183402468156,0.573958393644,0.818869936681,0.00212980439914,0.0,0.818827976644,-0.573897916471,-0.0119445818827,0.0,-0.0085589334888,0.00859980202977,-0.999926391322,0.0,0.653655221509,0.25054860576,0.303454572714,1.0,-0.01796,-0.0236045714286,0.899
0.459056943906,0.503136163371,-0.124186855388,-1.42587113615,0.0753349268184,1.91985113692,0.149904578109,-0.0137257951827,-0.095446473398,-0.000302062289478,-0.148460743122,-0.0144301913167,0.0590225350492,-0.0196685107806,0.573941440972,0.818881544486,0.00223278645706,0.0,0.818840987328,-0.573880612049,-0.0118839171457,0.0,-0.00845033026333,0.00864913612068,-0.999926889509,0.0,0.653356238632,0.250166296788,0.303519197154,1.0,-0.0183,-0.0240514285714,0.916
0.458828247029,0.50143448806,-0.12418744585,-1.42839318942,0.0751687109206,1.92076545364,0.149559642207,-0.010991362174,-0.103782793179,0.00100955494136,-0.151730669885,-0.0143896388866,0.0557937840435,-0.0251528966954,0.573930558099,0.818888960414,0.00230908941834,0.0,0.818849442643,-0.573869478423,-0.0118388731986,0.0,-0.00836976776989,0.00868565491112,-0.999927250547,0.0,0.653042971084,0.249775039019,0.303585851607,1.0,-0.01864,-0.0244982857143,0.933
0.458590374045,0.499720480684,-0.124194835001,-1.43099383341,0.075006701116,1.92168189692,0.149184679113,-0.00943250341021,-0.0991459482744,-0.00171794484395,-0.153310070834,-0.00891972272048,0.051279213435,-0.0270030447222,0.573912183017,0.818901765661,0.00233479845971,0.0,0.818862527549,-0.573850949114,-0.0118319937874,0.0,-0.00834957504688,0.00870257190348,-0.999927272275,0.0,0.652713963603,0.249365610652,0.303623506866,1.0,-0.01898,-0.0249451428571,0.95
0.458333045321,0.498061839591,-0.124187711341,-1.43362136113,0.0748417090832,1.92267396855,0.148810498733,-0.0158840903838,-0.102011479048,0.00090173425612,-0.156103181264,-0.0139591684949,0.0607986145137,-0.023143228349,0.573900587678,0.818909841156,0.00235253494927,0.0,0.818870805151,-0.573839257016,-0.0118261776995,0.0,-0.00833475686391,0.00871364028438,-0.999927299508,0.0,0.652392696584,0.248952736324,0.303615343454,1.0,-0.01932,-0.025392,0.967
0.458054989914,0.496276319702,-0.124190879908,-1.43645773392,0.074671667872,1.92367453259,0.148378977885,-0.0169290201999,-0.101977289976,-0.000362820702851,-0.163195573061,-0.0088441398191,0.0516436423,-0.0279413221513,0.573874781385,0.818928038026,0.00231316373409,0.0,0.818888325801,-0.573813436071,-0.0118658060418,0.0,-0.00839007836595,0.0087038772023,-0.999926921883,0.0,0.652032393923,0.248497226074,0.303596624851,1.0,-0.01968,-0.0258651428571,0.985
0.457816412078,0.49481136502,-0.124190959462,-1.43888241128,0.0745193322768,1.92450726372,0.148042982601,-0.0174065032651,-0.0979128189452,-0.000271660567951,-0.159985635177,-0.0047581566602,0.056844299899,-0.0254327043671,0.573875980387,0.818927498984,0.00220396080828,0.0,0.818886222211,-0.5738149245,-0.0119387769618,0.0,-0.00851249104527,0.00865633713508,-0.999926299946,0.0,0.651717113663,0.248105533266,0.30353536241,1.0,-0.01998,-0.0262594285714,1.0
0.457530499205,0.492900594658,-0.124239548679,-1.44186507263,0.0743372896331,1.92558561716,0.14763090249,-0.0156411628559,-0.131648104523,-0.0106931725879,-0.192831295782,-0.01126472307,0.071894537171,-0.0313347962424,0.573908327526,0.818904840013,0.00220034092194,0.0,0.818863623174,-0.573847391149,-0.0119283366435,0.0,-0.00850567647364,0.00864771736819,-0.99992643252,0.0,0.651350264395,0.247606182014,0.303540954205,1.0,-0.0266451428571,-0.0350193306122,1.017
0.457154382424,0.490126527648,-0.124274732254,-1.44625492263,0.0740914012156,1.92722813256,0.146978188542,-0.0249730172076,-0.160070980119,-0.000448651424968,-0.254991490489,-0.0148767170893,0.0928672883618,-0.0319405960001,0.573861063301,0.818937888816,0.00222737285676,0.0,0.81889688367,-0.573799880333,-0.0119305551642,0.0,-0.00849248088651,0.00867063670013,-0.999926346201,0.0,0.650797237846,0.24692853832,0.303524914235,1.0,-0.03456,-0.0454217142857,1.036
0.456737264534,0.487377887829,-0.124292096304,-1.45062662741,0.0738391019929,1.92883981025,0.146332798469,-0.0275153156828,-0.195514137199,-0.00156448061698,-0.303444442675,-0.0182972924271,0.114335246024,-0.0465467677672,0.573845240158,0.818948988566,0.00222292080646,0.0,0.818907742285,-0.573783890444,-0.0119542291212,0.0,-0.00851459163169,0.00868041166468,-0.999926073359,0.0,0.650209483319,0.246177615923,0.303493112662,1.0,-0.0412251428571,-0.0541816163265,1.052
0.456137533357,0.483446113065,-0.124387410505,-1.45673666014,0.0734652206532,1.93109862665,0.145395719046,-0.034352282828,-0.227989755469,-0.0098680883254,-0.363030687679,-0.0156118610086,0.124978535548,-0.0556325604773,0.573827852136,0.818961050393,0.00226736681979,0.0,0.818920633433,-0.573766581678,-0.0119017977401,0.0,-0.00844633208723,0.00868654374891,-0.999926599022,0.0,0.649446142959,0.245141989248,0.303513068812,1.0,-0.0487234285714,-0.0640365061224,1.07
0.45545007003,0.479098106984,-0.124487509204,-1.46355812731,0.0730588848428,1.93348130911,0.144378666984,-0.0422434343883,-0.269869478279,-0.00455730840721,-0.422319115865,-0.0247491327161,0.146351453992,-0.0547565671204,0.573855420315,0.81894194169,0.00219080295468,0.0,0.818900413384,-0.573794339385,-0.0119547459265,0.0,-0.00853333680051,0.0086545118198,-0.999926138066,0.0,0.648617301276,0.244049892556,0.303492267404,1.0,-0.0553885714286,-0.0727964081633,1.086
0.454657135556,0.474142469408,-0.124569338724,-1.47117132814,0.0725886795265,1.93626994399,0.143272950918,-0.0522296236599,-0.300879012227,-0.00260168785594,-0.464156390902,-0.0384241852146,0.169124182959,-0.0677904083241,0.573899756697,0.818910600362,0.00229014825577,0.0,0.818870487727,-0.573838394545,-0.0118898350027,0.0,-0.00842269908496,0.00869907571854,-0.999926689424,0.0,0.647660312259,0.242765568666,0.30354290127,1.0,-0.0624702857143,-0.0821038040816,1.103
0.453858965509,0.469305687202,-0.124617089309,-1.47857995149,0.0721586541616,1.93894703475,0.142145290277,-0.051625391827,-0.333845117006,-0.000326399084853,-0.506763064418,-0.0311051119733,0.197045325605,-0.082526778977,0.573903201479,0.818907889553,0.00239388002291,0.0,0.818868793044,-0.573841083129,-0.011876783766,0.0,-0.00835244603377,0.00877656684777,-0.999926601566,0.0,0.646710146348,0.241520765378,0.303592373843,1.0,-0.0687188571429,-0.0903162122449,1.118
0.452914424834,0.463646417174,-0.124657121748,-1.48718371204,0.0716008982877,1.94209845237,0.140741484791,-0.0638611838885,-0.37057016482,-0.00511452924953,-0.569578364493,-0.0340175010031,0.192666808826,-0.0949427597432,0.5738175067,0.818967464134,0.00255119497753,0.0,0.818930503468,-0.573754896694,-0.0117854109528,0.0,-0.00818826516046,0.00885209694605,-0.999927293704,0.0,0.645530769803,0.239969330921,0.30367528712,1.0,-0.0758005714286,-0.0996236081633,1.135
0.451653040541,0.456311871905,-0.124728358172,-1.49859634882,0.0708541095509,1.94596886599,0.139046292843,-0.0651714678266,-0.398495663339,-0.00471958601586,-0.622982784292,-0.034537740515,0.209415647064,-0.0993019799329,0.573833425866,0.818956853261,0.00237039152282,0.0,0.818917236536,-0.573771183987,-0.0119136489329,0.0,-0.008396863756,0.00877777345643,-0.999926218964,0.0,0.644065191479,0.238106574863,0.303628702561,1.0,-0.0832988571429,-0.109478497959,1.153
0.450403987772,0.449083108647,-0.124830193716,-1.5093611082,0.0700969762691,1.94997399577,0.137315849951,-0.0756201727063,-0.441303846751,-0.00255993113564,-0.641630685522,-0.0452983751109,0.252853403118,-0.0966736834802,0.573797644931,0.818980856079,0.00271421236115,0.0,0.818946622933,-0.573735128176,-0.0116266240017,0.0,-0.00796489685022,0.00889429576049,-0.99992872342,0.0,0.642692431749,0.236219193587,0.30381678249,1.0,-0.0903805714286,-0.118785893878,1.17
0.449106359845,0.441897994308,-0.124851905276,-1.52029139592,0.0694069239145,1.95384944145,0.135639477548,-0.0789929357707,-0.463341634754,-0.00199553609841,-0.714878020794,-0.0439163371722,0.233589162213,-0.108792699582,0.573805687249,0.818974803659,0.00283745556933,0.0,0.818941732221,-0.573742259776,-0.0116191856735,0.0,-0.00788800400381,0.00899103870507,-0.999928467749,0.0,0.641219999576,0.234333946422,0.303870850501,1.0,-0.0970457142857,-0.127545795918,1.186
0.447609530237,0.433773104621,-0.124895477791,-1.53270378945,0.0685585860193,1.95810624634,0.133615793455,-0.0871089595597,-0.496136937478,-0.00363536760006,-0.740230703022,-0.0494378439191,0.266626723119,-0.123791970745,0.573707958101,0.8190432495,0.00284273829608,0.0,0.819010061257,-0.573644314206,-0.0116390394882,0.0,-0.00790230820704,0.00900581423485,-0.999928221841,0.0,0.639406575747,0.232025733515,0.303905160472,1.0,-0.104544,-0.137400685714,1.204
0.445971482812,0.425160509182,-0.124927000812,-1.54577722461,0.067637670509,1.96272159287,0.131482691918,-0.0960629026458,-0.508928753405,-0.00378399351904,-0.799927849074,-0.0516216657777,0.269081858669,-0.126978503537,0.573642629012,0.819088818689,0.0028962354762,0.0,0.819056454004,-0.57357896352,-0.0115950275059,0.0,-0.00783628851274,0.00902375615629,-0.999928579653,0.0,0.63770915237,0.229834938591,0.303924277904,1.0,-0.111209142857,-0.146160587755,1.22
0.444167572838,0.416044251741,-0.125046994453,-1.55959361092,0.0666362149601,1.967432199,0.129213782075,-0.106274249534,-0.552899574807,-0.00813947152474,-0.841775591703,-0.0570819886242,0.293914134829,-0.130725383004,0.573651148304,0.81908300811,0.00285180219383,0.0,0.81905042945,-0.57358804342,-0.0115714028779,0.0,-0.00784233082588,0.00897389113517,-0.999928981041,0.0,0.63578120405,0.227280899618,0.303947030758,1.0,-0.118290857143,-0.155467983673,1.237
0.442216429819,0.406474485919,-0.125121950008,-1.5741147866,0.0656650591557,1.97244627106,0.126795137633,-0.122318965005,-0.568850765999,-0.001201574832,-0.852743182573,-0.0580857957875,0.29997699227,-0.143177473249,0.57365007053,0.819083575346,0.00290518179054,0.0,0.819051262264,-0.573586300367,-0.011598823912,0.0,-0.00783418451683,0.00903333288748,-0.99992850967,0.0,0.633727764916,0.224616842143,0.303945618047,1.0,-0.125372571429,-0.164775379592,1.254
0.440165744615,0.396991403651,-0.12523790954,-1.58831203079,0.0646872192526,1.97728147717,0.124385705578,-0.130886556285,-0.616425612276,-0.0116805877223,-0.89331580614,-0.0664983886384,0.315345101398,-0.150590306308,0.573738805013,0.819021028622,0.00301416636504,0.0,0.818990024362,-0.573674548197,-0.0115585313956,0.0,-0.00773767871962,0.00910032538481,-0.999928653658,0.0,0.631590815735,0.221724537549,0.304012707752,1.0,-0.132454285714,-0.17408277551,1.271
0.43787823545,0.386586163002,-0.125367291149,-1.60407949482,0.0634615998989,1.98258284815,0.121667906585,-0.137298078525,-0.627040991941,-0.0100654942954,-0.960315937116,-0.0702307830346,0.30103602211,-0.160009781476,0.57374213306,0.819019258444,0.00285761286165,0.0,0.818986808419,-0.573679058595,-0.0115625371761,0.0,-0.00783073873337,0.00897443476593,-0.99992906701,0.0,0.629428170068,0.218858706253,0.303948888364,1.0,-0.139119428571,-0.182842677551,1.287
0.435576970664,0.376284305948,-0.125469033724,-1.61932803901,0.0623435370628,1.98764794343,0.118911909103,-0.144876965076,-0.658546481166,-0.00637520082526,-0.973330288549,-0.0707001366446,0.319580843831,-0.176386220893,0.573700975534,0.819047825888,0.00293197558671,0.0,0.819016263753,-0.573637578971,-0.0115340626806,0.0,-0.0077652070893,0.00901861233839,-0.999929180587,0.0,0.627178150464,0.215898483289,0.304023602747,1.0,-0.145784571429,-0.191602579592,1.303
0.433044892009,0.365735376841,-0.125591324981,-1.63508637719,0.0611484421196,1.99287303628,0.116133587169,-0.162789554208,-0.672064706131,-0.0135491662612,-0.980302217457,-0.0747150177754,0.328933114294,-0.178343633138,0.573822232577,0.81896300527,0.00289625636445,0.0,0.818931126365,-0.573759103839,-0.0115346405794,0.0,-0.00778484033976,0.00899084079758,-0.999929278021,0.0,0.624841553586,0.212739153227,0.304008401004,1.0,-0.152449714286,-0.200362481633,1.319
0.430719747137,0.356136509517,-0.125702525213,-1.6492601145,0.0600123306407,1.99756178683,0.113500646298,-0.170473846238,-0.680671071727,-0.00273052148198,-1.01146173495,-0.084674321798,0.329107135023,-0.193772794588,0.573823243689,0.818962202213,0.00292288391713,0.0,0.818931216917,-0.573760667609,-0.0114501163557,0.0,-0.00770032493377,0.00896415637882,-0.99993017201,0.0,0.622713944359,0.209871812365,0.304042086963,1.0,-0.158281714286,-0.208027395918,1.333
0.42715867759,0.341885695334,-0.125865065795,-1.67013133703,0.0584869086939,2.00432924421,0.109591564601,-0.173965952526,-0.734934005793,-0.0101023248975,-1.05154155586,-0.0811147731137,0.339260123592,-0.189632920204,0.57393023097,0.818886776712,0.00304693391508,0.0,0.818856754677,-0.573866506079,-0.011471504817,0.0,-0.00764547748264,0.00907902062587,-0.999929556548,0.0,0.61950958878,0.205604438653,0.304112695934,1.0,-0.166613142857,-0.218977273469,1.353
0.423963062716,0.329530040915,-0.125947423637,-1.68841747224,0.0570169376586,2.01013377814,0.106063061449,-0.192364148582,-0.730844666493,-0.00396613018008,-1.06514848412,-0.0866364444575,0.33668995915,-0.214618367779,0.573878832346,0.818923363528,0.00289090878597,0.0,0.818891164399,-0.573815424159,-0.0115700807062,0.0,-0.0078163118452,0.00900733748689,-0.999928884042,0.0,0.616615576215,0.201851137528,0.304035299091,1.0,-0.173694857143,-0.228284669388,1.37
0.420570530774,0.316596894574,-0.125976638988,-1.7071647398,0.055437919599,2.0160922995,0.102397333594,-0.198644541348,-0.779132634592,-0.000221212533814,-1.11772170136,-0.0886698944053,0.345134422018,-0.221420967697,0.573783485846,0.818989988839,0.00294218498218,0.0,0.818958731151,-0.573720246622,-0.0115074840256,0.0,-0.007736672075,0.00901250589599,-0.999929456833,0.0,0.613607793775,0.197983375733,0.304085027068,1.0,-0.180776571429,-0.237592065306,1.387
0.416981316235,0.303326033143,-0.126082035957,-1.72626523096,0.0538334150727,2.0221146868,0.098408609153,-0.212697513869,-0.789959179618,-0.00384423991333,-1.13842250671,-0.0955063553704,0.356530945117,-0.246185173381,0.573615821415,0.819107077789,0.00303832853406,0.0,0.819077344801,-0.573552638404,-0.0114202064803,0.0,-0.007611877163,0.00903961122976,-0.999930169939,0.0,0.610508465611,0.193944552546,0.304148162012,1.0,-0.187858285714,-0.246899461224,1.404
0.413318730724,0.290502106987,-0.126189935198,-1.74464716543,0.0523589732898,2.02769027486,0.0946682331762,-0.233862412183,-0.808156551825,-0.00502676731023,-1.1276584038,-0.0854095907917,0.367051380761,-0.241805682423,0.573705350276,0.819044327405,0.00305085406853,0.0,0.819014040971,-0.573641268436,-0.0115083769858,0.0,-0.00767592287546,0.00910128499675,-0.999929120898,0.0,0.60745541234,0.189954777366,0.30417929683,1.0,-0.194523428571,-0.255659363265,1.42
0.409249432787,0.27663741567,-0.126331311659,-1.76464925197,0.0506583062846,2.03363978018,0.0904163207327,-0.238009701248,-0.813330618745,-0.0095747668134,-1.17698293349,-0.106672925334,0.339799207549,-0.249116744363,0.573673148981,0.819067599026,0.00285188784666,0.0,0.819034263705,-0.573609175521,-0.0116677134136,0.0,-0.00792092947788,0.00902942160242,-0.999927861609,0.0,0.604057344634,0.185562340173,0.304097444309,1.0,-0.201605142857,-0.264966759184,1.437
0.404840769525,0.262265894663,-0.126505225237,-1.78486186805,0.0488825949694,2.03978716609,0.08598565676,-0.264698279283,-0.851573708021,-0.00853097485932,-1.1976830784,-0.106514429009,0.352106352193,-0.263558083683,0.573741867426,0.819018796176,0.00303775798747,0.0,0.818988285925,-0.57367775759,-0.0115223637239,0.0,-0.00769448641862,0.00909892586986,-0.999928999693,0.0,0.600644341465,0.180969734664,0.304199907756,1.0,-0.208686857143,-0.274274155102,1.454
0.400158183658,0.247657076645,-0.126676706919,-1.8054351321,0.0470496881028,2.04575665234,0.0813689530063,-0.281918518243,-0.872374276023,-0.00871318633636,-1.22028038102,-0.111651445039,0.35069137831,-0.280004842785,0.573831990744,0.818955833843,0.00298923292567,0.0,0.818924527413,-0.57376782649,-0.0115692085681,0.0,-0.00775969456933,0.00908691309619,-0.999928605027,0.0,0.59706354535,0.176206655339,0.304209688118,1.0,-0.215768571429,-0.28358155102,1.471
0.395287544663,0.232658737247,-0.126798840821,-1.82629023309,0.0451961354767,2.05184303328,0.0765038648147,-0.288266083198,-0.904720538208,-0.00870322452389,-1.21858920258,-0.106384871029,0.369722277643,-0.293797796252,0.573795567424,0.818980750125,0.00315033816399,0.0,0.818951273162,-0.573730592381,-0.0115224326315,0.0,-0.00762935202748,0.00919167118836,-0.999928650539,0.0,0.593373010818,0.171387909859,0.304278631475,1.0,-0.222850285714,-0.292888946939,1.488
0.390479275468,0.218384337831,-0.126891483406,-1.84626437665,0.0432845254644,2.05744565865,0.0717201218911,-0.306736550454,-0.898531073857,-0.00835372646026,-1.2289356323,-0.122718337965,0.358658847247,-0.306476222296,0.573667011394,0.819071392098,0.00299359086273,0.0,0.819039869595,-0.573602535458,-0.0116004409808,0.0,-0.00778460791192,0.00910683591294,-0.999928230134,0.0,0.589734447441,0.166718267416,0.30421130186,1.0,-0.229515428571,-0.30164884898,1.504
0.384993105693,0.202791288682,-0.127064869561,-1.86772657333,0.0412638696428,2.06335631907,0.0664481649447,-0.325959001851,-0.910296582423,-0.0116012552281,-1.27240270839,-0.120958174988,0.337080805692,-0.311606524001,0.5737129092,0.8190392844,0.00298250382253,0.0,0.819007324772,-0.573648121344,-0.0116439576024,0.0,-0.00782610166426,0.00912315691652,-0.999927757461,0.0,0.585784373184,0.16152776168,0.304221981806,1.0,-0.236597142857,-0.310956244898,1.521
0.379152829292,0.186825094904,-0.127298991158,-1.88936376369,0.0391654115784,2.06928979809,0.0608564125989,-0.357981594512,-0.950352896091,-0.015116375593,-1.28457317711,-0.126959914374,0.344957216758,-0.327570464202,0.573766300174,0.819001317329,0.00313399077729,0.0,0.818971577316,-0.573701318174,-0.0115368962224,0.0,-0.00765090586759,0.00918630849609,-0.999928535134,0.0,0.581769347274,0.156135942979,0.304309509382,1.0,-0.243678857143,-0.320263640816,1.538
0.373301262189,0.171588474074,-0.127514820695,-1.90991882136,0.0371834746768,2.07473278795,0.0554333672749,-0.367904031198,-0.95845365876,-0.0070022721036,-1.28926711788,-0.13112514047,0.328305224178,-0.341029216202,0.573933071704,0.818884153564,0.00321234288304,0.0,0.818855046791,-0.573867361517,-0.0115503519693,0.0,-0.00761508807522,0.0092597504457,-0.999928131145,0.0,0.57787245435,0.150897631219,0.304349681118,1.0,-0.250344,-0.329023542857,1.554
0.366137162837,0.153172864852,-0.127699477516,-1.93455859185,0.0346383713233,2.08108635835,0.0486405039008,-0.380236901234,-0.972546055672,-0.00637675672928,-1.29388902219,-0.130992649648,0.328453749302,-0.351576291047,0.573835658891,0.818952332622,0.00323425078036,0.0,0.818923680723,-0.57377010248,-0.011516143114,0.0,-0.00757560171813,0.00925715635409,-0.999928455098,0.0,0.573070080378,0.144630978005,0.304383244698,1.0,-0.258258857143,-0.339425926531,1.573
0.359331518791,0.136406408727,-0.127897004444,-1.95685395176,0.0323133659589,2.08663125975,0.0422861440045,-0.407487956718,-0.9995398839,-0.0135078126223,-1.3121767661,-0.1388267682,0.33381807949,-0.391230244402,0.573806664151,0.818972815455,0.00319164882773,0.0,0.818943394611,-0.573740979951,-0.0115650875141,0.0,-0.00764045965883,0.00925008210519,-0.999928027089,0.0,0.568627165487,0.138832460864,0.304371999782,1.0,-0.265340571429,-0.348733322449,1.59
0.352536965471,0.120343915311,-0.128114258369,-1.97797191845,0.0300784767685,2.09172743192,0.0360226937272,-0.436469360393,-1.02156911948,-0.0159907763599,-1.31057815725,-0.146283556846,0.322896940731,-0.392610015821,0.573830153081,0.818956390789,0.00318312771315,0.0,0.818926574903,-0.573764148884,-0.0116066047593,0.0,-0.00767908642604,0.00926714608264,-0.999927573195,0.0,0.564346849298,0.133195959713,0.304377322097,1.0,-0.272005714286,-0.35749322449,1.606
0.34446441865,0.1019740723,-0.128384944481,-2.0018523503,0.0274547520664,2.09732351005,0.0286586275411,-0.445209222089,-1.01555244713,-0.00823895931686,-1.31073691112,-0.142414954294,0.300071826433,-0.407438966794,0.573872372141,0.818926802004,0.00318439222959,0.0,0.818897013023,-0.573806370921,-0.0116050701274,0.0,-0.00767662621648,0.00926769683989,-0.999927586981,0.0,0.559417920479,0.12667129893,0.304395305342,1.0,-0.279504,-0.367348114286,1.624
0.337040776654,0.0853611900365,-0.128562450419,-2.02329071975,0.0251370573462,2.10216930382,0.0217873157448,-0.474187585981,-1.03968530509,-0.0121877699714,-1.34756862809,-0.137628505081,0.287518792583,-0.430206882531,0.57375556475,0.819008578223,0.00320118993489,0.0,0.818978194894,-0.573688544389,-0.0117011634321,0.0,-0.00774701638607,0.00933549212475,-0.999926413454,0.0,0.55486587594,0.120846643345,0.304379270945,1.0,-0.286169142857,-0.376108016326,1.64
0.328669113787,0.0673876564624,-0.128791793676,-2.04597004472,0.022523212915,2.10718146569,0.0141255636091,-0.507732311778,-1.05695804896,-0.0178717889667,-1.35678169023,-0.162711033599,0.297556837205,-0.454023203533,0.573649772278,0.819081948086,0.00338348736579,0.0,0.819054351437,-0.573582697405,-0.0115587858973,0.0,-0.00752702797901,0.00940213596806,-0.999927469214,0.0,0.549998286525,0.114456511946,0.30448562494,1.0,-0.28998,-0.381116571429,1.657
0.319843417496,0.0495819720627,-0.129094315461,-2.06835359014,0.0198784960127,2.111785309,0.00632585645077,-0.522917619044,-1.02491023726,-0.0159121716436,-1.31809312667,-0.154086039228,0.268989640604,-0.46130550371,0.57379414092,0.818980959512,0.00334943327293,0.0,0.818952822017,-0.573727028577,-0.0115896027543,0.0,-0.00757014933383,0.0093932548363,-0.999927227153,0.0,0.545083150893,0.107891171065,0.304502492419,1.0,-0.28998,-0.381116571429,1.674
0.310846470893,0.0318518835816,-0.129275777375,-2.09032874245,0.0173080673914,2.11615880567,-0.00167289087671,-0.535538512282,-1.05305206014,-0.0131150229807,-1.28283894336,-0.146880565532,0.257130600663,-0.47371023899,0.573794494697,0.818980286501,0.00345182245961,0.0,0.818952973443,-0.573726431568,-0.0116084413337,0.0,-0.00752682774192,0.00948792266831,-0.999926660404,0.0,0.540142040198,0.101445621054,0.304548710658,1.0,-0.28998,-0.381116571429,1.691
0.302122333186,0.0153202488702,-0.129488939928,-2.11053715307,0.0147650508402,2.11999699541,-0.00940149587806,-0.555679598338,-1.05210202677,-0.0201473294933,-1.23840333743,-0.155156651453,0.254084107157,-0.483611038581,0.573774173141,0.818994291434,0.00350652769855,0.0,0.818968165466,-0.573706551824,-0.0115188214705,0.0,-0.00742227401532,0.00948111936213,-0.999927506484,0.0,0.535519056627,0.0953303849809,0.304613197169,1.0,-0.28998,-0.381116571429,1.707
0.291949628756,-0.00302849671444,-0.129738238999,-2.13285405535,0.0120337971681,2.12390404375,-0.0182905330358,-0.558350248009,-1.00922219258,-0.0114139044546,-1.2228323283,-0.141422519234,0.209657933319,-0.498486224801,0.573896518014,0.818908700707,0.00347468247309,0.0,0.818881235931,-0.573827802636,-0.0116585275095,0.0,-0.00755354563576,0.00953632422472,-0.999925998496,0.0,0.530281154056,0.088411005839,0.304607584605,1.0,-0.28998,-0.381116571429,1.725
0.282791451604,-0.0191780708856,-0.12989180013,-2.15231421409,0.009534804598,2.12730561857,-0.026416306154,-0.579407761236,-0.997156788776,-0.00947649377448,-1.21143771849,-0.155548995324,0.191269567306,-0.512605811357,0.573786192875,0.818985865192,0.0035077602921,0.0,0.818958914037,-0.573717494473,-0.0116310169536,0.0,-0.0075133196915,0.00954661229846,-0.999926203387,0.0,0.525637697758,0.0823611896755,0.304596468471,1.0,-0.28998,-0.381116571429,1.741
0.273310476819,-0.0352778775712,-0.130123344607,-2.17123715795,0.00700494039123,2.13035388844,-0.0346353027452,-0.597011079421,-0.997814320396,-0.0137416052728,-1.18815615787,-0.161745285551,0.179849625623,-0.519335549132,0.573855421724,0.818936711121,0.00365582227865,0.0,0.818912398241,-0.57378719655,-0.0114666465331,0.0,-0.00729293419463,0.0095741798044,-0.999927571473,0.0,0.521629817863,0.077004197631,0.304713067224,1.0,-0.28998,-0.381116571429,1.755
0.262371752984,-0.0532466924408,-0.130336048729,-2.19214278056,0.00434046179901,2.13349590851,-0.0442308797151,-0.606347945106,-0.999182165542,-0.00557028918706,-1.13962658475,-0.155320909935,0.183687320632,-0.535030850386,0.573903916294,0.818901899508,0.00383676238835,0.0,0.818879310756,-0.573834344688,-0.0114702298513,0.0,-0.00719146544021,0.00972484240593,-0.999926852457,0.0,0.515842750422,0.0693747256939,0.30477909278,1.0,-0.28998,-0.381116571429,1.775
0.252478026529,-0.068814245845,-0.13051803829,-2.21047242208,0.00182799809215,2.13596463194,-0.0529183751484,-0.627876335003,-0.968915989952,-0.00962061333077,-1.12834341716,-0.154169392735,0.14869733686,-0.547231287103,0.573834136575,0.818951903374,0.00359312717184,0.0,0.818925360583,-0.573764265072,-0.0116862663358,0.0,-0.00750902666,0.00964866728415,-0.999925256076,0.0,0.511146705798,0.0633049122379,0.304651290293,1.0,-0.28998,-0.381116571429,1.791
0.241565071874,-0.0853675723898,-0.130816657482,-2.22938289921,-0.000782743970953,2.13840894556,-0.0624504783729,-0.646857148805,-0.956541863351,-0.0111623931262,-1.11054496495,-0.155030875173,0.138975059376,-0.568906433654,0.573916196129,0.818894098035,0.00366100057694,0.0,0.818868355237,-0.573845990671,-0.0116680196862,0.0,-0.00745416546966,0.00969452964537,-0.99992522296,0.0,0.506247955953,0.0567524061643,0.304679188292,1.0,-0.28998,-0.381116571429,1.808
0.231276741734,-0.100902993653,-0.130946742972,-2.24685730057,-0.0032153602718,2.1404285304,-0.0715689076052,-0.649450784666,-0.970816230387,-0.00472428780493,-1.0870087568,-0.15837019001,0.120948244401,-0.568165393163,0.573741010177,0.819016501608,0.00373767786622,0.0,0.818991582354,-0.573670362501,-0.0116554760644,0.0,-0.00740197472535,0.00974853901085,-0.999925085573,0.0,0.501591477088,0.0507824258378,0.304727741322,1.0,-0.28998,-0.381116571429,1.824
0.220505327478,-0.116090946182,-0.131228740481,-2.26406219555,-0.00572810502755,2.14216855265,-0.080879791747,-0.681864403753,-0.948749202548,-0.0234543026858,-1.06375389974,-0.149181949968,0.109233504042,-0.587585062119,0.573861107581,0.81893331937,0.00352058694364,0.0,0.81890480364,-0.573790165508,-0.0118539210242,0.0,-0.00768764073777,0.00968571628799,-0.999923540617,0.0,0.49690708564,0.0446054726018,0.304624812549,1.0,-0.28998,-0.381116571429,1.84
0.207493769241,-0.13412751553,-0.131476857291,-2.28397187746,-0.00857430007476,2.14401869102,-0.0922874381842,-0.683157321801,-0.933291958813,-0.0126861399459,-1.04483112611,-0.148158215392,0.0916948942769,-0.602825169492,0.573850699934,0.818940446256,0.00355901292266,0.0,0.818911714312,-0.573778719104,-0.0119303213388,0.0,-0.00772828559856,0.00976092855258,-0.999922495934,0.0,0.491372870861,0.0373908928336,0.30462613169,1.0,-0.28998,-0.381116571429,1.859
0.196233744123,-0.149130604296,-0.131727545942,-2.30027152639,-0.0109845126359,2.14543067004,-0.102217352333,-0.71857716977,-0.913802438106,-0.0208083156178,-1.01282407459,-0.153630791596,0.0850298145465,-0.621121885853,0.573825160512,0.818957868412,0.00366631012533,0.0,0.818930634925,-0.573752931762,-0.0118716206346,0.0,-0.00761894763468,0.00981487726175,-0.999922806931,0.0,0.486760484347,0.0312859007592,0.30465522771,1.0,-0.28998,-0.381116571429,1.875
0.183976345598,-0.164909037308,-0.132003596519,-2.31722898768,-0.0135431927896,2.14651098897,-0.112890652839,-0.714385822127,-0.932366510364,-0.0103454237551,-0.97183273658,-0.140458009684,0.0648080507566,-0.634877814322,0.573918285504,0.818892743359,0.00363639112119,0.0,0.818864467088,-0.573845312497,-0.0119703286065,0.0,-0.00771583778593,0.00984789155075,-0.999921739377,0.0,0.481810541467,0.0247883174933,0.304656541287,1.0,-0.28998,-0.381116571429,1.892
0.170807893756,-0.181509020696,-0.132246015325,-2.33476246049,-0.0161736769079,2.14748180113,-0.124630562539,-0.740888283923,-0.934427372639,-0.0194018439408,-0.963926561616,-0.146473401046,0.047368900675,-0.664692715668,0.573780000211,0.818989174234,0.00374042061626,0.0,0.818961773505,-0.573706049528,-0.0119887102317,0.0,-0.00767286968401,0.00994233508161,-0.999921135412,0.0,0.476579447055,0.0180078087764,0.304696967343,1.0,-0.28998,-0.381116571429,1.91
0.158667806914,-0.196109514187,-0.132522964649,-2.34986357136,-0.0185939309356,2.14823621069,-0.135253454625,-0.755987829511,-0.916118870218,-0.00615154978106,-0.943326973398,-0.143395415703,0.0366336774354,-0.659367301604,0.573851850918,0.818938035397,0.0039107899804,0.0,0.818913915684,-0.573778698468,-0.0117792522804,0.0,-0.00740269226078,0.00996233786568,-0.999922973019,0.0,0.471995278242,0.0118697686044,0.304794875091,1.0,-0.28998,-0.381116571429,1.926
0.145643916699,-0.211324528064,-0.132759638805,-2.3657034449,-0.0210132673422,2.14866155155,-0.14692037132,-0.779707613003,-0.890534802862,-0.0161505093303,-0.924075759113,-0.145611356064,0.0145875198405,-0.687221852887,0.573717163578,0.819032537966,0.00388134894186,0.0,0.819006656714,-0.573642292828,-0.0119734305134,0.0,-0.00758026921899,0.0100484066758,-0.999920781383,0.0,0.467019601895,0.00547192325449,0.30474699054,1.0,-0.28998,-0.381116571429,1.943
0.132164964198,-0.226325394384,-0.133109337706,-2.38096596657,-0.023555063253,2.14897916171,-0.15875157836,-0.795963483565,-0.862293464985,-0.0165880353044,-0.90702490178,-0.139066485593,0.0121461495911,-0.706100328896,0.57383958789,0.818946565837,0.00392384695869,0.0,0.818921693048,-0.573765153328,-0.0118977469414,0.0,-0.00749239659884,0.0100409149151,-0.999921518931,0.0,0.462130783603,-0.00106320976231,0.304776574113,1.0,-0.28998,-0.381116571429,1.96
0.119309346533,-0.240331498915,-0.133344309698,-2.39504873623,-0.0258721976311,2.14908664021,-0.17024607508,-0.818110151319,-0.868995502624,-0.0212146614342,-0.859189378715,-0.148601306571,0.000628661226415,-0.72237168165,0.573739876529,0.8190161533,0.00398015275846,0.0,0.818992157834,-0.573665456704,-0.0118547919783,0.0,-0.0074261329504,0.0100614744966,-0.999921806583,0.0,0.457501350145,-0.00711016415245,0.304799594299,1.0,-0.28998,-0.381116571429,1.976
0.105247824057,-0.254973331988,-0.133687573929,-2.40962776728,-0.0282255840889,2.14908239525,-0.182797637631,-0.819135962266,-0.844996309315,-0.0057869921928,-0.876474867197,-0.1361770591,-0.00435704758387,-0.74950993587,0.57379444413,0.818977202855,0.00412601384097,0.0,0.818954857526,-0.573719179906,-0.011831772643,0.0,-0.00732291977574,0.0101682202538,-0.999921487989,0.0,0.452594210056,-0.0136092369335,0.304809362346,1.0,-0.28998,-0.381116571429,1.993
0.0909125786914,-0.269448628541,-0.134003856026,-2.42377727207,-0.0306276964014,2.14891034917,-0.195595163692,-0.852771970563,-0.8442431397,-0.0191033211294,-0.797854247549,-0.145679297403,-0.0028475940728,-0.768089571556,0.573814445124,0.818962443202,0.00427154456733,0.0,0.818942655803,-0.573739644373,-0.0116830596018,0.0,-0.00711736960603,0.0102022548401,-0.99992262553,0.0,0.447703436333,-0.0200867680526,0.304856082721,1.0,-0.28998,-0.381116571429,2.01
0.0771423124401,-0.282789142198,-0.134273579597,-2.43676827448,-0.0328494940747,2.14850832647,-0.207963012436,-0.865268779405,-0.810173290482,-0.00515163924381,-0.814872673191,-0.139529436548,-0.0378937974429,-0.78266398407,0.573779885255,0.818986535855,0.0042946788295,0.0,0.818966899955,-0.573704803492,-0.0116945342196,0.0,-0.00711392516008,0.0102274852207,-0.999922392296,0.0,0.443068593305,-0.0261624265614,0.30484106931,1.0,-0.28998,-0.381116571429,2.026
0.0613044363195,-0.297644859972,-0.134688478959,-2.45084871449,-0.0352751356099,2.14792479068,-0.222255733959,-0.894818404262,-0.813782397914,-0.032011953746,-0.754443137108,-0.151001767642,-0.0354566944712,-0.793576850811,0.573826846638,0.818952439634,0.00451648050337,0.0,0.81893623002,-0.573751897271,-0.0115307605756,0.0,-0.00685193716745,0.0103155681035,-0.999923317066,0.0,0.437902037732,-0.0330456285354,0.30491784528,1.0,-0.28998,-0.381116571429,2.044
0.0478842148429,-0.309751535484,-0.134904989997,-2.4623591558,-0.0372876419933,2.14721633955,-0.234383189541,-0.897767341968,-0.792947330812,-0.0169043783044,-0.754090915351,-0.132433035616,-0.05444164892,-0.811955318387,0.573762160663,0.818997809538,0.00450753420302,0.0,0.818981155581,-0.573686754429,-0.0115810836022,0.0,-0.00689910226392,0.0103365721318,-0.99992277585,0.0,0.433539312002,-0.0387017120883,0.304893945143,1.0,-0.28998,-0.381116571429,2.059
0.0322807191532,-0.32325961531,-0.135301574053,-2.47491465946,-0.0395462764231,2.1462928007,-0.248489634142,-0.929670911124,-0.816471039077,-0.0188888680366,-0.726164462993,-0.132357275603,-0.0499895656735,-0.83378665826,0.573839667105,0.818942939916,0.00460917768784,0.0,0.818927755019,-0.573764182283,-0.011521375354,0.0,-0.00679089868303,0.0103862057007,-0.999923002249,0.0,0.428628163211,-0.0452184739941,0.30492734728,1.0,-0.28998,-0.381116571429,2.076
0.0165339994546,-0.336488350917,-0.135555245791,-2.48710189744,-0.0417113123991,2.14527945517,-0.26299277968,-0.93216055436,-0.781135343281,-0.0117719123612,-0.717611402209,-0.134546332488,-0.0715561023432,-0.856412154441,0.573634917773,0.819085781043,0.00471288725828,0.0,0.819072140445,-0.573559486067,-0.0114495235877,0.0,-0.00667514929396,0.0104282419521,-0.999923344138,0.0,0.423728091031,-0.0515935940691,0.304945769165,1.0,-0.28998,-0.381116571429,2.093
0.00122831366113,-0.348624116026,-0.135948305867,-2.49820032851,-0.0437957418563,2.14406757774,-0.276879775301,-0.952049406756,-0.75713498918,-0.0140688409171,-0.675627694768,-0.130245715687,-0.0758420854999,-0.88246388111,0.573730157919,0.819019218259,0.00468752795549,0.0,0.819004782887,-0.573654057049,-0.0115297588937,0.0,-0.00675420472601,0.0104542794836,-0.99992254138,0.0,0.418782205189,-0.0581189144441,0.3049306181,1.0,-0.28998,-0.381116571429,2.11
-0.017230637192,-0.362763550502,-0.136374622646,-2.51074391507,-0.0461366584114,2.14264336468,-0.293796049043,-0.989671856434,-0.734794976762,-0.0284370090766,-0.660576882953,-0.116280210772,-0.0882883456193,-0.892000009003,0.573783136433,0.818980904179,0.0048926307729,0.0,0.818969878001,-0.57370766402,-0.0113402854432,0.0,-0.0064806622271,0.0105139842036,-0.999923725668,0.0,0.41362334699,-0.0649945632471,0.305011826119,1.0,-0.28998,-0.381116571429,2.128
-0.0329981920805,-0.374274533572,-0.136642677654,-2.52114354627,-0.0480916810621,2.14121104454,-0.308429109638,-0.988373660342,-0.713813812135,-0.0162202116172,-0.645034092623,-0.121136691856,-0.0870612844268,-0.920277437763,0.573614151629,0.819099827899,0.00479832138933,0.0,0.819086457417,-0.573537169928,-0.0115428284162,0.0,-0.00670284214964,0.0105515729482,-0.999921865055,0.0,0.408937810054,-0.0710144046863,0.30493035981,1.0,-0.28998,-0.381116571429,2.144
-0.0502109236968,-0.386281133389,-0.137035962966,-2.53147435824,-0.0501695271816,2.13973022087,-0.324207568975,-1.02075072192,-0.697444620325,-0.0196117031437,-0.610446169566,-0.123290863777,-0.0760816104992,-0.938037477364,0.57371831898,0.819026016902,0.00494176127432,0.0,0.819015878794,-0.573643146734,-0.0112817281498,0.0,-0.0064053447052,0.010520117607,-0.999924146465,0.0,0.404076779772,-0.0775472091302,0.305032958853,1.0,-0.28998,-0.381116571429,2.161
-0.066577683408,-0.397201485617,-0.137358367177,-2.54100213308,-0.0520090786435,2.13815984046,-0.33947579456,-1.04287515155,-0.681799482166,-0.0294062534496,-0.581032881371,-0.110008738064,-0.0961281568272,-0.964725903685,0.573622998034,0.819092718049,0.00495199634599,0.0,0.819082119347,-0.573546843997,-0.0113686590648,0.0,-0.00647190858253,0.0105776196104,-0.999923111225,0.0,0.399425439109,-0.0836013490558,0.30500869969,1.0,-0.28998,-0.381116571429,2.177
-0.083221630466,-0.407784099572,-0.137693893067,-2.55016326081,-0.0537084916407,2.13642411242,-0.355003860587,-1.04092633651,-0.653040339969,-0.0252316851482,-0.555038250659,-0.102848703172,-0.101372903088,-0.980953448041,0.573618747713,0.819095507968,0.00498277029108,0.0,0.819083645987,-0.573539807526,-0.0116110706013,0.0,-0.00665288674725,0.0107418402488,-0.999920172797,0.0,0.394748883982,-0.0896434304535,0.304963016813,1.0,-0.28998,-0.381116571429,2.193
-0.102424650772,-0.419368574607,-0.13811696082,-2.5598064645,-0.0557390762713,2.13472030635,-0.37282232145,-1.07712202868,-0.637081513491,-0.0135816415013,-0.54017772741,-0.109805471303,-0.0889726920688,-0.993010243669,0.573718195086,0.819024844345,0.00514624855876,0.0,0.819016837632,-0.573641662078,-0.0112876084646,0.0,-0.00629285034588,0.0106909764098,-0.999923048568,0.0,0.389600039659,-0.0965727422154,0.305062444416,1.0,-0.28998,-0.381116571429,2.211
-0.119672935913,-0.429247005474,-0.138468220068,-2.56821420382,-0.0574932077246,2.13284065336,-0.389015401903,-1.08975600868,-0.613990723515,-0.0309901967933,-0.515888352498,-0.109233527281,-0.113314981181,-1.02235382434,0.573665135005,0.819062694916,0.00503602806264,0.0,0.819051754149,-0.573586401133,-0.0115590381505,0.0,-0.00657910639395,0.010755991886,-0.999920508839,0.0,0.384882491253,-0.102643324428,0.304993753142,1.0,-0.28998,-0.381116571429,2.227
-0.13929038668,-0.439860148503,-0.13879466272,-2.57706570513,-0.0592714268783,2.13088989336,-0.40754496689,-1.09458558486,-0.585772364184,-0.0190812801672,-0.47105183167,-0.0965064989962,-0.0973392856221,-1.03539485593,0.573578012909,0.819123363527,0.00509169258553,0.0,0.819112487771,-0.573498048714,-0.0116390463458,0.0,-0.006613866366,0.01084677889,-0.999919298823,0.0,0.379681397296,-0.109418631242,0.304975431152,1.0,-0.28998,-0.381116571429,2.245
-0.15833434577,-0.449521049613,-0.139180293368,-2.58475920541,-0.0609642665306,2.1291476441,-0.425433090645,-1.11915178706,-0.54861140952,-0.0151069885663,-0.456273806224,-0.0987946909753,-0.112590190666,-1.04020735533,0.573674898251,0.819054443444,0.00526086424025,0.0,0.819047431261,-0.57359724663,-0.0113247915948,0.0,-0.00625812412196,0.0108058540542,-0.999922031661,0.0,0.374828764701,-0.11596993664,0.305093800393,1.0,-0.28998,-0.381116571429,2.262
-0.176412415604,-0.458113115008,-0.139551098285,-2.59188337934,-0.062542722918,2.12728024081,-0.442598750487,-1.13438397711,-0.52837846589,-0.0230878723056,-0.426674479882,-0.0970973922617,-0.111560131293,-1.07851772549,0.57363509635,0.819082856265,0.00517665042563,0.0,0.819073255774,-0.573555146702,-0.0115862965471,0.0,-0.00652116792775,0.0108865718545,-0.999919475219,0.0,0.370124301819,-0.122058115412,0.305018828678,1.0,-0.28998,-0.381116571429,2.278
-0.196953729916,-0.467275691062,-0.139894404694,-2.59935374213,-0.0641748947269,2.12536889553,-0.462232399645,-1.16701085902,-0.499191547577,-0.0291706658191,-0.397614658258,-0.0824452426814,-0.107729524649,-1.1045598507,0.573522224974,0.819161780503,0.0051943936794,0.0,0.819151809879,-0.57344123927,-0.0116706631455,0.0,-0.0065816083695,0.0109485924722,-0.999918402048,0.0,0.364909018602,-0.128862433578,0.304979387836,1.0,-0.28998,-0.381116571429,2.296
-0.216657528471,-0.475431559988,-0.140162571845,-2.60569819818,-0.0655476818843,2.12363393176,-0.480919446073,-1.15363704096,-0.460164270131,-0.00780875891234,-0.353456692423,-0.073994938751,-0.104977090038,-1.10686245713,0.573608981812,0.819100050032,0.00534704816755,0.0,0.819092906964,-0.573528950942,-0.0114934369934,0.0,-0.00634771010328,0.0109726791766,-0.999919650216,0.0,0.360074746565,-0.135311607381,0.305059003248,1.0,-0.283438285714,-0.372518889796,2.313
-0.236300277303,-0.482891979015,-0.140340091044,-2.61160900586,-0.0668195042009,2.12193185753,-0.499605226047,-1.14515507028,-0.42054049884,-0.0013574291712,-0.338511848292,-0.0677145709153,-0.0952447634899,-1.10537284346,0.573644582265,0.81907478947,0.00539716546061,0.0,0.819068043737,-0.573563960057,-0.0115182617291,0.0,-0.00633882024811,0.0110282465215,-0.999919095295,0.0,0.355280923555,-0.14162005512,0.305057055326,1.0,-0.276356571429,-0.363211493878,2.33
-0.25464962512,-0.489268863981,-0.140495995881,-2.61676806941,-0.0678450194366,2.12029741044,-0.517039393005,-1.15117889319,-0.383945138821,-0.0105670743098,-0.309582844596,-0.0648203265741,-0.101511207137,-1.10257056113,0.573775750297,0.818982646758,0.0054368723392,0.0,0.818974388188,-0.573691474613,-0.0118232968451,0.0,-0.00656411401357,0.0112367965591,-0.99991531982,0.0,0.3508045579,-0.147415581128,0.304977980389,1.0,-0.269691428571,-0.354451591837,2.346
-0.273906895267,-0.495528050189,-0.140438643079,-2.62162509034,-0.0688259993716,2.11885854244,-0.535391399924,-1.12280772506,-0.353604103708,-0.00227049879573,-0.276078275695,-0.0563780992557,-0.0827846564017,-1.08112860444,0.573777384018,0.818980998074,0.00551228480035,0.0,0.818974213109,-0.573693699474,-0.0117270775371,0.0,-0.00644201463489,0.0112433674479,-0.999916040043,0.0,0.346257696147,-0.153403545976,0.305001812527,1.0,-0.262609714286,-0.345144195918,2.363
-0.292842239005,-0.501096101157,-0.140382493378,-2.62589527514,-0.069660658759,2.11745453146,-0.553426495327,-1.09879294358,-0.315857144689,0.00555570326922,-0.241016613702,-0.0400530111979,-0.0785383765559,-1.06363130351,0.573870206249,0.81891533271,0.00560456363242,0.0,0.818909710472,-0.573786127841,-0.01170950442,0.0,-0.00637339455067,0.0113095850427,-0.999915733014,0.0,0.341837534712,-0.159239612722,0.30502552879,1.0,-0.255528,-0.3358368,2.38
-0.309318367388,-0.505504993218,-0.140295931548,-2.62925001048,-0.0703210243038,2.11635029447,-0.569155960764,-1.09143931215,-0.283649479972,0.011453796377,-0.212529474285,-0.0491163133813,-0.0742709867656,-1.04847322742,0.573941922497,0.818864549947,0.0056802589393,0.0,0.818860184759,-0.573858067481,-0.0116474505254,0.0,-0.00627814278855,0.0113365162943,-0.999916030635,0.0,0.338042427795,-0.164276355585,0.305051444357,1.0,-0.249279428571,-0.327624391837,2.395
-0.327629977901,-0.510016223962,-0.140100547002,-2.63262972382,-0.070939966358,2.11523718312,-0.586731113131,-1.07904904639,-0.252515621706,0.00880595661451,-0.192640455039,-0.0272981674482,-0.0643698776002,-1.02689917395,0.573942913878,0.818863152516,0.00578065416906,0.0,0.818860827784,-0.573860089817,-0.0115016927942,0.0,-0.00610114316601,0.0113350845704,-0.999917142522,0.0,0.333875785339,-0.169805472867,0.305100234178,1.0,-0.242197714286,-0.318316995918,2.412
-0.346515791869,-0.514127017068,-0.139846662374,-2.63586740925,-0.0714761280799,2.11402461536,-0.604994580702,-1.0320995954,-0.21536980116,0.021129590375,-0.175314832292,-0.026279209529,-0.0640766107674,-1.00314765179,0.573853277541,0.81892568531,0.00582105626916,0.0,0.818922585535,-0.573767936684,-0.0117004545185,0.0,-0.00624198746773,0.0114815596802,-0.999914602043,0.0,0.32954579348,-0.175414772444,0.305052607953,1.0,-0.234699428571,-0.308462106123,2.43
-0.365091339909,-0.517608861029,-0.139602979729,-2.63870334662,-0.0719796543609,2.11303080419,-0.622857289537,-1.01945170353,-0.179546156098,0.0174243377675,-0.148644541837,-0.0233272702389,-0.0520826989916,-0.986180428019,0.573883108193,0.818904739643,0.00582687070617,0.0,0.818900414831,-0.573795366174,-0.0119052613785,0.0,-0.0064059668938,0.0116040786567,-0.999912150615,0.0,0.325321599825,-0.180909957717,0.304969331696,1.0,-0.227201142857,-0.298607216327,2.448
-0.381172969595,-0.520300656011,-0.139351742555,-2.64082380514,-0.0722800908264,2.11228976851,-0.638351515786,-1.00245408965,-0.159154697315,0.00808354740319,-0.125795366067,-0.0153037628052,-0.0455289139035,-0.965622136325,0.573933050455,0.81886912516,0.00591239007423,0.0,0.818865441511,-0.573844103411,-0.011961629549,0.0,-0.00640234220808,0.0117068518372,-0.999910975855,0.0,0.321716165805,-0.185635984023,0.304939260532,1.0,-0.220536,-0.289847314286,2.464
-0.395856637522,-0.522477219344,-0.139058144261,-2.64248394253,-0.0725454695063,2.11164513946,-0.652592240304,-0.966710728087,-0.142190740595,0.0201781919244,-0.104154481905,-0.0126027665523,-0.0482638615819,-0.944780283146,0.573876383442,0.81890864542,0.00593918218677,0.0,0.818905180855,-0.573787102514,-0.0119755024447,0.0,-0.00639913955026,0.011736311056,-0.999910651016,0.0,0.318452575061,-0.189927937718,0.304936566487,1.0,-0.214287428571,-0.281634906123,2.479
-0.41125514969,-0.524544383632,-0.138845126257,-2.64397057954,-0.072778796375,2.11102221043,-0.667411911369,-0.963125651169,-0.126826899285,0.0105897866122,-0.0873864011462,-0.0196587939848,-0.0430027604366,-0.919465189856,0.574011534433,0.818813222387,0.0060342425742,0.0,0.818811294409,-0.573922398811,-0.0119118089483,0.0,-0.00629048080744,0.0117786484807,-0.999910842671,0.0,0.31503213903,-0.194442925821,0.304971024505,1.0,-0.207622285714,-0.272875004082,2.495
-0.427051638908,-0.526296420851,-0.138488383721,-2.64523651378,-0.0729538385576,2.1105092374,-0.682772747165,-0.916125508175,-0.0956942881572,0.0214257358448,-0.0676298308342,-0.0196234910563,-0.028773690678,-0.880386564254,0.573966047046,0.818844769787,0.00608002730597,0.0,0.818843966145,-0.57387773957,-0.0118171923492,0.0,-0.00618737294792,0.0117614872984,-0.999911688017,0.0,0.311569990461,-0.199031335841,0.305002472988,1.0,-0.200540571429,-0.263567608163,2.512
-0.442490118017,-0.527704495373,-0.138199778819,-2.64627771123,-0.0731150107992,2.11006877956,-0.697674221399,-0.887460897807,-0.0777584180267,0.0276080673933,-0.0606492817385,-0.00648958389184,-0.028680082702,-0.860474485553,0.574071448911,0.818770559919,0.00612279805846,0.0,0.818770522071,-0.573983357882,-0.0117764155568,0.0,-0.00612791615141,0.0117738971885,-0.999911908114,0.0,0.308169502809,-0.203515430055,0.305013889905,1.0,-0.193458857143,-0.254260212245,2.529
-0.458150422085,-0.528817216035,-0.137785931055,-2.64711128824,-0.0731577498603,2.10970470133,-0.71293795757,-0.868236273549,-0.053383172465,0.0163556563875,-0.0418068309561,0.00102887059186,-0.0215211439588,-0.848763187303,0.574036503829,0.818794669777,0.00617478079298,0.0,0.818795453962,-0.573948507592,-0.011741469498,0.0,-0.00606996328508,0.0117961416552,-0.999911999422,0.0,0.304750956608,-0.208013795076,0.305021163222,1.0,-0.185960571429,-0.244405322449,2.547
-0.47334439467,-0.529547118315,-0.137350546019,-2.64767610906,-0.07316756133,2.10940027157,-0.727655600309,-0.823374237265,-0.0341697557917,0.0272604569707,-0.0268804622914,0.00170069428548,-0.0107407239682,-0.811166297412,0.574081950261,0.818762668659,0.00619303612644,0.0,0.818763543542,-0.573993590789,-0.0117628398255,0.0,-0.00607632807056,0.0118236938745,-0.999911635346,0.0,0.301444865249,-0.21236590632,0.305016207933,1.0,-0.178462285714,-0.234550432653,2.565
-0.486371947229,-0.529941952135,-0.136982342777,-2.64801602835,-0.0731756200541,2.10919520309,-0.740318918295,-0.809899382171,-0.0179473079174,0.0181489023937,-0.0170013819927,0.000177472875073,-0.0119258246693,-0.779088913028,0.574097390496,0.81875188159,0.00618785260319,0.0,0.818752396392,-0.574008479582,-0.0118120984862,0.0,-0.00611941581418,0.0118478421723,-0.99991108674,0.0,0.29860211775,-0.21609236085,0.304997814165,1.0,-0.171797142857,-0.225790530612,2.581
-0.498871911687,-0.530127610511,-0.136532499494,-2.64818956917,-0.0731614523605,2.10904720515,-0.752581137535,-0.764047109768,-0.0051071072852,0.0280102731386,-0.00968527363505,0.00181381973313,-0.00571364673505,-0.75799413341,0.573970984741,0.818840896479,0.00613529375297,0.0,0.818840562206,-0.573881986637,-0.011846771711,0.0,-0.00617980558104,0.0118237582549,-0.999911000411,0.0,0.29589415013,-0.219643550014,0.304985702453,1.0,-0.165132,-0.217030628572,2.597
-0.510942473163,-0.530213453641,-0.13611676831,-2.64827133738,-0.0731471532467,2.10894226426,-0.764320049525,-0.751153683958,-0.00110233272038,0.0225205189023,-0.000542527170633,0.00508164263929,-0.00715392404519,-0.71540996226,0.573950901034,0.818855350839,0.00608477654034,0.0,0.818854371914,-0.573862128258,-0.0118542081098,0.0,-0.00621517858673,0.0117865062246,-0.999911220972,0.0,0.293262249158,-0.223067678526,0.304981658416,1.0,-0.158466857143,-0.208270726531,2.613
-0.523998813291,-0.53012126206,-0.135629186577,-2.64825399479,-0.073085046648,2.10889366372,-0.777070084045,-0.70357338513,0.0115384233356,0.0297950885501,0.00286908733486,0.010368242696,-0.000103754511327,-0.70005217522,0.573885792922,0.818901359799,0.00603378016443,0.0,0.818899625469,-0.573797059303,-0.0118779225141,0.0,-0.00626480220038,0.0117578576723,-0.99991124858,0.0,0.290415360976,-0.226751235718,0.304964397533,1.0,-0.150968571429,-0.198415836735,2.631
-0.536431849489,-0.529907584297,-0.135182744784,-2.64811741637,-0.0729568817444,2.10889364402,-0.789186810513,-0.688718792983,0.00958780670617,0.0183752058584,0.0103035939399,0.0113522572439,0.000349856799905,-0.671112617475,0.573892663305,0.818896501122,0.0060397313464,0.0,0.818894924707,-0.573804056272,-0.0118639873641,0.0,-0.00624987572596,0.0117547869681,-0.999911378091,0.0,0.287698650071,-0.230253532653,0.304960115272,1.0,-0.143470285714,-0.188560946939,2.649
-0.547045035883,-0.52957473977,-0.134761480378,-2.64787517261,-0.0728030631344,2.10891133,-0.799450331426,-0.642293712525,0.0264836458522,0.0360735653548,0.0149597283907,0.0123124050182,0.00026492310291,-0.637005263251,0.573961427763,0.818848262658,0.00604558385046,0.0,0.818846791013,-0.573872837736,-0.0118594206419,0.0,-0.00624178980249,0.0117574833078,-0.999911396898,0.0,0.285388393275,-0.233232697299,0.304961205219,1.0,-0.136805142857,-0.179801044898,2.665
-0.556397948414,-0.529096290636,-0.13429557022,-2.64758135792,-0.0726059922473,2.10894143026,-0.808697935635,-0.620275531555,0.0291528354043,0.030153069747,0.019241795312,0.00577901218918,0.00851997291636,-0.613072711666,0.573820247025,0.818947221689,0.0060431029963,0.0,0.818945188158,-0.573730702126,-0.0119418228217,0.0,-0.00631273043631,0.0118016570603,-0.999910431151,0.0,0.28336845193,-0.235828278139,0.304934733522,1.0,-0.130556571429,-0.171588636735,2.68
-0.566723457449,-0.528491727456,-0.133888334596,-2.64716832638,-0.0723821823837,2.10904168715,-0.818626907386,-0.600371418904,0.0380170127974,0.026722505419,0.0305236634846,0.012648137965,0.00651448162536,-0.570246670969,0.573978288872,0.818836161389,0.0060837165438,0.0,0.818834479642,-0.573888214001,-0.0119649354757,0.0,-0.00630607002574,0.0118493981989,-0.999909908563,0.0,0.280993037906,-0.238893076901,0.304918354065,1.0,-0.123058285714,-0.161733746939,2.698
-0.576267022569,-0.527716160297,-0.133356232529,-2.64666125513,-0.0721092214622,2.10917818368,-0.828118025997,-0.543903316138,0.052492725485,0.032551828458,0.0318858202856,0.0228962901629,0.0061815582942,-0.535081560603,0.573789809417,0.818968191966,0.00609114583874,0.0,0.81896625013,-0.57369907377,-0.0120166886128,0.0,-0.00634692321873,0.0118837251341,-0.999909242703,0.0,0.279088364062,-0.241375255588,0.304893226352,1.0,-0.116393142857,-0.152973844898,2.714
-0.585403027301,-0.526930499584,-0.132892866407,-2.64611897703,-0.071862547027,2.10928337334,-0.836998950766,-0.525488870065,0.0450974641498,0.0300882923787,0.0338616242483,0.0144934660982,0.0120486996955,-0.506346371584,0.573807624401,0.818955640746,0.00610045660732,0.0,0.818953361117,-0.573715987337,-0.0120873938264,0.0,-0.00639923307544,0.0119320579087,-0.999908333704,0.0,0.277116573653,-0.243916959598,0.304873300026,1.0,-0.109311428572,-0.14366644898,2.731
-0.593615697427,-0.526149278621,-0.13248205678,-2.64554049354,-0.0716040984935,2.10941073033,-0.844893428301,-0.500577818152,0.0500196222901,0.0267581915181,0.039088792432,0.0129942164052,0.0024794030366,-0.48255990579,0.573920766714,0.818876121643,0.00613170770418,0.0,0.818874132733,-0.573828751192,-0.0121023116464,0.0,-0.00639186691262,0.0119670952112,-0.999907962099,0.0,0.275351911049,-0.24621094675,0.304871793823,1.0,-0.102646285714,-0.134906546939,2.747
-0.60152808685,-0.525233793044,-0.131943416127,-2.64489277911,-0.0712879449819,2.10957205775,-0.85272125604,-0.450797644416,0.0550715288477,0.0332952210392,0.0352192095333,0.0176446182953,0.00399118241433,-0.441057293178,0.573780642722,0.818974269078,0.00613738764637,0.0,0.818972053619,-0.573688069929,-0.012145810543,0.0,-0.00642628396443,0.011995610897,-0.999907399809,0.0,0.273693382103,-0.2483946817,0.304858492076,1.0,-0.0955645714287,-0.125599151021,2.764
-0.609091678345,-0.524396823383,-0.131462925907,-2.6442590136,-0.0710126230872,2.10971388882,-0.860011770708,-0.44091970591,0.0472181940193,0.0262120899388,0.0367413236322,0.0155265934164,0.00555532442371,-0.408845857331,0.573817205261,0.818948663058,0.00613588808715,0.0,0.818946403012,-0.573724584658,-0.0121505906927,0.0,-0.0064305239664,0.0119974124592,-0.999907350936,0.0,0.272084816236,-0.25048483188,0.304864158247,1.0,-0.0884828571429,-0.116291755102,2.781
-0.616128609968,-0.523540122182,-0.13097405537,-2.64358540171,-0.0707055339796,2.1098812548,-0.866799797431,-0.403580637062,0.0507462022142,0.0242924414006,0.0421937380818,0.0184876552394,0.00624836384827,-0.387678161173,0.573843291953,0.818930312988,0.00614537634999,0.0,0.818928418126,-0.573751075094,-0.0121118419393,0.0,-0.00639296130687,0.011983153296,-0.999907762788,0.0,0.270611072372,-0.252430049893,0.304882831089,1.0,-0.0814011428572,-0.106984359184,2.798
-0.622580092389,-0.522654878774,-0.130510371766,-2.64291514512,-0.070391775875,2.11004725782,-0.87303129772,-0.362285527676,0.0516064015275,0.0311448659533,0.0422157394612,0.0198438338404,0.0143870184034,-0.352285473134,0.57386600497,0.818914229789,0.00616761621365,0.0,0.818912618813,-0.573773673503,-0.0121095518089,0.0,-0.00637799127709,0.0120002299055,-0.999907653591,0.0,0.269266109473,-0.254212426504,0.30488848501,1.0,-0.0743194285715,-0.0976769632654,2.815
-0.628055486324,-0.521919914427,-0.129999961034,-2.6423582617,-0.0700830509511,2.11020172764,-0.878406089553,-0.33353523805,0.0415314423948,0.0336967661276,0.0378561642417,0.0168116944592,0.00557715265262,-0.327547539276,0.573749172746,0.818996102149,0.00616590126358,0.0,0.818994601463,-0.573657123545,-0.012086946732,0.0,-0.00636217156895,0.0119849462839,-0.99990793768,0.0,0.268144035567,-0.255688433427,0.304897681464,1.0,-0.0676542857144,-0.0889170612246,2.831
-0.63385531299,-0.521148431385,-0.129480908674,-2.64176082401,-0.0697574133091,2.11035827874,-0.88391142394,-0.311392612939,0.0429388758261,0.0304650737927,0.0356449224166,0.0175720682895,0.0121820972672,-0.292797911021,0.573794066065,0.818964608326,0.0061714634039,0.0,0.818963369513,-0.573702340402,-0.0120569861066,0.0,-0.00633378385079,0.0119726600575,-0.999908265089,0.0,0.266942870793,-0.257252468273,0.304912056326,1.0,-0.0601560000001,-0.0790621714287,2.849
-0.638948365027,-0.520352680879,-0.129005752944,-2.64115853262,-0.0694090738471,2.11053055475,-0.888755209102,-0.264733770466,0.0421832562277,0.0227628980847,0.0271867330681,0.0181476489553,0.0120647551614,-0.260732506723,0.573842743635,0.818930217687,0.00620894816506,0.0,0.818929586756,-0.573751072223,-0.0120327037318,0.0,-0.00629167515361,0.0119898019186,-0.999908325535,0.0,0.265911253439,-0.258633331571,0.304919751472,1.0,-0.0526577142858,-0.0692072816328,2.867
-0.643281518641,-0.519677054185,-0.128589446705,-2.64068150163,-0.069097899102,2.11066727657,-0.892818465339,-0.246082126365,0.0366495340637,0.0224444128385,0.0264180561163,0.0192276857663,0.00761336476737,-0.227328895049,0.573927375793,0.818870571277,0.00625313628553,0.0,0.818870343232,-0.573835163677,-0.0120545760767,0.0,-0.00628298908158,0.0120391908622,-0.999907786714,0.0,0.265022349744,-0.259790374437,0.30490999447,1.0,-0.0455760000001,-0.0598998857144,2.884
-0.646679788313,-0.519175357103,-0.128149128153,-2.64032236238,-0.0688325612947,2.11076153128,-0.895917709423,-0.218007204458,0.0311053090322,0.0346937154707,0.0221500881582,0.0166258834748,0.00526154796907,-0.189388244816,0.573992671099,0.818824816564,0.00625141621917,0.0,0.818824467171,-0.573900263004,-0.0120717432938,0.0,-0.00629707481403,0.0120481366967,-0.999907590356,0.0,0.264343651505,-0.260663454401,0.304907440153,1.0,-0.0393274285715,-0.0516874775511,2.899
-0.649706405059,-0.518685625784,-0.127621602301,-2.64000120302,-0.0685540189343,2.11086865766,-0.898783158954,-0.175699149686,0.0291109292279,0.0323403277086,0.0229944160374,0.0173389576679,0.00497567013395,-0.167066354068,0.573886845364,0.818899236072,0.00621906579526,0.0,0.818898283258,-0.573794257218,-0.0121036755925,0.0,-0.00634334858691,0.0120391542973,-0.999907406059,0.0,0.263773211811,-0.261408634463,0.304895122986,1.0,-0.0326622857144,-0.0429275755103,2.915
-0.652430084692,-0.518251356636,-0.127048918802,-2.63968746438,-0.068259910289,2.11096176685,-0.901387925123,-0.152540361148,0.0251473506685,0.0341064498511,0.0160537355245,0.0180062524365,0.00828109752687,-0.137854114416,0.573720224374,0.81901630936,0.00617543909016,0.0,0.81901481883,-0.573627924264,-0.0121028072028,0.0,-0.00637011482584,0.0120016324602,-0.999907686967,0.0,0.263288795029,-0.262058460365,0.304899623282,1.0,-0.0255805714287,-0.033620179592,2.932
-0.654669985746,-0.517875888159,-0.126558636494,-2.63944865292,-0.0679794465349,2.11102769491,-0.903384296762,-0.123288873488,0.0208421232538,0.02882225159,0.0105449875037,0.013854709457,0.00346248453393,-0.104142714546,0.573704377193,0.819027479875,0.00616617391534,0.0,0.819025589182,-0.573611596833,-0.0121477218494,0.0,-0.00641245260616,0.0120196868381,-0.999907199484,0.0,0.262890545662,-0.262577310525,0.304887327381,1.0,-0.0199088888889,-0.026165968254,2.949
-0.65656697322,-0.517594521239,-0.126251940816,-2.63926098938,-0.0677500881973,2.11107230508,-0.904961591043,-0.105318157002,0.0113203292035,0.0184082581461,0.0102763198725,0.00752992340611,-0.000160799178618,-0.105278094152,0.573856482525,0.81892061283,0.0062059848752,0.0,0.818919051264,-0.573763131613,-0.0121738728225,0.0,-0.00640879346468,0.0120684874385,-0.99990663513,0.0,0.262523618021,-0.263035898846,0.304880162597,1.0,-0.0195688888889,-0.0257191111111,2.966
-0.658237288238,-0.517326839077,-0.126043694686,-2.63904188467,-0.0675956068508,2.11112836233,-0.906600425644,-0.0976942497124,0.015687485068,0.01041546427,0.0142422835354,0.00862689619303,0.0053919721214,-0.0868977920397,0.573811823722,0.81895175962,0.00622521272426,0.0,0.818950585602,-0.573718653051,-0.0121487606325,0.0,-0.00637785103144,0.0120694764753,-0.999906821036,0.0,0.262196417747,-0.263473416071,0.304890869264,1.0,-0.0192288888889,-0.0252722539683,2.983
-0.659788308351,-0.517042687718,-0.125879051546,-2.63881300497,-0.0675018896903,2.11121787213,-0.908074775348,-0.0844550743519,0.0201792290436,0.00985897418007,0.0160764060687,0.00294545438317,0.000701730208425,-0.080558703669,0.573809665887,0.818953403452,0.00620783460441,0.0,0.818952308531,-0.573717152501,-0.0121033953137,0.0,-0.00635069786366,0.0120291973006,-0.999907479244,0.0,0.261891967032,-0.263901832736,0.304901692827,1.0,-0.0188888888889,-0.0248253968254,3.0
-0.661268013374,-0.516795291838,-0.125776172827,-2.63862725084,-0.0674617421988,2.11124112451,-0.909555124872,-0.084414621948,0.0124272039179,0.00703256150931,0.00820788893088,0.000290033543984,0.000653341290077,-0.0851999849921,0.573763024073,0.818986224795,0.00618891773663,0.0,0.818984704763,-0.573670268095,-0.0121335802113,0.0,-0.00638695992205,0.0120306602677,-0.999907230675,0.0,0.261567838703,-0.264310013646,0.304899300285,1.0,-0.0185488888889,-0.0243785396825,3.017
-0.662575094415,-0.516568375577,-0.125732084956,-2.63842248557,-0.0674176492998,2.11127041916,-0.910828463897,-0.0866568088646,0.0157308249894,0.00391503529925,0.0158525304834,0.00744998195574,0.00332586116877,-0.0847469816715,0.57379238236,0.81896561934,0.00619380220168,0.0,0.818964275071,-0.573699809572,-0.0121157565106,0.0,-0.00636912751631,0.0120246630344,-0.999907416561,0.0,0.261263772269,-0.264715480691,0.304913270379,1.0,-0.0182088888889,-0.0239316825397,3.034
-0.66392841834,-0.516308077061,-0.125701183179,-2.63822041785,-0.0673741503888,2.11136957214,-0.91223544011,-0.0775800187495,0.0141306783902,-0.000601627211668,0.00802395020801,0.00531392414087,0.00477907760579,-0.0840981468322,0.573751958999,0.81899387576,0.00620225066294,0.0,0.818992930968,-0.57365990525,-0.01206809989,0.0,-0.00632583916636,0.0120039265151,-0.999907940516,0.0,0.260989581916,-0.265095679214,0.304917191928,1.0,-0.0178888888889,-0.0235111111111,3.05
-0.665357870866,-0.516043597824,-0.125678748018,-2.63800879375,-0.0673416180986,2.1114020059,-0.913658780423,-0.0771912079389,0.0104846984918,-0.000317986704801,0.00942658694677,0.0074822552079,0.00027210633402,-0.0758286758716,0.573765967398,0.818983991085,0.00621159432259,0.0,0.818983085261,-0.573673712446,-0.0120799257036,0.0,-0.00632995926084,0.012018472333,-0.999907739713,0.0,0.260665300531,-0.265515536978,0.304919061369,1.0,-0.0175288888889,-0.023037968254,3.068
-0.666536512133,-0.515823773284,-0.125675791771,-2.63784126197,-0.0673103283332,2.11142086077,-0.914828184979,-0.0822621996013,0.0176192581386,-0.000999521046136,0.0103889939168,0.00278741233836,0.000786785353582,-0.073554243899,0.573790732812,0.81896647123,0.00623384641272,0.0,0.81896565644,-0.573697995646,-0.0121082725718,0.0,-0.00634004613417,0.0120531527721,-0.999907258361,0.0,0.26037339337,-0.265884885931,0.304914928348,1.0,-0.0172088888889,-0.0226173968254,3.084
-0.667844849533,-0.515584493202,-0.125665093907,-2.63764443004,-0.0672796946985,2.11148235362,-0.916157907356,-0.0749873542905,0.0164252334102,-0.000153728117797,0.0103471039973,0.000700338220528,0.000503398665867,-0.0756069721105,0.573791766694,0.818965679544,0.00624268406154,0.0,0.818965162379,-0.573699337491,-0.0120780740404,0.0,-0.00631022589525,0.0120430720745,-0.99990756846,0.0,0.260097252016,-0.266252470766,0.304922353352,1.0,-0.0168888888889,-0.0221968253968,3.1
-0.66926809538,-0.515310909445,-0.125635170217,-2.63742424272,-0.067249919937,2.11155501386,-0.917514464344,-0.0744544040742,0.0129682609402,0.00486718559848,0.0131492467303,6.82405104044e-05,0.00199334468618,-0.072072658353,0.573849270119,0.818925415115,0.0062391155858,0.0,0.818925028321,-0.573757182062,-0.0120515941932,0.0,-0.00628974049741,0.0120253979655,-0.999907910244,0.0,0.259782207197,-0.266676163665,0.304928299111,1.0,-0.0165088888889,-0.0216973968254,3.119
-0.670523599749,-0.515082983284,-0.125602091255,-2.63722649653,-0.0672175724395,2.1115855544,-0.918831490768,-0.0728163311323,0.0125575899585,0.00330669878692,0.00916513060443,0.00166278399799,0.00421646759361,-0.0836642039836,0.573799397666,0.81896033597,0.0062422950059,0.0,0.818960033037,-0.573707387651,-0.012043444002,0.0,-0.00628197313279,0.0120229425173,-0.9999079886,0.0,0.259501662017,-0.267043913541,0.304937371278,1.0,-0.0161688888889,-0.0212505396825,3.136
-0.671589033558,-0.514878232007,-0.125565906162,-2.63706449335,-0.0671888690341,2.1116297763,-0.919913012963,-0.0736435195701,0.010569285314,0.00443248428801,0.00912563885978,0.002386801824,0.00665056655591,-0.0740710026796,0.573781187133,0.818973105891,0.00624083497059,0.0,0.818972831705,-0.57368927883,-0.0120357461733,0.0,-0.006276773159,0.0120171903836,-0.999908090403,0.0,0.259266414168,-0.267354811225,0.304939989119,1.0,-0.0158688888889,-0.0208562539683,3.151
-0.672774357137,-0.51461909985,-0.125512643614,-2.63687880215,-0.0671590213375,2.11166208025,-0.921089458684,-0.07181619006,0.0185727562376,0.00466372942501,0.00707205807558,0.000458334968069,0.000529378949461,-0.0750834390695,0.573773128409,0.818978803693,0.00623402914216,0.0,0.818978227116,-0.573680843259,-0.0120706457528,0.0,-0.00630938139837,0.0120315779553,-0.999907712161,0.0,0.259004914557,-0.267696321217,0.30493265297,1.0,-0.0155288888889,-0.0204093968254,3.168
-0.673927698248,-0.514387214174,-0.125485950793,-2.6366841287,-0.0671339434293,2.11172849995,-0.922308130347,-0.0673442871579,0.0114568881498,0.000347218589722,0.0127498977265,2.82954312639e-05,0.0107776924558,-0.0737698473288,0.573721388162,0.819015088795,0.006228964041,0.0,0.819014668617,-0.573629560784,-0.0120352185413,0.0,-0.00628402866232,0.0120067063745,-0.999908170777,0.0,0.258753030712,-0.268043226275,0.304941722086,1.0,-0.0151888888889,-0.0199625396825,3.185
-0.67499869753,-0.514180016963,-0.125463468263,-2.63650548321,-0.0671055209359,2.11179060224,-0.923320874984,-0.0649358289635,0.011678811481,0.0026081905954,0.0139147088265,0.000722714122603,0.00734250396676,-0.0593695898381,0.573774424101,0.818977941672,0.00622801765742,0.0,0.818977762021,-0.573683073325,-0.0119959825588,0.0,-0.00625165715766,0.0119838266729,-0.999908648168,0.0,0.258518450338,-0.268364791809,0.304952152079,1.0,-0.0148688888889,-0.019541968254,3.201
-0.676162310667,-0.513930197058,-0.125435191223,-2.636304446,-0.0670767566357,2.11181865706,-0.924501912947,-0.0652888159899,0.0134186806586,-0.000199479359219,0.0132444173187,0.00512347360414,0.000130633319702,-0.0706682651238,0.573769805747,0.818981135497,0.00623350736077,0.0,0.818980943764,-0.573678272297,-0.0120083532042,0.0,-0.00625870750903,0.0119953851749,-0.999908465468,0.0,0.258242253146,-0.268729790548,0.30495644255,1.0,-0.0144888888889,-0.0190425396825,3.22
-0.677312036494,-0.513693550673,-0.125415191268,-2.63612315356,-0.0670472845462,2.11185800662,-0.925700255006,-0.0613978600568,0.013514974295,0.00331463879662,0.0110092276811,0.00547917285282,0.000116786939425,-0.0613173975636,0.57373075624,0.81900845735,0.00623803139929,0.0,0.819008249921,-0.573639068719,-0.0120188311502,0.0,-0.00626526646277,0.0120048033939,-0.999908311362,0.0,0.257998152368,-0.269047798861,0.304952935932,1.0,-0.0141488888889,-0.0185956825397,3.237
-0.678273808009,-0.513510287769,-0.125413468411,-2.63595640596,-0.0670247535422,2.11190034657,-0.926616032143,-0.0669368407868,0.0129542023856,-0.000365131916044,0.0121486693622,0.000580088365886,0.00303567049331,-0.0626099875412,0.573785336839,0.818970172274,0.00624428180355,0.0,0.818970241077,-0.573693984841,-0.0119876139965,0.0,-0.00623531143861,0.0119924290003,-0.999908647096,0.0,0.257781379112,-0.269340019209,0.304964587447,1.0,-0.0138488888889,-0.0182013968254,3.252
-0.679429207197,-0.513250539159,-0.12540315953,-2.63575776354,-0.0669959778899,2.11196205954,-0.927776210422,-0.056937929359,0.011783092263,-0.000133630338095,0.0085712728133,0.000435070053877,0.00106267940463,-0.0584239030434,0.57379670846,0.818962151478,0.00625129652788,0.0,0.818962351807,-0.573705401548,-0.0119802111324,0.0,-0.00622505675109,0.0119940131427,-0.99990869199,0.0,0.257522997078,-0.269689355659,0.304964290633,1.0,-0.0134688888889,-0.017701968254,3.271
-0.680252934844,-0.513070389457,-0.125397424764,-2.63561908795,-0.0669759775794,2.11199681451,-0.928656739264,-0.0598451309074,0.00980035779705,-0.000926615593378,0.00510410700736,0.00533429205258,0.00203923550221,-0.0634843144784,0.573761861746,0.818986508169,0.00625878140377,0.0,0.818986785635,-0.573670491316,-0.0119816213694,0.0,-0.00622242784558,0.0120006876979,-0.999908628269,0.0,0.257336127594,-0.269936632851,0.304963764623,1.0,-0.0131888888889,-0.017333968254,3.285
-0.681260670578,-0.512858786838,-0.125378667845,-2.63545551717,-0.0669508432574,2.11201607927,-0.929637511907,-0.0601709402432,0.0140424142947,0.00414070126283,0.0112216565616,6.99045960772e-05,-1.95199930406e-05,-0.0569399616956,0.573789847761,0.818966850412,0.00626541570167,0.0,0.818967068237,-0.573698161382,-0.0120044854355,0.0,-0.00623693823995,0.0120194524107,-0.999908312479,0.0,0.257105193262,-0.270231580026,0.3049618896,1.0,-0.0128488888889,-0.0168871111111,3.302
-0.682366498895,-0.51263750615,-0.12535392799,-2.63526983987,-0.0669270926427,2.11206499234,-0.930679476762,-0.0560867569266,0.0130110394683,0.00570514070735,0.00713304908228,-0.000165273273969,0.002434518206,-0.0560295136091,0.573844231128,0.818928777669,0.00626118256731,0.0,0.818929066182,-0.573752793763,-0.0119859548018,0.0,-0.00622339214441,0.0120057665589,-0.999908561299,0.0,0.256857864382,-0.270560372027,0.304969129558,1.0,-0.0124688888889,-0.0163876825397,3.321
-0.683309763561,-0.512420106846,-0.125329996837,-2.63509342278,-0.0669013019751,2.11212042698,-0.931659724189,-0.0588764598533,0.0144615554895,0.000562868646686,0.00891445700861,0.000447915738908,0.000771916076871,-0.0626877999368,0.573817017706,0.818947864839,0.0062587353039,0.0,0.818948243005,-0.57372583114,-0.0119663220123,0.0,-0.00620911529255,0.0119922903793,-0.999908811772,0.0,0.256653203204,-0.270845768981,0.304974123326,1.0,-0.0121288888889,-0.0159408253968,3.338
-0.684104248225,-0.512249607818,-0.125309050464,-2.63494657968,-0.0668902859685,2.1121463095,-0.932463478009,-0.0540280436794,0.0100558726499,0.0019380896159,0.0101925997167,-0.000380908372917,0.00121970513971,-0.0459827760553,0.573806750621,0.818955129614,0.00624944167207,0.0,0.818955428317,-0.573715685632,-0.0119609945699,0.0,-0.00621023471083,0.0119815442915,-0.999908933644,0.0,0.25647647079,-0.271083646431,0.304980428027,1.0,-0.0118288888889,-0.0155465396825,3.353
-0.684981775019,-0.512058166958,-0.125278287111,-2.63478978562,-0.0668663229555,2.11218179739,-0.933329684105,-0.0515977201326,0.00690244433833,-0.000412050920734,0.00939045099195,0.00238006324072,0.000306961738477,-0.0485293341897,0.573812431151,0.818951180996,0.00624531054866,0.0,0.818951463852,-0.573721455493,-0.0119556790859,0.0,-0.0062081683755,0.0119751540572,-0.999909023027,0.0,0.256283650195,-0.271343002623,0.304984549695,1.0,-0.0114888888889,-0.0150996825397,3.37
-0.685795021376,-0.511869685156,-0.125249772023,-2.63465014051,-0.0668497383339,2.11222458063,-0.934146534323,-0.0485535294475,0.0159801745805,-0.00133846263221,0.0104182869541,-0.000123857106585,-8.12319577901e-05,-0.0555645907835,0.573803524773,0.818957482286,0.00623731249269,0.0,0.81895765286,-0.57371256886,-0.011958179451,0.0,-0.00621493561974,0.0119699707771,-0.999909043051,0.0,0.256104232189,-0.271583539307,0.304982531915,1.0,-0.0111688888889,-0.0146791111111,3.386
-0.686633420954,-0.511692857584,-0.125226406138,-2.63449833766,-0.066825592436,2.11226943743,-0.934994507099,-0.0473011472978,0.00882056727892,0.00164372321076,0.00822152797589,0.00372801211631,0.00229807732382,-0.0445681011569,0.573797119622,0.818961986433,0.00623515783589,0.0,0.818962281968,-0.573706469009,-0.0119337769803,0.0,-0.00619627861329,0.0119541561018,-0.999909348033,0.0,0.255920539427,-0.27183448635,0.304990399966,1.0,-0.0108288888889,-0.0142322539683,3.403
-0.687492743178,-0.511485573491,-0.12522321101,-2.63433734456,-0.0668034056137,2.11230506022,-0.935845539998,-0.0480355501733,0.0123956374847,-0.000235187349692,0.00884230731178,0.00506497705813,-0.000288589846519,-0.0487646799409,0.573819441561,0.818946284949,0.00624321686061,0.0,0.818946644878,-0.573728674506,-0.0119393380336,0.0,-0.00619588328325,0.0119641161306,-0.999909231358,0.0,0.255726080092,-0.272095687043,0.304989890967,1.0,-0.0104688888889,-0.0137591111111,3.421
-0.68827511767,-0.511311484166,-0.125200137776,-2.63420313376,-0.0667846522924,2.11234949007,-0.936614768313,-0.0447583236729,0.00471765108427,0.00207117218905,0.00515638500028,0.00458776077344,0.0024787427628,-0.041598125787,0.573828719929,0.818939817381,0.00623879741013,0.0,0.818940176791,-0.573738079335,-0.0119310543957,0.0,-0.00619149907004,0.0119558137117,-0.999909357821,0.0,0.255552714352,-0.27232797786,0.304990716009,1.0,-0.0101288888889,-0.0133122539683,3.438
-0.689035900675,-0.511138858455,-0.125186503552,-2.63406656926,-0.0667661049364,2.11237519587,-0.937382290072,-0.0447559482541,0.00482120439592,0.000690511805242,0.00980164031937,0.00623076597613,0.00198196498115,-0.0408938606155,0.573828462495,0.818939980475,0.00624106653457,0.0,0.818940328925,-0.573737734343,-0.0119372003856,0.0,-0.00619523455477,0.0119611967146,-0.999909270305,0.0,0.255380542402,-0.272554579874,0.304991323526,1.0,-0.00978888888889,-0.0128653968254,3.455
-0.689692347938,-0.510993615277,-0.125159620858,-2.63394338352,-0.0667426687215,2.11239772138,-0.938069042637,-0.0421733032142,0.00825576172535,0.00492903866724,0.00903449148009,0.000951133577952,0.00244159710396,-0.0499272300504,0.573800813582,0.818959354806,0.00624086607122,0.0,0.818959725637,-0.573710140417,-0.011932705864,0.0,-0.00619207216201,0.0119582445317,-0.999909325204,0.0,0.255237294486,-0.272747628945,0.304996032474,1.0,-0.00948888888889,-0.0124711111111,3.47
-0.690412541669,-0.510823987281,-0.125151036399,-2.63381801503,-0.066723968259,2.11242572176,-0.938786089379,-0.0440167686163,0.0128060893752,0.000823489704099,0.00962550710749,0.000332901771671,0.00433630842962,-0.0391226140021,0.573815763642,0.818948800666,0.00625125468739,0.0,0.818949277404,-0.573724987447,-0.0119359423329,0.0,-0.00618854378993,0.0119687228086,-0.99990922168,0.0,0.255083464986,-0.272949820711,0.304994859254,1.0,-0.00916888888889,-0.0120505396825,3.486
-0.691152407499,-0.510641836694,-0.125126938953,-2.63371437176,-0.0666995054901,2.1124611428,-0.939510929232,-0.0422655741783,0.0111771423596,0.00081184667442,0.00888479432132,7.29045694193e-05,0.000150219084985,-0.0374265311641,0.573822945296,0.81894374937,0.00625377642594,0.0,0.818943965548,-0.573731590528,-0.0119829138331,0.0,-0.00622546314667,0.0119977943696,-0.999908644096,0.0,0.254902658854,-0.273172837105,0.304975905867,1.0,-0.00878888888889,-0.0115511111111,3.505
-0.691782923964,-0.510500070105,-0.125112007733,-2.63363045796,-0.0666758977443,2.11248984704,-0.940129873832,-0.0421343227995,0.0104235873035,0.00259213970875,0.00852196956816,0.000380682845644,0.00044509266049,-0.0359631152532,0.573836356845,0.818934266606,0.00626493763283,0.0,0.818934466464,-0.573744639876,-0.0120072791209,0.0,-0.00623881805135,0.012021018106,-0.99990828193,0.0,0.254755721251,-0.273352066679,0.304964293294,1.0,-0.00846888888889,-0.0111305396825,3.521
-0.692387559666,-0.51035554258,-0.12509386052,-2.63355056355,-0.0666535261313,2.11251619875,-0.940735062357,-0.0386455201793,0.00562318347317,0.0030184277641,0.0071143153021,-6.35272702021e-05,-0.000173657440057,-0.0334434482819,0.573836849896,0.818933846301,0.00627471005223,0.0,0.818933952913,-0.573744665709,-0.0120410231103,0.0,-0.00626084048835,0.0120483878464,-0.999907814864,0.0,0.254615064557,-0.273522602962,0.3049497006,1.0,-0.00814888888889,-0.010709968254,3.537
-0.69305980044,-0.510197478444,-0.125071474102,-2.63344754575,-0.0666253681095,2.11254105462,-0.941448813393,-0.0337556853552,0.00529708616856,0.00419889088386,0.00687216208409,0.000695886733388,-0.000411778874951,-0.0355913492487,0.573804372282,0.81895651936,0.00628559058712,0.0,0.818956598184,-0.573711820997,-0.0120658045672,0.0,-0.00627537251021,0.0120712697099,-0.999907447791,0.0,0.254461855966,-0.273714512432,0.304940560006,1.0,-0.00776888888889,-0.0102105396825,3.556
-0.69356629944,-0.510054740883,-0.125048583565,-2.63337140437,-0.0666006694193,2.11256094386,-0.941962534624,-0.0330100136168,0.00450086803797,0.00161196576402,0.00282792216778,0.00255991163331,0.000879482632601,-0.029612446267,0.573796841117,0.818961719416,0.00629556638045,0.0,0.818961650834,-0.573703713715,-0.0121082713026,0.0,-0.00630454225474,0.0121037482954,-0.999906871676,0.0,0.254347384174,-0.273856792233,0.304924475589,1.0,-0.00746888888889,-0.00981625396826,3.571
