nelsonifechukwu/NELSON_IML_WORK/CNN-GradCAM/train2dof/data_sample_2022-02-21-10-12-06/robot_state.csv
position_joint1,position_joint2,position_joint3,position_joint4,position_joint5,position_joint6,position_joint7,velocity_joint1,velocity_joint2,velocity_joint3,velocity_joint4,velocity_joint5,velocity_joint6,velocity_joint7,ee_T_00,ee_T_10,ee_T_20,ee_T_30,ee_T_01,ee_T_11,ee_T_21,ee_T_31,ee_T_02,ee_T_12,ee_T_22,ee_T_32,ee_T_03,ee_T_13,ee_T_23,ee_T_33,v_x,v_y,time
0.465082243817,0.547635872333,-0.123953398141,-1.3557705347,0.0794351284465,1.8940868517,0.15917398631,-0.000534387860713,-0.00117991845469,-0.00124490694501,-8.74769136453e-05,-7.12239297801e-05,-7.32140777383e-05,0.000857551554073,0.573765364032,0.819005315087,0.0020851374436,0.0,0.818964387123,-0.573706708464,-0.0117767648305,0.0,-0.00844913832337,0.00846491604454,-0.999928476071,0.0,0.661685874847,0.260914380915,0.303344581311,1.0,0.0,0.0,0.0
0.465077193178,0.54762868976,-0.123948389641,-1.35577304917,0.0794322325531,1.89408649854,0.15917794576,-0.00343117987557,-0.00249237761559,0.00485620826871,-0.0024176098309,-7.11540503675e-05,-0.000110135819947,0.00128608918171,0.573762641498,0.819007219052,0.00208644722454,0.0,0.818966318373,-0.573703991427,-0.0117748245508,0.0,-0.00844682583711,0.00846484741394,-0.999928496189,0.0,0.661685383561,0.260917001508,0.303346160957,1.0,-0.00016,-0.000210285714286,0.009
0.465081878346,0.547640451502,-0.123950895295,-1.35576783904,0.0794330602481,1.89408754655,0.159177134388,0.000386484732001,0.00171980641971,-0.000600365342659,-0.00123962913646,-0.000102365264833,-0.000737811510765,-0.000898757136596,0.573765810779,0.819005006713,0.0020833293633,0.0,0.818964065086,-0.573707172079,-0.0117765743331,0.0,-0.00845001503215,0.00846333055002,-0.999928482084,0.0,0.661686146911,0.260915559209,0.303342594162,1.0,-0.00036,-0.000473142857143,0.019
0.465076193906,0.547627627944,-0.123953745581,-1.35577490858,0.0794327207009,1.89408685176,0.15917178049,3.67972807081e-08,-0.00151824031323,-0.000314560836471,-0.000403624488845,-3.20169011556e-08,0.000275411816787,-0.0013170793122,0.573768341236,0.819003223584,0.00208740394633,0.0,0.818962344264,-0.57370969568,-0.0117733029068,0.0,-0.008444971742,0.00846481668299,-0.99992851211,0.0,0.661686883817,0.260909376121,0.303348346945,1.0,-0.00066,-0.000867428571429,0.034
0.465077016273,0.547591723908,-0.12394880188,-1.35581834004,0.0794325892841,1.89409390566,0.159174041188,0.000772072467623,-0.000202263374423,0.00146676497638,-0.00390095241021,0.000240632808258,0.000340318793856,-0.00118983021496,0.57376838557,0.819003185686,0.00209008574623,0.0,0.818962282748,-0.573709670916,-0.0117787874622,0.0,-0.00844792469813,0.00847016033685,-0.999928441916,0.0,0.661677940396,0.260908554945,0.303353558033,1.0,-0.001,-0.00131428571429,0.051
0.465080064499,0.547458179212,-0.123948801882,-1.35594966791,0.0794320727295,1.89412195369,0.159167657089,0.00139415381131,-0.00514823151123,-0.00376976477201,-0.00816636764682,0.000107113422242,0.00364516170899,-0.00230395660519,0.573767645035,0.819003622368,0.00212201805179,0.0,0.818963042335,-0.573708713428,-0.0117726092081,0.0,-0.00842455153849,0.00849276013276,-0.999928447418,0.0,0.661656190879,0.260898562166,0.303388086121,1.0,-0.00132,-0.00173485714286,0.067
0.465068321588,0.547330035829,-0.123949512165,-1.35614100413,0.0794247168399,1.89417418349,0.159169130305,0.00114067408005,-0.00712091178794,-0.00107309966532,-0.0163663220324,-0.00387185126501,0.00486988163736,0.00157749530911,0.573787592801,0.818989664513,0.00211534159011,0.0,0.818948940782,-0.573728627408,-0.0117830975135,0.0,-0.00843676548635,0.00849351543909,-0.999928338024,0.0,0.661629763323,0.260871705202,0.303392332484,1.0,-0.00166,-0.00218171428571,0.084
0.465048503816,0.547153465708,-0.123948805129,-1.35635158199,0.0794221702102,1.89428728481,0.159160812075,0.0010696963642,-0.0131284469917,-3.65849792402e-05,-0.00932167522838,0.000259996545857,0.00291033608416,-0.00235324278288,0.573807790234,0.818975323154,0.00218788333521,0.0,0.818935495735,-0.573748495237,-0.011750103859,0.0,-0.00836791144193,0.00853420076391,-0.999928570187,0.0,0.66161385432,0.260843607467,0.303426970276,1.0,-0.002,-0.00262857142857,0.101
0.465026187575,0.54697233512,-0.123949048387,-1.35655217932,0.079414892072,1.89439203703,0.159149532811,0.000119460063375,-0.00868490370618,-0.000798183596367,-0.0153587828893,-0.000528319698536,0.00390910477989,0.00102493699683,0.573826399973,0.818962079746,0.00226308030907,0.0,0.818923229875,-0.573766819622,-0.011710131209,0.0,-0.00829183266098,0.00857303652854,-0.999928871748,0.0,0.661599815267,0.260813216871,0.303468880182,1.0,-0.00232,-0.00304914285714,0.117
0.464996352552,0.546756653411,-0.123948427133,-1.35683126914,0.0794098702099,1.89452881924,0.159124916033,-0.00391196565009,-0.0156526845195,-0.000356664676147,-0.0192698526689,-0.000587616990741,0.0167924376278,0.000710000850629,0.573844675019,0.81894908227,0.00233163066927,0.0,0.818911060517,-0.57378477486,-0.0116813527712,0.0,-0.00822873738169,0.00861284605284,-0.999929050865,0.0,0.661576699024,0.260772027745,0.303500650412,1.0,-0.00266,-0.003496,0.134
0.464959127488,0.546491165722,-0.123949515092,-1.35723040117,0.0793982599418,1.89466939023,0.159057112685,-0.000746877407071,-0.0125990926759,-0.000878628009852,-0.0208257680491,0.000515705536453,0.00689540576631,-0.0102794045755,0.573839578135,0.818952616342,0.00234470770495,0.0,0.818914648415,-0.573779509295,-0.0116884654933,0.0,-0.00822711255775,0.00862758570129,-0.999928937167,0.0,0.661530781941,0.260710545445,0.303510912491,1.0,-0.00302,-0.00396914285714,0.152
0.464920417409,0.546241337065,-0.123948672677,-1.35759837743,0.0793823117206,1.89480588158,0.158939282785,-0.00378637688806,-0.0176509155179,0.001213589753,-0.0233351547344,-0.000119493301407,0.00461384119915,-0.00356388550989,0.573790518192,0.818986932033,0.00236501448626,0.0,0.818949162182,-0.573730312351,-0.0116852621969,0.0,-0.00821335466925,0.00864188566632,-0.999928926783,0.0,0.661490947822,0.260651713937,0.303524474638,1.0,-0.00332,-0.00436342857143,0.167
0.464876634726,0.545950150258,-0.123951752538,-1.35808919958,0.0793596772465,1.89497270067,0.158938156405,-0.00239146309804,-0.0171986540015,-0.000819488782996,-0.0299824753053,6.44768827396e-05,0.0125124908685,0.000466983251819,0.573848988475,0.818946038355,0.00233914289085,0.0,0.818907868044,-0.573788802562,-0.011707288821,0.0,-0.00824562255523,0.0086339245953,-0.999928729988,0.0,0.661432624109,0.260574190041,0.303511583304,1.0,-0.00366,-0.00481028571429,0.184
0.464815748172,0.545604077023,-0.123950309028,-1.3586670226,0.0792823078006,1.89517425778,0.158862868186,6.1599060167e-05,-0.0144750952338,-0.000238675631055,-0.0331403961582,-0.00129389332025,0.00703857865978,-0.00505764317826,0.573847894945,0.818946943855,0.00228987316352,0.0,0.818908477059,-0.573788249018,-0.0116918086898,0.0,-0.00826122773591,0.00858468163146,-0.99992902516,0.0,0.661369136708,0.260471863407,0.303498887909,1.0,-0.00402,-0.00528342857143,0.202
0.464755677801,0.545260079907,-0.123952413576,-1.35925297971,0.0792241968083,1.89536965821,0.158745288801,-0.000927304202294,-0.0206826335006,-0.000109216530542,-0.0391035207657,0.000294559896885,0.0176671381523,-0.000357015697175,0.573825153489,0.818963016984,0.00223985188784,0.0,0.818924042113,-0.573765842198,-0.01170121695,0.0,-0.00829787319073,0.00854888576663,-0.999929028408,0.0,0.661296721257,0.26036378399,0.303481138507,1.0,-0.00436,-0.00573028571429,0.219
0.464694683152,0.544827989212,-0.123955194478,-1.35998937321,0.0792135818979,1.8956114455,0.158707876173,-0.0043717360626,-0.0229271445995,-0.00103549110809,-0.0421409656173,-0.0058044762277,0.0160577134558,2.49307680919e-05,0.573878864026,0.818925485582,0.00220122438825,0.0,0.81888571403,-0.573819389374,-0.0117576629201,0.0,-0.0083657056476,0.00855019006277,-0.99992845205,0.0,0.661209442276,0.260260746788,0.303456861567,1.0,-0.0047,-0.00617714285714,0.236
0.464630707577,0.544425228925,-0.123955803274,-1.36067029899,0.0791891431062,1.89584069336,0.158589390185,-0.00351978832412,-0.0202456268892,0.00101932012024,-0.0422491705526,0.000406880746843,0.0128297315756,-0.00973514584868,0.573866033533,0.818934563573,0.00216865037266,0.0,0.818894183407,-0.573806497459,-0.0117968961217,0.0,-0.00841666234923,0.00854589769639,-0.999928061126,0.0,0.661127368267,0.260154160644,0.303437698137,1.0,-0.00502,-0.00659771428571,0.252
0.464567843906,0.543988413312,-0.123956596997,-1.36138452142,0.079160636893,1.89610693535,0.158513779437,-0.00483294722317,-0.0259435164755,0.000161201805196,-0.0447357894993,-0.000514477049105,0.0185862072261,-0.00077684668468,0.573888419755,0.818918883544,0.00216581309857,0.0,0.818878337087,-0.573828760677,-0.0118139481077,0.0,-0.00843202169099,0.00855359012234,-0.999927865951,0.0,0.661045811892,0.260046558566,0.30342996114,1.0,-0.00534,-0.00701828571429,0.268
0.464497612581,0.543482091032,-0.123961686911,-1.36221706772,0.07911506354,1.89639106681,0.158403493058,-0.00601562400973,-0.0267646509032,0.000285577447308,-0.0466987324933,0.000209324023967,0.0128953781294,-0.00730379745212,0.573893294695,0.818915558056,0.002131191751,0.0,0.818874502953,-0.573833712524,-0.0118391589707,0.0,-0.00847248492238,0.00853975695067,-0.999927642157,0.0,0.660946175253,0.259916919312,0.303416702784,1.0,-0.00568,-0.00746514285714,0.285
0.464423192969,0.542919136495,-0.123969976648,-1.36313976506,0.0790621035455,1.89671390095,0.158289010642,-0.00239073397414,-0.035769163937,0.000957983124475,-0.050336494012,-0.00560125776903,0.0106424614667,-0.00602408960957,0.573903440861,0.818908531333,0.00209875670658,0.0,0.818867035599,-0.573843968097,-0.0118585491799,0.0,-0.00850687199975,0.00852442898241,-0.99992748099,0.0,0.660837095225,0.259774138543,0.303403992935,1.0,-0.00604,-0.00793828571429,0.303
0.464350956491,0.542343330948,-0.123967979633,-1.36404761387,0.0790013463086,1.89703961107,0.158163710371,-0.00611467950877,-0.0307295982949,-0.000890988419779,-0.0534023786365,-0.00338173553394,0.0203034521446,-0.00400791619469,0.573892781676,0.818916022369,0.00209053783517,0.0,0.818874439556,-0.573833363107,-0.0118604607325,0.0,-0.00851326487661,0.00851868481097,-0.999927475535,0.0,0.660729715276,0.259639636697,0.303407262622,1.0,-0.00638,-0.00838514285714,0.32
0.464283402852,0.541769359241,-0.12396843242,-1.36493058382,0.07895576853,1.89737158933,0.158047645588,-0.00348005922926,-0.0401397431721,0.00103802561637,-0.0534810054008,-0.00339863730418,0.0222353638952,-0.00555248161459,0.573890262734,0.81891772758,0.00211392875684,0.0,0.818876381171,-0.573830682583,-0.0118560949376,0.0,-0.00849629272274,0.00853530810031,-0.999927478133,0.0,0.66062763594,0.259512626959,0.303421654299,1.0,-0.0067,-0.00880571428571,0.336
0.464197823539,0.541167171268,-0.1239640338,-1.36585186166,0.0788902982522,1.89771059323,0.157922401784,-0.00271296757226,-0.0376424405056,-0.00351391661537,-0.0646859894732,-0.00672189149222,0.0271645774318,-0.00740123602391,0.573890316529,0.818917680132,0.00211770216572,0.0,0.818876429533,-0.57383076825,-0.0118486061095,0.0,-0.00848799378753,0.0085341010068,-0.999927558917,0.0,0.660514296269,0.25936006895,0.303432763011,1.0,-0.00704,-0.00925257142857,0.353
0.464114185592,0.540472411258,-0.123969321469,-1.36691599273,0.0788440476282,1.8980977201,0.157791932459,-0.011933159064,-0.0410414275025,0.00105489313092,-0.0608548329159,-0.000609170776727,0.0255592591949,-0.00944359314738,0.573900184178,0.818910679321,0.00215053398765,0.0,0.818869713042,-0.573840360033,-0.0118482555826,0.0,-0.00846876288009,0.00856088803401,-0.999927492997,0.0,0.660398694087,0.259212904246,0.30345643592,1.0,-0.00736,-0.00967314285714,0.369
0.464017447933,0.539747786533,-0.123979652734,-1.36801325066,0.0787697495485,1.89851499214,0.157649196053,-0.0099596366749,-0.0374326891121,-0.00160919569774,-0.0637452170723,-0.00447366673576,0.0211943291601,-0.00887156055616,0.573910660189,0.818903256183,0.00218129222838,0.0,0.818862820031,-0.573850845335,-0.0118167753533,0.0,-0.00842522163684,0.00856811741257,-0.999927798896,0.0,0.660279051095,0.259038600783,0.303482730486,1.0,-0.0077,-0.01012,0.386
0.463910326521,0.539001763198,-0.123969387272,-1.36916196391,0.0787078557333,1.8989522537,0.157512343081,-0.00330311349331,-0.0418664093994,0.00141347292942,-0.0659250368936,-0.00239743671163,0.0227061850377,-0.00799850503679,0.573926111379,0.818892332652,0.00221655185982,0.0,0.818852246043,-0.573866045889,-0.0118113262173,0.0,-0.00840036235952,0.00859402245658,-0.999927785738,0.0,0.660149123625,0.258866931275,0.303500620396,1.0,-0.00804,-0.0105668571429,0.403
0.463808057862,0.538282837371,-0.123983327179,-1.37028215221,0.078642707173,1.8993917573,0.15736245691,-0.00829561348273,-0.0444227203374,-0.000992156019626,-0.0717360626627,-0.00528196906019,0.0266811621575,-0.00783202824264,0.573941478863,0.818881482594,0.00224570870287,0.0,0.818841844224,-0.573881369684,-0.011787899686,0.0,-0.0083642834236,0.00860461049974,-0.999927997128,0.0,0.660029768911,0.258687091253,0.303513808814,1.0,-0.00836,-0.0109874285714,0.419
0.463684894258,0.537452373221,-0.123986737581,-1.37159081988,0.0785560716696,1.89988859863,0.157201457328,-0.00382442083932,-0.0437535374334,-0.000496653251362,-0.0758721751611,-0.00705885347596,0.0242437698218,-0.00688924761756,0.573961921455,0.81886712818,0.0022552176413,0.0,0.818827701018,-0.573901863541,-0.0117725940352,0.0,-0.00834607734962,0.00860382101966,-0.999928156048,0.0,0.659885074785,0.258479094725,0.30352053153,1.0,-0.00872,-0.0114605714286,0.437
0.463569969241,0.536619676997,-0.123991798837,-1.37289554259,0.0784871238477,1.90037565757,0.1570391612,-0.0070441700913,-0.0492211835896,-0.0023788846028,-0.0753026705972,-0.00557780984775,0.0236211677788,-0.00439412986576,0.573980076091,0.818854358111,0.00227142135702,0.0,0.818815071731,-0.573919882064,-0.0117726028797,0.0,-0.0083365938023,0.00861727944741,-0.999928119266,0.0,0.659736364541,0.258278284136,0.303529788695,1.0,-0.00906,-0.0119074285714,0.454
0.463456004775,0.535816119744,-0.12399598141,-1.37415077128,0.0784148364922,1.90083989013,0.156890252857,-0.00647394601344,-0.0535492329262,-0.000356163423925,-0.0819443439453,-0.00428302286434,0.0222259638284,-0.0071726067242,0.574004014968,0.818837546823,0.00228245810787,0.0,0.818798380606,-0.573943751891,-0.0117698124045,0.0,-0.00832772208034,0.00862495863529,-0.999928126984,0.0,0.659593259021,0.258082040287,0.303539864114,1.0,-0.00938,-0.012328,0.47
0.463349431526,0.534918918199,-0.124002706105,-1.37556690031,0.0783357004586,1.90135018595,0.156725704951,-0.000136991536039,-0.0472467501451,-6.50538647681e-06,-0.085176771227,-0.00474669326335,0.0255414596554,-0.00237702144081,0.574017695417,0.818827972881,0.00227663738405,0.0,0.818788672228,-0.573957391971,-0.0117800396239,0.0,-0.00833929366754,0.00862620217879,-0.999928019818,0.0,0.659423194941,0.257873361366,0.303543359218,1.0,-0.00972,-0.0127748571429,0.487
0.463220774376,0.534026832865,-0.124003122731,-1.37704331999,0.0782573771568,1.90188622777,0.156536715704,-0.00432622983117,-0.0504209444473,0.000495113827142,-0.0868698254737,0.000913975436558,0.0259271671952,-0.00949494698538,0.574028509006,0.818820493584,0.00223987416013,0.0,0.818780583178,-0.573968209909,-0.0118151396645,0.0,-0.00838902344447,0.00861635836802,-0.999927688713,0.0,0.659247966768,0.257648451409,0.303516421656,1.0,-0.01006,-0.0132217142857,0.504
0.463103910499,0.533154417187,-0.124008759992,-1.37843553698,0.0781738882443,1.90241447064,0.156360049298,-0.00363700607246,-0.0543395082303,-0.000326637893414,-0.0830165917025,-0.000439993133311,0.0349645364666,-0.00538335277826,0.574037360782,0.818814275414,0.00224448340695,0.0,0.818774445687,-0.573977064022,-0.0118103331047,0.0,-0.00838234873351,0.00861746401563,-0.999927735161,0.0,0.659088336948,0.257436675685,0.303514984302,1.0,-0.01038,-0.0136422857143,0.52
0.462977603035,0.53219706081,-0.124006248455,-1.37996632593,0.078083588803,1.90299816095,0.156165543315,-0.00656563111941,-0.0537958952182,-5.74112957155e-05,-0.0900101328386,-0.00913888718432,0.031568347879,-0.0115865956093,0.574039226162,0.818812943813,0.00225316947347,0.0,0.818773197238,-0.573978864892,-0.0118093625341,0.0,-0.00837654851883,0.0086240381437,-0.999927727089,0.0,0.658910316976,0.257210755202,0.303511842848,1.0,-0.01072,-0.0140891428571,0.537
0.462839501442,0.531158241408,-0.124003823134,-1.38165604628,0.0779861197976,1.90360961138,0.155965079182,-0.00643081489164,-0.0632548656308,-6.09562308391e-05,-0.0972933077153,-0.00138411906707,0.0345627053706,-0.00863954027258,0.574052322625,0.818803848919,0.00222143782961,0.0,0.818763591026,-0.573991982087,-0.011837795853,0.0,-0.00841790737504,0.00861451247483,-0.999927461874,0.0,0.658705926622,0.256959977892,0.303492672914,1.0,-0.01108,-0.0145622857143,0.555
0.462724974607,0.530257490316,-0.12400393031,-1.38309703416,0.0778949136299,1.90410977698,0.155758791089,-0.0116362619682,-0.059666631514,-0.00067182022822,-0.0972158970698,-0.00744151682954,0.0346844711618,-0.00797964659127,0.574038211135,0.818813852761,0.00218027175065,0.0,0.818773070367,-0.573978046049,-0.0118578580503,0.0,-0.00845811316127,0.00859217684464,-0.999927314768,0.0,0.658517568461,0.256723391273,0.303484105002,1.0,-0.0114,-0.0149828571429,0.571
0.462571304975,0.529153131409,-0.124014563911,-1.38485260686,0.0777858919349,1.90475354257,0.155526205505,-0.00899703586098,-0.0615801845594,-0.00187326831019,-0.100494697309,-0.0111354554683,0.0322489959423,-0.0125444381707,0.574039723928,0.818812807484,0.00217452381031,0.0,0.818771946704,-0.573979577839,-0.0118612990318,0.0,-0.00846421426432,0.0085894612887,-0.999927286472,0.0,0.658322556892,0.256469281058,0.303483189472,1.0,-0.01174,-0.0154297142857,0.588
0.462430075481,0.528059184427,-0.124004515721,-1.38655674357,0.0776834235821,1.90541104987,0.155292956442,-0.00561992804025,-0.0614588159255,-0.00215732175296,-0.0951378980035,-0.0112487581794,0.0359796506261,-0.0153072984766,0.574022162243,0.81882500734,0.00221619256466,0.0,0.818784647783,-0.573961811873,-0.0118442377335,0.0,-0.00842651038564,0.00861360524097,-0.999927397228,0.0,0.658123351296,0.256222280985,0.303498981744,1.0,-0.01208,-0.0158765714286,0.605
0.462294522736,0.526983173576,-0.124017185981,-1.38821068336,0.0775799590993,1.90603815946,0.155063364828,-0.00755952976949,-0.0673237298537,-0.00101591226279,-0.108250804521,-0.0110304301109,0.0369281488069,-0.0169941031204,0.574015688827,0.818829445642,0.00225273865842,0.0,0.818789651152,-0.573955288599,-0.0118144300689,0.0,-0.00838119332103,0.00862635339841,-0.999927668197,0.0,0.657932647281,0.255969337733,0.303523856265,1.0,-0.0124,-0.0162971428571,0.621
0.462146978542,0.525808590819,-0.124017873406,-1.39002600642,0.0774611832421,1.9067119471,0.15482077997,-0.00348337246572,-0.0766783928217,-0.000893204670421,-0.109691097202,-0.00978584198599,0.0410402305975,-0.0155419371622,0.574004183916,0.818837447211,0.00227569597337,0.0,0.818798010043,-0.573943757243,-0.011795302983,0.0,-0.00835247509745,0.00863405482959,-0.999927842025,0.0,0.657716675647,0.255698351839,0.303544646129,1.0,-0.01274,-0.016744,0.638
0.461983354582,0.524648899852,-0.124021895761,-1.39186518109,0.077338829645,1.90736939054,0.154567486388,-0.0112438895097,-0.0693206820241,-0.000619845514125,-0.110253299861,-0.0109760251103,0.0407015271051,-0.0104491150296,0.573999388628,0.818840879221,0.00225017164849,0.0,0.818801162794,-0.573939115054,-0.0118023268818,0.0,-0.00837292740089,0.00861713748341,-0.999927816909,0.0,0.657495926917,0.255410194235,0.30354200435,1.0,-0.01308,-0.0171908571429,0.655
0.461842775226,0.52351910081,-0.124025125686,-1.39365112208,0.0772351844065,1.90801346819,0.154328582819,-0.00926751293074,-0.073367434578,0.00178241704179,-0.10723265842,-0.00247524505821,0.0418797956637,-0.00874582357849,0.573989009548,0.818848178002,0.00224169638344,0.0,0.818808272786,-0.573928689279,-0.0118160459114,0.0,-0.00838913531551,0.00861796595587,-0.99992767392,0.0,0.657276572496,0.255145709204,0.303542228802,1.0,-0.0134,-0.0176114285714,0.671
0.461673453536,0.522232635107,-0.124029641544,-1.3957059892,0.0771063548749,1.90880754492,0.154042402712,-0.0145644663807,-0.0702074366672,-6.8320452579e-06,-0.118089265557,-0.00482927621925,0.0510311870176,-0.0214207075781,0.573972046199,0.818860024828,0.00225761440014,0.0,0.818820394921,-0.573911736764,-0.0117994138027,0.0,-0.00836655796027,0.00862128038534,-0.999927834512,0.0,0.657036385712,0.254837839593,0.303537303498,1.0,-0.01376,-0.0180845714286,0.689
0.461505528557,0.520996768982,-0.124031890416,-1.39770083235,0.0769903391758,1.9095760264,0.153781542627,-0.0091877099368,-0.0699658381063,0.0013635119743,-0.119640374533,-0.00228521310087,0.0398677720542,-0.0164685309048,0.573973078842,0.818859280486,0.00226504464448,0.0,0.818819719159,-0.573912711768,-0.0117988850536,0.0,-0.00836184960288,0.00862707169867,-0.999927823948,0.0,0.65680161699,0.254539036568,0.303522773547,1.0,-0.0141,-0.0185314285714,0.706
0.461344163484,0.519787426668,-0.124038669123,-1.39962881425,0.0768661768217,1.91027350768,0.153520942412,-0.0119882015706,-0.0758286625925,-5.3637409512e-05,-0.121018236304,-0.0114319901302,0.0450652571275,-0.014126544208,0.573965698456,0.818864519262,0.00224120307973,0.0,0.818824684905,-0.573905462383,-0.0118068852156,0.0,-0.00838216207891,0.00861206533389,-0.999927783237,0.0,0.656566873288,0.254243456893,0.303515046135,1.0,-0.01442,-0.018952,0.722
0.461180920352,0.518432189871,-0.124041441487,-1.40169693286,0.0767294613445,1.91101045825,0.153235371736,-0.00939863445091,-0.0793290691,-0.00128845840556,-0.122321367893,-0.00552774348423,0.0451573488793,-0.022649001403,0.573940106725,0.818882413926,0.00225675796235,0.0,0.818842821327,-0.573879854471,-0.0117937905433,0.0,-0.00836278074787,0.00861702536449,-0.999927902787,0.0,0.656310301854,0.253934977717,0.303545903821,1.0,-0.01476,-0.0193988571429,0.739
0.460988288512,0.517078451062,-0.124044682423,-1.40383189504,0.0765929204394,1.91177427087,0.152948690432,-0.0144816373958,-0.0814872680351,0.000344990605875,-0.123627720015,-0.0112111933218,0.0482063263998,-0.0158236316807,0.573941405913,0.81888155512,0.00223789259342,0.0,0.818841717872,-0.573881226914,-0.0118036167887,0.0,-0.00838164089731,0.00860722994602,-0.99992782924,0.0,0.656050029018,0.253600886215,0.303545876882,1.0,-0.0151,-0.0198457142857,0.756
0.460814520544,0.515722970672,-0.12405601185,-1.40597190136,0.0764606653009,1.91259605663,0.152639620686,-0.0104918092014,-0.0809243460909,-0.000500812754045,-0.129704214665,-0.00810643739942,0.046760934259,-0.0177682543962,0.573916193942,0.818899153576,0.00226395776882,0.0,0.818859727659,-0.573855992406,-0.0117810568252,0.0,-0.00834847246414,0.00861536900828,-0.999928036623,0.0,0.655796223152,0.253278495455,0.303549563031,1.0,-0.01544,-0.0202925714286,0.773
0.460635978713,0.514401562443,-0.124056785672,-1.40806690911,0.0763435724787,1.91336717651,0.152363073655,-0.00768338944655,-0.0835328072993,-0.000307789656623,-0.13546000128,-0.0050946190611,0.0489683078757,-0.018140379056,0.573915309284,0.818899766013,0.00226669247821,0.0,0.818860243387,-0.573854960884,-0.0117954469736,0.0,-0.00835869697413,0.00862585802691,-0.999927860777,0.0,0.65553928758,0.252963104826,0.303545663994,1.0,-0.01576,-0.0207131428571,0.789
0.460442857345,0.512991486842,-0.124059583805,-1.41034020912,0.0762043142817,1.91415410135,0.152038737709,-0.0147650575228,-0.0860329092131,-0.00122268353972,-0.135062486129,-0.00706717918153,0.0412115579242,-0.0203947367212,0.573891325071,0.818916751673,0.00220175815213,0.0,0.818876277971,-0.573831122975,-0.0118418994496,0.0,-0.00843425486352,0.00859909644637,-0.999927456811,0.0,0.655249980173,0.252614616999,0.303520063728,1.0,-0.0161,-0.02116,0.806
0.46024460105,0.511591331397,-0.124065947034,-1.41262199235,0.0760665178883,1.91498998071,0.15172333362,-0.015756121921,-0.0801858881524,-0.000220097404495,-0.133426793544,-0.00715917254175,0.047796988379,-0.0238801795266,0.573882228375,0.818923236209,0.00216056770382,0.0,0.818882181017,-0.573822144528,-0.0118687389125,0.0,-0.00847996775236,0.00858067393319,-0.999927228443,0.0,0.654969306543,0.252263119065,0.303487425573,1.0,-0.01644,-0.0216068571429,0.823
0.460048698064,0.510121732437,-0.124064793237,-1.41494242387,0.0759245343858,1.91587031383,0.15139846552,-0.0155031115382,-0.0859650589728,-1.16127457194e-05,-0.130417055437,-0.00395852007844,0.0496631853215,-0.0208114263221,0.573858695246,0.818939664709,0.00218411515086,0.0,0.818898899077,-0.57379850347,-0.0118582211371,0.0,-0.00845808848146,0.00859367825708,-0.999927302074,0.0,0.654687156659,0.25191625534,0.303488112179,1.0,-0.01678,-0.0220537142857,0.84
0.459793996779,0.508273929884,-0.124065306204,-1.41788560851,0.0757370422875,1.91692799122,0.150985524062,-0.010042430382,-0.0895851456635,0.00116609303623,-0.141043931211,-0.00991168486601,0.0435791388385,-0.0234653402295,0.573831599257,0.818958747055,0.00214784013901,0.0,0.818917472326,-0.573771518238,-0.0118812995155,0.0,-0.00849808828168,0.00857693405242,-0.999927106692,0.0,0.654318138651,0.251465870352,0.303471900003,1.0,-0.0172,-0.0226057142857,0.861
0.459605909173,0.506917626173,-0.124076939913,-1.42000626538,0.0756034862192,1.91768228299,0.150696598375,-0.0117209678812,-0.0858831916911,0.000737226261125,-0.140214941251,-0.00390906256716,0.053119076575,-0.0111595229658,0.573830862295,0.818959295751,0.00213548165,0.0,0.818917865085,-0.573770836078,-0.0118871700522,0.0,-0.00850999516643,0.00857017411745,-0.999927063389,0.0,0.654054025408,0.251131916145,0.303476794952,1.0,-0.0175,-0.023,0.876
0.459369077745,0.505244547984,-0.12408502676,-1.42260849059,0.0754381022182,1.91867282738,0.150340219623,-0.0134971367962,-0.0914367118023,-0.000119400198246,-0.148027878035,-0.00482437591041,0.0573942322429,-0.0143872835697,0.573828520532,0.818960816511,0.00218104199027,0.0,0.818920063561,-0.573768398201,-0.0118533380798,0.0,-0.00845616927049,0.00858804784551,-0.99992736668,0.0,0.65374229326,0.250726082995,0.303493793773,1.0,-0.01786,-0.0234731428571,0.894
0.459150110942,0.503583718918,-0.124089714573,-1.42507915844,0.0752740667076,1.91961980853,0.149991134006,-0.0121134080872,-0.0956655874016,0.000770198616783,-0.146920827245,-0.00967835682325,0.0557385841815,-0.0207373663361,0.5738079901,0.818974903931,0.00229000674564,0.0,0.818935713965,-0.573747596394,-0.0117787488904,0.0,-0.00833277430667,0.00863427477249,-0.999928004494,0.0,0.653446666164,0.250346723217,0.30356019736,1.0,-0.0182,-0.02392,0.911
0.458931236498,0.501991025001,-0.124100372789,-1.42742542129,0.0751266763301,1.92049389631,0.149663394854,-0.012182220589,-0.0977797410646,-0.0009144671157,-0.15178534199,-0.0124288510192,0.0564903475746,-0.0161585414096,0.573806741823,0.818975492834,0.0023899951208,0.0,0.81893766072,-0.573746035,-0.0117193035935,0.0,-0.00822673060202,0.00868203958098,-0.999928468988,0.0,0.653163984568,0.249975638171,0.303631473161,1.0,-0.01852,-0.0243405714286,0.927
0.458696561568,0.500282768065,-0.124098726145,-1.43000589,0.0749612125026,1.92141097141,0.149296279671,-0.0160523477381,-0.0991245768329,-0.000401050321712,-0.152678142293,-0.00587008713512,0.0580968916566,-0.0193896305716,0.573783737951,0.818991499083,0.00242763117811,0.0,0.818954115664,-0.57372285367,-0.0117042947323,0.0,-0.00819308814373,0.0087040201056,-0.999928554118,0.0,0.652837620264,0.249575361116,0.303674693632,1.0,-0.01886,-0.0247874285714,0.944
0.458434305976,0.498512068886,-0.12409675142,-1.43277381843,0.0747854291165,1.92243449276,0.148902105835,-0.0154012839531,-0.0938111089518,0.000320011158418,-0.153494571779,-0.0137480263163,0.0611342062123,-0.0195543725851,0.573767547307,0.819002784235,0.00244703374448,0.0,0.818965638792,-0.573706579668,-0.0116957182324,0.0,-0.00817510383218,0.00871482790534,-0.999928607177,0.0,0.652495096711,0.249141486794,0.303680889315,1.0,-0.01922,-0.0252605714286,0.962
0.458187854317,0.496924944516,-0.1240933753,-1.43527919501,0.0746386765818,1.92334599667,0.148522625005,-0.0165147937246,-0.0978784658775,0.00108972573737,-0.157313709583,-0.00642639208228,0.0611398474353,-0.0246244869664,0.573743584388,0.819019573123,0.00244644956059,0.0,0.818982267443,-0.573682459201,-0.0117144577409,0.0,-0.00819104268107,0.00872486176238,-0.999928389239,0.0,0.652181752414,0.248744672045,0.303673702167,1.0,-0.01954,-0.0256811428571,0.978
0.457922919363,0.495251440083,-0.124099385893,-1.43797749424,0.0744698920979,1.92427235476,0.148140501369,-0.0180899547438,-0.0969529143988,-0.000633531787249,-0.158297852443,-0.0147288615241,0.058221432568,-0.021135350597,0.573742195609,0.819020795162,0.00236156113688,0.0,0.818982268459,-0.573681260785,-0.0117729297775,0.0,-0.00828765050026,0.00868887056395,-0.99992790659,0.0,0.651833634153,0.248306294948,0.303635904652,1.0,-0.01988,-0.026128,0.995
0.457704373051,0.493952181068,-0.124106752425,-1.44009970608,0.0743303803321,1.92503084246,0.147843150072,-0.0159507573141,-0.101756144228,-0.000411046436914,-0.162880867702,-0.00883786823313,0.0626351102649,-0.024986126528,0.573751855442,0.819014204253,0.00229967580922,0.0,0.818974889111,-0.57369117169,-0.0118032805607,0.0,-0.00834791144969,0.00865569751188,-0.999927693023,0.0,0.651567950997,0.247954119176,0.303596635985,1.0,-0.02088,-0.0274422857143,1.008
0.457437070889,0.492202264701,-0.124123571264,-1.4428688153,0.07416152856,1.92605342098,0.147450258151,-0.013934087086,-0.113497306051,-0.00395307227979,-0.181470107709,-0.00930292217818,0.0660245911915,-0.0336526097195,0.573754436607,0.819012397775,0.00229905755997,0.0,0.818973069653,-0.573693749785,-0.0118042171241,0.0,-0.00834900596236,0.00865575482293,-0.999927683389,0.0,0.651224603496,0.247507100434,0.303585810911,1.0,-0.0229371428571,-0.0301459591837,1.024
0.457105234778,0.49009321591,-0.124143463563,-1.44630952619,0.0739558872798,1.92727297228,0.146957712295,-0.0189242097066,-0.11966254473,-0.00212635685238,-0.196062168326,-0.00949548086816,0.0703968420663,-0.0233681987052,0.573753348465,0.819013424472,0.00220285294977,0.0,0.818972703012,-0.573692892248,-0.0118711417329,0.0,-0.00845902622554,0.00861534962613,-0.999927107656,0.0,0.650783637939,0.246949101565,0.303521686557,1.0,-0.0252514285714,-0.0331875918367,1.042
0.456743405566,0.487847056363,-0.124156837542,-1.44985366798,0.0737357321072,1.92856731492,0.146442427509,-0.0208911883788,-0.138604330466,0.000252161942363,-0.210631697495,-0.00910501091877,0.0835550818247,-0.0350151417155,0.573753798122,0.819013127145,0.0021962706319,0.0,0.818972283006,-0.573693330415,-0.0118789396571,0.0,-0.00846918476048,0.00861443737405,-0.999927029527,0.0,0.650340608719,0.246367874048,0.30350869545,1.0,-0.0274371428571,-0.036060244898,1.059
0.456373316355,0.48553952582,-0.124170258604,-1.45336984307,0.0735211107739,1.92993040331,0.145920237033,-0.024147567197,-0.143535346118,-0.00132740207797,-0.22118319808,-0.0180274797254,0.0895055632729,-0.0300064014011,0.57376624721,0.819004064597,0.00232005121504,0.0,0.818964946714,-0.573705413243,-0.0118009224476,0.0,-0.00833413796753,0.00867117855316,-0.999927673788,0.0,0.649948812761,0.245822069762,0.30355827662,1.0,-0.0293657142857,-0.0385949387755,1.074
0.455940900293,0.482934779436,-0.124204609411,-1.45741230443,0.0732687377466,1.9313317204,0.145308869175,-0.0297532808938,-0.157155096593,-0.00193595716752,-0.241667672734,-0.021216330854,0.0918998316337,-0.0324124695737,0.573763123339,0.819006336947,0.00229024849457,0.0,0.818966719622,-0.573702288596,-0.011829755421,0.0,-0.00837488509406,0.00866328151043,-0.999927401791,0.0,0.64940407274,0.245100092823,0.303562256592,1.0,-0.03168,-0.0416365714286,1.092
0.455481428282,0.480122863613,-0.124248003903,-1.46181008278,0.0729953912361,1.93288958163,0.144660013126,-0.0318165378745,-0.171132949584,-0.00380892969549,-0.264034533531,-0.0236525947709,0.0948745435873,-0.0381698454813,0.573779930459,0.818994646654,0.00225987947234,0.0,0.818954623295,-0.573719200742,-0.0118469652178,0.0,-0.00840622669374,0.00864845613037,-0.999927267135,0.0,0.648844880246,0.244354571001,0.303555059132,1.0,-0.0338657142857,-0.0445092244898,1.109
0.455009816713,0.477296812911,-0.124261571222,-1.46609767251,0.0727362241505,1.93447401904,0.14403575517,-0.0270159521777,-0.178480332378,0.000609716457772,-0.266796134365,-0.0158865391509,0.101137745483,-0.0428420081382,0.573802770131,0.818978340605,0.00236759627232,0.0,0.818939634517,-0.573741534496,-0.011801419895,0.0,-0.00830687889718,0.00871077356254,-0.999927556469,0.0,0.648310769595,0.243636235822,0.303609430732,1.0,-0.0359228571429,-0.0472128979592,1.125
0.454477255649,0.47413883617,-0.12428702553,-1.47092977712,0.0724352320588,1.93625643718,0.143345426259,-0.0341641430138,-0.188138244335,-0.00179991637616,-0.28762196993,-0.0180696228032,0.100394878744,-0.0400348859405,0.573843391419,0.818949619051,0.00245570387381,0.0,0.818912069533,-0.573781831823,-0.0117549455346,0.0,-0.00821782811903,0.00875667194604,-0.999927891399,0.0,0.647706511103,0.242818592621,0.303649896702,1.0,-0.0381085714286,-0.0500855510204,1.142
0.453923289679,0.470826318127,-0.124299565515,-1.47604869905,0.0721148337558,1.93802916845,0.142566333482,-0.0347215226473,-0.205030170114,-0.000788647984136,-0.305656166878,-0.017146286936,0.105530481285,-0.0490410142338,0.573825432509,0.818962276255,0.00243104484624,0.0,0.818924170371,-0.573763716695,-0.0117960793114,0.0,-0.00826585778073,0.00875990035187,-0.99992746724,0.0,0.647032217102,0.241960002945,0.303657109816,1.0,-0.0402942857143,-0.0529582040816,1.159
0.453381527457,0.467518378677,-0.124298217027,-1.48099364488,0.0718021974955,1.93994783404,0.141762671251,-0.034363564292,-0.205972292173,1.39135687112e-05,-0.314240899953,-0.0186141007214,0.120518068417,-0.0512008730361,0.5737602061,0.819007234513,0.00266882226221,0.0,0.818972301299,-0.57369772705,-0.0116633864767,0.0,-0.00802145507545,0.00887784946463,-0.999928417462,0.0,0.64641943204,0.24114912906,0.303753325133,1.0,-0.0423514285714,-0.055661877551,1.175
0.452722158515,0.463628540382,-0.124306594557,-1.48698006607,0.0714001699476,1.94200321611,0.140861416377,-0.0350159030228,-0.226010586693,-0.00209012326651,-0.344128032786,-0.0157848892288,0.119772133449,-0.0562216484488,0.573739104255,0.819022153353,0.00262668360934,0.0,0.818986563379,-0.57367665514,-0.0116983440308,0.0,-0.0080744913106,0.00886318665159,-0.999928120673,0.0,0.645619368271,0.240137767381,0.303764633476,1.0,-0.0446657142857,-0.0587035102041,1.193
0.452053153277,0.459835432743,-0.124314161823,-1.49290766041,0.0710008338991,1.94407497157,0.13999076306,-0.0458657240676,-0.233703840892,-0.000643194044511,-0.349241178621,-0.0211296452996,0.121767611843,-0.0510967621635,0.573745979047,0.819017539699,0.00256282921017,0.0,0.818981047436,-0.573683678944,-0.0117399896228,0.0,-0.00814516094679,0.00883485048935,-0.999927798278,0.0,0.64483046095,0.239128815858,0.30373543309,1.0,-0.0468514285714,-0.0615761632653,1.21
0.451391988178,0.456160247326,-0.124315911963,-1.49869020538,0.0706145028778,1.94613587685,0.139093277463,-0.0419035731768,-0.234921333772,0.000373104615986,-0.373314790762,-0.0270835975693,0.130870984933,-0.0495694232939,0.573714818387,0.819039517438,0.00251454545194,0.0,0.819002315138,-0.573652610315,-0.011774437537,0.0,-0.00820141197875,0.00881475755122,-0.999927515818,0.0,0.644062808244,0.238146137922,0.303689850685,1.0,-0.0489085714286,-0.0642798367347,1.226
0.450584379622,0.45179187486,-0.1243732511,-1.5053943864,0.070157377235,1.94853070804,0.138014903819,-0.0477294463595,-0.251408307381,-0.00442835975848,-0.366328097937,-0.0226072361105,0.140177974661,-0.0595672740379,0.57371581061,0.819038741042,0.00254091096702,0.0,0.819002117912,-0.573653760643,-0.0117320354997,0.0,-0.00815154539634,0.00881203537921,-0.999927947574,0.0,0.643191592447,0.236949362702,0.303708409953,1.0,-0.0512228571429,-0.0673214693878,1.244
0.449845563178,0.44768639344,-0.124424521725,-1.51156863081,0.0697376305323,1.95074833051,0.137097316556,-0.0482703391286,-0.260776759524,-0.00221233126829,-0.395515535499,-0.0294301399103,0.130813704044,-0.0553972340199,0.57377074084,0.818999923165,0.00264758604517,0.0,0.818964920661,-0.573708562285,-0.0116486560832,0.0,-0.00802146009161,0.00885210855663,-0.99992864563,0.0,0.642385081337,0.235854572089,0.303778617482,1.0,-0.05328,-0.0700251428571,1.26
0.449062074676,0.443488386501,-0.12443137522,-1.51807292523,0.0693037758068,1.95290499208,0.136109612379,-0.0460506572993,-0.267909039809,0.00162079223242,-0.412734055972,-0.0199742924361,0.134926262838,-0.0648632395525,0.573779408463,0.818994248147,0.00252167158093,0.0,0.818957260159,-0.573717296815,-0.0117565415966,0.0,-0.00818197087114,0.00881097237032,-0.999927708446,0.0,0.641479142551,0.234715420121,0.303744954205,1.0,-0.0553371428571,-0.0727288163265,1.276
0.448147381945,0.438655585443,-0.12445341295,-1.52557486695,0.0687807435471,1.95551351335,0.134880526325,-0.0499615612137,-0.268216115688,-0.0017274910219,-0.414702259186,-0.0275611597854,0.145042727889,-0.067586901166,0.573725015048,0.819032566306,0.00245139550158,0.0,0.818994666026,-0.573663172729,-0.0117918691,0.0,-0.00825180836231,0.00877313902704,-0.999927467215,0.0,0.640455706712,0.233392061951,0.303705651919,1.0,-0.0576514285714,-0.0757704489796,1.294
0.447162358464,0.433567515547,-0.124467082165,-1.5331641563,0.0682749673749,1.95830512994,0.133650780001,-0.0569340999639,-0.292029236391,-0.00286341424605,-0.419999575885,-0.0322418356173,0.161905400336,-0.0750992786097,0.573727074907,0.819030371919,0.00269077968386,0.0,0.818995659721,-0.573664452831,-0.0116598377915,0.0,-0.00800631077413,0.00889347273925,-0.999928400002,0.0,0.639456910627,0.232038044816,0.303808019005,1.0,-0.0599657142857,-0.0788120816326,1.312
0.446304840969,0.429297610026,-0.124501868776,-1.53980395281,0.0677768521348,1.96059119586,0.13259414799,-0.0563075773734,-0.287377985023,0.000168414813481,-0.455214420067,-0.0332880892646,0.147638958701,-0.0672343747908,0.573736396162,0.819024190954,0.0025824895793,0.0,0.818988355478,-0.573674463308,-0.0116803527445,0.0,-0.00808513879721,0.00881664213082,-0.999928446116,0.0,0.638544932608,0.230823771481,0.303756698515,1.0,-0.0618942857143,-0.0813467755102,1.327
0.445290223673,0.424224011825,-0.124571687209,-1.54761911903,0.0672102680344,1.96315248153,0.131303486916,-0.0620885722722,-0.307197911157,-0.00260956627476,-0.456910187413,-0.0334485298192,0.151231677427,-0.0808091523627,0.573735596635,0.819025303902,0.00240075462446,0.0,0.818987174676,-0.57367439766,-0.0117660565752,0.0,-0.00825960562208,0.00871696056467,-0.999927894157,0.0,0.637442891407,0.229371885826,0.303712548836,1.0,-0.06408,-0.0842194285714,1.344
0.444226870578,0.419021955497,-0.124616954403,-1.55553494215,0.0666546856257,1.96585655707,0.130049134832,-0.0626902584119,-0.31186248117,-0.000832510870915,-0.467085872547,-0.0252206760298,0.169784726801,-0.0737619181838,0.573789988646,0.818987274576,0.00237485032405,0.0,0.818948805775,-0.573728877189,-0.0117803183854,0.0,-0.00828557016106,0.00870447717752,-0.999927788095,0.0,0.636340906984,0.227906720111,0.303712819951,1.0,-0.0662657142857,-0.0870920816326,1.361
0.443247567579,0.414255480682,-0.124636204003,-1.56253429533,0.0661853037625,1.96847865472,0.12887887945,-0.0689980801738,-0.315825657788,-0.000188890093042,-0.472170610057,-0.0329157786639,0.172861295884,-0.0851086968888,0.573808588848,0.818973241906,0.00269801909914,0.0,0.818939120205,-0.57374648435,-0.0115946537383,0.0,-0.00794788520943,0.00886279592339,-0.999929138474,0.0,0.635411357766,0.226620693094,0.303839024243,1.0,-0.0681942857143,-0.0896267755102,1.376
0.442020812734,0.408492847418,-0.124662735558,-1.57137281524,0.065552589174,1.97138280944,0.127396925111,-0.0744152432677,-0.320990130023,-0.00216686916728,-0.501283140857,-0.034944306577,0.160036925487,-0.0830274979273,0.573801901875,0.818978434534,0.00253930563558,0.0,0.818942006344,-0.573740080207,-0.0117071563778,0.0,-0.00813116373422,0.0087973020224,-0.999928243252,0.0,0.634136160346,0.224970294069,0.303783436559,1.0,-0.0705085714286,-0.0926684081633,1.394
0.440749589119,0.402601632673,-0.124720171671,-1.58047853961,0.0649207107206,1.97439966065,0.125884665423,-0.0705143943851,-0.33659706467,-0.00067143584879,-0.506734575452,-0.0396531460152,0.173099139213,-0.0906132298553,0.573835918993,0.818955128409,0.0023627582654,0.0,0.818916078523,-0.573774403472,-0.0118379541166,0.0,-0.00833922357525,0.00872811205588,-0.99992713605,0.0,0.632818363756,0.223255358935,0.303690280241,1.0,-0.0728228571429,-0.0957100408163,1.412
0.439641242613,0.397410687526,-0.124739746599,-1.58798406704,0.0643788066754,1.97712598825,0.124582973027,-0.0743995180813,-0.349224610688,-0.0028764420613,-0.499851147159,-0.036022555885,0.182539619714,-0.0860893181759,0.573836492654,0.818953707506,0.00269287247749,0.0,0.81891927049,-0.57377412522,-0.0116287810677,0.0,-0.00797848642966,0.00887843504391,-0.999928756035,0.0,0.63178659073,0.221838669402,0.303850369155,1.0,-0.0747514285714,-0.0982447346939,1.427
0.438332500741,0.391519906823,-0.124750442149,-1.59687246797,0.0637074664242,1.9800790013,0.123088041807,-0.0810269066908,-0.348136093053,0.000507072935389,-0.526817893002,-0.0386193664539,0.176515180164,-0.0889417409117,0.573846018036,0.818947237693,0.00262989739554,0.0,0.818911972792,-0.573783855391,-0.0116625474206,0.0,-0.0080421731644,0.00884633118116,-0.999928530384,0.0,0.630486854663,0.220149939134,0.303836452624,1.0,-0.0769371428571,-0.101117387755,1.444
0.436914470895,0.385152232022,-0.12477327891,-1.60654500725,0.0629864274729,1.98318832781,0.121363730717,-0.0845303648299,-0.347295947739,0.000775683966405,-0.531833943621,-0.045318328232,0.180732673091,-0.0970598162537,0.573775243181,0.818997388885,0.00244830813413,0.0,0.818959472793,-0.573713431963,-0.0117909630104,0.0,-0.00825229953816,0.00877059666855,-0.999927485464,0.0,0.629034374952,0.218308827289,0.303774496868,1.0,-0.0792514285714,-0.104159020408,1.462
0.435620156862,0.37926020109,-0.124774316476,-1.61508872251,0.0623875613747,1.98618429784,0.119869019935,-0.0819412581984,-0.361747737009,-0.00245639432518,-0.536977139265,-0.0371801131324,0.184030273671,-0.0947772899534,0.573763046425,0.819005002832,0.00274204191438,0.0,0.818970803552,-0.573700072739,-0.0116531699754,0.0,-0.00797104833039,0.00893198254395,-0.99992833847,0.0,0.62779808104,0.216695981595,0.303909417462,1.0,-0.0813085714286,-0.106862693878,1.478
0.434147639985,0.373035678268,-0.124794452555,-1.62452975759,0.0616494554708,1.98929440106,0.118161156466,-0.0930292762006,-0.376068991625,-0.00438116404413,-0.561449404088,-0.0492067594938,0.185787440959,-0.102265347436,0.573719554016,0.819035880056,0.00261675778201,0.0,0.81900011305,-0.573657089943,-0.0117091794169,0.0,-0.00808927215767,0.0088610807155,-0.999928019872,0.0,0.626384808507,0.214853668619,0.303842656601,1.0,-0.0834942857143,-0.109735346939,1.495
0.432624046609,0.366598887356,-0.12485730514,-1.63412118225,0.0609087952291,1.99235585621,0.116551305423,-0.0920361739546,-0.382668271378,-0.00434986499475,-0.561491946799,-0.0412131426544,0.190399347419,-0.096086615509,0.573827602794,0.818960522959,0.00250818800389,0.0,0.818923331628,-0.573765504508,-0.0117673128801,0.0,-0.00819801079178,0.00880659217201,-0.999927615657,0.0,0.624929402505,0.2129419323,0.303831793026,1.0,-0.08568,-0.112608,1.512
0.431153421445,0.360404426769,-0.124887938732,-1.64311568584,0.0601941123376,1.99549474282,0.11483890978,-0.0914288145294,-0.380094240344,-0.00259310029751,-0.57400859817,-0.0419075573984,0.187354826358,-0.112822259297,0.573763193747,0.819004869221,0.00275110781003,0.0,0.81897138891,-0.573700864844,-0.0115727578999,0.0,-0.00789998423961,0.00889327234037,-0.999929247475,0.0,0.623611452438,0.211159829635,0.303938312137,1.0,-0.0877371428571,-0.115311673469,1.528
0.429494459774,0.353768863127,-0.124913730386,-1.65305054157,0.0594671853423,1.99864372005,0.113002198216,-0.0936008482702,-0.391361536905,-0.00482952156692,-0.593580427894,-0.0448298468502,0.188802808952,-0.110486876704,0.573771203346,0.818999657364,0.00262951503535,0.0,0.818964001883,-0.573708627799,-0.0117098637998,0.0,-0.00808195457979,0.0088724316216,-0.99992797839,0.0,0.62207128262,0.209168587293,0.303882077462,1.0,-0.0899228571428,-0.118184326531,1.545
0.427668141158,0.346577948856,-0.124986735384,-1.66364942902,0.0586717535049,2.00209752495,0.110996541199,-0.100175605092,-0.419583099186,-0.00462249813642,-0.57824351755,-0.0424242949308,0.200503897183,-0.110930144143,0.573807862821,0.818973894471,0.00265398599172,0.0,0.818938402223,-0.573745025326,-0.0117169185118,0.0,-0.00807329456067,0.00889688231021,-0.999927831096,0.0,0.620451614128,0.206993423271,0.303891819009,1.0,-0.0922371428571,-0.121225959184,1.563
0.426102658184,0.340468673129,-0.124990597745,-1.67252878355,0.0579640587446,2.00502369473,0.10936682781,-0.10492665373,-0.413910989091,-5.80646068742e-05,-0.604075401432,-0.0571481890577,0.186106679282,-0.113349107584,0.573842172411,0.818949474201,0.00276889311936,0.0,0.818915575469,-0.57377904276,-0.011646340419,0.0,-0.00794918456542,0.00895082332001,-0.999928344046,0.0,0.618989806857,0.20506343218,0.303954613887,1.0,-0.0942942857143,-0.123929632653,1.579
0.424189162387,0.333061584422,-0.125002187192,-1.68358020546,0.0570623215991,2.00840564216,0.107234440848,-0.109994361,-0.406390820462,-0.000734679887452,-0.614248053347,-0.0472044100782,0.188538458584,-0.116657821299,0.573761439379,0.81900686425,0.00251274631261,0.0,0.818969313134,-0.573698882602,-0.0118153775998,0.0,-0.00823547416453,0.00883724032444,-0.999927037413,0.0,0.617300767301,0.202941279048,0.3038513518,1.0,-0.09648,-0.126802285714,1.596
0.422339486723,0.325821686994,-0.124995076536,-1.69387511285,0.0562387689527,2.01180179018,0.105186187479,-0.109003650022,-0.419281419428,0.00143293914237,-0.612382720698,-0.0406277386491,0.200989569689,-0.116824720676,0.573672682994,0.819068171964,0.00278017320723,0.0,0.819034235985,-0.57360932959,-0.0116620835524,0.0,-0.00795746137283,0.00896744845069,-0.999928129256,0.0,0.615686417679,0.200848177597,0.303990074268,1.0,-0.0986657142857,-0.129674938775,1.613
0.420479063822,0.31902660389,-0.125011775296,-1.70383508375,0.0554484624495,2.01496782246,0.103275742671,-0.117736152513,-0.42800986339,-0.00488731945331,-0.618203484928,-0.0601534401356,0.190145937873,-0.114567030102,0.573714987976,0.819038585355,0.00276679844471,0.0,0.819004253844,-0.573651425826,-0.011697039603,0.0,-0.00799330279232,0.00897695946519,-0.999927758045,0.0,0.614094366714,0.198764874687,0.303967109417,1.0,-0.100722857143,-0.132378612245,1.629
0.418472064696,0.311651011718,-0.125074829302,-1.71454436661,0.0545555743371,2.01825969742,0.101065633235,-0.1207607026,-0.435700482215,0.00144899355673,-0.619689677405,-0.0627795309655,0.199338057337,-0.128042069636,0.573647662379,0.819085972232,0.00269748785376,0.0,0.819050741456,-0.573584354665,-0.0117310658171,0.0,-0.0080616698324,0.00893905001428,-0.999927548808,0.0,0.612352348085,0.19649113832,0.303964525863,1.0,-0.102908571429,-0.135251265306,1.646
0.41625532137,0.303677830155,-0.125108879608,-1.72595418311,0.0535805413434,2.02188104651,0.0987216514358,-0.120498669964,-0.444429741995,0.000324272913804,-0.636620321837,-0.0494987590038,0.190939828793,-0.13103590907,0.573604244844,0.819116016242,0.00280519780171,0.0,0.819082534832,-0.573540961565,-0.0116324305697,0.0,-0.0079195668191,0.00897027278432,-0.999928404771,0.0,0.610508643874,0.194055065385,0.304028631422,1.0,-0.105222857143,-0.138292897959,1.664
0.414297904705,0.297025650488,-0.125151387399,-1.73575032114,0.0527747794782,2.02475946391,0.0968118300831,-0.130740956558,-0.441389373128,-0.00294200598581,-0.653553119177,-0.0637451150853,0.198186747355,-0.124992306703,0.573707288786,0.819044617273,0.00257072182646,0.0,0.819007565286,-0.573644246665,-0.0118166481124,0.0,-0.00820384019447,0.00888490883724,-0.999926875027,0.0,0.608865474155,0.19192103839,0.30392786591,1.0,-0.107151428571,-0.140827591837,1.679
0.411907713201,0.288801124965,-0.125261938798,-1.7472638039,0.0518406263056,2.02851077539,0.0943506155854,-0.138716644657,-0.455600331521,-0.00333540340093,-0.645773901362,-0.048732513719,0.212248511874,-0.13973100153,0.573767554334,0.819001193057,0.00293023326699,0.0,0.818969215957,-0.573703699619,-0.0115859940588,0.0,-0.00780800761922,0.00904761251145,-0.999928585312,0.0,0.607024099936,0.189360790397,0.304084597909,1.0,-0.109465714286,-0.14386922449,1.697
0.409574846556,0.281025173384,-0.125287754372,-1.75852469825,0.0508541708041,2.0318015299,0.0919591986982,-0.139314131955,-0.464822444843,-0.00515548092034,-0.672099265346,-0.0622303738696,0.202625443966,-0.139258357214,0.573731601952,0.819027053608,0.00273519293706,0.0,0.818992295027,-0.573668130023,-0.0117151262678,0.0,-0.00802606685897,0.00896161264039,-0.999927633256,0.0,0.605100845385,0.186885745594,0.304016945785,1.0,-0.111651428571,-0.146741877551,1.714
0.407427282339,0.274027565289,-0.125344942768,-1.76847595091,0.0499829345665,2.03478620741,0.0898297735773,-0.149233346094,-0.475375829399,-0.00666961862914,-0.650943441348,-0.0500740214497,0.21071499136,-0.140745648078,0.573775199531,0.818996537478,0.00272743517988,0.0,0.818961748404,-0.573711827771,-0.0117106886528,0.0,-0.00802640616918,0.00895314017769,-0.999927706429,0.0,0.603422029907,0.184642295536,0.304030190186,1.0,-0.11358,-0.149276571429,1.729
0.404791616423,0.26554840473,-0.125444864927,-1.78047383138,0.0489440811672,2.03845758937,0.0871972552232,-0.145268795346,-0.477025596237,-0.00374157243062,-0.683310392811,-0.054044882029,0.194225088639,-0.145058108824,0.573830115672,0.818957760712,0.00281627750656,0.0,0.818924321216,-0.573766650337,-0.0116419063377,0.0,-0.00791849588896,0.00898696763278,-0.999928263345,0.0,0.601401705721,0.181910651706,0.304062078334,1.0,-0.115894285714,-0.152318204082,1.747
0.402176557897,0.257445460353,-0.125552584698,-1.79202109794,0.0478990170252,2.04174029061,0.0846536412547,-0.150674816526,-0.486585927058,-0.0058532528237,-0.670315605166,-0.0630805829909,0.190390043896,-0.152749649565,0.573918070281,0.818896721471,0.00263724663476,0.0,0.818860906367,-0.573855162697,-0.0117394706566,0.0,-0.00810017238927,0.00889720381377,-0.999927610866,0.0,0.599395612086,0.179221496581,0.304016868715,1.0,-0.11808,-0.155190857143,1.764
0.399692649221,0.249689631274,-0.125559708061,-1.80281887281,0.0468980283059,2.04501004688,0.0822196339602,-0.160937698691,-0.474489372125,0.00161197204535,-0.683661754219,-0.0679450070471,0.206758476103,-0.161357917423,0.573893473948,0.818913496044,0.00277731140209,0.0,0.818879921799,-0.5738305519,-0.0116154328917,0.0,-0.00791848107802,0.00894047780927,-0.999928680214,0.0,0.597532731797,0.176761082146,0.304084990898,1.0,-0.120137142857,-0.157894530612,1.78
0.396829365709,0.240929116473,-0.125561642857,-1.81529104635,0.0458467106694,2.04851920283,0.0793396211216,-0.163697621905,-0.489834331855,-0.000663060391455,-0.690284631328,-0.0586076964767,0.197006130755,-0.165620964822,0.573824810997,0.81896209051,0.002632012922,0.0,0.818925507954,-0.573761168026,-0.0118271462914,0.0,-0.0081759950564,0.00894230467144,-0.999926591452,0.0,0.595286686975,0.173940953085,0.303998085483,1.0,-0.122451428571,-0.160936163265,1.798
0.394051751721,0.232418785675,-0.125569654414,-1.82685135936,0.0448143197298,2.05201426956,0.076658099044,-0.162280936691,-0.490463096318,-0.000475439484922,-0.697477529678,-0.0563894039434,0.209454682885,-0.159919788918,0.573823618358,0.818961729397,0.00298122420485,0.0,0.818929947835,-0.57375904729,-0.0116208043224,0.0,-0.00780663994733,0.00910988116051,-0.999928030629,0.0,0.593262375471,0.171274323441,0.304159536776,1.0,-0.124637142857,-0.163808816327,1.815
0.39135984389,0.224390046326,-0.125556346297,-1.83814190997,0.0437310909981,2.05508391097,0.0739446051605,-0.175021189527,-0.50443353234,-0.00227413872499,-0.701938496177,-0.0626984501635,0.190802514161,-0.168630610035,0.573669243176,0.819070561806,0.00278587835676,0.0,0.819035963028,-0.573605040886,-0.0117513930235,0.0,-0.008027380769,0.00902332103176,-0.999927067758,0.0,0.591177687841,0.168678430992,0.30409470265,1.0,-0.126694285714,-0.166512489796,1.831
0.388526076583,0.216240517362,-0.125624321385,-1.84928746712,0.0427022294403,2.05828316405,0.0712229874335,-0.181491639112,-0.516836684036,-0.00249909406914,-0.694337054119,-0.067380402981,0.212988194833,-0.17410420224,0.573695556746,0.819051639684,0.00292687583542,0.0,0.819019003564,-0.573631010821,-0.01166542447,0.0,-0.00787578992915,0.00908974412204,-0.999927671627,0.0,0.589177311787,0.165996545066,0.304165535461,1.0,-0.128751428571,-0.169216163265,1.847
0.385259127321,0.207048803439,-0.125681519772,-1.86198228072,0.0415227021054,2.06180331461,0.0681156376217,-0.18321532366,-0.50919835754,-0.00016913071991,-0.71029387658,-0.063032544093,0.18893594889,-0.181052831264,0.573718391057,0.819035671167,0.00291959251406,0.0,0.819002690403,-0.57365357874,-0.0117009235663,0.0,-0.00790879136098,0.00910436445346,-0.999927278139,0.0,0.586843923179,0.162941693969,0.304157774055,1.0,-0.131065714286,-0.172257795918,1.865
0.382255254074,0.198734080053,-0.125731390886,-1.873372445,0.0404138069642,2.06481451184,0.0652294179615,-0.19055979062,-0.536450737538,-0.00691349093496,-0.698839155741,-0.0636614836723,0.198936742525,-0.177346890664,0.573683488213,0.819060415652,0.0028350951678,0.0,0.819026162764,-0.573618777275,-0.0117639265152,0.0,-0.00800925692063,0.00907096215881,-0.999926782044,0.0,0.584707523198,0.160163648316,0.304158660163,1.0,-0.133122857143,-0.174961469388,1.881
0.378948903584,0.189865523886,-0.125856885085,-1.88551519902,0.0392638444459,2.06821753256,0.0621229602166,-0.200823610647,-0.523983566037,-0.00987081898266,-0.711459456472,-0.0716855805387,0.194960657707,-0.19378542373,0.573766159458,0.819002246138,0.00290894871192,0.0,0.818969052031,-0.573701291253,-0.0117161056375,0.0,-0.00792680181643,0.00910481920045,-0.999927131385,0.0,0.582467298644,0.157133272584,0.304158687782,1.0,-0.135308571429,-0.177834122449,1.898
0.375482341433,0.180859052526,-0.1260041297,-1.8977295495,0.0381044285235,2.07138957713,0.0589049253175,-0.206858336692,-0.532563231381,-0.00421731706957,-0.68993119971,-0.0659261120691,0.205130125013,-0.195141147143,0.573888966084,0.818916339657,0.0028688240313,0.0,0.818882218716,-0.57382375955,-0.0117877795919,0.0,-0.00800716008763,0.00911428110846,-0.999926404925,0.0,0.580158846017,0.154001007334,0.304165846999,1.0,-0.137494285714,-0.18070677551,1.915
0.371987700967,0.171776271636,-0.126036291138,-1.90996716324,0.0368416122629,2.07470669381,0.0556902060886,-0.206812299811,-0.53020948104,0.000524625780453,-0.731150434483,-0.076160077105,0.190220391779,-0.195299161126,0.573891044991,0.818914633392,0.00293914893743,0.0,0.818881924406,-0.573826163497,-0.011690802732,0.0,-0.00788736073075,0.00911623845048,-0.999927339229,0.0,0.577833676592,0.150932445328,0.304195522603,1.0,-0.13968,-0.183579428571,1.932
0.368623160725,0.163185983801,-0.126051499517,-1.92166689353,0.0356805051491,2.07762027985,0.0524869796727,-0.215574129533,-0.541292510937,-0.0035956872606,-0.715232453273,-0.0752325504164,0.182687469078,-0.201904176285,0.573797447071,0.818980807274,0.00277018996469,0.0,0.818945214606,-0.573732400016,-0.011858142624,0.0,-0.00812239986337,0.00907298046275,-0.999925851074,0.0,0.575526059085,0.148008675567,0.304124449592,1.0,-0.141737142857,-0.186283102041,1.948
0.364495704238,0.152774759188,-0.12609179602,-1.93532642392,0.0342474403836,2.08131485158,0.04867068689,-0.225251947471,-0.535829024179,-0.0021160015724,-0.728592132144,-0.0768863516505,0.182240641915,-0.198486525926,0.573760132458,0.819005895883,0.00306591142602,0.0,0.818975079126,-0.573695136026,-0.0115955841564,0.0,-0.00773810230018,0.00916416539282,-0.999928067336,0.0,0.572901644132,0.144501786765,0.304264685544,1.0,-0.14418,-0.189493714286,1.967
0.361133974729,0.144566513228,-0.126130270839,-1.94648250474,0.0331320720833,2.08389839296,0.0455710656547,-0.22335058341,-0.546835751057,-0.000660279982483,-0.753388573342,-0.0756635692009,0.178134885973,-0.207196916975,0.573748132267,0.819015333298,0.00277694862381,0.0,0.818979643996,-0.573682860277,-0.0118770975391,0.0,-0.00813459378638,0.00908890191465,-0.999925607356,0.0,0.570629689093,0.141647069962,0.304146320826,1.0,-0.146108571429,-0.192028408163,1.982
0.357205384671,0.135048865616,-0.126230893838,-1.95879859002,0.0318896940085,2.08711545627,0.0419311910912,-0.229909428492,-0.546044622891,-0.00616311440877,-0.738050703143,-0.0791832647555,0.186705248305,-0.215121790028,0.573764393093,0.819002783259,0.00309986041153,0.0,0.818971663851,-0.573698403488,-0.0116748681484,0.0,-0.00778351439535,0.00923749932703,-0.999927040093,0.0,0.56821755643,0.138382668173,0.304290245635,1.0,-0.148294285714,-0.194901061224,1.999
0.353132597195,0.125563558923,-0.126331649939,-1.97145022779,0.0305285912815,2.09006590546,0.0382422949903,-0.243547575051,-0.557327602193,-0.00695295768199,-0.740544230219,-0.0770710504156,0.165286787161,-0.211091720018,0.573799602199,0.818978899803,0.00288532412301,0.0,0.818944638112,-0.573733943358,-0.0118232333533,0.0,-0.00802772481539,0.00914726342773,-0.999925938861,0.0,0.565631917254,0.135007508014,0.304211202474,1.0,-0.15048,-0.197773714286,2.016
0.348415689822,0.114728569323,-0.12648162614,-1.98536539592,0.0290332903108,2.09354213147,0.0339982864497,-0.249178547414,-0.563016347179,-0.00207600900027,-0.731920468983,-0.0778443308496,0.175369354043,-0.227826324363,0.573894906411,0.818911121822,0.00315560652697,0.0,0.818881084156,-0.573829144747,-0.0116029975502,0.0,-0.00769119282514,0.00924314564636,-0.999927702292,0.0,0.56284317612,0.131187455823,0.304345357093,1.0,-0.152922857143,-0.200984326531,2.035
0.344875214502,0.106769726467,-0.126506017847,-1.99588174683,0.0278797402806,2.09589585748,0.030789001966,-0.254914406134,-0.570269482469,-0.00153604826067,-0.750678159188,-0.0838237746776,0.159874706447,-0.216422773637,0.573850142822,0.818943192527,0.00296781013716,0.0,0.81891025582,-0.57378447344,-0.0117523552464,0.0,-0.00792178046717,0.00917463753547,-0.999926533011,0.0,0.56063046571,0.128371492437,0.304268177062,1.0,-0.154722857143,-0.203350040816,2.049
0.340252771644,0.0963364828612,-0.12650880902,-2.0091269148,0.0264265672007,2.09902915242,0.0265175917192,-0.26884748622,-0.58028653031,0.00145952299101,-0.730609209153,-0.0749490797054,0.170036244644,-0.236970813002,0.573701197848,0.819046679693,0.00319671281182,0.0,0.819017075722,-0.573635210586,-0.0115940395365,0.0,-0.0076624600857,0.00926985522248,-0.999927675629,0.0,0.557872797937,0.12479044991,0.304391378918,1.0,-0.157037142857,-0.206391673469,2.067
0.336003670294,0.0871201631916,-0.12653651265,-2.02119186562,0.0251979149942,2.10164528765,0.0226721458782,-0.269543912461,-0.577108676569,-0.00425185083556,-0.762075787504,-0.0841010044211,0.156634715632,-0.255569283502,0.573679199158,0.819062622463,0.00305676939587,0.0,0.819029786807,-0.57361200816,-0.0118414238558,0.0,-0.00794562102322,0.00929694273607,-0.999925214185,0.0,0.555276078767,0.121523597603,0.304293088018,1.0,-0.159094285714,-0.209095346939,2.083
0.331579802577,0.0776475981523,-0.126653908836,-2.03299682538,0.0238019789905,2.10433099139,0.0186569127425,-0.274197180772,-0.602994303218,-0.00696303354038,-0.737962053454,-0.086793665228,0.178183925522,-0.254361038781,0.573646984271,0.819084368317,0.00326832004703,0.0,0.819055332229,-0.573580337162,-0.0116063115944,0.0,-0.0076320512269,0.00933504033505,-0.999927301765,0.0,0.552790694693,0.118141981985,0.304439087264,1.0,-0.161151428571,-0.211799020408,2.099
0.326472488678,0.0671138358159,-0.126798107904,-2.04657928136,0.0222740277674,2.10723311456,0.0141479306301,-0.286487797393,-0.595446806112,-0.0121578796868,-0.759997713081,-0.0838523296883,0.146922747461,-0.255253895853,0.573738353404,0.81902090734,0.00313082653895,0.0,0.818989606067,-0.5736715687,-0.0117347057977,0.0,-0.00781505368191,0.00929694417087,-0.999926243162,0.0,0.549843691672,0.114274004932,0.304353994811,1.0,-0.163465714286,-0.214840653061,2.117
0.321727214468,0.0575490796645,-0.126949873129,-2.05851577973,0.0208627865564,2.10970528261,0.0099372535704,-0.29589875876,-0.610337457756,-0.00364488184185,-0.745236190162,-0.088554986189,0.17085574419,-0.266062815832,0.57380098784,0.818976881604,0.00316869893308,0.0,0.818946352129,-0.573734401349,-0.0116814358936,0.0,-0.00774898354732,0.00929799290255,-0.999926747608,0.0,0.5472443399,0.110745196961,0.304415485654,1.0,-0.165522857143,-0.217544326531,2.133
0.316346744687,0.0468277082677,-0.127026149721,-2.07205419616,0.0193509976578,2.11252676941,0.00517693383907,-0.298855537726,-0.601001772455,-0.0050584358168,-0.747478994457,-0.0872462666962,0.158757060204,-0.269291953646,0.573826197226,0.818959160351,0.00318370158193,0.0,0.818928252061,-0.573758868475,-0.0117484349645,0.0,-0.00779496149395,0.00934896292714,-0.999925914989,0.0,0.54424291663,0.106848142223,0.304383146162,1.0,-0.167837142857,-0.220585959184,2.151
0.31143454005,0.0371268838768,-0.127050488966,-2.08405998735,0.0179736596446,2.11490027357,0.000799660945084,-0.313067308755,-0.61873429556,-0.00232037584769,-0.737775818921,-0.0821782936186,0.160636774598,-0.282105590295,0.573768763579,0.818999156005,0.00324581350306,0.0,0.818968702069,-0.573700804764,-0.0117642911208,0.0,-0.00777296833381,0.00940838358305,-0.999925528868,0.0,0.541535799647,0.103367921547,0.304419894141,1.0,-0.169894285714,-0.223289632653,2.167
0.306360819047,0.0274812692885,-0.127124439939,-2.09600601192,0.0164796575666,2.11728732301,-0.00367040665859,-0.320453241392,-0.601314547907,-0.0036149699723,-0.744038556749,-0.0916819205922,0.139138645345,-0.277840038554,0.573743615012,0.819016757054,0.00325004591111,0.0,0.818986897131,-0.573676299044,-0.0116924395865,0.0,-0.00771197812163,0.00937038798193,-0.9999263579,0.0,0.538840875097,0.0997973908279,0.304426521612,1.0,-0.16998,-0.223402285714,2.183
0.300830953692,0.0172215160055,-0.127273460909,-2.10862955496,0.0149677870423,2.11958534138,-0.00852588826255,-0.327439460373,-0.615175058492,-0.0143156870867,-0.720719269074,-0.0888323041798,0.143859314956,-0.288439070552,0.573825685059,0.818959358912,0.00322467349232,0.0,0.818928831183,-0.573758033643,-0.0117488377666,0.0,-0.00777178795423,0.00938274362099,-0.999925778963,0.0,0.535767390243,0.0957081370333,0.304437756589,1.0,-0.16998,-0.223402285714,2.201
0.295199427547,0.00699688772901,-0.127405619113,-2.12105170804,0.0134463132863,2.12185580977,-0.0134349637732,-0.333689461732,-0.594929714439,-0.00535998286087,-0.724119988608,-0.0842062028038,0.127873835142,-0.288484184805,0.5738942046,0.818911298152,0.00323644652832,0.0,0.81888079,-0.57382634233,-0.0117612719531,0.0,-0.0077744298914,0.00940017068493,-0.999925594747,0.0,0.533055771476,0.0920846064389,0.304451341631,1.0,-0.16998,-0.223402285714,2.217
0.289885386791,-0.00256338735684,-0.12743159695,-2.13265129726,0.0120925829791,2.12389561971,-0.0181312234873,-0.33313796062,-0.602313369006,-0.000968100865906,-0.700305553785,-0.0889704531598,0.125680772951,-0.288168544412,0.573854878565,0.818938701924,0.00327532267686,0.0,0.818907958014,-0.573785988992,-0.0118381603124,0.0,-0.00781554385141,0.00947575629131,-0.999924560813,0.0,0.530313081919,0.0885542773971,0.304451742811,1.0,-0.16998,-0.223402285714,2.233
0.283831696716,-0.0132507961,-0.127441228643,-2.14539144628,0.0104329539885,2.12621036908,-0.0234262031852,-0.337525512269,-0.586671950023,-0.000721970173903,-0.719672753101,-0.0914982413415,0.115049372678,-0.296829476909,0.573770753544,0.818997069144,0.00341613991513,0.0,0.81896909106,-0.57370255327,-0.0116514016487,0.0,-0.00758276160171,0.00948312908466,-0.999926283278,0.0,0.527304346646,0.0845969198807,0.304525224035,1.0,-0.16998,-0.223402285714,2.251
0.277635222425,-0.0238690780438,-0.127492778181,-2.15820493637,0.00881846624934,2.12811850385,-0.0289207328041,-0.347597268171,-0.600276667166,-0.00319331030536,-0.693276481176,-0.0891129141736,0.110892129158,-0.30440162163,0.573675603996,0.819064570789,0.00320580093096,0.0,0.819032793851,-0.573606833504,-0.0118840252105,0.0,-0.00789506669195,0.00944341324852,-0.999924242064,0.0,0.524157796767,0.0805793596885,0.304458452339,1.0,-0.16998,-0.223402285714,2.269
0.272320375386,-0.0327191633404,-0.127661130706,-2.16850176714,0.00744510868877,2.12994558888,-0.0334211207511,-0.361461200692,-0.574703386216,-0.0114479934325,-0.692176699217,-0.0950792546738,0.116975198497,-0.305529256575,0.573863136663,0.818932220264,0.00344469085077,0.0,0.818904776109,-0.573795037869,-0.0116176195832,0.0,-0.00753764160527,0.00948798007752,-0.999926578401,0.0,0.521706900911,0.0771469741236,0.304570683935,1.0,-0.16998,-0.223402285714,2.284
0.26594183753,-0.0431643263285,-0.127722817314,-2.18105582268,0.00595005288855,2.13172843639,-0.0390631955356,-0.352740657066,-0.571989169577,-0.000209305812177,-0.689671456374,-0.0792380701054,0.101478099854,-0.31732822915,0.57382700077,0.818958221302,0.00327900154488,0.0,0.818926715179,-0.573757121588,-0.0119393255491,0.0,-0.00789661036142,0.00953655294349,-0.999923345913,0.0,0.51855625084,0.073143939494,0.30445718238,1.0,-0.16998,-0.223402285714,2.302
0.260205260036,-0.0525476193062,-0.127738693423,-2.19171907606,0.00450341885337,2.13344865486,-0.0440299044817,-0.362924459482,-0.582418277517,-0.00444108878171,-0.664609361002,-0.0977767710627,0.11145828421,-0.31441996777,0.573793497178,0.818980494926,0.00356629055164,0.0,0.818954099927,-0.573724353804,-0.0116316364674,0.0,-0.00748015966489,0.00959497036822,-0.999925989139,0.0,0.51592870566,0.069624361913,0.30461601491,1.0,-0.16998,-0.223402285714,2.318
0.254359267017,-0.0617099800327,-0.127795426891,-2.20258942894,0.00309129513051,2.13490146446,-0.0491560290832,-0.358680235289,-0.577968423561,-0.00121142489756,-0.6943222389,-0.0837654000235,0.0909394718873,-0.314280069201,0.573754614262,0.81900848266,0.00339040477423,0.0,0.818978832149,-0.57368484009,-0.0118373833598,0.0,-0.00775004277577,0.00956860729132,-0.999924186422,0.0,0.513146488945,0.0660534502903,0.30451647356,1.0,-0.16998,-0.223402285714,2.334
0.248056937094,-0.0715264121347,-0.127895228311,-2.21384943461,0.00157242352887,2.13638729707,-0.0546409306595,-0.373585224625,-0.592996028465,-0.0111718876446,-0.648138466788,-0.0939401085394,0.0914525442713,-0.323152973977,0.573767680967,0.818999219746,0.00341661163639,0.0,0.818969912408,-0.573697816284,-0.01182561046,0.0,-0.0077252118391,0.00958343973313,-0.999924236522,0.0,0.510255650797,0.0622453714009,0.304549926925,1.0,-0.16998,-0.223402285714,2.351
0.241198336226,-0.0817833432334,-0.128054757116,-2.22559557637,1.95075514341e-05,2.13794380676,-0.0605876474205,-0.378608460707,-0.56568139068,-0.00843644761129,-0.659337339387,-0.0834223325071,0.0802597097122,-0.324077559367,0.573874885446,0.818923796546,0.00348972878581,0.0,0.818895247795,-0.573804512019,-0.0118195611964,0.0,-0.00767704561237,0.00964085726278,-0.999924055537,0.0,0.507224161676,0.0581540152672,0.304561283883,1.0,-0.16998,-0.223402285714,2.369
0.235183989077,-0.0908407770598,-0.128051919526,-2.23605815417,-0.00134819291773,2.13910586624,-0.0659106382019,-0.374753290236,-0.567594797122,-0.00133694547653,-0.632265286655,-0.0845913971984,0.0674328656479,-0.348720956846,0.573742947076,0.819016727834,0.00337299704165,0.0,0.818985480063,-0.573671555187,-0.012019863403,0.0,-0.00790962901971,0.00965893341812,-0.99992206835,0.0,0.504264492324,0.0544523364753,0.304497569871,1.0,-0.16998,-0.223402285714,2.386
0.228207144256,-0.101060532051,-0.128122203172,-2.2473692728,-0.0029764361819,2.14052204077,-0.0719920077955,-0.393042485728,-0.568966628982,-0.00599666282222,-0.629608700268,-0.0963101240173,0.0724469651051,-0.344208288968,0.573709728452,0.819039260136,0.00354749708169,0.0,0.819011513419,-0.573639245258,-0.0117857578684,0.0,-0.00761816152937,0.00966723102414,-0.999924251261,0.0,0.501448189038,0.0506631444478,0.30460117196,1.0,-0.16998,-0.223402285714,2.403
0.221898422705,-0.110029015,-0.128255670371,-2.25758507878,-0.00435833629175,2.14152808116,-0.077420587808,-0.404485140629,-0.559809244158,-0.00627497345222,-0.648870954403,-0.0928559694511,0.0552167783729,-0.350275720829,0.573819025358,0.818963265492,0.00341215664256,0.0,0.818932583382,-0.573747542772,-0.011996997077,0.0,-0.00786753488749,0.00967861776753,-0.999922210101,0.0,0.498662462311,0.0470538054655,0.304523413409,1.0,-0.16998,-0.223402285714,2.419
0.215458001443,-0.119036006862,-0.128390227465,-2.26742007594,-0.00579401416697,2.14258709066,-0.0830109536231,-0.395860147059,-0.569428120675,-0.00405779380761,-0.60424653839,-0.0791224323049,0.0739379988582,-0.355216591668,0.573873013964,0.81892481518,0.00355778405052,0.0,0.818896891998,-0.573802078467,-0.0118237864251,0.0,-0.00764147535208,0.00969899698938,-0.99992376575,0.0,0.49599881361,0.0434252322784,0.304616239677,1.0,-0.16998,-0.223402285714,2.435
0.208643182676,-0.128430875437,-0.128417869382,-2.2778526618,-0.0071935117871,2.14357570008,-0.0890132573109,-0.403098272343,-0.548202109313,-0.000728366555411,-0.612905300833,-0.0912872683662,0.0440881897833,-0.354124041188,0.573807662787,0.818970511685,0.00357966734446,0.0,0.81894215318,-0.57373574636,-0.0119075603835,0.0,-0.00769830592084,0.00976437787041,-0.999922693517,0.0,0.493101176506,0.0396989454867,0.304597670417,1.0,-0.16998,-0.223402285714,2.452
0.201235363739,-0.138368557366,-0.128506740503,-2.28882391853,-0.00881154382412,2.14447192097,-0.0954965439059,-0.402581816235,-0.54429229231,-0.00870628458872,-0.592755164807,-0.082397651437,0.0514167492186,-0.374977322817,0.573765993745,0.819000177358,0.00346998723009,0.0,0.818970081997,-0.573694096698,-0.0119931276219,0.0,-0.00783181324652,0.00972325171714,-0.999922057501,0.0,0.490003110393,0.0356632657222,0.304562964982,1.0,-0.16998,-0.223402285714,2.47
0.194998507059,-0.146677846535,-0.128618125336,-2.29764036482,-0.0100443939803,2.14536725051,-0.100950034048,-0.419976755881,-0.541281421098,-0.0152737959461,-0.591155168024,-0.0853780581526,0.0534671121057,-0.374304153773,0.573818752087,0.818961846535,0.00377896479991,0.0,0.818936687162,-0.573746936907,-0.0117431559697,0.0,-0.00744917063807,0.00983336534098,-0.999923904496,0.0,0.487542369333,0.0323152664091,0.304683903918,1.0,-0.16998,-0.223402285714,2.485
0.186945128864,-0.157035560921,-0.128769028904,-2.30894073758,-0.0117314098666,2.14605506294,-0.107990572411,-0.418033870687,-0.545942017514,-0.00433674520952,-0.591499859643,-0.0930661228966,0.0348217537039,-0.366126668433,0.573838716034,0.818948628818,0.00360807961047,0.0,0.818920414185,-0.573766406027,-0.0119253279649,0.0,-0.00769618428966,0.00979813358109,-0.99992237965,0.0,0.484249241474,0.0280238151894,0.304625836153,1.0,-0.16998,-0.223402285714,2.504
0.180154043612,-0.165721192562,-0.128778442856,-2.31814900447,-0.0130353510561,2.14669359508,-0.113932778743,-0.436354615343,-0.538083698559,-0.0020428629068,-0.562895414173,-0.0719796707855,0.0470693378433,-0.374678916612,0.573803748439,0.818972575795,0.00373165837412,0.0,0.818946027395,-0.573731080783,-0.0118658357747,0.0,-0.00757697157641,0.0098648777764,-0.999922633851,0.0,0.481560945719,0.0245277410458,0.304678586162,1.0,-0.16998,-0.223402285714,2.52
0.173242884764,-0.174330200186,-0.128836106158,-2.32729446338,-0.0143509017131,2.14728897532,-0.120059819566,-0.43550293328,-0.531951737748,-0.00567959455936,-0.57263707272,-0.0801412320925,0.0291751752457,-0.378026188549,0.573741577479,0.819015756612,0.00381308184762,0.0,0.818990190605,-0.573668536858,-0.0118416389595,0.0,-0.00751118842115,0.0099171081808,-0.999922613513,0.0,0.478859835974,0.0209917192708,0.304694997911,1.0,-0.16998,-0.223402285714,2.536
0.165686426525,-0.183442152871,-0.129039076497,-2.33702488999,-0.015864778326,2.14770549247,-0.126630095964,-0.454331091216,-0.531019118455,-0.00809604642463,-0.570752072129,-0.0839218799201,0.02823921459,-0.388685782747,0.573851777674,0.818939163754,0.00367834637604,0.0,0.818911227873,-0.573778396943,-0.0119791053868,0.0,-0.00769975110505,0.00988666041738,-0.999921480807,0.0,0.475914796026,0.017097623125,0.304643410573,1.0,-0.16998,-0.223402285714,2.553
0.157694214348,-0.193080127326,-0.129107738411,-2.34690475887,-0.0173294592387,2.14825484428,-0.133682107669,-0.440881818558,-0.536187945822,-0.00123292932535,-0.546262158313,-0.0843045270789,0.0262807949795,-0.392915188889,0.573824317752,0.818957259366,0.00392512286246,0.0,0.818933413008,-0.573751239454,-0.0117612578149,0.0,-0.00738006544856,0.00996350183204,-0.999923128678,0.0,0.472929915476,0.0131206780748,0.304757507451,1.0,-0.16998,-0.223402285714,2.571
0.150938440652,-0.200954652061,-0.129148913074,-2.35519326485,-0.0185977909035,2.14852942117,-0.139717070289,-0.458333053617,-0.524080750614,-0.00394316470658,-0.557508295653,-0.0758160796832,0.00585627867892,-0.406093381414,0.573706502267,0.819040176023,0.00384528513069,0.0,0.819014835126,-0.573633099693,-0.0118538466948,0.0,-0.00750313831339,0.00995016606454,-0.99992234554,0.0,0.470354262404,0.00980242210106,0.304715847771,1.0,-0.16998,-0.223402285714,2.586
0.142678342824,-0.210401140438,-0.129320357775,-2.36505168069,-0.0200335010701,2.14874155196,-0.14697761254,-0.46712758328,-0.521502736516,-0.0143501896335,-0.54050989489,-0.0803699753976,0.0108736904443,-0.415242014266,0.573803640736,0.818972302323,0.00380746729655,0.0,0.818945091731,-0.573728547888,-0.0120514301221,0.0,-0.00768548275959,0.0100334543097,-0.999920128385,0.0,0.467239022158,0.00575525455636,0.304666413558,1.0,-0.16998,-0.223402285714,2.604
0.134768583475,-0.219308832886,-0.129438057228,-2.373904117,-0.0214063861811,2.14904398917,-0.153881434778,-0.463956353362,-0.525314127385,-0.00576603310077,-0.517339448617,-0.0820358490175,0.0153694569152,-0.413383308221,0.573902551028,0.81890170355,0.0040753832231,0.0,0.818879242229,-0.573828190533,-0.0117788495938,0.0,-0.0073072909056,0.0100973529609,-0.999922320464,0.0,0.464447839784,0.00194938900497,0.304803413011,1.0,-0.16998,-0.223402285714,2.621
0.126379351291,-0.228507498025,-0.129473581058,-2.38348010059,-0.0229257410124,2.14914725662,-0.161404122998,-0.471542497192,-0.512092590137,-0.00284663503156,-0.538714490191,-0.0779289422862,0.000723011684336,-0.427321754435,0.573730460599,0.819023138581,0.00389922450304,0.0,0.818997589706,-0.573655655394,-0.0119534091812,0.0,-0.00755345194384,0.010051683951,-0.999920951382,0.0,0.461334182809,-0.00200080085989,0.304704819421,1.0,-0.16998,-0.223402285714,2.639
0.119182744298,-0.236189246962,-0.129575095667,-2.39128759824,-0.0241563655661,2.14915890202,-0.167757089114,-0.486674845258,-0.507956417149,-0.006665290683,-0.511578754349,-0.0824876545426,0.00090991030461,-0.430062320232,0.573755750594,0.819005618355,0.00385780565058,0.0,0.818979035679,-0.57368043927,-0.0120349332677,0.0,-0.00764367748699,0.0100647678999,-0.999920134132,0.0,0.458757875512,-0.00537325204256,0.304679881215,1.0,-0.16998,-0.223402285714,2.654
0.110425827361,-0.245418784783,-0.12976464183,-2.40027231508,-0.0256063695986,2.14924952366,-0.175487209502,-0.481476025163,-0.514145301606,-0.00537124993802,-0.501107535106,-0.077749583367,0.00187686887983,-0.432125986956,0.573863767018,0.818928714057,0.00410914821728,0.0,0.818906676256,-0.573789280169,-0.0117670916917,0.0,-0.00727876420834,0.010117911275,-0.999922320714,0.0,0.455784650295,-0.00945552799091,0.30480936383,1.0,-0.16998,-0.223402285714,2.672
0.103165972201,-0.252938463405,-0.12982349408,-2.40788765267,-0.0267459825692,2.14920499292,-0.18201524708,-0.486113868337,-0.501103857935,-0.00511386022757,-0.507943898295,-0.081693199237,-0.00767291462044,-0.441556998184,0.573795275758,0.818976780868,0.00409399781118,0.0,0.818953666547,-0.573719633978,-0.0118920367668,0.0,-0.00739063735618,0.010176584965,-0.999920904671,0.0,0.453205676177,-0.012742618254,0.30475251256,1.0,-0.16998,-0.223402285714,2.687
0.09470298398,-0.261425768454,-0.129916309699,-2.41638229448,-0.028136560704,2.14906415786,-0.189514874221,-0.503090350944,-0.493568875269,-0.0111952967406,-0.489268068814,-0.0771477404145,-0.0061918656298,-0.45009928412,0.57379868443,0.818974766999,0.00401841593684,0.0,0.818950244876,-0.573722732279,-0.0119778873266,0.0,-0.00750427539226,0.0101639743937,-0.999920186553,0.0,0.450278183834,-0.0165526507201,0.304703668673,1.0,-0.16998,-0.223402285714,2.704
0.0856272387227,-0.270422572526,-0.130101240372,-2.42490482426,-0.0295262363246,2.1489836499,-0.197583226569,-0.507702824005,-0.497289604892,-0.00859356386315,-0.466465668501,-0.076815816025,-0.00820970308354,-0.442198933263,0.573900991061,0.818901563593,0.00431607518638,0.0,0.818882398333,-0.573826101739,-0.0116605987608,0.0,-0.00707234212311,0.0102265840786,-0.99992269649,0.0,0.44732211069,-0.0206214088748,0.304849074334,1.0,-0.16998,-0.223402285714,2.722
0.0781128385171,-0.277758554845,-0.130141453,-2.43212798347,-0.0307091388609,2.14877620914,-0.204411384004,-0.50328651147,-0.48135111208,-0.00252009137222,-0.485943273621,-0.0851534131013,-0.0111459512204,-0.460429838781,0.573747053204,0.819009687763,0.00426581663173,0.0,0.818989536301,-0.573671866571,-0.011725009011,0.0,-0.00715585475189,0.0102210453408,-0.999922158958,0.0,0.444582747989,-0.0241185054329,0.304806092599,1.0,-0.16998,-0.223402285714,2.738
0.0688350128272,-0.286488340361,-0.130240200644,-2.44065987104,-0.0321276249284,2.14840924959,-0.212697809867,-0.518377667056,-0.485135016465,-0.00613908160431,-0.472814425944,-0.0752603799877,-0.0198991170887,-0.45993306232,0.573743985475,0.819012161223,0.00420307045857,0.0,0.818990781427,-0.573668419097,-0.0118064291344,0.0,-0.00725858000653,0.0102163403613,-0.999921466619,0.0,0.441663254416,-0.0279162686147,0.304767588301,1.0,-0.16998,-0.223402285714,2.755
0.0599190375019,-0.294708056129,-0.130432496897,-2.4483837916,-0.0333125165192,2.14810650088,-0.220678197285,-0.531821137309,-0.487794282585,-0.00810930979298,-0.441962731889,-0.0677701590348,-0.0136760079769,-0.472252210425,0.573886681348,0.818910878018,0.00444946462257,0.0,0.818892895406,-0.573810577307,-0.011687348907,0.0,-0.00701788240732,0.0103510481355,-0.999921799507,0.0,0.438827554842,-0.0317595465603,0.304843455203,1.0,-0.16998,-0.223402285714,2.772
0.0515714216656,-0.30235319154,-0.130500738266,-2.45555502597,-0.0345479153776,2.14776356988,-0.228296645404,-0.522049752299,-0.46862818487,-0.00164505660568,-0.453952898016,-0.075651498896,-0.0236516817261,-0.492715737391,0.573751130167,0.819005391114,0.00453396731204,0.0,0.818989336688,-0.573676034793,-0.0115334469117,0.0,-0.00684505859792,0.0103307979816,-0.999923206944,0.0,0.436153786979,-0.0352829713271,0.304896743167,1.0,-0.16998,-0.223402285714,2.788
0.041918091236,-0.310779036229,-0.130623025019,-2.46369882301,-0.0359249813794,2.14712703135,-0.23688873697,-0.540226092497,-0.468815934789,-0.00944149950531,-0.449847787633,-0.0735940539481,-0.0338240749736,-0.487558874759,0.573828414214,0.818952134816,0.00437021992471,0.0,0.818932599899,-0.573751810948,-0.0117899600164,0.0,-0.00714812895241,0.0103445287892,-0.999920944363,0.0,0.433017274391,-0.0393164848889,0.30480211152,1.0,-0.16998,-0.223402285714,2.806
0.0326806604396,-0.318707496511,-0.130806989977,-2.47110198128,-0.0371587070646,2.14662896544,-0.245209786423,-0.54072276628,-0.462015153567,-0.00829743444119,-0.427793621201,-0.0654358795129,-0.0309982645374,-0.488526367663,0.573916722365,0.818889738594,0.00446527903624,0.0,0.818871410473,-0.573839751123,-0.0117601038652,0.0,-0.00706800985026,0.0104060099555,-0.999920875966,0.0,0.430137241223,-0.0431569896703,0.304817297529,1.0,-0.16998,-0.223402285714,2.823
0.024079794738,-0.326128957583,-0.130875410448,-2.47774583107,-0.0382931614931,2.14619946647,-0.253159789431,-0.54472414713,-0.456267106534,-0.0035817698196,-0.408081266166,-0.0694165180574,-0.0314797213209,-0.500126079228,0.57376152036,0.818997163152,0.00470227653064,0.0,0.818983500555,-0.573686277502,-0.0114379948461,0.0,-0.00667018223415,0.0104139687076,-0.999923526038,0.0,0.427527044508,-0.0466564600469,0.304947540825,1.0,-0.16998,-0.223402285714,2.839
0.0146123074191,-0.33378702991,-0.130990090258,-2.48501315931,-0.0395164083347,2.14548459148,-0.261666373666,-0.563322774286,-0.454193803256,-0.0066654294694,-0.433081899471,-0.0741621747937,-0.0459269606302,-0.503380007652,0.573830341187,0.818949618103,0.00458360597616,0.0,0.818933070509,-0.573753368966,-0.0116809471839,0.0,-0.00693638141135,0.0104567497488,-0.999921268399,0.0,0.424572124007,-0.0504682449442,0.304853175391,1.0,-0.16998,-0.223402285714,2.856
0.00338386783936,-0.342808939379,-0.131178225707,-2.49326385038,-0.0408974006378,2.14464883167,-0.271844595118,-0.550418658949,-0.449060910047,-0.00760308701564,-0.408922377869,-0.0661493159899,-0.0398606153637,-0.5278702624,0.573914754916,0.818890041922,0.00465835078201,0.0,0.818873989515,-0.573836812023,-0.0117238800677,0.0,-0.00692756885529,0.0105433130366,-0.999920420504,0.0,0.421153900872,-0.0549528262028,0.304858122167,1.0,-0.16998,-0.223402285714,2.876
-0.00330507927798,-0.348092552807,-0.131239323261,-2.49807488761,-0.0417507080604,2.14412811852,-0.278055230802,-0.562557846432,-0.441107813525,-0.00741644443289,-0.396357833955,-0.0756492882422,-0.0406767050313,-0.503578731865,0.573791400112,0.818976506578,0.00465378676106,0.0,0.818960367051,-0.573713449812,-0.0117278133478,0.0,-0.00693499706821,0.010540788298,-0.99992039563,0.0,0.419127773788,-0.0575796406877,0.304856606025,1.0,-0.16998,-0.223402285714,2.888
-0.0142809032859,-0.356447201345,-0.131406557907,-2.50539568293,-0.0430738833096,2.14332956858,-0.28800841493,-0.578919942922,-0.428336007858,-0.0143132301072,-0.391087617025,-0.0728543108066,-0.0461060008627,-0.5287632302,0.573884833585,0.818910021975,0.00482913986035,0.0,0.818897418288,-0.573808300857,-0.0114803784824,0.0,-0.00663052411553,0.0105431882481,-0.999922435658,0.0,0.415969224835,-0.0618905832443,0.304966454549,1.0,-0.16998,-0.223402285714,2.907
-0.0240730821266,-0.363740329758,-0.131516231345,-2.51208774521,-0.0442727289743,2.14243987094,-0.297033948299,-0.565816532296,-0.431785575803,-0.000358894371554,-0.387514036347,-0.0693460270436,-0.0524247284029,-0.5270258153,0.573800153061,0.818970034087,0.0047132277257,0.0,0.818954893455,-0.5737223602,-0.0116740221787,0.0,-0.00685672221979,0.0105586799102,-0.999920746679,0.0,0.413021340238,-0.0656525326385,0.304891983124,1.0,-0.16998,-0.223402285714,2.924
-0.0333578677836,-0.370555759917,-0.131588765254,-2.51819004625,-0.045337185475,2.14165502598,-0.305637816984,-0.584153934135,-0.418967445636,-0.00811490281537,-0.372708518519,-0.0635162467888,-0.0486968395781,-0.540052797301,0.573695059459,0.819043561653,0.00472966899155,0.0,0.819028446409,-0.573616942482,-0.0116941939456,0.0,-0.0068651681697,0.0105828384895,-0.999920433332,0.0,0.410293749681,-0.0691689312369,0.304880291524,1.0,-0.16998,-0.223402285714,2.94
-0.0429488319712,-0.377220611249,-0.131750543182,-2.52406283492,-0.0463481529526,2.14077686286,-0.31426418735,-0.606185740458,-0.421377728697,-0.00983042294761,-0.35566059852,-0.0624224613818,-0.0535731702891,-0.543307011904,0.57391868347,0.818886537597,0.00478854969993,0.0,0.818871653934,-0.57383951526,-0.0117546591294,0.0,-0.00687800549942,0.0106676314899,-0.999919444095,0.0,0.407566461272,-0.0728049233991,0.304886104882,1.0,-0.16998,-0.223402285714,2.956
-0.0529905985916,-0.384210510474,-0.13183497795,-2.53001896707,-0.0474649315912,2.13998057287,-0.323644093008,-0.589074626777,-0.405770657775,-0.000131456250234,-0.353390668971,-0.0623090595113,-0.0504200809176,-0.554894499037,0.573758107254,0.818998240151,0.00492583915496,0.0,0.81898661937,-0.573680891741,-0.0114847135749,0.0,-0.00658022709729,0.0106238484222,-0.999921914179,0.0,0.404606314793,-0.0767753290047,0.30497902719,1.0,-0.16998,-0.223402285714,2.974
-0.06326520667,-0.391068402082,-0.131981478503,-2.53612649876,-0.048602616656,2.13897088307,-0.333152104743,-0.610374721391,-0.402590985256,-0.0111871152781,-0.356519838197,-0.0716286366996,-0.0642987708744,-0.575155846192,0.573755873764,0.819000314844,0.00484030041224,0.0,0.818986674512,-0.573677460594,-0.0116509689983,0.0,-0.00676550628581,0.0106491584654,-0.999920408507,0.0,0.401829887958,-0.0803572154921,0.30491942985,1.0,-0.16998,-0.223402285714,2.99
-0.0737343399607,-0.397852745203,-0.132129946956,-2.54200097082,-0.0496821347618,2.13796093841,-0.342731511624,-0.606358319187,-0.389424770265,-0.00299025896128,-0.336085011623,-0.0593368300568,-0.0551186001797,-0.564699752107,0.573864695594,0.818923963038,0.00485806688121,0.0,0.818910233718,-0.573785705224,-0.0116936091432,0.0,-0.00678881811611,0.0106890759343,-0.999919824588,0.0,0.398912990065,-0.0841949939159,0.304918365502,1.0,-0.16998,-0.223402285714,3.007
-0.0840372410521,-0.404457061324,-0.132210127116,-2.54770396418,-0.0507242907313,2.13696817144,-0.352444070345,-0.614122231553,-0.388302306342,-0.00924985243671,-0.328157578939,-0.0678256181225,-0.0586819531819,-0.571033140717,0.573697074894,0.819041345544,0.00486697533018,0.0,0.819027533246,-0.573617771651,-0.011717454193,0.0,-0.00680542693053,0.0107086621697,-0.999919502119,0.0,0.396039872057,-0.0879006785647,0.304911012673,1.0,-0.16998,-0.223402285714,3.024
-0.0941214151571,-0.410524411462,-0.132377171261,-2.55281346998,-0.0516966377934,2.13606653723,-0.361707356562,-0.636776977987,-0.374607017649,-0.016523336308,-0.315904478939,-0.0589503850724,-0.0545004634442,-0.572759279196,0.573836731903,0.818942985215,0.00495368420511,0.0,0.818930764573,-0.573757873707,-0.0116211916935,0.0,-0.00667500661524,0.0107255975567,-0.999920199738,0.0,0.393353780351,-0.0915510438886,0.304949800298,1.0,-0.16998,-0.223402285714,3.04
-0.104767301083,-0.41691288991,-0.132466292351,-2.55815787912,-0.0526593905274,2.13507811719,-0.371661696209,-0.620241462539,-0.372407609071,-0.00304358699208,-0.323221762466,-0.045779810469,-0.0621435843485,-0.587204168463,0.573802365247,0.818966422317,0.00505881945661,0.0,0.818955970231,-0.573723857984,-0.0115239101022,0.0,-0.00653545583981,0.0107556043486,-0.99992079926,0.0,0.390502020973,-0.0953193889366,0.304992833127,1.0,-0.16998,-0.223402285714,3.057
-0.116162657933,-0.423536881468,-0.132609225787,-2.5638463224,-0.0537375870173,2.13383709554,-0.38235392258,-0.643825474635,-0.366767602448,-0.0139904140217,-0.314339155487,-0.0575690267859,-0.0651849025888,-0.590358591194,0.573748108056,0.819004875435,0.0049869245145,0.0,0.818992225581,-0.573667778618,-0.0117371681048,0.0,-0.0067520899919,0.0108186386933,-0.999918679862,0.0,0.387374093313,-0.0993131908094,0.304937571462,1.0,-0.16998,-0.223402285714,3.075
-0.125879655093,-0.428898417421,-0.132751519133,-2.56837840847,-0.0546388792515,2.13289821943,-0.391276488992,-0.641066240893,-0.353970635888,-0.00411943112481,-0.300673678188,-0.0616836776691,-0.0689680877378,-0.587201888265,0.57389373692,0.818902870573,0.0049813846141,0.0,0.818890022073,-0.573813197803,-0.0117597907198,0.0,-0.00677187252238,0.0108282848762,-0.999918441669,0.0,0.384631543416,-0.102941079296,0.304926175481,1.0,-0.16998,-0.223402285714,3.091
-0.137333321938,-0.435120967758,-0.132822267902,-2.57358144411,-0.0555616550173,2.13182203207,-0.402215612608,-0.648907551855,-0.340973365903,-0.00339363543765,-0.290303772326,-0.0522927902674,-0.0665332338789,-0.596427592241,0.573718506129,0.819025224309,0.00505020514845,0.0,0.819012988564,-0.573637315807,-0.0117771549171,0.0,-0.00674893075992,0.0108931650642,-0.999917892073,0.0,0.381790080243,-0.106638785753,0.304918616897,1.0,-0.16998,-0.223402285714,3.108
-0.148561618776,-0.440916329099,-0.133020576874,-2.57827147987,-0.0565366206675,2.13072434906,-0.412638411992,-0.6697565492,-0.345380541996,-0.012879880848,-0.267654600676,-0.0601300655981,-0.0636645933921,-0.603401207034,0.573870930857,0.818918116338,0.00510101474571,0.0,0.818906928335,-0.573790176293,-0.0117056915807,0.0,-0.00665921896012,0.0108950222035,-0.999918473324,0.0,0.378908258801,-0.110527101975,0.304965253827,1.0,-0.16998,-0.223402285714,3.125
-0.160287169992,-0.446981187417,-0.133083393527,-2.58313938593,-0.0575030648521,2.12961936474,-0.423807748066,-0.64931433712,-0.334046744425,-0.00569402304798,-0.276932047142,-0.0455153793697,-0.0616539226729,-0.627774408531,0.573711461881,0.819029410558,0.00517011106953,0.0,0.819020053358,-0.573632066976,-0.01153910028,0.0,-0.00648524586247,0.010854747722,-0.999920054823,0.0,0.375894288431,-0.114483872287,0.305028242979,1.0,-0.16998,-0.223402285714,3.143
-0.170261450481,-0.451836786035,-0.133244047907,-2.5872170372,-0.0582623437784,2.1285966366,-0.433199316365,-0.675555815511,-0.318526320086,-0.0117114885042,-0.270997107811,-0.0500021214971,-0.0730121427606,-0.633696407216,0.573774325823,0.818985326433,0.00517735594746,0.0,0.818974818339,-0.573692826404,-0.0117275214811,0.0,-0.00663458377796,0.0109692860707,-0.999917825154,0.0,0.373286546504,-0.117834380593,0.304974312627,1.0,-0.16998,-0.223402285714,3.158
-0.183659500452,-0.458086202273,-0.133347723816,-2.59229870751,-0.0592509302309,2.12730217798,-0.445871452591,-0.663083536358,-0.301205385195,-0.00188625485699,-0.245616412721,-0.0479798615708,-0.0567119911465,-0.64185182939,0.57375913012,0.818995790014,0.00520609687276,0.0,0.818985338555,-0.573677013391,-0.0117663265492,0.0,-0.00665008183704,0.0110149663677,-0.999917220037,0.0,0.369890130808,-0.122284475036,0.304973851336,1.0,-0.16998,-0.223402285714,3.178
-0.192365389828,-0.461962515793,-0.133409435632,-2.59543675651,-0.0598812417602,2.12655088987,-0.454201464105,-0.671571948813,-0.298832489232,-0.00302314911857,-0.245171656438,-0.0578309745439,-0.0568149431898,-0.638825650203,0.573678785541,0.819051882668,0.00523559159848,0.0,0.819042051797,-0.57359697957,-0.0117204657481,0.0,-0.00659667701607,0.0110121642598,-0.999917604651,0.0,0.367723655401,-0.1251611413,0.304978307495,1.0,-0.16998,-0.223402285714,3.191
-0.205420986977,-0.467523525554,-0.133600764781,-2.60000793579,-0.0608424429027,2.12533685057,-0.466448305049,-0.672357684997,-0.293927191128,0.000950912699365,-0.228940377995,-0.050823716639,-0.0544977088763,-0.646581923084,0.573816565988,0.818955526291,0.0052097462352,0.0,0.81894466992,-0.573733678675,-0.0118338694071,0.0,-0.00670253492046,0.0110571771014,-0.999916403936,0.0,0.36427787756,-0.129686586087,0.30493800579,1.0,-0.16998,-0.223402285714,3.211
-0.216258919244,-0.472171754085,-0.133677036197,-2.60356286909,-0.0615702398177,2.12435273999,-0.47684716581,-0.687373381573,-0.295558397549,-0.00476975920316,-0.215428350831,-0.05154052858,-0.0672243512295,-0.65750701056,0.573743398758,0.819006158985,0.00530761971213,0.0,0.818997383725,-0.573661547692,-0.0116816544801,0.0,-0.00652269520983,0.011049411538,-0.999917679088,0.0,0.361776673823,-0.132990994511,0.305009401287,1.0,-0.16998,-0.223402285714,3.226
-0.228795595826,-0.477179261636,-0.133868604413,-2.60742554806,-0.0624017936547,2.12329137677,-0.4887109998,-0.700977101804,-0.270701091725,-0.00718921462336,-0.212640019141,-0.0513688620755,-0.0582513655469,-0.65131848626,0.573870332378,0.818916548333,0.00541067314784,0.0,0.818909878379,-0.573789456227,-0.0115333394142,0.0,-0.00634037737245,0.0110497077536,-0.999918848494,0.0,0.358725563984,-0.137084356905,0.305068768527,1.0,-0.16998,-0.223402285714,3.244
-0.239082008824,-0.481108280284,-0.133899804988,-2.6106065071,-0.0630270375642,2.12238962096,-0.498683062558,-0.683928032964,-0.258096265934,-0.00707153248381,-0.208710243767,-0.0419954279796,-0.0543096756102,-0.666748704433,0.573712189335,0.819027348919,0.00541040030987,0.0,0.81902016999,-0.573630464601,-0.0116102597945,0.0,-0.00640567318538,0.0110923881098,-0.999917959773,0.0,0.356192330049,-0.140350684185,0.305038752213,1.0,-0.16998,-0.223402285714,3.259
-0.252473883103,-0.485888850524,-0.134043011188,-2.61445696371,-0.0638849340313,2.1212135602,-0.511413410706,-0.717075219196,-0.247635270776,-0.0114736016264,-0.19701336032,-0.0376416013657,-0.0584332259244,-0.673841393279,0.5737818759,0.818978804751,0.00536872040931,0.0,0.818970248058,-0.573698838585,-0.011752544552,0.0,-0.00654518224149,0.0111404338329,-0.999916522177,0.0,0.352918798183,-0.144624740103,0.304995465179,1.0,-0.16998,-0.223402285714,3.278
-0.262281812332,-0.489230114778,-0.134086970017,-2.61716296325,-0.0644456204531,2.12039353251,-0.520878424865,-0.692710233786,-0.241619252261,-0.000603365170186,-0.192668410375,-0.0375549700151,-0.0584305794223,-0.683030759673,0.573707461507,0.81903104031,0.0053526181052,0.0,0.819021570242,-0.573623302212,-0.0118626109604,0.0,-0.00664558807087,0.0111897935446,-0.999915308754,0.0,0.350540421505,-0.147708149605,0.304955899533,1.0,-0.16998,-0.223402285714,3.292
-0.275737747463,-0.493631486618,-0.134252547701,-2.62060147123,-0.0651510947916,2.11935894338,-0.533824529529,-0.715092736728,-0.235055371046,-0.00864486573367,-0.176421046738,-0.0319144562222,-0.056807422305,-0.683796467223,0.573753913906,0.818997832661,0.00545373952303,0.0,0.818989497879,-0.573669075994,-0.0118634107472,0.0,-0.00658759280865,0.0112734507909,-0.999914752831,0.0,0.34732227518,-0.151957058519,0.304957114806,1.0,-0.16998,-0.223402285714,3.311
-0.287155202294,-0.497211078705,-0.134329828745,-2.62333613447,-0.0657717744925,2.11847058704,-0.544816917166,-0.698822448918,-0.219511940514,-2.75732915052e-07,-0.174456289931,-0.0424000872016,-0.0473224259865,-0.693034407194,0.573740470588,0.819007084055,0.00547864751301,0.0,0.818999264609,-0.573655874329,-0.0118274814966,0.0,-0.00654405879646,0.0112731301266,-0.999915042307,0.0,0.344610014791,-0.155527306168,0.304979142811,1.0,-0.16998,-0.223402285714,3.327
-0.299250922918,-0.500814733258,-0.134394183204,-2.6260797215,-0.0663521931398,2.11755848431,-0.55654983163,-0.722557086926,-0.20588890374,-0.0046169676832,-0.158757576977,-0.0315897800825,-0.0567753156137,-0.696757397014,0.573682836498,0.819047049538,0.00553901189738,0.0,0.819040065603,-0.573598124353,-0.0118029478508,0.0,-0.00649012773298,0.0113080389847,-0.999914999636,0.0,0.341751588731,-0.159275415471,0.305000536869,1.0,-0.168737142857,-0.221768816327,3.344
-0.310148328236,-0.503760142767,-0.134480190826,-2.62834884389,-0.0669020342097,2.11682594196,-0.566904095087,-0.718006877118,-0.1886084916,0.000103507749537,-0.147785785271,-0.0419455498059,-0.0428511098024,-0.693685889265,0.573827354939,0.818945746666,0.00554776020099,0.0,0.818939008428,-0.57374281502,-0.0117825968864,0.0,-0.00646644454909,0.0113046712936,-0.999915191155,0.0,0.339207823818,-0.162662959171,0.305003181647,1.0,-0.166808571429,-0.219234122449,3.359
-0.3235854259,-0.507249172909,-0.134468433132,-2.63100140159,-0.0674615710234,2.11599281807,-0.579991118758,-0.718022993552,-0.178686112382,0.00394183610061,-0.140659494159,-0.0312020669948,-0.0440008177833,-0.686786045302,0.573717660437,0.819022216057,0.00560380300017,0.0,0.819016713,-0.573633842548,-0.011686976183,0.0,-0.00635748448583,0.0112948504077,-0.999916000845,0.0,0.336102645636,-0.16677186521,0.30502486889,1.0,-0.164365714286,-0.216023510204,3.378
-0.335048899066,-0.510044384523,-0.134506195816,-2.63310102839,-0.0679167115123,2.11527392137,-0.590954552373,-0.711773059934,-0.164228791732,0.00317127013167,-0.128794735316,-0.0343408822849,-0.0450748734012,-0.690569654797,0.573841175466,0.818935275475,0.00566275764553,0.0,0.818930759486,-0.573757535038,-0.0116382583065,0.0,-0.006282051353,0.0113161361171,-0.999916236939,0.0,0.333451678943,-0.170271927547,0.305045560233,1.0,-0.162308571429,-0.213319836735,3.394
-0.346833469907,-0.512693719066,-0.134450586705,-2.63515747868,-0.0683150211107,2.11454005156,-0.60251756081,-0.699553433659,-0.150064888469,0.0021112393714,-0.118824812549,-0.0255555809103,-0.0448743769098,-0.682820174573,0.573696947417,0.819036086015,0.00569642261563,0.0,0.81903157389,-0.573612441186,-0.0116959475666,0.0,-0.00631198575988,0.011375698414,-0.99991537258,0.0,0.330732293921,-0.173811878868,0.305030639216,1.0,-0.160122857143,-0.210447183674,3.411
-0.358137202267,-0.515002511182,-0.134478307585,-2.63696141711,-0.0686986518303,2.11386425672,-0.613325673691,-0.709219602978,-0.14267885822,-0.000766137112226,-0.108914551774,-0.0247280395723,-0.0413361094778,-0.668611482608,0.573856825337,0.818923818539,0.00573326643445,0.0,0.818919123584,-0.573770967547,-0.0117937580704,0.0,-0.00636873018244,0.0114632307916,-0.999914013111,0.0,0.328125668954,-0.177223259011,0.305005484566,1.0,-0.158065714286,-0.207743510204,3.427
-0.369109408455,-0.517044963375,-0.134396190902,-2.63858058649,-0.0690042542908,2.11329229932,-0.624038371859,-0.67850313546,-0.124352805811,0.00489501345421,-0.096413933873,-0.00798386350761,-0.0331116436054,-0.660075180757,0.573789030961,0.818971133772,0.00575993907784,0.0,0.818966291652,-0.573702199816,-0.0118636404692,0.0,-0.00641161280936,0.0115246446003,-0.999913033112,0.0,0.325631983212,-0.180492466046,0.304976222313,1.0,-0.156008571429,-0.205039836735,3.443
-0.381478090908,-0.519219079666,-0.13437252368,-2.640259419,-0.069388527693,2.11264415585,-0.635974404679,-0.691581284145,-0.122318490012,-0.00182063606027,-0.0923663555678,-0.0194681283355,-0.0311270717017,-0.656600965196,0.573867090915,0.818916319578,0.00577671138429,0.0,0.818911254869,-0.573779388948,-0.0119296424625,0.0,-0.00645494524876,0.0115768660749,-0.999912151068,0.0,0.322807580887,-0.184187511212,0.304958989504,1.0,-0.153694285714,-0.201998204082,3.461
-0.392943278401,-0.521082733272,-0.134268201297,-2.64164691285,-0.0696817800108,2.11210220311,-0.647155659512,-0.659739177232,-0.098296750425,0.010297971456,-0.0779106014241,-0.00787916626849,-0.0266000350995,-0.660133278732,0.573821149289,0.818948342658,0.00580065410268,0.0,0.818943662679,-0.573733495369,-0.0119122017616,0.0,-0.00642757208696,0.0115861052906,-0.999912220388,0.0,0.320224622758,-0.187582510249,0.304969870872,1.0,-0.151508571429,-0.19912555102,3.478
-0.403607406023,-0.522660654448,-0.13417890576,-2.64278668324,-0.0699498351167,2.11163194895,-0.65761828418,-0.668670030897,-0.0997013013689,0.00458190529059,-0.0682789247749,-0.0185127304935,-0.0295832269012,-0.659032938712,0.573743029366,0.819002957796,0.00581706761585,0.0,0.818998752414,-0.573655800238,-0.0118664779624,0.0,-0.0063818088412,0.0115727029445,-0.999912668718,0.0,0.317834433831,-0.19074189803,0.304993215523,1.0,-0.149451428571,-0.196421877551,3.494
-0.415007610496,-0.524171952668,-0.134149677519,-2.64387781565,-0.070214867988,2.11117470384,-0.668571804884,-0.660828275196,-0.0803562240925,0.00484105416488,-0.0636016946441,-0.0146261745569,-0.0264590052017,-0.63714441831,0.573912349312,0.818883989694,0.00586290306509,0.0,0.818880571423,-0.573825262585,-0.0118289757261,0.0,-0.0063223986715,0.0115900358052,-0.999912845375,0.0,0.315275364508,-0.194129509941,0.305013100874,1.0,-0.147265714286,-0.19354922449,3.511
-0.42599823317,-0.525424892129,-0.134030154462,-2.64483746572,-0.0704215195749,2.11080714197,-0.679455899096,-0.651857525177,-0.0697788013414,0.00298470088764,-0.0574883317241,-0.0175413439358,-0.0259753080826,-0.638523464918,0.573772125934,0.818982100269,0.00588335284472,0.0,0.818978940337,-0.57368497692,-0.0118232585323,0.0,-0.00630796741181,0.0116024216445,-0.999912792877,0.0,0.312826565194,-0.197358338499,0.305007454601,1.0,-0.14508,-0.190676571429,3.528
-0.436467040338,-0.526500458724,-0.134024118297,-2.64565998388,-0.0705984810691,2.11046207782,-0.689568683426,-0.652268606272,-0.0607776741575,-0.00200152278193,-0.0507547233307,-0.0190840004934,-0.0206715141958,-0.63723841044,0.573936961722,0.818866071161,0.00595553295557,0.0,0.818863593657,-0.573849033262,-0.0118511142078,0.0,-0.00628701954571,0.0116787864524,-0.999912035797,0.0,0.310469934791,-0.20044900001,0.304997843726,1.0,-0.143022857143,-0.187972897959,3.544
-0.447806109473,-0.527505755861,-0.13386907669,-2.64642703582,-0.0707472876154,2.11016818039,-0.700813689765,-0.622355519604,-0.0531851055405,0.0084681818608,-0.0379678690579,-0.00388783717547,-0.010580597731,-0.620869554575,0.573797171488,0.818963797409,0.00598760609045,0.0,0.818961844267,-0.573709349196,-0.0118248543807,0.0,-0.00624910236862,0.0116889139713,-0.999912155147,0.0,0.307955693926,-0.20375519555,0.30499558735,1.0,-0.140708571429,-0.184931265306,3.562
-0.458569005888,-0.528295322571,-0.13378140048,-2.64701809,-0.0709019879217,2.10989635946,-0.711251814056,-0.641111299139,-0.0431125897911,0.00678766933051,-0.0340663454765,-0.00291431440019,-0.0167950302044,-0.619588481821,0.573901422929,0.818890552743,0.00601384148882,0.0,0.818888918831,-0.573813438683,-0.0118246819335,0.0,-0.00623241725345,0.011711095417,-0.999911999738,0.0,0.305559842754,-0.206908901376,0.30499437799,1.0,-0.138522857143,-0.182058612245,3.579
