nelsonifechukwu/NELSON_IML_WORK/CNN-GradCAM/train2dof/data_sample_2022-02-21-15-26-17/robot_state.csv
position_joint1,position_joint2,position_joint3,position_joint4,position_joint5,position_joint6,position_joint7,velocity_joint1,velocity_joint2,velocity_joint3,velocity_joint4,velocity_joint5,velocity_joint6,velocity_joint7,ee_T_00,ee_T_10,ee_T_20,ee_T_30,ee_T_01,ee_T_11,ee_T_21,ee_T_31,ee_T_02,ee_T_12,ee_T_22,ee_T_32,ee_T_03,ee_T_13,ee_T_23,ee_T_33,v_x,v_y,time
0.465070266179,0.547859435012,-0.123925904946,-1.35585686655,0.0794734634492,1.89409279278,0.159165269921,0.000627681457584,0.000393286227861,-0.0011572119852,0.00050677734418,0.000163120430108,2.77951292859e-05,-0.0106171617527,0.573764127422,0.819006745926,0.00185016529001,0.0,0.818962176078,-0.573705862549,-0.011970143367,0.0,-0.00874234581092,0.0083834156628,-0.999926642175,0.0,0.661655969157,0.260915735629,0.303144794036,1.0,0.0,0.0,0.0
0.465069577328,0.547859479881,-0.123923151633,-1.35586007977,0.0794715306693,1.89409302825,0.159171622024,0.000350516229171,0.00221545511506,-0.000448693745188,2.23480705476e-05,-0.000306281262083,8.25870343293e-05,-0.000257577178664,0.573767634428,0.819004295716,0.00184720917716,0.0,0.818959688368,-0.573709382779,-0.0119716265435,0.0,-0.00874522070158,0.00838188307145,-0.999926629884,0.0,0.661654933457,0.260916193225,0.303143158783,1.0,-0.00016,-0.000210285714286,0.009
0.465066308113,0.547852171951,-0.123920705998,-1.35586600742,0.0794717884925,1.89409162013,0.159173916574,0.000723110109578,-6.51796397101e-06,0.000621696051558,-0.00154902677844,-0.000101444340405,-3.28819053089e-05,0.00169537728946,0.573770851361,0.819002039479,0.00184833958211,0.0,0.818957424146,-0.573712572695,-0.0119736489452,0.0,-0.00874619564061,0.00838400359033,-0.999926603579,0.0,0.661653764041,0.260914784136,0.303145311918,1.0,-0.00048,-0.000630857142857,0.025
0.465068026198,0.547834291436,-0.123923239911,-1.35587553188,0.0794727348082,1.89409504634,0.159170689424,0.000255844082147,-0.00287354513962,-0.000497526588428,-3.56422065946e-05,-7.33769342695e-06,-4.66742664706e-05,-0.00136131783516,0.573769335949,0.819003077129,0.00185894564971,0.0,0.818958599282,-0.573711011328,-0.0119680844267,0.0,-0.0087355685709,0.00838948090304,-0.999926650536,0.0,0.661652820074,0.260913947897,0.303153828673,1.0,-0.00082,-0.00107771428571,0.042
0.465068133942,0.547770774694,-0.123922874339,-1.35594186536,0.0794694439274,1.89410749901,0.159173947574,0.000198210053184,-0.00543466015805,0.000490290715245,-0.00539822396066,0.000203817356834,0.00112804985979,0.00128129361762,0.573774383497,0.818999519062,0.00186856089936,0.0,0.818955143218,-0.573715994775,-0.011965685817,0.0,-0.00872803569589,0.00839603321135,-0.99992666132,0.0,0.661641851376,0.260907506536,0.303168317046,1.0,-0.00114,-0.00149828571429,0.058
0.465056713096,0.547648172474,-0.12392313059,-1.35610841743,0.0794699953408,1.89413981622,0.159164723987,-0.00203324577203,-0.00800341568898,-0.000905768749601,-0.00777492378662,4.21337656444e-05,-0.000954337601997,-0.00146623316028,0.57378560318,0.818991664779,0.00186587971255,0.0,0.818947118058,-0.573727093849,-0.0119827588173,0.0,-0.00874344218584,0.00840375310727,-0.999926461872,0.0,0.661616358815,0.260883925083,0.303178715073,1.0,-0.00148,-0.00194514285714,0.075
0.465047181448,0.547497788865,-0.123921423262,-1.35633655681,0.0794672359367,1.89421962346,0.159156448511,-0.000630801957147,-0.0128697697159,0.000967604401646,-0.00922076839733,0.000259921840158,0.0119954711712,-0.00142339730912,0.573797443961,0.818983350305,0.0018740675884,0.0,0.818938793348,-0.573738785505,-0.0119918996883,0.0,-0.00874610931081,0.00841583006967,-0.999926336975,0.0,0.661586186982,0.260858475885,0.303183530156,1.0,-0.00184,-0.00241828571429,0.093
0.465027374248,0.54734292571,-0.123916054321,-1.35651510469,0.0794599934953,1.89432732662,0.159150046738,-0.000254919170787,-0.0116473961539,0.00143892373707,-0.0108131721752,-6.40590236552e-05,0.00660834939515,-0.000973953650452,0.573812971994,0.818972298207,0.00194803529461,0.0,0.818928706511,-0.573753998051,-0.0119528353605,0.0,-0.00867151496023,0.00845415677476,-0.999926663342,0.0,0.661575167049,0.260835478716,0.303217407712,1.0,-0.00214,-0.00281257142857,0.108
0.465009868165,0.547124024084,-0.12392392958,-1.3567774254,0.079457537817,1.89445939521,0.159132528265,-0.00259233568881,-0.00944695882262,-0.000768529793388,-0.0113275034701,4.91841458975e-05,0.00467928312181,0.000964530981087,0.573832654079,0.818958311904,0.00202863926765,0.0,0.818915740722,-0.573773313089,-0.0119139282113,0.0,-0.00859319690807,0.0084980492883,-0.999926967396,0.0,0.661553649679,0.260799665868,0.30325932956,1.0,-0.0025,-0.00328571428571,0.126
0.464971898128,0.546910669244,-0.123921426846,-1.35712262015,0.0794499039237,1.89458695016,0.159107550787,-0.00184580801142,-0.0151533225401,-0.00364210458215,-0.0237768456086,-0.000192129231356,0.00483837298611,-0.0021414023037,0.573858852466,0.818939945433,0.00203227005953,0.0,0.818897287823,-0.573799360996,-0.0119277918243,0.0,-0.00860219554311,0.00850925319811,-0.999926794741,0.0,0.661515287987,0.260745247256,0.30325712464,1.0,-0.00284,-0.00373257142857,0.143
0.46493201547,0.54665918567,-0.12392142393,-1.35749361958,0.0794385231535,1.89472393528,0.159005217232,-0.000944869866053,-0.0161972475308,0.000358084648381,-0.0255025554032,0.000276968454568,0.00894398311167,-0.00371211396771,0.573825419719,0.818963317422,0.00205409384026,0.0,0.81892083804,-0.573765737187,-0.0119284012367,0.0,-0.00859051977597,0.00852712426888,-0.999926742878,0.0,0.661475157064,0.260685593249,0.3032705239,1.0,-0.00316,-0.00415314285714,0.159
0.464893799065,0.546370359623,-0.123921857803,-1.35794411027,0.0794251134228,1.89488431532,0.158945091246,-0.00190565021245,-0.0186926789678,0.000773519480098,-0.0272838972213,0.00035248011497,0.00342288067217,-0.00323403509765,0.573829373682,0.818960530714,0.00206056640181,0.0,0.818918000867,-0.573769530078,-0.0119407332647,0.0,-0.00859686455179,0.00853954282166,-0.999926582369,0.0,0.661422182011,0.260619101025,0.303274560666,1.0,-0.0035,-0.0046,0.176
0.464856828707,0.546068342373,-0.123916240207,-1.35845158957,0.0793950919985,1.89506315369,0.158910070701,0.00200108398114,-0.0229044958564,0.00184503666024,-0.0303132400295,3.26534411016e-05,0.00415957540331,-0.00256992552456,0.573847419158,0.818947941,0.00203871489128,0.0,0.818905075687,-0.573787613797,-0.0119581841749,0.0,-0.00862350698468,0.00853185136351,-0.999926418613,0.0,0.661359327098,0.260548904315,0.303262168676,1.0,-0.00384,-0.00504685714286,0.193
0.464799755082,0.545746357405,-0.123921990357,-1.35900956057,0.0793072005686,1.89524774503,0.158824555696,-0.00128510950165,-0.019360385608,0.000594661219321,-0.0357514213104,-0.014013655908,0.00736757653927,-0.000127107655439,0.573835875394,0.818956213772,0.00196339926394,0.0,0.818912851749,-0.573776862908,-0.0119415130001,0.0,-0.00865318980371,0.00846048434686,-0.999926768574,0.0,0.661297585913,0.260444116502,0.303240630596,1.0,-0.00416,-0.00546742857143,0.209
0.464734991168,0.545336333294,-0.123923901225,-1.35971214852,0.0792810439785,1.89547358132,0.158742357845,-0.00200081421109,-0.0220918261878,0.00423154115723,-0.0399371855024,0.000112482893054,0.00798461020799,-0.00236773247908,0.573855036091,0.81894290249,0.00191491889632,0.0,0.818898713691,-0.573796036626,-0.0119896609496,0.0,-0.0087202427565,0.00844861460001,-0.999926286422,0.0,0.661210758059,0.260333257533,0.303216133493,1.0,-0.00452,-0.00594057142857,0.227
0.464664079897,0.544905867099,-0.12392240423,-1.36041701543,0.0792575121251,1.89571603758,0.158632522854,-0.00391879346685,-0.0231421490825,0.0011574085529,-0.0415404221765,-0.0046148821943,0.0134703290377,-0.0114474770278,0.573855088683,0.818942903534,0.00189864308601,0.0,0.818898284281,-0.573795948166,-0.0120231764185,0.0,-0.00875702989605,0.00845451931118,-0.999925915021,0.0,0.66112785029,0.260221870444,0.303206318084,1.0,-0.00486,-0.00638742857143,0.244
0.464602917457,0.544512797369,-0.123930279606,-1.36105247093,0.0792334201448,1.89595755755,0.158577092222,-0.0034720942796,-0.0242991320084,-0.00420204662577,-0.0467350313596,-0.000448659842901,0.00864501928705,-0.00163116947664,0.573894385685,0.818915356567,0.00190256623533,0.0,0.818870702668,-0.573835140416,-0.0120312441955,0.0,-0.00876097994351,0.00846278218139,-0.999925810522,0.0,0.661059300831,0.260119102515,0.303203258505,1.0,-0.00516,-0.00678171428571,0.259
0.464532479141,0.543980275269,-0.123928233712,-1.36190694107,0.0791893310087,1.89626171547,0.158463687776,-0.00608778304553,-0.0325196962302,0.000203405493324,-0.0534805701979,-0.000297906845101,0.0243146578006,-0.0106837865887,0.57389357676,0.81891594843,0.00189178782222,0.0,0.818871047395,-0.573834275695,-0.0120490114543,0.0,-0.00878172402342,0.00846414351636,-0.999925617032,0.0,0.660957690779,0.259992801952,0.303199677337,1.0,-0.00552,-0.00725485714286,0.277
0.464444287697,0.543429325022,-0.123935990269,-1.36279983123,0.0791358180509,1.89656854011,0.158348312389,-0.00586198970263,-0.0349035366476,-0.00457855812521,-0.0520766309308,-0.00772705350289,0.0192374448004,-0.00758721415333,0.573912059299,0.818903068,0.00186019148082,0.0,0.818857747502,-0.573852887551,-0.0120664703037,0.0,-0.00881396299505,0.00844848768593,-0.999925465778,0.0,0.660855505964,0.259843431587,0.303191323601,1.0,-0.00588,-0.007728,0.295
0.464371971179,0.542904621097,-0.123931687108,-1.36363164525,0.079086887612,1.89686412784,0.15824524096,-0.00272205623918,-0.0352794616787,-0.000291449636191,-0.0545148392359,-0.00405202733613,0.0253459501001,-0.0160517111975,0.573916999841,0.818899624024,0.00185201725015,0.0,0.818854136946,-0.573857806179,-0.0120775657856,0.0,-0.00882768948513,0.00844821496233,-0.999925346995,0.0,0.660757181402,0.259718435974,0.303192039415,1.0,-0.0062,-0.00814857142857,0.311
0.464297647022,0.54230406762,-0.123934703605,-1.3645570281,0.0790389968575,1.89720036543,0.158108898438,-0.0111043612242,-0.0404243485541,-1.10760636082e-05,-0.0532292647931,-0.00366074376638,0.016695249127,-0.00137064970941,0.573906913685,0.818906661672,0.001865688669,0.0,0.818861276528,-0.573847587563,-0.012079029412,0.0,-0.00882114654455,0.00846014157917,-0.999925303899,0.0,0.660649412758,0.259580698925,0.303205571337,1.0,-0.00654,-0.00859542857143,0.328
0.464205786768,0.541709637867,-0.12393487599,-1.36545388933,0.0789803123685,1.89753971892,0.158006692198,-0.00964541516759,-0.0363529442663,-0.000324512004598,-0.0580751110386,-0.000183749298188,0.0177218376008,-0.0045744734044,0.573932693912,0.818888528066,0.00189429716403,0.0,0.818843567216,-0.57387328778,-0.0120585613758,0.0,-0.00878770022455,0.00847209877644,-0.999925497158,0.0,0.660553042148,0.259434807121,0.303228420755,1.0,-0.00686,-0.009016,0.344
0.464136908732,0.541111404414,-0.123940240282,-1.36641579227,0.0789234994334,1.8979027447,0.157881394037,-0.0035567847247,-0.0295427669708,-0.000437330687014,-0.0594423675326,-0.00567395997536,0.024021251448,-0.00273113850765,0.573928496746,0.818891475132,0.00189195140128,0.0,0.818846497385,-0.57386911462,-0.0120581883395,0.0,-0.00878878437255,0.00846991875753,-0.999925506098,0.0,0.660441445573,0.259295324621,0.303225164264,1.0,-0.00718,-0.00943657142857,0.36
0.464035663701,0.540402000542,-0.12393806237,-1.36748793132,0.0788675141519,1.89829030443,0.157737070426,-0.0101961154252,-0.0416960697088,-0.000309377477403,-0.0634803994746,-0.00120611436158,0.0223143415918,-0.0102018649923,0.573936015196,0.81888614246,0.00191912688257,0.0,0.818841407169,-0.573876405092,-0.0120568854105,0.0,-0.00877204363659,0.00849150481299,-0.999925470021,0.0,0.660318662977,0.259129028388,0.303249808803,1.0,-0.00752,-0.00988342857143,0.377
0.463940605033,0.539615959024,-0.123938728366,-1.36870600277,0.0787911248098,1.8987519465,0.157583750251,-0.00387983949942,-0.0392044254556,-0.00099231376017,-0.0654298931064,-0.00682766785587,0.0225344708406,-0.00446872970139,0.573935785218,0.818886250203,0.00194179703671,0.0,0.818841845094,-0.573876110012,-0.0120411785616,0.0,-0.00874617302144,0.00850105161265,-0.999925615523,0.0,0.660178909349,0.258950588903,0.303265531917,1.0,-0.00788,-0.0103565714286,0.395
0.463845376704,0.538908670193,-0.123946748684,-1.36980768062,0.0787295397116,1.89917138114,0.157450459952,-0.00750741108723,-0.0459110706909,-0.000302812909077,-0.070312211928,-0.00102691504168,0.0224313541577,-0.00921092461277,0.57395471348,0.818872933198,0.00196291898994,0.0,0.81882880651,-0.57389494755,-0.0120300335803,0.0,-0.00872472757163,0.00851215297585,-0.999925708431,0.0,0.660056247608,0.25878009132,0.30327748462,1.0,-0.0082,-0.0107771428571,0.411
0.463736647938,0.538130928556,-0.123944481222,-1.3710314859,0.0786585443464,1.89963825813,0.157301858906,-0.00390960770838,-0.0441166844807,-0.000266928518706,-0.0762551136204,-0.00272955362812,0.0340123727121,-0.012156955597,0.573969090007,0.818862811698,0.00198147316327,0.0,0.818818896857,-0.573909213115,-0.0120239823786,0.0,-0.00870897398911,0.00852402600769,-0.999925744619,0.0,0.659918061849,0.258594788024,0.30328472741,1.0,-0.00854,-0.011224,0.428
0.463639878779,0.537325266254,-0.123947923987,-1.37229476768,0.0785928321328,1.90010764176,0.157152083663,-0.00378222826554,-0.0541095659618,4.65484921647e-05,-0.0747971318583,-0.00134710860811,0.0321679636261,-0.0122173488284,0.57398012996,0.818855038741,0.00199570569715,0.0,0.81881121978,-0.573920102753,-0.0120270079059,0.0,-0.00870316796888,0.00853753415104,-0.999925679927,0.0,0.659769616832,0.258410781528,0.303293174919,1.0,-0.00888,-0.0116708571429,0.445
0.463532869506,0.536528885987,-0.123960516673,-1.37352942938,0.078521196641,1.90058147176,0.156993166771,-0.00531863997836,-0.0483496620856,-0.00260152289306,-0.0815673528115,-0.00319986813576,0.0258512535919,-0.00478168143572,0.573995313642,0.818844327158,0.00202353619064,0.0,0.81880092069,-0.573935214604,-0.0120070236421,0.0,-0.00867067145487,0.00854901319231,-0.999925864167,0.0,0.65963325154,0.258217339648,0.303309217055,1.0,-0.0092,-0.0120914285714,0.461
0.463417133185,0.535660036957,-0.123964363793,-1.37490212125,0.0784372085512,1.90107662856,0.15682011272,-0.0100125222744,-0.0536694963894,-0.00288655403872,-0.0816248789147,-0.00337931082389,0.0256382447476,-0.00949094907824,0.574003887528,0.818838339568,0.00201436273027,0.0,0.818794807023,-0.573943820036,-0.012012590741,0.0,-0.00868040594066,0.00854478804128,-0.999925815823,0.0,0.659471648664,0.258007255343,0.303312115621,1.0,-0.00954,-0.0125382857143,0.478
0.463298548579,0.534765615233,-0.123954891222,-1.37634861236,0.0783651757061,1.90159686568,0.156643310885,-0.00608719636468,-0.0490252098567,-0.000144938845292,-0.0855500656884,-0.00537189231966,0.0299985833865,-0.0101510328206,0.574009527314,0.818834428104,0.00199719929277,0.0,0.818790439673,-0.573949304661,-0.0120481732744,0.0,-0.00871933580175,0.00855121857076,-0.999925422141,0.0,0.659295258396,0.257798247488,0.303299540396,1.0,-0.00988,-0.0129851428571,0.495
0.463183273803,0.533905165078,-0.12396010674,-1.37775250541,0.0782819778138,1.90210925037,0.15647867101,-0.00806688224701,-0.0569170087108,0.0007273446353,-0.0892566860396,-0.00604804398391,0.0306564890208,-0.00640392232092,0.574027318776,0.818822024206,0.0019689781727,0.0,0.818777645546,-0.573967194532,-0.0120653908252,0.0,-0.00874944731447,0.00853818364427,-0.999925270504,0.0,0.65912907975,0.257585187275,0.303282882355,1.0,-0.0102,-0.0134057142857,0.511
0.463040757444,0.532930412476,-0.123960092799,-1.37935232937,0.0781854122955,1.90272350204,0.156271013784,-0.00874287468615,-0.0555787990279,-0.00122998312886,-0.0898887314696,-0.00607551631835,0.0400039293468,-0.0136131078547,0.574035699051,0.818816177888,0.00195702448786,0.0,0.818771646376,-0.573975628864,-0.0120712659587,0.0,-0.00876103217048,0.00853185801967,-0.999925223061,0.0,0.658946807304,0.257340215093,0.30326206431,1.0,-0.01056,-0.0138788571429,0.529
0.462908485135,0.531949785344,-0.123967944191,-1.3809109032,0.0781063868511,1.90328843403,0.156074362164,-0.0107460638149,-0.0617914993282,-0.0023158165633,-0.0968875763628,-0.0040506785212,0.0354799985755,-0.0135789421652,0.574052284258,0.818804562597,0.00195195009986,0.0,0.818759824594,-0.573992097675,-0.0120900098471,0.0,-0.00877912031755,0.0085386404861,-0.999925006521,0.0,0.658762213679,0.257101918603,0.303260795916,1.0,-0.0109,-0.0143257142857,0.546
0.462780539635,0.530997247712,-0.123961181784,-1.3824366851,0.0780077163031,1.90383527905,0.155871720942,-0.00667357125722,-0.06024766506,-0.000491839831616,-0.0943178845072,-0.0105549787378,0.0375015968572,-0.0113866084664,0.574042779795,0.81881128438,0.00192728777942,0.0,0.818766196728,-0.573982676169,-0.012105761206,0.0,-0.0088062736322,0.00852738707803,-0.999924863784,0.0,0.658577134912,0.256874129196,0.303253048906,1.0,-0.01122,-0.0147462857143,0.562
0.462636653563,0.529956868902,-0.123963656084,-1.38407720137,0.077905061335,1.90441184338,0.155661525996,-0.0131769307381,-0.0624207628495,0.00117240258598,-0.10058909037,-0.00632137541795,0.0316958068079,-0.0136490392476,0.574051535806,0.81880519721,0.00190529818604,0.0,0.818759796604,-0.573991503659,-0.0121200698561,0.0,-0.00883052123293,0.0085176902622,-0.999924732591,0.0,0.658379495038,0.256619415043,0.303255237157,1.0,-0.01156,-0.0151931428571,0.579
0.462485847323,0.528835310903,-0.12396440481,-1.38584383492,0.0777941908694,1.9050875494,0.155408049487,-0.01245763699,-0.0626015879584,0.000242037768328,-0.100116264542,-0.00448964559643,0.0389672846688,-0.0147089917406,0.574034094957,0.818817372202,0.00192761719175,0.0,0.818772308673,-0.573974010166,-0.0121032683462,0.0,-0.00880413371953,0.00852613242392,-0.999924893327,0.0,0.658175638694,0.256352650899,0.303262862118,1.0,-0.01192,-0.0156662857143,0.597
0.462367760168,0.527856842489,-0.123971597167,-1.38733845873,0.0777007830321,1.90568061984,0.155208934118,-0.00506640185356,-0.0656898065761,-2.95134406315e-05,-0.099600880552,-0.00788018949253,0.0347805302861,-0.0147659124719,0.574028779601,0.818820953454,0.00198828484122,0.0,0.818776788576,-0.573968534114,-0.0120598191082,0.0,-0.00873378779744,0.00855080935155,-0.999925299515,0.0,0.658006850501,0.2561313163,0.303291976585,1.0,-0.01222,-0.0160605714286,0.612
0.462215196067,0.526604083829,-0.123970838979,-1.3892336978,0.0775704657519,1.9064037467,0.154945427468,-0.00839295167695,-0.0703507834894,0.000853918147849,-0.105554698736,-0.00677830515708,0.0382685340442,-0.00819240919893,0.574004623834,0.818837738989,0.00204839588658,0.0,0.818794508206,-0.57394427153,-0.0120113867047,0.0,-0.00865987837598,0.00857197184675,-0.999925761147,0.0,0.657785928413,0.255850880266,0.303334182855,1.0,-0.01258,-0.0165337142857,0.63
0.46206663175,0.525426460496,-0.12397825469,-1.39106550179,0.0774640139877,1.90706472684,0.154693183025,-0.0116180248878,-0.0702198596306,-0.00184835480043,-0.11415514564,-0.0056647330572,0.0400386905658,-0.0138966749223,0.573994844285,0.81884457657,0.0020554944239,0.0,0.81880138189,-0.57393440721,-0.0120141640234,0.0,-0.00865818077566,0.00857927506019,-0.999925713213,0.0,0.657564413056,0.255574536672,0.303348314264,1.0,-0.01292,-0.0169805714286,0.647
0.461917924211,0.52430902098,-0.123979233906,-1.39282159753,0.0773447203916,1.90768741675,0.154457058429,-0.00699115407881,-0.070382424655,-0.000684912571983,-0.112993435655,-0.00917332761697,0.0337436687597,-0.0183598965087,0.573985911803,0.818850888609,0.00203523423202,0.0,0.818807482448,-0.573925614028,-0.0120184504726,0.0,-0.00867341278293,0.00856505117444,-0.999925703145,0.0,0.657350159124,0.255305431352,0.303352300262,1.0,-0.01324,-0.0174011428571,0.663
0.461757882286,0.523120598965,-0.12398212946,-1.39475144152,0.0772342158223,1.90841808639,0.154196142827,-0.0079732719597,-0.067092874282,-0.000295003142538,-0.116141066235,-0.00601052797468,0.0461574541725,-0.0182972630529,0.573979258471,0.818855573636,0.00202664060481,0.0,0.818811995644,-0.573918939212,-0.0120297092645,0.0,-0.00868763431823,0.00856440613267,-0.99992558521,0.0,0.657120733212,0.255016796787,0.303332700973,1.0,-0.01358,-0.017848,0.68
0.461589665843,0.521857755374,-0.123980346269,-1.39670848026,0.0771151202539,1.90918536927,0.153924135083,-0.0143059279865,-0.0769482496963,6.0517370699e-05,-0.116625888531,-0.00149655310155,0.051435904665,-0.0172732965621,0.573966170254,0.81886459926,0.00208575728959,0.0,0.81882180719,-0.573905617055,-0.011997403226,0.0,-0.00862738706446,0.00859413259954,-0.99992585179,0.0,0.656881626314,0.254708305053,0.303351850354,1.0,-0.01394,-0.0183211428571,0.698
0.461429510694,0.520681998367,-0.123985361268,-1.39861447376,0.076997543774,1.90988268881,0.153676711613,-0.0120265959094,-0.0726206995206,0.000309839989338,-0.122905301517,-0.00809708565183,0.0453948572828,-0.017323496998,0.573967851449,0.818863496978,0.00205565584653,0.0,0.818820318531,-0.573907431087,-0.0120122189825,0.0,-0.0086567781462,0.00857800544875,-0.99992573625,0.0,0.656663829935,0.254433825181,0.303334451843,1.0,-0.01424,-0.0187154285714,0.713
0.461251152771,0.519278616601,-0.123996463336,-1.40080201381,0.076860923236,1.91066050326,0.153366634782,-0.0118459452629,-0.0822205837188,-0.00109623361751,-0.116945623288,-0.00678636908236,0.0400496261163,-0.0222375434271,0.573947111927,0.81887805564,0.00204685185648,0.0,0.818834766005,-0.573886735091,-0.0120161628082,0.0,-0.00866527774097,0.00857284045492,-0.999925706924,0.0,0.656394552865,0.254099787618,0.30334640969,1.0,-0.0146,-0.0191885714286,0.731
0.461077254563,0.517926725431,-0.123997429218,-1.40292347255,0.0767194519475,1.9114223449,0.15309284223,-0.00636195841012,-0.0783322980254,-0.000534173213695,-0.126842162005,-0.0123157945783,0.0477468291991,-0.0196093526335,0.573940076946,0.818883019656,0.00203349354488,0.0,0.818839603138,-0.573879804523,-0.0120175369514,0.0,-0.00867414307369,0.00856261598675,-0.999925717666,0.0,0.656132377827,0.253779948336,0.303351530211,1.0,-0.01494,-0.0196354285714,0.748
0.460918938695,0.516744623177,-0.124000701854,-1.40480212743,0.0765987686503,1.91211374456,0.152827930891,-0.00676872853245,-0.074168788085,0.00157445738432,-0.122150143016,-0.00788014742733,0.0491381849306,-0.023359732118,0.573921860307,0.818895810003,0.00202423365662,0.0,0.818852303878,-0.573861660315,-0.0120185754021,0.0,-0.0086804980784,0.00855543626498,-0.999925723973,0.0,0.655903903334,0.253494175422,0.303346713439,1.0,-0.01524,-0.0200297142857,0.763
0.460719399564,0.515282741797,-0.124003447366,-1.4071134901,0.0764580936017,1.91298363663,0.152522052548,-0.0144845508306,-0.0831305610757,-0.000236436592257,-0.123668283341,-0.0103812115359,0.0483073111627,-0.0158979630064,0.573920796325,0.818896518089,0.00203938926554,0.0,0.818853202431,-0.57386052496,-0.0120115636419,0.0,-0.00866606949734,0.00856381148149,-0.999925777432,0.0,0.655626504282,0.253142901543,0.303347254106,1.0,-0.0156,-0.0205028571429,0.781
0.460527353609,0.513883103713,-0.124007806908,-1.40937177056,0.0763213854177,1.91377492072,0.15220493218,-0.00967147902122,-0.0877581579054,-0.00117889024992,-0.138400073547,-0.00791499337835,0.0473978359208,-0.0177354554365,0.57390308581,0.818909070939,0.0019820529783,0.0,0.81886490257,-0.573842959264,-0.0120530636213,0.0,-0.00873314412564,0.00854048845553,-0.999925393342,0.0,0.65534169314,0.252796518866,0.303322227677,1.0,-0.01594,-0.0209497142857,0.798
0.460344412043,0.512564951769,-0.124010782488,-1.41150303178,0.0761977411442,1.91452415008,0.151910130517,-0.0119501797096,-0.0804976836987,-0.000565715907452,-0.130224322842,-0.0110360938095,0.0492083751504,-0.0189468193202,0.573891812954,0.818917093542,0.00193075904673,0.0,0.81887210285,-0.573831763049,-0.0120968504602,0.0,-0.00879855615157,0.00852349226599,-0.999924964929,0.0,0.655072385857,0.252470221842,0.303296463182,1.0,-0.01626,-0.0213702857143,0.814
0.460152708766,0.511119476846,-0.12401430781,-1.41380212596,0.0760510304357,1.91539736513,0.151586580654,-0.0118351151508,-0.0908416723212,-0.00126198481777,-0.137255605038,-0.0100895584238,0.0404933722442,-0.0151025063744,0.573867031076,0.818934435429,0.00194113725527,0.0,0.818889642133,-0.573806998689,-0.0120842527448,0.0,-0.00878254164779,0.00852449556067,-0.999925097164,0.0,0.654793982587,0.252124326038,0.303290294286,1.0,-0.0166,-0.0218171428571,0.831
0.459944986953,0.509634151849,-0.124017297891,-1.41616078143,0.0759018426917,1.91628453895,0.151255658226,-0.0141038937381,-0.0907298712295,-0.00120073078357,-0.140928782001,-0.0138457109834,0.0501661336001,-0.0201646843158,0.573850940064,0.818945695022,0.0019478432211,0.0,0.81890102364,-0.573790913721,-0.0120767426752,0.0,-0.00877271058397,0.0085255050871,-0.999925174857,0.0,0.654508318518,0.251762338709,0.303284384051,1.0,-0.01694,-0.022264,0.848
0.459777038638,0.508394916936,-0.124020485044,-1.41809964173,0.0757794299621,1.91697071586,0.150988921897,-0.0158963379264,-0.0868186105785,0.000254178910581,-0.132858865339,-0.011796909476,0.0543881250498,-0.0146934267298,0.573839689395,0.818953609814,0.00193461878764,0.0,0.818908731801,-0.57377968943,-0.012087343735,0.0,-0.00878909803506,0.00852063784108,-0.999925072436,0.0,0.654264081704,0.251463657152,0.303288184607,1.0,-0.01722,-0.022632,0.862
0.459535888676,0.506680190089,-0.124023670062,-1.42080468495,0.0756184719086,1.91795883345,0.150604018471,-0.0110873452204,-0.0847989255552,0.000308144496904,-0.146099925695,-0.00093000744865,0.0552591088165,-0.0233880315752,0.573820805174,0.818966842024,0.00193445496747,0.0,0.818921859907,-0.573760709477,-0.0120988647595,0.0,-0.0087988242142,0.00852691194733,-0.999924933415,0.0,0.653928924876,0.251046731204,0.303285637135,1.0,-0.0176,-0.0231314285714,0.881
0.45930196424,0.504974703211,-0.124034709277,-1.42341189911,0.0754522341689,1.91897083848,0.150261045229,-0.0131708120655,-0.0914116354404,-0.00370337007847,-0.146840780916,-0.00900011706489,0.0622046802569,-0.0161942565299,0.573829151533,0.818960786562,0.00202035278072,0.0,0.818917073749,-0.573768826068,-0.0120377512931,0.0,-0.00869939831459,0.00856227884843,-0.99992550115,0.0,0.653620793086,0.250642235588,0.303324740426,1.0,-0.01796,-0.0236045714286,0.899
0.459084980251,0.50340426673,-0.12403395062,-1.42574360575,0.0752990223345,1.91984183793,0.149925539004,-0.0146271570886,-0.0956140053744,0.000957256058439,-0.143717926169,-0.0120762204098,0.0564724968972,-0.0241657136081,0.573809761302,0.818974147185,0.00210973423451,0.0,0.818931675638,-0.57374913535,-0.0119827885955,0.0,-0.00860330151828,0.00860373490411,-0.999925976735,0.0,0.653338388398,0.250279317462,0.303387310677,1.0,-0.01828,-0.0240251428571,0.915
0.458859549052,0.501699247001,-0.124042821561,-1.42827152334,0.0751344115727,1.92076683731,0.149574819738,-0.0137255135044,-0.0987303751498,0.000431334007194,-0.151569540443,-0.00625092165592,0.0540435909406,-0.0167613872537,0.573798136297,0.818982076741,0.00219172536543,0.0,0.818940757227,-0.57373725847,-0.0119306872134,0.0,-0.00851370840373,0.00864086568162,-0.999926423398,0.0,0.653026995267,0.24988568711,0.303454825532,1.0,-0.01862,-0.024472,0.932
0.458619860547,0.499986967485,-0.124046471543,-1.43087838913,0.0749741086511,1.92167531774,0.149206754141,-0.0158516216058,-0.0960074737941,0.0011595527381,-0.155836595703,-0.00868156658926,0.0503920311914,-0.0237906778964,0.573784862371,0.818991338106,0.00220606477769,0.0,0.818950099424,-0.573723820292,-0.0119356434212,0.0,-0.00850968050233,0.0086553151284,-0.999926332715,0.0,0.652694457979,0.249476271909,0.303487646886,1.0,-0.01896,-0.0249188571429,0.949
0.458381593177,0.498407747226,-0.12404677405,-1.43334754384,0.0748205541675,1.92260493781,0.148853867517,-0.0167467932593,-0.0906077603924,0.00350050359255,-0.154537337968,-0.0132037177165,0.0511536962976,-0.0233697670797,0.573775343677,0.818997920766,0.00223778262695,0.0,0.818957089707,-0.573714168855,-0.0119199234155,0.0,-0.00847870813446,0.00867217306808,-0.999926449757,0.0,0.652393290328,0.249086848405,0.303494392062,1.0,-0.01928,-0.0253394285714,0.965
0.458121725708,0.496734845896,-0.124041772884,-1.43601357656,0.0746545495062,1.92355561857,0.148447551973,-0.0148574075804,-0.09697284955,0.00275463388627,-0.157961651239,-0.00414622143351,0.0462351894049,-0.0295229400697,0.573741788278,0.819021523461,0.00220258779955,0.0,0.818980110485,-0.573680634685,-0.0119521930726,0.0,-0.00852568555809,0.00866151498775,-0.999926142694,0.0,0.652054889042,0.24866396835,0.303473859366,1.0,-0.01962,-0.0257862857143,0.982
0.457832360827,0.494947861685,-0.124052097998,-1.43891464089,0.0744726070605,1.92455722765,0.148040300327,-0.0185105483192,-0.10101848907,-0.000184191701919,-0.16849210737,-0.00535976273434,0.0646950744619,-0.0211704865531,0.573749451644,0.819016414354,0.00210396229821,0.0,0.818973604862,-0.573688595078,-0.0120157112924,0.0,-0.00863421183899,0.00861726326201,-0.999925593812,0.0,0.651683010603,0.248187626043,0.303425241276,1.0,-0.01998,-0.0262594285714,1.0
0.457573615332,0.493248204802,-0.124082702617,-1.44162294344,0.0743018852128,1.92555255821,0.147650343057,-0.0147633495437,-0.111878844625,-0.000199844049206,-0.183966187157,-0.00603663047728,0.0626459539697,-0.0180545026528,0.57375394647,0.819013319516,0.00208285064783,0.0,0.818970335294,-0.573693278726,-0.0120149387899,0.0,-0.0086456439403,0.00859957700923,-0.999925647294,0.0,0.651349331139,0.247742461464,0.303406878689,1.0,-0.0241285714286,-0.0317118367347,1.016
0.457267968999,0.491029227439,-0.124112244792,-1.44509770141,0.0740983365945,1.92684268983,0.147144441307,-0.0233744903105,-0.134980916374,0.00106633444765,-0.219379124329,-0.0119974011358,0.0836308889928,-0.0343537975987,0.573730336726,0.819029786747,0.00211093408282,0.0,0.818987138692,-0.573669523663,-0.0120037984932,0.0,-0.00862065594459,0.00861593709943,-0.999925722201,0.0,0.650913469639,0.247198152539,0.303409775641,1.0,-0.0288302857143,-0.0378912326531,1.033
0.456865338087,0.488477137438,-0.124123544545,-1.44923294951,0.0738538605946,1.92832759879,0.146548201821,-0.0248672732958,-0.156637607212,-0.00128918433128,-0.254375685791,-0.01494284351,0.0940388019863,-0.0380893841927,0.573719712805,0.819037432078,0.00203049141591,0.0,0.818993499505,-0.573659010897,-0.012072029135,0.0,-0.00872280198641,0.00858908572527,-0.999925067359,0.0,0.650383933344,0.246534516294,0.303345219739,1.0,-0.033532,-0.0440706285714,1.05
0.456442992949,0.485782528408,-0.124173811707,-1.45334672918,0.073600116653,1.92990636833,0.145941378361,-0.0336959381822,-0.184004477199,0.000340374300958,-0.280356736169,-0.0181582901098,0.107327989894,-0.0497140687488,0.573727747464,0.819031485055,0.00215526810891,0.0,0.818989396965,-0.573666731504,-0.0119831434369,0.0,-0.00857833131262,0.00864036997427,-0.999925875372,0.0,0.649854580505,0.24580438883,0.303393867628,1.0,-0.0379571428571,-0.0498865306122,1.066
0.455838297391,0.482002514803,-0.124222446037,-1.45925534072,0.0732512650044,1.93197180743,0.145034583911,-0.0340681113855,-0.210762082116,0.000620080430474,-0.321482533006,-0.0182162574464,0.113267677009,-0.0506584640633,0.573723425158,0.819034641943,0.00210561704159,0.0,0.818991665952,-0.573662377208,-0.0120364022269,0.0,-0.00865048365926,0.00863021487935,-0.999925341475,0.0,0.649133902602,0.244857443292,0.303388506056,1.0,-0.0429354285714,-0.0564294204082,1.084
0.45526101087,0.478395652005,-0.124293773308,-1.46486814717,0.0729061999113,1.93397661156,0.144214021104,-0.0368195115619,-0.234488877583,-0.00831690886059,-0.359443603188,-0.0184921677552,0.1289110727,-0.0535708508708,0.573755571342,0.819012150881,0.00209474671332,0.0,0.81896908032,-0.573694612586,-0.0120367716069,0.0,-0.00865668396722,0.00862186355731,-0.99992535986,0.0,0.648422788716,0.243904634087,0.303392649663,1.0,-0.0473605714286,-0.062245322449,1.1
0.454610063161,0.474430191278,-0.124340008386,-1.47091891333,0.0725436624685,1.9362185847,0.143350344817,-0.0382801887878,-0.247873816388,-0.00227741968319,-0.386867263196,-0.0156988550631,0.146496274437,-0.0525267326927,0.573809303084,0.818974155887,0.00222768569794,0.0,0.818932793916,-0.573747757174,-0.0119723467867,0.0,-0.00852707710342,0.00869433623146,-0.999925845987,0.0,0.64766782091,0.242885492544,0.303452941112,1.0,-0.0517857142857,-0.0680612244898,1.116
0.453759435484,0.469300226425,-0.124383774523,-1.47873690563,0.0720702224016,1.93903255002,0.142137237446,-0.0483383443248,-0.286018382059,-0.00570870050359,-0.421295560997,-0.0241575563485,0.16270737732,-0.0759509902113,0.573786234315,0.818989977044,0.00234983270266,0.0,0.818950030526,-0.573724015502,-0.0119309864848,0.0,-0.00842336506923,0.00877040022772,-0.999926060767,0.0,0.646612196344,0.241490693126,0.303525592201,1.0,-0.0573171428571,-0.0753311020408,1.136
0.452979204745,0.464600588863,-0.124407839582,-1.48585553697,0.0715984424895,1.94162203577,0.14099655388,-0.051822690415,-0.296572326835,-0.00374744227954,-0.458030628234,-0.0311772525279,0.157373843768,-0.0696644972377,0.573719035219,0.819036687984,0.00247371466906,0.0,0.818998444004,-0.57365643437,-0.0118571044578,0.0,-0.00829250088381,0.00882878497635,-0.999926640802,0.0,0.645749190356,0.240369482265,0.303600961865,1.0,-0.0614657142857,-0.0807835102041,1.151
0.452165678336,0.459938079977,-0.124432971635,-1.49311443654,0.0711369996909,1.94408947369,0.139930091632,-0.0554124615498,-0.317435826903,-0.00338048374271,-0.485105623799,-0.0352012781012,0.167914987049,-0.0686850654016,0.573742698947,0.819020425885,0.00236733827065,0.0,0.818980417737,-0.573680113661,-0.0119561471067,0.0,-0.00843439619532,0.00879872519853,-0.999925718939,0.0,0.644771014358,0.239128012139,0.30357228092,1.0,-0.0656142857143,-0.0862359183673,1.166
0.451125102019,0.45400672872,-0.124478863072,-1.50229958775,0.0705103191797,1.94731912242,0.13851778631,-0.0619360720222,-0.335241455718,-0.000225669991267,-0.523028643589,-0.0305950531797,0.18783719134,-0.0933419604923,0.573722697292,0.819034568487,0.00232145139663,0.0,0.818994065903,-0.573660407425,-0.0119667819179,0.0,-0.0084696463772,0.00876703811059,-0.999925699306,0.0,0.643550144191,0.237544501022,0.303559908303,1.0,-0.0705925714286,-0.0927788081633,1.184
0.450066575336,0.447900637815,-0.124517696631,-1.51129535567,0.0699079016109,1.95074249836,0.137082108185,-0.0659283714073,-0.355131191444,-0.000569273703731,-0.549670851531,-0.0356922795874,0.203681538005,-0.081898056838,0.57368625182,0.819058760276,0.00275292354111,0.0,0.819024369035,-0.573622876895,-0.011688666759,0.0,-0.00799471890649,0.00896051140561,-0.999927894253,0.0,0.642407448289,0.235996589749,0.303764502897,1.0,-0.0752942857143,-0.0989582040816,1.201
0.448988653278,0.441988951193,-0.124546119481,-1.52046168218,0.0692967254752,1.95383895587,0.135684983913,-0.0694825858091,-0.381921020803,-0.00648169402642,-0.586455511836,-0.0360167237398,0.197045081925,-0.0927810773176,0.57368691831,0.819058749413,0.00261374663697,0.0,0.819022198736,-0.573623655396,-0.0118019849391,0.0,-0.0081673693718,0.00891153246183,-0.999926936664,0.0,0.64113856414,0.23440053642,0.30371862241,1.0,-0.0797194285714,-0.104774106122,1.217
0.447679090753,0.434911356816,-0.124568290216,-1.53130485967,0.0685595265368,1.95754188077,0.133917045037,-0.0744159170525,-0.411888062976,-0.00239831238332,-0.590892212933,-0.0414017192919,0.206080371958,-0.0949443016496,0.573600425967,0.819119516939,0.00255248903695,0.0,0.819081873203,-0.573537083563,-0.0118678418277,0.0,-0.00825739272732,0.00889826794862,-0.999926315432,0.0,0.639634743987,0.23250242971,0.303713961047,1.0,-0.0846977142857,-0.111316995918,1.235
0.446340064432,0.427933751748,-0.124599619325,-1.54192496459,0.0677937723493,1.96135223018,0.13221500752,-0.0768628633598,-0.418542457479,0.00105871929515,-0.639661217847,-0.0457648767731,0.216101164803,-0.106306349425,0.573571751566,0.819139275303,0.0026533682669,0.0,0.819103356628,-0.573508486088,-0.0117666667908,0.0,-0.00811696596674,0.00892258232246,-0.999927248548,0.0,0.638196912924,0.230611263584,0.303744717776,1.0,-0.0893994285714,-0.117496391837,1.252
0.44505010066,0.421513198251,-0.124687364078,-1.55181577843,0.0670873427023,1.96462733181,0.130550735332,-0.0861912981236,-0.421300629067,-0.0115575866825,-0.668325688934,-0.0481034675248,0.219028150519,-0.112054040047,0.573551682931,0.819153940128,0.00245688450269,0.0,0.81911547424,-0.573489165189,-0.0118644078324,0.0,-0.00830993977287,0.00881749295788,-0.999926595665,0.0,0.636804472555,0.228774866063,0.303688210981,1.0,-0.093548,-0.1229488,1.267
0.443410091985,0.413386832699,-0.124809926591,-1.563937994,0.0662383882182,1.96896464206,0.128604729761,-0.0905095896773,-0.454622369159,-0.00307940631516,-0.678189498414,-0.0475249019677,0.239117510581,-0.116144561916,0.573660273542,0.819077117098,0.00270438660978,0.0,0.81904241439,-0.573597426899,-0.0116731395005,0.0,-0.0080101264686,0.00891159531309,-0.999928208094,0.0,0.635161316088,0.226509305431,0.303806541125,1.0,-0.0985262857143,-0.129491689796,1.285
0.441723439684,0.405478804275,-0.124851686527,-1.57601386986,0.0654274305632,1.97296803109,0.126576553325,-0.101463285875,-0.474948870011,-0.00194434490258,-0.731005467504,-0.0499389815855,0.233026711515,-0.121755418126,0.573676726004,0.819066007924,0.00257596697802,0.0,0.819028913231,-0.573613547999,-0.011827245864,0.0,-0.00820984356173,0.00889497837535,-0.99992673623,0.0,0.633422097131,0.22425617004,0.303753372165,1.0,-0.103228,-0.135671085714,1.302
0.440047680798,0.397687337117,-0.124970255228,-1.58759055117,0.0645988072811,1.97700079687,0.124606541264,-0.107065995722,-0.502195175653,-0.00868747210588,-0.722760936751,-0.0529201693104,0.267336562621,-0.128521909696,0.573752414708,0.81901242832,0.00274877699179,0.0,0.818977976266,-0.573689037918,-0.011692265149,0.0,-0.00799932125606,0.00895982568497,-0.99992786359,0.0,0.631806644442,0.222025772417,0.303847142352,1.0,-0.107653142857,-0.141486987755,1.318
0.438159873103,0.38921756877,-0.125019989428,-1.60035325403,0.063632242725,1.98133674268,0.122423467465,-0.114858945912,-0.497226103548,-0.00191840141189,-0.779504823154,-0.056286841542,0.262089380998,-0.137853502089,0.573768604987,0.819001124496,0.00273731745296,0.0,0.818966790975,-0.57370556521,-0.0116647600954,0.0,-0.00798319107978,0.0089348172407,-0.999928216274,0.0,0.629966123913,0.219580965216,0.30384166637,1.0,-0.112354857143,-0.147666383673,1.335
0.436176120125,0.380373115226,-0.12507767979,-1.6135802525,0.0626428136986,1.9856707209,0.120056359885,-0.114346248212,-0.533153257979,-0.00082090206772,-0.791907438977,-0.0545549270757,0.266757598601,-0.134663306353,0.573715769098,0.819038367174,0.00266763670451,0.0,0.819003010952,-0.573652849252,-0.011714243396,0.0,-0.00806427264964,0.00890562011322,-0.999927826114,0.0,0.628003199203,0.217028619537,0.303847547841,1.0,-0.117056571429,-0.153845779592,1.352
0.434194848296,0.371873157306,-0.125130538074,-1.62633404012,0.0617008686271,1.98994194996,0.117777450577,-0.125760387968,-0.540566112404,-0.00512047858112,-0.78027394194,-0.0671493314995,0.270428125269,-0.138580756626,0.57371312389,0.81904024687,0.00265939559482,0.0,0.819004652364,-0.573650089051,-0.0117346341825,0.0,-0.00808573083333,0.00891054255472,-0.999927608974,0.0,0.626111595183,0.214542610319,0.303824233654,1.0,-0.121481714286,-0.159661681633,1.368
0.431941555559,0.362480992854,-0.125257742886,-1.64018716725,0.060612533107,1.99449687629,0.115332061763,-0.130375255367,-0.56847092553,-0.00953995117851,-0.790283045036,-0.061100271979,0.278262888052,-0.143860172793,0.573833202979,0.818956066565,0.00267639618297,0.0,0.818921174172,-0.5737706246,-0.0116673792935,0.0,-0.00801958794566,0.00888705823847,-0.999928350636,0.0,0.624048602478,0.211735780958,0.303877247237,1.0,-0.126183428571,-0.165841077551,1.385
0.429444295645,0.352329342432,-0.125342472791,-1.6554242099,0.0594774654752,1.99935564294,0.112500735914,-0.143159357364,-0.574130446715,-0.00361496361235,-0.88330346782,-0.0568730525923,0.270242953232,-0.159014648355,0.573825340022,0.818962213275,0.00247371729946,0.0,0.818924058926,-0.573762820975,-0.0118472731228,0.0,-0.00828330148109,0.00882422203312,-0.999926757329,0.0,0.621692759571,0.208681745005,0.303778726927,1.0,-0.131161714286,-0.172383967347,1.403
0.427070442364,0.34292179092,-0.125434681153,-1.66902122137,0.058446315047,2.00384380175,0.109939442899,-0.15424228803,-0.596077123677,-0.0123072622714,-0.849360856622,-0.0760842007562,0.28456362113,-0.159309129725,0.573899854945,0.818909268383,0.00270435800303,0.0,0.81887416142,-0.573836528653,-0.0117257427314,0.0,-0.00805061499203,0.00894410314631,-0.999927592687,0.0,0.619628254628,0.205879848001,0.303908737826,1.0,-0.135586857143,-0.178199869388,1.419
0.424341246232,0.332280176656,-0.125463520881,-1.68487003615,0.057176304765,2.00884791574,0.106899315804,-0.1574681498,-0.596231418862,-0.00203161642782,-0.898822431167,-0.0702690587478,0.264224607953,-0.166446691028,0.573806731628,0.818975179215,0.00249749251212,0.0,0.818937019178,-0.573743787607,-0.0118731504925,0.0,-0.00829105436752,0.00885835330229,-0.999926391288,0.0,0.617103000163,0.202673239703,0.303800575238,1.0,-0.140565142857,-0.184742759184,1.437
0.421792939541,0.322372710717,-0.125466093446,-1.699092749,0.0559878538203,2.01342673398,0.104096313337,-0.169349430577,-0.620191286249,-0.000927056630042,-0.895453590848,-0.0689858593292,0.279355968554,-0.171867675698,0.573689325655,0.819056882731,0.00266971555941,0.0,0.819021281619,-0.573626101638,-0.0117466027449,0.0,-0.00808987305325,0.00892562631248,-0.999927440942,0.0,0.614841974354,0.199766225128,0.303915877636,1.0,-0.144990285714,-0.190558661224,1.453
0.419101264772,0.312381724551,-0.125494021984,-1.71364203988,0.0548315292876,2.01796182111,0.101179170439,-0.165546758066,-0.638881811395,-0.00210001333391,-0.904393169539,-0.0667162002894,0.288665984653,-0.196112337655,0.573620221757,0.81910537467,0.0026406967979,0.0,0.819068865437,-0.573556529574,-0.0118257327903,0.0,-0.00817208973496,0.00894656424493,-0.999926585274,0.0,0.612475112486,0.196740106356,0.303903008832,1.0,-0.149415428571,-0.196374563265,1.469
0.416089023948,0.301477964019,-0.125554534957,-1.72930759981,0.053476868789,2.02291397894,0.0979494269969,-0.186256137804,-0.637068295683,-0.000419831850055,-0.92613817965,-0.075788493214,0.282856071868,-0.187072164318,0.57353071101,0.819167766577,0.00272775191338,0.0,0.819132927608,-0.573467309398,-0.0117148991366,0.0,-0.00803234585844,0.00895341822284,-0.999927656244,0.0,0.609932567129,0.193403107602,0.303959569153,1.0,-0.154117142857,-0.202553959184,1.486
0.412877808394,0.290267928024,-0.125652152636,-1.74531709955,0.0522098102494,2.02777935088,0.0946885018195,-0.190420625457,-0.67517501446,-0.00500175942285,-0.939864032324,-0.0721039928726,0.3032649869,-0.197008451083,0.573628181963,0.819099308467,0.00278901914075,0.0,0.819064565323,-0.573563765675,-0.0117724864779,0.0,-0.00804331007073,0.00903759076733,-0.99992681088,0.0,0.60727534239,0.189919781834,0.304011224547,1.0,-0.158818857143,-0.208733355102,1.503
0.409543950515,0.2789609665,-0.125786325649,-1.76167819146,0.0508018401892,2.03267575444,0.0911911815592,-0.198655008581,-0.669904915794,-0.0130819947178,-0.9788768162,-0.0851465860289,0.277684421509,-0.203590508598,0.573598711599,0.819120550022,0.00260566404716,0.0,0.819083275618,-0.57353481704,-0.0118805785215,0.0,-0.00823734555494,0.00894911267402,-0.999926027024,0.0,0.60451007238,0.186310259214,0.303929538732,1.0,-0.163520571429,-0.21491275102,1.52
0.40597523652,0.267278188493,-0.125908406845,-1.77807040627,0.0493443189027,2.03767496724,0.0876003499757,-0.216941807782,-0.692374015847,-0.00614127545426,-0.97824816782,-0.0947283306297,0.292795699061,-0.216342305316,0.573634699759,0.819094778075,0.0027789681752,0.0,0.819060327794,-0.573570794277,-0.0117247723725,0.0,-0.00800991905668,0.00900205218155,-0.999927399491,0.0,0.601757781511,0.182591786463,0.304042842724,1.0,-0.168222285714,-0.221092146939,1.537
0.402177551451,0.255522553758,-0.126111664221,-1.79475319945,0.0478768457011,2.04259271491,0.0839309940633,-0.229029784561,-0.701982469055,-0.0112166175212,-0.969948192198,-0.086129865105,0.295959549339,-0.220203983506,0.573838642802,0.818952123022,0.00271645471834,0.0,0.818916921956,-0.573775001933,-0.0117502762285,0.0,-0.00806443511753,0.00896748595198,-0.999927271896,0.0,0.598907261538,0.178681896133,0.304023493382,1.0,-0.172924,-0.227271542857,1.554
0.398739303307,0.244946656401,-0.12619818409,-1.80968515599,0.0465119541485,2.04693644113,0.080554315105,-0.232207657229,-0.707548692211,-0.000919073435967,-1.00334165804,-0.082748571012,0.279094170784,-0.227949214724,0.57386271341,0.818935475908,0.00264940733781,0.0,0.818899352834,-0.573799256856,-0.0117902358218,0.0,-0.00813537105338,0.00893574671561,-0.999926981418,0.0,0.596111020656,0.175000993655,0.303993498819,1.0,-0.177349142857,-0.233087444898,1.57
0.394493438305,0.231893050867,-0.126261100173,-1.82771339774,0.0449591845339,2.05224230616,0.0763378821415,-0.234512366359,-0.721415691137,-0.00642938404432,-1.01219225117,-0.0899964132928,0.297253417681,-0.22973532591,0.573828910398,0.81895819247,0.00293385045985,0.0,0.818925355996,-0.573763987444,-0.0117002103137,0.0,-0.00789879742791,0.00911669899269,-0.999927244753,0.0,0.59309857707,0.171086333781,0.304112601712,1.0,-0.182050857143,-0.239266840816,1.587
0.390014824957,0.218766852631,-0.126314573838,-1.8460593886,0.0431650976982,2.05738583271,0.0719216331374,-0.253486737761,-0.736432019754,-0.00512277971335,-1.01221654639,-0.0993485810744,0.289255307811,-0.244060508817,0.573700531983,0.81904866473,0.0027805228509,0.0,0.819014104391,-0.573636466073,-0.0117408901426,0.0,-0.00802150553085,0.00901321588558,-0.999927206045,0.0,0.589760868034,0.166775612109,0.304059391732,1.0,-0.187029142857,-0.245809730612,1.605
0.386086251289,0.207545586132,-0.126420410287,-1.86140479334,0.0417511475376,2.06170950005,0.0681559933421,-0.265911003235,-0.755134699218,-0.0072658267888,-1.02434285345,-0.094139034755,0.285845940838,-0.247383308319,0.57374222916,0.819018962734,0.00292233852848,0.0,0.818986125561,-0.573677528617,-0.0116861541602,0.0,-0.0078948539142,0.00909837001899,-0.99992744284,0.0,0.586965550629,0.163075373413,0.304127722748,1.0,-0.191177714286,-0.251262138775,1.62
0.381194362497,0.193877652791,-0.126570224521,-1.88007988174,0.039966544784,2.06679168031,0.0634283826256,-0.275802586988,-0.756071324928,-0.0067662250697,-1.05063763656,-0.100381833836,0.292753727114,-0.259392520861,0.573727258617,0.819029382793,0.00294104430205,0.0,0.818996639654,-0.573662324276,-0.0116956762566,0.0,-0.00789208814282,0.009119009246,-0.999927276663,0.0,0.583486305215,0.158519680897,0.30415502812,1.0,-0.196156,-0.257805028571,1.638
0.376238988925,0.18079091801,-0.126756916677,-1.89784884863,0.0383101746729,2.07148673472,0.0587480209921,-0.298475673159,-0.762007058887,-0.0123493187395,-1.02836349723,-0.0960927120698,0.279630012023,-0.279159039889,0.573831893716,0.818956030894,0.0029536618412,0.0,0.818922703395,-0.573766037446,-0.011785034548,0.0,-0.00795686746117,0.00918162620686,-0.999926190276,0.0,0.58013558534,0.154029734433,0.304169470697,1.0,-0.200857714286,-0.26398442449,1.655
0.371742856561,0.169086445232,-0.126862975193,-1.91364295319,0.0367172704739,2.07563222067,0.0545754698424,-0.29879791879,-0.783949595646,-0.00518946414302,-1.0525508013,-0.108370473765,0.268966294977,-0.285622049247,0.573868918856,0.818930102588,0.00294922836718,0.0,0.8188967554,-0.573803117159,-0.0117827686078,0.0,-0.0079571406741,0.00917705490967,-0.999926230067,0.0,0.57710696974,0.150042581273,0.304180956397,1.0,-0.205006285714,-0.269436832653,1.67
0.366206354294,0.154741786742,-0.126937605123,-1.93269873006,0.0347761095478,2.08060982592,0.0492863905372,-0.311948820293,-0.781959633817,-0.00397390419793,-1.06553265726,-0.106517447552,0.281170326798,-0.29236746602,0.573713733718,0.819038205188,0.00311722407007,0.0,0.819007228653,-0.573647594826,-0.0116766119301,0.0,-0.00777555289106,0.0092522398086,-0.999926965751,0.0,0.573394506439,0.145247908411,0.30427117154,1.0,-0.209984571429,-0.275979722449,1.688
0.360683045296,0.141135798424,-0.127027368829,-1.95090512035,0.0328946816431,2.08508522085,0.0441802129157,-0.330556115998,-0.838611786682,-0.00533067254454,-1.04873413232,-0.109514947849,0.269083785778,-0.307759050447,0.57368411697,0.81905945825,0.00298071948918,0.0,0.819026172123,-0.573617825264,-0.0118096070136,0.0,-0.00796312980653,0.00921644868995,-0.999925820067,0.0,0.569753965707,0.140559801815,0.3042200694,1.0,-0.214686285714,-0.282159118367,1.705
0.355249856846,0.128096735617,-0.127177089154,-1.96805204127,0.0310857247252,2.08934950001,0.0390899291884,-0.349208880919,-0.815498176012,-0.0131589802246,-1.07814924391,-0.11354781393,0.256683145802,-0.319201025725,0.57362392114,0.819101323888,0.00306026172286,0.0,0.81906921478,-0.573557523884,-0.0117530888635,0.0,-0.00787188606983,0.00924859714988,-0.99992624571,0.0,0.56631988846,0.136027188677,0.304258005209,1.0,-0.219111428571,-0.287975020408,1.721
0.349143961497,0.114008768857,-0.127394627388,-1.98636755932,0.0290736981467,2.09383336611,0.0336275510896,-0.367708057014,-0.854066248884,-0.00706928273371,-1.08905218161,-0.11079471424,0.266752436636,-0.320440473077,0.573768744196,0.818999411552,0.0031841736458,0.0,0.818969621627,-0.573702759808,-0.0116038417104,0.0,-0.00767691812874,0.00926584156809,-0.999927601933,0.0,0.562621777747,0.131028750065,0.304329823253,1.0,-0.223813142857,-0.294154416327,1.738
0.342847926571,0.0997993421591,-0.127520468781,-2.00476119204,0.0270360349237,2.09808488148,0.027852354548,-0.369176778765,-0.856055462132,-0.00773248572939,-1.06796702651,-0.117974898244,0.263287055965,-0.344913979975,0.573694698724,0.819051278147,0.00318485849162,0.0,0.8190215277,-0.573628758964,-0.0115987480033,0.0,-0.00767319068572,0.009262786246,-0.999927658851,0.0,0.558792913991,0.126021066374,0.304355513742,1.0,-0.228514857143,-0.300333812245,1.755
0.336743130564,0.0863423106813,-0.127657853536,-2.0223147755,0.0252130279103,2.10197841717,0.0222142738311,-0.384488173686,-0.831076713918,-0.0162457567074,-1.10421067631,-0.109833077412,0.233119306212,-0.359679138752,0.573632887147,0.819095026502,0.00306516616198,0.0,0.819062183521,-0.573565535708,-0.0118516950668,0.0,-0.0079497438703,0.0093092629804,-0.99992506679,0.0,0.555044173547,0.121249948464,0.304252176824,1.0,-0.23294,-0.306149714286,1.771
0.329489296384,0.0708095497977,-0.127819327143,-2.04187669173,0.0229296184134,2.10634190758,0.0156475846168,-0.411200449988,-0.835077618776,-0.0127730251303,-1.09538969722,-0.128145643883,0.246768614568,-0.369942041759,0.573565106655,0.819141774751,0.00325087485239,0.0,0.819112187938,-0.573498131203,-0.0116560705016,0.0,-0.00768375156069,0.00934852652156,-0.999926779826,0.0,0.550867633068,0.115726580872,0.304375239778,1.0,-0.237918285714,-0.312692604082,1.789
0.322205824724,0.0560073865212,-0.128100685724,-2.06045280275,0.0207777829587,2.11017399768,0.0092064098891,-0.434544061019,-0.86686507407,-0.0125472101277,-1.08648990426,-0.122200782343,0.237116948715,-0.382269437099,0.573730701928,0.819025748235,0.00326378530461,0.0,0.818996190424,-0.573663492943,-0.0116697830427,0.0,-0.00768568628349,0.00936852092032,-0.999926577826,0.0,0.546816377193,0.110263560955,0.30442743813,1.0,-0.23998,-0.315402285714,1.806
0.315717153187,0.0431712844575,-0.128230775258,-2.07681058299,0.0189292265482,2.11344478,0.00348504938848,-0.430562699696,-0.868144305279,-0.00686698564014,-1.08580599943,-0.122758650827,0.195716772391,-0.378881789933,0.573782317204,0.818990280961,0.00308529694579,0.0,0.818957079043,-0.573714144096,-0.0119218476324,0.0,-0.00799395275382,0.00936745148703,-0.999924170911,0.0,0.542910344466,0.105235552464,0.304305356567,1.0,-0.23998,-0.315402285714,1.822
0.307274266257,0.0268204970635,-0.128399103227,-2.09689230854,0.0164801057656,2.1174024938,-0.00399232718434,-0.452635758642,-0.862265457473,-0.00935663454761,-1.04708370729,-0.136165218868,0.203812680324,-0.390806438667,0.573779505669,0.818991773916,0.00320936658088,0.0,0.818960662785,-0.573711450559,-0.0118047113217,0.0,-0.00782686180076,0.00940182742322,-0.999925170138,0.0,0.538620859487,0.0995564684791,0.304393159419,1.0,-0.23998,-0.315402285714,1.84
0.299501809721,0.0122906853565,-0.128591529074,-2.11456430314,0.0143155555169,2.12072632131,-0.0108385372435,-0.465558743723,-0.84709403436,-0.0147464264016,-1.03108070553,-0.126904560976,0.182990704546,-0.404524923966,0.573827629357,0.818957594859,0.00332513317574,0.0,0.818928130949,-0.573759343504,-0.0117336688072,0.0,-0.00770169923881,0.00945633051572,-0.999925628055,0.0,0.534564634504,0.0941600333793,0.304469622998,1.0,-0.23998,-0.315402285714,1.857
0.291973570737,-0.00119624451229,-0.128745627533,-2.13103877275,0.0123111756098,2.12356613568,-0.0174305396389,-0.464468019835,-0.837743567173,-0.00667828396698,-1.00966847118,-0.121219698771,0.174414084575,-0.420422960523,0.573887357457,0.818916134975,0.00322672121839,0.0,0.818884420364,-0.573818229835,-0.0119034488568,0.0,-0.00789652690561,0.00947373294239,-0.999923943731,0.0,0.530682214705,0.0890619306429,0.304428969883,1.0,-0.23998,-0.315402285714,1.873
0.284436603234,-0.014590612442,-0.128823747448,-2.14706930784,0.0102839029896,2.12647546345,-0.0241099244991,-0.476002869692,-0.798937682827,-0.00913612663659,-1.01189213604,-0.133793019423,0.163597372571,-0.427182896982,0.57378271743,0.818988715581,0.00340937402515,0.0,0.818959886605,-0.573713586346,-0.0117546533267,0.0,-0.00767107192286,0.00953694110894,-0.9999250979,0.0,0.52689165107,0.0840982233843,0.304491739611,1.0,-0.23998,-0.315402285714,1.889
0.275676827582,-0.029631614589,-0.128970806874,-2.16481547586,0.00797375883958,2.12932052295,-0.0317777322818,-0.490990659238,-0.855046453,-0.00849369829597,-0.981997970043,-0.124251276196,0.165013282829,-0.419933971583,0.573770731487,0.818996775996,0.00348934064529,0.0,0.818969175124,-0.573701574173,-0.0116936259958,0.0,-0.00757534761813,0.00956730697163,-0.999925537601,0.0,0.522588330614,0.0784233450703,0.304575557172,1.0,-0.23998,-0.315402285714,1.907
0.268144827641,-0.041973752701,-0.1291610016,-2.1795808328,0.00606159046346,2.13155406878,-0.0382849701211,-0.503045152976,-0.840392507322,-0.00590288674258,-0.984073487179,-0.120309350534,0.130669600664,-0.452180503774,0.573868343761,0.818929026157,0.00333482343959,0.0,0.818898433277,-0.573798481824,-0.0118913890243,0.0,-0.00782483765888,0.00955515738071,-0.999923732533,0.0,0.518692634063,0.0732959796483,0.30447937371,1.0,-0.23998,-0.315402285714,1.923
0.259057857404,-0.0567860365728,-0.129275337441,-2.19665562829,0.00379644015765,2.13417366081,-0.046272447037,-0.510424774211,-0.833788823049,-0.00464194957443,-0.940206827081,-0.137225337233,0.138790674577,-0.446281553734,0.573819212427,0.818962318808,0.00360259964026,0.0,0.818936103164,-0.573749575508,-0.0116546316853,0.0,-0.00747785814748,0.00963813604944,-0.999925591217,0.0,0.514685434087,0.0679932335112,0.304613899712,1.0,-0.23998,-0.315402285714,1.94
0.250255664099,-0.0704817127623,-0.129435046765,-2.21266752076,0.00166577040328,2.13628365513,-0.0539907965049,-0.524536923484,-0.822422787767,-0.0152330192193,-0.916241964828,-0.128541581698,0.127420352808,-0.462454080121,0.573806533193,0.818971787862,0.00346699464925,0.0,0.818942835227,-0.573736112966,-0.0118428125684,0.0,-0.00770993778888,0.00963493915331,-0.999923859505,0.0,0.510572147645,0.0626338494577,0.304537841907,1.0,-0.23998,-0.315402285714,1.957
0.241699298743,-0.0833966637114,-0.129642103932,-2.22742370808,-0.000328724083434,2.13818076327,-0.0614174207939,-0.536023702757,-0.776814917951,-0.00338095180363,-0.918431263682,-0.116537460608,0.109443125854,-0.47182709036,0.573912028607,0.818897599678,0.00352867713638,0.0,0.81886919549,-0.573841058852,-0.0118501794883,0.0,-0.00767933156536,0.00969067213277,-0.999923556448,0.0,0.50674815934,0.0575175008559,0.304559577363,1.0,-0.23998,-0.315402285714,1.973
0.232595070522,-0.0970432685994,-0.12974293498,-2.24285869745,-0.00243548344685,2.1400128812,-0.0694256513676,-0.544652339611,-0.806634219761,-0.0106323034895,-0.911190286489,-0.131547952088,0.112395240079,-0.474833983929,0.573822661788,0.818959973595,0.00358627516409,0.0,0.81893201146,-0.573751114088,-0.0118645097185,0.0,-0.00765907665593,0.0097452277071,-0.99992318159,0.0,0.502656625207,0.0522294086911,0.304582387359,1.0,-0.23998,-0.315402285714,1.99
0.222679858043,-0.111276143146,-0.129929071271,-2.25899327983,-0.00475673059485,2.1417078034,-0.0780567451565,-0.558311864519,-0.77144626085,-0.0173391103792,-0.895194591662,-0.133386768782,0.0888721660074,-0.488052663458,0.573827168295,0.818957530227,0.00341928533523,0.0,0.818926814104,-0.573755501601,-0.0120101800222,0.0,-0.00787414519766,0.00969209864189,-0.999922027491,0.0,0.498286135524,0.0465419652693,0.304507558617,1.0,-0.23998,-0.315402285714,2.008
0.213614976383,-0.123954478885,-0.130105520691,-2.27290002495,-0.00670648075023,2.14311819806,-0.085927550098,-0.559470656779,-0.814221940366,-0.00901572772987,-0.879781305289,-0.120081254125,0.089172652702,-0.500804762979,0.573914264359,0.818895759082,0.00359163267282,0.0,0.8188673636,-0.573842044783,-0.0119287623309,0.0,-0.00770753144063,0.00978734607238,-0.999922397897,0.0,0.494481551483,0.0414693745006,0.304589257621,1.0,-0.23998,-0.315402285714,2.024
0.203324831791,-0.137969445995,-0.130256487119,-2.28842705701,-0.00892727902053,2.14442726602,-0.0949941276232,-0.579568681302,-0.776923128084,-0.0101532047931,-0.855565045352,-0.119392066869,0.0692823235325,-0.514963394814,0.573839240288,0.81894878179,0.00348798102321,0.0,0.818917953996,-0.573766064611,-0.0121092784847,0.0,-0.00791574612094,0.00980533823237,-0.999920595,0.0,0.490109491394,0.0358339562682,0.304528864201,1.0,-0.23998,-0.315402285714,2.042
0.193927745269,-0.150417579372,-0.130458598396,-2.30178531136,-0.0109291652224,2.14561993039,-0.103211627553,-0.593409631076,-0.756772071023,-0.0205639771326,-0.850929183898,-0.130205494868,0.0658662759423,-0.516635597235,0.573874272257,0.818923378685,0.00368325759895,0.0,0.81889607599,-0.573801603031,-0.0119031083689,0.0,-0.00763442159396,0.00984728243816,-0.999922370305,0.0,0.486335085392,0.0307643988326,0.304620653434,1.0,-0.23998,-0.315402285714,2.058
0.184413403171,-0.162703073433,-0.130569357468,-2.31507192342,-0.0128976137744,2.14641281869,-0.111579264886,-0.595146414472,-0.758401699833,-0.00297928886813,-0.801472923062,-0.112491394313,0.0504853583442,-0.524297139154,0.573803674507,0.818973341017,0.00357165612143,0.0,0.818943626642,-0.573730208121,-0.0120719332569,0.0,-0.00783757539963,0.00985209436174,-0.999920751184,0.0,0.482440167925,0.0257657685756,0.304583763725,1.0,-0.23998,-0.315402285714,2.074
0.173514862849,-0.176401229865,-0.130742556922,-2.32957002447,-0.015031100563,2.14734061385,-0.12121729387,-0.605143966343,-0.768465228185,-0.0070721566249,-0.81558483681,-0.127323425417,0.0403230894386,-0.525705848317,0.573760499156,0.81900291079,0.00372406048697,0.0,0.818975147361,-0.573686418501,-0.0120144968152,0.0,-0.00770361325873,0.00994354812002,-0.999920886967,0.0,0.478159259182,0.020142877077,0.304632194232,1.0,-0.23998,-0.315402285714,2.092
0.162824086332,-0.189229701418,-0.130995110223,-2.3430379019,-0.0171394080031,2.14797374744,-0.130533765519,-0.627541065534,-0.751599009351,-0.00289981723516,-0.77732359822,-0.127269591849,0.0417296243862,-0.556449498459,0.573881584067,0.818918020935,0.00373488383705,0.0,0.818890394722,-0.573807440005,-0.0120120825852,0.0,-0.00769395489723,0.00995216509154,-0.999920875604,0.0,0.474084945046,0.0146885500663,0.304651087604,1.0,-0.23998,-0.315402285714,2.109
0.152813698659,-0.201216069111,-0.131124212258,-2.35544745356,-0.0190109096421,2.1485281733,-0.139521495373,-0.630131598136,-0.729052897152,-0.00843801122038,-0.790462618249,-0.109191742436,0.0238371083041,-0.566466980714,0.573723969833,0.819027759855,0.00388354565828,0.0,0.819002194786,-0.573649471787,-0.0119346284521,0.0,-0.00754714339618,0.0100280079019,-0.99992123674,0.0,0.470271937953,0.00973409782883,0.304697960062,1.0,-0.23998,-0.315402285714,2.125
0.141106817714,-0.214527625428,-0.131403074093,-2.3691707165,-0.0211161981455,2.14884841174,-0.149774750829,-0.657503434435,-0.730230250028,-0.0181624855382,-0.748117805871,-0.116313424937,0.0204927633192,-0.5754787988,0.573885671576,0.81891431902,0.00391420048337,0.0,0.818888275525,-0.573809870491,-0.0120404167621,0.0,-0.00761420941816,0.0101153102945,-0.999919848944,0.0,0.465935774639,0.00399268078384,0.304695004433,1.0,-0.23998,-0.315402285714,2.143
0.129983107028,-0.226951475883,-0.131518811582,-2.38181974464,-0.0232039214174,2.14912987306,-0.159624879832,-0.652275207721,-0.718640210533,-0.00395842251512,-0.759386585321,-0.123469279169,0.0179207261834,-0.589074958924,0.573781623685,0.818987162652,0.00392716620613,0.0,0.818961998982,-0.573706738892,-0.0119402208859,0.0,-0.00752599080619,0.0100674730436,-0.999920999604,0.0,0.461877233635,-0.00130677838817,0.304713003559,1.0,-0.23998,-0.315402285714,2.16
0.120024722418,-0.237826072708,-0.13170163843,-2.39281470045,-0.0249635405661,2.14916537452,-0.168563478026,-0.680685964884,-0.721728233364,-0.0117082207706,-0.706858437747,-0.122423231507,0.0052669391999,-0.598857297312,0.573722827698,0.819028320393,0.00393373543404,0.0,0.819002767691,-0.573647293971,-0.0119998139833,0.0,-0.00757175658459,0.0101065019997,-0.999920260381,0.0,0.458017668043,-0.00632068921827,0.304704842493,1.0,-0.23998,-0.315402285714,2.176
0.106923896365,-0.251442578234,-0.131958697183,-2.40623798243,-0.0270978471967,2.14921900479,-0.180114726881,-0.681738370387,-0.696354239764,-0.00803396939135,-0.717519130572,-0.116273396448,-0.00204140944056,-0.603689802686,0.573851736158,0.818936808506,0.00417558189468,0.0,0.818915003181,-0.573776149662,-0.0118277024704,0.0,-0.00729043197438,0.0102069907742,-0.999921330376,0.0,0.453770206414,-0.0120476681586,0.30479383097,1.0,-0.23998,-0.315402285714,2.194
0.0966438345287,-0.262038267567,-0.132116366728,-2.41684075547,-0.028783169819,2.14907364618,-0.189418715256,-0.691418045907,-0.689777501446,-0.0131956799642,-0.69846246204,-0.114055286075,-0.0155149723261,-0.6150706204,0.573722525293,0.819027423397,0.00415819615813,0.0,0.819004513627,-0.573645796145,-0.0119521598868,0.0,-0.0074039575196,0.0102630023696,-0.999919922892,0.0,0.450129219879,-0.0166887547641,0.304736216301,1.0,-0.23998,-0.315402285714,2.209
0.0852213714234,-0.273289777484,-0.132396683405,-2.42760508995,-0.0306542177719,2.14893137367,-0.199522751164,-0.722708231188,-0.708194035548,-0.0154725820787,-0.678298677707,-0.118690189055,-0.0135615454406,-0.634787381194,0.573867117399,0.818924929185,0.00438620898269,0.0,0.818906638964,-0.573791966741,-0.011637975144,0.0,-0.00701399153303,0.0102707446477,-0.999922654872,0.0,0.446376023238,-0.0218286346478,0.30485814393,1.0,-0.23998,-0.315402285714,2.225
0.0724512905673,-0.285629361199,-0.13253696814,-2.43970087912,-0.0326484206247,2.14847593831,-0.21117187894,-0.72122767075,-0.694215891531,-0.0166889454791,-0.664497686885,-0.110950468349,-0.0328205622485,-0.654718480767,0.573630083325,0.819091303578,0.0043255992456,0.0,0.819071359921,-0.57355390573,-0.0117801307192,0.0,-0.00716817629477,0.0103006101413,-0.999921254239,0.0,0.442026996524,-0.0273776311061,0.304790811061,1.0,-0.23998,-0.315402285714,2.243
0.0598909649384,-0.297210268717,-0.132833888863,-2.45063946944,-0.0344915276064,2.14800172048,-0.222377843164,-0.753503950851,-0.676823390791,-0.0199015478298,-0.634724870107,-0.115131784781,-0.0248346495837,-0.665855139115,0.573794114166,0.818975345834,0.00452154467056,0.0,0.818958428023,-0.573717993552,-0.0116406161629,0.0,-0.00693941971688,0.01038247405,-0.999922021303,0.0,0.43799737742,-0.0328132012968,0.304863192141,1.0,-0.23998,-0.315402285714,2.26
0.0480399066199,-0.307893719571,-0.132988728364,-2.46080243321,-0.0362527222228,2.14739751151,-0.233099164606,-0.742450630831,-0.663851809878,-0.0155794999006,-0.630497667031,-0.0991821451353,-0.0554906741625,-0.677554703486,0.573711869423,0.819033026345,0.00450993795972,0.0,0.819015838549,-0.573635619386,-0.0116610153104,0.0,-0.00696382968029,0.0103839734366,-0.999921836031,0.0,0.434156999769,-0.0378031358808,0.304846852795,1.0,-0.23998,-0.315402285714,2.276
0.0351253824486,-0.319062186331,-0.133288239888,-2.47136275328,-0.038113576713,2.14658752743,-0.244731227855,-0.771941786196,-0.657251062404,-0.0226094956534,-0.606801635346,-0.104430194978,-0.0483627807179,-0.703237360145,0.573796169289,0.818974226121,0.00446317813871,0.0,0.818955625761,-0.573718864243,-0.0117938436159,0.0,-0.00709838112149,0.010422607801,-0.999920487955,0.0,0.430041427093,-0.043205144068,0.304801736342,1.0,-0.23998,-0.315402285714,2.293
0.0220978378042,-0.330120671784,-0.133452907068,-2.48140399045,-0.0398347958348,2.14588137201,-0.256643624997,-0.763400273451,-0.632829672469,-0.0103455885906,-0.595760862318,-0.104820348672,-0.0412905043449,-0.70881790816,0.573705618141,0.819036172145,0.00472856564193,0.0,0.819022326644,-0.573629494291,-0.011505591661,0.0,-0.00671118024538,0.0104738250633,-0.999922626531,0.0,0.426065363989,-0.0485080910666,0.304916132865,1.0,-0.23998,-0.315402285714,2.31
0.00954253735741,-0.340286163319,-0.13371041196,-2.49083686643,-0.0415272299912,2.14489874615,-0.268033224825,-0.789524047242,-0.63587713818,-0.0242016328469,-0.581648168706,-0.113902364562,-0.0575832295243,-0.713154156567,0.573752410016,0.819003796991,0.00465826334198,0.0,0.818988075698,-0.573675000379,-0.0116735901017,0.0,-0.00688851801863,0.010513014993,-0.999921009298,0.0,0.422178139523,-0.0535741812098,0.304864432964,1.0,-0.23998,-0.315402285714,2.326
-0.00393248590915,-0.350955679364,-0.133891527993,-2.50046686244,-0.0432634322611,2.14382768022,-0.280370666265,-0.792463507413,-0.627842942725,-0.0161399020372,-0.546388811654,-0.085182063739,-0.05157095954,-0.726716752816,0.573678236074,0.819055493979,0.00470384295698,0.0,0.819040451918,-0.573600831732,-0.0116434900116,0.0,-0.00683866789618,0.0105324572553,-0.999921146874,0.0,0.41811176399,-0.0588907926781,0.304895353961,1.0,-0.23998,-0.315402285714,2.343
-0.0177213503093,-0.361394476175,-0.134192334253,-2.50978343964,-0.0450442874626,2.14276209805,-0.292956093861,-0.828938779412,-0.604690507417,-0.0230594922764,-0.54850702838,-0.107591199066,-0.0710698773834,-0.738662479928,0.573731121321,0.81901808324,0.00476724815867,0.0,0.81900453386,-0.573654561995,-0.0115223226964,0.0,-0.00670236603622,0.0105153154292,-0.999922250193,0.0,0.4140586551,-0.0643061008903,0.304934028657,1.0,-0.23998,-0.315402285714,2.36
-0.0307694281433,-0.371021037897,-0.134343129534,-2.51845643257,-0.0465735046528,2.14156351117,-0.30505094347,-0.82366540863,-0.601114665022,-0.014683259636,-0.540059663083,-0.0919775383274,-0.0809346936217,-0.762895917095,0.573592986652,0.819114995955,0.0047387726511,0.0,0.819099995612,-0.573514852698,-0.0116900737105,0.0,-0.00685789021673,0.0105870767855,-0.999920438408,0.0,0.410177320938,-0.0692683915188,0.304886304884,1.0,-0.23998,-0.315402285714,2.376
-0.0458251607244,-0.381615076039,-0.134659055769,-2.52765240891,-0.0483482340546,2.14022934153,-0.318814158707,-0.846629912521,-0.599019377992,-0.016090795809,-0.496490333599,-0.096255095695,-0.0681786401784,-0.771136215538,0.573716328059,0.819028042344,0.00483608043163,0.0,0.819014930781,-0.573638855002,-0.0115652103726,0.0,-0.00669819693035,0.0105961761174,-0.999921424518,0.0,0.405895330524,-0.0749984852695,0.304952991692,1.0,-0.23998,-0.315402285714,2.394
-0.0601385183805,-0.391304640319,-0.13486802264,-2.53614024327,-0.0499701840618,2.13896159039,-0.332132316924,-0.847804053819,-0.567958488133,-0.0156268641591,-0.499452998956,-0.0923983247778,-0.0817645778624,-0.785299452834,0.573604150086,0.819106510909,0.00485280244016,0.0,0.819093720812,-0.573526812517,-0.0115420428147,0.0,-0.00667107854235,0.0105956676655,-0.999921611196,0.0,0.401840578571,-0.0803166970131,0.304945672986,1.0,-0.23998,-0.315402285714,2.411
-0.0739544548543,-0.400214259024,-0.135152078853,-2.54395866309,-0.0515415747936,2.13757153408,-0.344871660239,-0.858751801748,-0.548264996975,-0.0135742417567,-0.48714465598,-0.0980034900258,-0.0828677464023,-0.803150789275,0.57365864788,0.819068997389,0.00474132150551,0.0,0.819053809752,-0.573580154928,-0.0117221800454,0.0,-0.0068818788308,0.0106081316368,-0.999920050448,0.0,0.397939764085,-0.0854090038263,0.304885122773,1.0,-0.23998,-0.315402285714,2.427
-0.0886208321275,-0.409465010728,-0.135338267998,-2.55184779358,-0.0529261082297,2.13615059959,-0.35862404228,-0.869350792316,-0.539736340065,-0.0128714579306,-0.446857663224,-0.0851176695478,-0.0796082723616,-0.814961326076,0.573577652529,0.819124872059,0.00488542676608,0.0,0.819111061866,-0.573497935678,-0.0117444882144,0.0,-0.00681855151899,0.0107382898315,-0.999919094971,0.0,0.393894594232,-0.0906749233867,0.304903837076,1.0,-0.23998,-0.315402285714,2.444
-0.104642765211,-0.418964607606,-0.135641093898,-2.55977044127,-0.0545716062323,2.13468273679,-0.373456572473,-0.881061285396,-0.518377395914,-0.00735114671937,-0.433487188552,-0.0933111738079,-0.0904308019118,-0.838133599844,0.573683998397,0.819049875652,0.00497172805657,0.0,0.819038324169,-0.573605813801,-0.0115473294621,0.0,-0.00660615383112,0.0106967598981,-0.999920965906,0.0,0.389624528784,-0.0964351729509,0.304972494366,1.0,-0.23998,-0.315402285714,2.462
-0.117999762701,-0.42661828095,-0.135853936008,-2.56636513932,-0.0558451128744,2.13323685025,-0.386045015016,-0.900400943596,-0.498885284019,-0.0194748773455,-0.435426550262,-0.0854858759555,-0.0893949334008,-0.837714403479,0.573599344158,0.819109628815,0.00489441155359,0.0,0.819095301408,-0.57351859728,-0.0118343857818,0.0,-0.00688675588769,0.010797393313,-0.999917991083,0.0,0.385961699598,-0.101112220896,0.304889538637,1.0,-0.23998,-0.315402285714,2.477
-0.134264837598,-0.435545616303,-0.136123573124,-2.57388039008,-0.0574004155498,2.13166255541,-0.401299308592,-0.899936432829,-0.489473487433,-0.0141842237209,-0.400910342825,-0.0815229822119,-0.0764066680622,-0.863644997804,0.573580582403,0.819122873162,0.00487658228972,0.0,0.819108027399,-0.573499452804,-0.0118812451279,0.0,-0.00693561590332,0.0108095073165,-0.999917522491,0.0,0.381629001672,-0.106766493066,0.304858805254,1.0,-0.23998,-0.315402285714,2.495
-0.149970611995,-0.443692876405,-0.136436695121,-2.58040467361,-0.0587301565289,2.1301753052,-0.416024564518,-0.932551678891,-0.477289085325,-0.0230310170722,-0.375396653988,-0.0874650642412,-0.0819327758533,-0.870576654423,0.573708551055,0.819032143176,0.00505903074842,0.0,0.819020561737,-0.573628207645,-0.0116938337272,0.0,-0.00667575148778,0.0108525115538,-0.999918825373,0.0,0.377607572057,-0.112198380964,0.304954667931,1.0,-0.23998,-0.315402285714,2.512
-0.163833677363,-0.450675482515,-0.136574437685,-2.58607529027,-0.0598553701414,2.12883924533,-0.429148036052,-0.927046989073,-0.465264789938,-0.0083840361045,-0.37460908055,-0.0734670199334,-0.0893184183532,-0.880121412167,0.573624727439,0.819090492191,0.00511708648488,0.0,0.819079666406,-0.573544216011,-0.0116738709332,0.0,-0.00662720892654,0.0108879321497,-0.999918763218,0.0,0.373788696263,-0.117175056278,0.304968844622,1.0,-0.23998,-0.315402285714,2.528
-0.180746207205,-0.458644484455,-0.13688971472,-2.59266953645,-0.0613058470648,2.12708975266,-0.445199453972,-0.940918712139,-0.436289195622,-0.0101146397575,-0.352781280943,-0.0782157801496,-0.0786378225165,-0.900588833037,0.57360398888,0.819105489624,0.00504060612175,0.0,0.819092442833,-0.573521749019,-0.0118794106849,0.0,-0.00683972495234,0.0109430104229,-0.999916730876,0.0,0.369645293771,-0.122542757594,0.304916821251,1.0,-0.23998,-0.315402285714,2.545
-0.196879788813,-0.465806554657,-0.137114053333,-2.59850367247,-0.0624986426678,2.12564731133,-0.460593659451,-0.966745561588,-0.413016908662,-0.0203285150137,-0.332839061392,-0.0702627106727,-0.0878105006501,-0.904569680787,0.573550510505,0.819142502234,0.00511075673405,0.0,0.819130062469,-0.573467538824,-0.0119025029205,0.0,-0.00681912422858,0.0110132731488,-0.99991610016,0.0,0.365581690361,-0.12787442883,0.304895644031,1.0,-0.23998,-0.315402285714,2.562
-0.212328088717,-0.472316277222,-0.13731727446,-2.60359170483,-0.0636472450655,2.12425654267,-0.475166207532,-0.961551921338,-0.401995050478,-0.00692557173106,-0.307265477705,-0.0722607475607,-0.0804565737824,-0.92249484235,0.573646384524,0.819075031491,0.00516383694505,0.0,0.819064062517,-0.573564482658,-0.0117725370147,0.0,-0.00668092628865,0.0109829980183,-0.999917366075,0.0,0.361771660097,-0.132950312863,0.304953112037,1.0,-0.23998,-0.315402285714,2.578
-0.228827204999,-0.478895515815,-0.137615701214,-2.60867395805,-0.0647745359679,2.12282443362,-0.490953164518,-0.982766899116,-0.372211076304,-0.019955685219,-0.302813606773,-0.0734904738966,-0.0839463078137,-0.928252230312,0.573683607331,0.819048090407,0.00530011143852,0.0,0.819039580615,-0.5736024066,-0.0116271849276,0.0,-0.00648319175689,0.0110115384484,-0.99991835379,0.0,0.357735066758,-0.138339196894,0.305020709178,1.0,-0.239125142857,-0.314278759184,2.595
-0.246258473256,-0.485352502952,-0.137719817005,-2.6139033355,-0.0658038523847,2.1212685916,-0.507737136773,-0.972049114073,-0.350541720618,-0.00145015014143,-0.283800317463,-0.0542760505834,-0.0882377201115,-0.930520672883,0.573559539828,0.819134808244,0.00532607703789,0.0,0.819125172039,-0.57347580334,-0.0118407101915,0.0,-0.00664488949892,0.0111542908133,-0.999915710068,0.0,0.353443172858,-0.143857115536,0.304956355863,1.0,-0.234146857143,-0.307735869388,2.613
-0.260940438455,-0.490303449585,-0.137861956592,-2.61789441037,-0.0666506845875,2.12004191483,-0.521662219646,-0.964288899897,-0.319646612144,0.00162753976923,-0.259552462021,-0.0507979508755,-0.0804857325659,-0.926601149553,0.573696799248,0.819038598866,0.00533882028386,0.0,0.819027977187,-0.573611067016,-0.0120109651205,0.0,-0.00677516808667,0.0112635122807,-0.999913611463,0.0,0.349891231449,-0.148502116082,0.304902293693,1.0,-0.229998285714,-0.302283461225,2.628
-0.278329726822,-0.495825164099,-0.137916590138,-2.62217753698,-0.0675192374842,2.11878718896,-0.5382865537,-0.973812203231,-0.298711501626,-0.00771695773492,-0.231726498563,-0.0522993706003,-0.0760984103092,-0.91519199974,0.573749314066,0.81900107624,0.0054505620837,0.0,0.818992314738,-0.573663830785,-0.0119224389653,0.0,-0.00663782781785,0.0113046772859,-0.999914068065,0.0,0.345796488959,-0.1539428516,0.304921874228,1.0,-0.22502,-0.295740571429,2.646
-0.294471875697,-0.500631916187,-0.137873615,-2.62585690628,-0.0682427153254,2.11753300675,-0.553743449585,-0.948271180047,-0.270672062196,-0.00100714700881,-0.211984521225,-0.0388999063563,-0.0642740791651,-0.903461783772,0.573760719005,0.818992658944,0.00551441960818,0.0,0.818984498823,-0.573674600724,-0.0119411085599,0.0,-0.00661632516799,0.0113677820772,-0.999913495144,0.0,0.342003521442,-0.158909021594,0.30494214419,1.0,-0.220318285714,-0.28956117551,2.663
-0.309636895727,-0.504711794887,-0.13789190516,-2.62898660627,-0.0688774714504,2.11650969146,-0.568217824261,-0.943474307403,-0.250274773948,9.02962834414e-05,-0.184910194298,-0.0452071534475,-0.0595233128436,-0.904884026446,0.573888989902,0.818902199482,0.00560016542084,0.0,0.818895171391,-0.573802550542,-0.0119196545904,0.0,-0.00654776822406,0.0114267269549,-0.999913274561,0.0,0.338488521179,-0.163576175311,0.304952948551,1.0,-0.215893142857,-0.283745273469,2.679
-0.327235469507,-0.509128815373,-0.137788888583,-2.63229665264,-0.0695206940111,2.11542851342,-0.585168086382,-0.928569360527,-0.227484609921,0.000528523282238,-0.165329209992,-0.0353742957245,-0.0467796181253,-0.881842506082,0.573862892636,0.818919807712,0.00569876243387,0.0,0.818914813136,-0.573777424692,-0.0117789066062,0.0,-0.00637628146297,0.0114264983863,-0.99991438542,0.0,0.334675699793,-0.168637219661,0.304998691773,1.0,-0.210914857143,-0.277202383674,2.697
-0.342764822105,-0.512631639852,-0.137703076246,-2.6350342299,-0.0700715283881,2.11444152625,-0.600171529158,-0.899620051869,-0.19398405833,0.00863415405648,-0.151498638011,-0.0225513595079,-0.0573231899828,-0.878217466261,0.57385707078,0.818923707508,0.00572455213821,0.0,0.818918334666,-0.573770233187,-0.0118839201037,0.0,-0.00644757043156,0.0115078338453,-0.999912995513,0.0,0.330879557518,-0.173589618423,0.30497096511,1.0,-0.205936571429,-0.270659493878,2.715
-0.356317693609,-0.515363928996,-0.137626557363,-2.63719452689,-0.0704507083102,2.11366268774,-0.613219822912,-0.909190968927,-0.171072039143,0.00281670559939,-0.137415008276,-0.0305660986485,-0.0398677467412,-0.865208828479,0.573929299666,0.818872620001,0.00579120884471,0.0,0.818867266778,-0.573840673445,-0.0120011583369,0.0,-0.00650431401509,0.0116302716763,-0.999911211398,0.0,0.327780375444,-0.177640169319,0.304933956468,1.0,-0.201788,-0.265207085714,2.73
-0.372212342321,-0.518253590716,-0.137445751578,-2.63949730083,-0.070852336176,2.11285559742,-0.628593342308,-0.869398619932,-0.15006650675,0.0116384570109,-0.120249643605,-0.023817014473,-0.0386792683956,-0.845255215926,0.573923104997,0.818876644243,0.00583592020848,0.0,0.818871130517,-0.573832967711,-0.0121055224866,0.0,-0.0065642125995,0.0117267314078,-0.999909693364,0.0,0.32417886511,-0.182345429851,0.304888172886,1.0,-0.196809714286,-0.258664195918,2.748
-0.387058415417,-0.520647353,-0.137342773629,-2.64134241738,-0.0712158790465,2.11216559679,-0.642884729158,-0.87128982066,-0.131252340604,0.0106470748303,-0.0993575017077,-0.0184410486341,-0.0369636839914,-0.828732105746,0.574041826885,0.818793004468,0.00589438052376,0.0,0.818787938014,-0.573950850793,-0.0121441482965,0.0,-0.00656058526551,0.0117977238918,-0.999908882065,0.0,0.320836643458,-0.186756252394,0.304873675298,1.0,-0.192108,-0.2524848,2.765
-0.400567218817,-0.522670321662,-0.137116600802,-2.64282924495,-0.0714517378356,2.11157763622,-0.656118606819,-0.854137082831,-0.127986634236,0.011928798823,-0.0884603829323,-0.0196855395347,-0.0372906406545,-0.815727624212,0.573918991932,0.818878653636,0.0059571990566,0.0,0.818874624881,-0.573828166834,-0.0120967175483,0.0,-0.00648746006898,0.011820962674,-0.999909084719,0.0,0.317828816127,-0.190712851309,0.304896280779,1.0,-0.187682857143,-0.246668897959,2.781
-0.414918918681,-0.52457158252,-0.13696528135,-2.64416578043,-0.0717195775359,2.11101270221,-0.669927600332,-0.833126718534,-0.101366850358,0.0133902328564,-0.0724845100482,-0.0136386702558,-0.0271623257298,-0.80775138803,0.574063230836,0.818777041182,0.00602583903867,0.0,0.818774479624,-0.573973141082,-0.0119971552521,0.0,-0.00636444805459,0.0118211565219,-0.999909872968,0.0,0.314637419937,-0.194942422548,0.304941395666,1.0,-0.182981142857,-0.240489502041,2.798
-0.427904020034,-0.526006981092,-0.136729873357,-2.64522127172,-0.0718788102349,2.11058965744,-0.682664338144,-0.812714170014,-0.0901623358682,0.0144399778338,-0.0608465170951,-0.013758109855,-0.0261053320871,-0.791401728117,0.573970376526,0.818841753789,0.0060775013941,0.0,0.818840131377,-0.573880592324,-0.0119436971631,0.0,-0.00629235897926,0.0118320582016,-0.999910200277,0.0,0.311775109321,-0.198726654464,0.304957108855,1.0,-0.178556,-0.2346736,2.814
-0.4408463155,-0.527230363991,-0.136580301162,-2.64613587822,-0.0720584139907,2.11018782602,-0.695144661167,-0.781791502579,-0.071806836099,0.0192702707223,-0.0499227389665,-0.0102793058765,-0.0222986152692,-0.767202168695,0.574112899282,0.818741490405,0.00612353392045,0.0,0.818740418009,-0.574022804588,-0.0119454858546,0.0,-0.00626533740434,0.0118718708093,-0.999909898056,0.0,0.30889742605,-0.202509772725,0.304958299642,1.0,-0.174130857143,-0.228857697959,2.83
-0.454781687364,-0.528300243885,-0.136266759572,-2.64697277452,-0.0721636030117,2.10982756959,-0.708836672447,-0.77143236814,-0.0527590848158,0.0136519958184,-0.041049978353,-0.0120295517071,-0.0188902341234,-0.747200429762,0.573997301106,0.818822351133,0.00614837458435,0.0,0.818821436691,-0.57390681453,-0.0119653646594,0.0,-0.00626903464869,0.0119027370963,-0.999909507933,0.0,0.305827190665,-0.206524847723,0.304946147202,1.0,-0.169152571429,-0.222314808163,2.848
-0.467860178568,-0.52903196707,-0.136044351888,-2.64755539761,-0.0722590951272,2.10952467484,-0.721476930761,-0.753936484299,-0.0373449784294,0.0246273339888,-0.027464125615,-0.00815225068923,-0.0258483021321,-0.736935340445,0.574124723963,0.818732794847,0.00617728720222,0.0,0.818731869645,-0.574033353158,-0.0120242251815,0.0,-0.00629877987362,0.0119611771533,-0.999908623632,0.0,0.302939944941,-0.210312872877,0.304928329989,1.0,-0.164450857143,-0.216135412245,2.865
-0.478890226149,-0.529470147388,-0.135776891712,-2.64792273722,-0.0722816220515,2.1093381551,-0.732391369377,-0.731618254646,-0.0266724761285,0.0163085059009,-0.0165069127445,-0.00145832698053,-0.0164373207249,-0.716073713768,0.573999986692,0.818820096983,0.00619765728382,0.0,0.818819204627,-0.573908113019,-0.012055490306,0.0,-0.00631451351858,0.0119948430208,-0.999908121109,0.0,0.300527695052,-0.213482608909,0.304912251747,1.0,-0.160302285714,-0.210683004082,2.88
-0.492052300777,-0.529811231572,-0.135557813224,-2.64822981782,-0.0723070828872,2.10912924104,-0.745152448472,-0.713399682114,-0.0111769759738,0.0236433314507,-0.0185573215918,-0.00162827086702,-0.00656556880526,-0.707345028828,0.574145465731,0.818717690136,0.00625099511039,0.0,0.818716935902,-0.574052264211,-0.0121376984132,0.0,-0.0063490727511,0.0120868327805,-0.999906794531,0.0,0.297620281048,-0.217281489472,0.304884906752,1.0,-0.155324,-0.204140114286,2.898
-0.503859319576,-0.529974249208,-0.13522679006,-2.64837308062,-0.0723083015761,2.10899688421,-0.756893557173,-0.689111910271,-0.00411463300528,0.0129260332796,-0.0100750533008,-0.000244388674039,-0.0131942837084,-0.670107667907,0.573957359418,0.81884964995,0.00624077309173,0.0,0.81884861764,-0.573863970293,-0.0121586138003,0.0,-0.00637484456564,0.012089007041,-0.999906604271,0.0,0.295038235302,-0.220654858183,0.304876463212,1.0,-0.150622285714,-0.197960718367,2.915
-0.514963707779,-0.530021890072,-0.135032412361,-2.64842850543,-0.0723126722177,2.1089033803,-0.767619135942,-0.692660263938,-0.00311401252619,0.0144981770959,-0.000805903508047,-0.00025667483362,-0.00456035761646,-0.681416451809,0.574125572125,0.818731469737,0.00627334015332,0.0,0.818730697092,-0.574031682689,-0.0121827668761,0.0,-0.0063734413341,0.012130847716,-0.999906106482,0.0,0.292576231382,-0.223848199077,0.304865644651,1.0,-0.146197142857,-0.192144816327,2.931
-0.526147348371,-0.529930869091,-0.134673836715,-2.64836522393,-0.0723040383585,2.10888788972,-0.778709503433,-0.646919766129,0.00676778355438,0.0166239835527,0.00452426387351,0.00158358986272,-6.12977646107e-05,-0.649965164765,0.573956561607,0.818850329284,0.00622499161154,0.0,0.81884922389,-0.57386349597,-0.0121401576941,0.0,-0.0063687992959,0.0120654850153,-0.999906926902,0.0,0.290134163554,-0.227031288795,0.304869065976,1.0,-0.141495428571,-0.185965420408,2.948
-0.537130570303,-0.529743071423,-0.134438708889,-2.64822016473,-0.0722857131963,2.10888136142,-0.789387520644,-0.645527305771,0.0135804515388,0.0103445463853,0.0115508638961,0.00115254584942,-0.00133795563864,-0.617907305964,0.574056856906,0.818779971465,0.00623139378748,0.0,0.818779124929,-0.573964073568,-0.0121133700525,0.0,-0.00634171072122,0.0120561304091,-0.999907211908,0.0,0.287700638003,-0.230176854096,0.304871939722,1.0,-0.136793714286,-0.17978602449,2.965
-0.547128798874,-0.52945278148,-0.134145046672,-2.64798024813,-0.0722673830292,2.10889915151,-0.799180188532,-0.60778615845,0.0232811655112,0.0256990503128,0.0175239802745,0.00451759385229,-0.000384808516327,-0.599345194539,0.574039590092,0.818792421338,0.00618600572139,0.0,0.818791270738,-0.573947556977,-0.0120749205044,0.0,-0.00633653252393,0.011996760877,-0.999907958806,0.0,0.285499506699,-0.233025347153,0.304884068259,1.0,-0.132368571429,-0.173970122449,2.981
-0.557237718991,-0.528967652241,-0.13379114807,-2.64764634632,-0.0722144929948,2.10894658839,-0.809251858399,-0.597088642324,0.0276957669146,0.0207355160734,0.0140265998909,0.00334353230132,0.0045664196307,-0.581573912392,0.573862386259,0.818917077553,0.00612606152891,0.0,0.818914991422,-0.573770363777,-0.0121059232056,0.0,-0.00639891789965,0.0119640879488,-0.999907952988,0.0,0.283282438241,-0.235889484639,0.304871820905,1.0,-0.127666857143,-0.167790726531,2.998
-0.56783032635,-0.528383909813,-0.133535951324,-2.64720563435,-0.0721233025227,2.1090327828,-0.819520382702,-0.581335136695,0.0348319108116,0.0103276274545,0.0266510312596,0.00022103905035,0.00509207969155,-0.557560257582,0.574011711829,0.818812318431,0.00613911796132,0.0,0.818810488805,-0.573919761944,-0.0120928563666,0.0,-0.00637854144577,0.0119684457923,-0.999908031028,0.0,0.28093520025,-0.238916091609,0.304872834768,1.0,-0.122688571429,-0.161247836735,3.016
-0.576630968412,-0.527686567673,-0.133183832034,-2.64670385625,-0.0719676904785,2.10915549762,-0.828344334354,-0.538621675532,0.043538380641,0.0175206426299,0.0339635831646,0.0129235476075,0.00768133784438,-0.540218742698,0.573839062531,0.818933384417,0.00613099514829,0.0,0.818931378908,-0.573747053836,-0.0121021384538,0.0,-0.00639332789065,0.0119657744741,-0.999907968565,0.0,0.279031898582,-0.241408391572,0.304865581833,1.0,-0.118263428571,-0.155431934694,3.032
-0.585822806457,-0.526895199399,-0.132894114498,-2.64611704727,-0.0718097730032,2.10927891504,-0.837365154911,-0.537881252162,0.0511586915895,0.0165731615741,0.034276372666,0.00839916848112,0.00540339777937,-0.517090122807,0.573875112078,0.818907983381,0.00614958480556,0.0,0.818906085212,-0.57378276074,-0.0121208078162,0.0,-0.00639742370885,0.0119919932459,-0.999907628268,0.0,0.27701720487,-0.244027255003,0.304860893231,1.0,-0.113561714286,-0.149252538776,3.049
-0.594716375084,-0.526018349691,-0.132629171816,-2.64544837771,-0.0716317670902,2.1094234051,-0.846023881643,-0.515024449858,0.0612229421808,0.0170488711752,0.0383999370348,0.00786995596357,0.0120671556747,-0.511741287001,0.573993774758,0.818824556636,0.00618376018989,0.0,0.818823057161,-0.573901157683,-0.0121247338933,0.0,-0.00637928554371,0.0120231586819,-0.999907369895,0.0,0.27506938145,-0.246572359136,0.304863098418,1.0,-0.10886,-0.143073142857,3.066
-0.602470194766,-0.525096184076,-0.132243069443,-2.64480214138,-0.071411550958,2.10956931878,-0.853833165947,-0.480229743132,0.0616150225536,0.0246811723876,0.0406946815581,0.0163758246509,0.00785638541266,-0.484952483643,0.573805955519,0.818956172183,0.006185495512,0.0,0.818954205658,-0.573712450984,-0.0121975211264,0.0,-0.00644066342381,0.0120648801149,-0.999906473888,0.0,0.273404621756,-0.24875275478,0.304841451905,1.0,-0.104434857143,-0.137257240816,3.082
-0.610587685755,-0.5241648488,-0.131922822568,-2.64410341182,-0.0712227365192,2.10973335902,-0.861762371463,-0.470983885909,0.0529319406759,0.0217050363155,0.0442318049912,0.0109409502507,0.0199619056488,-0.453060012657,0.5738532953,0.81892296968,0.00618967730084,0.0,0.818920970166,-0.573759597234,-0.0122113105622,0.0,-0.00644886011467,0.012076589858,-0.999906279699,0.0,0.271630195062,-0.251054151907,0.304839878979,1.0,-0.0997331428572,-0.131077844898,3.099
-0.618397304501,-0.523186527394,-0.131628602425,-2.64331720957,-0.0709941286244,2.10992026566,-0.869362117403,-0.451916985417,0.0557222753443,0.0191019344497,0.0455782946061,0.0145385808144,0.0107367747795,-0.442824659792,0.573957934242,0.818849363304,0.00622549898447,0.0,0.8188481213,-0.573864594897,-0.01216256009,0.0,-0.00638683409942,0.0120787685657,-0.999906651493,0.0,0.269935724714,-0.253285847935,0.304861852908,1.0,-0.0950314285715,-0.12489844898,3.116
-0.625223974321,-0.522192906146,-0.13129276152,-2.64254387314,-0.0707616312211,2.11011138446,-0.876177416358,-0.419703849445,0.060366034797,0.0169230741254,0.045850328887,0.0158152336236,0.00837962509322,-0.416518921542,0.573871394753,0.818909936134,0.00623583885745,0.0,0.818908935845,-0.573778229544,-0.0121426931253,0.0,-0.00636590603579,0.012075160887,-0.999906828524,0.0,0.268480724636,-0.25522989287,0.304873442907,1.0,-0.0906062857144,-0.119082546939,3.132
-0.632586695312,-0.521131673575,-0.130928508482,-2.64173194979,-0.0705107066992,2.11031597339,-0.883507209954,-0.408365276869,0.0578168325233,0.0124265111106,0.0480824358259,0.0140756347169,0.00902390306905,-0.394182367001,0.573792147075,0.818965362458,0.00624931592364,0.0,0.818964565734,-0.573698990816,-0.0121348634196,0.0,-0.00635292889366,0.0120810902359,-0.999906839437,0.0,0.266891392962,-0.257311177026,0.304879255699,1.0,-0.0856280000001,-0.112539657143,3.15
-0.639300878291,-0.520137145176,-0.130592439118,-2.64092722612,-0.0702874877488,2.11052286678,-0.889997016249,-0.38649921165,0.0558932878243,0.0203396736683,0.0490316900374,0.0103636064731,0.00918044312258,-0.373940721774,0.573876836094,0.818906069895,0.00624280263046,0.0,0.818905596623,-0.573784468839,-0.0120728638128,0.0,-0.00630463964975,0.0120408347235,-0.999907630643,0.0,0.26544603788,-0.259219153863,0.304905424983,1.0,-0.0809262857144,-0.106360261225,3.167
-0.645234353475,-0.519158859498,-0.130352012314,-2.64018686152,-0.0700601457584,2.11072070793,-0.895825330182,-0.365771704217,0.0586040704481,0.0126112656887,0.0448418892619,0.0136279442984,0.0150498324613,-0.346186501547,0.573929989019,0.818868464617,0.00628905878755,0.0,0.818868574118,-0.573837367102,-0.012069852556,0.0,-0.00627484550472,0.0120773954741,-0.999907377127,0.0,0.264154816717,-0.260915832159,0.30490487637,1.0,-0.0765011428572,-0.100544359184,3.183
-0.651099360469,-0.518141501114,-0.130006208548,-2.63944029894,-0.0697828827408,2.11091339783,-0.901661012538,-0.335263110899,0.0588881015121,0.0253816263437,0.0419267703569,0.0170755600724,0.00663623765887,-0.339331053262,0.573867857375,0.818911714645,0.00632714712977,0.0,0.818912076497,-0.573774607754,-0.0121019570754,0.0,-0.0062801989699,0.0121265348446,-0.999906748779,0.0,0.262898322442,-0.26256046198,0.304894623637,1.0,-0.0717994285715,-0.0943649632654,3.2
-0.657600169297,-0.517025369549,-0.12957274503,-2.6386077494,-0.0695156168028,2.11114695495,-0.908026605615,-0.318251145987,0.0543930926536,0.0152400551026,0.0358027878093,0.0133664689609,0.0119449550043,-0.312675435415,0.573830239583,0.818938230374,0.00630697025372,0.0,0.818938311488,-0.573737055336,-0.012107031524,0.0,-0.00629648965678,0.0121126335759,-0.999906814821,0.0,0.261505966888,-0.26437392064,0.304892294722,1.0,-0.0662680000001,-0.0870950857144,3.22
-0.661909054245,-0.516239125547,-0.129306566082,-2.63799494892,-0.0693244932901,2.11131795088,-0.912206023458,-0.301406416235,0.0591401931925,0.0257649355032,0.043427399611,0.00942666149186,0.0150644752196,-0.287964431157,0.57385948823,0.81891775997,0.00630373502393,0.0,0.818917959443,-0.573766621201,-0.0120825079652,0.0,-0.0062778284797,0.0120961365482,-0.999907131863,0.0,0.260650908106,-0.265506946948,0.304901716675,1.0,-0.0626725714286,-0.0823696653062,3.233
-0.666463137349,-0.515329433761,-0.129024563991,-2.63733677915,-0.0690806015598,2.1115016263,-0.916689797092,-0.279110523356,0.0543263370923,0.0110604537194,0.0373300641518,0.0103754478953,0.0176513432651,-0.275104611349,0.573864423327,0.81891398308,0.00634498682303,0.0,0.818914536806,-0.573771014882,-0.0121058164104,0.0,-0.00627317358425,0.0121433330953,-0.999906589014,0.0,0.25955629342,-0.266954007533,0.304890708933,1.0,-0.0576942857144,-0.0758267755103,3.251
-0.671333421156,-0.514426319016,-0.12875930626,-2.63666913418,-0.0688506951359,2.11167965411,-0.921356353388,-0.265931805098,0.0455432516221,0.0148551333779,0.0366357508632,0.013036076552,0.0035106846817,-0.25065683311,0.573971177511,0.818838895619,0.00637944428507,0.0,0.818839719992,-0.573877241219,-0.0121314415947,0.0,-0.00627279912168,0.0121870748281,-0.999906059187,0.0,0.258551728457,-0.268241510261,0.304879495003,1.0,-0.0529925714286,-0.0696473795919,3.268
-0.674997943269,-0.513709952133,-0.128431157574,-2.63613114362,-0.0686480429504,2.11185025096,-0.924919835436,-0.231865187223,0.0459924252773,0.0249702069633,0.0339913990772,0.0112517359256,0.00642519247578,-0.23035274367,0.573935892782,0.818863776521,0.00636029710668,0.0,0.818864481017,-0.573842304186,-0.012112743542,0.0,-0.0062690000715,0.0121603937935,-0.999906407851,0.0,0.257789941801,-0.269251001224,0.304881779862,1.0,-0.0488440000001,-0.0641949714287,3.283
-0.678973363223,-0.51288744029,-0.12799541663,-2.63551145063,-0.0684028006571,2.1120242658,-0.928831519167,-0.220857379482,0.0440554673735,0.0191304295168,0.035706128091,0.0171067938347,0.00662026090377,-0.214212403945,0.573815857017,0.818948200087,0.00632097395105,0.0,0.818948412386,-0.573722513546,-0.0121128940597,0.0,-0.00629346889357,0.0121273557569,-0.999906655389,0.0,0.256984988131,-0.270331357131,0.304884638137,1.0,-0.0438657142858,-0.0576520816327,3.301
-0.682438637931,-0.512183827174,-0.127662007193,-2.63497827659,-0.0681884759247,2.11218278297,-0.932202156182,-0.199443880476,0.0389203517593,0.0147609275876,0.0334659736247,0.0113236751923,0.017473583648,-0.192337926203,0.573775876563,0.818976302606,0.00630921117825,0.0,0.818976456752,-0.573682778426,-0.0120987571536,0.0,-0.00628923068851,0.0121093035484,-0.999906900839,0.0,0.25626909451,-0.271280331727,0.304888153657,1.0,-0.0391640000001,-0.0514726857144,3.318
-0.685441593611,-0.511575496138,-0.127395258266,-2.63451869275,-0.0679855550714,2.11231944704,-0.935010234377,-0.183123766854,0.0364012850504,0.0168537108474,0.0273308548261,0.0145939808008,0.00990983892506,-0.169742492366,0.573856535695,0.818919675433,0.00632364839365,0.0,0.818920092904,-0.573763499859,-0.012086131281,0.0,-0.00626941277727,0.0121145013986,-0.999906962332,0.0,0.255641919289,-0.272103488696,0.30488987984,1.0,-0.0347388571429,-0.0456567836736,3.334
-0.688244689191,-0.511013685916,-0.127118951196,-2.63409391018,-0.0677700503933,2.11244823706,-0.937603868489,-0.15760346752,0.0282840648411,0.0238332717397,0.0217250776652,0.0167557617593,0.00087812946777,-0.139089939147,0.573945745883,0.818856983468,0.00634573159895,0.0,0.818857784939,-0.573852777772,-0.0120691502997,0.0,-0.00624151247083,0.0121235226073,-0.999907027539,0.0,0.255062290247,-0.27286141578,0.304892463054,1.0,-0.0300371428572,-0.0394773877552,3.351
-0.69082322871,-0.510505647253,-0.126797769605,-2.63372286668,-0.0675468018062,2.11257685695,-0.940082209875,-0.139348252526,0.0260671057467,0.0160584949897,0.0196259833481,0.0102624211928,0.00339475485613,-0.126272636188,0.573913960279,0.818879172832,0.00635715339371,0.0,0.818880210847,-0.573821118745,-0.0120528364308,0.0,-0.00622206764842,0.0121232716106,-0.999907151769,0.0,0.254542363036,-0.273537345498,0.304891506928,1.0,-0.0250588571429,-0.0329344979593,3.369
-0.692693266561,-0.510178660269,-0.126504815374,-2.63345138054,-0.067360297524,2.1126145076,-0.941797860322,-0.116929524348,0.017563987061,0.0172419330181,0.0172259083934,0.0100444539172,4.69157208019e-05,-0.109198018863,0.573925460665,0.818871083814,0.00636086433376,0.0,0.818872173364,-0.573832606263,-0.0120519949227,0.0,-0.00621907852231,0.0121259150009,-0.999907138312,0.0,0.254173329398,-0.274005069142,0.304903891994,1.0,-0.0209102857144,-0.027482089796,3.384
-0.694570486407,-0.509788406248,-0.126215030013,-2.63315576384,-0.0671575396388,2.11272500692,-0.943467685647,-0.0982258160278,0.0156860951277,0.0127523368773,0.014146063234,0.0117783878961,0.00687265280443,-0.0900968024314,0.573990846529,0.818825193007,0.00636853975003,0.0,0.818826602036,-0.573898372679,-0.0120166774335,0.0,-0.00618478269611,0.0121124258177,-0.999907514525,0.0,0.253817259503,-0.274489260247,0.304909874954,1.0,-0.0196872727273,-0.0258747012987,3.402
-0.696237934401,-0.509425047122,-0.126000719268,-2.63288512316,-0.0670082032308,2.11278161722,-0.945145336281,-0.0878071526542,0.0208890763057,0.00757943879771,0.0147324875433,0.00207449335053,0.00158292144827,-0.096457730183,0.57390771164,0.818883379751,0.00637932505813,0.0,0.818884789582,-0.573814934831,-0.0120361479638,0.0,-0.006195768819,0.0121318039676,-0.999907211586,0.0,0.253482505095,-0.274926743271,0.304908016366,1.0,-0.0193272727273,-0.0254015584416,3.42
-0.697596167022,-0.509136648175,-0.125848576144,-2.63265155554,-0.0669461879579,2.11281305483,-0.946484881176,-0.0892534286943,0.0223881260663,0.014329757859,0.0183552905711,0.00556725126575,0.00785411453761,-0.0849361707403,0.573853122122,0.81892187968,0.00634792196186,0.0,0.818922795884,-0.573760332086,-0.0120533235197,0.0,-0.0062286644613,0.0121155285962,-0.999907204547,0.0,0.253199297983,-0.275294761236,0.304913414621,1.0,-0.0190272727273,-0.0250072727273,3.435
-0.699050683384,-0.508779908456,-0.125724487409,-2.63239496933,-0.0668972299531,2.11292690584,-0.947920612218,-0.0833425397873,0.0286432464055,0.00701133856887,0.0109300842911,0.000486830607721,0.00533528171566,-0.091197519178,0.573814293736,0.818949390752,0.00630861256304,0.0,0.818949942687,-0.573721972892,-0.0120347868773,0.0,-0.00623661180924,0.0120724030604,-0.999907676617,0.0,0.252897289893,-0.275711138909,0.304910239098,1.0,-0.0186872727273,-0.0245604155844,3.452
-0.700521569117,-0.508427232592,-0.125649940094,-2.63213603058,-0.0668237497421,2.11298020804,-0.949420359413,-0.0793298988341,0.0196662207247,0.0054199001874,0.0104077152538,0.000431897040586,0.00131806765321,-0.0787816527809,0.573782387802,0.818971628701,0.00632374357984,0.0,0.818972178375,-0.573689621035,-0.012063857835,0.0,-0.00625221161613,0.0121012321959,-0.999907230712,0.0,0.252572382597,-0.276131107402,0.304903283169,1.0,-0.0183272727273,-0.0240872727273,3.47
-0.701784186174,-0.508097088541,-0.125620181901,-2.63191572931,-0.066783176831,2.11301719458,-0.950647005402,-0.0793904852328,0.0257888382554,-0.000752428165369,0.00916258209211,0.00398933427899,0.000428198409371,-0.0807478439182,0.573819578705,0.818945459751,0.00633813453707,0.0,0.81894578169,-0.573725936095,-0.0121286357314,0.0,-0.00629646022124,0.0121504711228,-0.999906355935,0.0,0.252280517643,-0.276498337589,0.304884648218,1.0,-0.0180072727273,-0.0236667012987,3.486
-0.70303481537,-0.507783829057,-0.125591514686,-2.63167547487,-0.0667383927539,2.11311613462,-0.951985008301,-0.0790212922511,0.0241861931666,0.00267964312878,0.0109957028235,7.79525478929e-05,0.00104290987953,-0.0830223959107,0.573761627395,0.818985995497,0.00634673220205,0.0,0.818986561228,-0.573668212834,-0.0121054125444,0.0,-0.0062733656056,0.0121437433876,-0.999906582827,0.0,0.251986279201,-0.276897950082,0.304882066474,1.0,-0.0176672727273,-0.0232198441559,3.503
-0.704436185708,-0.507440204706,-0.125581679325,-2.6314088811,-0.0666982283599,2.11316516796,-0.953352234128,-0.0763625121321,0.0209747481689,0.00110725003042,0.0147596297496,5.05136901859e-05,0.00431279306542,-0.0787957727049,0.573810966578,0.818951341174,0.00635785543367,0.0,0.818951994148,-0.573717378541,-0.012113948239,0.0,-0.00627324278408,0.0121581288157,-0.999906408785,0.0,0.251681057544,-0.27729676054,0.304884435322,1.0,-0.0173272727273,-0.022772987013,3.52
-0.705734904413,-0.507127556252,-0.125586717567,-2.63117850974,-0.0666556291648,2.11319399643,-0.954684537443,-0.0719527007528,0.0166104181509,-3.0239141539e-05,0.0136542888997,0.00180219006549,0.000258575557036,-0.0785121270271,0.57381725348,0.818946685191,0.00639009583169,0.0,0.81894746183,-0.573722939458,-0.0121569075782,0.0,-0.00628983569815,0.0122092311451,-0.999905681873,0.0,0.25137091355,-0.277681064934,0.304875261289,1.0,-0.0169872727273,-0.0223261298701,3.537
-0.706992600756,-0.50682680364,-0.12558667799,-2.63092762653,-0.0666210536086,2.11327158414,-0.955925237885,-0.0761503365241,0.0190966412503,0.00279111362299,0.0177698340777,0.000415946949272,0.00961124350481,-0.0649601218764,0.573858721663,0.818917561685,0.00639856522093,0.0,0.818918666441,-0.573764782532,-0.0121218390656,0.0,-0.00625563594865,0.012196362386,-0.999906053469,0.0,0.251084014949,-0.278067473345,0.304884059714,1.0,-0.0166472727273,-0.0218792727273,3.554
-0.708170504472,-0.506553260564,-0.12558070602,-2.63070544031,-0.0665838362137,2.11333455899,-0.95707037708,-0.0720993618213,0.0196342764464,0.000229498321862,0.0133689159875,0.00373643901925,0.00213984993792,-0.0755617090568,0.573908570644,0.818882531222,0.00641088933455,0.0,0.818883911959,-0.573814788942,-0.0121026289509,0.0,-0.00623208830635,0.0121958114268,-0.999906207231,0.0,0.250812627636,-0.278422659785,0.304888810108,1.0,-0.0163272727273,-0.0214587012987,3.57
-0.70930924673,-0.506286960618,-0.125569429565,-2.63048764324,-0.0665460738259,2.113369373,-0.958275510045,-0.0734989844111,0.0238387755651,0.00351295174236,0.0115622706771,-9.59522431284e-05,0.00185547326247,-0.0770901816857,0.573873456789,0.818907014433,0.00642683482886,0.0,0.818908552215,-0.573779509989,-0.0121080108943,0.0,-0.00622786881908,0.0122116911847,-0.99990603971,0.0,0.250547973625,-0.278761355388,0.30489196128,1.0,-0.0160072727273,-0.0210381298701,3.586
