nelsonifechukwu/NELSON_IML_WORK/CNN-GradCAM/train2dof/data_sample_2022-02-22-14-18-31/robot_state.csv
position_joint1,position_joint2,position_joint3,position_joint4,position_joint5,position_joint6,position_joint7,velocity_joint1,velocity_joint2,velocity_joint3,velocity_joint4,velocity_joint5,velocity_joint6,velocity_joint7,ee_T_00,ee_T_10,ee_T_20,ee_T_30,ee_T_01,ee_T_11,ee_T_21,ee_T_31,ee_T_02,ee_T_12,ee_T_22,ee_T_32,ee_T_03,ee_T_13,ee_T_23,ee_T_33,v_x,v_y,time
0.465069933147,0.547728148748,-0.124013391184,-1.35582273624,0.0794421312648,1.89411165682,0.159154575353,7.37896503703e-05,0.000480972364291,7.50453664364e-05,0.000677239288169,-0.00311966889563,0.000220638733541,-0.00180240766408,0.57380651349,0.818976770044,0.00197030600901,0.0,0.818934566542,-0.573748523452,-0.0118133171053,0.0,-0.00854453663177,0.00839227157561,-0.999928277764,0.0,0.661692999901,0.260866904807,0.303258518697,1.0,0.0,0.0,0.0
0.465070168622,0.547728174912,-0.124015262832,-1.35582303859,0.0794421702257,1.89411483574,0.159162045277,0.000602321682481,0.000589950843889,1.48237760862e-05,0.000443115635058,-0.00124606724055,0.000232448975704,0.000869695451128,0.573813794612,0.818971664292,0.00197208017741,0.0,0.818929497496,-0.573755809967,-0.0118108238977,0.0,-0.00854140209314,0.00839236988609,-0.999928303719,0.0,0.661693930448,0.260866164,0.303258694477,1.0,-6e-05,-7.88571428571e-05,0.004
0.465066954277,0.547722852017,-0.124018309745,-1.35582328078,0.0794434931411,1.89411084302,0.159158853594,-0.000210410552753,0.000627961769644,-0.00115862332214,-0.00286849606558,0.000202987599279,0.000282540044445,-0.00158860744586,0.573816268885,0.818969927635,0.00197334578352,0.0,0.818927775355,-0.573758276959,-0.0118103883845,0.0,-0.00854029387112,0.00839318226416,-0.999928306366,0.0,0.661694683561,0.260862258352,0.303262106478,1.0,-0.00034,-0.000446857142857,0.018
0.465067070189,0.547717522255,-0.124013812404,-1.35583162102,0.0794421707127,1.8941125353,0.159154920044,-3.43665893558e-05,-0.00493967095342,0.000494511599067,-0.00057756408917,-0.000253268332297,-0.000236218100833,-0.000914362746689,0.573810771358,0.81897378028,0.00197301529463,0.0,0.818931620125,-0.573752777906,-0.0118109401197,0.0,-0.00854099171293,0.00839317086688,-0.999928300501,0.0,0.66169261438,0.260864898301,0.303262839497,1.0,-0.00068,-0.000893714285714,0.035
0.465063081033,0.547687554156,-0.124018376307,-1.35586475883,0.0794428813289,1.89411640739,0.15916204074,-0.000711221288099,-0.00173411513485,-0.00059846305753,-0.00402545277589,2.73987575723e-05,0.000488145291722,0.0012513349731,0.573824176234,0.818964384749,0.00197438197371,0.0,0.818922217114,-0.573766150859,-0.0118132699801,0.0,-0.0085419782953,0.00839576682284,-0.999928270281,0.0,0.661688277729,0.260855475608,0.30326785415,1.0,-0.001,-0.00131428571429,0.051
0.465068792426,0.547557772058,-0.124013374093,-1.35600871966,0.079439459035,1.89413817858,0.159158007325,0.000712129458201,-0.0101620799188,-0.000157489438507,-0.0110133208295,0.000208824140861,-0.000315602242862,0.0063091211391,0.573819574327,0.818967578329,0.00198712499569,0.0,0.8189254621,-0.573761385899,-0.0118197494132,0.0,-0.00854002038375,0.00840987274838,-0.999928168466,0.0,0.661660600353,0.260847690781,0.303292989457,1.0,-0.00134,-0.00176114285714,0.068
0.465059850323,0.54742628631,-0.124017923182,-1.35619576518,0.0794355086022,1.89418040997,0.159147811103,0.000156362753965,-0.00475887121418,-0.00137370332501,-0.0126187756159,-0.00172341110971,0.00328513434231,-0.00159309263515,0.573830949404,0.818959625638,0.00197989467213,0.0,0.818917336714,-0.573772711303,-0.0118329326038,0.0,-0.00855484922865,0.00841163497219,-0.999928026886,0.0,0.661633208391,0.260820890164,0.303300913726,1.0,-0.00168,-0.002208,0.085
0.465041870624,0.547248146266,-0.12401621627,-1.35641098295,0.0794331842376,1.89429011371,0.159137380492,-0.000751290118433,-0.0138234689799,0.000517266927043,-0.0104035119887,0.000402206374081,0.00941193738477,-0.00121446828178,0.573847511578,0.818947853962,0.0020476444466,0.0,0.818906380372,-0.573788935445,-0.0118044334313,0.0,-0.00849246320482,0.0084509365589,-0.999928227294,0.0,0.661614878415,0.26079386142,0.303334128378,1.0,-0.00202,-0.00265485714286,0.102
0.46502288758,0.54706439109,-0.124010922984,-1.35662212268,0.0794266330775,1.89441111649,0.159128793726,-0.00059733734163,-0.0146228774739,0.00111259253426,-0.0141382292373,-0.000349104559871,0.00754431638227,-0.00138344025031,0.573862615124,0.818937056854,0.00213137854016,0.0,0.818896646213,-0.573803683836,-0.011762743675,0.0,-0.00841011574851,0.00849574115405,-0.999928543615,0.0,0.661599553692,0.260768887624,0.30337411045,1.0,-0.00234,-0.00307542857143,0.118
0.464989591047,0.546841699761,-0.124013711049,-1.35691297385,0.0794227899128,1.89453759796,0.159112180611,-0.00402251845413,-0.0165323340525,0.000179612628559,-0.0149178882761,0.000274036438928,0.0107124779621,-0.000848123178718,0.573893547433,0.818915231684,0.00218779137725,0.0,0.818875471771,-0.57383431237,-0.011742681955,0.0,-0.00836099232821,0.00853074234294,-0.999928657576,0.0,0.661573487334,0.260721619487,0.303404468688,1.0,-0.00268,-0.00352228571429,0.135
0.464959401034,0.546587750587,-0.124013710941,-1.3572976364,0.0794065340168,1.89466861575,0.15906081503,-0.000903986459424,-0.015669263701,-0.000893585301094,-0.0245562125274,0.000278785621958,0.00405724598324,-0.00552849077287,0.573893332383,0.818915370047,0.00219240687026,0.0,0.81887559088,-0.573833998895,-0.0117496925083,0.0,-0.00836408722137,0.00853854305278,-0.999928565112,0.0,0.661526850993,0.260665582948,0.303412577257,1.0,-0.00302,-0.00396914285714,0.152
0.464924008751,0.546302168193,-0.124013710941,-1.35771422397,0.0793799624252,1.89482514863,0.158950900582,-0.00124365415517,-0.0173275399388,-0.0003917541909,-0.0256255398456,-0.0021449294549,0.0102069938567,-3.24705986804e-05,0.573848542266,0.818946698233,0.00221424808066,0.0,0.818907211089,-0.573789139659,-0.0117366834198,0.0,-0.00834136723081,0.00854850697712,-0.999928669767,0.0,0.66148072142,0.260602796815,0.303430073843,1.0,-0.00336,-0.004416,0.169
0.46488858209,0.546029645187,-0.124014421266,-1.35817424183,0.0793467910491,1.89498819844,0.158936682094,0.000728560653961,-0.0196298399205,3.43748666887e-05,-0.0317597544183,-0.00124495838489,0.0143065155535,-0.00196442780288,0.57388332061,0.818922394799,0.00218918336012,0.0,0.818882623537,-0.573824051461,-0.0117453707647,0.0,-0.00836250209339,0.00853332088244,-0.999928622949,0.0,0.661426084005,0.260533617973,0.303418210941,1.0,-0.00368,-0.00483657142857,0.185
0.464829125828,0.545694205988,-0.124013750397,-1.35872391925,0.0793016501725,1.89517293504,0.158855550272,-0.00317716540401,-0.0191324897026,-0.000240163101167,-0.03113340081,-0.00539213889676,0.00755381204524,-0.00578175756355,0.573883740808,0.818922183686,0.00215777761668,0.0,0.818882077958,-0.573824666647,-0.0117533504692,0.0,-0.00838705488704,0.00851218603875,-0.99992859745,0.0,0.661363413466,0.260439064279,0.303410015519,1.0,-0.00402,-0.00528342857143,0.202
0.464764322127,0.545333218568,-0.124016827233,-1.35936442384,0.0792690142604,1.89538765183,0.158760886466,-0.00632702707237,-0.0230030062667,-0.000232550281023,-0.0436111993226,-0.0047767317784,0.0139906104342,-0.00282012471518,0.573888487398,0.818918995942,0.00210452335153,0.0,0.818878122991,-0.573829543319,-0.0117907506976,0.0,-0.00844819470294,0.00849008767554,-0.999928270636,0.0,0.661288018984,0.260332418847,0.3033794031,1.0,-0.00436,-0.00573028571429,0.219
0.464698918298,0.544921489679,-0.124016661708,-1.36005145165,0.0792408281391,1.89561365545,0.158700074056,-0.00666846829291,-0.0266764492865,0.000352328864225,-0.0368097537821,-0.0017775870477,0.014207794348,-0.00304318781175,0.573922847472,0.818895004654,0.0020696385055,0.0,0.818853516719,-0.573863875371,-0.0118286771032,0.0,-0.00849891744863,0.00848364214988,-0.99992789551,0.0,0.661204608277,0.260223892367,0.30336341513,1.0,-0.0047,-0.00617714285714,0.236
0.464622508249,0.544497767197,-0.124017627597,-1.36078076975,0.0792035833531,1.89585994858,0.158606543264,-0.0020207569993,-0.0272308619558,-6.18515137917e-05,-0.0424206841768,0.000306112668724,0.0155614346517,-0.00629592774278,0.573940195772,0.818882964707,0.00202205113368,0.0,0.818840761988,-0.573881317787,-0.0118653488613,0.0,-0.00855607941465,0.0084659015343,-0.999927558384,0.0,0.661119376898,0.260102486153,0.303337534969,1.0,-0.00504,-0.006624,0.253
0.46455540627,0.544026706766,-0.12402259716,-1.36155447575,0.0791683488804,1.89613545896,0.158496325464,-0.00604717591831,-0.0263518770649,-0.001042224735,-0.0494506903134,-0.00456580250123,0.0182584787307,-0.00476246781513,0.573942088385,0.818881683594,0.00200358587283,0.0,0.818839137753,-0.573883183907,-0.0118871616957,0.0,-0.00858452002125,0.00846331988228,-0.999927336476,0.0,0.661029299858,0.259982586109,0.303326657467,1.0,-0.00538,-0.00707085714286,0.27
0.464486307376,0.543551773693,-0.124020848247,-1.36234308839,0.0791198103426,1.89640652565,0.158397155615,-0.00592437621457,-0.0296079879557,-0.000508021166643,-0.0518312211493,-0.00527167275821,0.0212347249257,-0.00969171664915,0.573947142775,0.818878230083,0.00196684936391,0.0,0.818835168485,-0.573888352217,-0.0119110429272,0.0,-0.00862510787024,0.00844699711671,-0.999927125222,0.0,0.660934619776,0.259861088962,0.303310745256,1.0,-0.0057,-0.00749142857143,0.286
0.46440815004,0.542999907724,-0.124026511253,-1.363204106,0.0790690523953,1.8967155215,0.158289665895,-0.00764569202246,-0.0346707770155,-0.000599539369287,-0.0519530782275,-0.00139215162158,0.0164184561246,-0.00141840686943,0.57396140881,0.818868232945,0.00196600385376,0.0,0.818825157546,-0.573902617271,-0.0119119335157,0.0,-0.0086261752723,0.00844696618787,-0.999927116275,0.0,0.660836925302,0.259723953905,0.303318271506,1.0,-0.00604,-0.00793828571429,0.303
0.464334265217,0.542427824202,-0.124031102551,-1.3641133647,0.0790109345951,1.89703873617,0.158179799123,-0.0057926279563,-0.0342187653115,-0.00342908484496,-0.0532024793503,-0.00597144064394,0.015255956994,-0.00552970506668,0.573970136897,0.818862151054,0.0019510055413,0.0,0.818818906139,-0.573911431811,-0.0119169747714,0.0,-0.00863882153574,0.00843767031541,-0.999927085583,0.0,0.660730399948,0.25958458186,0.303318255961,1.0,-0.00638,-0.00838514285714,0.32
0.464261432806,0.541856597518,-0.124032878505,-1.3649919714,0.0789635922557,1.89736414552,0.158054607535,-0.00133738247212,-0.0330244148168,-0.000732681823241,-0.0594649257158,-0.000843915481773,0.0286047757651,-0.00921285933735,0.573964949799,0.81886575756,0.00196326228754,0.0,0.818822654791,-0.573906177351,-0.0119124515121,0.0,-0.00862813639565,0.00844505586598,-0.999927115491,0.0,0.660622007281,0.259447418433,0.303328521525,1.0,-0.00672,-0.008832,0.337
0.464171676522,0.541180230842,-0.124032984852,-1.36604271523,0.0789090096986,1.89775317519,0.157911920197,-0.00412517769954,-0.0415597451875,0.000788380956154,-0.0607146349079,-0.00145604613213,0.0286840310401,-0.00536549150751,0.573965121758,0.818865581767,0.00198617832748,0.0,0.818822651872,-0.573906131211,-0.0119148748039,0.0,-0.0086169668715,0.00846521335436,-0.999927041361,0.0,0.660509005178,0.259295436827,0.303344059317,1.0,-0.00706,-0.00927885714286,0.354
0.464094507261,0.54051481521,-0.124036907398,-1.36704719107,0.0788417357296,1.89812267411,0.157788059083,-0.00289428348445,-0.0408834407866,0.000854202249344,-0.0649910303783,-0.00397697776459,0.0209781603441,-0.0106375753974,0.573967274677,0.818864020145,0.00200773805158,0.0,0.818821439568,-0.573908262523,-0.0118955122858,0.0,-0.00858871491466,0.00847177683722,-0.999927228839,0.0,0.660392939815,0.259145892179,0.303368433884,1.0,-0.00738,-0.00969942857143,0.37
0.463989166922,0.53978938057,-0.124042516134,-1.36815357088,0.078780918418,1.89853242815,0.15765084255,-0.00876545745248,-0.0415871912174,-0.00330517729865,-0.0675451445025,-0.00307269906857,0.0201115164359,-0.00917429572831,0.573990071181,0.818847975632,0.00203418050501,0.0,0.81880570462,-0.573930913785,-0.0118857555474,0.0,-0.0085653127016,0.00848806769601,-0.999927291419,0.0,0.660270074744,0.258969240147,0.303390184441,1.0,-0.00772,-0.0101462857143,0.387
0.463889765112,0.539035070406,-0.124040370102,-1.36931786085,0.0787176998956,1.89897643131,0.15751592209,-0.00412932358678,-0.0429864406671,0.000367018818187,-0.0726486446183,-0.00534468076892,0.0260154436164,-0.00876601560668,0.574007018733,0.818836014257,0.00206666456529,0.0,0.81879409899,-0.573947660606,-0.0118765839132,0.0,-0.00853898174384,0.00850957911118,-0.999927333787,0.0,0.660138008306,0.258796457208,0.303407372384,1.0,-0.00806,-0.0105931428571,0.404
0.463788860368,0.538262003344,-0.124048162062,-1.37050525086,0.0786501501345,1.89943367476,0.157367884726,-0.00443015186046,-0.0491165173228,-0.000371211405028,-0.0724035912077,-0.00526007456428,0.0175309916526,-0.0100212713647,0.574021479586,0.818825785171,0.00210271588532,0.0,0.818784353685,-0.57396198915,-0.0118559720276,0.0,-0.00850126028795,0.00852741765159,-0.999927503233,0.0,0.66000639625,0.258614630481,0.30342815322,1.0,-0.0084,-0.01104,0.421
0.463680003007,0.537514123511,-0.12405205534,-1.37167592009,0.0785730969527,1.89988866417,0.157216857656,-0.00486011369345,-0.045320062654,0.000914923632806,-0.0773329432024,-0.00184621472077,0.0216404136096,-0.00866259816966,0.574036070937,0.818815524995,0.00211475580245,0.0,0.818774367841,-0.573976648907,-0.0118358767181,0.0,-0.00847774238281,0.00852589216251,-0.999927715911,0.0,0.65987090126,0.258417920239,0.303433189,1.0,-0.00874,-0.0114868571429,0.438
0.463565216649,0.53663637777,-0.124052449361,-1.37305245159,0.0784948926617,1.9003947344,0.157045926793,-0.00707104938691,-0.0530082073778,0.0016331238274,-0.0686531971219,-0.00232314106859,0.0242920608098,-0.00978577628138,0.574042864995,0.818810715632,0.0021326076514,0.0,0.818769703674,-0.573983283672,-0.0118367779583,0.0,-0.00846816252663,0.00854109690885,-0.999927667328,0.0,0.659717986567,0.258223641442,0.30344701284,1.0,-0.00908,-0.0119337142857,0.455
0.463439510744,0.535777969351,-0.124066552593,-1.37441022205,0.0784250246491,1.90089083524,0.156875519763,-0.00862709959783,-0.0500614340177,-0.00168298478005,-0.0830517311518,-0.00333275109748,0.0302819118365,-0.0137771657791,0.574072084087,0.818790230355,0.00213256859888,0.0,0.818749154177,-0.574012435055,-0.0118445699895,0.0,-0.00847426045154,0.00854584024943,-0.999927575139,0.0,0.659564000297,0.258004985843,0.303450099811,1.0,-0.00942,-0.0123805714286,0.472
0.463329493039,0.534925168436,-0.12406197151,-1.37573469306,0.0783299428213,1.9013668117,0.156723876955,-0.00983602695053,-0.0567428114544,0.00182180980742,-0.0844316561955,-0.00452179695179,0.0276556288376,-0.00356346283822,0.574081821473,0.818783412166,0.00212911188176,0.0,0.818742369605,-0.574022264192,-0.0118372009775,0.0,-0.00847010925966,0.00853888040546,-0.999927669769,0.0,0.659406342678,0.25780599728,0.303462502272,1.0,-0.00974,-0.0128011428571,0.488
0.463214691022,0.534052606205,-0.124072664266,-1.37720686373,0.0782709602829,1.90190286996,0.156544119963,-0.00573878506837,-0.0487679759041,-9.94964100721e-05,-0.0825032627227,0.00112154482843,0.0342340951285,-0.0077806441304,0.574101136781,0.81876997802,0.00208680131804,0.0,0.818728131195,-0.574041492111,-0.0118894670708,0.0,-0.00853699251341,0.00853444381883,-0.999927138859,0.0,0.659229247267,0.257587611312,0.303424202856,1.0,-0.01008,-0.013248,0.505
0.463081108663,0.533178688192,-0.124070588434,-1.37859727316,0.0781826605974,1.90242736597,0.156366045743,-0.00397117521486,-0.0539749109394,0.000621286578321,-0.0882779917691,-0.00415908000676,0.0290637283576,-0.00766096108203,0.574115677848,0.818759772687,0.00209044969129,0.0,0.818717996549,-0.574056039793,-0.011884957107,0.0,-0.00853105375735,0.00853499331388,-0.999927184854,0.0,0.659072093758,0.257368497018,0.30342410534,1.0,-0.0104,-0.0136685714286,0.521
0.462947749811,0.53221797767,-0.124072299445,-1.38014004129,0.0780944366678,1.90301481907,0.156173514709,-0.0119189132181,-0.0521343608724,0.000357434999707,-0.0884362556483,-0.00564416589815,0.033656400952,-0.00850757639432,0.574129149778,0.818750313272,0.00209542220366,0.0,0.818708565393,-0.574069453428,-0.0118867360401,0.0,-0.00852951519701,0.00854022618837,-0.9999271533,0.0,0.658894732122,0.257134683035,0.303418105323,1.0,-0.01074,-0.0141154285714,0.538
0.462809728702,0.531233970621,-0.124076794326,-1.3817312857,0.0779929391686,1.90359142956,0.15597814643,-0.00625103122118,-0.0558120521048,-0.0033128421234,-0.0936465982643,-0.0050229953006,0.024280522872,-0.00929074097485,0.574144765075,0.818739442161,0.00206433712026,0.0,0.818697317493,-0.574085220951,-0.0118999292558,0.0,-0.00855800077689,0.00852251343454,-0.999927061034,0.0,0.658706647174,0.256887893395,0.303404374293,1.0,-0.01108,-0.0145622857143,0.555
0.462677951679,0.53019612217,-0.124075134071,-1.3833816819,0.0778979829802,1.90417215499,0.155758499143,-0.00533484595618,-0.0605628314712,-0.000189263371299,-0.103622797349,-0.00462032741735,0.0414249951944,-0.0132941722307,0.574135719364,0.818745844588,0.00204074030123,0.0,0.818703291689,-0.574076153009,-0.0119263416602,0.0,-0.00859326778107,0.00851826355356,-0.999926794788,0.0,0.658503167447,0.256643847861,0.303400365199,1.0,-0.01142,-0.0150091428571,0.572
0.462531386951,0.529152291711,-0.124077622021,-1.38502155304,0.0777926438363,1.90477942577,0.155529806059,-0.0117821860134,-0.0596325215506,-4.58458424565e-06,-0.101186431085,-0.00500843902169,0.0359199535275,-0.0220425570522,0.574130889738,0.818749218382,0.00204591033732,0.0,0.818706775715,-0.574071345228,-0.0119185941811,0.0,-0.00858400643915,0.00851799773515,-0.999926876601,0.0,0.658312451634,0.256389128524,0.303407750719,1.0,-0.01176,-0.015456,0.589
0.462391239736,0.528057114062,-0.124081530211,-1.38673149285,0.0776871552644,1.90543801365,0.155309881075,-0.00874658870531,-0.0607930861923,0.000806772365744,-0.104488150142,-0.00408221748237,0.04386381545,-0.0139549115239,0.57413272215,0.818747848486,0.00207962897164,0.0,0.818705893623,-0.574073088037,-0.0118952192217,0.0,-0.00854549064646,0.00853220335929,-0.999927085389,0.0,0.65811514379,0.256133635748,0.303422190297,1.0,-0.0121,-0.0159028571429,0.606
0.462265979783,0.52698497917,-0.124078732355,-1.38838887015,0.0775793890282,1.90606827833,0.155057301476,-0.00699516323101,-0.0666407029331,0.00146849609925,-0.108290676622,-0.00975234356697,0.0399641027289,-0.0201255051658,0.574087118478,0.81877973698,0.00211414546872,0.0,0.818738280494,-0.574027399679,-0.0118709465564,0.0,-0.00850627684536,0.00854605386594,-0.999927301466,0.0,0.657918178371,0.255895526328,0.30344247079,1.0,-0.01242,-0.0163234285714,0.622
0.46211095783,0.525806189497,-0.12409222966,-1.3902021265,0.0774634562189,1.9067331366,0.15482871372,-0.0121948756839,-0.0736595157508,-0.00027737013011,-0.104123383258,-0.00775993234057,0.0348034991662,-0.0127827643739,0.574102878784,0.818768635777,0.00213366846322,0.0,0.818727520631,-0.574043167838,-0.0118505409793,0.0,-0.00847819669868,0.0085504874055,-0.999927502045,0.0,0.657705627183,0.25561232081,0.303466845152,1.0,-0.01276,-0.0167702857143,0.639
0.461966695789,0.524653771399,-0.124093591338,-1.39204362725,0.0773481333771,1.90739144151,0.154584239192,-0.00615573157019,-0.0676098559698,-0.000127723752807,-0.109959403203,-0.00149505030742,0.0401643094423,-0.0189219474943,0.574089659508,0.818777978879,0.00210500586383,0.0,0.818736465338,-0.574030039249,-0.0118684989347,0.0,-0.00850949280559,0.00853719194019,-0.999927349804,0.0,0.657478305756,0.255339254821,0.303457993653,1.0,-0.0131,-0.0172171428571,0.656
0.46181325864,0.523456240934,-0.12410034118,-1.39395423577,0.0772277962782,1.90807953115,0.154311731844,-0.0123566039091,-0.0754455410687,-0.000667021593475,-0.110815276837,-0.0102940354719,0.0417835209337,-0.0185216898233,0.574066944993,0.818793969633,0.0020796298065,0.0,0.818752136074,-0.574007440141,-0.0118804561662,0.0,-0.00853408719133,0.00852304261775,-0.999927260905,0.0,0.657245110643,0.255050654892,0.303450417709,1.0,-0.01344,-0.017664,0.673
0.461659175756,0.522225637226,-0.124103215414,-1.39590564289,0.0771199271188,1.90884097879,0.154057770094,-0.00810497530982,-0.076679030306,-0.00115705322645,-0.116724802468,-0.0112257967177,0.0496942913583,-0.0118110149837,0.574062961597,0.818796667452,0.00211669377098,0.0,0.818755257128,-0.574003248622,-0.0118678724857,0.0,-0.00850254904059,0.00854612471911,-0.999927332566,0.0,0.657015805803,0.254766445613,0.303452606863,1.0,-0.01378,-0.0181108571429,0.69
0.461507500195,0.521061927366,-0.124102946841,-1.39777992653,0.0769984942466,1.90956997301,0.153797455972,-0.00635842986605,-0.0732986637683,0.000444039267205,-0.1191475332,-0.0130325739779,0.0425045780309,-0.0222773532441,0.574041418901,0.818811748081,0.00212543936599,0.0,0.818770531398,-0.573981753925,-0.011853690449,0.0,-0.00848614096715,0.00854492091993,-0.99992748224,0.0,0.656795213464,0.254489593827,0.303441248272,1.0,-0.0141,-0.0185314285714,0.706
0.461333637604,0.519772867837,-0.124108882542,-1.39983334175,0.0768645452844,1.91031268906,0.153524826449,-0.0108713969971,-0.0805614359224,0.000670109545085,-0.120292230791,-0.0144325127354,0.0507046877441,-0.0143206466537,0.57403786051,0.818814307871,0.00210019737319,0.0,0.81877281187,-0.573978346309,-0.0118611724606,0.0,-0.00850679368581,0.00852851077141,-0.999927446851,0.0,0.656545448163,0.254173939914,0.303433700755,1.0,-0.01444,-0.0189782857143,0.723
0.461158924205,0.51841986175,-0.124112800954,-1.40189254735,0.0767340622083,1.91104652395,0.15325327041,-0.0118444567857,-0.0806440737725,-0.00103520734426,-0.123590685185,-0.00409324271677,0.0396007605304,-0.014809585856,0.57403521757,0.818816105402,0.00212165628222,0.0,0.818774884689,-0.573975613938,-0.0118503041459,0.0,-0.00848560429562,0.00853981521441,-0.999927530412,0.0,0.656293062448,0.253859073732,0.303467005919,1.0,-0.01478,-0.0194251428571,0.74
0.460973345942,0.517064796609,-0.12411552357,-1.40403593088,0.0765853681395,1.91181987371,0.152954317807,-0.00883471389847,-0.081878055726,-0.000485678894894,-0.12914514958,-0.00716282945666,0.0474540430742,-0.0131160463819,0.574017457269,0.818828616137,0.00209834398735,0.0,0.8187872003,-0.573958057553,-0.0118497129171,0.0,-0.00849868621654,0.00852020331704,-0.999927586612,0.0,0.656031403841,0.253527621369,0.30346469573,1.0,-0.01512,-0.019872,0.757
0.460802055198,0.515796013042,-0.124121324371,-1.40605750937,0.0764668788304,1.9125860762,0.152673056268,-0.0137153424096,-0.0780356007738,-0.00517135082431,-0.126650818061,-0.0102720561745,0.0459023875378,-0.0175338341572,0.574006537627,0.818836243044,0.00210920345027,0.0,0.818794941016,-0.573947068327,-0.0118471189082,0.0,-0.00849044266825,0.00852749300069,-0.999927594502,0.0,0.655789601878,0.253221444448,0.303458985118,1.0,-0.01544,-0.0202925714286,0.773
0.460609709716,0.514398930992,-0.124127609477,-1.40827733563,0.0763318168865,1.91340706891,0.152379078969,-0.0105470297227,-0.0843700506677,-0.000423965025436,-0.135904129135,-0.0186972139931,0.0507428212731,-0.0179478084277,0.574008283354,0.818835029361,0.002105286898,0.0,0.818793662005,-0.573948815045,-0.0118508932325,0.0,-0.00849576315736,0.00852647061039,-0.99992755803,0.0,0.65552062912,0.252880459243,0.303453227951,1.0,-0.01578,-0.0207394285714,0.79
0.46041620974,0.513003560627,-0.124128488876,-1.41056329412,0.0761969099745,1.91419967617,0.152057010729,-0.0101753960772,-0.08608101486,0.000810697657086,-0.135959607435,-0.00521639482054,0.0401415364953,-0.0198039380367,0.573987037725,0.818850125894,0.00202453672062,0.0,0.818807543363,-0.573927736151,-0.0119124938421,0.0,-0.00859277474306,0.00849548655547,-0.9999269928,0.0,0.65522837929,0.252532222946,0.303411779572,1.0,-0.01612,-0.0211862857143,0.807
0.460215287583,0.511573111803,-0.124137291969,-1.41284668545,0.0760583954476,1.91502520214,0.15172713755,-0.0122024264111,-0.0823212067596,-0.00165460662522,-0.139181676127,-0.00648485816577,0.04583185064,-0.0161471942365,0.573969773183,0.8188622889,0.00199954741641,0.0,0.818819338985,-0.573910535732,-0.0119303805676,0.0,-0.00862194340922,0.00848510928682,-0.999926829829,0.0,0.654947211014,0.252176954275,0.303398736723,1.0,-0.01646,-0.0216331428571,0.824
0.460020862544,0.510111449685,-0.124145172357,-1.41516717287,0.0759206051652,1.91590919264,0.151409020054,-0.00827587989051,-0.0845771182878,-0.00181893064315,-0.133644216412,-0.00498693631152,0.0532714598268,-0.015632526281,0.573958246465,0.818870319991,0.0020192213652,0.0,0.818827617195,-0.573898919938,-0.0119209863201,0.0,-0.00860307855788,0.00849570619214,-0.999926902336,0.0,0.654666910557,0.251826579662,0.30339446272,1.0,-0.0168,-0.02208,0.841
0.459818204428,0.508591311957,-0.124143210697,-1.41753836276,0.0757620789864,1.91676098445,0.151076920092,-0.00823086832907,-0.0855010331238,-0.000707685303524,-0.141092758247,-0.0123199427005,0.0526987463652,-0.0123873237688,0.573931012137,0.81888942159,0.00201380654854,0.0,0.818846677759,-0.57387174046,-0.0119201814307,0.0,-0.00860580949658,0.00849052406421,-0.999926922852,0.0,0.654369610738,0.251465964721,0.303403296558,1.0,-0.01714,-0.0225268571429,0.858
0.459605161986,0.507065484338,-0.124140830822,-1.41992778089,0.0756087784233,1.91762720151,0.15074307837,-0.0107036050836,-0.0913220290271,0.00114379998705,-0.135360677502,-0.00608205481387,0.0490278081354,-0.0198030165651,0.573912626044,0.818902309063,0.00201315150314,0.0,0.818859535773,-0.573853338704,-0.011922803051,0.0,-0.00860852297836,0.00849129899796,-0.999926892914,0.0,0.654072237055,0.251098598178,0.303408166971,1.0,-0.01748,-0.0229737142857,0.875
0.459392498299,0.50556873895,-0.124147499886,-1.42223801158,0.0754690454453,1.9185038963,0.150426944031,-0.0143069177461,-0.0989453953246,0.000635923494972,-0.143468014874,-0.0151565091015,0.0573641811879,-0.0173968832917,0.573914415414,0.818900924605,0.00206551748121,0.0,0.818858839021,-0.573854918611,-0.0118945804898,0.0,-0.00855534031159,0.00851800245296,-0.999927122238,0.0,0.653795432925,0.250738111711,0.30343105357,1.0,-0.0178,-0.0233942857143,0.891
0.459174157526,0.503930179861,-0.124150437705,-1.42471916277,0.0753127341426,1.91945350685,0.150086016922,-0.0157733678046,-0.10422131903,0.000133522991677,-0.145770955115,-0.010283966928,0.0490788582822,-0.0209044890261,0.573901718486,0.81890959729,0.00215311101438,0.0,0.818868707847,-0.573841927725,-0.011841798617,0.0,-0.00846198008087,0.00855930860367,-0.999927563941,0.0,0.65349640832,0.250360037455,0.303477271733,1.0,-0.01814,-0.0238411428571,0.908
0.458959016566,0.502365435642,-0.124157780463,-1.42705713185,0.0751643031658,1.9203349132,0.149759080382,-0.0158113665439,-0.101585354328,-0.00205512703836,-0.148954591827,-0.0151313840793,0.0555107006535,-0.0172819161763,0.573900402104,0.818910248747,0.00225385529588,0.0,0.818870788974,-0.573840341646,-0.0117745558472,0.0,-0.00834911211102,0.00860320423804,-0.99992813602,0.0,0.653198868619,0.249967680803,0.303546919182,1.0,-0.01848,-0.024288,0.925
0.458722716461,0.500649468611,-0.124156140416,-1.42964040112,0.0749970243265,1.9212322267,0.149391302527,-0.0158898266721,-0.102571000928,-0.00060133433481,-0.152860743282,-0.015167169429,0.0606647853923,-0.0234096562751,0.573872591217,0.818929702607,0.00226674619069,0.0,0.818890300316,-0.573812371397,-0.0117807207576,0.0,-0.00834705584616,0.00861701512063,-0.999928034265,0.0,0.65288483791,0.249591058283,0.30357936616,1.0,-0.0188,-0.0247085714286,0.941
0.458473898698,0.498949949891,-0.124158622541,-1.43224686634,0.0748350561456,1.92218875898,0.149024937011,-0.01985502578,-0.100969894285,-0.000734426433163,-0.158418250754,-0.00612139246183,0.0602881512319,-0.0237525612632,0.573866974417,0.818933522563,0.0023082887982,0.0,0.81889462996,-0.573806566025,-0.0117625129466,0.0,-0.00830836485462,0.00864052937441,-0.999928153582,0.0,0.65256312487,0.249179211212,0.303607206154,1.0,-0.01914,-0.0251554285714,0.958
0.458217986678,0.497287017303,-0.124156830969,-1.43489887981,0.0746700887353,1.92316405374,0.148635451593,-0.0167625161398,-0.0983494409137,-0.000314065711512,-0.163166685751,-0.0150020870418,0.0532600633511,-0.029586242511,0.573846304032,0.818948043583,0.0022952476568,0.0,0.818908920853,-0.573785884687,-0.0117764503309,0.0,-0.00832748058129,0.00863763758,-0.999928019552,0.0,0.652232951324,0.248760277582,0.303588824735,1.0,-0.01948,-0.0256022857143,0.975
0.457955964493,0.495599620936,-0.124154384971,-1.43760153728,0.0745054047125,1.92409851001,0.148249127981,-0.0167093551807,-0.102444318545,0.000411472594903,-0.162169686057,-0.00231577200264,0.051585977844,-0.0149396713857,0.573834541106,0.81895646673,0.00222978384988,0.0,0.818916308278,-0.573774185659,-0.0118326162824,0.0,-0.00841116715117,0.0086161361804,-0.999927504604,0.0,0.651883084782,0.248329575727,0.303559201881,1.0,-0.01982,-0.0260491428571,0.992
0.457668494376,0.493905223541,-0.124170780092,-1.44038069706,0.0743274679034,1.92508494407,0.147861820073,-0.018792028188,-0.108953020686,-0.00529007483442,-0.17507138391,-0.00804168584516,0.0631207268022,-0.0179607499271,0.573856194423,0.818941538335,0.00213817992901,0.0,0.818900187441,-0.573796199171,-0.0118807292549,0.0,-0.00850290688344,0.00856895100069,-0.999927134172,0.0,0.651535179169,0.247863795107,0.303502568944,1.0,-0.0265811428571,-0.0349352163265,1.009
0.457364539944,0.49132686386,-0.124262707453,-1.44419143291,0.0741165832422,1.92652128533,0.147290436667,-0.0270156786067,-0.172272680924,-0.00267347622806,-0.25994240062,-0.0196409766284,0.105282691911,-0.0407930307519,0.573837852808,0.818953933296,0.00230666959463,0.0,0.818914956457,-0.573777388465,-0.0117707043045,0.0,-0.00831630984654,0.00864360833104,-0.999928060925,0.0,0.651070932868,0.247257454706,0.303610174996,1.0,-0.0397834285714,-0.0522867918367,1.025
0.456871174364,0.487612064601,-0.124292048193,-1.45010440217,0.0738086521957,1.92878620118,0.146396224415,-0.0368599534019,-0.248810874129,-0.00119796802115,-0.39578717345,-0.0251171769498,0.154447445982,-0.0630895642041,0.573743789221,0.81901961519,0.0023835193948,0.0,0.818981234538,-0.573682625068,-0.0117783730543,0.0,-0.00827949430913,0.00870999373791,-0.999927790384,0.0,0.650324327126,0.24637099894,0.303575765008,1.0,-0.0538108571429,-0.0707228408163,1.042
0.456148222789,0.48267952275,-0.124418346067,-1.45790911951,0.0733460506752,1.93166016273,0.145198724102,-0.0472695774656,-0.309262056228,-0.00707862671352,-0.500953025738,-0.028741499375,0.171256986884,-0.0758314514959,0.573706934545,0.819045476413,0.00236806337089,0.0,0.819007052522,-0.573645998846,-0.0117670229097,0.0,-0.00827945621248,0.00869045056191,-0.999927960742,0.0,0.649347414548,0.245087680368,0.303538255177,1.0,-0.0678382857143,-0.0891588897959,1.059
0.455183192649,0.476521341096,-0.124585858044,-1.4676887518,0.0727669307737,1.9350267894,0.143747298876,-0.0616309777205,-0.399437194698,-0.0115961518577,-0.607111209745,-0.0350185601065,0.209510513274,-0.0869031193902,0.573749206753,0.819016491099,0.00214055114413,0.0,0.81897494927,-0.573688991791,-0.0119046237487,0.0,-0.00852223662224,0.00858349145601,-0.999926844903,0.0,0.648077038505,0.243421913898,0.303447690743,1.0,-0.0818657142857,-0.107594938776,1.076
0.454023430118,0.469200659931,-0.124724360296,-1.47903487249,0.0721210011421,1.93910425436,0.142079501402,-0.0737451643525,-0.467390296859,-0.00789499149363,-0.685561639856,-0.0401328165031,0.267248573866,-0.106495964525,0.573797935157,0.818982113833,0.0022301864665,0.0,0.818941357999,-0.57373696607,-0.0119034795418,0.0,-0.0084693594815,0.00865675058504,-0.99992666262,0.0,0.646529279478,0.241395869783,0.303479211266,1.0,-0.0967182857143,-0.127115461224,1.094
0.452647249091,0.460772648053,-0.124829413772,-1.49198617516,0.0713017810576,1.94386362965,0.13999542594,-0.0860498443975,-0.507703202146,-0.00666303028847,-0.801569578508,-0.0486295775852,0.291660719486,-0.111502011547,0.573689189711,0.819057870542,0.00238017090509,0.0,0.819019172059,-0.573627756826,-0.0118126754122,0.0,-0.00831009266639,0.00872637779939,-0.999927393709,0.0,0.644950833239,0.23933713824,0.303527591598,1.0,-0.109920571429,-0.144467036735,1.11
0.450988653952,0.451229731953,-0.124988182674,-1.50669000608,0.0703336653676,1.94894239025,0.137681484579,-0.101412827107,-0.593751809885,-0.0103727416922,-0.880642323031,-0.0663403419538,0.323578656606,-0.147318472004,0.573680637032,0.819064147594,0.00227941267831,0.0,0.819024188596,-0.573619647624,-0.0118585519929,0.0,-0.00840556071556,0.00867008270687,-0.999927085449,0.0,0.642990672366,0.236756335855,0.30353278759,1.0,-0.123948,-0.162903085714,1.127
0.449221252869,0.441230326793,-0.125121687849,-1.52193163028,0.0693231427305,1.95436487406,0.13533535766,-0.111720937681,-0.640610729437,-0.013717481997,-0.992481297954,-0.0631249320166,0.342431716657,-0.158394593738,0.573713468687,0.819040802692,0.00240130680998,0.0,0.819002608935,-0.573652194749,-0.0117742481403,0.0,-0.00826623387675,0.00872188920738,-0.999927796406,0.0,0.64095749858,0.234086005837,0.303601069741,1.0,-0.137150285714,-0.180254661224,1.143
0.447091777352,0.429548204582,-0.125265597171,-1.5395360133,0.068173500031,1.96047667486,0.132470283597,-0.133064512472,-0.696880400678,-0.000813432693946,-1.06276614866,-0.0687274060203,0.362276731919,-0.169009992878,0.573671843377,0.819069489021,0.00255639834394,0.0,0.819033011824,-0.573609682948,-0.0117304762186,0.0,-0.00814185707475,0.00882338842863,-0.999927926393,0.0,0.638547940017,0.230956004508,0.303726222096,1.0,-0.151177714286,-0.198690710204,1.16
0.444809214365,0.417777316954,-0.1254246163,-1.55729618112,0.0669107210223,1.96662063087,0.129502757613,-0.146843294976,-0.76016489477,-0.0182618811931,-1.11942486343,-0.079287761028,0.395929585238,-0.181004070023,0.573633615559,0.819095879531,0.00267621707706,0.0,0.819061398506,-0.57357152188,-0.0116138566433,0.0,-0.00797801382167,0.00885425515054,-0.999928974208,0.0,0.635941438978,0.227491986554,0.303829583223,1.0,-0.165205142857,-0.217126759184,1.177
0.441919831516,0.403507983184,-0.125589566506,-1.57872806554,0.0654337779961,1.97408830698,0.125920288771,-0.163472525841,-0.803765011659,-0.00852019066159,-1.22478654293,-0.0803182048944,0.410529840097,-0.20714464799,0.573654189345,0.819080864262,0.00285582696842,0.0,0.819048723719,-0.573591513296,-0.0115200239141,0.0,-0.00779790316517,0.00894774368512,-0.999929562814,0.0,0.63309292337,0.223727960253,0.303907543734,1.0,-0.179232571429,-0.235562808163,1.194
0.438854672607,0.389042129784,-0.125772369873,-1.60015593316,0.0639094866132,1.98145510016,0.122227366323,-0.181791287917,-0.843132139224,-0.0092759573642,-1.28723347756,-0.107774679649,0.439053364233,-0.219830105744,0.573692610405,0.81905285089,0.00315644052825,0.0,0.819024801023,-0.573629262239,-0.0113398286106,0.0,-0.00747743626443,0.00909095398181,-0.999930718851,0.0,0.630038571257,0.219646134887,0.304081422036,1.0,-0.19326,-0.253998857143,1.211
0.435696433776,0.374683220011,-0.125921023777,-1.62154431986,0.0623052675427,1.98856093722,0.118371318738,-0.197245974695,-0.923008020865,-0.00952729476459,-1.36396092817,-0.0984693604634,0.454693332773,-0.24840225885,0.573582596674,0.819129871692,0.00316306730083,0.0,0.819102023685,-0.57351938547,-0.0113197255628,0.0,-0.00745838853037,0.00908384730133,-0.999930925694,0.0,0.626872205488,0.215525126455,0.304127303354,1.0,-0.206462285714,-0.271350432653,1.227
0.431942257239,0.358612839485,-0.126096022349,-1.64533897189,0.060482369746,1.99644720416,0.114122632343,-0.226979494586,-0.963795017977,-0.00779861541963,-1.42617017736,-0.115102583016,0.470146036187,-0.256819530229,0.573642101498,0.819087953975,0.00322644438017,0.0,0.819061194688,-0.573579041611,-0.011251190226,0.0,-0.00736523531025,0.00909698693942,-0.999931496722,0.0,0.623304525387,0.210809436673,0.304178826239,1.0,-0.220489714286,-0.289786481633,1.244
0.428011633424,0.342778477301,-0.126337922557,-1.66868077987,0.0587252786465,2.00400150924,0.109682829396,-0.253979984917,-1.02100030962,-0.0160021194412,-1.48466281081,-0.114719235791,0.498031179893,-0.27930469837,0.573696239784,0.819049955307,0.00324685557817,0.0,0.819023151588,-0.573632737522,-0.0112830185443,0.0,-0.00737899524934,0.00913245102866,-0.999931072008,0.0,0.619499602901,0.205717119173,0.304205274685,1.0,-0.234517142857,-0.308222530612,1.261
0.423269247357,0.324187338866,-0.126506715617,-1.69594302143,0.0565572492664,2.01276455992,0.104399973024,-0.267496466619,-1.06972734224,-0.0102297179844,-1.55410495199,-0.141395076438,0.509041650618,-0.303885298715,0.573627795184,0.819097930206,0.00323731780297,0.0,0.819070997197,-0.573564319967,-0.0112880163885,0.0,-0.00738932314315,0.00912688879496,-0.999931046525,0.0,0.615433472138,0.200423338322,0.304190936942,1.0,-0.248544571429,-0.326658579592,1.278
0.418711900178,0.306926505831,-0.126669159037,-1.72096081982,0.0545342452539,2.02062579993,0.0993820460001,-0.289113444366,-1.11268974693,-0.0149293059787,-1.58999078668,-0.131546306748,0.512157616133,-0.326565514624,0.573528303976,0.819167444546,0.00327555118942,0.0,0.81914075566,-0.573464428517,-0.0113012629426,0.0,-0.00737935666938,0.00916490809763,-0.999930772381,0.0,0.611378861122,0.195196098607,0.30421892446,1.0,-0.261746857143,-0.344010155102,1.294
0.413365242081,0.287815531044,-0.126880702536,-1.74840093212,0.0522340056763,2.02903511854,0.0936866650289,-0.325090567861,-1.15237208527,-0.0234631176564,-1.6407319126,-0.138873332059,0.517674908828,-0.350543789948,0.573481614064,0.819200134643,0.00327484854749,0.0,0.81917329606,-0.573417572032,-0.0113201593842,0.0,-0.00739576278016,0.00917474839618,-0.999930560931,0.0,0.606833965211,0.189269321234,0.304254690865,1.0,-0.275774285714,-0.362446204082,1.311
0.407529059923,0.268024507326,-0.127117309406,-1.77649302944,0.049865516947,2.03756309252,0.0875992982811,-0.358753447103,-1.1998458861,-0.0186673588713,-1.64696804302,-0.14671171745,0.518548442526,-0.362169579529,0.573463733313,0.819212070636,0.00341713327404,0.0,0.8191867743,-0.573398937613,-0.0112886694234,0.0,-0.0072885739917,0.00927309143154,-0.999930440813,0.0,0.602093118689,0.183038696906,0.30432526802,1.0,-0.289801714286,-0.380882253061,1.328
0.401122331252,0.247626153498,-0.127433076465,-1.80523031278,0.0472706793083,2.04605171372,0.0812074897733,-0.386148081033,-1.22106904182,-0.0168418370926,-1.69376685991,-0.151738262578,0.503968638543,-0.390186424208,0.573589939192,0.819123661118,0.00342875437058,0.0,0.819098943499,-0.573525643617,-0.0112251402712,0.0,-0.00722843860815,0.0092472946471,-0.999931116236,0.0,0.597139019787,0.176407315843,0.304363230526,1.0,-0.303829142857,-0.399318302041,1.345
0.394710157607,0.22780020597,-0.127666694788,-1.83284586639,0.0448064051514,2.05404069731,0.0747281107843,-0.408186153965,-1.26029445962,-0.0165899469868,-1.72956658979,-0.153808679018,0.48891184966,-0.414438919434,0.573507902102,0.819180508471,0.00356758589232,0.0,0.81915697969,-0.573442484741,-0.0112386039952,0.0,-0.00716077788384,0.00936802144763,-0.999930479301,0.0,0.591905286452,0.169610730908,0.304421554789,1.0,-0.317856571429,-0.41775435102,1.362
0.386926890906,0.204817512349,-0.127922617259,-1.86464551715,0.0417974900238,2.06287197878,0.0669655828841,-0.445506829959,-1.29080466222,-0.0182880069806,-1.8071477144,-0.171844992615,0.489138178583,-0.445558761327,0.573378235434,0.819271645493,0.00348093691416,0.0,0.819246910456,-0.573312946005,-0.0112921456101,0.0,-0.00725580821479,0.00932659690248,-0.999930181481,0.0,0.586385205477,0.162484117399,0.304397608783,1.0,-0.331884,-0.4361904,1.379
0.379363749757,0.183768786764,-0.128254938942,-1.89336855155,0.0390356157015,2.0705502548,0.0595985038068,-0.481785063033,-1.32760376701,-0.0210152704027,-1.8116078343,-0.161624409453,0.468817160508,-0.474315264257,0.573368636078,0.819278580121,0.0034296090207,0.0,0.819252680463,-0.573302847684,-0.0113858373655,0.0,-0.0073621097957,0.00933817821288,-0.999929296384,0.0,0.580983539388,0.15541485541,0.304404468069,1.0,-0.345086285714,-0.45354197551,1.395
0.370597513991,0.160871279806,-0.128703843974,-1.92417437805,0.0359559244096,2.07855296825,0.0512854149938,-0.524641855791,-1.36239322441,-0.0209827836602,-1.80888151287,-0.180303060213,0.45261939429,-0.495512411209,0.57349884808,0.819187434438,0.00343007431146,0.0,0.819161364415,-0.573432817329,-0.0114109579197,0.0,-0.00738093827262,0.00935413567159,-0.999929008428,0.0,0.57507988541,0.147511099419,0.304443032056,1.0,-0.359113714286,-0.47197802449,1.412
0.361269854176,0.137327016156,-0.129078761962,-1.9553855408,0.0326901472912,2.08648620514,0.0425147528308,-0.568689419741,-1.40962639523,-0.0251925703248,-1.81907197369,-0.188118106347,0.472545865564,-0.533683909147,0.57349508468,0.819189567179,0.00354792536374,0.0,0.819165290501,-0.573429076201,-0.0113167268306,0.0,-0.00723620030973,0.00939660543703,-0.999929668132,0.0,0.568925505968,0.139423961829,0.30451301449,1.0,-0.373141142857,-0.490414073469,1.429
0.35177683903,0.114685869529,-0.129555576013,-1.98508584593,0.0295280464665,2.09370915084,0.0336645343333,-0.606625878676,-1.43557360878,-0.0357288800463,-1.85918037714,-0.2011948887,0.469075150274,-0.550460378767,0.573570400816,0.819136555607,0.00361185235615,0.0,0.819112999423,-0.573504075816,-0.0113011548289,0.0,-0.00718591534455,0.00944070488464,-0.999929615379,0.0,0.562918143449,0.131447979037,0.304538241739,1.0,-0.386343428571,-0.50776564898,1.445
0.340978777032,0.0900365437659,-0.130010456611,-2.01688320003,0.02591878802,2.10101746907,0.0236558984903,-0.6393494705,-1.46102000017,-0.0104454378589,-1.87513878113,-0.209579731893,0.416469575045,-0.583327399158,0.573511520612,0.819177923032,0.00357953116779,0.0,0.81915408484,-0.573445465764,-0.0112973441559,0.0,-0.00720200766467,0.0094115258047,-0.999929774668,0.0,0.555867799876,0.122200133584,0.304568424085,1.0,-0.39998,-0.525688,1.463
0.329480547835,0.0653016347503,-0.130462495458,-2.04860331956,0.0223444784794,2.10791273604,0.0130856969366,-0.680527990093,-1.44308409755,-0.0191935741864,-1.87643287949,-0.21500723773,0.391189122953,-0.624744574247,0.573447542847,0.819222949817,0.00352434339137,0.0,0.819197625699,-0.573380646253,-0.011429411722,0.0,-0.00734258746176,0.00944148358434,-0.99992846984,0.0,0.549438132163,0.113819820422,0.304511821837,1.0,-0.39998,-0.525688,1.479
0.317185989545,0.0407154591219,-0.1309954739,-2.07945452586,0.0186000203185,2.114077631,0.002279181179,-0.733819388984,-1.44046672706,-0.0205556651387,-1.79483375708,-0.22494942138,0.347868760048,-0.639768231611,0.573739579893,0.819019164853,0.00335394824687,0.0,0.818991391764,-0.573672840985,-0.0115463688542,0.0,-0.00753277338598,0.0093716439915,-0.999927712194,0.0,0.54260793727,0.104666238119,0.304500758815,1.0,-0.39998,-0.525688,1.496
0.304573949162,0.0164204175021,-0.13140029536,-2.10913771321,0.0149648673564,2.11980421566,-0.00892677724981,-0.753205101034,-1.41830908523,-0.0285561329595,-1.70327042869,-0.218625704195,0.331791386709,-0.669667340093,0.57380203195,0.818974435526,0.00358454818491,0.0,0.818949675056,-0.573734637593,-0.0114342578518,0.0,-0.00730792611629,0.0094967478023,-0.999928200421,0.0,0.53586604138,0.095713491243,0.304644091307,1.0,-0.39998,-0.525688,1.513
0.291386863269,-0.0075399044484,-0.131864622674,-2.13800085264,0.0113112266706,2.12503528522,-0.0205037380003,-0.77368695092,-1.38798013875,-0.0194485693826,-1.63965913763,-0.215220631827,0.312299156707,-0.684379123815,0.573977536899,0.818850452463,0.0038040160234,0.0,0.818828697271,-0.573909746641,-0.011309913226,0.0,-0.00707810196564,0.00960665857881,-0.999928803757,0.0,0.529137817196,0.0866819828919,0.304759152744,1.0,-0.39998,-0.525688,1.53
0.277870566668,-0.0312317307077,-0.132190290071,-2.16615227606,0.00761498917615,2.12970471935,-0.0324716779429,-0.805656383824,-1.39691529281,-0.02427237391,-1.65974223939,-0.224559459494,0.285727141981,-0.69525173904,0.573883163208,0.818916009668,0.00392823077439,0.0,0.818895729381,-0.573814893259,-0.0112694089025,0.0,-0.00697475633293,0.00968432188683,-0.999928780806,0.0,0.522738550704,0.0783358601384,0.30483453598,1.0,-0.39998,-0.525688,1.546
0.264523566156,-0.0532452996225,-0.132674423565,-2.19194871145,0.00418159178508,2.13356527987,-0.0440647598037,-0.836173290756,-1.38931173862,-0.0199716210608,-1.55702512847,-0.219110579921,0.245901479682,-0.728679997957,0.574120702671,0.81874917802,0.00399363962331,0.0,0.818729464026,-0.574051847282,-0.0112822102636,0.0,-0.00694487788685,0.00974724857728,-0.999928377343,0.0,0.515938759925,0.0692730488979,0.304864048274,1.0,-0.39998,-0.525688,1.563
0.250044057514,-0.0763048635852,-0.133060986624,-2.21860145173,0.000473370128118,2.1372020469,-0.0568656836931,-0.859172749519,-1.38240035398,-0.0312757585275,-1.55582662347,-0.22490686438,0.222020014347,-0.756994354207,0.574016879696,0.818821927988,0.00400237066387,0.0,0.818802149446,-0.573947768242,-0.011302490642,0.0,-0.00695770942585,0.00976515812315,-0.999928113399,0.0,0.50911420188,0.0603770498083,0.304868015102,1.0,-0.39998,-0.525688,1.58
0.234978181843,-0.0989506265974,-0.133483750833,-2.24442189251,-0.00321170861404,2.14029627823,-0.0701275181329,-0.89651139371,-1.35245426158,-0.0191308223445,-1.50583028848,-0.231455854186,0.194937173607,-0.789468001317,0.573982868651,0.818846082582,0.00393782133354,0.0,0.818824939797,-0.57391319408,-0.0114066002332,0.0,-0.00708041861728,0.00977176757658,-0.999927187464,0.0,0.502299728971,0.051437366358,0.304827837042,1.0,-0.39998,-0.525688,1.597
0.219437254171,-0.121275185197,-0.133893159342,-2.26943512997,-0.00687093806893,2.14286598852,-0.0837487393551,-0.929713616732,-1.32031562386,-0.0307387683428,-1.45294068345,-0.212703953509,0.153347506147,-0.805217524212,0.573976986932,0.818850564523,0.00386242859569,0.0,0.818827750614,-0.573906576482,-0.011537035867,0.0,-0.00723057437131,0.00978484519257,-0.99992598506,0.0,0.495484119727,0.0425403614805,0.30478756769,1.0,-0.39998,-0.525688,1.614
0.2043709111,-0.142011083762,-0.13422972475,-2.29233739911,-0.0102863019261,2.14482847814,-0.0970901939249,-0.951483638991,-1.30717003618,-0.0147726893464,-1.39935303114,-0.202875400493,0.105711483354,-0.840434405788,0.573820392007,0.818960844159,0.00374704574845,0.0,0.818935506516,-0.573748992289,-0.0117250550363,0.0,-0.00745264073453,0.00979685310496,-0.999924237038,0.0,0.489039878306,0.0342221757181,0.304721774851,1.0,-0.39998,-0.525688,1.63
0.187742019591,-0.163717107493,-0.134742524736,-2.31597202896,-0.0139412155505,2.14652657929,-0.111744493452,-0.990869052766,-1.25173583243,-0.0211843108632,-1.36318302847,-0.206432706082,0.0740699000049,-0.867592499087,0.573828830301,0.818955545658,0.00361035343489,0.0,0.818927406815,-0.573756572404,-0.011918258768,0.0,-0.00768920814174,0.00979584646458,-0.999922455729,0.0,0.482199179989,0.0252680976383,0.304626968487,1.0,-0.39998,-0.525688,1.647
0.170655320554,-0.185272619569,-0.135167006258,-2.33887982761,-0.0175368638281,2.14772869281,-0.126930247247,-1.02502676545,-1.25756389725,-0.0278673183241,-1.33536785027,-0.21828018192,0.0570827577188,-0.90302475893,0.573678910812,0.819060778391,0.00356307336441,0.0,0.819031040223,-0.573605606529,-0.0120627613314,0.0,-0.00783648670404,0.00983860888976,-0.999920892497,0.0,0.475336368991,0.0164168346653,0.304597199652,1.0,-0.39998,-0.525688,1.664
0.152866245805,-0.206510303705,-0.135752794706,-2.36090977072,-0.0210844059449,2.14860053007,-0.142700679299,-1.05618460146,-1.23971042411,-0.0353302162377,-1.28589483813,-0.200131685305,0.0428280585302,-0.954792345914,0.573732732895,0.819022480061,0.00369800771049,0.0,0.818994227537,-0.573658561474,-0.0120439615585,0.0,-0.00774303055919,0.00993885330182,-0.999920629187,0.0,0.468541846373,0.00743860890316,0.3046370057,1.0,-0.39998,-0.525688,1.681
0.13338471387,-0.228542130907,-0.136424238602,-2.38334328729,-0.0248780594322,2.14899501174,-0.159892190934,-1.09551405379,-1.20981973541,-0.0306729278272,-1.24442785413,-0.222370236051,0.0170829715283,-0.96756979253,0.573894644387,0.818908833838,0.00374244665295,0.0,0.818881009399,-0.573820086261,-0.0120477363102,0.0,-0.00771865523902,0.00997894196377,-0.999920418373,0.0,0.461349653081,-0.0021000455779,0.304669482826,1.0,-0.39998,-0.525688,1.699
0.115566747896,-0.247914274159,-0.137007717926,-2.40252429372,-0.0280689983625,2.1491225114,-0.175770679694,-1.13499698703,-1.22214561497,-0.0475712121512,-1.17654653585,-0.189325151164,0.00784373137969,-1.00784661673,0.573998222979,0.818834613302,0.00408203103556,0.0,0.818811702278,-0.573923085586,-0.0118505250803,0.0,-0.00736098999603,0.0101447904371,-0.999921446441,0.0,0.455004771456,-0.0105245904553,0.304795911055,1.0,-0.39998,-0.525688,1.715
0.0961395651972,-0.267893842013,-0.137579520999,-2.42221039458,-0.031518316805,2.14889371973,-0.193214263714,-1.15099229513,-1.18109756723,-0.0275220747677,-1.11486923581,-0.199144197224,-0.00893805263789,-1.03291291845,0.573950179574,0.818867762099,0.00418646192983,0.0,0.81884647086,-0.573875064586,-0.0117734577525,0.0,-0.00723853825591,0.0101856438731,-0.999921925064,0.0,0.448240970739,-0.019427258074,0.304812255761,1.0,-0.39998,-0.525688,1.732
0.0760687506197,-0.287489343739,-0.138214309842,-2.44118241056,-0.0348765689799,2.14826459392,-0.211310464041,-1.1812639523,-1.1322122794,-0.0308137503245,-1.10442163388,-0.183530550131,-0.0599843366025,-1.08072808662,0.573958218049,0.818861547762,0.00429842196637,0.0,0.818841416846,-0.57388231611,-0.011771500099,0.0,-0.00717257853128,0.0102762730039,-0.999921473082,0.0,0.441446861188,-0.0283652157217,0.304818874375,1.0,-0.39998,-0.525688,1.749
0.0566173676086,-0.305518499608,-0.13879888524,-2.45818849751,-0.0380624771717,2.1474408016,-0.22890472989,-1.2102325587,-1.10667528722,-0.0296317601077,-1.0562391558,-0.197244522376,-0.0629899538028,-1.09032554125,0.573928627007,0.818881456892,0.00445393778594,0.0,0.818864526939,-0.573853977045,-0.011543242722,0.0,-0.00689677028969,0.0102723668796,-0.999923453589,0.0,0.435116211873,-0.0367889623304,0.304897561914,1.0,-0.39998,-0.525688,1.765
0.0353784424377,-0.324178027681,-0.139454060074,-2.47562336948,-0.041209741187,2.1461301421,-0.248127081783,-1.27928054745,-1.09363490172,-0.0575485589061,-0.990495255655,-0.180418874329,-0.0743817033956,-1.14882300962,0.574047569385,0.818797316929,0.00459225153345,0.0,0.818781292396,-0.573971156639,-0.0116212507738,0.0,-0.00687976148544,0.0104314012423,-0.999921924327,0.0,0.428316226359,-0.0457126828332,0.30490369497,1.0,-0.39998,-0.525688,1.782
0.0136553713458,-0.3423161227,-0.140026554561,-2.49235172893,-0.0445033897022,2.14458150583,-0.268078580664,-1.29921423467,-1.06948993712,-0.0417731154742,-0.981428115616,-0.204015458528,-0.104887964879,-1.15234086612,0.573822954727,0.818955076399,0.0045328103386,0.0,0.818938405375,-0.573746945984,-0.0116222664495,0.0,-0.00691756120412,0.0103814156197,-0.999922183751,0.0,0.42150457114,-0.0545714135143,0.304879118823,1.0,-0.39998,-0.525688,1.799
-0.00878176897552,-0.359917012685,-0.140713139531,-2.50814054781,-0.0475829809895,2.14277205896,-0.288690234361,-1.32195574266,-1.02257145797,-0.0382860526925,-0.91692744399,-0.17911354126,-0.104252915362,-1.25442584672,0.573826390881,0.818951885738,0.00467213836395,0.0,0.818937048322,-0.573750006422,-0.0115666726876,0.0,-0.0067920397607,0.0104636507016,-0.999922187078,0.0,0.414731886178,-0.0635085754398,0.304926531703,1.0,-0.39998,-0.525688,1.816
-0.0318411184409,-0.376889560872,-0.141416479318,-2.52330395269,-0.0506606763926,2.14069984423,-0.30990375419,-1.36101455819,-0.984080078329,-0.04495625663,-0.876085357227,-0.169767613167,-0.128765601133,-1.24927430029,0.573853171793,0.81893333331,0.00463462179613,0.0,0.81891716257,-0.573775603206,-0.0117040555376,0.0,-0.00692574163993,0.0105119831122,-0.999920763018,0.0,0.407882746575,-0.0724521587631,0.304877431841,1.0,-0.39998,-0.525688,1.833
-0.0540994577007,-0.392349242494,-0.142067855249,-2.53662198941,-0.0533636857713,2.13869403027,-0.330456981869,-1.40375947388,-0.959708130137,-0.0342009913602,-0.831141574971,-0.164849236901,-0.130856084861,-1.31781451828,0.573942623279,0.818869363563,0.004855667035,0.0,0.818856762444,-0.573865462903,-0.0115230199138,0.0,-0.00664947639546,0.0105898519527,-0.999921816693,0.0,0.401535610611,-0.0808727114076,0.304966056311,1.0,-0.39998,-0.525688,1.849
-0.0782144054338,-0.407997183094,-0.142756862874,-2.5501342928,-0.0561857927801,2.13620731498,-0.352982464344,-1.42296370752,-0.910308877674,-0.0265337928895,-0.785403442033,-0.16647825986,-0.165106757134,-1.34277906373,0.573878441047,0.818914463019,0.00483570692676,0.0,0.818900164726,-0.573799083158,-0.0117422008102,0.0,-0.00684126558568,0.0106987630786,-0.999919363526,0.0,0.394698648137,-0.0897583081411,0.304924150278,1.0,-0.39998,-0.525688,1.866
-0.102963775222,-0.422978692956,-0.143446814887,-2.56259218441,-0.0589230702063,2.13390737407,-0.376174763342,-1.45714827182,-0.838332361354,-0.0286530940304,-0.735230975842,-0.168317154761,-0.139286367559,-1.37957499588,0.573850544555,0.818932772546,0.00504117692226,0.0,0.818922797727,-0.573773243002,-0.011422078581,0.0,-0.00646154645418,0.0106831064056,-0.99992205679,0.0,0.3879960624,-0.0987028136875,0.305034721968,1.0,-0.39998,-0.525688,1.883
-0.128260876621,-0.437045994884,-0.144092802214,-2.57454051653,-0.0615221373919,2.13125177154,-0.399970879862,-1.50060848629,-0.780477180018,-0.0268588243175,-0.6705139814,-0.175700967796,-0.158000021861,-1.40620697123,0.573810176121,0.818961615963,0.00494977379341,0.0,0.818948217088,-0.573729534456,-0.0117892290682,0.0,-0.00681522588874,0.0108185963226,-0.999918251993,0.0,0.381128290774,-0.107574948173,0.304918250919,1.0,-0.39998,-0.525688,1.9
-0.152548793875,-0.449753046331,-0.144742657729,-2.58469549404,-0.063853354761,2.1289536798,-0.422977799732,-1.52117673766,-0.768699849945,-0.0412600594856,-0.63159764663,-0.15409567262,-0.135968018624,-1.43732894866,0.573781615378,0.818980182912,0.00518312192347,0.0,0.81897161021,-0.573703206901,-0.01144023435,0.0,-0.00639587469164,0.0108092339645,-0.999921123513,0.0,0.374822578775,-0.115980055711,0.305055939423,1.0,-0.39998,-0.525688,1.916
-0.178821750939,-0.46216332249,-0.145317304125,-2.59487598595,-0.0661414582751,2.12629940207,-0.448004707766,-1.54411093219,-0.705318071834,-0.0234362982333,-0.565861543083,-0.135262372908,-0.144484749041,-1.48371414261,0.573672886591,0.819056372164,0.00517931546858,0.0,0.819046050839,-0.573591665701,-0.0117010488817,0.0,-0.00661313378407,0.0109548832841,-0.999918125145,0.0,0.368020489408,-0.124811630492,0.304989154068,1.0,-0.390946857143,-0.513815869388,1.933
-0.208245005392,-0.474583139933,-0.145642785866,-2.6048529526,-0.0683796116646,2.12361853794,-0.475830236957,-1.52803641224,-0.633542752924,-0.00655662692782,-0.482320743672,-0.120056393633,-0.139099622094,-1.45496079579,0.573688218374,0.819045438702,0.0052100232821,0.0,0.819035194729,-0.573606360627,-0.0117405172163,0.0,-0.00662764218302,0.011002800676,-0.999917502965,0.0,0.360695764507,-0.134441798036,0.304974862894,1.0,-0.375269142857,-0.49321087347,1.952
-0.232759524053,-0.483914699662,-0.145842630643,-2.6121818062,-0.0699010869997,2.12154735646,-0.499049807809,-1.51469948447,-0.546379249884,-0.00140346521044,-0.442524174652,-0.0994765216423,-0.122476006316,-1.45306149342,0.573815003019,0.818955419105,0.00539543600687,0.0,0.818947612421,-0.573732559797,-0.011683528563,0.0,-0.00647287634245,0.0111229775653,-0.999917187192,0.0,0.354749216602,-0.142306321961,0.305005354554,1.0,-0.362066857143,-0.475859297959,1.968
-0.258384237644,-0.492666419502,-0.145782071464,-2.61912867007,-0.0712891373396,2.11938249229,-0.523316013351,-1.49218530744,-0.488190182557,0.00720560310718,-0.383748148224,-0.0797957194291,-0.115371736902,-1.41761940598,0.573880056906,0.81890952706,0.00544184497695,0.0,0.818901056691,-0.573795271141,-0.0118656254767,0.0,-0.00659449579781,0.0112659953311,-0.999914791357,0.0,0.348597695613,-0.150303301091,0.304964047267,1.0,-0.348039428572,-0.45742324898,1.985
-0.280521794191,-0.49944306864,-0.145630233717,-2.62437790965,-0.0721803835398,2.11776729235,-0.544350913644,-1.46244865506,-0.432263722905,-0.000871019761612,-0.338145350052,-0.0529973384121,-0.100263055796,-1.38247348382,0.573979896772,0.818838129351,0.00565180714726,0.0,0.8188322812,-0.573894141992,-0.0118302980993,0.0,-0.00644368421269,0.0114184552618,-0.999914045212,0.0,0.343431482479,-0.157106538394,0.30498335569,1.0,-0.335662285714,-0.441156146939,2.0
-0.304876773573,-0.506027061359,-0.145325978199,-2.62943185896,-0.0730543466439,2.11608916244,-0.5675639965,-1.43102545747,-0.37296893599,0.00840130798391,-0.276522716735,-0.0452254680604,-0.102810272219,-1.34116861439,0.574019404246,0.818809473754,0.0057893126864,0.0,0.818805332619,-0.573932995147,-0.0118106416846,0.0,-0.00634810995328,0.0115200794006,-0.999913490893,0.0,0.337837491503,-0.16448777327,0.305004671047,1.0,-0.321634857143,-0.422720097959,2.017
-0.327245218442,-0.511374070025,-0.144930690835,-2.63343827306,-0.0738035058697,2.11478394853,-0.588932913231,-1.39772670493,-0.319996990908,0.0264534344592,-0.243857467884,-0.0361522125899,-0.0816922231815,-1.32563269536,0.573992523179,0.818827879887,0.00585092776546,0.0,0.818825772065,-0.573908173064,-0.0115978788524,0.0,-0.00613888947993,0.0114482066043,-0.999915622741,0.0,0.332798849202,-0.171200968988,0.305065878745,1.0,-0.308432571429,-0.405368522449,2.033
-0.351545182511,-0.51635811063,-0.144361061165,-2.63736949558,-0.0744089102439,2.11329375027,-0.612224199137,-1.33860920157,-0.260180110302,0.0478354461245,-0.205880701688,-0.0315152393093,-0.0720577251708,-1.28001190305,0.573916683183,0.818881089607,0.00584369312612,0.0,0.818877423536,-0.573829670935,-0.0118330418222,0.0,-0.00633669167808,0.0115766713724,-0.999912909717,0.0,0.327297758252,-0.178335026642,0.305007946933,1.0,-0.29358,-0.385848,2.051
-0.372380708882,-0.51996253234,-0.143826871436,-2.64026867829,-0.0747724019949,2.1122823935,-0.632187045801,-1.28033794244,-0.213106754986,0.033125767332,-0.160561602769,-0.00584244694583,-0.0570555862127,-1.25463301827,0.573921731933,0.818877237082,0.0058875381916,0.0,0.818873185029,-0.573832805017,-0.0119735386225,0.0,-0.00642651940054,0.0116932463057,-0.999910979957,0.0,0.32264611003,-0.184400201362,0.304945016654,1.0,-0.280377714286,-0.36849642449,2.067
-0.393689764203,-0.523064730425,-0.143131987318,-2.64267897953,-0.0750715236969,2.11134805116,-0.652627674841,-1.23848990208,-0.17391563889,0.0504772913338,-0.129458485705,-0.0142878392739,-0.0512454569452,-1.18790989603,0.573866525072,0.818916096778,0.0058638503228,0.0,0.818911384177,-0.573777067691,-0.0120319723186,0.0,-0.00648875789278,0.0117069453237,-0.999910417714,0.0,0.317962692394,-0.190550608024,0.304927242355,1.0,-0.266350285714,-0.35006037551,2.084
-0.417596956183,-0.52588722684,-0.142324893415,-2.64485288724,-0.0752355644177,2.11048740873,-0.675624256745,-1.16921589242,-0.127998797258,0.0450084463628,-0.10326514198,-0.0149090497809,-0.0377545334711,-1.11125149604,0.573839463709,0.818934790774,0.00590129235848,0.0,0.818930403605,-0.573749563458,-0.0120490408487,0.0,-0.00648163962359,0.0117471890415,-0.999909991898,0.0,0.312750816167,-0.197408008348,0.304921168295,1.0,-0.249847428572,-0.328370906123,2.104
-0.433595302766,-0.527358381239,-0.141744099251,-2.64599282142,-0.0752503144355,2.11002668449,-0.690982960081,-1.14017866017,-0.0982679624264,0.0343733444239,-0.0752014213044,-0.00185056042181,-0.0410979842494,-1.0771803975,0.573877678824,0.818907729037,0.00594036796248,0.0,0.818903798615,-0.573787512533,-0.0120501442432,0.0,-0.00645957166682,0.0117801255014,-0.999909747216,0.0,0.309290848245,-0.201971188853,0.304917276161,1.0,-0.238295428572,-0.313188277551,2.118
-0.452064725342,-0.528685349282,-0.140976223042,-2.64704448928,-0.0752119431815,2.10958054774,-0.708750607912,-1.06081248516,-0.0656763038155,0.0528994154842,-0.0565021675536,-0.000673045011476,-0.0210652217428,-1.01732355983,0.573863346963,0.818917762267,0.00594176388494,0.0,0.818913738494,-0.573772974463,-0.0120668795969,0.0,-0.00647268311846,0.0117907589978,-0.999909537096,0.0,0.305312253373,-0.207195373637,0.30490649345,1.0,-0.224268,-0.294752228572,2.135
-0.469684176396,-0.529607361716,-0.140236932309,-2.64774790376,-0.0751958492786,2.10923078825,-0.725591739742,-1.00478339337,-0.0490425070823,0.0454409231416,-0.0324824336087,0.0043604510498,-0.0182242702738,-0.976212985315,0.573943682891,0.818861879969,0.00588364722591,0.0,0.818857283812,-0.573853872563,-0.0120510826727,0.0,-0.00649194345767,0.0117347360883,-0.999910071276,0.0,0.3015193098,-0.212177171611,0.304913144729,1.0,-0.210240571429,-0.276316179592,2.152
-0.485267895398,-0.530073745331,-0.139447548166,-2.64811938226,-0.07497819461,2.10901698217,-0.740544225799,-0.960928674777,-0.0233211028245,0.0407702345872,-0.0185240719304,0.016756848122,-0.00324879817712,-0.916166592413,0.573974404138,0.81884022951,0.00589990100722,0.0,0.818835886362,-0.573884594777,-0.0120420091618,0.0,-0.00647474390594,0.0117430817947,-0.999910084818,0.0,0.298210376134,-0.21653144447,0.304917324949,1.0,-0.197038285714,-0.258964604082,2.168
-0.500748712533,-0.530305105085,-0.138533655907,-2.64828778004,-0.074680687585,2.10886532998,-0.75553026677,-0.8848933074,-0.00509448818881,0.060001452043,-0.00909445580423,0.0210627539451,-0.00826909367148,-0.865904129322,0.57385171963,0.818926237285,0.00589649599099,0.0,0.818922116468,-0.573762433509,-0.0119993314077,0.0,-0.00644350348805,0.0117148334862,-0.999910617975,0.0,0.294948056409,-0.220814587671,0.304936610679,1.0,-0.183010857143,-0.240528555102,2.185
-0.51531611421,-0.530305826422,-0.13770281629,-2.6483100366,-0.0743385422232,2.10880977964,-0.769438517047,-0.853022364405,0.00152618755623,0.0455437394771,-0.000914884770266,0.0216115869689,-0.00157566197789,-0.810919043377,0.573950122281,0.818856989622,0.00593587245555,0.0,0.818853602654,-0.573861061106,-0.0119585478545,0.0,-0.00638609738259,0.0117244462804,-0.999910873588,0.0,0.291866230474,-0.224838680354,0.304944126999,1.0,-0.168983428572,-0.222092506123,2.202
-0.528666098757,-0.530085216006,-0.13670891406,-2.64820564235,-0.0738825970889,2.10881213366,-0.782326426224,-0.763133356264,0.0155946012291,0.0578114540467,0.00808497423472,0.0325522552049,0.000287763608843,-0.739197825452,0.573828263502,0.818942247429,0.00595535759719,0.0,0.818939095018,-0.573739113839,-0.0119555344653,0.0,-0.00637419339683,0.0117377247302,-0.999910793759,0.0,0.289084507522,-0.228449947588,0.304937630018,1.0,-0.154956,-0.203656457143,2.219
-0.540423463997,-0.529752583066,-0.135882017718,-2.64801728135,-0.0734682600114,2.10881603659,-0.793484008734,-0.720831032853,0.0229738803215,0.0478830246608,0.0152965321717,0.0281404095195,-0.00144091601983,-0.675232260857,0.573924009315,0.818874881274,0.00599226596815,0.0,0.818871907423,-0.573834132995,-0.0119972473682,0.0,-0.00638580071417,0.0117926336182,-0.999910073627,0.0,0.286610589446,-0.231632634846,0.30492399286,1.0,-0.141753714286,-0.186304881633,2.235
-0.551737412768,-0.529244577875,-0.134886145448,-2.64774387762,-0.072980374817,2.10887986842,-0.804369709313,-0.639193973108,0.0287023577624,0.0578524477703,0.0183116963326,0.0242896603552,0.00069026898857,-0.624822082521,0.573796457539,0.818964286807,0.0059890860333,0.0,0.818960821175,-0.57370579184,-0.0120658481128,0.0,-0.00644564944804,0.0118283954535,-0.999909267216,0.0,0.284271850446,-0.234640017135,0.304894331641,1.0,-0.127726285714,-0.167868832653,2.252
-0.562130345686,-0.528658192988,-0.133979067559,-2.64742617092,-0.0724932122461,2.10897699718,-0.814193421991,-0.595067588199,0.0345547919569,0.0546357288783,0.0157724852368,0.0322175405016,0.00905721913183,-0.569721146359,0.573849045025,0.818927269214,0.00601233424339,0.0,0.818923568624,-0.573757281829,-0.0121456659642,0.0,-0.0064969215938,0.0118936500187,-0.999908161332,0.0,0.282117538375,-0.237398217293,0.304856475632,1.0,-0.113698857143,-0.149432783674,2.269
-0.57203773344,-0.528022587324,-0.133057916987,-2.6469775282,-0.0719767791481,2.10909052624,-0.823421802788,-0.519153010502,0.0369796772809,0.0536587733559,0.022521118517,0.0239281116434,0.00875332464735,-0.49791153322,0.574000572334,0.818820889536,0.00603661510078,0.0,0.818817587478,-0.573908821038,-0.0121313838362,0.0,-0.00646908839852,0.0119065371163,-0.99990818842,0.0,0.28009207182,-0.240027093769,0.30486163965,1.0,-0.0988462857144,-0.129912261225,2.287
-0.580092571227,-0.527376783104,-0.13210645262,-2.64655709645,-0.0714361497916,2.10920783072,-0.831056434595,-0.462445712548,0.0353817426543,0.0499663319512,0.0286587791307,0.0303286607731,0.00935541410544,-0.425915893517,0.573927324323,0.818872133997,0.00604991394944,0.0,0.818868792582,-0.57383513817,-0.0121606594386,0.0,-0.00648649682334,0.0119336502243,-0.999907752421,0.0,0.278492926485,-0.242107072883,0.304851043997,1.0,-0.084818857143,-0.111476212245,2.304
-0.586902922509,-0.526853364251,-0.13124432834,-2.64615842561,-0.0709505868023,2.10931882706,-0.837266393563,-0.404451124605,0.0357406879053,0.0533958549566,0.026930474355,0.0293722859831,0.00993456053758,-0.361159853798,0.574039206429,0.818793700231,0.00605085497682,0.0,0.818790721417,-0.57394763856,-0.0121082457189,0.0,-0.00644140540731,0.0119052208878,-0.999908382809,0.0,0.277155981479,-0.243853579773,0.304872200036,1.0,-0.0716165714287,-0.0941246367349,2.32
-0.593363942481,-0.526251653643,-0.130268624248,-2.64572141678,-0.0703781651315,2.10944491709,-0.843139204905,-0.333070667034,0.0364894730911,0.0525199992072,0.0221959328506,0.0317940324412,0.00823990310736,-0.313834054827,0.574099781945,0.818751168754,0.00605895495531,0.0,0.818748483885,-0.574008515094,-0.0120785610525,0.0,-0.00641156768419,0.0118952884712,-0.999908692788,0.0,0.27593444783,-0.245471437936,0.304886040967,1.0,-0.0567640000001,-0.0746041142859,2.338
-0.597973106164,-0.525781647556,-0.129334701998,-2.6454130102,-0.069822500443,2.10953333072,-0.847346956391,-0.267290139876,0.0210113120381,0.0604137653224,0.0192273845054,0.0350274199012,0.00239883745638,-0.226763968003,0.574022531142,0.818805240136,0.0060711916223,0.0,0.818802591739,-0.573930999391,-0.0120942383123,0.0,-0.00641850420635,0.0119137020992,-0.99990842906,0.0,0.275116653722,-0.246550722448,0.304885091699,1.0,-0.0435617142858,-0.0572525387757,2.354
-0.601704983149,-0.525456802565,-0.128350647185,-2.64520327092,-0.069308962057,2.10958116462,-0.85061904107,-0.212872336335,0.0138518422484,0.0642131332973,0.0159779691983,0.0340228114632,0.000686819878111,-0.188962199516,0.573934007144,0.81886762599,0.00602606429357,0.0,0.81886432144,-0.573842564432,-0.0121112022308,0.0,-0.006459583598,0.0118857887146,-0.999908496717,0.0,0.274491651324,-0.247352258493,0.304889946583,1.0,-0.0303594285716,-0.0399009632655,2.37
-0.604720937481,-0.525177833134,-0.127345945287,-2.64502913762,-0.0687450061312,2.10962736502,-0.853064823215,-0.158450937849,0.0156384804689,0.057549909242,0.00914025265845,0.0338418551871,0.000654045160366,-0.130750052767,0.57394061577,0.818863125466,0.00600817957297,0.0,0.818859539046,-0.573849159982,-0.0121220379098,0.0,-0.00647862578246,0.011877413735,-0.999908473037,0.0,0.27404279932,-0.24793779659,0.304895590794,1.0,-0.0198915789474,-0.0261432180451,2.387
-0.606890561066,-0.524944884012,-0.126718257827,-2.64485759463,-0.0683412621411,2.10970785274,-0.854902061042,-0.113577108014,0.0168808915628,0.0359414525378,0.0144687035962,0.0218201738869,0.00187171054573,-0.0988033070219,0.573950274996,0.818856163291,0.00603428321839,0.0,0.818853229012,-0.573859278798,-0.0120691497616,0.0,-0.0064201918608,0.0118685126284,-0.999908955628,0.0,0.273717428041,-0.248397331418,0.304910465507,1.0,-0.0195515789474,-0.0256963609023,2.404
-0.608615961008,-0.524779574461,-0.126273309476,-2.64469704476,-0.0681322390038,2.10972608834,-0.856470733963,-0.104394743347,0.0109378816842,0.0183713460116,0.00677419784932,0.00448268706718,0.00158505498286,-0.0960677868598,0.573861456066,0.818918742877,0.00598904894785,0.0,0.818915483804,-0.573771157502,-0.0120347873408,0.0,-0.00641929296407,0.0118110529029,-0.999909641771,0.0,0.273436081765,-0.248786611126,0.304935219537,1.0,-0.0192315789474,-0.0252757894737,2.42
-0.610242248564,-0.524589602009,-0.125995425543,-2.6445211742,-0.0679556349103,2.10979173713,-0.857988748688,-0.0834344252637,0.00910185439205,0.0123401918409,0.00611706467438,0.017352645831,0.00238464343481,-0.0827189092928,0.573838032984,0.818935118134,0.00599425458931,0.0,0.818932363115,-0.573748523017,-0.0119651109134,0.0,-0.00635957724375,0.0117751514951,-0.999910446782,0.0,0.273152300732,-0.249199203081,0.304957884827,1.0,-0.0188915789474,-0.0248289323308,2.437
-0.611733937092,-0.524384544654,-0.12583246838,-2.64437875804,-0.0678558039454,2.10984060001,-0.859464816735,-0.0855197380315,0.0145435024871,0.00532238521279,0.00654247140758,0.00429342997245,0.000299581061045,-0.0872019997085,0.573785781599,0.818971715577,0.00599606715162,0.0,0.818968974872,-0.573696257835,-0.0119653184454,0.0,-0.0063594585273,0.0117763492959,-0.999910433431,0.0,0.27285996332,-0.249597836973,0.304955557952,1.0,-0.0185515789474,-0.024382075188,2.454
-0.613233323427,-0.524239430193,-0.125730628727,-2.64422874475,-0.0678206766886,2.10984376837,-0.860943861463,-0.0843346878375,0.0109012663662,0.00260961542721,0.012148410299,0.00310686111489,0.0102041882641,-0.0864664986906,0.573753130284,0.818994736765,0.00597608072293,0.0,0.818991870415,-0.57366394282,-0.0119475438515,0.0,-0.00635683589031,0.0117495284279,-0.999910765628,0.0,0.272542568969,-0.250015431049,0.304973248574,1.0,-0.0182115789474,-0.0239352180451,2.471
-0.614658593712,-0.524096864951,-0.12568831803,-2.64406099992,-0.0677778896016,2.10986743399,-0.862313451709,-0.0799482613687,0.00971966185336,0.00213264061547,0.0158764156365,0.00368158952934,0.00122465605856,-0.0783598550451,0.573795583416,0.818964910851,0.00598749934842,0.0,0.818962551494,-0.573707006636,-0.0118893518619,0.0,-0.00630201299253,0.0117258210899,-0.99991139095,0.0,0.27223895889,-0.250432195051,0.305000263572,1.0,-0.0178715789474,-0.0234883609023,2.488
-0.615925492858,-0.523916680804,-0.12567273849,-2.64390714259,-0.0677372641084,2.10995156404,-0.863632250056,-0.0819572189365,0.0136680750591,-0.000591627042125,0.00615887987494,0.00147532300457,0.00510175084001,-0.0786708926849,0.573767414983,0.81898450499,0.00600674552922,0.0,0.818982786348,-0.573679499175,-0.0118226390298,0.0,-0.00623673148304,0.0117030915456,-0.999912066548,0.0,0.271974360974,-0.250815833605,0.305011683816,1.0,-0.0175515789474,-0.0230677894737,2.504
-0.617282569168,-0.523730294678,-0.12568182858,-2.64376631236,-0.067714799189,2.10995635949,-0.864894222726,-0.0820670993956,0.0169656687215,-0.000516952321006,0.00823071106051,0.000200538060238,-0.000970854887057,-0.0717339429765,0.573868809049,0.818913290387,0.00602990287675,0.0,0.818911648743,-0.573780362788,-0.0118555359843,0.0,-0.00624893643344,0.0117417060868,-0.999911537653,0.0,0.271663703789,-0.251217063618,0.305007520901,1.0,-0.0172115789474,-0.0226209323308,2.521
-0.618554960621,-0.523579848511,-0.125679714494,-2.64366495943,-0.0676905983686,2.10995391814,-0.866151987449,-0.0779462711684,0.0120618972347,-0.000627273116489,0.00697539311256,0.000369935526133,-0.000451174995044,-0.0782442276869,0.573900388666,0.818890975551,0.00605482868706,0.0,0.818889305109,-0.573811174592,-0.0119075099438,0.0,-0.00627674492016,0.011792186077,-0.999910769429,0.0,0.271347582111,-0.251603058864,0.304994509122,1.0,-0.0168715789474,-0.022174075188,2.538
-0.619851435764,-0.523397892576,-0.125654360357,-2.64356519525,-0.0676639834383,2.10996983894,-0.86746282116,-0.0759093184811,0.0148524215747,0.00116093905989,0.00701275759372,-6.38275293075e-05,-0.000676228013811,-0.0759585887873,0.573882283896,0.818903566382,0.00606795665213,0.0,0.81890174181,-0.573792410625,-0.011956323448,0.0,-0.00630944991383,0.0118308102587,-0.999910107345,0.0,0.271069832337,-0.251949278263,0.304978794786,1.0,-0.0165515789474,-0.0217535037594,2.554
-0.621088768906,-0.523202459122,-0.125587834639,-2.64345609895,-0.067631874709,2.11000057792,-0.868693060389,-0.0744912413298,0.00842120037386,0.00319719294824,0.00269980314311,0.000649216391859,0.00296471404109,-0.0779310768197,0.573860749009,0.81891869316,0.00606313784402,0.0,0.818916509463,-0.573770345669,-0.0120036602867,0.0,-0.0063512953806,0.0118538613861,-0.99990956942,0.0,0.270800976272,-0.252294542087,0.304960880567,1.0,-0.0162115789474,-0.0213066466165,2.571
-0.622085422567,-0.523049661293,-0.12551765029,-2.64335918565,-0.0676055543022,2.11002779898,-0.869733793298,-0.0740377739858,0.0116025543736,0.00356788894094,0.00465432223063,0.000688815413961,0.000168009786004,-0.0745826870863,0.573791464206,0.818967332238,0.00605072158938,0.0,0.818964854415,-0.573700880666,-0.0120255418678,0.0,-0.00637734442136,0.0118557098609,-0.999909381705,0.0,0.270590275962,-0.252571359009,0.304952851108,1.0,-0.0159315789474,-0.0209386466165,2.585
-0.623428537203,-0.522841830582,-0.125402473709,-2.64322698012,-0.0675721164866,2.1100547758,-0.871122824859,-0.0682681384404,0.0096625447228,0.00118888267833,0.0109960011932,0.00188463489339,0.00124339188148,-0.0634965608233,0.573693765396,0.819035981432,0.00602258806499,0.0,0.819032903753,-0.57360288924,-0.0120654435325,0.0,-0.00642758222118,0.0118547957639,-0.999909070868,0.0,0.270308822934,-0.25293879753,0.304941701526,1.0,-0.0155315789474,-0.0204129323308,2.605
-0.62454936352,-0.522660424767,-0.12533200733,-2.64309974867,-0.0675445031795,2.11008016018,-0.872278847299,-0.0638200245846,0.00873145007222,0.00349652284774,0.0078163802248,0.000165154032663,-0.00015265300015,-0.071402527354,0.57363363252,0.819078193977,0.00600955026308,0.0,0.819074815887,-0.573542584424,-0.012087048186,0.0,-0.00645362886192,0.0118560368981,-0.999908888381,0.0,0.270072401864,-0.253255420497,0.304936778095,1.0,-0.0151915789474,-0.019966075188,2.622
-0.625695439772,-0.52250898946,-0.125324711751,-2.64300239322,-0.0675171821134,2.1101067208,-0.873467580243,-0.0705203714627,0.00717020741121,0.000427220139835,0.00428660689047,0.00134163325163,-0.000890960797734,-0.0672612637845,0.573610439435,0.819094276059,0.0060313845164,0.0,0.819091028947,-0.573519019461,-0.0121065071783,0.0,-0.00645738132358,0.0118849006732,-0.999908521497,0.0,0.269809664336,-0.253585879505,0.304927874162,1.0,-0.0148515789474,-0.0195192180451,2.639
-0.626771646718,-0.522367048298,-0.125337834247,-2.6429065126,-0.0674940439701,2.11013923366,-0.874504364075,-0.068454739266,0.00785786442584,0.00021064604683,0.00153050499294,0.00433420466766,0.00138727840309,-0.0711232135553,0.573667030998,0.819054448915,0.00605757048834,0.0,0.819051477562,-0.573575364155,-0.0121130358753,0.0,-0.00644688684732,0.0119105407007,-0.999908284129,0.0,0.269560406058,-0.253902805403,0.304921800987,1.0,-0.0145315789474,-0.0190986466165,2.655
-0.627879989234,-0.522221078305,-0.125345664597,-2.64278818215,-0.0674699058731,2.11016162701,-0.875615792413,-0.0621545599331,0.00561591166721,0.000187828594281,0.00909771835335,-0.000857098502981,0.000467672277127,-0.0606788607016,0.573686555094,0.819040599824,0.00608105638259,0.0,0.81903792425,-0.573594762191,-0.0121109177618,0.0,-0.00643139508271,0.0119287161514,-0.999908167228,0.0,0.26930736767,-0.254231059044,0.304923706883,1.0,-0.0141915789474,-0.0186517894737,2.672
-0.628923254047,-0.522081520226,-0.125343360496,-2.64268208571,-0.0674423762324,2.1101900822,-0.87665999506,-0.0603340235805,0.0108988313604,0.000505457879831,0.00844469048336,0.00221162834494,-0.000217304445743,-0.0562217931253,0.573708619377,0.819024972157,0.00610425561375,0.0,0.819022596515,-0.573616715495,-0.0121077249302,0.0,-0.00641514952965,0.0119460594347,-0.999908064534,0.0,0.269055654646,-0.254557157202,0.304924366755,1.0,-0.0138515789474,-0.0182049323308,2.689
-0.630038845378,-0.52192450361,-0.125319859602,-2.64254560915,-0.0674173414095,2.11022698736,-0.877717808727,-0.0617291779638,0.00447588018349,0.0023128623777,0.00788632518745,0.00111681614613,0.00247796498732,-0.0540227539443,0.573749955951,0.818995995029,0.0061069693443,0.0,0.818993797668,-0.573658297893,-0.0120856750549,0.0,-0.00639492895004,0.01193595535,-0.999908314724,0.0,0.268828630976,-0.254865875953,0.304931225058,1.0,-0.0135115789474,-0.017758075188,2.706
-0.630932076089,-0.521787901854,-0.125274841177,-2.64242302091,-0.0673914516697,2.11025617304,-0.878614005141,-0.0524226541022,0.00631140120501,0.00520818384546,0.00221643248292,0.00102051337239,0.00193195355996,-0.0610732672994,0.57373303882,0.81900788599,0.00610161898191,0.0,0.819005756047,-0.573641663564,-0.0120648367997,0.0,-0.00638117647633,0.0119194860344,-0.999908599043,0.0,0.268643030321,-0.255125903717,0.30494032156,1.0,-0.0132115789474,-0.0173637894737,2.721
-0.631954511938,-0.52162478887,-0.125222891727,-2.64229384779,-0.0673637701033,2.11028387227,-0.87973780315,-0.0558621460338,0.00941081686785,0.00229525050238,0.00657502208315,0.00127819846851,0.00119435763356,-0.0596946022152,0.573631815708,0.819078820827,0.0060968993557,0.0,0.819076628501,-0.573540480466,-0.0120640296962,0.0,-0.00638469555732,0.0119143684165,-0.99990863757,0.0,0.268426521783,-0.255419781231,0.304942700693,1.0,-0.0128515789474,-0.0168906466165,2.739
-0.632914268662,-0.521465170963,-0.125170440185,-2.64220429961,-0.0673433417425,2.11031010614,-0.880707802105,-0.0540769276028,0.00951164609229,0.00570052609158,0.00812373883121,0.00034694635835,0.00385515309256,-0.0556546607429,0.573599909512,0.819101222593,0.00608915883401,0.0,0.819098691719,-0.573508172017,-0.0121019318745,0.0,-0.00642064845948,0.0119295187429,-0.999908226717,0.0,0.268215778324,-0.255687151753,0.304928230802,1.0,-0.0125115789474,-0.0164437894737,2.756
-0.63385473149,-0.521317788649,-0.12514893085,-2.64211771306,-0.0673275210151,2.11032879088,-0.881643628142,-0.0539426497761,0.00939331951876,0.000874131226837,0.00674526600615,0.000877476799813,0.000340339050532,-0.0568268213711,0.573599949415,0.819101162914,0.0060934264945,0.0,0.819098449041,-0.573507750228,-0.0121382909641,0.0,-0.00644798506815,0.011953869423,-0.999907759993,0.0,0.268001067764,-0.255954909384,0.304915525102,1.0,-0.0121715789474,-0.0159969323308,2.773
-0.634774082698,-0.521154531526,-0.125140786977,-2.64202966997,-0.0673079604497,2.11034745865,-0.882600348655,-0.0471312265445,0.0100169129738,0.00169854777283,0.00644126250512,0.000653978092564,0.00240588191665,-0.0568770921051,0.573576789705,0.819117271889,0.00610803616697,0.0,0.819114405667,-0.573483894748,-0.012188510795,0.0,-0.00648108412146,0.0119944582383,-0.999907059941,0.0,0.267788949875,-0.256219505033,0.304897324988,1.0,-0.0118315789474,-0.015550075188,2.79
-0.635688565805,-0.521015529781,-0.125140563075,-2.64193492616,-0.0673006231681,2.11037191135,-0.883476098243,-0.0570835723407,0.0087342865835,0.0010672517862,0.00461597688151,-0.000585080805811,0.00174779149951,-0.0511410413157,0.573616553714,0.819089387058,0.00611328185642,0.0,0.819086491283,-0.573523445055,-0.0122034696208,0.0,-0.00648974692851,0.0120076499577,-0.999906845425,0.0,0.267578086473,-0.256488527784,0.304891376729,1.0,-0.0114915789474,-0.0151032180451,2.807
-0.636565902055,-0.520885603093,-0.125134759766,-2.64182616885,-0.0672981623749,2.11039824054,-0.884305255065,-0.0507787877527,0.00766317042967,0.000964886453177,0.00391758778109,-0.000364974711797,0.00027673354316,-0.0522916695974,0.573658623336,0.819059957178,0.00610879054905,0.0,0.819057071207,-0.573565652725,-0.0121943848365,0.0,-0.00648426472554,0.0119990931332,-0.999906983711,0.0,0.267381029278,-0.256750678727,0.304895415221,1.0,-0.0111515789474,-0.0146563609023,2.824
-0.637430634021,-0.520736495339,-0.125127620675,-2.64169667926,-0.0672914636304,2.11043181865,-0.885170457772,-0.0542448779096,0.0132082888525,8.03105924699e-05,0.0119599607287,-0.000527319286981,0.00331128106482,-0.0526858845463,0.573662754218,0.819057094804,0.00610465194227,0.0,0.81905427733,-0.573570028221,-0.0121762233526,0.0,-0.00647170133839,0.0119853178639,-0.999907230316,0.0,0.267193171471,-0.257014524143,0.304902469121,1.0,-0.0108115789474,-0.0142095037594,2.841
-0.63818759194,-0.520627013231,-0.125119811604,-2.64158293046,-0.0672851399401,2.11045893538,-0.885916058793,-0.0469838111538,0.00702090653446,0.00238442430525,0.00844344542957,0.00397465895803,0.000212608339055,-0.0530677815082,0.573675014798,0.819048541485,0.00610008106997,0.0,0.819045896679,-0.573582737286,-0.0121412323183,0.0,-0.00644548151986,0.0119615982975,-0.999907683706,0.0,0.267029097307,-0.257245123656,0.304916399635,1.0,-0.0105115789474,-0.0138152180451,2.856
-0.63901149082,-0.520493264927,-0.125109650595,-2.64146422592,-0.067276292623,2.11049624571,-0.886714950918,-0.0453741553286,0.00940542818512,-0.000308299626717,0.00839800973601,0.00179437464317,0.00655252574768,-0.0441952015713,0.573698204032,0.819032328888,0.00609605011833,0.0,0.819029807564,-0.573606266366,-0.0121149662745,0.0,-0.0064259402135,0.0119434110966,-0.999908026882,0.0,0.266850554868,-0.257494973318,0.304924581256,1.0,-0.0101715789474,-0.0133683609023,2.873
-0.63980982452,-0.520396837232,-0.125103844342,-2.64137166103,-0.0672676714599,2.11052792059,-0.887473363151,-0.045569807647,0.00411019146363,-0.000597398104058,0.00428865066623,-4.83977243712e-05,0.000127712960414,-0.0429760789763,0.573735205098,0.819006406273,0.00609654126753,0.0,0.81900409956,-0.573643644974,-0.0120830619048,0.0,-0.00639898615327,0.0119257999,-0.999908409942,0.0,0.266671288626,-0.25773206806,0.304934022684,1.0,-0.00983157894737,-0.0129215037594,2.89
-0.64056705586,-0.520296639551,-0.125097675856,-2.64130023065,-0.0672600976738,2.11054452473,-0.888220917745,-0.046719341137,0.00517457566381,0.00410694701499,0.00278435005912,-0.0001235549225,0.000598417122536,-0.0393225310688,0.573749279606,0.818996491332,0.00610395278329,0.0,0.818994164117,-0.573657466002,-0.0121003199928,0.0,-0.00640866491852,0.0119418815047,-0.999908156022,0.0,0.266482748465,-0.257962166639,0.304926983699,1.0,-0.00947157894737,-0.0124483609023,2.908
-0.64133459184,-0.520199639559,-0.125095292362,-2.64125279833,-0.0672481222117,2.11055409842,-0.889009467691,-0.0473907282559,0.00742869346982,-0.00125974752657,0.0030077622021,0.00111981012982,-0.000182964163533,-0.0446668083863,0.573734653179,0.819006661034,0.00611423132174,0.0,0.819004292087,-0.573642470078,-0.0121257151135,0.0,-0.00642378236747,0.0119647550091,-0.999907785577,0.0,0.266308859604,-0.258165077776,0.304917946315,1.0,-0.00913157894737,-0.0120015037594,2.925
-0.641996496433,-0.520126967463,-0.125079134573,-2.64119790344,-0.0672383882307,2.11056526737,-0.889663437456,-0.0404591427144,0.00713424694073,0.00279459489064,0.00304758930328,0.000341365330408,0.000322614142628,-0.0336854210185,0.57373674162,0.819005186037,0.00611583688497,0.0,0.819002819306,-0.573644516099,-0.0121283972473,0.0,-0.00642502765511,0.0119676251828,-0.999907743228,0.0,0.266155130881,-0.258351057816,0.304917497296,1.0,-0.00881157894737,-0.0115809323308,2.941
-0.642680970305,-0.520021828822,-0.125052166059,-2.64113480178,-0.0672282041998,2.11059145297,-0.890317563956,-0.0388410554032,0.00644639960031,0.00454030347719,0.00311248553732,-0.000175727498379,0.001511126362,-0.0291310291283,0.573750241692,0.818995766491,0.00611077159128,0.0,0.818993262051,-0.57365790243,-0.0121406175968,0.0,-0.00643774594767,0.0119705935107,-0.999907625893,0.0,0.266001375185,-0.258544163656,0.304910368317,1.0,-0.00847157894737,-0.011134075188,2.958
-0.643310364592,-0.519916714188,-0.125022619577,-2.64105519174,-0.0672188396398,2.11061400286,-0.890903089526,-0.0360912704742,0.00362832909151,0.0022159494738,0.00545269710929,7.62680214405e-05,0.000228158361116,-0.0419711311702,0.573773402107,0.818979613818,0.00610099060721,0.0,0.818976994664,-0.573681125261,-0.0121406603172,0.0,-0.00644305419007,0.0119627892467,-0.999907685102,0.0,0.265865457041,-0.258725756085,0.304910495612,1.0,-0.00815157894737,-0.0107135037594,2.974
-0.643954178875,-0.519818804676,-0.124994201689,-2.64096126461,-0.0672119030217,2.11064253545,-0.891520564647,-0.0377959553136,0.00502378460301,0.00413522550927,0.00579314173951,-0.000132733227614,0.00677595144674,-0.0373768615086,0.573789089298,0.818968699144,0.00609079031013,0.0,0.818966134782,-0.573697202942,-0.0121134766933,0.0,-0.00642641261335,0.0119389616201,-0.999908076983,0.0,0.265720476339,-0.258928770976,0.304919039122,1.0,-0.00779157894737,-0.0102403609023,2.992
-0.644579218704,-0.519708573654,-0.124980664484,-2.64086696382,-0.0671975699856,2.11067445771,-0.892140035307,-0.0375390287408,0.00609363678407,0.00137835958231,0.00540799398803,0.000429776199797,1.88739966869e-05,-0.0342853437773,0.573788546365,0.818969106965,0.00608710097717,0.0,0.818966624392,-0.573696917655,-0.0120938705713,0.0,-0.00641247877352,0.0119246865418,-0.999908336782,0.0,0.26559635645,-0.25910448356,0.304925595288,1.0,-0.00747157894737,-0.00981978947369,3.008
-0.645165497192,-0.519609316405,-0.124971277216,-2.64079140393,-0.067188804734,2.11069285421,-0.892716723487,-0.0399899236061,0.00399411193762,0.00244974897942,0.00105044470679,-0.000653209236227,0.00172289561182,-0.0358300671397,0.573797449829,0.818962865801,0.00608752091023,0.0,0.818960375578,-0.573705793006,-0.0120959995617,0.0,-0.00641385194103,0.0119263217312,-0.999908308473,0.0,0.265465359916,-0.259277388152,0.30492519678,1.0,-0.00713157894737,-0.00937293233083,3.025
-0.645740517837,-0.519550478673,-0.124955468144,-2.64073387095,-0.0671761937604,2.11070642831,-0.893235555313,-0.0292355861591,0.000726641539412,0.000938934827248,0.0070349780835,0.000348023287761,-0.000173474066508,-0.0246648392605,0.57384057303,0.818932639269,0.00608900535865,0.0,0.818930271133,-0.573749091857,-0.0120804601017,0.0,-0.00639964499286,0.0119189584334,-0.9999084873,0.0,0.265334889346,-0.25944084563,0.304931223134,1.0,-0.00679157894737,-0.00892607518798,3.042
-0.64626605274,-0.519501196178,-0.124950106251,-2.64070051571,-0.0671671193391,2.11072187966,-0.893736801297,-0.0352492806918,0.00354927159796,0.00157297752879,0.00132009585812,-0.000160798130136,0.00307602895336,-0.0225859761433,0.573868736275,0.818912841733,0.00609738238111,0.0,0.818910623027,-0.573777288002,-0.0120732004037,0.0,-0.00638848232298,0.011921872996,-0.999908523935,0.0,0.265203063998,-0.259596983045,0.30493130042,1.0,-0.00645157894737,-0.00847921804512,3.059
-0.646777145667,-0.519439375606,-0.124946453221,-2.6406536606,-0.0671578526778,2.11074440157,-0.894218703764,-0.0297774741676,0.00333706139321,0.000867456242568,0.00598151622042,0.00115184030387,-0.000625487990647,-0.0301842935256,0.573885237949,0.818901263298,0.00609930604323,0.0,0.818899116168,-0.573793864728,-0.0120658708676,0.0,-0.00638113536622,0.0119193709868,-0.999908600676,0.0,0.265085826064,-0.259742720189,0.304931271846,1.0,-0.00611157894737,-0.00803236090226,3.076
-0.647151487793,-0.519399968055,-0.124937940096,-2.6405950861,-0.0671478424997,2.11075375188,-0.894577986616,-0.0276068335101,0.00251955898639,-0.00020403450334,0.00415076724045,-6.63068568385e-05,-0.000472376568476,-0.0267040519753,0.573903480052,0.818888467697,0.00610081612477,0.0,0.818886528746,-0.573812449102,-0.0120363280994,0.0,-0.00635580840096,0.0119037959072,-0.999908947526,0.0,0.265011010574,-0.259847822167,0.304943354766,1.0,-0.00587157894737,-0.00771693233083,3.088
-0.647729363241,-0.519337807196,-0.12492055784,-2.64049857928,-0.0671245947086,2.11076291486,-0.895131723315,-0.026158797849,0.00352268930137,0.000373304039862,0.00341914161178,0.000413942440803,0.000898085955158,-0.0239533184279,0.573925591185,0.818872933352,0.00610587477192,0.0,0.818871357756,-0.573835092728,-0.0119888573973,0.0,-0.00631370716697,0.0118808667777,-0.999909486957,0.0,0.264888941891,-0.260019686226,0.304965530464,1.0,-0.00545157894737,-0.00716493233083,3.109
-0.648160093404,-0.51928366944,-0.124907539941,-2.64044773838,-0.0671176464052,2.11078504735,-0.895550050474,-0.0237711140755,0.00480119265209,0.0017798391021,0.00062571343665,0.00298217238188,0.000409864326213,-0.0291421991359,0.573932077151,0.818868412473,0.00610252171155,0.0,0.818866930553,-0.573841849826,-0.0119678041576,0.0,-0.00629829570551,0.0118660883807,-0.999909759637,0.0,0.264794368855,-0.260145402535,0.304970902328,1.0,-0.00511157894737,-0.00671807518798,3.126
-0.648556126909,-0.519225615812,-0.124894885014,-2.64040262796,-0.0671032709752,2.11079907048,-0.895941559708,-0.0221295396564,0.002751060143,-0.00030862149845,0.00460620954446,1.09522768629e-05,0.000109613886975,-0.0187975737465,0.573935294657,0.818866122717,0.0061071690968,0.0,0.818864721113,-0.573845084835,-0.0119638634085,0.0,-0.00629235462093,0.011867657279,-0.999909778422,0.0,0.264706661612,-0.260258556765,0.304971531795,1.0,-0.00477157894737,-0.00627121804512,3.143
-0.648887270117,-0.519179023313,-0.124875954687,-2.64037295595,-0.0670870468013,2.11080720001,-0.896279103949,-0.0204465843406,0.000908450565492,0.000447661256774,-3.059880362e-05,0.000820847103127,-2.06176597125e-05,-0.0237485944795,0.573925138642,0.818873204174,0.00611208814114,0.0,0.818871822193,-0.573834826848,-0.011969846113,0.0,-0.00629457838997,0.0118750409748,-0.999909676763,0.0,0.264633104949,-0.260348363771,0.304969011031,1.0,-0.00445157894737,-0.00585064661655,3.159
-0.649223625459,-0.519133544123,-0.124838291676,-2.64034669767,-0.0670631215702,2.11081192774,-0.896608361207,-0.0195086860421,0.00306400214658,-0.000729479080924,0.00118367178891,-0.000158899744222,6.67741469801e-06,-0.0247340490763,0.573916097374,0.818879513536,0.00611574912891,0.0,0.81887810247,-0.573825627521,-0.0119812101364,0.0,-0.00630191527784,0.0118844912185,-0.999909518273,0.0,0.264557951819,-0.260439451849,0.304965843421,1.0,-0.00409157894737,-0.0053775037594,3.177
-0.649534751423,-0.519084179048,-0.124792499893,-2.64031794461,-0.0670322664239,2.11082111126,-0.8969101119,-0.015319060988,0.00461490683973,0.0032032230005,0.000485053138231,0.000823894033243,0.000270565730114,-0.0182366210589,0.573905795904,0.818886711485,0.00611866675237,0.0,0.818885283911,-0.573815213288,-0.0119891490117,0.0,-0.00630689216735,0.0118913572119,-0.999909405264,0.0,0.264500281319,-0.260510301802,0.304962275936,1.0,-0.00377157894737,-0.00495693233083,3.193
-0.649820938514,-0.519034408935,-0.124746635288,-2.64029631253,-0.0670072510054,2.11083218329,-0.897205961964,-0.0155684044262,0.00383918703524,0.00122350161479,0.00329971474292,0.00119599932583,0.00115132832632,-0.016605688665,0.573877255709,0.818906716508,0.00611816461777,0.0,0.818905190627,-0.573786508292,-0.0120032731751,0.0,-0.00631916237346,0.0118988313213,-0.999909238881,0.0,0.264443557485,-0.260579682957,0.304955820631,1.0,-0.00343157894737,-0.00451007518798,3.21
-0.650086044264,-0.518987322676,-0.124705878134,-2.64028004749,-0.0669795770977,2.11084160148,-0.897468644176,-0.0120710383776,0.00372515446724,6.64153478013e-05,0.00186848553162,-0.000429816165468,-0.000332957257354,-0.0183331689938,0.573863108616,0.818916594827,0.00612292316634,0.0,0.818915008625,-0.573772113897,-0.0120215167553,0.0,-0.0063315789,0.0119130880169,-0.99990899058,0.0,0.264390000689,-0.260642761812,0.304947654169,1.0,-0.00309157894737,-0.00406321804512,3.227
-0.650315901798,-0.51895224581,-0.124671106874,-2.64025940155,-0.0669601620549,2.11085281339,-0.897705661123,-0.0128777902426,0.0016067554609,0.00444954378906,0.000168538526381,0.00139742545705,0.000817609338728,-0.0101111282819,0.573841978438,0.818931408099,0.006122051387,0.0,0.81892980318,-0.573750978023,-0.0120224615819,0.0,-0.00633316035421,0.0119127528346,-0.999908984558,0.0,0.26434513279,-0.26070023577,0.304945906404,1.0,-0.00275157894737,-0.00361636090226,3.244
-0.650514788387,-0.51891451597,-0.124651412971,-2.64023770801,-0.0669435059193,2.11085467411,-0.897920699624,-0.0149808665205,0.00134941078557,0.00255949934393,-0.00111223721379,-0.000111938476291,-0.000468098849746,-0.00836371714549,0.573823068281,0.818944621081,0.0061270557283,0.0,0.818942997968,-0.573731893746,-0.0120344123068,0.0,-0.00634035201188,0.0119235623472,-0.999908810141,0.0,0.264303496562,-0.260752000453,0.304942502639,1.0,-0.00243157894737,-0.00319578947369,3.26
-0.650738951656,-0.518876047933,-0.124623793801,-2.64021813646,-0.0669123384394,2.11086153634,-0.898144607068,-0.0117521517406,-0.000114529290013,0.00168259212217,0.00575384001936,0.00188857179168,0.000700941228562,-0.00966127316982,0.573818064607,0.818948027861,0.00614030085745,0.0,0.818946507958,-0.573726703968,-0.0120429713441,0.0,-0.00633983512097,0.011939282322,-0.99990862584,0.0,0.264258573132,-0.26080738238,0.304938484894,1.0,-0.00203157894737,-0.00267007518798,3.28
-0.65089229715,-0.51885657671,-0.124604612402,-2.64021103059,-0.0669025182844,2.11086626336,-0.898296251304,-0.0144316131251,0.000446760731077,0.00158589804422,-0.000673706173817,-0.000102118116303,0.000870151324573,-0.0136969593692,0.573810459558,0.818953357815,0.00614012435949,0.0,0.818951795165,-0.57371902514,-0.0120492443129,0.0,-0.00634518509188,0.0119426782168,-0.99990855135,0.0,0.264225583519,-0.260844874641,0.304935404023,1.0,-0.00175157894737,-0.00230207518798,3.294
-0.651069004458,-0.518838108637,-0.124574528483,-2.64019870887,-0.0668820123058,2.1108658442,-0.898456753871,-0.0111846718177,0.00132523373983,0.00259813295479,-0.000102448596285,0.00184058210844,0.000791858260394,-0.0134324574047,0.573811794975,0.818952397071,0.00614346643023,0.0,0.818950846588,-0.573720286816,-0.0120536413458,0.0,-0.00634684934767,0.0119479486457,-0.999908477825,0.0,0.264190235114,-0.260885704723,0.30493488628,1.0,-0.00139157894737,-0.00182893233083,3.312
-0.651213585129,-0.518826101626,-0.124555567039,-2.64019338016,-0.0668568489233,2.11086613484,-0.898577638605,-0.0104290231104,0.000186344100029,-0.000602080372329,0.00155713225263,0.00154455793407,-0.000178240812239,-0.00859967357494,0.573828787011,0.818940393374,0.00615647621779,0.0,0.818938976688,-0.573737151745,-0.0120573657691,0.0,-0.00634218684278,0.0119608721915,-0.999908352902,0.0,0.264159905313,-0.260918415185,0.304933372436,1.0,-0.00107157894737,-0.00140836090226,3.328
-0.651342118586,-0.518822783583,-0.124534225553,-2.64018928289,-0.0668395965276,2.11086523236,-0.89865836874,-0.00707104610591,0.00343964305003,-0.00125857122041,0.00123859721939,0.00105514674158,0.000139849196882,-0.00487444302293,0.573860360275,0.818918234412,0.00616110007657,0.0,0.818916886224,-0.573768713846,-0.0120558437864,0.0,-0.00633782586391,0.0119640300938,-0.999908342773,0.0,0.264133292079,-0.260946829125,0.304934447798,1.0,-0.000751578947374,-0.000987789473691,3.344
-0.651414767355,-0.518819456021,-0.124520020222,-2.64019195215,-0.0668216081074,2.11086395232,-0.898699942511,-0.00136699004931,0.00116749620256,0.000746312370461,0.000986154777888,0.000460991641738,-0.000931899662419,-0.00189987873396,0.57388329844,0.818902089506,0.00617045179505,0.0,0.818900820518,-0.573791526017,-0.0120614147571,0.0,-0.00633668679618,0.0119750630797,-0.99990821792,0.0,0.264118156034,-0.260960173767,0.304932245773,1.0,-0.000411578947374,-0.000540932330834,3.361
-0.651431024445,-0.51882062276,-0.124510449196,-2.64018336443,-0.0668014817881,2.11086711971,-0.898724677559,-0.000164979067646,-0.000657592827836,0.000631406031439,0.00175198873417,0.000277725595454,0.000524418937753,0.000718082707336,0.573878537202,0.818905343874,0.00618136015184,0.0,0.818904297624,-0.573786871072,-0.0120467763538,0.0,-0.00631850788298,0.0119755593521,-0.999908327016,0.0,0.264120303138,-0.26096300969,0.304937085402,1.0,-7.15789473736e-05,-9.40751879768e-05,3.378
-0.65142096179,-0.518814898785,-0.124476081939,-2.64019111995,-0.0667864752591,2.11086506545,-0.898739023401,0.000343080432247,0.000154104048931,0.0102287978996,-5.27295948695e-05,0.000132501405493,-0.000328309653542,0.00131535944258,0.573840245225,0.818932196341,0.00617880713117,0.0,0.818931022829,-0.573748420343,-0.0120613806635,0.0,-0.00633249404666,0.0119815531635,-0.999908166735,0.0,0.26412953948,-0.260948953719,0.304932095451,1.0,0.0,0.0,3.395
-0.651415669183,-0.518814894234,-0.124438557576,-2.6401936256,-0.066775288449,2.11086313852,-0.898753153729,0.00110042685462,-0.000175285874206,0.00406976234797,0.000421753842986,-7.42057913272e-05,-0.000372203047856,-0.00163083838401,0.573802379489,0.81895879133,0.00617043737913,0.0,0.818957487926,-0.573710559725,-0.012065385655,0.0,-0.00634113065687,0.0119767034824,-0.999908170101,0.0,0.264139229675,-0.260937317446,0.304931679336,1.0,0.0,0.0,3.411
-0.651409729091,-0.518806475969,-0.124405507033,-2.64018011031,-0.0667644186776,2.11086591995,-0.898756531319,0.00170253797524,0.0018422121685,0.00294367614513,0.000952313924197,0.000170363422894,-0.000338812407634,-0.00156413733197,0.573776600507,0.81897692132,0.00616132747254,0.0,0.818975557164,-0.573684935195,-0.0120573131159,0.0,-0.00634012249024,0.0119644110826,-0.999908323655,0.0,0.264152318243,-0.260931148187,0.304935740158,1.0,0.0,0.0,3.428
-0.651411784525,-0.518803952672,-0.124389904836,-2.64019557745,-0.0667581606028,2.11087034585,-0.898755070683,0.000734516398822,0.00290377554232,0.000128922823727,-0.00176614249224,-0.000368714974643,-0.000204870948139,0.000336973700973,0.57377038058,0.818981283261,0.00616075798976,0.0,0.8189798283,-0.573678561805,-0.0120704375982,0.0,-0.00635128997254,0.0119714265822,-0.999908168814,0.0,0.264152839221,-0.260924260748,0.304928531284,1.0,0.0,0.0,3.444
-0.651409234937,-0.518814006596,-0.124383404545,-2.64018527643,-0.0667534138526,2.11087359737,-0.898753462835,-0.000166244960766,-0.00187751196991,-0.000589058854942,0.000473430868183,-0.000112126984136,0.00165558472748,0.0021401470555,0.573767444343,0.81898335177,0.00615924002722,0.0,0.818982028944,-0.573675919349,-0.0120466894212,0.0,-0.00633275231988,0.0119565352966,-0.999908464567,0.0,0.264158451074,-0.260924958721,0.304937347147,1.0,0.0,0.0,3.461
-0.651421832232,-0.518805766538,-0.124378755766,-2.64018040057,-0.0667472547493,2.11087211253,-0.898754791409,-0.00224959770525,0.000729363083301,0.00207521310291,0.000876554088779,0.000289262281507,-0.000259418240122,0.00147853932803,0.573776267855,0.818977149747,0.0061619428717,0.0,0.818975832349,-0.573684673078,-0.0120510914746,0.0,-0.00633467832753,0.011961342875,-0.999908394868,0.0,0.264157430783,-0.260927550261,0.304936514346,1.0,0.0,0.0,3.478
-0.651414179088,-0.518813420692,-0.12438380128,-2.64018217713,-0.0667446038532,2.11087211224,-0.898761382967,-0.000891993683327,-0.00107106888565,-0.000785097282548,-0.000342753177912,0.000346164104203,-0.000192683433023,0.000304914219913,0.573769192361,0.818982070856,0.00616671829781,0.0,0.818980849575,-0.573677642531,-0.0120448076591,0.0,-0.00632689491678,0.0119615940511,-0.999908441143,0.0,0.264158327463,-0.260926036131,0.304938409204,1.0,0.0,0.0,3.495
-0.651411768411,-0.518810772447,-0.124377699888,-2.64017939293,-0.0667415415277,2.11087129884,-0.898766780543,-0.000549534827368,-0.000383384234936,0.000989121497557,0.00103267861228,4.28315664843e-05,-0.000161965988532,-0.00126678185204,0.573759916974,0.81898857337,0.00616613855146,0.0,0.818987340907,-0.573668364758,-0.0120453149594,0.0,-0.00632777852404,0.0119613386198,-0.999908438607,0.0,0.264161013341,-0.260924312279,0.304938774724,1.0,0.0,0.0,3.512
-0.65141007221,-0.518808520712,-0.124380516749,-2.64018217699,-0.0667444646029,2.11087211308,-0.898768408308,0.000732550132069,-0.000260381887496,0.000157209483247,0.000781866306351,0.000154458001387,0.000293839107971,-0.00180232066893,0.573757828742,0.818990041198,0.00616549075153,0.0,0.818988772919,-0.573666228031,-0.0120497116183,0.0,-0.00633178189773,0.011963314411,-0.999908389627,0.0,0.264160018875,-0.260924136825,0.304936682009,1.0,0.0,0.0,3.529
-0.651412239213,-0.518804797748,-0.124386277184,-2.64018192189,-0.0667468530297,2.11087212567,-0.898762005975,0.0014615497786,-8.26255009963e-05,-0.000823979538489,-0.000303278731508,-0.00027362978176,0.000158934634812,0.0011509298022,0.573767944397,0.818982947876,0.00616635804808,0.0,0.818981668282,-0.573676295056,-0.0120533152785,0.0,-0.00633408819026,0.0119661705178,-0.999908340844,0.0,0.264157960243,-0.260926212652,0.304935291203,1.0,0.0,0.0,3.546
-0.651422804161,-0.518802526058,-0.124385486134,-2.64018420081,-0.0667436430636,2.11087212567,-0.898761768104,-0.000467188629502,0.00136389995827,-0.00117396419963,-0.000917118692117,-0.000122464175069,-0.000688188901606,0.00160059017691,0.573777506156,0.818976228261,0.00616910643455,0.0,0.818974955801,-0.573685788695,-0.0120575503824,0.0,-0.00633584042835,0.0119709253357,-0.999908272829,0.0,0.264155089914,-0.260927882281,0.304933439812,1.0,0.0,0.0,3.562
