nelsonifechukwu/NELSON_IML_WORK/CNN-GradCAM/train2dof/data_sample_2022-07-06-11-13-24/robot_state.csv
position_joint1,position_joint2,position_joint3,position_joint4,position_joint5,position_joint6,position_joint7,velocity_joint1,velocity_joint2,velocity_joint3,velocity_joint4,velocity_joint5,velocity_joint6,velocity_joint7,ee_T_00,ee_T_10,ee_T_20,ee_T_30,ee_T_01,ee_T_11,ee_T_21,ee_T_31,ee_T_02,ee_T_12,ee_T_22,ee_T_32,ee_T_03,ee_T_13,ee_T_23,ee_T_33,v_x,v_y,w_z,time
0.46511629271940497,0.5472676117061024,-0.12398539309988402,-1.3555534089251546,0.0794713724571729,1.894188759407114,0.15913202185432207,-0.0013410874464125002,0.001861585559446323,-0.00024901830872977205,0.001380311970406997,0.00016001230706138585,-0.000326170369754192,0.0006471158287320683,0.5737230193955899,0.8190332377643396,0.002683161209954591,0.0,0.8190002545239846,-0.5736624607434805,-0.011432896596724633,0.0,-0.007824844106862794,0.008756994269067897,-0.9999310410553695,0.0,0.6617620984277822,0.2609618798571084,0.30371883978054054,1.0,5e-324,6.91579648233487e-310,6.91558428275587e-310,0.0
0.46511876183101464,0.5472591989906578,-0.12398536393951681,-1.3555567186934696,0.07946685844936775,1.8941883190199693,0.15913928316305762,0.0007254502975359294,-0.0003788520762579798,-0.0008196241307048348,-0.0001427873568054213,-0.00026452663590644795,-0.00018582046993055774,0.0020321325333712294,0.5737258890505704,0.8190312218465206,0.002684916188026202,0.0,0.8189982957017056,-0.5736653630288497,-0.011427589417205817,0.0,-0.007819459652257443,0.00875541424904222,-0.9999310970122264,0.0,0.6617610749974,0.26096248647663356,0.3037231765941901,1.0,-0.00020000000000000004,-0.00026285714285714297,-0.00010000000000000002,0.011000000000000003
0.46511589219130534,0.5472602417836744,-0.12398506616177192,-1.3555598491344805,0.07946971017365032,1.894187507311503,0.1591309603629427,2.7841990493433326e-05,0.0010287773846696566,0.0006313438246284476,-2.6811085756010787e-05,-0.00010888068999582614,-0.00018211278064964238,0.0002991643197104277,0.5737250824475766,0.81903180237765,0.0026801801708536705,0.0,0.818998815714725,-0.5736645722405357,-0.011430018161388859,0.0,-0.007824174604297851,0.008752921018704465,-0.9999310819578526,0.0,0.661762628520216,0.2609569082989057,0.30371941059751373,1.0,-0.0004800000000000003,-0.0006308571428571433,-0.00024000000000000014,0.027000000000000014
0.465110029203515,0.5472295135354364,-0.1239835414637794,-1.3555811117546024,0.07946602786988903,1.8941898008010605,0.15913573999206226,-0.0008695120161319971,-0.00311467097365748,0.0010028532671697086,-0.004651693577065248,-0.0001482036691410446,0.0054826786410829016,0.0019264969182889514,0.5737299310930665,0.8190283665161855,0.0026921944547786602,0.0,0.8189955123579568,-0.5736693569137254,-0.011426573280246908,0.0,-0.007814408638620096,0.008760830950708468,-0.9999310890549817,0.0,0.6617584669059576,0.2609552211077838,0.3037326609282011,1.0,-0.0008800000000000006,-0.0011565714285714295,-0.0004400000000000003,0.045000000000000026
0.46511201590398094,0.5471349197221147,-0.1239807573723719,-1.355670080857848,0.0794667399459415,1.8942088804801003,0.15913173309311945,-0.0007130054303079914,-0.008664782770643054,-0.00025036075749714637,-0.010367412097731635,2.0366349001728736e-05,0.003291167318762311,0.0006799614672513285,0.5737328880599314,0.8190262460553874,0.0027070892187869887,0.0,0.8189934914658229,-0.5736721623295207,-0.01143057330151612,0.0,-0.007809108165172163,0.008775353236206263,-0.9999310031223376,0.0,0.6617408953622407,0.26094667866121285,0.303751373056726,1.0,-0.0012200000000000008,-0.0016034285714285727,-0.0006100000000000004,0.06200000000000004
0.4651082609001213,0.5470001395861601,-0.12398852657825098,-1.3558574190653736,0.07946363425608967,1.8942385560987318,0.15912628005210333,0.00047453386108178787,-0.007634750063865961,-0.002338940622912359,-0.01255501874540705,-9.67556396741384e-05,0.01104329180053143,-0.0004253207370566759,0.5737414935987254,0.8190202290786645,0.0027036612665466073,0.0,0.8189873650834026,-0.5736807045036078,-0.011440804831738824,0.0,-0.007819362840968791,0.008778497882187361,-0.9999308953821227,0.0,0.6617126389806428,0.2609242912883832,0.30376800292566464,1.0,-0.001560000000000001,-0.002050285714285716,-0.0007800000000000005,0.07900000000000006
0.46508432746211187,0.5468501257036184,-0.12398604718217977,-1.356061470354331,0.07945909040030097,1.8943394647887224,0.1591309460084156,-0.0005297164266369275,-0.005332355398536823,0.001971924885532567,-0.013445748432461787,-0.00027816700095026104,0.008142826608241656,0.0009008920311684112,0.5737735214620641,0.8189976459952308,0.0027475124205632445,0.0,0.8189653072707979,-0.5737125439128519,-0.011423193296965587,0.0,-0.0077794358579768574,0.008804612714157112,-0.9999309772042694,0.0,0.6616958728381532,0.2608937577207531,0.3037858084954444,1.0,-0.0019000000000000015,-0.0024971428571428597,-0.0009500000000000008,0.09600000000000007
0.4650634337985528,0.5466549830002604,-0.12398381625834638,-1.3562771595991392,0.07945592586208368,1.8944454856524084,0.1591276696034985,-0.001316527747809278,-0.011474163039796257,-0.00020844059264702334,-0.016127402868797904,-0.000288652938969995,0.014152797340321134,0.0013448939881828782,0.573797651366171,0.8189804719591011,0.0028264354799672885,0.0,0.8189490991392144,-0.5737363666969691,-0.011388654426157116,0.0,-0.00770560511070989,0.008849660335428958,-0.9999311512108348,0.0,0.6616778161043007,0.26086487194995134,0.30383049250881966,1.0,-0.002220000000000002,-0.0029177142857142887,-0.001110000000000001,0.11200000000000009
0.4650435911986567,0.5464416769233138,-0.1239838736995357,-1.3565310617975062,0.0794507111098551,1.8945688410724473,0.15911458283849703,-0.0018785418157886446,-0.007279233571257402,0.0010329857757004803,-0.016848927743325096,0.0002520467426772557,0.004965354920435491,-0.0010668923561779813,0.5738161092749956,0.8189672740888062,0.002902345476471991,0.0,0.8189368400430588,-0.5737545470324369,-0.011354236262348374,0.0,-0.007633660978579815,0.008892252512481158,-0.9999313251745432,0.0,0.6616552908488473,0.2608319039516028,0.30387141959266667,1.0,-0.002560000000000002,-0.0033645714285714316,-0.001280000000000001,0.1290000000000001
0.46500987360693924,0.5462529664293577,-0.12398913717737677,-1.3568077737827484,0.07944317135503134,1.8946838281945328,0.15910943090621324,-0.0016133556305207098,-0.015537113011366024,-0.0004951832266750399,-0.026936771593831958,0.0008314070915472815,0.006083715879511056,-0.006179127693426374,0.5738567193220115,0.818938726098551,0.002928393120632594,0.0,0.8189085964498101,-0.5737950381896535,-0.011345118366274795,0.0,-0.007610805871423987,0.008908730226924039,-0.9999313527236415,0.0,0.6616301609705357,0.26078276580845494,0.3038834922475341,1.0,-0.002840000000000002,-0.0037325714285714314,-0.001420000000000001,0.1430000000000001
0.46497714180860356,0.5459568226264583,-0.12398744806754093,-1.3572843655214495,0.07942078682470827,1.894843465613775,0.1591009285910137,-0.0019096432881158226,-0.01575626566534324,5.1178367265232525e-05,-0.023626164319286554,-0.0007095994106295637,0.010031263853788079,-0.0004280737770800395,0.5738960327627368,0.818911227194282,0.0029141817985583202,0.0,0.8188808350884448,-0.5738342962565337,-0.01136332987412766,0.0,-0.007633447918222902,0.008907909063392339,-0.9999311874469152,0.0,0.6615698823819326,0.2607166125762476,0.30388009489363244,1.0,-0.0032200000000000024,-0.004232000000000004,-0.0016100000000000012,0.16200000000000012
0.46493854233653703,0.5456536660568913,-0.12398650102062704,-1.3577554054016716,0.07939340964145881,1.895004532474266,0.15908740833640703,-0.0031732740434334047,-0.01539478440196832,-0.0005149172674893634,-0.029807425109965934,-0.00010999433312812535,0.002984954321142532,-0.0003439209549615668,0.5739349046210629,0.8188840027288916,0.002908991840597997,0.0,0.8188535159416268,-0.573873146382072,-0.011370056850571734,0.0,-0.007641512487482349,0.008907882194924083,-0.9999311260890446,0.0,0.6615132855055796,0.2606461887945859,0.3038844278958256,1.0,-0.003560000000000003,-0.004678857142857147,-0.0017800000000000014,0.17900000000000013
0.4648870217779064,0.5453226314284361,-0.12399208892136034,-1.3582807938365997,0.07935111105268977,1.895178248101505,0.15904375373978757,-0.00028855840125534293,-0.01723711501039708,-0.001079701094926289,-0.030554395715663416,-0.006891011928978042,0.009607078670813491,-0.005519844069048165,0.573963286106112,0.8188641973214447,0.0028843454349348468,0.0,0.8188334765209263,-0.5739016957593993,-0.011372257223076193,0.0,-0.007657150970326432,0.008889227871358138,-0.9999311724648196,0.0,0.661453134292041,0.26055579276254354,0.30388388980958886,1.0,-0.003900000000000003,-0.005125714285714291,-0.0019500000000000014,0.19600000000000015
0.464831189805448,0.544963291812712,-0.12398992530894022,-1.3588883167364094,0.07932170227936478,1.8953690520046707,0.1589361941116654,-0.005648891678466707,-0.014364015433664754,9.39620538019949e-06,-0.03670948276532418,-0.0008039433543994838,0.016063781272430938,-0.0038280462936041257,0.5739454117216383,0.8188768785761604,0.0028405982207416088,0.0,0.8188454730463168,-0.5738838175670744,-0.011410613804814802,0.0,-0.007713862979797481,0.008875251308088902,-0.9999308607259539,0.0,0.6613768504810096,0.26046090677352357,0.30386551363844727,1.0,-0.004240000000000003,-0.005572571428571434,-0.0021200000000000017,0.21300000000000016
0.46476882868771147,0.5445543201352218,-0.12399552934367201,-1.3595680318404642,0.07929121985665384,1.8955975464718255,0.15893089609646519,-0.0012453520175458982,-0.02488404639046818,-0.0020881500817419916,-0.042379233147037496,-0.005073148272827381,0.017373596211072404,0.0017406198393875813,0.5740258300557702,0.8188206205300709,0.002807975203212348,0.0,0.8187887045229559,-0.5739642246396418,-0.011439977300788096,0.0,-0.007755761324401034,0.008866151545766518,-0.9999306173545472,0.0,0.6612962788740137,0.2603516767623318,0.30385140476514716,1.0,-0.004580000000000003,-0.006019428571428577,-0.0022900000000000017,0.23000000000000018
0.4647133777128437,0.5441599555802655,-0.12399633918913915,-1.3602549059746518,0.07925522220609248,1.895815842526542,0.1589056027557463,-0.0016262882765656138,-0.029480474067664287,-0.00040101848582366147,-0.043900215383719944,-0.002826287000766662,0.01741713722860298,-0.00014551765421637387,0.5740797296764979,0.8187830399168398,0.002746710815923998,0.0,0.8187502409822864,-0.574018207920909,-0.011484196442264508,0.0,-0.007826553939181968,0.008841884765254368,-0.9999302806332225,0.0,0.6612089742300585,0.26024717022478,0.3038224573378834,1.0,-0.004900000000000004,-0.0064400000000000065,-0.002450000000000002,0.2460000000000002
0.4646412925045572,0.5436977235627327,-0.12399117252658752,-1.3610071021666903,0.07922198163124937,1.8960713651930055,0.158851125049174,-0.007090661567701446,-0.027236604912048663,-0.0003359548578417895,-0.047312911393745084,-2.2837275814370534e-05,0.019558427936041164,-0.006519149042960206,0.5741235268626835,0.818752403204355,0.002724894686991563,0.0,0.8187191651022198,-0.574061893247115,-0.01151600265154037,0.0,-0.007864648062189117,0.008842701810199166,-0.9999299745159926,0.0,0.6611185703645216,0.2601312421553187,0.3038134503375342,1.0,-0.005240000000000003,-0.0068868571428571486,-0.0026200000000000017,0.2630000000000002
0.4645703131109729,0.5432013554806822,-0.12399917157086407,-1.361795839601525,0.07917603776597541,1.8963607773254436,0.15878065149141046,-0.005354153733341301,-0.03106679235215435,0.00023179196887695316,-0.04737531439147837,-0.005224387549581358,0.016369369677000093,-0.0039531157568121885,0.574161259053868,0.8187259582377688,0.0027204430765811784,0.0,0.8186926791463046,-0.5740996538970715,-0.01151657104858336,0.0,-0.00786726170781965,0.008839745956571388,-0.999929980090928,0.0,0.6610307560509286,0.2600047803051997,0.3038145101087826,1.0,-0.005580000000000004,-0.007333714285714292,-0.002790000000000002,0.2800000000000002
0.464498906702616,0.542687193416218,-0.12400211047147995,-1.3626535346596096,0.07912916248991551,1.8966506035311945,0.15873742283919182,-0.0016747692689950138,-0.03184896869486341,-0.001236982703438241,-0.05402445023548027,-0.00530487875841264,0.023639240302160407,0.002570751250795957,0.5742215504839401,0.8186838209874466,0.002675652149073519,0.0,0.8186498945610245,-0.5741600096247653,-0.01154904256295997,0.0,-0.007918914294165302,0.00882230133346798,-0.9999297264286042,0.0,0.6609265086748682,0.25987289880681336,0.30379514138141533,1.0,-0.005920000000000004,-0.007780571428571435,-0.002960000000000002,0.2970000000000002
0.4644238470608364,0.5421282165231981,-0.12400280696462568,-1.3635478911098604,0.07906522607741846,1.8969726536250342,0.1586581301259346,-0.005669294666302274,-0.031862376042002934,0.00036830048816598247,-0.05476772684848015,-0.0039889950661952675,0.026648653887732594,-0.004953672729999899,0.5742512415176327,0.8186630532004868,0.0026577887656244166,0.0,0.8186289649420543,-0.574189833652929,-0.011549873970349157,0.0,-0.007929532467500278,0.008808441922885477,-0.9999297644663538,0.0,0.6608226763470826,0.25973557236747796,0.3037926539403529,1.0,-0.006260000000000004,-0.008227428571428578,-0.003130000000000002,0.3140000000000002
0.4643487263235421,0.5415925337348693,-0.12400591557226126,-1.3643804382247133,0.07901267334068413,1.897273197701418,0.15858862508677804,-0.0034335008024473103,-0.03752704214851481,-0.0007055010864957486,-0.05287400172881947,-0.0007311795530024871,0.022634995788005118,0.0001958619042113876,0.5742901987471215,0.8186357230645547,0.002658466996910399,0.0,0.818601664946771,-0.574228807487057,-0.011547194446061605,0.0,-0.007926530151607158,0.008807835681407791,-0.9999297936107139,0.0,0.6607279813581306,0.25960422798490196,0.3038012793084126,1.0,-0.006560000000000005,-0.008621714285714293,-0.0032800000000000025,0.32900000000000024
0.46426817840323004,0.5410162306937841,-0.12401195298953362,-1.3652995713859895,0.07896210535813222,1.8975954408309554,0.15854795847889397,-0.002042997684531754,-0.031240965577788472,-0.0017576023324609668,-0.05698430283394853,-0.0014586859000565394,0.021663034363829367,-0.003805554986993951,0.5743645104258003,0.8185836425191008,0.0026412619520814985,0.0,0.8185493235819102,-0.5743031251567675,-0.011561669428572154,0.0,-0.007947461494265728,0.008802785266220067,-0.9999296719406588,0.0,0.6606205556998713,0.2594596561695269,0.3037993271958257,1.0,-0.006880000000000005,-0.009042285714285723,-0.0034400000000000025,0.34500000000000025
0.46417577289206957,0.5403310076168943,-0.12401546056675855,-1.3663157421075627,0.07891229098094944,1.897978644203768,0.15846023666540524,-0.004003337513136944,-0.0406757403270323,0.0009947453248910748,-0.06349050795048547,-0.004343702852429208,0.02688737696629855,-0.006774127967883875,0.5744138089135609,0.8185488876578413,0.0026910118421107562,0.0,0.8185151426810502,-0.5743521735999837,-0.011545076180023409,0.0,-0.007904772955758255,0.008834455215305223,-0.9999297310139181,0.0,0.6605080511844674,0.25930289087239794,0.30383331085109067,1.0,-0.007220000000000005,-0.009489142857142866,-0.0036100000000000025,0.36200000000000027
0.46407157481097394,0.5396369843248828,-0.12401590584961397,-1.3673839473863496,0.07885219857501101,1.8983730776268002,0.15838754840021385,-0.0055765474066251045,-0.03985408107071883,0.0006572464594410929,-0.06909222172458326,-0.007013708920574441,0.023886466011360588,-0.004294174401482066,0.5744829839433253,0.8185002783313649,0.0027096922813501104,0.0,0.8184667386462078,-0.5744212373533379,-0.011540654596199885,0.0,-0.007889676106729193,0.008847873042309426,-0.9999297316079555,0.0,0.6603887449192307,0.25913316400170106,0.30384949605512523,1.0,-0.007560000000000006,-0.009936000000000009,-0.003780000000000003,0.3790000000000003
0.46397589329280353,0.53889991528925,-0.12402440172828838,-1.3685413460734654,0.07876946114303722,1.8988002001080935,0.15831241056796255,-0.006241474477007231,-0.04407677290162836,0.0008414289074250398,-0.06745303372444904,-0.007206882767520952,0.032338425268259564,-0.009646109651019388,0.5745476458505672,0.8184549059089944,0.0027049107709140015,0.0,0.8184214445028604,-0.5744860640474417,-0.011525983443445145,0.0,-0.007879715861279502,0.008836153757268053,-0.9999299137763225,0.0,0.6602571653403987,0.2589529417115478,0.3038565919070017,1.0,-0.007900000000000006,-0.010382857142857152,-0.003950000000000003,0.3960000000000003
0.46387663509259885,0.5381830945494781,-0.12402533012648756,-1.3696433966424029,0.07871695290375805,1.8992303522167928,0.15820866173347356,-0.005896337338640231,-0.04632173195037111,-0.00031695760391070197,-0.06824234443386526,-0.0016778845443929259,0.03382930045238542,-0.009925981049082443,0.5745915708465987,0.818423921720329,0.0027491760881047022,0.0,0.8183909459113525,-0.574529741102129,-0.01151447526596383,0.0,-0.007844389606386948,0.00886619195143494,-0.9999299256407838,0.0,0.6601357422553717,0.25878614738907507,0.3038756831051571,1.0,-0.008220000000000007,-0.010803428571428582,-0.004110000000000003,0.4120000000000003
0.4637745609075097,0.5374003073028288,-0.12403624081337496,-1.370874742116449,0.07865038444230626,1.8996992793093803,0.1581463919160387,-0.007384221665395287,-0.05018790838868301,0.0003482599176534376,-0.07662657543747217,0.00013454008545597915,0.024026773270124896,0.00018588409207247295,0.5746820160276679,0.8183603591546497,0.002765848849165124,0.0,0.8183275985415915,-0.5746201204372733,-0.011506761273864258,0.0,-0.007827515593898826,0.008876270109185083,-0.9999299684620798,0.0,0.6599974295350989,0.2585975916143682,0.30388336795277077,1.0,-0.008560000000000007,-0.011250285714285725,-0.004280000000000003,0.4290000000000003
0.463670742679037,0.5365889833318114,-0.12403566807905676,-1.3721537716481589,0.07856702535648685,1.9001648112738003,0.15803254273826525,-0.006077518903029447,-0.04624360059729219,0.0016024008154198455,-0.07526855110872455,-0.0005661211351256639,0.024609446238700535,-0.012732660651595413,0.5747299387535806,0.8183267192046132,0.002761347013322245,0.0,0.8182939208754633,-0.5746680749152678,-0.011506938456833133,0.0,-0.007829727969676847,0.00887314634452932,-0.999929978865455,0.0,0.6598396119951384,0.2583911276625887,0.30388902561744213,1.0,-0.008920000000000008,-0.011723428571428584,-0.004460000000000004,0.44700000000000034
0.4635597975867386,0.5357330841829313,-0.12405410283633395,-1.3735118013783467,0.07848244557402179,1.9006589413765675,0.15791896766228375,-0.0043152100239509245,-0.0502665543080365,-0.000751500945410013,-0.07803426271247951,-0.011041770563074746,0.03452130454189054,-0.0036058836815307067,0.5747802248156084,0.8182914454611749,0.002747789509382599,0.0,0.8182585446302513,-0.5747184809110018,-0.011505161456579168,0.0,-0.007835520643925786,0.008861512145018902,-0.9999300366619367,0.0,0.659698612116831,0.2582069526219405,0.30388843218573924,1.0,-0.009220000000000008,-0.012117714285714298,-0.004610000000000004,0.46200000000000035
0.46345049910175423,0.53490497755117,-0.12404787223280773,-1.3748024995285586,0.0784203106250953,1.901127989978759,0.15783760571196806,-0.006312213594457139,-0.05134392293665947,0.0007216170508103542,-0.077506297086048,-0.0008018794584692298,0.031297405375731814,-0.0057866577771765616,0.5748569425127283,0.8182375094395953,0.002760560126857903,0.0,0.8182046181222187,-0.5747949714029821,-0.011519142091654168,0.0,-0.007838788977761024,0.00888073282920368,-0.999929840524713,0.0,0.6595363209676606,0.2580032570963365,0.30389919797895626,1.0,-0.009560000000000008,-0.01256457142857144,-0.004780000000000004,0.47900000000000037
0.4633230255764182,0.5340140397499205,-0.12405395214806318,-1.3762558910668539,0.07833879974315666,1.9016536471982817,0.15773079495060496,-0.010262770277557986,-0.05137184431270044,-0.00040835371882143046,-0.08458750298379734,-0.0015324967882445132,0.021250951193873886,-0.0072423793369878284,0.5749359623733851,0.8181820932083717,0.0027291801269500983,0.0,0.8181487418288046,-0.574874022787909,-0.011543009520877848,0.0,-0.00787550056101366,0.008869537340738101,-0.9999296514246765,0.0,0.6593657235905384,0.2577773132221319,0.30388165353874996,1.0,-0.009900000000000008,-0.013011428571428584,-0.004950000000000004,0.4960000000000004
0.4632019175001003,0.5330899552509357,-0.12405622961327867,-1.3777228404797817,0.07824828725480867,1.9022004980180567,0.1576182010893741,-0.008122628557078487,-0.05364115707832904,-0.0006656505553862505,-0.08378046616930634,-0.0011643541439693623,0.037076393258513994,-0.009208355820465322,0.575000569045453,0.8181366908822271,0.0027290164698389628,0.0,0.8181033571539144,-0.5749386441235186,-0.011541204794692322,0.0,-0.007873417658251725,0.008868987615616525,-0.999929672703562,0.0,0.6591946859494349,0.2575566005107413,0.3038825489396419,1.0,-0.010240000000000008,-0.013458285714285726,-0.005120000000000004,0.5130000000000003
0.4630713878397107,0.5321515767074384,-0.12406205918953349,-1.3792285944965732,0.0781812248433982,1.90277754867742,0.15751781503718104,-0.004812410867037133,-0.05410959405794009,-0.0006771061297500931,-0.08811065893306647,-0.0033184216359437736,0.03758051571585626,-0.011565450524242212,0.5750938175126573,0.8180710897732516,0.0027459128047429863,0.0,0.8180378181097999,-0.5750316485673975,-0.01155327612528028,0.0,-0.007872565994616554,0.00889064936372752,-0.9999294870432374,0.0,0.6590225830588389,0.25732903482297836,0.303877649537464,1.0,-0.010580000000000008,-0.01390514285714287,-0.005290000000000004,0.5300000000000004
0.46294522306904273,0.5311863183326797,-0.1240517595321614,-1.380773237906563,0.07807788041332857,1.9033497279266192,0.15741812236588293,-0.005220769282699211,-0.05306225088030329,0.001296870317518875,-0.09527008320078686,-0.012497502231067457,0.03219112573027535,-0.0028736752159961724,0.5751647011844027,0.8180212933310851,0.0027344230843635523,0.0,0.8179878964509527,-0.575102587715487,-0.011556892484781763,0.0,-0.007881362086205879,0.00888401264418838,-0.9999294767387369,0.0,0.6588379437630433,0.2571033111477441,0.3038719673590811,1.0,-0.010920000000000008,-0.014352000000000012,-0.005460000000000004,0.5470000000000004
0.4628116083311858,0.5302299053925142,-0.1240571980778114,-1.3823069073076266,0.07797831736643544,1.903889404073022,0.15729420445742534,-0.009718620836853441,-0.06296487854400075,0.0006250798356492037,-0.09568370764274672,-0.004278613178789904,0.03485665019786458,-0.011175373211566154,0.5752330184287459,0.8179733800048662,0.002696481777644132,0.0,0.8179395205438847,-0.5751710545820435,-0.011573487142094215,0.0,-0.007916018536239744,0.008863181598565611,-0.9999293878382036,0.0,0.6586540251219809,0.256863162806436,0.30386276143937196,1.0,-0.011240000000000009,-0.014772571428571442,-0.005620000000000004,0.5630000000000004
0.46267439815437333,0.5291994005359135,-0.12406103441539156,-1.3839728922887908,0.07788204652321276,1.9044918470901875,0.1571767623723567,-0.015454817666182435,-0.05807656015165082,0.0007890087578215762,-0.09728344359868682,-0.004311864020443749,0.027646036636995542,-0.003270898192291994,0.5753164807396558,0.8179147733229953,0.002667858792937099,0.0,0.8178804868747347,-0.5752545397694523,-0.011596144419210433,0.0,-0.007950113016269467,0.008853613105377175,-0.9999292021128341,0.0,0.6584536256851219,0.25661164813263015,0.30384796912661644,1.0,-0.011580000000000009,-0.015219428571428585,-0.005790000000000004,0.5800000000000004
0.46253102187657885,0.5281369162966042,-0.12406902665186925,-1.3856560726661882,0.07776439029944389,1.9051173370912744,0.15705711502970368,-0.008379235089443113,-0.05868558740586261,-0.00035354856794286485,-0.0999781699618506,-0.01446260300053937,0.04040530151646772,-0.0073497971505780664,0.5754010754003812,0.8178552917472015,0.002659152194360019,0.0,0.817821049755267,-0.5753393281890911,-0.011581662977590355,0.0,-0.007942362431487882,0.008838982149077301,-0.9999293931441234,0.0,0.6582578630118706,0.2563501774139793,0.30384935902108107,1.0,-0.011920000000000009,-0.01566628571428573,-0.005960000000000004,0.5970000000000004
0.4623897010900083,0.5270124052835907,-0.12407486423241894,-1.3874038567084936,0.07766589176892691,1.9057925137151677,0.15694332266397484,-0.009632594936283483,-0.06826687802770168,0.0004505909695062269,-0.10302037556207314,-0.007246502515009517,0.03822293699376512,0.00030202419560504965,0.5754958910361773,0.8177884318961192,0.0027031386518895266,0.0,0.8177547519764735,-0.5754339764917406,-0.01156076208592556,0.0,-0.007898931753221261,0.008863846212037702,-0.999929517069822,0.0,0.6580559492335037,0.25609091661049654,0.30386767357600114,1.0,-0.012260000000000009,-0.01611314285714287,-0.006130000000000004,0.6140000000000004
0.46224896758737927,0.5259188780060126,-0.12407800726411577,-1.3890965378815108,0.07756298122486781,1.9064272962566722,0.1568069493935717,-0.006706427758184596,-0.07051049895179366,-2.955379090590303e-06,-0.1084562988901097,-0.0049264349826630425,0.03975651600128466,-0.01018673028555606,0.5755653112838599,0.8177394823275361,0.0027310054219864197,0.0,0.8177061791327254,-0.5755033139978003,-0.011545002681544576,0.0,-0.007869253352889294,0.00887823400449586,-0.9999296234298838,0.0,0.657857026147124,0.2558363378790246,0.3038865221958399,1.0,-0.01258000000000001,-0.0165337142857143,-0.006290000000000005,0.6300000000000004
0.4620934907053862,0.5247670425455909,-0.12408225737153564,-1.3909187393208104,0.07744227214674472,1.907094721031315,0.1566817401988109,-0.009908597121240658,-0.06844859082727162,0.00026357463338999625,-0.10889656183525216,-0.00417573945450334,0.042671384064054546,-0.00656873072651881,0.5756585723063128,0.8176738696458259,0.0027199135808279136,0.0,0.8176405015227752,-0.5755966883140018,-0.011541645149063827,0.0,-0.007871879959571781,0.00886812921187076,-0.9999296924235143,0.0,0.6576402373469226,0.2555562028898675,0.30388731185403545,1.0,-0.01292000000000001,-0.016980571428571446,-0.006460000000000005,0.6470000000000005
0.46194754264837423,0.5235752868198865,-0.12408854924887866,-1.3927990175977636,0.07732288848978783,1.9077668487479096,0.15654360502318612,-0.004268685697812764,-0.06955078127642704,-0.0001866024470430052,-0.11050629150726342,-0.009703597725186506,0.04297661517588229,-0.005618314257058569,0.5757380476949726,0.8176179761724316,0.002700440202383009,0.0,0.8175843787556655,-0.5756762433744176,-0.011549603033834666,0.0,-0.007888735669560998,0.008857554162949435,-0.9999296533175653,0.0,0.657409156257743,0.25527535321421146,0.3038886972045267,1.0,-0.01326000000000001,-0.017427428571428587,-0.006630000000000005,0.6640000000000005
0.4617885876811305,0.5223731518982603,-0.12408900440702739,-1.3947318154116641,0.07719994671663981,1.9084948287849126,0.15640818295704184,-0.005961264952309615,-0.07181753174548619,-6.599863685648148e-05,-0.1174069805579066,-0.010036355346162063,0.04236380896729194,-0.008886641550252266,0.5758281183146948,0.8175545735540651,0.0026915274839434565,0.0,0.8175209050742994,-0.5757663817952271,-0.011549470210337202,0.0,-0.007892783112188106,0.008851060093790275,-0.9999296788824503,0.0,0.6571787199034413,0.25498648393512224,0.3038767400057508,1.0,-0.01360000000000001,-0.01787428571428573,-0.006800000000000005,0.6810000000000005
0.4616268152675956,0.5211462834197428,-0.12409504189692233,-1.3967029688252155,0.07708873839275801,1.90927127555889,0.1562603075917517,-0.010383480035254187,-0.07548920344280248,0.0014586100200906452,-0.11959662777320067,-0.012958084382925294,0.03854255637181929,-0.008783089538096147,0.5759194974902622,0.817490119357492,0.002717363546829326,0.0,0.8174567820473786,-0.5758576608739351,-0.011537365329773223,0.0,-0.00786701900918041,0.008866091603466034,-0.999929748748175,0.0,0.6569502755341265,0.2546934607820348,0.303867995011343,1.0,-0.01394000000000001,-0.018321142857142873,-0.006970000000000005,0.6980000000000005
0.46146002340652903,0.5198810964896194,-0.1240956966890091,-1.3987237340457694,0.07696502852337055,1.9100220618854298,0.15610155974165546,-0.01132669472895107,-0.0687222561561265,0.0009354345735824482,-0.12339572216094197,-0.004354165731960098,0.04559899543702152,-0.007197691387450255,0.5760009128891903,0.8174327810158165,0.0027099396258699884,0.0,0.8173993386993574,-0.5759390803052492,-0.011543126621726192,0.0,-0.007875121580702749,0.008864124991685263,-0.9999297024032343,0.0,0.6567060554457613,0.2543912212502661,0.30385976801125447,1.0,-0.014280000000000011,-0.018768000000000017,-0.007140000000000006,0.7150000000000005
0.4612960225624817,0.5185258090460976,-0.12410473879986109,-1.4007948013005087,0.07682479697528057,1.9107626139014604,0.15595050430698795,-0.006164907631590979,-0.08271720348381124,0.0005555251319079148,-0.12408375599743024,-0.0017370432805863928,0.03945671154899983,-0.015848679441379673,0.5760897727878331,0.8173701221105294,0.0027210423534443293,0.0,0.817336931902378,-0.576028014937503,-0.01152443737349683,0.0,-0.007852485342490945,0.008863289562535584,-0.99992988782818,0.0,0.6564516373288539,0.25407785898106433,0.303889769659435,1.0,-0.014620000000000011,-0.019214857142857162,-0.007310000000000006,0.7320000000000005
0.46112451178357483,0.5172669413093894,-0.12411068773447616,-1.4027793671774451,0.07668983578317455,1.9114755386719133,0.1558097898032811,-0.009963969688584057,-0.07647382172155134,-5.540734515334234e-05,-0.12203900057348832,-0.005492849042848532,0.0388843711276549,-0.004579486359490107,0.5761876758514205,0.81730118130554,0.0026996545548871407,0.0,0.817267809369688,-0.5761260823961394,-0.01152440246417296,0.0,-0.007863717746213694,0.00884672976249784,-0.9999299462040916,0.0,0.6562098306260836,0.25376940345305293,0.3038904309063683,1.0,-0.01494000000000001,-0.01963542857142859,-0.007470000000000005,0.7480000000000006
0.4609335560319722,0.5159215862244538,-0.12411707201835236,-1.4049122072875793,0.07655473501880225,1.9122747542513527,0.15564299455428043,-0.014960852313520916,-0.07580333669873077,-0.0014079352426119912,-0.12581870681300258,-0.0035350022077838116,0.04259188806578114,-0.014024658777567669,0.5762882382770687,0.8172302675695003,0.0027024235426353132,0.0,0.817196992104416,-0.576226691446977,-0.011516208611064525,0.0,-0.007854336888069469,0.00884523826078136,-0.9999300331283978,0.0,0.6559567350402958,0.2534373157811201,0.3038883356233487,1.0,-0.015280000000000012,-0.020082285714285733,-0.007640000000000006,0.7650000000000006
0.4607638037878779,0.5146171172807555,-0.12412596994291442,-1.4069700847491686,0.07643086209369117,1.913055216304796,0.1554839422420128,-0.012105469206556897,-0.08220395337516943,-0.0001127291871404045,-0.1271939438057504,-0.0072121000429371685,0.04881359839801484,-0.013197268694153533,0.5763862441147253,0.8171610794959605,0.002722986141269968,0.0,0.8171281012832138,-0.5763246538010969,-0.011502452588218397,0.0,-0.007830183283959347,0.008855054428105066,-0.999930135679896,0.0,0.6556953083149317,0.2531052081899823,0.30389205247377804,1.0,-0.015620000000000012,-0.020529142857142878,-0.007810000000000006,0.7820000000000006
0.4605745120687234,0.5132444695758199,-0.12412639791573214,-1.4092229493250044,0.0762975292842163,1.9138555051562174,0.15531470632868713,-0.012916358161004988,-0.08197248573264636,-0.0005340328529973041,-0.13840503096490572,-0.010008007562451734,0.047060989771937546,-0.009886277014405743,0.5764946298141581,0.8170848396386026,0.0026558481515868617,0.0,0.81705088894215,-0.576433128533538,-0.01155162798433478,0.0,-0.007907893491670426,0.008829584588593717,-0.9999297493606824,0.0,0.6554108900758496,0.252760715106001,0.3038546553329992,1.0,-0.015960000000000012,-0.02097600000000002,-0.007980000000000006,0.7990000000000006
0.4603742879282919,0.511820570732589,-0.1241355369526428,-1.4115101044764897,0.07616136105156733,1.9146584278635366,0.15513316169658423,-0.009092850900495232,-0.08070575739750242,-0.001409012455119921,-0.13635956617126993,-0.004233489215074036,0.04839573974801246,-0.012941671820508644,0.5765820459963924,0.8170233357786435,0.002599986338537568,0.0,0.8169885766411857,-0.5765206265462143,-0.01159222609244797,0.0,-0.007972326970245691,0.008808198161154052,-0.9999294263335955,0.0,0.6551398662871377,0.25242898278408166,0.3038290399680256,1.0,-0.016280000000000013,-0.02139657142857145,-0.008140000000000007,0.8150000000000006
0.46016598663056,0.5102862562603344,-0.12413398178540601,-1.413974032988032,0.0760083713269909,1.9155949091343132,0.15494337921500534,-0.013651307446885865,-0.08304247701293346,-0.00021643953313810833,-0.13085166383617652,-0.01243871078685093,0.051664964033520965,-0.008815156157791928,0.5766835697077792,0.8169516786881006,0.0026003882393525225,0.0,0.8169169379135426,-0.5766221506812719,-0.011591324120828759,0.0,-0.007970263691821355,0.008808996970006575,-0.9999294357448755,0.0,0.6548404924717418,0.2520600252161203,0.30381165209960503,1.0,-0.016640000000000012,-0.021869714285714305,-0.008320000000000006,0.8330000000000006
0.4599751120358389,0.5088679409615898,-0.12413917134363998,-1.4162170493413981,0.07586682315423099,1.916419461913543,0.1547648743044032,-0.01284170542017182,-0.09198023856971671,0.0005376683659702505,-0.14194153137649654,-0.005419653524493891,0.05163795337388728,-0.010278497107439775,0.5767757663567046,0.8168866083792741,0.00259447402199664,0.0,0.8168518147042088,-0.5767143820020064,-0.011592295186598732,0.0,-0.00797347373017343,0.00880562528872808,-0.9999294398506071,0.0,0.6545639489734251,0.25171759864739945,0.3038081938493664,1.0,-0.016960000000000013,-0.022290285714285735,-0.008480000000000007,0.8490000000000006
0.4597731321001093,0.507384533814616,-0.12414198917887931,-1.4185771450786506,0.07571164138501661,1.9172605481037854,0.1545827530695155,-0.011772723131870262,-0.08486433917474373,-0.0009473172067592785,-0.13916285440314094,-0.015753370548267413,0.05606650606175818,-0.005931560331921816,0.576874166487505,0.8168172433143112,0.0025561621553546136,0.0,0.816781980400999,-0.5768129303687625,-0.011609769714853151,0.0,-0.00800878690463791,0.008785372560490265,-0.9999293357839291,0.0,0.6542665174929513,0.2513553010405234,0.303795422739337,1.0,-0.017300000000000013,-0.02273714285714288,-0.008650000000000007,0.8660000000000007
0.45954439744639136,0.5058245313329359,-0.12414762194770772,-1.4210030945134557,0.07556676881270293,1.9181561429663323,0.1543933443849264,-0.014977575747171932,-0.09250062545764674,-0.00022976456293444017,-0.14451727721924879,-0.006108163368441336,0.05493871665740991,-0.004812884757430643,0.5769965240940971,0.8167307389511097,0.0025803365890269,0.0,0.8166957535186463,-0.5769351506051236,-0.011602804922197885,0.0,-0.00798783434997391,0.008802297516260812,-0.9999293545350254,0.0,0.6539720461555301,0.2509724173609538,0.3038091424882067,1.0,-0.017640000000000013,-0.02318400000000002,-0.008820000000000007,0.8830000000000007
0.4593290431101742,0.5041935272394545,-0.1241518715332408,-1.423466305682441,0.07541681978786308,1.9191169247335098,0.15419759967973384,-0.010218025671593876,-0.09628363100108185,0.0007192390114987902,-0.14070509936122552,-0.009379084963268666,0.05481830744806081,-0.01678959008562244,0.5771020862392001,0.8166558093100285,0.0026866484238920975,0.0,0.8166222557927755,-0.5770404053417566,-0.011541613758414577,0.0,-0.007875372854419915,0.008854836758035847,-0.9999297827189629,0.0,0.6536791040949053,0.25059921755823295,0.30385971536099277,1.0,-0.017980000000000013,-0.023630857142857165,-0.008990000000000007,0.9000000000000007
0.4591073011091199,0.5026279537480858,-0.12415790677900411,-1.4258094785689528,0.07526140228229034,1.9200120991005114,0.15401426365479579,-0.01715704762664109,-0.10166632187796483,-0.00012425086841761092,-0.14490192245633488,-0.013795206215333821,0.05951041033156307,-0.014610161020263222,0.577215856197723,0.8165750962027326,0.002777501869683734,0.0,0.8165428598187818,-0.5771540298383918,-0.01147740482331858,0.0,-0.007769266133235808,0.008893060590817375,-0.9999302735576512,0.0,0.6534014241023156,0.2502289914575795,0.3039154490386358,1.0,-0.018300000000000014,-0.024051428571428595,-0.009150000000000007,0.9160000000000007
0.45888301185543584,0.5009185227170088,-0.12415611013074489,-1.4283598453992765,0.07509636919843306,1.920921554415336,0.15382329627170824,-0.011092967957475516,-0.09425937701165202,0.002165235009594585,-0.15017453227423094,-0.010507058112557387,0.05344180358714329,-0.009372264504145772,0.5773270453173229,0.8164962976032301,0.0028329572174027717,0.0,0.8164647750523275,-0.5772650285402624,-0.011450101500452869,0.0,-0.007713746866874094,0.008923634852702922,-0.9999304310052222,0.0,0.6530788804145019,0.2498386011741273,0.3039733392674155,1.0,-0.018640000000000014,-0.024498285714285736,-0.009320000000000007,0.9330000000000007
0.45864963320513386,0.49921675046114383,-0.12415333521888959,-1.4309535122855155,0.07493009215774296,1.921859322982752,0.1536116548680765,-0.009707534732409323,-0.10024423206880802,0.002406488152108631,-0.15449018703347853,-0.008492556005460576,0.05832569339328628,-0.0072268228757769015,0.5774296264611086,0.816423629705961,0.002868840172743135,0.0,0.8163925600644951,-0.5773674741350561,-0.011433922487638776,0.0,-0.007678697333619033,0.008944557574514803,-0.9999305138343638,0.0,0.6527523453581795,0.24943942786791745,0.30400709051906094,1.0,-0.018980000000000014,-0.02494514285714288,-0.009490000000000007,0.9500000000000007
0.4583921977081842,0.4975560839079735,-0.1241586249319858,-1.4335655608151587,0.0747661637099318,1.922844362795102,0.15340958636280974,-0.0097775603934385,-0.09440257632878456,0.0002486751106349938,-0.1553783421863711,-0.01110156969609674,0.05473821870208976,-0.012228854277207659,0.5775669316852997,0.8163264224982948,0.002891064850909452,0.0,0.8162956807269025,-0.5775047421651037,-0.01141846332167593,0.0,-0.007651736972152545,0.00895506298847265,-0.9999306264777479,0.0,0.6524362763473848,0.24902075098685467,0.3040072362568042,1.0,-0.019320000000000014,-0.025392000000000022,-0.009660000000000007,0.9670000000000007
0.45814054820904493,0.49596278475665484,-0.12415090884693562,-1.4361003144465827,0.07461286087618244,1.9237376591587587,0.15320848537331078,-0.012093043389158736,-0.09388365252067864,0.0018446407795402679,-0.15174984668893404,-0.01523474538468797,0.05146344322276084,-0.010254663204437648,0.5776891845156337,0.8162400487107168,0.002852345630742671,0.0,0.8162086578993436,-0.577626924236185,-0.01145906055509164,0.0,-0.007705900874593552,0.008948056824341688,-0.99993027325448,0.0,0.6521126666932335,0.24861747100291204,0.3039882718657253,1.0,-0.019640000000000015,-0.025812571428571452,-0.009820000000000008,0.9830000000000008
0.45786365561825854,0.49429955166658235,-0.12416083580797975,-1.4388465497641933,0.07444050628378845,1.9246795136188,0.15299236588606532,-0.011464625248776549,-0.10318471838639363,-0.0005848065405808955,-0.15824955613241748,-0.005147268376272552,0.05612249463070658,-0.013933516604703794,0.5778454596421972,0.8161298708945198,0.0027213058997712144,0.0,0.816096678334783,-0.5777834726713725,-0.011541976431748643,0.0,-0.00784757725231977,0.008890498551566303,-0.9999296848112736,0.0,0.6517351480440128,0.2481401596940134,0.30391886426579984,1.0,-0.019980000000000428,-0.02625942857142914,-0.009990000000001867,1.0010000000000006
0.45758364742307894,0.49224455273156253,-0.12422595072110679,-1.4419785456725243,0.07426186529608697,1.9258242906957925,0.1528641398279849,-0.01684096662567469,-0.1500148315829777,-0.005955168073389048,-0.21154330176222622,-0.006027461714613175,0.07390994816521432,-0.001887114896675325,0.5781167071184783,0.8159375686688451,0.002775587589969243,0.0,0.8159052153276483,-0.578054667293236,-0.011499048780594014,0.0,-0.007778214297907704,0.008912580201073494,-0.9999300302003611,0.0,0.6513754675738734,0.24764765324105026,0.3039624252761595,1.0,-0.029936571428570764,-0.039345208163264436,-0.05467498802742552,1.0169999999999988
0.45728316456989987,0.4894109847588762,-0.12435249964531045,-1.446443216775055,0.07406209184669536,1.927545414940051,0.15305078145544251,-0.025416938034054825,-0.17444741095023233,-0.0069297118468124135,-0.2897622553096843,-0.006433600158759337,0.11085278009693854,0.023309869956655786,0.5787755729309444,0.8154700787266399,0.0028519784769605394,0.0,0.8154386959282155,-0.5787131903507526,-0.01146836510376499,0.0,-0.007701779313937507,0.008963395766725071,-0.9999301676275841,0.0,0.6508208377211872,0.2469699976454403,0.30396136390182105,1.0,-0.040515428571426745,-0.05324884897958944,-0.10215278780656316,1.033999999999997
0.456832479085378,0.4856668515041836,-0.12453748342342959,-1.4524289173794076,0.0737891068008433,1.9298114173118321,0.15406491396183397,-0.03461055549062637,-0.23828328564623028,-0.015151543023697412,-0.37967679405945637,-0.01950612883758843,0.14755898634457149,0.0727055614278906,0.5803273838695087,0.8143664427112647,0.002858569254127869,0.0,0.8143352142332634,-0.580264863265185,-0.011471452423714671,0.0,-0.007683386534651504,0.008985204573230002,-0.9999301133929992,0.0,0.6500777311426448,0.24601734625376914,0.30391595765735635,1.0,-0.05109428571428272,-0.06715248979591444,-0.14963058758570077,1.050999999999995
0.4562127954037026,0.4810012729922945,-0.1247369048296005,-1.4598096253368043,0.073403607287868,1.9324788770459116,0.15572405839602782,-0.03657290477753383,-0.2874559415633304,-0.005298122641068418,-0.4658812535281744,-0.020671237020009812,0.16501477007743318,0.10829566356552671,0.5825838699897631,0.8127539807652735,0.0027835371670054043,0.0,0.8127219914451284,-0.5825215365114846,-0.011505260665097085,0.0,-0.007729624877070462,0.008965193760904572,-0.9999299366456076,0.0,0.649140716344648,0.24480311307158342,0.3038772322042526,1.0,-0.061673142857138694,-0.08105613061223944,-0.1971083873648384,1.0679999999999932
0.4554880492757594,0.47574512664590046,-0.1249363199130264,-1.4680898867092889,0.07297578830319588,1.9354352120492961,0.15780259234788585,-0.04609282127067747,-0.34542422165711295,-0.01304288237159482,-0.5381709132491572,-0.022858209953810285,0.18465293579137146,0.13455305057780512,0.5852900911341632,0.8108076138498791,0.002696190727036415,0.0,0.8107745373470057,-0.5852277366055495,-0.011571205576888722,0.0,-0.007804286243217384,0.008958687238431975,-0.99992941502848,0.0,0.6480731108756209,0.24343562009084044,0.30383896623537177,1.0,-0.07162971428570904,-0.09414191020407475,-0.24179337539226206,1.0839999999999914
0.45456556760434164,0.46935266820462346,-0.12515688164043628,-1.4780427896362904,0.07243857397046691,1.9390905828164005,0.16062905029362856,-0.06044476668268919,-0.3870923628802998,-0.014051901875211971,-0.5968535494193064,-0.028300599479549316,0.21713821282827847,0.1797939267592435,0.5888158299068151,0.8082507137612934,0.002729296011197953,0.0,0.8082183619045418,-0.5887532552672671,-0.011551224772447206,0.0,-0.007729552573806198,0.009007584576067401,-0.9999295562373951,0.0,0.6468058271976014,0.2417754097552595,0.30384388436908116,1.0,-0.08220857142856501,-0.10804555102039975,-0.28927117517139966,1.1009999999999895
0.4534943288068027,0.4620495921296179,-0.12532781073592603,-1.4892133119357596,0.07182032890923132,1.9432282503992122,0.16404189049066423,-0.06670065107885648,-0.43245033842290304,-0.01656363323738395,-0.6898390407518733,-0.03990393530390418,0.24813172808688613,0.2037344485103047,0.5929155232647181,0.8052474292926055,0.00291664029046268,0.0,0.8052176862105511,-0.5928520631720604,-0.011474140820378292,0.0,-0.007510530786210501,0.009151902757210423,-0.9999299148456515,0.0,0.6453658356335462,0.23993781894599853,0.30392675342269304,1.0,-0.09278742857142099,-0.12194919183672476,-0.3367489749505373,1.1179999999999877
0.45220848968750893,0.45397663184549897,-0.12556880621488806,-1.5018677394297166,0.07104663165649747,1.9475788812988968,0.16803061163866348,-0.08191895429317048,-0.48868383165984175,-0.013717123384006349,-0.7567192746474185,-0.04921173716761454,0.2548767613788734,0.24760089931272128,0.597698703298575,0.8017044900757853,0.0026301271329020213,0.0,0.8016714919033565,-0.5976360186578449,-0.01160840960057724,0.0,-0.007734804310101595,0.009047003491004804,-0.9999291597558889,0.0,0.6436667601969118,0.23774944344390364,0.303840486911933,1.0,-0.10336628571427696,-0.13585283265304976,-0.3842267747296749,1.1349999999999858
0.4508481035444521,0.4454442685305057,-0.12577967352121702,-1.5145634767823486,0.07021694678374488,1.9523392213841972,0.17237217577430913,-0.08598410998174229,-0.5420847028318138,-0.009446189543891745,-0.8362619763696147,-0.058933870892297124,0.2980586064305719,0.2825030064761929,0.6030913568849978,0.7976543116108993,0.0030267673123283633,0.0,0.7976277460221268,-0.6030284357884949,-0.011288547619189317,0.0,-0.007179270145619587,0.009222436650467666,-0.9999317000387598,0.0,0.641925051166413,0.23540271005582167,0.30406834905602614,1.0,-0.11394514285713295,-0.14975647346937476,-0.43170457450881256,1.151999999999984
0.44922326180356836,0.43581014161374637,-0.12598331158489823,-1.5294053761303452,0.06932789571011577,1.9575118805271825,0.1775656610726783,-0.09894727040922291,-0.5867332244335024,-0.014010403048727091,-0.8899473707043828,-0.05519003491810366,0.2985464554211786,0.31352309708465814,0.6087377426005933,0.7933539917218291,0.0029242868843844224,0.0,0.7933261175059345,-0.6086743321185444,-0.011400684374751523,0.0,-0.007264979964171081,0.009260118316823107,-0.9999307327384626,0.0,0.6400025978563524,0.23297904087706664,0.30404227482334,1.0,-0.12390171428570328,-0.16284225306121006,-0.4763895625362362,1.1679999999999822
0.44740429802000536,0.42534742267841613,-0.12618715121598217,-1.545149174337598,0.06830401757799864,1.9632118346291418,0.18336138259255944,-0.10741297599516812,-0.6136967273441387,-0.014833900348493767,-0.9437478982288279,-0.06378235226115422,0.3322530699474139,0.3526799304458895,0.6152977378397307,0.7882762228362878,0.003168157425610724,0.0,0.7882523178778803,-0.6152339185707867,-0.011236356232879878,0.0,-0.006908327548802606,0.00941119320042448,-0.9999318499042936,0.0,0.6378745684453363,0.23020602124603484,0.3041742321172087,1.0,-0.1344805714285594,-0.17674589387753525,-0.5238673623153746,1.1849999999999805
0.4453495115479742,0.4141508254706239,-0.12639312594470736,-1.5620042899283233,0.06713939568268186,1.9692084076036338,0.18971872123875094,-0.12297578053207153,-0.6898966456345774,-0.011934920437945801,-1.0078080962211604,-0.06805012287844985,0.36776382144308556,0.3865720407317992,0.6224281789365793,0.7826576192490302,0.0033105888210543614,0.0,0.7826366281054371,-0.6223645745951243,-0.011090155002986912,0.0,-0.0066195285549027205,0.009493995843427014,-0.9999330206992045,0.0,0.6355512752233364,0.2271687916453785,0.30427303809982054,1.0,-0.14505942857141538,-0.19064953469386026,-0.5713451620945121,1.2019999999999786
0.4430556417848454,0.4023825255404213,-0.12659087225138776,-1.5800189400099653,0.06590773747739262,1.9754031850207994,0.19672070844676726,-0.13956241823639198,-0.692947934174235,-0.012880762066378306,-1.0863001165308204,-0.07210448933411454,0.36260569145559096,0.43000267081200916,0.630194712774451,0.7764184592630637,0.0031220198438174076,0.0,0.7763957567428826,-0.6301313561127294,-0.011173623243484046,0.0,-0.006708253899771532,0.009465663493138585,-0.9999326980073463,0.0,0.6329802623216481,0.22387283839890446,0.3041926654240246,1.0,-0.15563828571427135,-0.20455317551018526,-0.6188229618736498,1.2189999999999768
0.4404785818831251,0.3897719182580759,-0.1268399682987994,-1.598805614033348,0.06464597375951363,1.9820137762194459,0.20421131356564773,-0.15179458709913796,-0.7475785901097604,-0.008388223874155457,-1.0999022011924708,-0.0754939877074344,0.3801638140010263,0.4493222822985266,0.638528092386642,0.7695786513731633,0.003364741438381351,0.0,0.7695597599829741,-0.63846410362422,-0.011050389109740575,0.0,-0.006355999294521908,0.009645539198617353,-0.999933280197502,0.0,0.630324939080851,0.22032563167198124,0.3043113742654023,1.0,-0.16621714285712735,-0.21845681632651026,-0.6663007616527874,1.235999999999975
0.43799662886047125,0.37812410173803174,-0.1270526877076476,-1.6162150063056562,0.06333480262047117,1.9879296678739962,0.2112917301172087,-0.1728036740364964,-0.8042911131850783,-0.015030547496045129,-1.1660279050320377,-0.08702638582618248,0.4038591589811613,0.4779695052351111,0.6462822951583208,0.763078588774831,0.003318014393219219,0.0,0.7630603223182634,-0.6462190734252793,-0.010981827995818979,0.0,-0.006235953683852047,0.00962939153014468,-0.9999341916848389,0.0,0.6277867549179823,0.2169711690988055,0.30434149649909614,1.0,-0.17555142857141204,-0.23072473469385585,-0.7081929379284971,1.2509999999999732
0.43474196218734906,0.36357456595266174,-0.12730163794243035,-1.6379443086647858,0.061750017151300685,1.995273301120775,0.22045543371411644,-0.18757402176761184,-0.8159709323935455,-0.020748921230320034,-1.2070622978968992,-0.08813894654396473,0.4235230412690348,0.5189267261985769,0.656206106054967,0.7545618587165028,0.0032702672188080414,0.0,0.7545439761212126,-0.6561429721544088,-0.010978847515948298,0.0,-0.006138574922100626,0.009672133426210303,-0.9999343817135761,0.0,0.6245610086654684,0.21272462496242836,0.30433489891077614,1.0,-0.18675257142855378,-0.24544623673467073,-0.7584635494593494,1.2689999999999715
0.4313494605862927,0.34925539824703905,-0.12755798569342824,-1.6594379271891464,0.0600598866886532,2.0023712280938755,0.22974575799720973,-0.2028357096180292,-0.8507196535081182,-0.015495246076119478,-1.266845187936337,-0.09951649876802174,0.4043814561909341,0.5493635373347137,0.6661446225381107,0.745803802056585,0.002962701927051119,0.0,0.7457835613062849,-0.6660827824725563,-0.011016055561797054,0.0,-0.006242531566524767,0.009548004396989232,-0.9999349310888564,0.0,0.6212931242388617,0.2084091163359116,0.3042138990999797,1.0,-0.19733142857140976,-0.2593498775509957,-0.8059413492384869,1.2859999999999696
0.4275896383206481,0.3341467905994741,-0.12785465969601417,-1.6814884011711815,0.05837510471229907,2.0097633720557875,0.23950905357672805,-0.22223450570671405,-0.8895354618736869,-0.012756258790633168,-1.3285680209862554,-0.10287273279382747,0.43209804126606316,0.5736791558733763,0.6765995850897248,0.7363313201217324,0.003152041466649259,0.0,0.7363145995990457,-0.6765376476548263,-0.010879734563840945,0.0,-0.0058787277785362635,0.009682304456580818,-0.9999358447121074,0.0,0.6179465349682336,0.2038390397491722,0.30431673259418207,1.0,-0.20791028571426576,-0.2732535183673207,-0.8534191490176246,1.3029999999999677
0.4236329558925738,0.31846934293814183,-0.12805921329444198,-1.7042137388974936,0.056524399176984236,2.0172160259949354,0.24980716601700312,-0.23021572102252166,-0.9201673027018755,-0.011455261524892409,-1.3544541117201248,-0.12184552424452788,0.4314163264524117,0.6273881611760407,0.6866762177031532,0.7269428186639929,0.0032645573894084907,0.0,0.7269286419830844,-0.6866144351319011,-0.01077561294484206,0.0,-0.005591869879894407,0.009772645563866367,-0.9999366111858936,0.0,0.6145873819158946,0.19943351027720455,0.3044020148899268,1.0,-0.21786685714283607,-0.286339297959156,-0.8981041370450482,1.318999999999966
0.4193957220034772,0.3023260526313154,-0.1282272689959202,-1.7275929593791517,0.054593601681770056,2.024740775238658,0.26069493712276953,-0.25321473004049616,-0.9504820257921339,-0.006279162053977616,-1.3672430024311444,-0.11490869064918446,0.4312030126805261,0.6504230841251889,0.6984496558901628,0.715638165275717,0.0032926416336172665,0.0,0.7156256273272502,-0.6983881404590614,-0.0107104472279295,0.0,-0.00536536623570405,0.00983719631191074,-0.9999372192362268,0.0,0.6105922206099684,0.1942792166003116,0.30443903068781136,1.0,-0.2290679999999777,-0.30106079999997076,-0.9483747485758999,1.336999999999964
0.41500296916112805,0.28654632849924994,-0.12844071349210198,-1.7502400179883963,0.052605188978858346,2.031882313254262,0.2714736609494194,-0.2820184557316531,-0.9902733742553369,-0.012067517337755096,-1.4034015130308803,-0.12170685390906831,0.44249898964287965,0.677450347702378,0.709394975491879,0.7047899315542292,0.003266194707802982,0.0,0.7047786121107867,-0.7093344205463861,-0.01060823456207138,0.0,-0.0051598519236013,0.009827561681237648,-0.9999383955822119,0.0,0.6068756397797977,0.18937540590680998,0.30447734306875457,1.0,-0.23902457142854805,-0.31414657959180603,-0.9930597366033235,1.3529999999999622
0.4099660883482297,0.26930577124286276,-0.12866667952046948,-1.774859129493543,0.050519849646109095,2.039519551004301,0.28340728717308283,-0.29956386147054054,-1.0399872749981929,-0.012594436564930395,-1.4470887512265682,-0.13905879286218728,0.46483676064526974,0.7097734887062167,0.7214095969035089,0.6924870820471547,0.003252936295495745,0.0,0.6924766299528496,-0.7213488348920287,-0.010617074468299287,0.0,-0.005005781488501615,0.009912032613169669,-0.9999383449799115,0.0,0.6027455606617763,0.18394844478542524,0.3044869708004397,1.0,-0.24960342857140402,-0.32805022040813103,-1.040537536382461,1.3699999999999604
0.40450652838967405,0.2515203917920494,-0.1289240048048364,-1.7998937136694486,0.04823908879981018,2.0471717724708607,0.2957857794312581,-0.3328334158507639,-1.0601553769232237,-0.01604198260584089,-1.4841031955108472,-0.15262594449296069,0.4851983401814303,0.7320128211123514,0.7337254344641676,0.6794238151024725,0.003318613140786718,0.0,0.6794157073840937,-0.7336654322693661,-0.01049175647754503,0.0,-0.004693687836665239,0.009952978100031373,-0.9999394519276816,0.0,0.5984813923405234,0.17824677605274764,0.3045624994814479,1.0,-0.26018228571426,-0.34195386122445603,-1.0880153361615987,1.3869999999999585
0.39894591901620297,0.23436557746847997,-0.1291632406210666,-1.8239017611763013,0.04605862811961599,2.054328560693042,0.3080042622845657,-0.34954824423773506,-1.0886623693148456,-0.019200010676843758,-1.4860234996656057,-0.14767593083052938,0.47180517448896675,0.7656546328398072,0.746448456974971,0.6654203805502376,0.0033414262329979896,0.0,0.6654139306228941,-0.7463888652215315,-0.010426394751460233,0.0,-0.0044440177901284295,0.010006390491649711,-0.9999400596311812,0.0,0.5940331342597619,0.17229060949359423,0.3046013793201622,1.0,-0.27076114285711594,-0.35585750204078104,-1.1354931359407363,1.4039999999999566
0.3928017351012293,0.21569876353898854,-0.12931179063882586,-1.8499267389214331,0.043648928753865265,2.061933935257799,0.32140168205913966,-0.36478525839490117,-1.1466807493860742,-0.009294619319459956,-1.510183537068302,-0.14374011193721373,0.45103983624443394,0.7803518736379736,0.7584898796188974,0.651661839658773,0.003270496821922196,0.0,0.6516554683056363,-0.7584297916451317,-0.010495173828579781,0.0,-0.004358945984661966,0.010091914572528962,-0.9999395745994673,0.0,0.5896069139478698,0.1666334589293854,0.3045740020910951,1.0,-0.28071771428568626,-0.36894328163261636,-1.18017812396816,1.4199999999999549
0.38571323780002964,0.1953299679056004,-0.12952957070379015,-1.8779308929103318,0.04084493063786668,2.0698713568535188,0.3359790145647036,-0.3961173654595665,-1.1727919684450876,-0.011154266991982131,-1.5516921269935022,-0.16316236629492512,0.45753957462748707,0.8094383321537422,0.7714850290805749,0.6362244905939143,0.00316138802853363,0.0,0.6362184460907071,-0.7714258078539258,-0.010443118885291505,0.0,-0.004205472647535291,0.010068237100678015,-0.9999404705288686,0.0,0.5847556130992551,0.16029112203728724,0.3045755109893491,1.0,-0.29129657142854226,-0.38284692244894136,-1.2276559237472975,1.436999999999953
0.3784052848981721,0.17559478204475068,-0.12977722845661818,-1.904703899702572,0.0381818133192367,2.0772722695663783,0.350384515216767,-0.4405913000444458,-1.2106023259727698,-0.017288455221892624,-1.5546131234233849,-0.15700164825554275,0.44915723867346685,0.8454335005645587,0.7856481596933664,0.6186497288217885,0.003198296478204983,0.0,0.6186456884920577,-0.7855894225267699,-0.010369099548781485,0.0,-0.0039023678732715283,0.010125271247785936,-0.9999411234703474,0.0,0.5794544412987592,0.15323742462912876,0.3046337189740743,1.0,-0.3024977142856839,-0.39756842448975604,-1.2779265352781493,1.454999999999951
0.37102956367502604,0.15661212734981542,-0.13003003389098128,-1.9302006470682673,0.03552575597443025,2.0840801562368454,0.3642649355510807,-0.4567112967199464,-1.2240483525014851,-0.009818490007360604,-1.5519696034520236,-0.17124436414594102,0.4429106709147787,0.874652266750398,0.7983597999042715,0.6021565397972333,0.0031429886164425066,0.0,0.6021533611108987,-0.7983017457742292,-0.010315003532433979,0.0,-0.003702264815702294,0.010127840307799937,-0.9999418583527415,0.0,0.5745717754886602,0.1467112922770173,0.3046634103177495,1.0,-0.3124542857142542,-0.41065420408159137,-1.3226115233055729,1.4709999999999492
0.36282535686893763,0.13604306447079512,-0.130228336896447,-1.9575658487942662,0.03259075064254232,2.09127911900683,0.37933783906651136,-0.4874064761241016,-1.245646736729468,-0.01515793856473744,-1.6292791996091496,-0.1664384354997239,0.4430187254138663,0.9119103140049596,0.8117711607981144,0.5839506279828017,0.003161245985668328,0.0,0.5839492537017599,-0.8117138897993468,-0.010226294987928675,0.0,-0.0034056896745786602,0.01014761396012756,-0.9999427119634187,0.0,0.569196510129783,0.13968573599515102,0.3046834021334635,1.0,-0.3230331428571102,-0.42455784489791637,-1.3700893230847104,1.4879999999999474
0.35396398087125697,0.1150310877117203,-0.13043909878643983,-1.9851474058077971,0.02956715387140915,2.098274001150343,0.39487375438634886,-0.5379072870119331,-1.249008026189083,-0.021111860794786927,-1.597335572026547,-0.1986019097771483,0.4225576516196506,0.911672570383004,0.8253322938536886,0.564621201319001,0.0032016627719830847,0.0,0.5646218285531771,-0.8252756516297391,-0.01015068714838895,0.0,-0.0030890983162047414,0.010185614701744852,-0.9999433537579718,0.0,0.5636578390021055,0.13237501107016322,0.30471771867406044,1.0,-0.33361199999996616,-0.4384614857142414,-1.417567122863848,1.5049999999999455
0.3444304544211121,0.09356802075775558,-0.13068475081854722,-2.012908687221528,0.026392742588174898,2.1049616700442457,0.41064205183558955,-0.5622610145878261,-1.2805581090397558,-0.009774103064357022,-1.6057666813510878,-0.18675974699705586,0.4044055623896142,0.9205578981632268,0.838852641643,0.5443315115787938,0.003193432653827601,0.0,0.544333690855515,-0.8387969804538621,-0.010060093553462005,0.0,-0.002797438122619289,0.010177424982422453,-0.99994429562885,0.0,0.5579406412894496,0.12476691938812597,0.3047690240150065,1.0,-0.34419085714282216,-0.4523651265305664,-1.4650449226429858,1.5219999999999436
0.3344026364943385,0.07180057921392047,-0.13085303236207146,-2.0408126473618715,0.023226408238768228,2.1114475542567073,0.4268337214841241,-0.6057272519472123,-1.2889089385273913,-0.014757184996608788,-1.6309899246499868,-0.20391886604401996,0.3903215165923907,0.9380536524722295,0.852266821387557,0.5230792739182913,0.0031757298801423977,0.0,0.5230826382579585,-0.8522111506487321,-0.010072495433914745,0.0,-0.0025623705163844157,0.010245820094789193,-0.9999442271586562,0.0,0.5520237865498551,0.11706830655826218,0.3047706733026919,1.0,-0.34998,-0.45997371428571443,-1.491026535,1.5389999999999417
0.3243794374377689,0.051419412491366154,-0.13103692878686563,-2.06677140969214,0.020117256872185043,2.117153655121894,0.44198508862529057,-0.6324858984627494,-1.2793925964778137,-0.013118052476420974,-1.596117210745328,-0.20161065797153124,0.3324135872013516,0.9314290872581983,0.864582994811352,0.50246226556909,0.002943410168390059,0.0,0.502464609318192,-0.8645280788458041,-0.01006301004213535,0.0,-0.0025116704435215187,0.010179462785572052,-0.9999450335138329,0.0,0.5463865567925654,0.10962728433727661,0.30468900943230004,1.0,-0.34998,-0.45997371428571443,-1.491026535,1.55499999999994
0.31262388730168184,0.02858658476635153,-0.13113924522775988,-2.095232412051803,0.01669980423828719,2.122965783545081,0.458642249783147,-0.6528301083834029,-1.265808711415493,-0.004372268971177676,-1.5657043585542274,-0.19363831907862195,0.3013206358556535,0.9250693974562298,0.8778034636222762,0.47899291967628793,0.0027584513641965946,0.0,0.47899470535958305,-0.877748426927683,-0.010125125415160707,0.0,-0.0024286837987054777,0.010209350319110383,-0.9999449338143913,0.0,0.5400204545023403,0.10127537084152594,0.3046823810936856,1.0,-0.34998,-0.45997371428571443,-1.491026535,1.572999999999938
0.3018080498326771,0.008564869700118894,-0.13119116276463338,-2.1197921852557338,0.013502349812192133,2.127951158402304,0.47328398029011837,-0.6834560047220339,-1.2278924051036701,-0.003436559528166997,-1.5226352548338045,-0.2098569958697575,0.29041565625984783,0.9022078465790022,0.8890152359517507,0.4578478644226356,0.0028266925006855924,0.0,0.4578520332977018,-0.8889619014821277,-0.009949885408813731,0.0,-0.0020427511746507476,0.01014000185981323,-0.9999465023339607,0.0,0.5344447283279617,0.09386016134021144,0.3047182321891893,1.0,-0.34998,-0.45997371428571443,-1.491026535,1.5889999999999362
0.2906349050880356,-0.01136877503100827,-0.13130707107834638,-2.143698438800827,0.010527636245084565,2.1325511863954327,0.4875545316233085,-0.6917061384950135,-1.2391759548677084,-0.0011003134607934758,-1.4719011753886384,-0.19142283212834876,0.2822687119331928,0.8728781552930177,0.8997557121247426,0.43636058354021856,0.003137918505186186,0.0,0.4363692775295436,-0.8997023442925306,-0.009914242486304504,0.0,-0.0015030209391787008,0.010289885651681978,-0.9999459281287821,0.0,0.5288984600857444,0.0864344368017785,0.30484992332744865,1.0,-0.34998,-0.45997371428571443,-1.491026535,1.6049999999999345
0.2785305241067722,-0.03225645412019937,-0.1312867501230321,-2.1685392269262525,0.007208262330749874,2.136964900738369,0.5025274771731366,-0.7263323151281136,-1.2164141183398525,0.0008465127312057082,-1.4488131899004746,-0.20168226758824562,0.2677263204630222,0.8672943372680366,0.9104884366008239,0.4134985688652886,0.0032384045074333808,0.0,0.4135097850810021,-0.910436445731952,-0.009791977657347635,0.0,-0.0011006284485924334,0.010254791816862716,-0.9999468125164513,0.0,0.5229480761252344,0.07866814874292784,0.3049164196001336,1.0,-0.34998,-0.45997371428571443,-1.491026535,1.6219999999999326
0.2658750725984766,-0.052921623722992486,-0.131407289860194,-2.192731007318131,0.004046345371915816,2.1408638313899,0.51714473199615,-0.7396273074058332,-1.2266941891889462,-8.621437925901334e-05,-1.3884083936417793,-0.20433700574530522,0.23271844596676988,0.8258513270193112,0.9207734996626787,0.3900589977737294,0.003299617539161595,0.0,0.39007215285814534,-0.9207215251951608,-0.009815065364879132,0.0,-0.0007904408845273991,0.010324739785782043,-0.9999463860385533,0.0,0.5170043254906224,0.07076355803363715,0.3049832445182393,1.0,-0.34998,-0.45997371428571443,-1.491026535,1.6389999999999307
0.25226399328388194,-0.07447290237742006,-0.131375854981463,-2.2177304707451255,0.0006424236702132838,2.144614483429772,0.532152749166647,-0.7624759691936551,-1.2117995119494436,-0.0005389536730764954,-1.3771712524538806,-0.19382552807459838,0.221892954510825,0.810362465772189,0.9308136301152027,0.3654532121444682,0.0032684287138646873,0.0,0.36546744049450786,-0.9307624071177987,-0.00977948546105319,0.0,-0.0005318240369130978,0.01029758089949901,-0.9999468370822582,0.0,0.5106764472891141,0.06258228334637518,0.3049884898438621,1.0,-0.34998,-0.45997371428571443,-1.491026535,1.6569999999999288
0.23963945911880216,-0.09329505596654686,-0.13146458548489398,-2.239320019127927,-0.0023165220183732366,2.1475312170465672,0.5453479868288497,-0.7834935327083606,-1.1676856767219563,0.005446600309941225,-1.3295658534422856,-0.18386873421420608,0.17234854775124753,0.81566724530674,0.9393477129451913,0.34292383441787067,0.0031408396953116315,0.0,0.34293797043806884,-0.9392966432373611,-0.009803638918904737,0.0,-0.00041172919362914007,0.01028633703145819,-0.9999470094707752,0.0,0.5050759189363365,0.055184871257276016,0.3049531636344933,1.0,-0.34998,-0.45997371428571443,-1.491026535,1.672999999999927
0.2268553996499873,-0.11197273870084853,-0.13142381042641232,-2.2605770005830044,-0.005414928224318821,2.150182094011393,0.5580622026202199,-0.7942190284505593,-1.1368607169988891,-0.004919025205870493,-1.3144117316074566,-0.19186777787623327,0.14725331475950382,0.786882089751951,0.9471492699997595,0.32074988618090583,0.002918519327840479,0.0,0.3207629752674695,-0.9470996428881585,-0.009701909084901726,0.0,-0.0003477643171005962,0.010125503997671204,-0.9999486752972737,0.0,0.49940789565151333,0.047932813035409166,0.3048631394566529,1.0,-0.34998,-0.45997371428571443,-1.491026535,1.6889999999999252
0.2126820728956539,-0.13171100116154363,-0.13153634535249714,-2.2824835528509992,-0.008505805683346591,2.1525903972360414,0.5711924381268433,-0.8389167863324154,-1.1493786628888738,-0.001905704014102133,-1.2774481478467425,-0.18947581662710786,0.13768661045864475,0.7649859132641643,0.9549889545108641,0.29659482901836526,0.0028898205863927204,0.0,0.29660888083671283,-0.9549394582735267,-0.00972366917702206,0.0,-0.0001243886865801569,0.010143338402018968,-0.9999485472830673,0.0,0.49343028644000125,0.04008600656554139,0.30486627068707894,1.0,-0.34998,-0.45997371428571443,-1.491026535,1.7059999999999234
0.19818238450009087,-0.15115779143159033,-0.13156218151924476,-2.3037633950068477,-0.011594208083465883,2.154601387229179,0.5840559226096346,-0.8667780936144928,-1.1394656940810657,-0.00700679310386185,-1.261553865730492,-0.17902736899465832,0.1074735034392011,0.7389752413962875,0.9621913159829051,0.27232473474865987,0.0028030683840129743,0.0,0.2723391555113993,-0.9621423035396048,-0.009711797776357752,0.0,5.2188923392482156e-05,0.010108187373466415,-0.9999489096070555,0.0,0.48745085879002226,0.03232917510121719,0.3048550837292183,1.0,-0.34998,-0.45997371428571443,-1.491026535,1.7229999999999215
0.18318511855009803,-0.17039417992780492,-0.13169061756297384,-2.3244000074867466,-0.014623029415468258,2.156328106465328,0.5964505734016794,-0.878644442318515,-1.1173030100659973,-0.0026796731489902876,-1.2206943599280713,-0.1743046126988656,0.09011799082540987,0.7200991828998545,0.968805107998535,0.24776827520029587,0.0028794828399528734,0.0,0.2477847078909653,-0.9687565723555305,-0.00970509941016058,0.0,0.0003849095953888937,0.010116036461621285,-0.9999487575125592,0.0,0.48151310734138364,0.02449860744893998,0.30488907488470224,1.0,-0.34998,-0.45997371428571443,-1.491026535,1.7399999999999196
0.16871698784218556,-0.18821348761159368,-0.13182885412199408,-2.343303995207371,-0.017472864794435276,2.1575034879281008,0.6076911114156306,-0.9265318104051602,-1.1013143957094274,-0.020771075612693805,-1.1408592860889906,-0.17517202847547972,0.0793782989604279,0.693948052508395,0.9744362202738781,0.22460470101063468,0.0027436842912167167,0.0,0.22462091574025872,-0.9743880179342637,-0.009704721497970975,0.0,0.0004936965331008847,0.010073114951966056,-0.9999491430162326,0.0,0.4758888015603442,0.01713964276082806,0.30487389443811425,1.0,-0.34998,-0.45997371428571443,-1.491026535,1.7559999999999178
0.15294898525110118,-0.20693782791697943,-0.13195707767287732,-2.3629042648769154,-0.020443369429169297,2.1585754131071773,0.6193170890520531,-0.9308235045333455,-1.0762976051773294,-0.009864183671271514,-1.139474153654776,-0.16694677714913364,0.03971591305461845,0.6681478984174432,0.9801209452170545,0.1983339612623075,0.0027054496921873924,0.0,0.1983510775884259,-0.980073218886825,-0.00969961553547673,0.0,0.000727789628691522,0.010043618579460864,-0.9999492967386328,0.0,0.4695672706744675,0.008887317969321833,0.30486004331504574,1.0,-0.34998,-0.45997371428571443,-1.491026535,1.7739999999999159
0.1366616045356745,-0.22542334774311776,-0.13217155404468445,-2.3817424876183217,-0.02342507447969073,2.1592770283058074,0.6304377360700868,-0.9611135173705926,-1.0606563223338095,-0.004583255445023283,-1.1176842362194719,-0.17546299423301936,0.026449052460384072,0.6432197802317889,0.9845876079034748,0.1748140614692819,0.0028342859304340633,0.0,0.1748335411768292,-0.9845410482972976,-0.00963867202659415,0.0,0.0011055167216073025,0.009985837538272566,-0.9999495291670661,0.0,0.46399882936276843,0.0014887567221290475,0.3049239412870355,1.0,-0.34998,-0.45997371428571443,-1.491026535,1.789999999999914
0.12009776613006337,-0.2436198262749986,-0.13226891343401637,-2.3999976344491896,-0.026308896663306994,2.15970008118046,0.6410454125595231,-0.9810121939623103,-1.0624046884318936,-0.005793232275399475,-1.043112836930652,-0.16003102750177534,0.027703567489411385,0.604465833039103,0.9886663028184237,0.15003579974101505,0.0029912152431972186,0.0,0.15005793082484664,-0.9886209692228447,-0.009588717883910938,0.0,0.001518556393596493,0.009929088994832368,-0.9999495523166217,0.0,0.4580882870968614,-0.006233258604360772,0.304994576158595,1.0,-0.34998,-0.45997371428571443,-1.491026535,1.8069999999999122
0.10293611035644194,-0.2614346173128634,-0.13244902935235617,-2.417926391399468,-0.029128579506619522,2.159756001294463,0.6512784885841734,-1.0038402428059576,-1.0500753266176777,0.0012336939290770801,-1.0493944975025082,-0.1573515850195524,-0.008268791458541501,0.6112379868470097,0.9921605305835461,0.12486275504369371,0.002742417962845757,0.0,0.12488361940294562,-0.9921150759478389,-0.009617930288897453,0.0,0.0015199021946266655,0.009885204220477324,-0.9999499850666724,0.0,0.4520690363901724,-0.014047225304227105,0.3049024690651213,1.0,-0.34998,-0.45997371428571443,-1.491026535,1.8239999999999104
0.08642163814039909,-0.27797147080649076,-0.13271139880024824,-2.4340390219294665,-0.031785583838342124,2.1597311254041935,0.6604867852975627,-1.0405847242475528,-1.0066393847894073,-0.028723102095119305,-1.0104140151314855,-0.16331734311484525,-0.012479536346492747,0.5641335710607354,0.9948640188864375,0.10108190059453909,0.002963139978205657,0.0,0.1011059164863588,-0.9948200159643303,-0.009564329008936796,0.0,0.0019810485476115525,0.009814986747866346,-0.9999498694843614,0.0,0.44652219595339365,-0.02142321277270806,0.3049578287711544,1.0,-0.34998,-0.45997371428571443,-1.491026535,1.8399999999999086
0.06847292816171335,-0.2952179542515014,-0.13284206757905873,-2.450608819079216,-0.03444643579274266,2.159505888347425,0.6697692675206889,-1.0477723240839159,-0.9927119835748665,-0.005336198057930901,-0.9599617693774753,-0.15950942878871865,-0.006633068683298245,0.5376055182324984,0.9970988421989316,0.07592173644626604,0.003245877653609012,0.0,0.07594958455076017,-0.9970562645695478,-0.009550538748947771,0.0,0.002511277512613652,0.009769542282208766,-0.9999491234702147,0.0,0.44063872204837223,-0.02916168263092662,0.3050133589428393,1.0,-0.34998,-0.45997371428571443,-1.491026535,1.8569999999999067
0.04998789257569086,-0.31212153910831186,-0.13307244717541936,-2.46674807357046,-0.037174361010186084,2.1588497015424406,0.6785469104988728,-1.089060216593714,-0.9841836583289247,-0.00877680419693987,-0.9541974740766245,-0.1611467318924057,-0.047347141312321664,0.5047463539865436,0.9987018900796212,0.050646989699422995,0.0031881165265928556,0.0,0.050675205645174304,-0.9986603789376312,-0.009498314280661863,0.0,0.0027028366709913043,0.009647728633945647,-0.9999498067433863,0.0,0.4346560340628881,-0.036978402575349116,0.30498092804791166,1.0,-0.34998,-0.45997371428571443,-1.491026535,1.8739999999999049
0.032176376500844546,-0.3277429527433181,-0.13335884032095427,-2.4811438758985616,-0.03961102421535949,2.1581097318172193,0.6862995918188994,-1.102890719006893,-0.9653964829984165,-0.013230143633664107,-0.8827430143708486,-0.14992851387889847,-0.05080407779672466,0.48092139765997766,0.9996639813437643,0.0253065415873997,0.0035000368609364434,0.0,0.02533873294506661,-0.9996243323212357,-0.009481020265279968,0.0,0.0032588529195961558,0.009566705153627283,-0.9999489277108867,0.0,0.4287812154564854,-0.04481231627463499,0.30507690306760493,1.0,-0.34998,-0.45997371428571443,-1.491026535,1.890999999999903
0.011733227489392938,-0.3447484385932327,-0.1335877206780799,-2.4969308661544973,-0.04227919743526783,2.156893969988352,0.694587729695542,-1.1404572122526548,-0.9437447014247349,-0.014357574905991035,-0.8556182196880188,-0.15106971598062188,-0.07546054616217562,0.4531119006210457,0.9999846362414981,1.805508966667979e-05,0.0033873081023547543,0.0,5.018060168393568e-05,-0.9999453961815377,-0.009484146691351537,0.0,0.003387017115854374,0.00948435355956688,-0.9999492862903667,0.0,0.42280745849740625,-0.052567706361028435,0.30503768146410554,1.0,-0.34998,-0.45997371428571443,-1.491026535,1.907999999999901
-0.00690826125218018,-0.35953371187028055,-0.13385035949422566,-2.5102080578888337,-0.044635809890468864,2.1557742244500555,0.7014445837194124,-1.1550443897883356,-0.9164941081548353,-0.015523806288723133,-0.8542639545379443,-0.14745678359209524,-0.07037216193357748,0.41144862462790077,0.9997003275000416,-0.023805131834899906,0.0036493555377587867,0.0,-0.02376986635072248,-0.9996634453373168,-0.009420000594621595,0.0,0.0038724462427666695,0.00933061262930173,-0.9999489706120301,0.0,0.41727879693095693,-0.05992005193639303,0.3051122806016838,1.0,-0.34998,-0.45997371428571443,-1.491026535,1.9239999999998993
-0.02718804449151538,-0.37479121137779986,-0.13414263252163647,-2.523958277886239,-0.04700689904797578,2.154240459431596,0.7082470326162587,-1.1993036768229464,-0.8658386572230048,-0.005345835329617892,-0.7948245090338993,-0.13881905492486685,-0.09855967883457566,0.38693986965421207,0.9987748585670666,-0.04916550804839126,0.003504513359628101,0.0,-0.049130566521941255,-0.9987380914309558,-0.009442407494567985,0.0,0.003964408072999859,0.009258838744514553,-0.9999492774004759,0.0,0.4112844837004455,-0.06771587786064816,0.30506043282498513,1.0,-0.34998,-0.45997371428571443,-1.491026535,1.9409999999998975
-0.04792890973778961,-0.3896624853015704,-0.13448760086000394,-2.536833292726321,-0.04933974064363882,2.152666063936548,0.7144856736815803,-1.2221481296255257,-0.8514407466841961,-0.016106454131446738,-0.7434915030276941,-0.14032279187480107,-0.08915789347330286,0.3579744592045236,0.9972056487264074,-0.07447885507758412,0.0038132919748989245,0.0,-0.07444029905977306,-0.9971713867228886,-0.009413515722153754,0.0,0.004503700230015395,0.009103523728534568,-0.9999484199397299,0.0,0.40540070471391143,-0.07555590009639711,0.30517010540676553,1.0,-0.34998,-0.45997371428571443,-1.491026535,1.9579999999998958
-0.06781900398845804,-0.40310589373696476,-0.13479282256563063,-2.5485970619099634,-0.05148808916878055,2.150973468400269,0.7198694993119321,-1.2543267115038392,-0.8353339100925481,-0.032636844479758134,-0.7155665961909025,-0.13335062060849825,-0.11276583801493402,0.32815001029555035,0.9950044925507612,-0.0996639245640516,0.003729456461908412,0.0,-0.0996254187928084,-0.9949711132848984,-0.009381181171682929,0.0,0.004645756225672426,0.008962941313764544,-0.9999490400175888,0.0,0.3994244411068474,-0.08336091468673561,0.30514188448570223,1.0,-0.34998,-0.45997371428571443,-1.491026535,1.974999999999894
-0.08933580906426108,-0.41691849385017393,-0.13506800938292376,-2.5601716942821064,-0.05349897222639865,2.149185814443987,0.7251503297220886,-1.2742077957002207,-0.8167631283824567,-0.013461288934642107,-0.6732091685842824,-0.12095811274873766,-0.10659712798213321,0.30359273729226804,0.9923508222540451,-0.1233047370260047,0.004066239033350917,0.0,-0.1232621709741904,-0.992319544202473,-0.009439613431365984,0.0,0.005199057613944902,0.008866365404434542,-0.9999471772871014,0.0,0.3939362295776042,-0.09065003270561661,0.3052565267176709,1.0,-0.34998,-0.45997371428571443,-1.491026535,1.9909999999998922
-0.11135800120707785,-0.430064140475737,-0.1354467440561829,-2.5714582304970954,-0.055621457272035914,2.1471490486864626,0.7299063436676074,-1.2958099791774342,-0.7659208641423401,-0.02557923960340622,-0.6484637107605322,-0.10742734413500138,-0.1294602547515519,0.2709752961123996,0.9889111922494876,-0.1483945680550539,0.0038016991805538184,0.0,-0.1483536983220658,-0.9888798733006018,-0.009408680904333685,0.0,0.005155720206349912,0.008740521999390044,-0.9999485095865348,0.0,0.3879285204387148,-0.09845605674533697,0.3051669187860815,1.0,-0.34998,-0.45997371428571443,-1.491026535,2.0079999999998903
-0.1338194678846409,-0.4426783505375246,-0.13579015467566127,-2.581838635607985,-0.0576721613253892,2.14518713334184,0.7341874893605689,-1.3220935435517613,-0.7342390584827179,-0.025542404233522227,-0.595517871093681,-0.11364725381537974,-0.09082314772829683,0.2338127990399432,0.9848345623117203,-0.1733945933938425,0.003993339363808798,0.0,-0.17335182118612052,-0.9848061410444173,-0.009314373509092257,0.0,0.0055478339490757644,0.008481027592766366,-0.9999486455360815,0.0,0.38203968860737847,-0.10628752560172232,0.305234681703641,1.0,-0.34998,-0.45997371428571443,-1.491026535,2.0249999999998884
-0.15398838474397838,-0.45322509776896786,-0.1361405353643184,-2.5906191459419943,-0.05927276098400138,2.1433404139652064,0.7375039838401111,-1.3342177372386792,-0.6866761454436094,-0.022121577218104697,-0.5802336723405992,-0.1120323064132797,-0.13294154972976818,0.22076055179818316,0.9807034413015931,-0.19541405182377036,0.003854279470739185,0.0,-0.1953714902584418,-0.9806747064350423,-0.009372718599625244,0.0,0.005611463344700696,0.008439003537901918,-0.9999486460305942,0.0,0.37677011395286913,-0.11317425869695609,0.3051874767896696,1.0,-0.34998,-0.45997371428571443,-1.491026535,2.039999999999887
-0.17864432795396143,-0.4653065428092959,-0.1365766783570415,-2.6005150728830397,-0.06115538097120511,2.1410638013328978,0.7409832039640699,-1.3882274260106646,-0.6548908973422486,-0.013562439256333915,-0.5339643566676089,-0.10938093715094645,-0.12280988608725212,0.17904376785235052,0.974774962872563,-0.22311666083668813,0.0036707376762917373,0.0,-0.2230746978160068,-0.974746201092062,-0.00939518770961316,0.0,0.00567436976407526,0.008339505614243806,-0.9999491257928528,0.0,0.37007088283641276,-0.12189542909415993,0.30514386401275995,1.0,-0.34998,-0.45997371428571443,-1.491026535,2.0589999999998847
-0.20216918850030832,-0.4759499223644499,-0.13693615522145938,-2.608871514449411,-0.06276444287232942,2.1391917550301094,0.743787437403464,-1.402852907710573,-0.6012235837759732,-0.03267820512947782,-0.473409376488363,-0.09836763785128527,-0.10919069282925357,0.1460779619478475,0.9691837908099051,-0.24626620790968473,0.004059725894010156,0.0,-0.24622023208539268,-0.9691581756692154,-0.00942203515924695,0.0,0.006254965838090543,0.008132253672040263,-0.9999473695413064,0.0,0.36460374747045404,-0.12924608920010927,0.3052563365734969,1.0,-0.3416451428572156,-0.4490193306123407,-1.4536197836591838,2.074999999999883
-0.22565764958966303,-0.4855858246046174,-0.13715542754083976,-2.616649032330889,-0.06420447842206951,2.1371435540672468,0.7459681164420016,-1.3768197657967083,-0.5511952424335624,-0.022291881554794085,-0.4451030297960814,-0.08118713105442804,-0.12170361582484146,0.10533013248688781,0.962838489642178,-0.27001502745619177,0.003830758751156712,0.0,-0.26997021612839495,-0.9628124915441759,-0.00943055837649031,0.0,0.006234814896168173,0.008046068727472905,-0.9999481925886178,0.0,0.35878261008565887,-0.13681778656950633,0.30519740928634376,1.0,-0.33106628571435964,-0.43511568979601567,-1.406141983880046,2.091999999999881
-0.24876065661683858,-0.49428073318601945,-0.13728087631078717,-2.6235602827847417,-0.06539975865905687,2.135276762147412,0.7474474248336835,-1.3480669308878204,-0.4954195748568217,-0.0052595209467797945,-0.3827543981928749,-0.06158675403421472,-0.10467746281103853,0.075442594508877,0.9562009253151984,-0.2926545458246185,0.0037221144196590565,0.0,-0.29260969164873396,-0.9561749202658952,-0.009478243980294291,0.0,0.006332965574917748,0.007974132438462539,-0.9999481520353346,0.0,0.3531726797923038,-0.14413077087660614,0.30516882376245036,1.0,-0.32048742857150364,-0.42121204897969067,-1.3586641841009084,2.108999999999879
-0.2715693594875717,-0.5020899109798217,-0.13732915247335029,-2.629522302250825,-0.06642135426565997,2.1336617154651827,0.7486070476629195,-1.3540761689537084,-0.429366375441068,0.004675920635402018,-0.326576132938537,-0.05443897549563408,-0.09048132242099176,0.05663386107856404,0.9491971229928632,-0.31462689160117513,0.00393543957673757,0.0,-0.31457958047052215,-0.9491733314693704,-0.00950901043932069,0.0,0.0067273342126053515,0.007788066364906171,-0.9999470430961269,0.0,0.3478021407116284,-0.15127518257316697,0.3052426294158471,1.0,-0.3099085714286477,-0.40730840816336567,-1.3111863843217708,2.1259999999998773
-0.29258005235338885,-0.5086019900000173,-0.13730100184825084,-2.634386988956753,-0.06727214282375245,2.1323084888460184,0.7492352209018405,-1.2850985835436333,-0.3881294075234919,0.006359330850438619,-0.29677377056110826,-0.02978144474610301,-0.08910488650179521,0.029483562367419232,0.9420163914316498,-0.33551173504486337,0.004211985575264187,0.0,-0.3354618744276202,-0.9419956612275193,-0.009500101854436933,0.0,0.007155205553216193,0.007536436190760137,-0.9999460011235777,0.0,0.3426462553490257,-0.1581713404397108,0.3053376052013684,1.0,-0.2993297142857917,-0.39340476734704066,-1.2637085845426332,2.1429999999998754
-0.31437728402920995,-0.5146202920266593,-0.13718414982282442,-2.6391529182754065,-0.06800401532052286,2.1308008455231056,0.7495430772288442,-1.2745935907563295,-0.33992528524479526,0.016818372628532623,-0.26855165246709406,-0.0471616786053476,-0.08697778643051728,0.011107474705487449,0.9351103719879332,-0.35430727108606414,0.003961913343780407,0.0,-0.3542588831120593,-0.9350888660984524,-0.009497533159458664,0.0,0.007069922229904324,0.007477842741199753,-0.9999470476318237,0.0,0.33784781363659966,-0.16438306286494003,0.30527509536229497,1.0,-0.2893731428572214,-0.38031898775520534,-1.2190235965152094,2.1589999999998737
-0.3356492974123709,-0.519837201069206,-0.13708681381882157,-2.643276474537528,-0.06857744082182966,2.1295147736481086,0.7495995365768272,-1.26029797094892,-0.287155083280898,0.010709874292486054,-0.22816212290113308,-0.03601392025758202,-0.07141671352682928,0.0001174720490042578,0.9275956272198388,-0.37354099520463613,0.0037714937852506734,0.0,-0.3734931919447263,-0.9275733622185874,-0.009551972291296305,0.0,0.007066526459361344,0.00745188394833643,-0.9999472654242421,0.0,0.3329341888315412,-0.17077447288112532,0.3052152231303872,1.0,-0.2787942857143654,-0.36641534693888034,-1.1715457967360718,2.175999999999872
-0.356293681141274,-0.5243013043446295,-0.13686423177265267,-2.6467010692333135,-0.0690113783621162,2.1284736776833673,0.749489417815861,-1.2353905383605375,-0.24974837816723353,0.003640021421823344,-0.18940609595036154,-0.021284873520339507,-0.052755434836931014,-0.01679810806342722,0.9199909029405033,-0.39189694247913504,0.00377781463695736,0.0,-0.3918485712619075,-0.9199695477549821,-0.00956427230393811,0.0,0.007223822576984729,0.007318853155487665,-0.9999471239899962,0.0,0.328270953938193,-0.1769197090987683,0.30521393055232443,1.0,-0.26821542857150943,-0.35251170612255533,-1.1240679969569343,2.19299999999987
-0.3762987739708608,-0.5280761313072014,-0.13656313197012698,-2.649621548672466,-0.06937196490873042,2.127522689332797,0.7489907719607498,-1.150253508907724,-0.20789892603317872,0.0231326932885329,-0.1614236688945778,-0.018916942437355293,-0.04733301315415592,-0.03495455591014642,0.9128812471213648,-0.4081848977865376,0.0036965895557881296,0.0,-0.40813695989154053,-0.9128603786902711,-0.00953403844936097,0.0,0.0072662605497367805,0.007194868610005595,-0.9999477162948613,0.0,0.3240341532786911,-0.18246875487332567,0.30519402549420255,1.0,-0.25825885714293906,-0.33942592653072,-1.0793830089295104,2.208999999999868
-0.39455625761024,-0.5309441823398742,-0.13633542237908775,-2.651945142259265,-0.06962299489621658,2.12676679085923,0.7483051340136591,-1.1225900839627898,-0.1727933706708987,0.01976236184867998,-0.1345468593126799,-0.010533500180811107,-0.04581656719739149,-0.048540867826557206,0.9048859272045977,-0.42561717434797325,0.0034966481565205845,0.0,-0.42557032452700666,-0.904864579700499,-0.00952565938006376,0.0,0.007218416270536154,0.007131702737014217,-0.9999485153159717,0.0,0.31943248444591155,-0.18848504409250744,0.3051222751618017,1.0,-0.24705771428579745,-0.32470442448990533,-1.029112397398659,2.226999999999866
-0.41331155588092305,-0.5335319670052818,-0.13607764507143627,-2.653965087322216,-0.06978887750225299,2.1261514859295767,0.7473847509297852,-1.1030325166893256,-0.14691935323900443,0.020754215571233917,-0.10576070847317535,-0.006285980998698446,-0.032812027122177456,-0.05678216806201596,0.8978052512014058,-0.440357179325999,0.0034687796756774736,0.0,-0.4403101679475735,-0.8977844548148393,-0.009527622788989559,0.0,0.007309914305544785,0.0070267460964870965,-0.9999485936747654,0.0,0.31551462642986056,-0.19363860355228663,0.3051023037340747,1.0,-0.2371011428572271,-0.31161864489807,-0.9844274093712353,2.2429999999998644
-0.4313100848130188,-0.5356204776123678,-0.135713047777222,-2.6555656090547353,-0.06987603530149503,2.1256381258452124,0.7463061603717857,-1.0658786825774043,-0.11486088659805917,0.023828566714259536,-0.0862037185270506,-0.004187475324195809,-0.028092895987205747,-0.0655373179041765,0.8904425076695877,-0.4550613966839742,0.0034659319576422582,0.0,-0.45501433809158764,-0.8904227158108127,-0.009491375052078463,0.0,0.007405445511963538,0.006874607424524171,-0.9999489482716246,0.0,0.31155203994991526,-0.19884554749009314,0.305099187398,1.0,-0.22652228571437114,-0.297715004081745,-0.9369496095920977,2.2599999999998626
-0.44761990415785063,-0.5371859148322786,-0.13541289562912417,-2.656729344348309,-0.06987167381248259,2.1252475131644943,0.7452462929345204,-0.9896337309379967,-0.08819121023853684,0.023190813240393505,-0.06503729377314056,0.002855378621444589,-0.02645500520459066,-0.07056517966824766,0.8831370439660826,-0.4690815260524175,0.0034971977915358833,0.0,-0.469033847768735,-0.8831181429416906,-0.009504849061574866,0.0,0.007547133227563896,0.006753910200711005,-0.9999487114232639,0.0,0.3077524014925061,-0.20384287590559033,0.3051136533349004,1.0,-0.21594342857151516,-0.28381136326542,-0.88947180981296,2.2769999999998607
-0.46527109277148737,-0.538474606453673,-0.13508837831118697,-2.6577457798992374,-0.0698718935286698,2.1248877700258277,0.7438282135407398,-0.971986977062783,-0.06773443289892951,0.024196719367723662,-0.05612487908232041,-0.0016139135913114696,-0.024533030306095133,-0.07744467230436218,0.8760110383677059,-0.4822588542298011,0.0034358515831814577,0.0,-0.4822115150037022,-0.8759925692587466,-0.009477357358611329,0.0,0.007580465904292177,0.006645590411653801,-0.9999491850412969,0.0,0.3040818941536523,-0.2086403235744013,0.30509514451124786,1.0,-0.2053645714286592,-0.269907722449095,-0.8419940100338225,2.293999999999859
-0.4800678205508673,-0.5392590540340265,-0.1346556964045032,-2.65835646765269,-0.0697973853099355,2.124646698597813,0.7424945278754973,-0.9091238063660115,-0.044466284877853104,0.027125705731264795,-0.035071966767591126,0.0012404136913157044,-0.0055686334502535245,-0.08134294887479636,0.8696254769126445,-0.4936808207418165,0.0033947072555134293,0.0,-0.4936340901948345,-0.8696078089714699,-0.00940162084780926,0.0,0.007593610035540765,0.006500270936333263,-0.9999500405342172,0.0,0.3008579749008349,-0.21285218376539852,0.30509204735163836,1.0,-0.19540800000008884,-0.2568219428572597,-0.7973090220063987,2.309999999999857
-0.4951892446691978,-0.53974739502127,-0.13428588478804823,-2.658745975684685,-0.06968416193486751,2.124488267823724,0.7410643486753865,-0.8626288114269695,-0.017869311366306807,0.03408927184975822,-0.0156419192191369,0.009078021153205013,-0.013955136075962472,-0.07983913131773152,0.862929947445902,-0.5052933375382948,0.0033609138091219844,0.0,-0.505246919193816,-0.862912923333443,-0.00935864789898784,0.0,0.007629185277284345,0.006377888986030228,-0.9999505578097785,0.0,0.2975619449238828,-0.21717669768018383,0.3050876526126915,1.0,-0.18482914285723287,-0.2429183020409347,-0.7498312222272612,2.326999999999855
-0.5093970200857088,-0.5399341200035691,-0.13381477908106124,-2.658912965385027,-0.06944962137398891,2.1244531515957714,0.7395061640148003,-0.8332077419049672,-0.0030718646999913415,0.025180740745307448,-0.005818619941686146,0.01029023994538658,-5.446134069887866e-05,-0.08642630166144954,0.856620579586106,-0.5159171694073414,0.00337695743066774,0.0,-0.5158706450144105,-0.8566044176926981,-0.009332529291556105,0.0,0.0077076771456504045,0.006252483822481114,-0.9999507478666477,0.0,0.2945051016046352,-0.2212041775173325,0.30508858416804424,1.0,-0.1742502857143769,-0.2290146612246097,-0.7023534224481235,2.3439999999998533
-0.5229350770201817,-0.5399371065974189,-0.1333877645862018,-2.658936319645167,-0.06920092752858158,2.124461013040666,0.7380146091605206,-0.7691108704192887,0.008566160223456784,0.03646882744679192,0.004518017661807796,0.01990974007160714,0.0014775120659543677,-0.0934995511153727,0.8504685409785389,-0.5259966612939324,0.003394114712241089,0.0,-0.5259499297527854,-0.8504531311370309,-0.009321482364333293,0.0,0.007789754063317833,0.006142611375979379,-0.9999507928178851,0.0,0.291577054924096,-0.22503778038336833,0.3050908454597987,1.0,-0.16367142857152092,-0.2151110204082847,-0.6548756226689859,2.3609999999998514
-0.5355991177131059,-0.5397615101580906,-0.13291282956266864,-2.658845520062069,-0.06890196883734927,2.124473655246332,0.7363543595726418,-0.742529889925561,0.014863814633711392,0.022361515156039492,0.00929628061916815,0.015708284313584286,-0.0014020357365052288,-0.09632922978325087,0.844760226733234,-0.5351164823705074,0.003355074699368003,0.0,-0.5350698918936757,-0.8447450667638298,-0.00931288721456958,0.0,0.007817812765010479,0.006072074164478525,-0.9999510046591844,0.0,0.2888372752848283,-0.22858801672762763,0.30508182037043785,1.0,-0.15309257142866495,-0.20120737959195972,-0.6073978228898482,2.3779999999998496
-0.547549581324918,-0.5394551875693658,-0.13245905206091033,-2.6586639510293084,-0.06861158693771187,2.1245362082520014,0.7347635262979585,-0.6825635277616234,0.025262830314635488,0.02905662384307912,0.011610848411677642,0.020209363468476665,0.0019539238546650403,-0.09807389952934051,0.8392934743416592,-0.5436507715026899,0.0033240747952708836,0.0,-0.5436043605586781,-0.8392786542066804,-0.009294443276649909,0.0,0.007842907278964695,0.005993899437336692,-0.9999512798006454,0.0,0.2862431890853258,-0.23193208613346689,0.30507042334418544,1.0,-0.14251371428580895,-0.18730373877563472,-0.5599200231107107,2.3949999999998477
-0.5579423570488584,-0.5390047807735897,-0.13199410365357966,-2.6583945415588293,-0.06828383582612085,2.1246869421626946,0.7332036433738137,-0.640006094377148,0.02924404688098142,0.02694260693681984,0.022518233837860856,0.018780351947273625,0.007768269715882872,-0.09385432856365969,0.8345732091911754,-0.5508695359103818,0.0033256288776250067,0.0,-0.5508230521866465,-0.8345588490861698,-0.009286522113405169,0.0,0.007891247066390827,0.005918563464283044,-0.9999513482296309,0.0,0.2840148508090418,-0.23482776618260964,0.3050546602153368,1.0,-0.13255714285723863,-0.1742179591837994,-0.5152350350832869,2.410999999999846
-0.5684497240330143,-0.5384272494853404,-0.13160035216303137,-2.6580050783648046,-0.06793167756631849,2.1248217780222554,0.7316412691712384,-0.6075211429867522,0.03964902076953487,0.020769772732269355,0.022725123298513627,0.023969998652737086,0.007517060192979875,-0.08374133494856711,0.8296826795023278,-0.5582082804737649,0.003303610989375188,0.0,-0.5581615088889802,-0.8296683390131017,-0.009323311387396487,0.0,0.007945404033829206,0.005891554909806529,-0.9999510788711037,0.0,0.28174182714629575,-0.23777284785152225,0.3050441105937437,1.0,-0.12197828571438266,-0.1603143183674744,-0.46775723530414925,2.427999999999844
-0.5778220741279086,-0.5377352170240177,-0.13105896948986573,-2.657512671006606,-0.06751838910046253,2.125005394010577,0.7299121209536011,-0.5373054635936296,0.04466256658574706,0.031822625626242315,0.027413952359690456,0.024548618530411834,0.0003884971257158312,-0.09446949217424327,0.825512463216933,-0.5643570421042869,0.0033240039139943584,0.0,-0.5643100584085278,-0.8254986424067641,-0.009321816602033635,0.0,0.008004947682968055,0.005819618987644326,-0.9999510252244515,0.0,0.27977611116019596,-0.24036784336864067,0.3050467314794073,1.0,-0.11139942857152668,-0.1464106775511494,-0.4202794355250117,2.444999999999842
-0.5865955050887874,-0.5370566118809359,-0.13060494148600788,-2.65704695244952,-0.0671402421139835,2.1251520394305565,0.7283054686644753,-0.49963919870529044,0.04214738126147343,0.024799603035978092,0.02936276112014712,0.018090822591978518,0.010961837409612532,-0.09207935310546846,0.8215375776615772,-0.5701279910290449,0.003290780506458638,0.0,-0.5700809507734341,-0.8215237094147387,-0.009340842355665506,0.0,0.008029084480047077,0.005797953350852092,-0.9999509575670968,0.0,0.2778994426993861,-0.24279258127975595,0.30503635682896163,1.0,-0.10082057142867068,-0.1325070367348244,-0.3728016357458741,2.4619999999998403
-0.5946212794284027,-0.536368816237692,-0.13017241193142234,-2.656523277914947,-0.0667529067285711,2.1253211825411253,0.7266447673203434,-0.45105004107482655,0.04216921333382071,0.02388973181210326,0.029067810700146746,0.022479879021897117,0.005234985295159661,-0.09211395018128483,0.8179679470799642,-0.5752374302694825,0.0033291542408257517,0.0,-0.575189830692615,-0.8179545028098572,-0.00937213434009166,0.0,0.008114455404178267,0.005751320552535022,-0.9999505377394402,0.0,0.2761989120907469,-0.2450171595765665,0.30505041936014526,1.0,-0.09024171428581473,-0.11860339591849939,-0.32532383596673653,2.4789999999998384
-0.6011488127001222,-0.5356689944255898,-0.1296397272747645,-2.6560192358766193,-0.06636678789496138,2.1254929124202224,0.7251955605379378,-0.3937656321593429,0.04446914897582728,0.027575712158324817,0.0273735586568356,0.024376511814284015,0.014582871960580538,-0.09980869576552409,0.8151639169874467,-0.5792041061478524,0.003337478742861648,0.0,-0.5791565435164125,-0.815150876346299,-0.009353811800064928,0.0,0.008138471615560638,0.0056920768030460644,-0.9999506815545609,0.0,0.27486661819912994,-0.2467912975465687,0.3050535897229471,1.0,-0.08028514285724436,-0.10551761632666412,-0.2806388479393127,2.4949999999998367
-0.6075042867499624,-0.5350019153034625,-0.1291052607617158,-2.6555416259843816,-0.06600151267868293,2.1256467447378333,0.7235400869956222,-0.36560461703629404,0.03771756914138766,0.03536919446716308,0.027298102981942546,0.015048308149250653,0.004988049688728011,-0.09460506654002358,0.8125698234895159,-0.5828378031262156,0.0033352814621933763,0.0,-0.5827904640584572,-0.8125571635317945,-0.009320831341716958,0.0,0.008142796481081349,0.005630164445109498,-0.9999509968562403,0.0,0.27355603856244015,-0.24850446998596262,0.3050548808279697,1.0,-0.06970628571438842,-0.09161397551033912,-0.23316104816017513,2.511999999999835
-0.6130336389128482,-0.5343456646091278,-0.12857908499779377,-2.65506021715379,-0.06564156575450214,2.12581072918163,0.7219342585558296,-0.30115353014887825,0.04389789749774034,0.029215303255906648,0.03005259880999166,0.022618417692156032,0.010410094001858829,-0.09069765554820648,0.8104120289467617,-0.5858342952788772,0.0033568906302232113,0.0,-0.5857870622361513,-0.8103999069220599,-0.00928738276720544,0.0,0.008161448325862297,0.005560290664275158,-0.9999512357755018,0.0,0.27244215810546546,-0.24999057591441787,0.3050623680243754,1.0,-0.059127428571532414,-0.07771033469401412,-0.18568324838103756,2.528999999999833
-0.6175290195365102,-0.5337657423212514,-0.12812019842677372,-2.6546830452869608,-0.0653143456058175,2.1259226061514935,0.7203973292104505,-0.2673214549171106,0.03748167424751542,0.028724042305539346,0.020726019878597297,0.01781374674392689,0.0067808405103006964,-0.09723522318035294,0.8087136679121423,-0.5881769005911894,0.003299067177187688,0.0,-0.5881300715245272,-0.8087012917177234,-0.009272898352100949,0.0,0.00812222087781217,0.0055589460505579,-0.9999515626503211,0.0,0.27148035064924275,-0.2512449983707086,0.3050447524068235,1.0,-0.04854857142867647,-0.06380669387768911,-0.13820544860189998,2.545999999999831
-0.6217222122615834,-0.5332595075856091,-0.12759210552607123,-2.654327219735428,-0.06495481505039159,2.126036969850052,0.7187292912566923,-0.21824645003870916,0.025227791716857906,0.03373306661157462,0.012972335389720143,0.020502295801169176,0.003616812324424159,-0.0849862827535717,0.8074468753500427,-0.5899147720155813,0.0032942596233646614,0.0,-0.5898680569493581,-0.807434638404193,-0.009258887464883493,0.0,0.008122010189630269,0.005532987756776797,-0.9999517083324388,0.0,0.27070783328650727,-0.2522568764174786,0.3050440601976108,1.0,-0.037969714285820466,-0.049903053061364055,-0.09072764882276219,2.562999999999829
-0.624643407221059,-0.5329193616630233,-0.12708993538901397,-2.654088701232864,-0.06464161284967172,2.12609281834348,0.7171739084882125,-0.1682009819575216,0.022927111882025626,0.029299551043341282,0.01752317365593275,0.01889203758465782,0.0006172166307091933,-0.09524081908387412,0.806789464993547,-0.590813634369803,0.003279560851576518,0.0,-0.590767189152245,-0.8067772983903986,-0.009233954962734813,0.0,0.008101577715358466,0.005512506771057191,-0.9999519872011959,0.0,0.2701587819015814,-0.25296579636839256,0.30504573861424605,1.0,-0.02801314285725015,-0.03681727346952879,-0.046042660795338586,2.5789999999998274
-0.6270372551734945,-0.5326623536922638,-0.1265858728164643,-2.653892194503984,-0.06430694212270509,2.1261249694127167,0.7156202161049032,-0.12448700749861596,0.01586851320199696,0.026674765768415314,0.012687843150769514,0.01809009824866444,0.005913111940401274,-0.09235036964042384,0.8064379876562546,-0.5912932743857084,0.0032836918805045833,0.0,-0.5912468063004734,-0.8064258869869818,-0.009233078465952612,0.0,0.008107667433843224,0.0055045388601625,-0.9999519817374827,0.0,0.2697321799513677,-0.2535162761255647,0.3050566078004815,1.0,-0.01989818181818532,-0.02615189610390071,-0.00994909090909266,2.5959999999998256
-0.6289153421019349,-0.53245157787998,-0.12626039718662133,-2.653714097779335,-0.0640483999733415,2.1261777201691956,0.7140776987529532,-0.10309523757222436,0.009312391411286779,0.02010397405230967,0.013917649424806302,0.010652169569998524,0.002704768753928362,-0.08748856818246362,0.806317836707268,-0.591456840077658,0.003331581346997479,0.0,-0.5914098945921614,-0.8063059920701147,-0.009259083730313322,0.0,0.008162779567100265,0.0054955399962391405,-0.9999515828628347,0.0,0.2693914330149571,-0.2539731208972757,0.3050734389817415,1.0,-0.019558181818185357,-0.025705038961043616,-0.009779090909092679,2.6129999999998237
-0.6305820589314723,-0.5322463983340328,-0.12602479547716208,-2.6535363424382377,-0.06385121568016333,2.1262067734222914,0.7126797358669289,-0.09786970621677275,0.017106494684904043,0.005616708048698042,0.005309876927081682,0.017006625071052342,0.005704107826803479,-0.08036138567477179,0.8062106788526893,-0.5916027586132561,0.0033562190452182503,0.0,-0.591555497652964,-0.8061989247177016,-0.009280834110361727,0.0,0.00819650505541547,0.0054970235756454655,-0.9999512988324408,0.0,0.2690757646811589,-0.25439538535128076,0.3050878229796625,1.0,-0.019218181818185392,-0.02525818181818652,-0.009609090909092696,2.629999999999822
-0.6320381917114208,-0.5320397829122493,-0.12586895962971212,-2.6533515532932914,-0.06369070478256779,2.1262406340974036,0.7114255115607546,-0.09083219036681164,0.014044914212534674,0.008046195052612578,0.011451367284214349,0.0028445696635860966,0.0008298960804787069,-0.08301251188711799,0.8061134685139314,-0.5917350302036117,0.0033877443200167,0.0,-0.5916873434693434,-0.8061018136645888,-0.0093113095781654,0.0,0.008240853557035799,0.005501592546102829,-0.9999509092011007,0.0,0.2687954809314328,-0.25478432214893065,0.30510335985730197,1.0,-0.01889818181818543,-0.02483761038961514,-0.009449090909092715,2.64599999999982
-0.6334674733939273,-0.5317882130850916,-0.12572594467613665,-2.6531854139641853,-0.06356744082643498,2.1262612988659275,0.7100459156406997,-0.08541862718501506,0.016119747439259483,0.006311549712588686,0.007393363529906814,0.0037794562489773783,-0.0003690530386365865,-0.07001710054493092,0.8061124024308649,-0.5917367442818126,0.003341708411635661,0.0,-0.591689246292188,-0.8061003252472306,-0.009319246734572566,0.0,0.008208450997493733,0.005535214012665601,-0.999950990168046,0.0,0.26850814216133534,-0.2551650439975173,0.30509230778192187,1.0,-0.018558181818185467,-0.024390753246758046,-0.009279090909092734,2.662999999999818
