nelsonifechukwu/NELSON_IML_WORK/CNN-GradCAM/train2dof/data_sample_2022-02-21-14-54-05/robot_state.csv
position_joint1,position_joint2,position_joint3,position_joint4,position_joint5,position_joint6,position_joint7,velocity_joint1,velocity_joint2,velocity_joint3,velocity_joint4,velocity_joint5,velocity_joint6,velocity_joint7,ee_T_00,ee_T_10,ee_T_20,ee_T_30,ee_T_01,ee_T_11,ee_T_21,ee_T_31,ee_T_02,ee_T_12,ee_T_22,ee_T_32,ee_T_03,ee_T_13,ee_T_23,ee_T_33,v_x,v_y,time
0.465090381903,0.547876475032,-0.123979598227,-1.35586934328,0.0794789722373,1.89409469619,0.159160635746,0.000901762922579,-0.000774994313842,-0.000602288971467,-0.00101822679398,-0.000111082185792,0.000144326221673,-0.00135304223994,0.573783553859,0.818993212078,0.00181625794255,0.0,0.818948415687,-0.573725637974,-0.0119637651541,0.0,-0.00875637729265,0.00835219405777,-0.999926780675,0.0,0.661659806814,0.260897282396,0.303128738063,1.0,0.0,0.0,0.0
0.465088455854,0.547873323654,-0.123978617622,-1.35586407813,0.0794757617516,1.89409867144,0.159164291736,0.001555215259,-0.00103462985052,0.000359577448249,0.000572425058917,-5.49632980325e-05,0.000301799201331,-0.00106236065061,0.573786325637,0.818991250709,0.00182501395603,0.0,0.818946604719,-0.57372840655,-0.0119549586863,0.0,-0.00874411256901,0.00835434164757,-0.999926870062,0.0,0.661662349967,0.260896994474,0.303133782983,1.0,-0.0001,-0.000131428571429,0.006
0.465080801061,0.547877548362,-0.123976436778,-1.35586714354,0.0794789736939,1.89409633601,0.159168354353,-0.00110960354482,0.00198667439595,0.000478872047282,0.00111140023127,-3.7066794602e-05,-0.000168995685093,0.000917260089448,0.573795406682,0.818984901504,0.0018191429046,0.0,0.818940132043,-0.573737466791,-0.0119635375664,0.0,-0.00875441474326,0.00835455288479,-0.999926778154,0.0,0.661662383564,0.260893131963,0.303129062299,1.0,-0.00044,-0.000578285714286,0.023
0.465079330496,0.547868114664,-0.123981105126,-1.35587478225,0.0794762492439,1.8940955747,0.15916682402,-0.000844124031409,-0.00160537450146,-0.00573341321605,0.000934943019841,9.06208576468e-05,-0.000464890065954,0.0010448895714,0.57379829264,0.818982882301,0.00181790088368,0.0,0.818938137345,-0.573740396554,-0.0119595762744,0.0,-0.00875185357471,0.00835129359878,-0.9999268278,0.0,0.661662339483,0.26088818157,0.303132193181,1.0,-0.00076,-0.000998857142857,0.039
0.465081597287,0.547817782438,-0.123979789781,-1.35592404861,0.0794748299823,1.8941059782,0.159163665672,-0.000462682546494,-0.00677331717774,2.28119988268e-05,-0.0047069500334,1.94338106437e-05,0.000362447588837,-0.00198756578909,0.573795228942,0.818985002629,0.00182964874351,0.0,0.818940379225,-0.573737252811,-0.0119568771933,0.0,-0.00874293378441,0.00835933326546,-0.999926838652,0.0,0.661653640348,0.260885735481,0.30314525867,1.0,-0.0011,-0.00144571428571,0.056
0.465080763953,0.547678624546,-0.123980032498,-1.35609881375,0.0794757557836,1.89413566404,0.159166983101,0.000125228397694,-0.0108133505904,-0.000744048749999,-0.00701766207063,0.000124137079759,0.00491016550787,0.00131154741022,0.573808542242,0.818975668095,0.0018327083666,0.0,0.818930933776,-0.573750407187,-0.0119725878154,0.0,-0.00875390947323,0.00837099590283,-0.999926645058,0.0,0.661623394097,0.260868292029,0.303163248126,1.0,-0.00146,-0.00191885714286,0.074
0.465066572919,0.547552366313,-0.123977255222,-1.35629256515,0.0794720311762,1.89418603046,0.159163448539,-0.000862314799487,-0.00802659081503,6.89990166955e-05,-0.010902313059,-0.000154590595998,-0.000827001096117,0.00203884947205,0.573825040255,0.818964128538,0.00182379972254,0.0,0.818919161142,-0.573766829837,-0.0119908045499,0.0,-0.0087737719359,0.00837432967419,-0.999926443059,0.0,0.661595620378,0.260841982846,0.303164747593,1.0,-0.00178,-0.00233942857143,0.09
0.465046077045,0.547372948809,-0.123981430995,-1.3565048544,0.079469266072,1.89432096171,0.15914915701,-0.00314214807404,-0.009240273062,-0.00023232357877,-0.0122556288263,-9.64684401086e-05,0.00612812257218,-0.000395463651217,0.573844523046,0.81895027161,0.0019138706232,0.0,0.818906486054,-0.573785933456,-0.0119422178956,0.0,-0.00868209770443,0.00842041951837,-0.999926856182,0.0,0.661585066675,0.260811900283,0.303202648092,1.0,-0.00212,-0.00278628571429,0.107
0.465019808004,0.547166769593,-0.123976367015,-1.35674765242,0.0794662920545,1.89444256873,0.159136495592,-0.000802146162295,-0.0172086606986,-0.000114352681196,-0.0159612993068,-0.00110587644692,0.0133513434337,0.000408048529895,0.573865069561,0.818935683601,0.00199373112607,0.0,0.818892852286,-0.573806060327,-0.0119100171334,0.0,-0.00860968878323,0.00846755800599,-0.999927084202,0.0,0.661564948374,0.260779132737,0.30324351371,1.0,-0.00246,-0.00323314285714,0.124
0.464996753567,0.546988487919,-0.123974312147,-1.35700055315,0.0794595854478,1.89454789882,0.159118148788,0.000324268780423,-0.0134205478939,0.000624371934596,-0.0206515567757,0.000163462243454,0.00916561640706,-0.00124499804608,0.573879921194,0.818925199972,0.00202479706148,0.0,0.818882701741,-0.573820711773,-0.0119020347308,0.0,-0.00858517097213,0.00848857347289,-0.999927116824,0.0,0.661538570961,0.260743462939,0.303258483462,1.0,-0.00274,-0.00360114285714,0.138
0.464951915884,0.546688194178,-0.123978714497,-1.35745877924,0.0794477539383,1.89471570139,0.159063304001,-0.00181476094775,-0.0156686084644,-0.000516091853256,-0.0209087738877,-0.00452627980996,0.00380778411293,-0.00481101462253,0.573897287183,0.818912990276,0.00204083854041,0.0,0.818870575388,-0.573837885498,-0.0119083513702,0.0,-0.00858095836722,0.00850551693361,-0.999927009004,0.0,0.661488193481,0.2606702825,0.303267759084,1.0,-0.00314,-0.00412685714286,0.158
0.464905750178,0.546402070345,-0.123982167676,-1.35790150066,0.0794349577867,1.89487877036,0.158942342058,-0.0022648829113,-0.0181898660913,-0.000631867985621,-0.0265628374565,-0.000144330995723,0.0138286580632,-0.000406959305583,0.573859816215,0.818939216312,0.00205383067972,0.0,0.818896852367,-0.57380024851,-0.0119149861497,0.0,-0.00857932604398,0.00851957126913,-0.999926903363,0.0,0.661440201146,0.260597950556,0.303273915963,1.0,-0.00348,-0.00457371428571,0.175
0.464869617682,0.546135444119,-0.123977401865,-1.35834435173,0.0794117096148,1.89503318419,0.158928679487,-0.00514155297747,-0.0243512361997,-0.000735610764632,-0.0299034987965,-0.0020253673374,0.00992402854426,0.000215839996793,0.573897697244,0.818912712992,0.00203678638188,0.0,0.818870046431,-0.573838115198,-0.0119336292048,0.0,-0.00860398066277,0.00851670965252,-0.999926715901,0.0,0.66138153868,0.26052814134,0.303265706974,1.0,-0.0038,-0.00499428571429,0.191
0.464814568889,0.545778250684,-0.123980697812,-1.35895531841,0.0793327080972,1.89523840318,0.158841124877,-0.00585189708627,-0.0150302901471,-0.00128168847561,-0.0343683285422,-0.00904207123433,0.0132708224725,-0.00524054311239,0.573882200604,0.818923731883,0.00197182418545,0.0,0.818880592849,-0.57382325807,-0.0119243471562,0.0,-0.00863381852273,0.00845802198786,-0.999926956853,0.0,0.661315532046,0.260429437087,0.303245042173,1.0,-0.00414,-0.00544114285714,0.208
0.464750829073,0.545405988705,-0.123980727058,-1.35961713476,0.0792780566128,1.89545753307,0.158756397494,-0.00473817304542,-0.0195103835269,0.00573821394146,-0.0407000941791,-0.000606962498126,0.0121652648292,-0.00770003609964,0.573887374375,0.818920269,0.00190301196179,0.0,0.818876324602,-0.573828808529,-0.0119503309024,0.0,-0.0086945325073,0.0084166375118,-0.999926779978,0.0,0.661236642362,0.260319612026,0.303212524581,1.0,-0.00448,-0.005888,0.225
0.464686109084,0.54500087207,-0.12398285861,-1.36028809477,0.0792652478916,1.89567366603,0.158699164978,-0.00551531348733,-0.0275660992306,-0.000941537102597,-0.0413580916053,-0.000795288099032,0.0175779628932,-0.00673851150189,0.573928855529,0.81889126171,0.00187541672471,0.0,0.818846664408,-0.573870119293,-0.0119988862328,0.0,-0.00874970592572,0.00842234792892,-0.999926250631,0.0,0.66115424035,0.260213849715,0.303198764568,1.0,-0.0048,-0.00630857142857,0.241
0.464624325872,0.544556841616,-0.123986413874,-1.36100643385,0.079241524239,1.89593670816,0.158568540819,-0.00267277804148,-0.0270260490025,-0.00055063998435,-0.0436285786087,-0.00139008453445,0.0188768568962,-0.00526408334968,0.573908737312,0.818905361045,0.00187557726588,0.0,0.818860587213,-0.573849830976,-0.0120190306567,0.0,-0.00876631772113,0.00843382538648,-0.999926008394,0.0,0.661071422567,0.260105517948,0.303194057744,1.0,-0.00514,-0.00675542857143,0.258
0.464550502416,0.54407479826,-0.123986708064,-1.36180721494,0.0792063443645,1.89622456819,0.158491875387,-0.00573276658771,-0.0272150636339,0.000534078113558,-0.0536340178196,-0.00102272355185,0.0186189333146,-0.00312404052014,0.573941875771,0.818882182055,0.00185527624338,0.0,0.818837003416,-0.573882919329,-0.0120458972588,0.0,-0.00879962870548,0.00843297606861,-0.999925722966,0.0,0.660978509941,0.259981659684,0.303178997037,1.0,-0.00548,-0.00720228571429,0.275
0.464479189108,0.543583997689,-0.123994916006,-1.36259478296,0.0791632560329,1.89649354989,0.158376607099,-0.00608487259488,-0.033322973124,-0.000862964338551,-0.0471355622047,-0.00217965509075,0.0201643339511,-0.00748809836701,0.573943876332,0.818880831324,0.00183243368219,0.0,0.818835314016,-0.57388498119,-0.0120624950253,0.0,-0.00882630971876,0.00842381874726,-0.999925564997,0.0,0.660886598694,0.25985400688,0.303174973708,1.0,-0.0058,-0.00762285714286,0.291
0.464406737123,0.543028454918,-0.12399519417,-1.36346003306,0.0791051400575,1.8968057727,0.158295447762,-0.00186623976172,-0.0350877227711,-0.000710328503079,-0.0514426458099,-0.000449131404011,0.0194317281923,0.00166355792892,0.573969530391,0.818862853526,0.00183090098626,0.0,0.818817356161,-0.573910676942,-0.0120589818074,0.0,-0.00882404851924,0.00842082375688,-0.999925610181,0.0,0.660786332685,0.259722339261,0.303183183715,1.0,-0.00614,-0.00806971428571,0.308
0.464321916179,0.542397330516,-0.123996586267,-1.36444745826,0.0790523912381,1.89715730903,0.158146330096,-0.00905880670783,-0.0348581360413,-0.000705836093266,-0.0574582432558,-0.0080116174708,0.0197330422717,-0.00890344952984,0.573958580189,0.818870529267,0.00183069046094,0.0,0.818824941003,-0.57389964492,-0.0120689872491,0.0,-0.00883247542343,0.00842627602642,-0.999925489849,0.0,0.66067076283,0.259571885917,0.30319009171,1.0,-0.0065,-0.00854285714286,0.326
0.464249657988,0.541814015063,-0.123999208625,-1.3653441093,0.0790001948784,1.89749638242,0.158024472273,-0.00447530246598,-0.0445416090778,-0.00175722291183,-0.0600637211309,-0.00215414855175,0.0241299768351,-0.0140290932562,0.573955701147,0.818872497726,0.00185269813325,0.0,0.818827194368,-0.573896667041,-0.0120577038817,0.0,-0.00881063444275,0.00843778995371,-0.999925585442,0.0,0.660569219847,0.259438420724,0.303205265043,1.0,-0.00682,-0.00896342857143,0.342
0.464166385113,0.541168016691,-0.123996708408,-1.36635100451,0.0789438170405,1.89787322195,0.15788647271,-0.00213817705285,-0.0347856438844,0.00123976951523,-0.0635896570581,5.95242658181e-05,0.0195623486326,-0.019552323205,0.573949963717,0.818876482353,0.00186887676595,0.0,0.818831331632,-0.573890803234,-0.0120558368553,0.0,-0.00879987951249,0.00844990466345,-0.999925577847,0.0,0.660453181173,0.259290277186,0.303215312124,1.0,-0.00716,-0.00941028571429,0.359
0.46408132675,0.540465358625,-0.124003825202,-1.36742112091,0.0788827443342,1.89826109434,0.157761498585,-0.00636215402498,-0.0448517872626,-0.00154625806541,-0.062879511184,-0.00591398705717,0.026531554784,-0.00519877739732,0.573965160001,0.818865790127,0.00188673388769,0.0,0.818820857135,-0.57390590482,-0.012048370638,0.0,-0.00878335993013,0.00846040492909,-0.999925634303,0.0,0.660328980765,0.259128618834,0.303236483915,1.0,-0.0075,-0.00985714285714,0.376
0.463984204353,0.539777161928,-0.12400495751,-1.36849085818,0.0788164412472,1.89867233667,0.157624866134,-0.00466852428252,-0.0372120841699,-0.00107925574462,-0.0651100834816,-0.00526543242283,0.023441204399,-0.0060460137694,0.573975176519,0.818858715661,0.00190982372448,0.0,0.818814117616,-0.573915852218,-0.0120325502932,0.0,-0.00875704916913,0.00847033888655,-0.99992578097,0.0,0.660210995013,0.258963065926,0.303249333849,1.0,-0.00782,-0.0102777142857,0.392
0.463880805389,0.538974687099,-0.12400986336,-1.36973101474,0.0787439940326,1.89913622448,0.157473267124,-0.00598086252099,-0.0483923072599,-0.00740254975393,-0.0691526961772,-0.00595174273464,0.0252122329671,-0.00820663934889,0.573988334974,0.818849440701,0.00193175521657,0.0,0.81880512724,-0.573928912858,-0.0120213765059,0.0,-0.00873517543619,0.0084820242659,-0.99992587324,0.0,0.660069709839,0.258775042095,0.303266384688,1.0,-0.00818,-0.0107508571429,0.41
0.463763302381,0.538146440793,-0.124010918112,-1.37101395669,0.0786782103047,1.89964246346,0.157319669562,-0.0129297776335,-0.0404919736535,0.000186527633546,-0.0754321064544,-0.00207859729679,0.029408934033,-0.00294556237332,0.574012940453,0.818832076993,0.00198009621591,0.0,0.818788326329,-0.573953242266,-0.0120041352096,0.0,-0.00869305569129,0.00851197249766,-0.999925985814,0.0,0.65992977377,0.258579161095,0.303284694168,1.0,-0.00854,-0.011224,0.428
0.463672816814,0.537486096748,-0.12401374828,-1.37206029177,0.078620076956,1.90002896897,0.157180678038,-0.012060145497,-0.0471796350862,-0.00247055953337,-0.0753261816052,-0.00525450603603,0.0295431861143,-0.00966081156309,0.574017331084,0.818828994285,0.00198207857429,0.0,0.818785223277,-0.573957578664,-0.0120084528167,0.0,-0.0086954077371,0.00851612064598,-0.999925930044,0.0,0.659809078777,0.258419091877,0.303286585812,1.0,-0.00882,-0.011592,0.442
0.463551763114,0.536591031593,-0.124015522457,-1.37344832847,0.0785296069175,1.90054970322,0.157026593749,-0.00493373749893,-0.0525597751091,0.000730565791201,-0.0772261950377,3.45387897581e-05,0.0320121750731,-0.00229808719936,0.574043706777,0.818810458348,0.00200072763291,0.0,0.818766998179,-0.573983938234,-0.0119911735645,0.0,-0.00867027972615,0.00852175154986,-0.999926100269,0.0,0.659651328183,0.258205883722,0.303303006779,1.0,-0.00918,-0.0120651428571,0.46
0.463434154174,0.535738555002,-0.124015093256,-1.37481280517,0.0784584113534,1.90104346775,0.156857217156,-0.0024588185323,-0.0540025780162,0.00255035759064,-0.0869485045272,-0.00135421242313,0.0216605169737,-0.011239944479,0.574056882614,0.818801245059,0.00199085776991,0.0,0.818757516911,-0.573997017606,-0.012012459467,0.0,-0.00869323771717,0.00852602895084,-0.999925864476,0.0,0.659489737171,0.257999763657,0.303298039834,1.0,-0.00952,-0.012512,0.477
0.463323820031,0.534878015637,-0.124024402235,-1.37617766912,0.078380398958,1.90153742346,0.156688401873,-0.00471257777634,-0.0540849493465,0.000243574562377,-0.0831034643393,-0.0112627797098,0.0294600909173,-0.0124357849842,0.574069453069,0.8187924538,0.00198180578907,0.0,0.818748579594,-0.574009597721,-0.0120204841037,0.0,-0.00870487372716,0.00852335751088,-0.999925786021,0.0,0.659328710369,0.257791778663,0.30329873413,1.0,-0.00984,-0.0129325714286,0.493
0.463192491915,0.533987333194,-0.124022923042,-1.37765585671,0.0782909199168,1.90207250494,0.15649916786,-0.00580363468815,-0.0533941479169,0.000556105562832,-0.0875035321227,-0.00578712636637,0.0266443163334,-0.0187226030699,0.574077950855,0.818786605562,0.00193592246542,0.0,0.818742082019,-0.574018242728,-0.0120501886746,0.0,-0.00875544683903,0.00850293251948,-0.999925518371,0.0,0.659153553983,0.25756411375,0.303269810727,1.0,-0.01018,-0.0133794285714,0.51
0.4630465227,0.532953522433,-0.1240332089,-1.37933152003,0.0782084103414,1.90272350695,0.156287030608,-0.00428924490616,-0.0558494885031,-0.00044570883325,-0.0906833305354,-0.000663921758047,0.0347275205453,-0.0109825545132,0.57410080394,0.818770551898,0.0019486307535,0.0,0.81872609214,-0.574040938577,-0.0120554464041,0.0,-0.00875221918636,0.00851660028526,-0.999925430309,0.0,0.658964993038,0.257307394226,0.303258103822,1.0,-0.01056,-0.0138788571429,0.529
0.462937138808,0.532160248919,-0.12403078654,-1.38060801416,0.0781359204134,1.90318350253,0.156128750421,-0.00463197576287,-0.0550433223004,-0.000409911169599,-0.0905719666244,-0.00740532437979,0.0355648495443,-0.0128333871342,0.574109212473,0.818764696697,0.00193144957119,0.0,0.818719918679,-0.574049329598,-0.012075133459,0.0,-0.00877811465853,0.00851392551596,-0.999925226092,0.0,0.658811717622,0.257115103063,0.303249592767,1.0,-0.01084,-0.0142468571429,0.543
0.462797851311,0.531091332431,-0.124028525882,-1.3823196953,0.0780260264037,1.90379993214,0.15591522211,-0.00342688809909,-0.0584128241608,0.000283811315832,-0.0959721400403,-0.000911194096063,0.0366393229196,-0.0176721282243,0.574110429384,0.818763904292,0.00190546608518,0.0,0.818718781509,-0.574050655072,-0.0120892148822,0.0,-0.00880454823724,0.00850074888419,-0.999925105795,0.0,0.658604827577,0.256859577148,0.303241595268,1.0,-0.0112,-0.01472,0.561
0.462655479583,0.530038903538,-0.124033743692,-1.38396468777,0.0779348839386,1.9043841469,0.155700174581,-0.0070032666789,-0.0629280890936,-0.00027651695296,-0.094228963553,-0.000537733061448,0.0364524004234,-0.00669020503012,0.574119371252,0.818757641488,0.00190235620215,0.0,0.818712367653,-0.574059502961,-0.0121034298615,0.0,-0.00881787980296,0.00850645986816,-0.999924939751,0.0,0.658407623629,0.256606245304,0.303250929987,1.0,-0.01154,-0.0151668571429,0.578
0.462526905321,0.529043852356,-0.124036825324,-1.38552409723,0.0778226240117,1.90496924662,0.155489646043,-0.00687243028335,-0.063735081679,-0.000360725991736,-0.0991878813923,-0.00576992723798,0.0360189293036,-0.012995317866,0.574108825765,0.818765021306,0.00190865556646,0.0,0.818719998958,-0.574049094406,-0.0120808699673,0.0,-0.00879590110507,0.00849855217799,-0.99992520057,0.0,0.658225780734,0.256369325564,0.303260310854,1.0,-0.01186,-0.0155874285714,0.594
0.462376862176,0.527873860431,-0.12404213592,-1.38734108554,0.0777167809485,1.90567552601,0.155223078695,-0.00934990806952,-0.0609908396602,-0.00214135268367,-0.0997020489938,-0.00492369066654,0.0286085763648,-0.0181264588987,0.574087287699,0.818780004746,0.00195878331591,0.0,0.818735648067,-0.574027351356,-0.0120534385693,0.0,-0.00874488765645,0.00852361568929,-0.999925434678,0.0,0.658017632535,0.256097953691,0.303280633173,1.0,-0.01222,-0.0160605714286,0.612
0.462229777592,0.526696450991,-0.124038131851,-1.38912536103,0.0775991524063,1.90635362676,0.154991066214,-0.00573190754936,-0.0711621806763,-0.000741634027673,-0.103829131821,-0.00953627049555,0.0379955729048,-0.00975947931276,0.574079624478,0.818785241665,0.00201486781982,0.0,0.818741691197,-0.574019521209,-0.0120157924159,0.0,-0.00868194719016,0.0085478424567,-0.999925776337,0.0,0.657808924653,0.255834170242,0.303318642281,1.0,-0.01256,-0.0165074285714,0.629
0.462101864581,0.525671017391,-0.12404140274,-1.39074951269,0.0774996251597,1.90693584996,0.154765971839,-0.0108800743065,-0.0667876592976,-0.000166328543789,-0.112652997957,-0.00474610534089,0.0410399869654,-0.0125256030291,0.574062969301,0.81879695631,0.00199962891265,0.0,0.818753176969,-0.574002903565,-0.0120270030992,0.0,-0.00870004823215,0.00854162408866,-0.999925672147,0.0,0.657609869774,0.255592236481,0.303317623944,1.0,-0.01286,-0.0169017142857,0.644
0.461943339373,0.524484885644,-0.124046760109,-1.39261241374,0.0773843575372,1.90759885504,0.154514033207,-0.00942352182936,-0.0727588353709,0.000125393622062,-0.105971972582,-0.00669918526357,0.0377915126812,-0.01648357413,0.574062936253,0.818797008824,0.00198757721611,0.0,0.818753113413,-0.574002962493,-0.0120285172223,0.0,-0.00870820637192,0.00853262522871,-0.999925677962,0.0,0.657373859072,0.255283727757,0.303326943667,1.0,-0.01322,-0.0173748571429,0.662
0.461777113372,0.523215954985,-0.124053423613,-1.39464037825,0.0772561503383,1.90835894229,0.154237978923,-0.0130217670641,-0.0678194586066,-0.000832920433136,-0.115177644012,-0.00928074140173,0.0432079729239,-0.0185875939417,0.574048285311,0.818807296696,0.00198088605233,0.0,0.818763307831,-0.573988336065,-0.0120325687919,0.0,-0.00871551743645,0.00852931651532,-0.999925642493,0.0,0.657142672558,0.254999359592,0.303315758365,1.0,-0.01356,-0.0178217142857,0.679
0.461623733118,0.52204796775,-0.124047869328,-1.39648026372,0.0771493120877,1.90908328402,0.153993982078,-0.005519708627,-0.0710947937877,0.00155941081261,-0.119378208025,-0.00212498248797,0.047156623533,-0.0167083396201,0.574040128541,0.818812902384,0.00202697207532,0.0,0.818769477414,-0.573979946858,-0.012012924771,0.0,-0.00867306345713,0.00855568847006,-0.999925786329,0.0,0.656928239415,0.254730602507,0.303323471652,1.0,-0.01388,-0.0182422857143,0.695
0.46144777018,0.520803071913,-0.124056318839,-1.39848284735,0.0770255480297,1.90983830768,0.153718312169,-0.0130034782269,-0.0740545795335,0.000367384971078,-0.115834245163,-0.00795749328675,0.0493585746278,-0.0136833861371,0.574038119154,0.818814329306,0.00201959967242,0.0,0.818770850358,-0.573978010624,-0.012011861896,0.0,-0.00867644588836,0.00854902054665,-0.999925814015,0.0,0.656692803516,0.254419968834,0.303310576806,1.0,-0.01422,-0.0186891428571,0.712
0.461282927742,0.519477997013,-0.124062059849,-1.40055394859,0.0768943843979,1.91057165755,0.153450330352,-0.00968364092046,-0.0792177710404,0.000321822580207,-0.123393798381,-0.00454331980406,0.0403466386667,-0.0115902649517,0.574032314632,0.818818433309,0.00200547584351,0.0,0.818774763102,-0.573972260043,-0.0120199380098,0.0,-0.00869122664037,0.00854203030675,-0.999925745392,0.0,0.656435207869,0.254108568731,0.303318993505,1.0,-0.01456,-0.019136,0.729
0.461122141831,0.518214966101,-0.124070997024,-1.40252351687,0.0767645586472,1.91128031734,0.153176916079,-0.0109482506221,-0.0795156712068,-0.000820324863426,-0.125996516096,-0.0109087972056,0.0444178280741,-0.015242771005,0.574015725407,0.818830075508,0.00200033253029,0.0,0.818786409344,-0.573955764712,-0.0120142802029,0.0,-0.00868971888265,0.00853439516945,-0.999925823691,0.0,0.656193970107,0.253807789307,0.303329752109,1.0,-0.01488,-0.0195565714286,0.745
0.460937756445,0.516848163651,-0.124074491461,-1.40466371324,0.0766248690181,1.91205674627,0.152886654153,-0.0104422231098,-0.0796914012039,-0.000373667985061,-0.126989158557,-0.00624281238081,0.0506346968123,-0.0207730604796,0.574006912605,0.818836261174,0.00199714014812,0.0,0.818792595793,-0.573947008267,-0.012010981527,0.0,-0.00868894188252,0.00852979421467,-0.999925869702,0.0,0.655933160868,0.253478862413,0.303337435418,1.0,-0.01522,-0.0200034285714,0.762
0.460755238874,0.515480789849,-0.124078003569,-1.40684590266,0.0764897542504,1.91289603859,0.152580922861,-0.00911054849106,-0.0826820490766,5.06777116123e-05,-0.135198572506,-0.0111301790006,0.0458208376826,-0.00790075413287,0.573987470261,0.818849849976,0.00201347414941,0.0,0.818806437664,-0.573927538371,-0.0119977181399,0.0,-0.00866890834008,0.00853534981154,-0.999925996178,0.0,0.655673445785,0.253151174992,0.303330613227,1.0,-0.01556,-0.0204502857143,0.779
0.460576104036,0.514174802598,-0.124081945207,-1.40895606893,0.076367248688,1.91363695395,0.152299045338,-0.0114978874203,-0.0812352171177,-0.00246830560031,-0.134155317407,-0.00580449151091,0.0459032190636,-0.0163880023007,0.573983978345,0.818852421963,0.00196228209936,0.0,0.81880819982,-0.573924126487,-0.0120405915237,0.0,-0.00873343463696,0.00851800329569,-0.999925582601,0.0,0.65540729915,0.252828679613,0.303306140376,1.0,-0.01588,-0.0208708571429,0.795
0.460387039096,0.512751460099,-0.124081512774,-1.41123140208,0.0762211163142,1.91442802047,0.151979468445,-0.0106987389217,-0.0854094920715,-0.000318253427239,-0.130798766491,-0.00843423593576,0.0446780579327,-0.0173582079531,0.573956343871,0.818871921044,0.00190765743304,0.0,0.8188269244,-0.573896673434,-0.0120757194597,0.0,-0.00879383864569,0.00849314057866,-0.99992526469,0.0,0.655116951829,0.252483861877,0.303289049196,1.0,-0.01622,-0.0213177142857,0.812
0.460184769138,0.511316973379,-0.124084434417,-1.41352748523,0.076084917929,1.91530183355,0.151651957392,-0.00774187648331,-0.0849759818103,-0.000476898743851,-0.140130041477,-0.0111773485355,0.0541798710005,-0.0248688248556,0.573939460096,0.818883732116,0.00191737380763,0.0,0.818838826574,-0.573879714621,-0.0120746073314,0.0,-0.00878752676894,0.00850027738808,-0.999925259536,0.0,0.654841161397,0.252133298446,0.303276742768,1.0,-0.01656,-0.0217645714286,0.829
0.459978716035,0.509843010982,-0.124087248366,-1.41586573322,0.0759392715985,1.91618031049,0.151321155963,-0.0146427219012,-0.0881335101636,0.000837377601114,-0.14039272259,-0.0161742696912,0.0541757678669,-0.0160993681659,0.573921988589,0.818895957381,0.00192585087841,0.0,0.81885117294,-0.57386221831,-0.0120688803445,0.0,-0.00877815327369,0.00850374478151,-0.999925312386,0.0,0.654557791273,0.251774729459,0.303271899262,1.0,-0.0169,-0.0222114285714,0.846
0.459776249417,0.508350932909,-0.124088313365,-1.41823970232,0.0757891769236,1.91702306972,0.150994938376,-0.00823047126313,-0.0801325537555,0.00105945364702,-0.140253689416,-0.00598402626458,0.0482647353925,-0.0214458713312,0.573903968109,0.818908669875,0.00189015679704,0.0,0.81886336374,-0.573844303231,-0.0120935551134,0.0,-0.00881903121543,0.00848848285053,-0.999925082367,0.0,0.654257188662,0.251412538347,0.303259080962,1.0,-0.01724,-0.0226582857143,0.863
0.459561951585,0.506812057664,-0.124094614277,-1.42064230563,0.0756370593083,1.91790422357,0.150654119916,-0.0129823905466,-0.0869845677136,0.0010409353259,-0.140072104147,-0.011418059565,0.0541188380341,-0.0191045846022,0.573888088736,0.818919773251,0.00190091724585,0.0,0.818874625958,-0.57382839603,-0.0120857673801,0.0,-0.00880664314346,0.00849265435124,-0.999925156129,0.0,0.653961932778,0.251039092268,0.303268298469,1.0,-0.01758,-0.0231051428571,0.88
0.459349319822,0.505297534408,-0.124106270444,-1.4229670959,0.0754895007271,1.91879267977,0.15033381076,-0.0109308395829,-0.0947776212882,-0.00114500116363,-0.145853508168,-0.0125578515741,0.0509180928544,-0.0145249587049,0.573888483497,0.818919354921,0.001961006342,0.0,0.818875100043,-0.573828633424,-0.0120422959959,0.0,-0.00873655588518,0.0085169182285,-0.999925564577,0.0,0.653685731461,0.250673780949,0.303297755894,1.0,-0.0179,-0.0235257142857,0.896
0.459126163312,0.503628971847,-0.124106417357,-1.42544567555,0.075334485589,1.91973766361,0.149999790147,-0.0118421647286,-0.0989370832091,-0.00229158709691,-0.147599660658,-0.00839496758052,0.062469476168,-0.0153569204219,0.573883434922,0.818922612977,0.00207460308442,0.0,0.818879881463,-0.573823143889,-0.0119785714613,0.0,-0.00861923372353,0.00857331952647,-0.999926100771,0.0,0.653387418912,0.250294815512,0.303365519636,1.0,-0.01824,-0.0239725714286,0.913
0.458892146644,0.501934772577,-0.124112920248,-1.42795145761,0.0751674891268,1.92065824757,0.149640750338,-0.015576993239,-0.10360213169,-0.00214530221226,-0.144269176002,-0.00909992681239,0.0505936563951,-0.0240905428214,0.573868630666,0.818932763769,0.00216103288733,0.0,0.81889126818,-0.573808095226,-0.0119208914021,0.0,-0.00852255446331,0.00861084237234,-0.999926607036,0.0,0.653082056983,0.249898734221,0.30343563267,1.0,-0.01858,-0.0244194285714,0.93
0.458667033254,0.500309419766,-0.12411467189,-1.43040353851,0.0750127087321,1.92152514922,0.149298404566,-0.0166806080236,-0.097024958353,0.00095140014145,-0.151995591213,-0.0100678461042,0.057994162302,-0.0207453224807,0.573856859467,0.81894092051,0.00219555416071,0.0,0.818899823816,-0.573796134421,-0.0119088865197,0.0,-0.00849303751566,0.00863210132803,-0.999926674882,0.0,0.652772039696,0.249515181179,0.303477879294,1.0,-0.0189,-0.02484,0.946
0.458424905645,0.498636371388,-0.124117072032,-1.4330263944,0.0748511527376,1.92249198132,0.148931169122,-0.0147288318949,-0.0940294771387,0.000176715859967,-0.152685557519,-0.00652736656483,0.0551907977617,-0.0207020889149,0.573842604019,0.818950879314,0.0022068042316,0.0,0.81890993403,-0.57378184049,-0.0119023683244,0.0,-0.0084813941047,0.0086374262382,-0.999926727727,0.0,0.65242819455,0.249081803685,0.303479150515,1.0,-0.01926,-0.0253131428571,0.964
0.458149903103,0.496862748015,-0.124117099026,-1.43584537376,0.0746832946113,1.92350817478,0.148517558956,-0.0142467906711,-0.0964125856339,0.00704916237332,-0.157792840305,-0.00963010213591,0.0600825743066,-0.0255275471481,0.573829966156,0.818959785884,0.00218768085876,0.0,0.818918388612,-0.573769075334,-0.0119359911487,0.0,-0.0085200371691,0.00864092784517,-0.999926368956,0.0,0.652091161383,0.248657810683,0.303463099173,1.0,-0.0196,-0.02576,0.981
0.457900894479,0.495286996392,-0.124116698293,-1.43840900837,0.0745213115548,1.9243857783,0.148141553191,-0.0130295304994,-0.0951286371192,0.00107184343247,-0.160264564663,-0.0127240792161,0.0576422063175,-0.0243703132944,0.573810920314,0.818973377409,0.00209325670935,0.0,0.818930604764,-0.573750277075,-0.0120012932411,0.0,-0.00862789915577,0.00860087069597,-0.999925789436,0.0,0.651757349144,0.248246053552,0.303416915521,1.0,-0.01992,-0.0261805714286,0.997
0.457621583022,0.493535494924,-0.124140565863,-1.44123029156,0.0743415505443,1.92540051773,0.14774545536,-0.0152712815568,-0.109014775434,0.00184195645991,-0.175052266741,-0.0125086738564,0.0619248492072,-0.0172298271102,0.573825598173,0.818963233945,0.00203745641729,0.0,0.818919780234,-0.573765235533,-0.0120247635104,0.0,-0.00867898464809,0.0085687954516,-0.999925622719,0.0,0.651405757004,0.247778595266,0.303382510634,1.0,-0.0229514285714,-0.0301647346939,1.014
0.457329064184,0.491452613011,-0.124182411794,-1.44451606063,0.0741471357134,1.92662954398,0.1472790117,-0.0195763180664,-0.126519813219,-0.00148050277541,-0.207643340143,-0.0147256584934,0.0747081581238,-0.0253411088826,0.57382565918,0.818963151275,0.00205344149181,0.0,0.818919970245,-0.573765292125,-0.012009112657,0.0,-0.00865699396217,0.00857290628697,-0.999925778112,0.0,0.650999364354,0.247253497845,0.303375949122,1.0,-0.0268371428571,-0.0352716734694,1.031
0.456981119791,0.48922411162,-0.12419168999,-1.44812286577,0.0739412915422,1.92789727614,0.146761923485,-0.023359601069,-0.15187713056,-0.000945899560064,-0.226394051752,-0.0116478356495,0.0803572459151,-0.0317193983874,0.573817994863,0.818968731903,0.00196769884651,0.0,0.818924114962,-0.573757686501,-0.0120895829688,0.0,-0.00877217698687,0.00854878088479,-0.999924980814,0.0,0.650531271749,0.246676427062,0.303319316824,1.0,-0.0304942857143,-0.0400782040816,1.047
0.456513870209,0.486297034877,-0.12422492232,-1.45266788957,0.0736665564726,1.9296446086,0.146094389946,-0.0236456556696,-0.169619481333,-0.00126004840944,-0.260045257026,-0.0112498260845,0.0999155475165,-0.0395544321616,0.573829509527,0.81896040867,0.00207121423946,0.0,0.818917246869,-0.573768855893,-0.0120245452262,0.0,-0.0086593949682,0.00859635745859,-0.999925555988,0.0,0.649984077598,0.245927208844,0.303342242663,1.0,-0.0346085714286,-0.0454855510204,1.065
0.456017680174,0.483198122835,-0.124267188673,-1.45744213296,0.0733628643784,1.93135118275,0.145351146401,-0.0283365689621,-0.19345572837,-0.00509320699781,-0.29684143074,-0.0203012768623,0.10693111101,-0.0419985452917,0.573809983169,0.818974046039,0.00208854767895,0.0,0.818931177259,-0.573749325264,-0.0120077297448,0.0,-0.0086358824588,0.00860069760234,-0.999925722009,0.0,0.649383899116,0.245122350234,0.303369923557,1.0,-0.0384942857143,-0.0505924897959,1.082
0.455498454079,0.479964319242,-0.124320651652,-1.46249737315,0.073060685441,1.93311620869,0.144600931543,-0.0337543168779,-0.208486901849,-0.00455940220985,-0.325733309377,-0.021091558585,0.116805549961,-0.0440460818502,0.573824462518,0.818964022215,0.00204044950278,0.0,0.818920374801,-0.573763857447,-0.0120500010478,0.0,-0.00869794861061,0.00858571634781,-0.999925312793,0.0,0.648733712504,0.244269248975,0.303360667552,1.0,-0.0421514285714,-0.0553990204082,1.098
0.454846240338,0.475959211273,-0.124374409079,-1.46858588549,0.0726876905054,1.93535436475,0.143731860586,-0.0381840339101,-0.228809353658,-0.0019864449557,-0.345413623441,-0.0198976871647,0.131031387553,-0.050455878942,0.57387999455,0.818924785363,0.00216671976045,0.0,0.8188828408,-0.573818906066,-0.0119792732067,0.0,-0.00856698391787,0.00864912139759,-0.999925896997,0.0,0.647974723049,0.243238713591,0.303431717949,1.0,-0.0462657142857,-0.0608063673469,1.116
0.454162031477,0.47189832604,-0.124402500722,-1.47485790019,0.0723152685066,1.93758584103,0.142803773459,-0.0413131936016,-0.250367375551,-0.000320095558717,-0.373201818203,-0.0190858196808,0.129271007137,-0.0594595774274,0.573900980822,0.818910005263,0.0021941724863,0.0,0.818868095595,-0.573839449051,-0.0120031508439,0.0,-0.00857056259999,0.00868552511082,-0.999925550784,0.0,0.647165685405,0.242182304344,0.303449059009,1.0,-0.0501514285714,-0.0659133061224,1.133
0.453516132572,0.468020390025,-0.124421743261,-1.48069087581,0.071950123057,1.93977990003,0.141869593689,-0.0425734374064,-0.26971361443,0.000456137918517,-0.39929737388,-0.0332232246308,0.154441260732,-0.0690641497743,0.573857598678,0.818939841097,0.00239583067567,0.0,0.818900609128,-0.573795309531,-0.0118946219678,0.0,-0.00836642449972,0.00878793559431,-0.999926384855,0.0,0.646435287077,0.241204659962,0.303541376914,1.0,-0.05358,-0.0704194285714,1.148
0.452675436451,0.463056970664,-0.124434775281,-1.4882800944,0.071454438239,1.94244495141,0.140684745085,-0.0477889406096,-0.287231695027,0.00207979637102,-0.43416426787,-0.0301483242963,0.146493616875,-0.063709856838,0.573806633787,0.818975462166,0.00242616862728,0.0,0.818936466838,-0.573744065586,-0.0118977892252,0.0,-0.00835215838241,0.00881407804674,-0.999926274022,0.0,0.64543416183,0.239924360484,0.303583010698,1.0,-0.0576942857143,-0.0758267755102,1.166
0.451818460337,0.458076576939,-0.124455629958,-1.49595446105,0.0709332608478,1.94508824782,0.13955003633,-0.0482729158695,-0.293020957872,-0.00200695265857,-0.455825606769,-0.0317344988584,0.16611557815,-0.0727713304103,0.573807558243,0.818974981348,0.00236916238709,0.0,0.818935171958,-0.573745139979,-0.0119350484462,0.0,-0.00841537269522,0.00878878062458,-0.999925966678,0.0,0.644404340476,0.238615525423,0.303588426968,1.0,-0.06158,-0.0809337142857,1.183
0.450889194023,0.45286510995,-0.124483498191,-1.50398886496,0.070382169268,1.94796751993,0.138249121171,-0.0613703220872,-0.313363105389,-0.00147947240123,-0.478530324595,-0.0237588547379,0.173789933094,-0.0784826075401,0.573740999372,0.81902153704,0.00239466173431,0.0,0.818982212473,-0.573678648481,-0.0119033957849,0.0,-0.0083755324594,0.00879082080938,-0.999926283246,0.0,0.643346629418,0.237229276432,0.30359596227,1.0,-0.0654657142857,-0.0860406530612,1.2
0.449958045299,0.447583711137,-0.124522404853,-1.51182314549,0.0698530403635,1.95092157969,0.137062202023,-0.0604455047582,-0.335920588291,-0.00198130223805,-0.503057170431,-0.0331346419935,0.177762607332,-0.0715632871353,0.573770363188,0.818999974611,0.00271271362663,0.0,0.818965215458,-0.57370729021,-0.011690505971,0.0,-0.00801837488812,0.00892945587621,-0.999927982648,0.0,0.64234694587,0.23586965782,0.303746229595,1.0,-0.0691228571429,-0.0908471836735,1.216
0.448908386644,0.441819035545,-0.12455902293,-1.52081851897,0.0692494592648,1.95392806937,0.135685230888,-0.0639774836655,-0.347285347823,-0.00169153202171,-0.537356168455,-0.0430964980331,0.179662872265,-0.081724589082,0.573764301143,0.819004853637,0.00251462790601,0.0,0.818967171682,-0.573701570261,-0.0118332957793,0.0,-0.00824903951908,0.00884909075949,-0.999926820792,0.0,0.641093654771,0.23430055009,0.303673328155,1.0,-0.0730085714286,-0.095954122449,1.233
0.447842229194,0.436117468178,-0.124589607261,-1.52964501243,0.068655190041,1.95692206899,0.134246952049,-0.0655231776579,-0.363172130995,-0.00118026136025,-0.547524337091,-0.0391805992661,0.204170303969,-0.0854498054123,0.573706251664,0.819045869835,0.0023972502108,0.0,0.819006358356,-0.573643663488,-0.0119280850426,0.0,-0.00839464301885,0.00880674968176,-0.999925982825,0.0,0.639867283371,0.232746667055,0.303628389406,1.0,-0.0766657142857,-0.100760653061,1.249
0.446620425837,0.429750589507,-0.124610683551,-1.53916726166,0.0679830247435,1.96041361174,0.132684940847,-0.070411712,-0.373859381015,-0.000214564964376,-0.581081464463,-0.0436564379917,0.195666249365,-0.0935237541599,0.573669719966,0.819070667607,0.00265344322921,0.0,0.81903489038,-0.573606596099,-0.0117502405725,0.0,-0.00810240084792,0.00891419142893,-0.999927441513,0.0,0.63860247836,0.231049222234,0.303739434678,1.0,-0.0805514285714,-0.105867591837,1.266
0.445214040683,0.422781018619,-0.124704006793,-1.54992165433,0.0672078688236,1.96398526623,0.130916186514,-0.0836967121899,-0.392740603139,-0.00948137575376,-0.61454871286,-0.0407230103412,0.197096184444,-0.0977875305765,0.573682702408,0.819062257112,0.0024336871495,0.0,0.819023711945,-0.573620493122,-0.0118505714312,0.0,-0.00831050296463,0.00879188459765,-0.999926816475,0.0,0.63709541327,0.229049820373,0.303673636258,1.0,-0.0846657142857,-0.111274938776,1.284
0.443986996681,0.416668149596,-0.124817674922,-1.55910882564,0.0665484511673,1.96715344229,0.129473061971,-0.0828868751827,-0.415142433338,-0.00531778148064,-0.605403158731,-0.0431345838908,0.224527034386,-0.0951694669277,0.573790067914,0.818986928236,0.00247310385902,0.0,0.818949313333,-0.573728139449,-0.0117809633232,0.0,-0.00822972413572,0.008785315597,-0.99992754231,0.0,0.635831955257,0.227318971885,0.303726053245,1.0,-0.0880942857143,-0.115781061224,1.299
0.442501391855,0.409547225021,-0.124840094651,-1.56982234651,0.0658209176027,1.97091857789,0.127635084788,-0.0917854603116,-0.419516510131,-5.96649323802e-05,-0.634890622712,-0.0479524521366,0.214858236525,-0.109045782796,0.573756277537,0.819010152973,0.00261729178121,0.0,0.818974201811,-0.573693597616,-0.011732848022,0.0,-0.00810795421856,0.00887546053354,-0.999927741029,0.0,0.634340128771,0.225346271462,0.303773771913,1.0,-0.09198,-0.120888,1.316
0.440805354777,0.401821701401,-0.124922721912,-1.58171328685,0.0649874533322,1.97483710271,0.125668473995,-0.0953629601449,-0.440998017918,-0.00853307798502,-0.664224962806,-0.0442688970839,0.223628721739,-0.106996531622,0.573840828387,0.818951602126,0.00239247826635,0.0,0.818912355652,-0.573778585131,-0.0118926828815,0.0,-0.00836693999428,0.00878390612683,-0.999926415947,0.0,0.632626613974,0.223076667467,0.303672284381,1.0,-0.0960942857143,-0.126295346939,1.334
0.439135384058,0.39410780794,-0.125000728959,-1.59302005134,0.0641359037266,1.97889376436,0.123732559875,-0.101615369271,-0.444138538943,-0.00193636439234,-0.686477405902,-0.057900817658,0.237415524096,-0.116192046172,0.573885524488,0.818919226658,0.00272981557681,0.0,0.818885180217,-0.573822925896,-0.0116214559482,0.0,-0.00795075603296,0.00890496231082,-0.999928741023,0.0,0.631064927524,0.220905075559,0.303835592824,1.0,-0.09998,-0.131402285714,1.351
0.437379738247,0.386307657716,-0.125041920939,-1.60498332888,0.0632410179748,1.98270980204,0.121663011663,-0.105724470045,-0.465194948288,-0.00213345536635,-0.698595205188,-0.0545199430933,0.217939432153,-0.131321041591,0.573863620558,0.818935575205,0.00241154802854,0.0,0.818897019902,-0.573801766829,-0.0118300498947,0.0,-0.00830445808218,0.00876381348843,-0.999927113118,0.0,0.629269822475,0.218613658321,0.303710095143,1.0,-0.103865714286,-0.13650922449,1.368
0.435657041525,0.378596874822,-0.125092597944,-1.61630575963,0.0624118041766,1.98655038089,0.119632488968,-0.108368845846,-0.476569618153,-0.000594030199361,-0.70898128632,-0.0475969525704,0.237042329253,-0.126575194927,0.57383903627,0.818952267474,0.0025866875099,0.0,0.818916023394,-0.573776570619,-0.0117362915558,0.0,-0.00812743837103,0.00885319253652,-0.999927780256,0.0,0.627616538098,0.216427420983,0.303814688232,1.0,-0.107522857143,-0.141315755102,1.384
0.433799576411,0.370805903747,-0.125133633855,-1.62803203161,0.0615158572196,1.99042911197,0.117561316803,-0.118135898217,-0.490513456779,-0.00579124205949,-0.731296897314,-0.0655973428242,0.243534127606,-0.126795053364,0.573867410973,0.818932638145,0.00250513566378,0.0,0.818895325175,-0.573805230929,-0.0117792303109,0.0,-0.00820909425624,0.00881132993116,-0.999927482989,0.0,0.625869340507,0.214117805147,0.303770119918,1.0,-0.11118,-0.146122285714,1.4
0.431642039943,0.361691087105,-0.125262225543,-1.64142221839,0.060453655162,1.99482995754,0.115185319497,-0.122773286802,-0.518220137928,-0.00570104553492,-0.75386866262,-0.0612605967894,0.247624896804,-0.134872872129,0.57395556737,0.818870730623,0.00254560701652,0.0,0.818834516541,-0.573893847018,-0.0116890451683,0.0,-0.00811106491666,0.00879359274615,-0.999928439116,0.0,0.623869111685,0.21141453974,0.303843196232,1.0,-0.115294285714,-0.151529632653,1.418
0.429476129447,0.352950227186,-0.125291613785,-1.65449437939,0.0595117995702,1.99903954302,0.112727980937,-0.135853895101,-0.520300485585,0.000431635139639,-0.804682166719,-0.0582001567831,0.249817050689,-0.136957584372,0.573922424098,0.818894230439,0.00245710635484,0.0,0.818856015496,-0.573860121597,-0.0118378050301,0.0,-0.00828403438196,0.00880616762425,-0.999926910422,0.0,0.621851318295,0.208813433541,0.30378172683,1.0,-0.11918,-0.156636571429,1.435
0.427206519073,0.343890033744,-0.125367289972,-1.66768247237,0.0585122847099,2.00337088336,0.110259926554,-0.135201545906,-0.544420117928,-0.00203065495574,-0.782496237507,-0.0592376025963,0.251995811565,-0.140375970464,0.57397167463,0.818859237034,0.00261027734413,0.0,0.81882293806,-0.573908711914,-0.0117700211185,0.0,-0.00814008632657,0.00889318491728,-0.999927322487,0.0,0.619835790325,0.206121597975,0.303865564241,1.0,-0.123065714286,-0.161743510204,1.452
0.424879459765,0.334735175036,-0.125379327366,-1.68121507982,0.0574197382111,2.00771364486,0.107664696511,-0.13590282776,-0.543534469323,0.00118840551647,-0.78508195177,-0.0720903929603,0.251120361829,-0.158154858408,0.573880215657,0.818923546348,0.00254366185381,0.0,0.818886293213,-0.573817415615,-0.0118135187704,0.0,-0.00821492937802,0.00886268516046,-0.999926981208,0.0,0.617698935128,0.203394560454,0.303827365091,1.0,-0.126951428571,-0.16685044898,1.469
0.422466305862,0.325218052612,-0.125376591785,-1.69492859283,0.0562737607356,2.01209134085,0.104963710561,-0.14299604736,-0.56306030386,0.000778396412797,-0.794982331676,-0.0667015129228,0.261329327001,-0.169102360941,0.57373242225,0.819026760498,0.00264955620866,0.0,0.818991098894,-0.573669487124,-0.011732279225,0.0,-0.00808923683848,0.00890132330725,-0.999927662729,0.0,0.61551039159,0.200615361972,0.303918790801,1.0,-0.130837142857,-0.171957387755,1.486
0.420038240466,0.316188044468,-0.125393534281,-1.70816028567,0.0552098936805,2.0162800307,0.102415646448,-0.151147702726,-0.56845250894,-0.000825443381211,-0.817948030889,-0.0698564124455,0.257019194844,-0.161561519905,0.573733853586,0.819025864716,0.00261630984318,0.0,0.818989488179,-0.573670728906,-0.0117838852304,0.0,-0.00815056333939,0.00890371556697,-0.999927143429,0.0,0.613376292925,0.197876778294,0.303884286661,1.0,-0.134494285714,-0.176763918367,1.502
0.417171000543,0.305697034766,-0.125458633691,-1.72315431976,0.0539360740265,2.02101070045,0.0992910536236,-0.165543251268,-0.592785126299,-0.00287764750589,-0.85956494265,-0.07349734028,0.26751801135,-0.172135308414,0.573628583736,0.819099161822,0.00274916792441,0.0,0.819064914411,-0.573565445114,-0.0116658926981,0.0,-0.00797884882426,0.00894380869319,-0.999928170549,0.0,0.610956065715,0.194684634414,0.303983770602,1.0,-0.138608571429,-0.182171265306,1.52
0.414111702039,0.295148898393,-0.125535341481,-1.73859168597,0.0527054387514,2.02561485629,0.0961726694389,-0.174731762111,-0.596861644724,-0.00773621154533,-0.844835403287,-0.0598486086867,0.242216048868,-0.171283229727,0.573704624913,0.819046665518,0.00251196330667,0.0,0.819008347191,-0.57364126749,-0.0119067361415,0.0,-0.00831136673831,0.00888843963798,-0.999925955671,0.0,0.608377871977,0.191340949159,0.303872629628,1.0,-0.142722857143,-0.187578612245,1.538
0.411649806159,0.286624977656,-0.125644519553,-1.75053343823,0.0517148513058,2.02943884433,0.0936240989875,-0.179585017824,-0.595433062899,-0.00322305409333,-0.860650218228,-0.0705679944546,0.262948713309,-0.189726384479,0.573741967985,0.819019509147,0.00281863622003,0.0,0.818985594438,-0.573677932512,-0.0117035359358,0.0,-0.00796858827819,0.00902340592886,-0.999927537248,0.0,0.606444058293,0.188695007952,0.304020328753,1.0,-0.145922857143,-0.191784326531,1.552
0.408356684772,0.275686733477,-0.125734201056,-1.76634822849,0.0503459962388,2.03407023886,0.0902596967069,-0.188446869091,-0.613299268942,-0.00115855310039,-0.857742231203,-0.0713538153813,0.264354489542,-0.186679357596,0.573742433786,0.819019989068,0.00257372893668,0.0,0.818982485721,-0.573678844942,-0.011875093679,0.0,-0.00824960408205,0.0089212558328,-0.999926174888,0.0,0.603741265974,0.185188188699,0.303927306055,1.0,-0.150037142857,-0.197191673469,1.57
0.405043578532,0.265038399026,-0.125864786862,-1.78132653812,0.049028669675,2.03867163524,0.0869723889627,-0.196898693255,-0.627003795486,-0.0103752637705,-0.898136331274,-0.0790363466673,0.261662294052,-0.19257430853,0.573828214558,0.818959345996,0.00274165712934,0.0,0.818924512323,-0.573764529601,-0.0117326292608,0.0,-0.00803563548401,0.00897789678075,-0.999927410331,0.0,0.601232757565,0.181757866712,0.304009511606,1.0,-0.153922857143,-0.202298612245,1.587
0.4017845101,0.25486347456,-0.126026518764,-1.79566790962,0.0477275496341,2.04287628009,0.0837983920773,-0.207650820107,-0.640603479013,-0.0133032010643,-0.875220890814,-0.0846341352009,0.263540814731,-0.2006703911,0.573954465781,0.818870978248,0.00270907641572,0.0,0.818836050396,-0.573891246747,-0.0117092433778,0.0,-0.00803379901308,0.00893903406416,-0.999927773263,0.0,0.598771244926,0.178405271661,0.304029766953,1.0,-0.15758,-0.207105142857,1.603
0.398457754193,0.244596727417,-0.126077841593,-1.81019290529,0.0464174561607,2.047136021,0.0804929615076,-0.206256475672,-0.645182427597,-0.00273462886186,-0.925435415082,-0.0860653700386,0.27283321634,-0.210859149896,0.573924673817,0.818891985283,0.00267060392324,0.0,0.8188564435,-0.573861469077,-0.011742493315,0.0,-0.00808343260334,0.00892631973554,-0.999927486838,0.0,0.596220418293,0.175083966669,0.303996015225,1.0,-0.161237142857,-0.211911673469,1.619
0.394795466985,0.233361805714,-0.126102437446,-1.82564906083,0.0450682732808,2.05167009191,0.0768986630041,-0.215198979355,-0.661143261209,-0.000751942057511,-0.923466089379,-0.0790570386391,0.27448841294,-0.203985986238,0.573901917367,0.818907051367,0.00292871408822,0.0,0.818874528834,-0.573837441874,-0.0116551804902,0.0,-0.00786405509548,0.00908735475943,-0.999927785703,0.0,0.593483633868,0.171530535163,0.304118638074,1.0,-0.165122857143,-0.217018612245,1.636
0.391247329794,0.222796295278,-0.126112402092,-1.84053148287,0.043636745108,2.05583100403,0.0733310156416,-0.226684427958,-0.658867164349,-0.00194071468011,-0.940407381737,-0.0894227316439,0.2462217427,-0.226648506893,0.573727697046,0.819029769347,0.00274107043874,0.0,0.818994708782,-0.5736637824,-0.0117591943273,0.0,-0.00805883253941,0.00899167078379,-0.99992709988,0.0,0.590761743886,0.168098555755,0.304031632797,1.0,-0.16878,-0.221825142857,1.652
0.387244312252,0.211204447656,-0.126215150869,-1.85626487191,0.0421968186076,2.06029230794,0.0695014169362,-0.242181550356,-0.671881511794,-0.00950057668841,-0.92690933195,-0.0829343032874,0.259789023471,-0.220575652123,0.573781845963,0.818990987795,0.00298363100436,0.0,0.818959068233,-0.573717074968,-0.0116408483832,0.0,-0.00782214046398,0.00912295478633,-0.9999277903,0.0,0.587915401454,0.164315859767,0.304169365463,1.0,-0.172665714286,-0.226932081633,1.669
0.383092336674,0.199590636474,-0.126323588342,-1.87227340199,0.0406552334297,2.06458217292,0.0654627941624,-0.24704924952,-0.693585383861,-0.0074847997518,-0.928170857661,-0.0853822253215,0.255083573193,-0.240155901089,0.573734656572,0.819024506249,0.0028546302147,0.0,0.818990636148,-0.573670016084,-0.0117387157781,0.0,-0.00797683371178,0.0090729981644,-0.999927022751,0.0,0.584928077075,0.160426604096,0.304140229349,1.0,-0.176551428571,-0.232039020408,1.686
0.378720548068,0.187754362638,-0.126454193795,-1.88837943447,0.0391442219821,2.0689699517,0.0613069056085,-0.259248427037,-0.704782022696,-0.00413798676728,-0.956718797715,-0.0844211584727,0.250137102975,-0.248732045964,0.573780144263,0.818992353631,0.00293558261457,0.0,0.818959217777,-0.573714850506,-0.0117395411864,0.0,-0.00793055981379,0.00914021405471,-0.999926778673,0.0,0.581921655647,0.156433902616,0.304170228123,1.0,-0.180437142857,-0.237145959184,1.703
0.374124251788,0.175721892298,-0.126635420891,-1.90457489617,0.0376023687753,2.07328299558,0.0570603383133,-0.274923628179,-0.705621410057,-0.00858016589473,-0.947174757757,-0.100113724992,0.256624340919,-0.251134247957,0.573941229185,0.818879084974,0.00304245538787,0.0,0.818847089737,-0.573875256231,-0.0117209562797,0.0,-0.00785220726737,0.00921862328146,-0.999926677225,0.0,0.578866915735,0.152305400733,0.304230007449,1.0,-0.184322857143,-0.242252897959,1.72
0.369151935197,0.162947084018,-0.126675453802,-1.92203393889,0.0357712665856,2.07770186499,0.0523525075897,-0.279820107609,-0.712422184937,0.000440895495831,-0.967560988367,-0.09938699183,0.23914421533,-0.26098143157,0.573801918214,0.818977742756,0.00274998638087,0.0,0.818941741958,-0.573736784415,-0.0118858061733,0.0,-0.00815659940712,0.00907235168976,-0.999925578391,0.0,0.575444557094,0.147942290644,0.304110195044,1.0,-0.188437142857,-0.247660244898,1.738
0.364865354974,0.152023807802,-0.126732450899,-1.9364288727,0.0342813107438,2.08155053266,0.0483159298509,-0.291323628469,-0.715224495501,-0.0057354572089,-0.961550848022,-0.106083796436,0.24527767769,-0.269714387023,0.573718835165,0.819035058807,0.00300291896273,0.0,0.81900297726,-0.573653526523,-0.0116833920013,0.0,-0.00784662367382,0.00916255802833,-0.999927236366,0.0,0.572658710434,0.144275833566,0.304223745341,1.0,-0.191865714286,-0.252166367347,1.753
0.359777437512,0.139595962481,-0.126865903073,-1.95297798097,0.0326160664299,2.08561278718,0.0436392029464,-0.307995399283,-0.740340047044,-0.00934077574724,-0.957186236593,-0.0937241260277,0.251303236129,-0.278131756792,0.573773100216,0.818997247496,0.00294702626974,0.0,0.818963759313,-0.573707189633,-0.0117969655899,0.0,-0.00797110565646,0.00918246602327,-0.999926069163,0.0,0.569355194025,0.139961361321,0.30420529527,1.0,-0.195751428571,-0.257273306122,1.77
0.354468889625,0.126974554826,-0.127018397988,-1.96962734548,0.0308329441855,2.08970211168,0.0386892629917,-0.312894261882,-0.760418438919,-0.00885728947633,-0.999482413891,-0.110056817384,0.237183426188,-0.281904126333,0.573728367363,0.819028676023,0.00292151260744,0.0,0.818995021793,-0.573662744283,-0.0117880024414,0.0,-0.00797890271132,0.00915599195801,-0.999926249742,0.0,0.565800909363,0.135277949934,0.304205017195,1.0,-0.199865714286,-0.262680653061,1.788
0.349212453371,0.114902273891,-0.127213080298,-1.98526194054,0.0291322985459,2.09353907785,0.0340196304106,-0.333617398679,-0.762026379731,-0.00917516636802,-0.982663916373,-0.105517462906,0.241635209526,-0.297325383531,0.573894748457,0.818911454854,0.00309737027426,0.0,0.818880675621,-0.573829192213,-0.0116294522548,0.0,-0.00774627932253,0.00921063557256,-0.999927577052,0.0,0.562860119946,0.131244527003,0.304298942229,1.0,-0.203294285714,-0.26718677551,1.803
0.343142631838,0.101260132092,-0.127332755055,-2.00300824584,0.0271893251941,2.0976050787,0.0284600776635,-0.340138667287,-0.748106960625,-0.00192322244077,-0.980829721273,-0.108689620165,0.225070108292,-0.307537758205,0.573839890268,0.818950153771,0.00302867561633,0.0,0.818918183781,-0.573774217418,-0.0117005384884,0.0,-0.00784453284426,0.00919465028275,-0.999926958188,0.0,0.559160160223,0.126413317448,0.304287198826,1.0,-0.207408571429,-0.272594122449,1.821
0.337245783512,0.0882091785278,-0.127432760498,-2.01986565219,0.0254378834523,2.10140966013,0.0230709781931,-0.351924125493,-0.753242789185,-0.00545286612765,-0.987815853198,-0.100029690892,0.220064686067,-0.322641166482,0.573806060792,0.81897372677,0.00306371687196,0.0,0.818941107181,-0.573738974852,-0.0118236460872,0.0,-0.00792563431569,0.0092936624045,-0.999925403298,0.0,0.555584403637,0.121827485229,0.30427233394,1.0,-0.211294285714,-0.277701061224,1.838
0.331426246078,0.075666747382,-0.12756667795,-2.03568392999,0.0235874436483,2.10492295068,0.017749571823,-0.36033931858,-0.777555543877,-0.00562649691319,-0.990514005924,-0.117833676059,0.219018595697,-0.335402618025,0.573711653179,0.819039410463,0.00318276885959,0.0,0.819009017269,-0.573644976243,-0.0116798016003,0.0,-0.00774058748044,0.00930773388349,-0.999926722013,0.0,0.552213180455,0.117369457583,0.304373342746,1.0,-0.214951428571,-0.282507591837,1.854
0.324929875976,0.062379372855,-0.127794327686,-2.05273464634,0.0216637392616,2.10845964588,0.0120000955851,-0.396195784295,-0.799481784058,-0.0128016145883,-0.99635325194,-0.116681293618,0.195468622091,-0.348398134603,0.573851375529,0.81894224244,0.00299152993834,0.0,0.818908473754,-0.573784300984,-0.0118842105081,0.0,-0.0080161434242,0.00926973823434,-0.999924903879,0.0,0.548491019714,0.112454087022,0.304279086825,1.0,-0.218837142857,-0.287614530612,1.871
0.317814589147,0.04810449981,-0.127958959292,-2.07052467998,0.0195859095188,2.11221745353,0.00569755798799,-0.38824856876,-0.763533161511,-0.00695544792043,-0.976447557096,-0.106524131202,0.203694891509,-0.348912136505,0.573903555738,0.818905092273,0.0031472942911,0.0,0.818873633581,-0.573836249698,-0.0117761478946,0.0,-0.00783766682491,0.00933578920457,-0.999925704249,0.0,0.544591767,0.10724953689,0.304356421594,1.0,-0.21998,-0.289116571429,1.889
0.311816529157,0.0362605775234,-0.128014584199,-2.08530142933,0.0179127482614,2.1151517032,0.000334130124626,-0.404424364985,-0.785568854747,-0.00449089899287,-0.964189452105,-0.116959200221,0.210674402772,-0.370889716019,0.573844976264,0.818946033511,0.00317558092232,0.0,0.818914127474,-0.573776606856,-0.0118660924626,0.0,-0.0078957673271,0.00941000679956,-0.999924551469,0.0,0.54125722095,0.102980469996,0.304350267572,1.0,-0.21998,-0.289116571429,1.904
0.304429448772,0.0221430538818,-0.12814631761,-2.10278578007,0.0157107136446,2.11848431228,-0.00621256050924,-0.416320012483,-0.795331069458,-0.00258147920894,-0.9807469074,-0.116320870626,0.169213094564,-0.375038553507,0.573777978298,0.818993378992,0.00306980277116,0.0,0.818960376044,-0.5737103322,-0.0118787246044,0.0,-0.00796757263468,0.00932997705108,-0.999924731825,0.0,0.5372612754,0.0977734890721,0.304331897909,1.0,-0.21998,-0.289116571429,1.922
0.29763480355,0.00961691457698,-0.128326133637,-2.11790386666,0.0138280644824,2.12131378136,-0.012142427122,-0.43073262046,-0.77224592245,-0.00897613964119,-0.949831855223,-0.121698665983,0.169190607501,-0.379270276731,0.573869884069,0.818928416452,0.00321741934313,0.0,0.818897816587,-0.57380227806,-0.011749833294,0.0,-0.00777625954155,0.00937779369698,-0.999925790633,0.0,0.533789757931,0.0930860262631,0.304434253591,1.0,-0.21998,-0.289116571429,1.938
0.292034656521,-0.000425747840655,-0.12841715567,-2.13013421186,0.0124102678296,2.12342818851,-0.0170590050631,-0.421652172576,-0.750573456288,-0.00373354204838,-0.931692533112,-0.110968868176,0.146894060132,-0.377556705831,0.573914487228,0.818897172285,0.00321395009353,0.0,0.818865421971,-0.573845558775,-0.0118929506585,0.0,-0.00789494467924,0.00945751136475,-0.999924109784,0.0,0.530903169736,0.0893216208243,0.304418194365,1.0,-0.21998,-0.289116571429,1.951
0.282912111681,-0.0165240558963,-0.128495952327,-2.14941332392,0.00993175081525,2.12684863656,-0.025102213972,-0.443941615981,-0.759806816203,-0.00833528023078,-0.932220482641,-0.119992769645,0.148788235932,-0.388789433901,0.573796032292,0.818979658031,0.00334364457265,0.0,0.818950244706,-0.57372745496,-0.0117495115901,0.0,-0.00770441862707,0.0094802841976,-0.999925380289,0.0,0.526328575095,0.0833256016229,0.304478774825,1.0,-0.21998,-0.289116571429,1.972
0.27485407014,-0.0303452036505,-0.128668310996,-2.1656796192,0.00784548598288,2.12945787426,-0.0321450120517,-0.449223636681,-0.7781910921,-0.0112404749704,-0.906057619083,-0.119785857126,0.152062388007,-0.393325090983,0.573838426899,0.818949460397,0.0034623734365,0.0,0.818921656881,-0.573769533879,-0.0116871204742,0.0,-0.00758470264223,0.00954211513456,-0.999925707403,0.0,0.522383095433,0.0781017201514,0.304568480456,1.0,-0.21998,-0.289116571429,1.99
0.26742653545,-0.0423559755858,-0.128844297558,-2.18008395571,0.00600255595163,2.13163940841,-0.0385384320822,-0.466137915154,-0.732830625584,-0.00603057749569,-0.909820411398,-0.116087955352,0.130657305048,-0.411213952372,0.573984877565,0.818847430488,0.00331554095573,0.0,0.818816763117,-0.573915283668,-0.0118786578195,0.0,-0.00782411944357,0.00953317401065,-0.999923947982,0.0,0.518822470331,0.073376759748,0.304468316349,1.0,-0.21998,-0.289116571429,2.006
0.259108338845,-0.0559340123386,-0.128927534697,-2.19572918498,0.00392344683198,2.13402969383,-0.0458418394306,-0.473529453338,-0.74501624368,-0.00371044683606,-0.850755534657,-0.127326665667,0.13215095887,-0.412357513514,0.573906674021,0.81890130027,0.00354073897431,0.0,0.81887426036,-0.573837195691,-0.0116861226768,0.0,-0.0075381184636,0.00960634875834,-0.999925444638,0.0,0.514923381411,0.0682428765374,0.304585157126,1.0,-0.21998,-0.289116571429,2.024
0.252028505924,-0.0670162821107,-0.129028061256,-2.20884251825,0.00219934760798,2.13571266521,-0.0520798339521,-0.472701901607,-0.727505777621,-0.00998824339082,-0.8518913944,-0.119805974113,0.108454649868,-0.418746831967,0.573846959779,0.818944132471,0.00330477614811,0.0,0.8189126459,-0.573776599891,-0.0119682372648,0.0,-0.00790526666321,0.00957444388557,-0.999922915421,0.0,0.511539062387,0.063924806662,0.304458153336,1.0,-0.21998,-0.289116571429,2.039
0.244235213542,-0.0789445371165,-0.129243279797,-2.22234439001,0.000391153825226,2.13754339548,-0.0588576740275,-0.496675547123,-0.731170129578,-0.0123421752174,-0.864412257758,-0.106625234987,0.107963641533,-0.432580770438,0.57396379436,0.818861373049,0.00351587735928,0.0,0.818832934452,-0.573893028337,-0.01183910405,0.0,-0.00767699529906,0.00967431951828,-0.999923732734,0.0,0.508079170122,0.0592311956701,0.30455778639,1.0,-0.21998,-0.289116571429,2.055
0.235436309042,-0.092146009661,-0.129323306284,-2.2375062709,-0.0016148634339,2.13928752185,-0.0665645233729,-0.489726406098,-0.727323012468,-0.00396156876344,-0.804323559633,-0.106676751316,0.0923087710348,-0.433095068154,0.573910577686,0.818899099203,0.0034148272159,0.0,0.818867951287,-0.573838456467,-0.0120603124299,0.0,-0.00791677222868,0.00971802054201,-0.999921439311,0.0,0.50405488813,0.0540942583346,0.304492812104,1.0,-0.21998,-0.289116571429,2.073
0.226921628556,-0.104592805532,-0.129428152366,-2.25139032378,-0.00365829639561,2.14091926181,-0.073989621856,-0.502568479265,-0.704882780129,-0.00967329517015,-0.789785105703,-0.116009601504,0.0819499972252,-0.433015303151,0.573846512944,0.8189436564,0.00349487137692,0.0,0.818914629513,-0.573775441938,-0.0118877541576,0.0,-0.00773027831922,0.00968393401464,-0.999923229163,0.0,0.50035903531,0.0491987457616,0.304566195456,1.0,-0.21998,-0.289116571429,2.09
0.218688211217,-0.116198630793,-0.129645599777,-2.26441151597,-0.00547195665472,2.14220801684,-0.0811160734186,-0.516745948429,-0.722510550228,-0.0159672436281,-0.757773392445,-0.114181083876,0.081130242188,-0.449873657753,0.573979264247,0.818850843629,0.00344194764829,0.0,0.818820269445,-0.573907300836,-0.0120217841444,0.0,-0.00786884070373,0.00971877843555,-0.999921810289,0.0,0.496804714333,0.0445045625197,0.304535418209,1.0,-0.21998,-0.289116571429,2.106
0.209868860423,-0.128454719789,-0.129736390326,-2.27789587935,-0.0073407659341,2.14355575814,-0.0888704570044,-0.512706591523,-0.703146518719,-0.00607787009035,-0.813221585906,-0.112817784412,0.0762018621282,-0.463345659143,0.573934024849,0.818881967021,0.00357856243817,0.0,0.818852988732,-0.573861327425,-0.0119877700556,0.0,-0.00776311959641,0.00981069455113,-0.999921739061,0.0,0.492864708561,0.0393536870073,0.30457910406,1.0,-0.21998,-0.289116571429,2.124
0.200866057509,-0.140588461909,-0.129877353659,-2.29119588856,-0.00929106085276,2.14469228554,-0.0967705043119,-0.527678565593,-0.718481403929,-0.00513221287656,-0.74808984768,-0.119207823404,0.0746005815323,-0.465929281666,0.573888248121,0.818914125498,0.00356098718132,0.0,0.818884793866,-0.573815465953,-0.012010508293,0.0,-0.00779237540422,0.00980891666928,-0.999921528941,0.0,0.489339907142,0.0347355733369,0.304576215084,1.0,-0.21998,-0.289116571429,2.14
0.192201316694,-0.15197846127,-0.130076682003,-2.3034524343,-0.0111013124707,2.1457492782,-0.104325789144,-0.550066725433,-0.708163240931,-0.0157223722263,-0.765319519552,-0.115192805981,0.0536363830098,-0.469389692531,0.57396335445,0.818860828712,0.00370915774624,0.0,0.818833935869,-0.573890674739,-0.0118838469222,0.0,-0.00760271207303,0.00985826668151,-0.999922503671,0.0,0.485860241346,0.0300722360467,0.304634497588,1.0,-0.21998,-0.289116571429,2.156
0.182927522887,-0.163937122105,-0.130161594383,-2.31633133988,-0.0129988192545,2.14653321942,-0.112518127269,-0.545112715388,-0.701222946135,-0.00652320503506,-0.745230068459,-0.103345894539,0.0451382757215,-0.480673796803,0.573855451265,0.818936722797,0.00364856262815,0.0,0.818908335202,-0.573782098245,-0.0119995488274,0.0,-0.00773354016597,0.00987403496076,-0.999921344802,0.0,0.482083525908,0.0252237906213,0.304619371017,1.0,-0.21998,-0.289116571429,2.173
0.172880231045,-0.176474621047,-0.130306350023,-2.32964886549,-0.0149637931082,2.14737526446,-0.121359320434,-0.562651138942,-0.701165496587,-0.0118893707612,-0.742151218415,-0.117295932652,0.0363170610946,-0.476668868838,0.573841292284,0.818946228648,0.00374068908653,0.0,0.818918917961,-0.573767443582,-0.011978037876,0.0,-0.0076632308717,0.00993700511111,-0.999921262311,0.0,0.478144746406,0.020051535864,0.304639241427,1.0,-0.21998,-0.289116571429,2.191
0.16424812665,-0.186870524199,-0.130511284564,-2.34060968227,-0.0166232044745,2.14787380504,-0.128883085097,-0.579328184276,-0.682909246793,-0.011519736796,-0.720305329528,-0.101594761841,0.0307090371263,-0.49655911711,0.573958766036,0.81886390222,0.00374051234073,0.0,0.818836070757,-0.573884228988,-0.0120469019653,0.0,-0.0077183007135,0.00997748351174,-0.999920435663,0.0,0.47482685128,0.0156449933668,0.304636292541,1.0,-0.21998,-0.289116571429,2.206
0.153310871305,-0.199924148865,-0.13065133484,-2.35407768913,-0.0187119538351,2.14851964846,-0.138645332862,-0.579263204693,-0.669903405013,-0.0129609085452,-0.713480424049,-0.108354094529,0.0238063963495,-0.516025949742,0.573818745583,0.818961201475,0.00391721809055,0.0,0.818936526423,-0.573744717984,-0.0118621742288,0.0,-0.00746732103893,0.0100148837297,-0.999921967566,0.0,0.470709065543,0.0102119937783,0.30471989297,1.0,-0.21998,-0.289116571429,2.225
0.143830236,-0.210775767126,-0.13083625683,-2.36541352432,-0.0204014554778,2.14875097196,-0.146981809523,-0.598125894047,-0.670507412868,-0.0121866404517,-0.70010351546,-0.101601297306,0.014771821313,-0.521767570487,0.573896504837,0.818907063073,0.00384326504411,0.0,0.81887987579,-0.573820681725,-0.012096328007,0.0,-0.00770057173437,0.0100894070189,-0.999919449286,0.0,0.467125053967,0.00556653724779,0.304657410155,1.0,-0.21998,-0.289116571429,2.241
0.134809617395,-0.22097263776,-0.130983037191,-2.37558211985,-0.0220439065826,2.14904288046,-0.154893472999,-0.595054461678,-0.669579594814,-0.00596775269032,-0.691975148725,-0.109195663072,0.018727553995,-0.523360152752,0.573933361745,0.818880223158,0.00405256680837,0.0,0.818857069815,-0.573858528624,-0.011842096154,0.0,-0.00737180024541,0.0101152417874,-0.999921666154,0.0,0.46367839372,0.000941911936349,0.304780806759,1.0,-0.21998,-0.289116571429,2.257
0.123340424281,-0.233573412032,-0.131138018414,-2.38855274324,-0.0240704744451,2.14916262054,-0.165185484589,-0.61121829548,-0.663247371224,-0.0085628849149,-0.668895603324,-0.105688754164,0.00160457881778,-0.546661842308,0.573807883423,0.818968584661,0.00396448744338,0.0,0.818943163105,-0.573731862569,-0.0120246570841,0.0,-0.00757340943975,0.0101467282732,-0.999919840475,0.0,0.459666372666,-0.00419251032154,0.304702840831,1.0,-0.21998,-0.289116571429,2.275
0.112645170363,-0.244832969388,-0.131360321489,-2.39964267016,-0.025919471147,2.14922452217,-0.174580121914,-0.630294539395,-0.656145970596,-0.013662049681,-0.651358572897,-0.0977483505279,0.0049045350706,-0.558673904084,0.57393121079,0.818881356207,0.00412754641054,0.0,0.8188591615,-0.573856101845,-0.011815028753,0.0,-0.00730662975078,0.0101610885829,-0.999921679653,0.0,0.45599112301,-0.00919289413215,0.304803201316,1.0,-0.21998,-0.289116571429,2.292
0.103319479093,-0.254587204019,-0.131434034083,-2.40942326665,-0.0274032794476,2.14920140982,-0.18301662562,-0.626105712361,-0.648839612244,-0.00530174361581,-0.653887459784,-0.0989107565116,-0.00124695626422,-0.559353570052,0.573787205678,0.818981953224,0.00418924760469,0.0,0.818959945973,-0.573711051218,-0.0118736474364,0.0,-0.00732102627471,0.0102439702039,-0.999920728682,0.0,0.45268692414,-0.013411870884,0.304774196794,1.0,-0.21998,-0.289116571429,2.307
0.0917425576899,-0.266202216999,-0.131682246711,-2.42088027836,-0.0293350902506,2.14903674815,-0.193290943105,-0.646563019983,-0.643836891678,-0.0165048559193,-0.61931970978,-0.106344147784,-0.0110982267941,-0.576619940658,0.573858070199,0.818932184433,0.00421182479682,0.0,0.818910630778,-0.57378205163,-0.0118441093972,0.0,-0.00728299312845,0.010246143133,-0.999920984159,0.0,0.44872837609,-0.0186556562316,0.304770860184,1.0,-0.21998,-0.289116571429,2.325
0.0805964030237,-0.2770297685,-0.131842284954,-2.43132772931,-0.0310845691753,2.14881844985,-0.203229486862,-0.650032892739,-0.624942313357,-0.00617664319788,-0.617450702391,-0.102390449441,-0.0215830319031,-0.591169645173,0.573877879894,0.818917590547,0.00434807568899,0.0,0.818898589023,-0.573802530037,-0.0116835063247,0.0,-0.0070730281951,0.0102657365333,-0.999922290443,0.0,0.445047102193,-0.0235834945602,0.304829451954,1.0,-0.21998,-0.289116571429,2.342
0.0694833849564,-0.287695520629,-0.132015129532,-2.44176407141,-0.0327832267116,2.14838660406,-0.213390470668,-0.661988799162,-0.617998355099,-0.0109863455762,-0.610191563526,-0.0970744160521,-0.0320838224576,-0.602961335017,0.573709490028,0.819035766089,0.00431066342875,0.0,0.819015250267,-0.573632808152,-0.0118392627929,0.0,-0.00722418079179,0.0103229952558,-0.99992062034,0.0,0.441268746185,-0.0284081950104,0.304765947048,1.0,-0.21998,-0.289116571429,2.359
0.0585162450249,-0.297693314294,-0.132258798836,-2.45112452513,-0.0343861561634,2.14799540752,-0.223100000442,-0.682965159255,-0.621853532387,-0.0111406078494,-0.581868135244,-0.11151746627,-0.02286017835,-0.6065753267,0.573910409539,0.818893874039,0.00451794031204,0.0,0.81887706105,-0.573834508242,-0.0116216581474,0.0,-0.00692448792371,0.0103696279191,-0.99992225812,0.0,0.437812447433,-0.0331446991531,0.304863799674,1.0,-0.21998,-0.289116571429,2.375
0.0463495507997,-0.308717836263,-0.132410037766,-2.46162190365,-0.0361536405783,2.1473290895,-0.23415836404,-0.679861452354,-0.60829528457,-0.0151255970686,-0.577754259733,-0.0910993571789,-0.0443292019878,-0.609794203113,0.573794670537,0.818975038307,0.0045066167566,0.0,0.818957518725,-0.573717987847,-0.0117046933211,0.0,-0.00700045934397,0.0104070186921,-0.999921340672,0.0,0.433835302497,-0.0382498415787,0.304836941815,1.0,-0.21998,-0.289116571429,2.393
0.0358493357525,-0.317766551256,-0.132646895956,-2.47019307375,-0.0376640119917,2.14666002932,-0.243604556751,-0.711288955015,-0.598482928289,-0.0201182786043,-0.564119876157,-0.0955528900998,-0.0398079483862,-0.640651077564,0.573870477331,0.818922243634,0.00444758701146,0.0,0.818903222256,-0.573792892647,-0.0118311380245,0.0,-0.00713692568711,0.0104318850066,-0.999920116843,0.0,0.430492023425,-0.0426414458076,0.30479346414,1.0,-0.21998,-0.289116571429,2.408
0.023919308576,-0.327932408495,-0.132765988411,-2.47940467195,-0.0392521378953,2.14603266729,-0.254499028511,-0.690493351854,-0.584289674453,-0.00844131455838,-0.547315120819,-0.0900610112583,-0.0388099068895,-0.646596375585,0.573771891107,0.81898993936,0.00469500832082,0.0,0.818975652258,-0.573695841573,-0.0115199510077,0.0,-0.00674134701924,0.0104551228706,-0.999922619329,0.0,0.42685996004,-0.0475010129184,0.3049156646,1.0,-0.21998,-0.289116571429,2.425
0.0110040828167,-0.338429166406,-0.133038236674,-2.48919418451,-0.0408991248314,2.14504619128,-0.266205577764,-0.735733081742,-0.577652005305,-0.0175283878276,-0.535712283916,-0.0903189967624,-0.0575159861359,-0.652026019249,0.573876769164,0.818916531725,0.00468132277662,0.0,0.818900517621,-0.573798362051,-0.0117528229893,0.0,-0.0069385792881,0.0105784133978,-0.999919973442,0.0,0.422848734836,-0.0527177374977,0.304849547077,1.0,-0.21998,-0.289116571429,2.443
-0.000669207998677,-0.347646866953,-0.133196508333,-2.4976282152,-0.0424860266978,2.14413997722,-0.276818513329,-0.720906506852,-0.569839258812,-0.0063062943302,-0.515762966554,-0.0945108452293,-0.0547620679415,-0.683242204425,0.573838455382,0.818943783689,0.00461011741472,0.0,0.818926871512,-0.57376032884,-0.0117733201077,0.0,-0.00699671954021,0.0105315356217,-0.999920063142,0.0,0.419309084783,-0.0573506902978,0.304833886485,1.0,-0.21998,-0.289116571429,2.459
-0.0131497658796,-0.357304008211,-0.133422921016,-2.50613161549,-0.0440319244609,2.14323302351,-0.288302792779,-0.746569213583,-0.54976653889,-0.0213261350811,-0.509919726453,-0.0950212300824,-0.0565614917325,-0.679502872976,0.573813694506,0.81895995535,0.00481481367761,0.0,0.818946882275,-0.573736764225,-0.0115271978178,0.0,-0.00667800636279,0.0105577438865,-0.999921966093,0.0,0.415433952672,-0.0625549241874,0.304937612914,1.0,-0.21998,-0.289116571429,2.477
-0.0259168270826,-0.366720019014,-0.133611030569,-2.51468894241,-0.045559243197,2.14208218432,-0.299989807646,-0.741357519884,-0.558812135063,-0.00482320507719,-0.492308189734,-0.0776669218633,-0.0602194529091,-0.696943933102,0.573811666389,0.818961783067,0.00474513363097,0.0,0.818946639964,-0.573733128049,-0.011723718363,0.0,-0.00687896937508,0.0106134219547,-0.999920014329,0.0,0.411858926798,-0.0671654857608,0.304875115968,1.0,-0.21998,-0.289116571429,2.493
-0.0379713987306,-0.37540299718,-0.133795451984,-2.52248058013,-0.0469589582412,2.14096666922,-0.31112350909,-0.768393467615,-0.533520091737,-0.0191346808253,-0.482947422844,-0.0890735337565,-0.0676808775794,-0.707648367645,0.573763494902,0.818995690992,0.00471772777469,0.0,0.818979197237,-0.573683532978,-0.0118754109533,0.0,-0.00701956281042,0.0106776037746,-0.999918353925,0.0,0.408311326473,-0.0717365526328,0.304829084399,1.0,-0.21998,-0.289116571429,2.509
-0.0511239736549,-0.384510117978,-0.134016843097,-2.53025174828,-0.0484728165241,2.13990085532,-0.32316591292,-0.767872732723,-0.530126337729,-0.00880169693028,-0.456045667443,-0.0888196050653,-0.0624013125676,-0.714850110618,0.573839425345,0.818941501056,0.00488658063928,0.0,0.818928940847,-0.573761618426,-0.0115646861688,0.0,-0.00666719739836,0.0106382399918,-0.999921185058,0.0,0.404657746893,-0.0767051770369,0.304944863762,1.0,-0.21998,-0.289116571429,2.526
-0.0643319999014,-0.3933624569,-0.13421631148,-2.53805259856,-0.0499251158337,2.13863639843,-0.335462768871,-0.795127048767,-0.51063418537,-0.0183120855591,-0.458835745,-0.0894916099975,-0.0801785631455,-0.719600247267,0.573755848958,0.81900022738,0.00485800779414,0.0,0.818986511743,-0.573676899876,-0.011689954369,0.0,-0.00678727911154,0.0106860282898,-0.99991986761,0.0,0.400888091935,-0.0815833580944,0.304901191488,1.0,-0.21998,-0.289116571429,2.543
-0.0777775109745,-0.402000227218,-0.134402044147,-2.54559998,-0.051418836739,2.13727571081,-0.347862058829,-0.783650865851,-0.501209997118,-0.00296683704327,-0.440152040574,-0.0865920384553,-0.0787034855867,-0.735038827058,0.573757614145,0.818999636597,0.00474788013419,0.0,0.818983732645,-0.573677851105,-0.0118370484472,0.0,-0.00697091891573,0.0106802388977,-0.999918666086,0.0,0.397104213533,-0.0864868523176,0.304853040266,1.0,-0.21998,-0.289116571429,2.56
-0.0913179219908,-0.410456628965,-0.134629817727,-2.55271990917,-0.0526743199258,2.13603576664,-0.360568429706,-0.819385439709,-0.491275797039,-0.019634023421,-0.409650513139,-0.0723457016149,-0.0711299176912,-0.751198324149,0.573734607247,0.819014467944,0.00496474039262,0.0,0.819001622189,-0.573654500184,-0.0117304804345,0.0,-0.006759517665,0.0107965208867,-0.999918868738,0.0,0.393423189613,-0.0913688001272,0.304912058341,1.0,-0.21998,-0.289116571429,2.577
-0.105194377357,-0.418704230267,-0.134805368553,-2.55959358238,-0.0540651151085,2.13474248387,-0.373440925109,-0.812766008086,-0.481673715729,-0.00250208922672,-0.401685313558,-0.0880480254788,-0.0823204302087,-0.762830887034,0.57375630492,0.818998888269,0.00502697518114,0.0,0.818987822619,-0.573677570147,-0.0115645498549,0.0,-0.00658761739945,0.0107524718692,-0.999920490662,0.0,0.389721463781,-0.0963172432088,0.304973500101,1.0,-0.21998,-0.289116571429,2.594
-0.11741775814,-0.425754687002,-0.135008190082,-2.56564549454,-0.0552414075708,2.13342285878,-0.384967429193,-0.831272509868,-0.46295388752,-0.0178122126159,-0.389643136447,-0.0760345952614,-0.0828849152519,-0.759798275076,0.573675810461,0.819055660665,0.00496347927923,0.0,0.819042364709,-0.57359502643,-0.0117939547204,0.0,-0.00681300951852,0.0108314148771,-0.999918128325,0.0,0.38636784457,-0.100605816371,0.304909867731,1.0,-0.21998,-0.289116571429,2.609
-0.132344700794,-0.43395905731,-0.135228380842,-2.5725670579,-0.0566169237199,2.13197616058,-0.398938312872,-0.821381571047,-0.444685271319,-0.0116597311621,-0.37933090242,-0.0670986537728,-0.0724077079427,-0.78889818956,0.573686140998,0.819048403008,0.00496709748157,0.0,0.819034698131,-0.573604619247,-0.0118596347839,0.0,-0.00686459703511,0.0108721426217,-0.999917333494,0.0,0.382396373563,-0.105791381917,0.304878959041,1.0,-0.21998,-0.289116571429,2.627
-0.146691992906,-0.441458432145,-0.135491457166,-2.57864468572,-0.0578392777545,2.13060940281,-0.412387763526,-0.852985177456,-0.438363723867,-0.0236201696449,-0.343213974603,-0.0715014286464,-0.0742645438684,-0.794935393882,0.573781974526,0.818980467817,0.00509764106011,0.0,0.818968963648,-0.573700801835,-0.0117462102908,0.0,-0.00669552494499,0.0109147836933,-0.999918015361,0.0,0.37870036009,-0.110754936428,0.304939987662,1.0,-0.21998,-0.289116571429,2.644
-0.160289170017,-0.448354680382,-0.135610216368,-2.58416067414,-0.0589667147428,2.12934229594,-0.425199011128,-0.842910856422,-0.420192483701,-0.0089487572197,-0.345783899621,-0.0661940121803,-0.0829505137044,-0.800015580636,0.573744290061,0.819006293542,0.00518918708675,0.0,0.81899705207,-0.573664612278,-0.0115537103197,0.0,-0.00648583333979,0.0108790137063,-0.999919787296,0.0,0.375236408024,-0.115363499965,0.305015675774,1.0,-0.21998,-0.289116571429,2.66
-0.175755642148,-0.455768023318,-0.13591539732,-2.59037019998,-0.060196816761,2.12772754632,-0.439843406972,-0.876655021544,-0.409919656606,-0.0136192313576,-0.336547472047,-0.0731056997827,-0.0941449043253,-0.819199152721,0.573791290117,0.818973455618,0.0051750633036,0.0,0.818961963585,-0.573708226225,-0.0118709841472,0.0,-0.00675317453967,0.0110498600576,-0.999916144097,0.0,0.37119049179,-0.120559561904,0.304927783143,1.0,-0.21998,-0.289116571429,2.678
-0.190422274573,-0.462464545743,-0.136065618144,-2.59580133596,-0.0613715513244,2.12637196303,-0.453892790535,-0.872160140863,-0.377486724092,-0.0107852195132,-0.314664386652,-0.0588234923402,-0.0757121386692,-0.834558516986,0.573615270271,0.81909681452,0.00516498360698,0.0,0.819085354966,-0.573532541154,-0.0118470426536,0.0,-0.00674171852489,0.0110264192975,-0.999916480167,0.0,0.367481145395,-0.125421503815,0.304926164874,1.0,-0.21998,-0.289116571429,2.695
-0.203721418579,-0.468127186757,-0.136273761397,-2.60041459941,-0.0623538663904,2.12518485029,-0.466377995162,-0.889060208412,-0.381810412446,-0.00834478114913,-0.302741574181,-0.0642528780532,-0.088114515369,-0.826582791696,0.573789847364,0.81897438089,0.00518858448589,0.0,0.818962893385,-0.573706454948,-0.0118924224353,0.0,-0.00676299509825,0.0110732226109,-0.999915819276,0.0,0.363937349981,-0.130103858284,0.304901718929,1.0,-0.21998,-0.289116571429,2.711
-0.219534372019,-0.474757448253,-0.136430263583,-2.60549367425,-0.0634451610993,2.12376259063,-0.481536641191,-0.884181370683,-0.363303833486,-0.010681983009,-0.277908530129,-0.0683372930716,-0.0787617612095,-0.842637381887,0.573671962938,0.819056207685,0.00530608065468,0.0,0.819047408141,-0.573590122441,-0.0116816761463,0.0,-0.00652455952937,0.0110475943933,-0.999917687003,0.0,0.360280796025,-0.134966206413,0.30500068503,1.0,-0.21998,-0.289116571429,2.728
-0.234774292017,-0.480654351211,-0.136646110079,-2.61018866485,-0.0644997760257,2.12240645731,-0.49608694419,-0.872232766388,-0.337190080564,-0.00189153323924,-0.282876481711,-0.0557509975806,-0.0884323353743,-0.853626964412,0.573684665323,0.819047267713,0.00531271366973,0.0,0.819038222362,-0.573602239327,-0.0117306542843,0.0,-0.00656070219602,0.011081225385,-0.999917078377,0.0,0.356523270964,-0.139894361575,0.30498921392,1.0,-0.21998,-0.289116571429,2.745
-0.249151439787,-0.485929016888,-0.136817045648,-2.61440835177,-0.0653330600191,2.12114776457,-0.509902685976,-0.910742681936,-0.324509561018,-0.0164354056817,-0.255553504794,-0.0516336707332,-0.0763701030766,-0.87768790978,0.573679117622,0.819050634473,0.00539213089964,0.0,0.819041641646,-0.573594759817,-0.0118569668094,0.0,-0.0066186855901,0.0112186899954,-0.999915163399,0.0,0.352992930469,-0.14446792969,0.30495751768,1.0,-0.217694285714,-0.286112489796,2.761
-0.264519116118,-0.491056845682,-0.136903997972,-2.61853869578,-0.0662277614361,2.11989141917,-0.524590220768,-0.892319097364,-0.291946653363,-0.0041654652876,-0.234955041377,-0.0403115571291,-0.0693344369676,-0.86707090374,0.573686495064,0.819045620177,0.00536883144628,0.0,0.819035412604,-0.573600688168,-0.0119995972766,0.0,-0.00674878211599,0.0112814871862,-0.99991358726,0.0,0.349291477206,-0.149310584634,0.304904829411,1.0,-0.213808571429,-0.28100555102,2.778
-0.279825812668,-0.495872479388,-0.13703291216,-2.62228226075,-0.0669978323524,2.11876319011,-0.539201315975,-0.906388565389,-0.274345016873,-0.0122140498291,-0.209247504027,-0.0533396583837,-0.0692307647137,-0.864806351535,0.573809468675,0.818958735199,0.00548001836106,0.0,0.818949989,-0.5737232354,-0.0119712814664,0.0,-0.0066600998918,0.0113573142976,-0.999913323484,0.0,0.345671847452,-0.154119177571,0.304912790193,1.0,-0.209922857143,-0.275898612245,2.795
-0.293971856311,-0.500133814957,-0.137000145262,-2.6255370981,-0.0676498533991,2.1176637589,-0.552768578589,-0.871295652306,-0.25895679347,0.000560813531768,-0.197960759731,-0.0346759762729,-0.063798925138,-0.84853964099,0.573796782409,0.818967282827,0.00553073749864,0.0,0.818959139461,-0.573710258722,-0.0119671981818,0.0,-0.00662783054304,0.0113964072498,-0.999913093106,0.0,0.342339736053,-0.158472613679,0.304935255236,1.0,-0.206265714286,-0.271092081633,2.811
-0.311672053023,-0.504913462462,-0.136994000961,-2.6291946474,-0.0684229069984,2.11648368707,-0.569666734669,-0.869189162795,-0.226788605369,0.00563899885216,-0.176464276915,-0.0369892035905,-0.0577575657269,-0.841502963415,0.573920765353,0.818879949809,0.00559730274435,0.0,0.818872898525,-0.573834355217,-0.0119187136845,0.0,-0.00654819712557,0.0114240967513,-0.999913301806,0.0,0.338439615065,-0.163655554588,0.304950010989,1.0,-0.201922857143,-0.265384326531,2.83
-0.324605165792,-0.508199002328,-0.136913853832,-2.63167299483,-0.0688622676137,2.1156903124,-0.582208510681,-0.860939053475,-0.215094191525,0.00366160614907,-0.161742517122,-0.0320028324104,-0.0554502669761,-0.827204819573,0.573844334711,0.818932794867,0.00570122016808,0.0,0.818927629321,-0.573758498269,-0.0118097628723,0.0,-0.00640040182138,0.0114460726074,-0.999914007442,0.0,0.335277134959,-0.167838530755,0.304983695311,1.0,-0.198265714286,-0.260577795918,2.846
-0.33927041612,-0.511619333124,-0.136855309614,-2.63428742793,-0.0694298415495,2.11476511488,-0.596274215351,-0.843588770478,-0.191853900054,0.0122811686166,-0.145823046831,-0.0356695500813,-0.0498969520861,-0.824489902273,0.573900999821,0.818892988256,0.00571516314648,0.0,0.818887920549,-0.573814952379,-0.011820359836,0.0,-0.00640028694497,0.0114640151105,-0.999913802627,0.0,0.331898507811,-0.172272428295,0.304985672029,1.0,-0.19438,-0.255470857143,2.863
-0.353604416921,-0.514606026388,-0.136731118629,-2.63666677359,-0.0698737168831,2.11390615125,-0.610182317579,-0.845830846369,-0.165814645131,0.00296685751475,-0.134646204249,-0.0262021691857,-0.0425159442888,-0.813343550747,0.573835587479,0.818938703232,0.00573286949619,0.0,0.818932894121,-0.573747752699,-0.0119657052016,0.0,-0.00651008345037,0.011561405475,-0.999911972484,0.0,0.328607949821,-0.176546931805,0.30493827348,1.0,-0.190494285714,-0.250363918367,2.88
-0.366998289236,-0.51711774946,-0.136593662801,-2.63866589103,-0.0702701413011,2.11319630255,-0.623104275787,-0.825131834349,-0.147747364117,0.0174920094067,-0.113493384726,-0.0226692703686,-0.0408222011154,-0.810746730379,0.573840351318,0.818935368079,0.00573245222938,0.0,0.818928933528,-0.573751420167,-0.012060538462,0.0,-0.00658792573495,0.0116155182536,-0.99991083551,0.0,0.325564094066,-0.180528153186,0.304899075132,1.0,-0.186837142857,-0.245557387755,2.896
-0.380132928296,-0.519388413046,-0.136501110797,-2.64041120266,-0.0705896430309,2.11256964149,-0.635791404693,-0.824651292136,-0.140431780098,0.00145347935546,-0.108719778756,-0.0209768420059,-0.0405139671703,-0.794553102306,0.573904034203,0.818890241079,0.00580340348504,0.0,0.818884549231,-0.573814475351,-0.0120743450826,0.0,-0.0065576126839,0.0116820577159,-0.999910259595,0.0,0.322600564421,-0.184433011544,0.304890682693,1.0,-0.18318,-0.240750857143,2.912
-0.394679361313,-0.521648804679,-0.136301517395,-2.6420922425,-0.0709043500105,2.11190365468,-0.649940780095,-0.7992361413,-0.118169723928,0.0126130164796,-0.0858058700995,-0.00937940092802,-0.0363495387223,-0.786244630089,0.573855758909,0.818923788984,0.00584317586449,0.0,0.818918691484,-0.573766181,-0.0120537620407,0.0,-0.00651862128488,0.0117024320047,-0.999910276306,0.0,0.3193526266,-0.188722307076,0.304905567192,1.0,-0.179065714286,-0.235343510204,2.93
-0.408215022536,-0.523537380111,-0.136193548903,-2.64347825991,-0.0711678836049,2.11132423441,-0.663030164558,-0.805604607319,-0.104251076471,0.00345994378358,-0.0774702018163,-0.0123508325979,-0.0363341490202,-0.756329449736,0.573984834479,0.818832710532,0.00592864684847,0.0,0.818828802714,-0.573895014675,-0.0120270893069,0.0,-0.00644587736995,0.0117581400463,-0.999910094362,0.0,0.316141178028,-0.192961153328,0.304928416583,1.0,-0.174951428571,-0.229936163265,2.948
-0.420707158132,-0.525070832612,-0.13599994026,-2.64458797652,-0.0713726254047,2.11085064435,-0.675224130936,-0.767483367861,-0.0857273231959,0.00561358351693,-0.0643336797725,-0.0102048853182,-0.0267602612136,-0.757216760898,0.573906716783,0.818887277349,0.0059543537479,0.0,0.818883849639,-0.573817073052,-0.0119980988655,0.0,-0.00640850405737,0.0117619401005,-0.999910289896,0.0,0.313550387314,-0.196373337807,0.304943753061,1.0,-0.171522857143,-0.225430040816,2.963
-0.433774420222,-0.526439975269,-0.135883708943,-2.64561735,-0.0715631853744,2.11043831816,-0.687918823845,-0.771776280003,-0.0727443915202,0.00727010153815,-0.0566416372703,-0.0153027970849,-0.0263765398418,-0.744534909448,0.573988607227,0.818829343016,0.0060276605141,0.0,0.818826887033,-0.573898677571,-0.0119826480726,0.0,-0.00635259975823,0.0118137414241,-0.999910035948,0.0,0.31063989657,-0.200207516043,0.30494469635,1.0,-0.167637142857,-0.220323102041,2.98
-0.446511993086,-0.527545084773,-0.135656654941,-2.64648336046,-0.0717218939762,2.11006242438,-0.700348946729,-0.733519078875,-0.059741565936,0.00943178547575,-0.0394621842819,-0.00697951273812,-0.0218770256716,-0.724668872118,0.573962271114,0.818847731907,0.00603739930216,0.0,0.818845128603,-0.573871797143,-0.0120234233265,0.0,-0.0063807825829,0.0118449144184,-0.999909487712,0.0,0.307815604741,-0.203901016505,0.304928803698,1.0,-0.163751428571,-0.215216163265,2.997
-0.458271591593,-0.528373990924,-0.135501262834,-2.64713759037,-0.071827869082,2.10977983973,-0.711855098793,-0.73951390336,-0.044179212679,0.00657111465055,-0.0365230001548,-0.00870208981902,-0.0153412997604,-0.713969806638,0.573977186603,0.818836885508,0.00609024569367,0.0,0.818834747648,-0.573886070706,-0.0120490993366,0.0,-0.00637126246972,0.0119030421045,-0.999908858148,0.0,0.305208912446,-0.207320527824,0.304914101285,1.0,-0.160094285714,-0.210409632653,3.013
-0.470549691914,-0.529036582344,-0.13526294578,-2.64765019118,-0.0719390438552,2.10952303661,-0.723828317177,-0.697544736186,-0.0283189998375,0.013757457806,-0.0229060258558,-0.00263866630214,-0.00732572629054,-0.700932111731,0.57398167848,0.818833771439,0.00608559126654,0.0,0.818831485152,-0.573890417722,-0.0120637586281,0.0,-0.00638587340903,0.0119076794207,-0.999908709729,0.0,0.302507645748,-0.210875196946,0.304907171409,1.0,-0.156208571429,-0.205302693878,3.03
-0.482445806834,-0.529484180424,-0.135076986292,-2.64803549266,-0.0719787686046,2.10931527223,-0.735565646291,-0.696712735102,-0.0253666739052,0.0083169474058,-0.0234628192048,-6.08256281778e-05,-0.0023216367164,-0.686169514806,0.573941622657,0.81886142385,0.00614241111178,0.0,0.818859416522,-0.573849259688,-0.0121255940111,0.0,-0.006404486414,0.0119893851143,-0.999907614332,0.0,0.2998798988,-0.21431569546,0.304882414496,1.0,-0.152322857143,-0.200195755102,3.047
-0.49357124972,-0.52977935934,-0.134883181164,-2.64823903977,-0.072010678074,2.10914431683,-0.746368785094,-0.679739255268,-0.00825418960511,0.0214452406219,-0.00862238162934,-0.0059993242491,-0.00844892627175,-0.677537699922,0.574043354959,0.818789853996,0.00617644888257,0.0,0.8187882603,-0.573950761967,-0.0121266043806,0.0,-0.00638428600513,0.0120186318942,-0.999907392402,0.0,0.297433280989,-0.21753414678,0.304887950467,1.0,-0.148665714286,-0.19538922449,3.063
-0.505525451766,-0.529951919146,-0.134607921535,-2.64838002483,-0.0720240211212,2.10903090031,-0.75824340551,-0.670561143308,-0.00660708667266,0.0123067704568,-0.00677578964189,-0.00275994832852,-0.00154641710213,-0.656862643765,0.573900699827,0.818889769953,0.00618694635822,0.0,0.81888832982,-0.573808122095,-0.0121197856388,0.0,-0.00637477113639,0.0120222030945,-0.999907410176,0.0,0.29480885317,-0.220966417793,0.304884170314,1.0,-0.144551428571,-0.189981877551,3.081
-0.516813799557,-0.529996103626,-0.134432093896,-2.64841662227,-0.0720289491575,2.10892667184,-0.769130226945,-0.65526400805,0.00286304408252,0.0176779135212,0.000717294394046,-0.000562694672612,-0.00869398067257,-0.630862099858,0.574101342588,0.81874879756,0.00622911185575,0.0,0.818747759698,-0.574008253087,-0.0121399455528,0.0,-0.00636412673838,0.0120698627999,-0.999906903818,0.0,0.292301625263,-0.224218441887,0.304879236444,1.0,-0.140665714286,-0.184874938776,3.098
-0.526860423573,-0.529913045557,-0.134159857368,-2.64834327973,-0.072020916447,2.10891432518,-0.779178231116,-0.625592636329,0.00811239397273,0.01417890361,0.00240303377268,-0.00102454664116,0.00851041098501,-0.621018936728,0.573915875481,0.818878951297,0.00621111060328,0.0,0.818878010677,-0.573823536327,-0.0120871703835,0.0,-0.00633396990542,0.0120233923552,-0.999907655167,0.0,0.290100866531,-0.227092228387,0.304888163381,1.0,-0.137008571429,-0.180068408163,3.114
-0.537488279429,-0.529754453373,-0.133988934213,-2.64821468778,-0.0720170144395,2.10890524776,-0.789535945564,-0.621999727517,0.010943151148,0.00822348998288,0.007674111311,1.94432494301e-05,-8.16973624782e-05,-0.608447017629,0.574025574904,0.818801866981,0.00623609540962,0.0,0.818801443176,-0.573933466534,-0.012054855738,0.0,-0.00629155566028,0.0120261509572,-0.999907889768,0.0,0.287731176982,-0.230148215451,0.304892320413,1.0,-0.133122857143,-0.174961469388,3.131
-0.548306879513,-0.529405280775,-0.133691747489,-2.64795078386,-0.0719927494285,2.10891999198,-0.800235627865,-0.57856845437,0.0234157690094,0.0224374807704,0.0172004838465,0.00623167702298,0.000380729646488,-0.587344658139,0.573938869878,0.818862923073,0.00619949688471,0.0,0.818862089777,-0.573847067984,-0.0120485432326,0.0,-0.0063086636813,0.0119918911423,-0.99990819344,0.0,0.285344337097,-0.233234064049,0.30489366263,1.0,-0.129008571429,-0.169554122449,3.149
-0.557004506228,-0.528997897291,-0.133464071094,-2.64766171443,-0.0719840123528,2.10894074356,-0.808903817147,-0.580944554598,0.0282468935118,0.0141580525564,0.0215061566159,-5.20144822187e-05,0.00454471470568,-0.571594844694,0.573822789854,0.81894459797,0.00615615152067,0.0,0.818942993892,-0.573730812267,-0.0120861371741,0.0,-0.0063660255024,0.0119770687047,-0.999908007541,0.0,0.283415997764,-0.235718247424,0.304883870967,1.0,-0.12558,-0.165048,3.164
-0.566830181182,-0.528469142645,-0.13327445991,-2.64726047152,-0.0719251980503,2.10901518476,-0.818439152636,-0.570992683269,0.0342457349789,0.00730804147752,0.0318510292876,0.00667650646337,0.00736243573099,-0.553748091364,0.57397467559,0.818838038424,0.00617134607182,0.0,0.81883670017,-0.573882726895,-0.0120756419187,0.0,-0.00634648821864,0.0119846680479,-0.999908040681,0.0,0.281227566589,-0.238539063318,0.30488432873,1.0,-0.121694285714,-0.159941061225,3.181
-0.577144926841,-0.527651693313,-0.132927475912,-2.64666113536,-0.0718174942029,2.10917185324,-0.828790268185,-0.531313912332,0.0466839459061,0.0108874701653,0.0342010177217,0.010690016076,0.00316746891038,-0.539588477289,0.573780016644,0.818974763597,0.00612992604131,0.0,0.818972969705,-0.573688447833,-0.0120659279406,0.0,-0.00636514527549,0.0119436620212,-0.999908412737,0.0,0.278984041427,-0.241488798422,0.304880240412,1.0,-0.117351428571,-0.154233306123,3.2
-0.585175797458,-0.526966819451,-0.132716855053,-2.64615631093,-0.0717397857377,2.10927944614,-0.836685537982,-0.535036526534,0.0421328793533,0.0138744660693,0.0313037063949,0.00747690232485,0.00515256684073,-0.520515367435,0.573804096614,0.818957988224,0.0061171181568,0.0,0.818955911511,-0.573712361205,-0.0120867076949,0.0,-0.00638916252774,0.0119452824495,-0.999908240205,0.0,0.27720909022,-0.243791721671,0.304873811439,1.0,-0.113922857143,-0.149727183674,3.215
-0.594578685112,-0.526032980727,-0.132491158821,-2.64544855544,-0.0715726822757,2.10942961394,-0.845860793744,-0.51693616046,0.0542619873594,0.0109397055237,0.0405833072757,0.0127239543663,0.00666140487077,-0.500640471597,0.573942132478,0.818860914523,0.00616264021364,0.0,0.818859306586,-0.573849934489,-0.0121010580365,0.0,-0.00637277546325,0.0119918732275,-0.999907787103,0.0,0.275137966394,-0.246498002123,0.304872417682,1.0,-0.109808571429,-0.144319836735,3.233
-0.60283285865,-0.525042500152,-0.132135152172,-2.64474908383,-0.0713873378899,2.10959359365,-0.85423291678,-0.487692236765,0.0604383552345,0.0222644213549,0.0387032242601,0.00992924646615,0.0108907543237,-0.498364631936,0.573712489978,0.819021925197,0.00614912929427,0.0,0.819019686878,-0.573619550428,-0.0121700770058,0.0,-0.00644042311585,0.0120186145269,-0.999907032606,0.0,0.273354217393,-0.248840608626,0.304850693535,1.0,-0.105922857143,-0.139212897959,3.25
-0.610085674135,-0.524216453794,-0.13191051782,-2.64412987493,-0.0712433511163,2.10972497659,-0.861329481609,-0.483687186414,0.051015243608,0.0204498565148,0.0407616345661,0.014530760628,0.00721742230821,-0.46781711083,0.573777645141,0.818976166346,0.00616439736564,0.0,0.818973937515,-0.573684267924,-0.0121982501997,0.0,-0.00645378265007,0.0120477960148,-0.999906595288,0.0,0.271750551592,-0.250910263743,0.3048463456,1.0,-0.102494285714,-0.13470677551,3.265
-0.618059197733,-0.523227782639,-0.131668645619,-2.64332721674,-0.0710561189606,2.10991014261,-0.869132757358,-0.46081163701,0.0579063109555,0.0134825125755,0.0501641157585,0.0108800305244,0.011844962294,-0.461389545438,0.573870121304,0.818911162182,0.00619186799251,0.0,0.818909605,-0.573777186556,-0.0121468484597,0.0,-0.00639456030782,0.0120415254077,-0.999907051312,0.0,0.270004469353,-0.253206701288,0.304870532206,1.0,-0.0986085714286,-0.129599836735,3.282
-0.625974092168,-0.522063055859,-0.131359976067,-2.642423801,-0.0708329209476,2.11012889143,-0.877051914132,-0.427299360455,0.063204168938,0.0216497317076,0.0497832258697,0.0137078098818,0.00794054321227,-0.433123725318,0.573793269997,0.818964916906,0.00620444071488,0.0,0.81896357372,-0.573700389508,-0.0121356870505,0.0,-0.00637933470407,0.0120448183972,-0.999907108905,0.0,0.268296491056,-0.255484100447,0.304880101345,1.0,-0.0944942857143,-0.124192489796,3.3
-0.632360375087,-0.521141888907,-0.131104164215,-2.64172004521,-0.070667536175,2.11030802524,-0.883447322225,-0.427052275527,0.0601420729108,0.0202623718405,0.0483292154625,0.0111143030993,0.013226894861,-0.417782858886,0.573713979704,0.819020482525,0.00620206400266,0.0,0.8190191255,-0.573621159387,-0.0121319607109,0.0,-0.00637881198355,0.0120401163064,-0.99990716887,0.0,0.26689978131,-0.257307655305,0.304883280278,1.0,-0.0910657142858,-0.119686367347,3.315
-0.640266908553,-0.519961493769,-0.130812307459,-2.64076817815,-0.0704370042246,2.11054043635,-0.891133896629,-0.399770161519,0.0650138135389,0.0181160805628,0.0487655933831,0.0132419730436,0.0144760567754,-0.403616088212,0.573837619364,0.818933725887,0.00621981572813,0.0,0.818932947811,-0.573745351933,-0.0120766314319,0.0,-0.00632149211913,0.0120238689567,-0.999907728399,0.0,0.265169938386,-0.259579107993,0.304909059431,1.0,-0.0867228571429,-0.113978612245,3.334
-0.646570387297,-0.51889818252,-0.130625928141,-2.63995717597,-0.0702409914717,2.11075500344,-0.897315892748,-0.392018197381,0.0653944742032,0.0134655962271,0.0495164061848,0.0161100870803,0.0152170289671,-0.379782053189,0.573932977771,0.818866583212,0.00626121609438,0.0,0.818866342595,-0.57384050303,-0.0120721559404,0.0,-0.0062926668471,0.0120559396446,-0.999907524056,0.0,0.263782010714,-0.261406139413,0.304909343479,1.0,-0.0830657142858,-0.109172081633,3.35
-0.652481488806,-0.51783438426,-0.130320015801,-2.63917936945,-0.0700213109408,2.11096221322,-0.90333447095,-0.363211839096,0.0677698451146,0.0194602835653,0.0489688359275,0.0107400364318,0.0122147709225,-0.366984914922,0.57376431657,0.818984718388,0.00626793254676,0.0,0.81898430553,-0.573671351381,-0.012109285735,0.0,-0.00632170834558,0.0120814470431,-0.999907032999,0.0,0.262504759791,-0.263084944194,0.304896341216,1.0,-0.0794085714286,-0.10436555102,3.366
-0.658591520009,-0.516785054519,-0.130025915045,-2.63837727146,-0.0698063583218,2.11118027789,-0.909297880278,-0.35568984961,0.0652854288333,0.0171408347901,0.0509569614774,0.00887014823383,0.0180739909524,-0.353567744162,0.573810926298,0.818952038955,0.00627101698593,0.0,0.818951739037,-0.573718076236,-0.0120981416048,0.0,-0.00631012342302,0.0120779386446,-0.99990714856,0.0,0.26116888602,-0.26482070454,0.304899967288,1.0,-0.0755228571429,-0.099258612245,3.383
-0.664405783905,-0.515681066536,-0.129748592767,-2.63753468079,-0.0695928052204,2.11141448009,-0.915043076017,-0.330756601753,0.0683840292359,0.0181179986995,0.0543531872429,0.0102901786319,0.0219340157796,-0.331473075019,0.573807263266,0.8189545889,0.00627318453267,0.0,0.818954384,-0.573714532183,-0.0120871580716,0.0,-0.00629993773333,0.0120733835184,-0.999907267798,0.0,0.259907172255,-0.266488634477,0.304902421819,1.0,-0.0716371428572,-0.0941516734695,3.4
-0.669608516539,-0.514624838816,-0.129557946763,-2.6367549073,-0.0693753184882,2.11161196199,-0.920144207085,-0.322336627184,0.0643686107222,0.0120521767389,0.0482851402495,0.0134272550686,0.00566188438841,-0.312735394856,0.573890069576,0.818896151352,0.00632678784016,0.0,0.81889634697,-0.573796505107,-0.0121280891694,0.0,-0.0063014781158,0.0121414071473,-0.999906434426,0.0,0.258761281641,-0.267989708978,0.304888347059,1.0,-0.0679800000001,-0.0893451428572,3.416
-0.674870321321,-0.513580741578,-0.129310959447,-2.63596976559,-0.0691562402646,2.11183388775,-0.925326065985,-0.302211315153,0.0607406393759,0.0152433129984,0.0433708843377,0.0111249456308,0.0158670850333,-0.29762051872,0.573914470571,0.818878865518,0.00635066749694,0.0,0.81887937938,-0.573820804683,-0.0121240686755,0.0,-0.0062841194579,0.012158843209,-0.9999063318,0.0,0.257546690241,-0.26957699174,0.304886673824,1.0,-0.0638657142858,-0.0839377959184,3.434
-0.679999643708,-0.512518455598,-0.128953522596,-2.63517796187,-0.0689296107408,2.11205180457,-0.930442184541,-0.274474450739,0.0580699269315,0.022465729408,0.0473948331211,0.00913445612865,0.0056717336922,-0.276245144226,0.573811544653,0.818951171957,0.00632740655848,0.0,0.818951245404,-0.573717743898,-0.0121472173464,0.0,-0.0063179541066,0.0121522849992,-0.999906198313,0.0,0.256510763894,-0.270936441357,0.304878530211,1.0,-0.0599800000001,-0.0788308571429,3.451
-0.684103409581,-0.511661350064,-0.128705012852,-2.63450949893,-0.0687458407177,2.11223143603,-0.934480201091,-0.270956072391,0.0573279182928,0.0229687574026,0.0458326481928,0.0093353159619,0.0137662641976,-0.271387738156,0.573789362632,0.818966788253,0.00631775034486,0.0,0.81896685554,-0.57369584141,-0.0121292199599,0.0,-0.00630908268407,0.0121338791388,-0.999906477853,0.0,0.25580072144,-0.27187758313,0.304886026418,1.0,-0.0572371428572,-0.0752259591838,3.463
-0.688731837988,-0.510630504803,-0.128449556632,-2.63374575811,-0.0685184337984,2.11244649607,-0.938942848721,-0.246651170184,0.0493944365091,0.012302783297,0.0412321349857,0.0165096594944,0.00788289437208,-0.244100765122,0.573894265409,0.81889306166,0.00634606935924,0.0,0.818893365974,-0.573800336125,-0.0121480997504,0.0,-0.00630673929082,0.0121687131661,-0.999906069318,0.0,0.254621674512,-0.27342580345,0.304876153523,1.0,-0.0524371428572,-0.0689173877552,3.484
-0.693030105937,-0.509687888306,-0.128192046749,-2.63306354148,-0.0682902293006,2.11264447697,-0.943187708199,-0.237661118133,0.0523791809596,0.0181666646725,0.0387080802169,0.0150684975131,0.0108343472007,-0.232016557926,0.573888395525,0.818896922711,0.00637858582672,0.0,0.818897439261,-0.573793906539,-0.0121771791195,0.0,-0.00631198235377,0.0122119845051,-0.999905508692,0.0,0.253683188802,-0.274636168197,0.304859847698,1.0,-0.0483228571429,-0.0635100408164,3.502
-0.696377634387,-0.508975753245,-0.127982480547,-2.63251085195,-0.0681202052615,2.11280925607,-0.946387382981,-0.219445604244,0.0506436157288,0.0163133997743,0.0380592276376,0.0104964447948,0.0162309214575,-0.210878326053,0.573961856133,0.818845390043,0.00638449770733,0.0,0.818846167384,-0.573867679149,-0.0121485756332,0.0,-0.00628406925882,0.0122009754047,-0.999905818901,0.0,0.252956540172,-0.275583182544,0.304865915721,1.0,-0.0448942857143,-0.0590039183674,3.517
-0.699853130467,-0.508174640755,-0.127693192278,-2.63190623235,-0.0679124616426,2.11298275756,-0.949825800125,-0.194069148067,0.0443755994616,0.0178022432766,0.0342888646992,0.0102543443933,0.0164295685121,-0.188075897395,0.573906578431,0.818884149142,0.00638250887431,0.0,0.818884912017,-0.573812445252,-0.0121460053962,0.0,-0.00628392925546,0.0121974474552,-0.999905862823,0.0,0.252223876624,-0.276553893653,0.304865042953,1.0,-0.0410085714286,-0.0538969795919,3.534
-0.703155255611,-0.507406469358,-0.127343281012,-2.63130571809,-0.0676991636749,2.1131432198,-0.953046850408,-0.178694112504,0.0460620997295,0.0227404825373,0.0341681182838,0.0117831366415,0.00760315938072,-0.169941072203,0.573845912956,0.818926887638,0.00635356506952,0.0,0.818927385666,-0.573752145181,-0.0121309442111,0.0,-0.0062891058835,0.0121646353948,-0.99990623,0.0,0.251548344966,-0.277463425966,0.304874652051,1.0,-0.0368942857143,-0.0484896326531,3.552
-0.705875052965,-0.506784735379,-0.127060863746,-2.63081263971,-0.0675070314186,2.113284741,-0.955728832035,-0.162214140841,0.0400307678685,0.0140976653893,0.0394460395679,0.00741649726151,0.00846959676596,-0.16506656347,0.573783101311,0.818970967366,0.00634461685506,0.0,0.818971560582,-0.573689798233,-0.0120973246039,0.0,-0.00626763634136,0.012137534881,-0.999906694138,0.0,0.250991144646,-0.278212168383,0.304886453726,1.0,-0.0332371428572,-0.0436831020409,3.568
-0.70850367846,-0.50616664705,-0.126816417462,-2.63035084562,-0.0673163671415,2.11340929465,-0.958200390193,-0.150610061614,0.0342324563123,0.0101849122395,0.0279040846243,0.0125925425364,0.0117442907973,-0.144365492945,0.57384286683,0.818928977103,0.0063593670897,0.0,0.818929694392,-0.573749351347,-0.0121072033264,0.0,-0.00626637754012,0.0121557408491,-0.999906480866,0.0,0.250439045431,-0.278934113766,0.304882922853,1.0,-0.0293514285715,-0.0385761632654,3.585
