nelsonifechukwu/NELSON_IML_WORK/CNN-GradCAM/train2dof/data_sample_2022-02-22-09-06-43/robot_state.csv
position_joint1,position_joint2,position_joint3,position_joint4,position_joint5,position_joint6,position_joint7,velocity_joint1,velocity_joint2,velocity_joint3,velocity_joint4,velocity_joint5,velocity_joint6,velocity_joint7,ee_T_00,ee_T_10,ee_T_20,ee_T_30,ee_T_01,ee_T_11,ee_T_21,ee_T_31,ee_T_02,ee_T_12,ee_T_22,ee_T_32,ee_T_03,ee_T_13,ee_T_23,ee_T_33,v_x,v_y,time
0.465072756188,0.547804443502,-0.123985390203,-1.35584875816,0.0795212098026,1.89410349639,0.159156955334,4.8528178146e-05,0.000453980030412,0.00133485105391,0.00166027004351,0.00270522971315,-0.000166630342438,0.00106499564531,0.573809035467,0.818975109244,0.00192565738846,0.0,0.818931416955,-0.573750342075,-0.0119426209127,0.0,-0.00867602972177,0.00842992742281,-0.999926828739,0.0,0.661671765235,0.26089312617,0.30319059598,1.0,0.0,0.0,0.0
0.465070765491,0.547807457313,-0.123988148011,-1.35585221106,0.0795211703296,1.89410512416,0.159156604521,0.00049663849439,0.000928930270322,0.000229289977331,-0.000318845982441,0.000103313160268,3.08652356477e-05,0.00169681988735,0.573812499847,0.818972693391,0.00192078140065,0.0,0.81892895046,-0.573753839073,-0.0119437493882,0.0,-0.00867971601445,0.00842661842902,-0.999926824639,0.0,0.661672372576,0.260889866511,0.303187050241,1.0,-0.00012,-0.000157714285714,0.007
0.465068025471,0.547808300943,-0.123991690345,-1.35585231289,0.0795218823863,1.8941034951,0.159154036596,-0.000714293973131,0.000439037403534,-0.000729740759262,0.000361032518175,-0.000162418716659,-0.000174482083369,-0.000712078961818,0.573815300104,0.818970737475,0.00191818320341,0.0,0.818926969977,-0.573756658943,-0.0119440807504,0.0,-0.00868144937938,0.00842471044067,-0.999926825668,0.0,0.661673490075,0.260885984524,0.303186381271,1.0,-0.00044,-0.000578285714286,0.023
0.465072242629,0.547784686238,-0.123991609661,-1.35586396936,0.0795218429585,1.89410653037,0.15915363093,0.00141828850306,-0.00737091139597,-0.000477800809066,-0.00404264731051,1.84227718068e-05,-7.38394901333e-05,-0.000305011766348,0.573812063889,0.818972972848,0.00193183343012,0.0,0.818929375762,-0.573753358497,-0.0119376726918,0.0,-0.00866840226831,0.00843217809588,-0.999926875914,0.0,0.661670934137,0.260887951388,0.303197823092,1.0,-0.0008,-0.00105142857143,0.041
0.465066930909,0.547736177101,-0.123986757423,-1.35591159657,0.0795181947271,1.89411556302,0.159149174986,-0.00241270890988,-0.00384412641742,0.000474367420736,-0.0025789791513,0.000212402060433,0.00245045204673,-0.00209631629157,0.573810985686,0.81897370454,0.00194187522837,0.0,0.818930209848,-0.573752210634,-0.0119356228563,0.0,-0.00866097281213,0.00843921428525,-0.999926880933,0.0,0.661663577849,0.260882253143,0.303210136279,1.0,-0.0011,-0.00144571428571,0.056
0.465065299843,0.547583968718,-0.12398604715,-1.35610814615,0.0795191268298,1.89416445695,0.159151683952,0.000193660316378,-0.00925933431003,0.000529148920341,-0.00912718861128,5.3514033347e-06,0.0014144122459,0.000630546023887,0.573824927977,0.818963906198,0.00195429754176,0.0,0.818920422285,-0.573765951775,-0.0119466082767,0.0,-0.00866269837478,0.00845583860321,-0.999926725541,0.0,0.661632501643,0.260863725954,0.30322863603,1.0,-0.0015,-0.00197142857143,0.076
0.465053579059,0.547470322435,-0.123988561557,-1.3562674463,0.0795147018487,1.8942141742,0.159153156471,0.00019599941661,-0.00954794348744,0.000238454085386,-0.0141553421117,-0.00040841589568,0.00336981350402,0.00184543316531,0.573845157213,0.81894971725,0.00196037246599,0.0,0.818906267097,-0.573786108677,-0.011948811606,0.0,-0.00866080814479,0.00846229189813,-0.999926687322,0.0,0.661612778229,0.260839758999,0.303237712685,1.0,-0.00176,-0.00231314285714,0.089
0.465030815973,0.547300284411,-0.123992374878,-1.3564789807,0.0795122282044,1.89433747705,0.159142004287,0.000127460904067,-0.00961451118174,-0.00124202622486,-0.015645681251,-3.64359064357e-05,0.00683291069034,0.00110488921523,0.573868778653,0.818932986424,0.00203360144046,0.0,0.818890481225,-0.573809414122,-0.0119114619041,0.0,-0.00858795476342,0.00850107662913,-0.999926986699,0.0,0.661600316937,0.260807603288,0.303268306646,1.0,-0.0021,-0.00276,0.106
0.46500800942,0.547087549232,-0.123987103653,-1.35672850552,0.0795100349086,1.89446708593,0.159128338987,-0.00325689784885,-0.00882251510191,0.000750878443916,-0.0155279078648,-6.67318687281e-05,0.00278675072358,-0.00388505643491,0.57388613536,0.81892060256,0.0021206711395,0.0,0.818879144657,-0.573826328472,-0.0118759462641,0.0,-0.00850872395603,0.00855217893002,-0.999927228278,0.0,0.661579428995,0.260777202632,0.303311302298,1.0,-0.00246,-0.00323314285714,0.124
0.464978992089,0.546878725884,-0.123989243321,-1.35703365139,0.0795059502489,1.89458887388,0.159109649159,-0.000668611784552,-0.0167245820246,0.000657749842874,-0.0239182195358,-0.000322205905127,0.00750099774234,-0.00310408666946,0.573912127934,0.818902311991,0.00214935533138,0.0,0.818861123439,-0.573852097915,-0.0118733794825,0.0,-0.00848988929999,0.00857446509094,-0.999927197514,0.0,0.661547524489,0.260730899249,0.303324606231,1.0,-0.00278,-0.00365371428571,0.14
0.464949591845,0.546617908353,-0.12398924332,-1.35742010814,0.0794958155255,1.89473325585,0.159067906508,0.000149714982883,-0.0167592172483,0.00021511670695,-0.022491255693,-0.0046655781376,0.0110418308917,-0.00236816324631,0.573920951111,0.818896066944,0.00217263006495,0.0,0.818855064851,-0.573860709029,-0.0118750284736,0.0,-0.00847779030604,0.00859456224071,-0.999927127631,0.0,0.66150277087,0.260677164746,0.303337900844,1.0,-0.00312,-0.00410057142857,0.157
0.464904466661,0.546323696624,-0.123989243433,-1.35785840243,0.0794855213349,1.89488966495,0.158925659996,-0.00482973566968,-0.0191655856424,0.000411060033659,-0.0265380076151,-0.000213313409874,0.0138810020393,-0.00484988501771,0.573863152229,0.818936516522,0.0021934725157,0.0,0.818895624729,-0.573802670607,-0.011882672497,0.0,-0.00847269715997,0.00861541881564,-0.999926991316,0.0,0.661453479327,0.260608103925,0.303351198374,1.0,-0.00346,-0.00454742857143,0.174
0.464871746041,0.546051652623,-0.123987449054,-1.35833610698,0.0794704737817,1.89505894206,0.158914021722,-0.00474075955107,-0.017152365608,0.000324807473672,-0.0323134042465,5.49232240983e-05,0.0116004269684,-0.00188498314169,0.573901904902,0.81890942457,0.00216905537462,0.0,0.8188680679,-0.573841367574,-0.0119129818256,0.0,-0.00851112325473,0.00861321897774,-0.999926683932,0.0,0.6613937024,0.260543414736,0.303331073865,1.0,-0.00378,-0.004968,0.19
0.464806389182,0.545708461982,-0.123989563016,-1.35891545178,0.0794319129572,1.89524397887,0.158863256592,-0.00416205622828,-0.0196576998479,-0.000745027439993,-0.0347218390628,-0.00384814202377,0.00589918487908,-0.00589540801359,0.573937332257,0.818884716501,0.00212288130534,0.0,0.818842754489,-0.57387697475,-0.0119376787479,0.0,-0.00855747473378,0.00858995085259,-0.999926488483,0.0,0.661326272534,0.260441008699,0.3033143806,1.0,-0.00412,-0.00541485714286,0.207
0.464746473335,0.545336836161,-0.123992439618,-1.35957530894,0.079320890028,1.89545972763,0.158736784359,-0.00332403016514,-0.025156836161,-0.000265704239322,-0.0416552210162,-0.00733667480445,0.0133377337801,-0.00670942705856,0.573892090104,0.818916681423,0.00202106512354,0.0,0.818873996861,-0.573832758436,-0.0119201305247,0.0,-0.00860200597184,0.00849602987164,-0.999926908814,0.0,0.661249963811,0.260322928291,0.303282030725,1.0,-0.00446,-0.00586171428571,0.224
0.464681465481,0.544940940328,-0.123995261082,-1.36023483475,0.0793147032063,1.89567209645,0.158692452471,-0.00486073301423,-0.0281856754236,-0.00114906261388,-0.0417465428153,-0.000559590941412,0.0101507060518,-0.000317598123462,0.573945999153,0.818878963423,0.00199504911677,0.0,0.818835599947,-0.573886434498,-0.0119736151209,0.0,-0.00866017664959,0.00850598950116,-0.999926322027,0.0,0.661169065403,0.260218627168,0.303266885781,1.0,-0.00478,-0.00628228571429,0.24
0.46460749273,0.544479391923,-0.123997348235,-1.36100071162,0.0792902015541,1.89594306201,0.158583275244,-0.00462344374376,-0.0267258377383,-0.000210250377311,-0.0407892214777,-0.0025293837666,0.00752810304157,-0.00384913366086,0.573954811284,0.818872829346,0.00197759029845,0.0,0.818829021916,-0.573895107458,-0.012007722761,0.0,-0.00869803597858,0.00851136245115,-0.999925947698,0.0,0.661080234759,0.260098080839,0.303252582725,1.0,-0.00514,-0.00675542857143,0.258
0.464539414776,0.543991288038,-0.123998839654,-1.36180408442,0.0792550332679,1.89623233879,0.158470119515,-0.00222935885332,-0.031285779318,-0.00396137181795,-0.0485003541284,-0.00609270139352,0.0150881022287,-0.00808937691351,0.573954362147,0.818873182162,0.00196178759883,0.0,0.818829031016,-0.573894591669,-0.0120317297135,0.0,-0.00872676952177,0.00851219627799,-0.999925690243,0.0,0.660985950424,0.259977196751,0.303240727942,1.0,-0.00548,-0.00720228571429,0.275
0.464465906065,0.543504202238,-0.124001764727,-1.36259696927,0.0792122904531,1.896494068,0.158388352232,-0.00397393264461,-0.0349160795647,0.00031339451967,-0.0482627039431,-0.00327711939285,0.015144938886,-0.00430962767442,0.573982242229,0.818853723844,0.00192651338478,0.0,0.8188090267,-0.573922537718,-0.0120600744156,0.0,-0.00876993624272,0.00849987875302,-0.999925417358,0.0,0.660890606998,0.259850034195,0.303230732608,1.0,-0.0058,-0.00762285714286,0.291
0.464391829764,0.542953641564,-0.123999926063,-1.36346425778,0.0791619483262,1.89681406207,0.158271838156,-0.00283855372308,-0.0352057923172,0.0031352554433,-0.0548621990924,-0.00147359209323,0.0203719178095,-0.00609508978223,0.573981057913,0.818854544732,0.00193044838957,0.0,0.818809860786,-0.5739212994,-0.0120623743665,0.0,-0.00876957346359,0.00850440831317,-0.999925382026,0.0,0.660790791196,0.259719994872,0.303235057659,1.0,-0.00614,-0.00806971428571,0.308
0.464311845213,0.542334133685,-0.124005224932,-1.36443803825,0.0791087385288,1.89716243137,0.158140329569,-0.00345137019272,-0.0326069625599,2.36046103073e-05,-0.0510317240882,-0.0015409003342,0.0205620303966,-0.00166605068136,0.573982457621,0.81885357112,0.00192725412315,0.0,0.818808793686,-0.573922662667,-0.0120699444783,0.0,-0.00877759131709,0.0085061527885,-0.999925296837,0.0,0.660677093902,0.259571647882,0.303240085468,1.0,-0.0065,-0.00854285714286,0.326
0.464241702873,0.541780550595,-0.12400580892,-1.36528751714,0.0790592500627,1.89747472409,0.158031995736,-0.00187917161909,-0.0372760253041,0.00137471471766,-0.0602583722609,-0.000157938267193,0.0176398222768,-0.00485943657627,0.573985542694,0.818851373611,0.00194206458216,0.0,0.818806766823,-0.573925660716,-0.0120648861501,0.0,-0.00876491664978,0.00851540979389,-0.999925329228,0.0,0.660579141117,0.259444589358,0.303254289738,1.0,-0.0068,-0.00893714285714,0.341
0.464149925308,0.541093902992,-0.124008421011,-1.36635131961,0.0789941854129,1.89787637583,0.157885041523,-0.00352165451611,-0.0358427365455,0.000991105320606,-0.0608533464567,-0.00658919159738,0.0134426356856,-0.00521088130187,0.573983894206,0.81885248321,0.00196133468539,0.0,0.818808150947,-0.573923951131,-0.0120522679457,0.0,-0.00874354092379,0.00852392862866,-0.999925443787,0.0,0.660459855479,0.259281920148,0.303268287527,1.0,-0.00716,-0.00941028571429,0.359
0.464062730009,0.540383030089,-0.124011643817,-1.36742688169,0.0789279691065,1.89826471816,0.157752902555,-0.00294092516961,-0.0374286011459,0.00341137744329,-0.0623420374652,-0.000389805454698,0.0285604975931,-0.00546499496973,0.573991160744,0.818847343422,0.00198051996718,0.0,0.818803269415,-0.573931141608,-0.0120414944722,0.0,-0.00872363163059,0.00853353191039,-0.99992553577,0.0,0.660334653281,0.259119769326,0.303292561973,1.0,-0.0075,-0.00985714285714,0.376
0.463954706035,0.53968838591,-0.12401375229,-1.36850981262,0.07886590942,1.89867028089,0.157618530325,-0.00431530061238,-0.0462122160579,-0.00017662314918,-0.0710067278491,-0.00264907302083,0.0236746289086,-0.0117229951259,0.574014452808,0.818830978414,0.00199591033307,0.0,0.818787083614,-0.573954343406,-0.0120362075574,0.0,-0.00871022590471,0.0085433471816,-0.999925568822,0.0,0.660215458015,0.258945270254,0.303303221247,1.0,-0.00782,-0.0102777142857,0.392
0.463861685447,0.538925500739,-0.124020182264,-1.36967813734,0.0787996865024,1.89911469937,0.157475999962,-0.00485780951432,-0.041396108472,-0.00114218500779,-0.0682529288279,-0.00660465886221,0.0288464075867,-0.0113482926764,0.574025364348,0.818823247067,0.0020292976012,0.0,0.818779790053,-0.573965113097,-0.0120187873603,0.0,-0.00867668351801,0.00856080147931,-0.999925711161,0.0,0.660083181639,0.25877090481,0.303324842888,1.0,-0.00816,-0.0107245714286,0.409
0.463738394719,0.538109914143,-0.124023289458,-1.37094555653,0.0787318194094,1.89961650225,0.157324646792,-0.00518709339993,-0.044102478753,-0.00014569792832,-0.0720326951847,-0.0115361441314,0.0273497450753,-0.012082873767,0.574050860171,0.818805265354,0.00207226142789,0.0,0.818762343294,-0.57399039881,-0.0119997574449,0.0,-0.00863617268854,0.00858532599985,-0.9999258516,0.0,0.659955411829,0.258583321192,0.303340894294,1.0,-0.0085,-0.0111714285714,0.426
0.463641285764,0.537398529926,-0.124025108938,-1.37206439792,0.0786657159577,1.90003084907,0.157182470071,-0.00348812747831,-0.0489776436712,0.0016420727824,-0.0729200103895,-0.00617508047396,0.0243532561238,-0.00844803150191,0.574064978275,0.818795348435,0.00207966357495,0.0,0.818752507214,-0.574004468413,-0.0119978778783,0.0,-0.00863023657184,0.00859045666263,-0.999925858787,0.0,0.659819041536,0.258399860404,0.303347050324,1.0,-0.00882,-0.011592,0.442
0.463529517402,0.536554919454,-0.124037867244,-1.37337491226,0.0785935956065,1.90051619459,0.157023389323,-0.0103037109397,-0.0511221847761,-0.00150257098809,-0.0767436066261,-0.00462307810942,0.0225656503308,-0.00722563647601,0.574088040827,0.818779137711,0.00209569322274,0.0,0.818736494149,-0.574027449527,-0.011991131702,0.0,-0.00861526891013,0.00859995140381,-0.999925906244,0.0,0.659669951243,0.258195489453,0.303361345706,1.0,-0.00916,-0.0120388571429,0.459
0.463410098847,0.535689246747,-0.124041404624,-1.37473676389,0.0785122206465,1.90101589253,0.156854932212,-0.00718649014857,-0.054350705697,-0.000287116547431,-0.0831243851099,0.000161492007377,0.0305702688885,-0.00808998535565,0.574103405345,0.818768359262,0.00209779498075,0.0,0.818725731017,-0.574042791247,-0.0119915840577,0.0,-0.00861427136905,0.00860209358909,-0.999925896412,0.0,0.659512456265,0.25798511589,0.303367549601,1.0,-0.0095,-0.0124857142857,0.476
0.46330002939,0.534842406202,-0.124042707903,-1.37609818394,0.0784404061212,1.90149826187,0.156689256107,-0.00821062894961,-0.0542659058074,-0.000735765840693,-0.0850193032593,-0.0025920884551,0.0307853880024,-0.00523405054668,0.574116924728,0.818758932439,0.00207706371473,0.0,0.818715885511,-0.574056248346,-0.0120195444251,0.0,-0.00864892447685,0.00860131454241,-0.999925603979,0.0,0.659337269564,0.257770711572,0.303359949691,1.0,-0.00984,-0.0129325714286,0.493
0.463164756293,0.533895152101,-0.124048171159,-1.37765968029,0.0783436717049,1.90206706468,0.156497526593,-0.00972328023047,-0.0578709959852,-0.00105061593242,-0.0882570488029,-0.0074767912702,0.0344964617621,-0.0111446908767,0.574131405015,0.818748890488,0.00203248650266,0.0,0.818705277927,-0.574070932273,-0.0120407439462,0.0,-0.00869172166779,0.00857714180287,-0.999925440527,0.0,0.659164022405,0.257540065421,0.303333408853,1.0,-0.01018,-0.0133794285714,0.51
0.463034137908,0.532973371211,-0.124043948828,-1.37914779976,0.0782679581123,1.90264223177,0.156310577681,-0.0119383157832,-0.0540787739065,-0.00141833045613,-0.0930535310007,-0.00393972429048,0.0389888659162,-0.0110749129805,0.574143628375,0.818740284125,0.00204647233242,0.0,0.818696716341,-0.57408295815,-0.0120495110225,0.0,-0.00869074251145,0.00859375561363,-0.99992530639,0.0,0.658993426545,0.257318641854,0.303324893074,1.0,-0.01052,-0.0138262857143,0.527
0.462912649236,0.53207339659,-0.124042121009,-1.38060661607,0.0781880132408,1.90317700104,0.1561255659,-0.0133503651004,-0.0560645484636,0.0010367191846,-0.089571945398,-0.00531334194832,0.0304967025948,-0.010982353801,0.574148543412,0.818736878953,0.00202978839666,0.0,0.818692975977,-0.574087828424,-0.0120715882588,0.0,-0.00871834553739,0.00859282375702,-0.999925074109,0.0,0.658819066501,0.257101647354,0.303311328196,1.0,-0.01084,-0.0142468571429,0.543
0.462788310195,0.531057655156,-0.124044611748,-1.38222590603,0.0780827328567,1.90375478461,0.155917754353,-0.0075870376611,-0.0558350011637,-0.000364133244228,-0.0952137085318,-0.00867102875046,0.0312258100611,-0.0105567136519,0.574141753153,0.818741706471,0.00200306571937,0.0,0.818697475493,-0.574081175394,-0.0120828217708,0.0,-0.00874295612201,0.00857732246223,-0.999924992316,0.0,0.658621620966,0.256861600735,0.303306609296,1.0,-0.01118,-0.0146937142857,0.56
0.462644466133,0.530031026915,-0.12404890224,-1.38386520108,0.0779924001731,1.9043389858,0.155705760627,-0.01277941448,-0.0603106183041,-0.0022726890846,-0.0947000909507,-0.00836709029286,0.0305094684889,-0.0168033980949,0.574153751627,0.818733342293,0.0019825770962,0.0,0.818688723559,-0.574093144183,-0.0121071309876,0.0,-0.0087744968366,0.00857463327849,-0.999924739103,0.0,0.658425207037,0.256608297499,0.303300453717,1.0,-0.01152,-0.0151405714286,0.577
0.462515368163,0.529036564653,-0.124052468624,-1.38542616034,0.0778872603034,1.9049251992,0.155500335594,-0.0112214878207,-0.0592802152617,-0.000528031657521,-0.0946001711252,-0.0074942085096,0.0397386984524,-0.00705943779917,0.574150233554,0.818735787157,0.00199174299136,0.0,0.818691394326,-0.574089690318,-0.0120902948302,0.0,-0.0087554865079,0.00857243349315,-0.999924924602,0.0,0.658243085327,0.25637177462,0.30330880396,1.0,-0.01184,-0.0155611428571,0.593
0.462371783812,0.527939431247,-0.124049964326,-1.38713770959,0.0777850827722,1.90558855992,0.15525293785,-0.00652678354876,-0.0641636847321,0.00013417419455,-0.0944984595517,-0.000914225648269,0.0403217588715,-0.0152661743717,0.574128879207,0.818750659317,0.00203342811203,0.0,0.818706805392,-0.574068152507,-0.0120693820277,0.0,-0.00871465595731,0.00859432767729,-0.999925093346,0.0,0.658045539488,0.256118438391,0.303324043944,1.0,-0.01218,-0.016008,0.61
0.462231163667,0.526769423845,-0.124050209326,-1.38891869894,0.077666039121,1.9062648014,0.1550096179,-0.00846676372672,-0.0719724132504,0.000330778858222,-0.104524321687,-0.00109054586409,0.0444613867885,-0.0140909922132,0.574109165593,0.818764359212,0.00208253856986,0.0,0.818721255451,-0.574048339411,-0.012031491731,0.0,-0.00865564545775,0.00861257408973,-0.999925448906,0.0,0.657836484779,0.255856367905,0.303358400785,1.0,-0.01252,-0.0164548571429,0.627
0.462072469371,0.525600357636,-0.124053082757,-1.39075818342,0.0775611225594,1.90693401574,0.154766337067,-0.0109049044355,-0.0657337360934,0.0010412700988,-0.110836104927,-0.00743396775455,0.0424654295781,-0.0123661609062,0.574112823728,0.818761789627,0.00208431747094,0.0,0.818718618443,-0.57405189934,-0.0120410788672,0.0,-0.00866243565802,0.00861957326285,-0.999925329795,0.0,0.657616147359,0.255575760212,0.30336347884,1.0,-0.01286,-0.0169017142857,0.644
0.461920919091,0.524411110261,-0.124064153143,-1.39262436903,0.0774394325037,1.9075948386,0.154517702625,-0.00911845467146,-0.069068082932,-0.000965226379703,-0.107348054048,-0.00796518432198,0.039599651774,-0.0227303472353,0.574108510657,0.81876486535,0.00206401575922,0.0,0.818721486492,-0.574047730219,-0.0120448282642,0.0,-0.00867720569326,0.00860505814044,-0.99992532675,0.0,0.657388751624,0.255288962197,0.303369234502,1.0,-0.0132,-0.0173485714286,0.661
0.461759698724,0.523212670085,-0.124064881578,-1.39453334618,0.0773231328173,1.9083154226,0.15424853578,-0.00988964733235,-0.0686368903882,0.000918286447487,-0.114506826105,-0.00769989323642,0.0411249740762,-0.00912410145676,0.574091862233,0.818776522003,0.00207066041974,0.0,0.818733223919,-0.574031049665,-0.0120419671554,0.0,-0.00867122355925,0.00860867957404,-0.999925347472,0.0,0.657162675886,0.255001793321,0.303365651308,1.0,-0.01354,-0.0177954285714,0.678
0.461605829532,0.522047618797,-0.124073479458,-1.39637174946,0.0772129529813,1.90903517235,0.154008360626,-0.0100617815313,-0.071343243442,0.000592491415342,-0.116659941845,-0.005507243958,0.0463639533116,-0.0160291875387,0.574096293584,0.818773323704,0.00210641515905,0.0,0.81873055147,-0.574035388061,-0.0120168317253,0.0,-0.00863007056451,0.0086235710294,-0.999925575183,0.0,0.656951150903,0.254723758279,0.303372055207,1.0,-0.01386,-0.018216,0.694
0.461439223363,0.520791879377,-0.124074421677,-1.39839202178,0.0770831387599,1.90979591112,0.153737356045,-0.00756450334678,-0.0734434528462,-0.00101570164086,-0.122940677155,-0.00844512975779,0.0500483651582,-0.0157488782303,0.574084446688,0.818781654243,0.00209705690944,0.0,0.818738808176,-0.57402363027,-0.0120159385832,0.0,-0.00863483609774,0.00861527119835,-0.999925605587,0.0,0.656709240312,0.254421099971,0.303358596838,1.0,-0.0142,-0.0186628571429,0.711
0.461275393262,0.519477314043,-0.124074835001,-1.40043456441,0.0769526464125,1.91052694358,0.15346172061,-0.00679368134852,-0.0807770033111,-0.000673154222051,-0.120243037553,-0.00652169861246,0.0405664080665,-0.0182336270654,0.574066514377,0.818794227262,0.00209699198223,0.0,0.818751370343,-0.574005690517,-0.0120169761906,0.0,-0.00863591167132,0.00861562457162,-0.999925593253,0.0,0.656456184953,0.254116661662,0.303372839199,1.0,-0.01454,-0.0191097142857,0.728
0.461110157388,0.518218742107,-0.124086515836,-1.40241137079,0.0768269043801,1.91122959503,0.153185809114,-0.00504629703422,-0.0748968539094,-0.00132110044501,-0.128109542147,-0.00375256601889,0.0412586529102,-0.0166121732802,0.574055006889,0.818802341604,0.00207878580569,0.0,0.818759275007,-0.573994289137,-0.0120230000355,0.0,-0.00865141596796,0.00860405418209,-0.999925558856,0.0,0.656213480178,0.25381069149,0.303376602868,1.0,-0.01486,-0.0195302857143,0.744
0.460917811989,0.516775951753,-0.124087453119,-1.40467614226,0.0766859786473,1.91205463369,0.15286855003,-0.0120271838262,-0.0837377461666,5.37087470521e-06,-0.123778777898,-0.00263219060396,0.0520018012871,-0.0130672442809,0.574035181995,0.818816238188,0.00207961842237,0.0,0.818773154775,-0.573974435695,-0.0120256013836,0.0,-0.0086532764788,0.0086060197078,-0.999925525842,0.0,0.655936390026,0.253467326894,0.303382437711,1.0,-0.01522,-0.0200034285714,0.762
0.46074785643,0.515491502926,-0.124090701075,-1.40672789309,0.076558881866,1.91283834719,0.152596877891,-0.0109246264162,-0.0832154460128,-0.00106089412271,-0.131817446104,-0.00233759849898,0.0495340038151,-0.0210491089682,0.574038774137,0.818813676891,0.00209647930669,0.0,0.818770867778,-0.57397801031,-0.0120106893798,0.0,-0.00863134989219,0.00861130338361,-0.999925669864,0.0,0.655679634,0.253130770933,0.303381195393,1.0,-0.01556,-0.0204502857143,0.779
0.460553912287,0.514098866569,-0.124097746827,-1.40897250459,0.0764186739509,1.91362675137,0.152290993529,-0.00934200790548,-0.0817662244569,-0.000170623585805,-0.130846526359,-0.0186015960152,0.0482215943437,-0.0174978812178,0.574021863078,0.818825694654,0.00203208870545,0.0,0.818781973588,-0.573961303951,-0.0120518959378,0.0,-0.00870222932496,0.00858205459176,-0.999925306982,0.0,0.655409777289,0.252811496911,0.303351160868,1.0,-0.01588,-0.0208708571429,0.795
0.460357259493,0.512688952906,-0.1240947064,-1.41124272008,0.0762909284635,1.91441738553,0.151982354023,-0.0112606359564,-0.0803854694791,0.000449221570462,-0.136597365936,-0.00488542975023,0.0420856108908,-0.0220206192884,0.574012499794,0.818832385702,0.00198017859869,0.0,0.818787746842,-0.573951931735,-0.0121058903092,0.0,-0.00877633668273,0.00857044333938,-0.999924758877,0.0,0.655120529195,0.252466564647,0.30332699562,1.0,-0.01622,-0.0213177142857,0.812
0.460161482695,0.511246173757,-0.124105423295,-1.41353383489,0.0761400956219,1.9152930454,0.151645822584,-0.00780473475416,-0.0880977873589,-0.00125892659635,-0.138665076952,-0.00306537248443,0.0526635040776,-0.014187620419,0.573984154446,0.818852224505,0.0019929297447,0.0,0.818807898779,-0.573923677581,-0.0120823884192,0.0,-0.00875006953211,0.00856709106022,-0.999925017806,0.0,0.654847420858,0.252114185261,0.303323199118,1.0,-0.01656,-0.0217645714286,0.829
0.459966671076,0.50985827943,-0.124109574722,-1.41573175477,0.0760132018527,1.91612348537,0.151341904656,-0.0146215235534,-0.0936756149601,-0.000685962598966,-0.13146772237,-0.00681513180055,0.0545707322194,-0.0168066738708,0.573978394846,0.818856215395,0.00201187980745,0.0,0.81881207228,-0.573917772753,-0.0120800375645,0.0,-0.00873732848441,0.00858119725991,-0.99992500826,0.0,0.654582162451,0.251777452505,0.303320774814,1.0,-0.01688,-0.0221851428571,0.845
0.459752511409,0.508276079421,-0.124113500007,-1.41825309327,0.07584722284,1.91701749287,0.150988843246,-0.0113847660253,-0.0850374328144,-8.91463362739e-05,-0.145222649934,-0.0118239476194,0.052634059014,-0.0244222042719,0.573953353107,0.818873877581,0.00196671647386,0.0,0.818829154346,-0.573892940871,-0.0121018722903,0.0,-0.00878139145633,0.00855647970579,-0.999924834085,0.0,0.654263403609,0.25139056151,0.303305379826,1.0,-0.01724,-0.0226582857143,0.863
0.459535542154,0.506734748984,-0.124118503679,-1.42066496888,0.0756963191414,1.91789580587,0.150649397645,-0.00732280839683,-0.0871891920469,0.00112237900929,-0.145143574952,-0.012218833847,0.0541640273573,-0.0226045070427,0.573940703032,0.818882734318,0.00197072078255,0.0,0.818838048963,-0.573880260757,-0.0121013546415,0.0,-0.00877880164033,0.00855932594474,-0.999924832465,0.0,0.653965719127,0.251015063052,0.303311589391,1.0,-0.01758,-0.0231051428571,0.88
0.459335471356,0.505306746132,-0.124125519451,-1.42284472433,0.0755567046864,1.91872582511,0.150364848889,-0.0112460597084,-0.0977554822812,0.000655497159742,-0.139297555341,-0.00760721003777,0.0589252693713,-0.0162838421712,0.573951428453,0.818875068027,0.00203165956217,0.0,0.818831273656,-0.57389081332,-0.0120592939609,0.0,-0.00870927208454,0.00858520067363,-0.999925218658,0.0,0.653705729852,0.250674068937,0.303344360037,1.0,-0.01788,-0.0234994285714,0.895
0.459099917548,0.503557620533,-0.124133802662,-1.42545587915,0.0753905210779,1.91972485128,0.14999331989,-0.0115466045803,-0.0979574375856,-0.00316689670526,-0.140259400375,-0.0163651442514,0.0534273138701,-0.024916647898,0.573935511657,0.818885939327,0.00214329939367,0.0,0.81884371664,-0.573874540747,-0.0119885822027,0.0,-0.00858746177828,0.00863586656912,-0.999925835904,0.0,0.653394046627,0.250269429534,0.303410232654,1.0,-0.01824,-0.0239725714286,0.913
0.458860722444,0.501861422591,-0.124137660894,-1.42796225258,0.0752361353026,1.92064637036,0.149637383785,-0.0102733445828,-0.100285668336,-0.00103830215379,-0.148033764617,-0.003958744231,0.0524702270009,-0.0226873098719,0.5739292737,0.818890054352,0.00223932446147,0.0,0.818849074475,-0.573867900423,-0.0119403935111,0.0,-0.00849295657995,0.00868677738563,-0.999926202071,0.0,0.653088790513,0.249873529578,0.303481444752,1.0,-0.01858,-0.0244194285714,0.93
0.458643009816,0.500236452356,-0.124135646376,-1.43040587045,0.0750760527225,1.92150913748,0.149295244026,-0.0115550076284,-0.100062494574,-0.000826800338912,-0.150208935519,-0.0174534630114,0.0499213550888,-0.0172734728307,0.573906990377,0.818905572962,0.00227505368463,0.0,0.818865043135,-0.57384546003,-0.0119237593052,0.0,-0.00845906658068,0.00870625837287,-0.999926319914,0.0,0.652777548917,0.249496889231,0.303526922743,1.0,-0.0189,-0.02484,0.946
0.458391262091,0.498561731208,-0.124138755143,-1.43303165056,0.0749181540261,1.92248399471,0.148916172894,-0.0150570894114,-0.0990978138783,0.000658876403485,-0.155427332925,-0.00912617111447,0.0623015050083,-0.0199532496372,0.573896073394,0.818913165043,0.00229607571677,0.0,0.818872846023,-0.573834395238,-0.0119203938282,0.0,-0.00844436279821,0.00872142918273,-0.99992631199,0.0,0.652454501209,0.249082044868,0.303529816594,1.0,-0.01924,-0.0252868571429,0.963
0.458135230638,0.496885104012,-0.124138747632,-1.43569670163,0.0747511698687,1.92344341402,0.148527172187,-0.0134493958146,-0.0947760626381,0.000353433273918,-0.154463421315,-0.00459631938039,0.0560208244035,-0.0163821708528,0.573877056178,0.818926564366,0.0022701251268,0.0,0.818885831693,-0.573815406895,-0.0119423767817,0.0,-0.00847746003223,0.00871259707825,-0.999926108932,0.0,0.652118537519,0.24865929023,0.303513299364,1.0,-0.01958,-0.0257337142857,0.98
0.457882732884,0.495309087172,-0.124136277471,-1.43826014252,0.0745919624298,1.92431538787,0.148159581867,-0.0132082546144,-0.0933976880782,-2.52458614131e-05,-0.166675927628,-0.0116319758445,0.0527969301518,-0.0238236482369,0.573867111144,0.818933795633,0.00217348085028,0.0,0.818891612958,-0.573805666762,-0.0120137388072,0.0,-0.00859146650501,0.00867430182975,-0.999925468818,0.0,0.651783965828,0.248246559893,0.303466842388,1.0,-0.0199,-0.0261542857143,0.996
0.457584165795,0.493481675951,-0.124170891102,-1.44115553815,0.0744103279958,1.92535951839,0.14775297244,-0.0163060280753,-0.122273809057,-0.0054503447437,-0.189143685277,-0.00727011769443,0.0738315841544,-0.0204383382023,0.573900017121,0.818910813782,0.00214390317985,0.0,0.818868325748,-0.573838773546,-0.0120197322391,0.0,-0.00861299976495,0.00865386555898,-0.999925460645,0.0,0.651429597817,0.247754141731,0.303452827179,1.0,-0.0274474285714,-0.0360737632653,1.013
0.457249240531,0.490613559226,-0.124250905152,-1.44555377322,0.0741700747231,1.92705227686,0.147092758933,-0.0196022677232,-0.171539520432,0.000727434297809,-0.277098676815,-0.011546655205,0.106986269145,-0.0408452318496,0.57384763417,0.818947154669,0.00227980664907,0.0,0.818906549554,-0.573785951017,-0.0119370186414,0.0,-0.00846782945726,0.00871714633512,-0.999926150885,0.0,0.650887212504,0.247081406299,0.303504151364,1.0,-0.0386485714286,-0.0507952653061,1.031
0.456758663541,0.487300474418,-0.124271379813,-1.45084899496,0.0738794887336,1.92901778744,0.146312940726,-0.0335928481215,-0.219703117834,-0.00474776501866,-0.359838990782,-0.0184366079814,0.138181119079,-0.0531150888187,0.573811393448,0.818972549388,0.00227925426488,0.0,0.818931578712,-0.573749348516,-0.0119792055563,0.0,-0.00850308357521,0.0087405262083,-0.999925647622,0.0,0.650216226143,0.246252687779,0.303457881218,1.0,-0.0486051428571,-0.063881044898,1.047
0.456090429594,0.482862176323,-0.124389819604,-1.45781017421,0.0734606236817,1.93155540584,0.145241111475,-0.0418036382427,-0.272507952379,-0.00616865482842,-0.440011269187,-0.0286849888757,0.154715589869,-0.0623616239754,0.573796757582,0.81898281767,0.00227425838499,0.0,0.818941977465,-0.573734935906,-0.0119585855222,0.0,-0.00848921802136,0.00872445122971,-0.999925905819,0.0,0.649347730034,0.245087364618,0.303449206381,1.0,-0.059184,-0.0777846857143,1.064
0.455201773443,0.477159107952,-0.124535051047,-1.46678973307,0.0729229428791,1.93468578597,0.143909485835,-0.051419306811,-0.340457693497,-0.00740103475473,-0.52060251494,-0.0344242261122,0.18876783242,-0.0796685938179,0.573824581881,0.818963710203,0.00213014087581,0.0,0.818920841252,-0.573763204066,-0.0120494117982,0.0,-0.00864600100029,0.00865883215435,-0.999925132844,0.0,0.648256566575,0.243656648563,0.303393029031,1.0,-0.0697628571429,-0.0916883265306,1.081
0.454318065141,0.471679076904,-0.124645590289,-1.4753206068,0.0724238457941,1.93774837245,0.142678850905,-0.0579477856166,-0.377340203299,-0.00468862668321,-0.588451403929,-0.0306954577487,0.216050091999,-0.0777511023139,0.573903563931,0.818908318853,0.00214744539021,0.0,0.818865592735,-0.573842019347,-0.0120509239274,0.0,-0.00863647373378,0.00867470434789,-0.999925077606,0.0,0.647099587512,0.242116325943,0.303402267563,1.0,-0.0797194285714,-0.104774106122,1.097
0.453095200596,0.464161335004,-0.124719286228,-1.48670105986,0.0717332553569,1.94197962333,0.140839582065,-0.0711813704175,-0.43534420241,-0.00148755051541,-0.670214038864,-0.0409860753245,0.243940125163,-0.106530801534,0.573805945335,0.818975829456,0.00246470413945,0.0,0.81893718442,-0.573743066436,-0.0118965790098,0.0,-0.00832906411174,0.00884493592582,-0.999926194176,0.0,0.64565490672,0.240211703751,0.30354231809,1.0,-0.0909205714286,-0.119495608163,1.115
0.451718284624,0.456297430307,-0.124799051218,-1.49903165212,0.0709426184951,1.94617741714,0.138996304003,-0.0842387489146,-0.480280047302,-0.00483670785297,-0.766794358622,-0.0493454929933,0.254379578391,-0.110522708594,0.573832070474,0.818958132727,0.00225358325509,0.0,0.818916324299,-0.573769613861,-0.0120511786791,0.0,-0.00857653831905,0.00876101760557,-0.999924840956,0.0,0.644098966953,0.238217454496,0.303461715663,1.0,-0.100877142857,-0.132581387755,1.131
0.450384387879,0.448503145558,-0.124941200861,-1.51068899811,0.0701215196211,1.95039951522,0.137131754232,-0.0904214716737,-0.54264077496,-0.00266926220912,-0.798158122045,-0.0553952772428,0.292959689655,-0.123993494207,0.573815762981,0.818968921499,0.00247440384669,0.0,0.818930873281,-0.573753346111,-0.0118350967756,0.0,-0.00827303823711,0.00881770055732,-0.999926899826,0.0,0.642483522693,0.236024837094,0.303623879177,1.0,-0.110833714286,-0.145667167347,1.147
0.448589718617,0.43851983494,-0.125032880725,-1.52597142974,0.0691348736997,1.95570685617,0.134752797481,-0.107668868852,-0.55892682725,-0.00326022510678,-0.874290736449,-0.0555644106539,0.293278589472,-0.140127754967,0.5738171097,0.818967959074,0.00248063019677,0.0,0.818929540211,-0.573754187513,-0.0118864369298,0.0,-0.00831149905213,0.00885227266386,-0.999926275408,0.0,0.64040130946,0.233355486396,0.303644242662,1.0,-0.122034857143,-0.160388669388,1.165
0.446681870157,0.428212971891,-0.125130684519,-1.54140454819,0.0680938621341,1.9611946474,0.132220648986,-0.12251857051,-0.620057284965,-0.00554184197724,-0.926424609857,-0.061002395972,0.327528815322,-0.145607558755,0.573763099913,0.819004888764,0.00276482558551,0.0,0.818970333262,-0.573699315823,-0.0117232743794,0.0,-0.00801539480349,0.00899086548228,-0.999927456261,0.0,0.638313434564,0.230607978414,0.303803778331,1.0,-0.132613714286,-0.174292310204,1.182
0.444681929158,0.417954561283,-0.125218782374,-1.55693429164,0.066996669055,1.96653437893,0.129621656584,-0.131054535259,-0.653997450818,-0.0041346906838,-0.978406744392,-0.0687496359524,0.344809622639,-0.164143794862,0.573690060607,0.819055978672,0.00278658635876,0.0,0.819021794981,-0.573626309849,-0.0117005511598,0.0,-0.00798510086911,0.00899493804588,-0.99992766201,0.0,0.636148124928,0.22778704643,0.303846025358,1.0,-0.142570285714,-0.187378089796,1.198
0.442355464518,0.406344747642,-0.125341243182,-1.57444693785,0.0657704223055,1.97263485409,0.12671329184,-0.142284354391,-0.683505525612,-0.00943658534812,-1.05789619009,-0.066928188354,0.346552675021,-0.171395895483,0.57368341902,0.819060178484,0.00291644715022,0.0,0.819027830442,-0.573619398362,-0.0116166124544,0.0,-0.00784192499198,0.00905308363223,-0.999928270372,0.0,0.633691588306,0.224566331178,0.303898213129,1.0,-0.153149142857,-0.201281730612,1.215
0.439589665202,0.393221685185,-0.125475811585,-1.59403237044,0.0644319552303,1.97932899392,0.123372856731,-0.160880769708,-0.735016092647,-0.00836523167496,-1.11246977969,-0.0711290242879,0.381656101207,-0.19334760632,0.573718436051,0.819034947315,0.00310775036086,0.0,0.819004711385,-0.573653356517,-0.0115696234677,0.0,-0.00769330264156,0.00918314527297,-0.999928238894,0.0,0.630890731328,0.220877487249,0.303998664252,1.0,-0.164350285714,-0.216003232653,1.233
0.437076656687,0.381840200473,-0.125609187833,-1.6111677716,0.0630998051457,1.98498048469,0.120328169174,-0.173274750396,-0.76721072185,-0.00628278050456,-1.14141121182,-0.0820743865101,0.387800337661,-0.211556192339,0.573658582439,0.819077484834,0.00294134904373,0.0,0.81904553738,-0.57359457272,-0.0115939960803,0.0,-0.0078093896556,0.00906026860261,-0.999928459924,0.0,0.628369802373,0.217559994074,0.303967603933,1.0,-0.173684571429,-0.22827115102,1.248
0.433770636984,0.367458368065,-0.125744207114,-1.63266895022,0.0615035330006,1.99208426519,0.116534948473,-0.196147452129,-0.827624506788,-0.0065260357282,-1.2017050735,-0.0883299946711,0.388561989013,-0.209668199092,0.573698062447,0.819050027703,0.00288654898771,0.0,0.819017160702,-0.573633989137,-0.0116483424797,0.0,-0.00788490442885,0.00904693884905,-0.999927987997,0.0,0.625158141128,0.213357093143,0.303949421476,1.0,-0.184885714286,-0.242992653061,1.266
0.430314035485,0.353239970399,-0.125959793676,-1.65372009637,0.0598546679736,1.99902770739,0.112653491714,-0.219415778024,-0.831088667682,-0.0111549796839,-1.26606344868,-0.0942535958936,0.412359001798,-0.237042530297,0.573777761629,0.818994179631,0.00289152060345,0.0,0.818961981645,-0.573714356615,-0.0115696385183,0.0,-0.00781671022018,0.0090066201406,-0.999928887389,0.0,0.621999130907,0.209070855157,0.303971846642,1.0,-0.195464571429,-0.256896293878,1.283
0.427010185016,0.340103783062,-0.126129857243,-1.67285585332,0.0584440110017,2.00522794368,0.109031735923,-0.221898315404,-0.877158849327,-0.00189376334716,-1.29060905387,-0.0964712689748,0.419269282182,-0.242320912262,0.573878756289,0.818922799081,0.00306090292833,0.0,0.818892354854,-0.573814278839,-0.0115425934142,0.0,-0.00769625127767,0.00913077495555,-0.99992869579,0.0,0.618859872621,0.204859259497,0.304075104736,1.0,-0.205421142857,-0.269982073469,1.299
0.422620259996,0.322929833653,-0.126266869671,-1.6979595458,0.0564045717914,2.0133032536,0.104128868692,-0.234724304595,-0.923377152646,-0.00664269377238,-1.32828183817,-0.107073313156,0.426849384755,-0.261490474194,0.573768781899,0.818999721132,0.00309654745851,0.0,0.818969972976,-0.573704486913,-0.0114931267248,0.0,-0.00763651143817,0.00913055250094,-0.999929155843,0.0,0.615095210369,0.199971096565,0.304096195404,1.0,-0.216622285714,-0.28470357551,1.317
0.418628473829,0.307925383307,-0.126407386005,-1.7196866653,0.0546150634064,2.02020755014,0.0997489897844,-0.257389825343,-0.963680653188,-0.0130558012507,-1.37635952642,-0.115920852511,0.455194394493,-0.280822120309,0.573678794531,0.819062427083,0.00318247489802,0.0,0.81903398409,-0.573614485809,-0.0114237242997,0.0,-0.00753137465132,0.00916027984408,-0.999929681362,0.0,0.611595878663,0.195412256247,0.304135954463,1.0,-0.226578857143,-0.297789355102,1.333
0.414301843847,0.292468380162,-0.126524983367,-1.74200580675,0.0527492136244,2.02696448976,0.0951566198015,-0.283924534438,-0.980861774154,-0.0125113685166,-1.38504908276,-0.103068888174,0.432824535523,-0.284860041807,0.573620597889,0.81910368871,0.00305020012973,0.0,0.819073082553,-0.57355616046,-0.0115482958234,0.0,-0.00770993907245,0.00912285282067,-0.999928662653,0.0,0.607881132113,0.190625724715,0.304113193429,1.0,-0.236535428571,-0.310875134694,1.349
0.409047140433,0.274492242224,-0.126711729649,-1.76772496679,0.0506187688748,2.03472622843,0.0896631684587,-0.303561972161,-1.00578133563,-0.0135928277922,-1.4238248048,-0.113934454705,0.413744061422,-0.313176139712,0.573602973781,0.819116062613,0.00304160147294,0.0,0.819084615908,-0.573537706374,-0.0116463836251,0.0,-0.00779541685208,0.00917190584295,-0.999927551185,0.0,0.603541362582,0.184976249934,0.304110703391,1.0,-0.247736571429,-0.325596636735,1.367
0.403932127252,0.258020008206,-0.126924474928,-1.79111401662,0.0485247043815,2.04170432344,0.084516907931,-0.328860579126,-1.01015328894,-0.0073259079069,-1.45150565848,-0.125205760584,0.422543248418,-0.322374749883,0.573664687076,0.819072994041,0.00300068934647,0.0,0.819041331201,-0.573599916231,-0.0116267271834,0.0,-0.00780209330167,0.00912770714486,-0.999927903552,0.0,0.59954586481,0.179642074055,0.304104423386,1.0,-0.257693142857,-0.338682416326,1.383
0.39846219673,0.240999685132,-0.127140050607,-1.81500451686,0.0463446093565,2.04865329004,0.0790949692293,-0.3519546785,-1.05648354938,-0.0130213862648,-1.50019513829,-0.130968275153,0.427676274167,-0.352400593953,0.573725074209,0.819030763062,0.00298249612685,0.0,0.818999036564,-0.573660556843,-0.0116142382478,0.0,-0.00780162823112,0.00910621647796,-0.999928103125,0.0,0.59536686224,0.174095631226,0.304126665647,1.0,-0.267649714286,-0.351768195918,1.399
0.392416268447,0.222493415839,-0.127294193102,-1.84070977456,0.0440371713618,2.0560242001,0.0730107800872,-0.368389478042,-1.09311297815,-0.0107673733677,-1.56117730205,-0.151139599032,0.435164260542,-0.373918425902,0.573611438373,0.819109923663,0.00309800347171,0.0,0.819079112281,-0.573545869686,-0.0116314269305,0.0,-0.00775071935503,0.00920960677887,-0.999927552122,0.0,0.590741051996,0.168153398696,0.304169396689,1.0,-0.278228571429,-0.365671836735,1.416
0.385462025528,0.202417758342,-0.127530301096,-1.86834881351,0.0413639108051,2.06366017985,0.0661995776648,-0.401515215915,-1.10530619412,-0.0117215032309,-1.56675334589,-0.162420941533,0.420006464787,-0.390835030886,0.57355332386,0.819150767227,0.00305812728028,0.0,0.819119608851,-0.573488095523,-0.0116283098575,0.0,-0.00777168898059,0.00917460443085,-0.999927711129,0.0,0.585660525941,0.161507193011,0.304192150323,1.0,-0.289429714286,-0.380393338775,1.434
0.378800243843,0.184046761803,-0.127790663874,-1.89325941021,0.0389675746775,2.07035669194,0.0597699628567,-0.436604601178,-1.1390025065,-0.0224691685138,-1.56863024029,-0.159620748737,0.414575671183,-0.413706480944,0.573567217739,0.819140726007,0.00314080125358,0.0,0.819110373063,-0.57350139978,-0.0116227402965,0.0,-0.0077195546347,0.00923926358538,-0.999927519616,0.0,0.580988356494,0.155343245051,0.30426603569,1.0,-0.299386285714,-0.393479118367,1.45
0.371192751659,0.164204456167,-0.128119870645,-1.92008275199,0.0363170210393,2.07736157337,0.052616424343,-0.460025566597,-1.17077142806,-0.0164981589886,-1.63170212087,-0.166962278163,0.396321501458,-0.440649620073,0.573695837046,0.819050780397,0.00310686162559,0.0,0.819019571941,-0.57362961956,-0.0116938976745,0.0,-0.00779585825833,0.00925349905192,-0.999926795995,0.0,0.57584964154,0.148509191191,0.304256901096,1.0,-0.309965142857,-0.407382759184,1.467
0.363229703466,0.143869702463,-0.128362278825,-1.94712955819,0.0334609820276,2.08423539206,0.0450583666059,-0.483095311026,-1.19156584631,-0.0185510324031,-1.6318284407,-0.170426722136,0.386683644665,-0.457510918141,0.573565901991,0.819141674171,0.00313378538074,0.0,0.819111188955,-0.573500057737,-0.0116314575704,0.0,-0.00773073437109,0.00923850399183,-0.999927440263,0.0,0.570520982301,0.14158593336,0.304306836595,1.0,-0.320544,-0.4212864,1.484
0.355163197792,0.124322668623,-0.128671292251,-1.97283111169,0.0307697305771,2.09055186312,0.0374895338084,-0.523569115881,-1.21752705657,-0.0242962475161,-1.5897696405,-0.184429107168,0.376272175003,-0.483265431927,0.573541384102,0.819158511825,0.00321871519482,0.0,0.819128890095,-0.573474980609,-0.0116213135381,0.0,-0.00767399301754,0.00930202594962,-0.999927288429,0.0,0.565356303388,0.134788186449,0.304354539324,1.0,-0.330500571429,-0.434372179592,1.5
0.345953767309,0.103148474619,-0.129104806413,-2.00032875116,0.0277317583925,2.09703761649,0.0290651483693,-0.552158445979,-1.23759159841,-0.019417536199,-1.64088926358,-0.178635454965,0.359344062256,-0.507775116464,0.573666791893,0.819070401661,0.00329179323895,0.0,0.819042100304,-0.573600596923,-0.0115386324902,0.0,-0.00756292339127,0.00931562688637,-0.999928008051,0.0,0.559396890681,0.1267994028,0.304424571981,1.0,-0.341701714286,-0.449093681633,1.518
0.335688960713,0.0803366400566,-0.129474960891,-2.02956302439,0.0245530072088,2.10356842286,0.0195864592185,-0.584332297402,-1.26458229447,-0.0178318803043,-1.62692742608,-0.16978334919,0.337567105082,-0.535415325584,0.573626632362,0.819098307204,0.00334614424658,0.0,0.819069659658,-0.573558974532,-0.0116508481464,0.0,-0.00762412571953,0.00942414345955,-0.999926526414,0.0,0.553518491282,0.119150820642,0.304454617535,1.0,-0.34998,-0.459973714286,1.535
0.326581101466,0.0613455090118,-0.12983033594,-2.05388722148,0.0216672062293,2.10883368522,0.0113753900759,-0.620608083132,-1.23412017643,-0.0322532959805,-1.56118509348,-0.190456067325,0.325962742479,-0.548091393599,0.573663126041,0.819073358243,0.00319351512056,0.0,0.819042863184,-0.573596129432,-0.0117053606868,0.0,-0.00775591050002,0.00933073921661,-0.99992638887,0.0,0.548258224117,0.11218533961,0.304366615325,1.0,-0.34998,-0.459973714286,1.55
0.31257486937,0.0335103285408,-0.130312725759,-2.08852749441,0.0175880344567,2.11584924245,-0.000964236896446,-0.64067866707,-1.2839829819,-0.0222982270444,-1.57103597124,-0.192813971257,0.330155787585,-0.567608385232,0.57391970511,0.818893037541,0.0033334748243,0.0,0.818863844426,-0.573851578374,-0.0117097049745,0.0,-0.00767622387697,0.00945027438288,-0.999925881204,0.0,0.540560750478,0.101945009915,0.304443316651,1.0,-0.34998,-0.459973714286,1.572
0.304035772028,0.0173888461016,-0.130554983226,-2.10835994399,0.0151090363813,2.11957365388,-0.00849643918979,-0.661093616648,-1.23665211462,-0.0121947798062,-1.49398276331,-0.185006782219,0.283595401066,-0.579359141204,0.573963205063,0.818862703955,0.00329517922835,0.0,0.818832937536,-0.573895107498,-0.0117376700375,0.0,-0.00772060163307,0.00943537366214,-0.999925680255,0.0,0.536021700839,0.0959281489951,0.304455492192,1.0,-0.34998,-0.459973714286,1.585
0.293198401376,-0.00237426112585,-0.130913584013,-2.13234585828,0.0120917688086,2.12385404196,-0.0180195466929,-0.67549162803,-1.22455459346,-0.014081929356,-1.45855239582,-0.177392376673,0.254935566191,-0.592621058615,0.574083791301,0.818778088815,0.00331492718174,0.0,0.818748243204,-0.574015199146,-0.0117733725188,0.0,-0.00773710982678,0.00947317552636,-0.999925195241,0.0,0.530418062889,0.0884788963203,0.304485942712,1.0,-0.34998,-0.459973714286,1.601
0.280780994748,-0.0243525616722,-0.131145787794,-2.1585830323,0.00870692214145,2.12830010582,-0.029068236837,-0.698055101169,-1.20128988519,-0.0131940610568,-1.41682158654,-0.185689106119,0.211698135264,-0.616588481872,0.573920278846,0.81889221811,0.00343446497387,0.0,0.818863871904,-0.573851240029,-0.0117243554,0.0,-0.00763025832141,0.00954138830815,-0.999925367749,0.0,0.524121547732,0.0802920428183,0.304550274784,1.0,-0.34998,-0.459973714286,1.619
0.268496454221,-0.0448740228659,-0.13151515647,-2.18284484617,0.00550289012109,2.13208516022,-0.0397529259053,-0.728682821096,-1.19225117164,-0.0255270843958,-1.43122680615,-0.177368331884,0.206676901022,-0.638447053457,0.574069857338,0.818787264508,0.00345850774867,0.0,0.818758853178,-0.574000244419,-0.0117646355592,0.0,-0.00764769671624,0.00958559104744,-0.999924811763,0.0,0.518157318343,0.0723924704462,0.304550326118,1.0,-0.34998,-0.459973714286,1.636
0.25676546722,-0.0640719113932,-0.131697631349,-2.20499326194,0.00251291066999,2.13529514237,-0.0501436662561,-0.731108436561,-1.1912552723,-0.016299086335,-1.40173631099,-0.195136759534,0.189518173361,-0.651408420277,0.573895143872,0.818908897965,0.00365069519983,0.0,0.81888318365,-0.57382518498,-0.0116505587101,0.0,-0.00744602870477,0.00967587826556,-0.99992546424,0.0,0.512565870208,0.0651521725449,0.304652483445,1.0,-0.34998,-0.459973714286,1.652
0.243776529009,-0.0840907438656,-0.13206775325,-2.22785677143,-0.000670129063282,2.13826372695,-0.0615333673392,-0.783656393071,-1.16065679506,-0.0223522952519,-1.34165308,-0.192876716478,0.160793482383,-0.685955865252,0.573939397123,0.818877474301,0.00374131178147,0.0,0.818852885958,-0.573869083889,-0.0116177715568,0.0,-0.00736665009569,0.00973166811751,-0.999925510777,0.0,0.506656883469,0.0572984654711,0.304707282838,1.0,-0.34998,-0.459973714286,1.669
0.230542878798,-0.103904730798,-0.132289130965,-2.25021653118,-0.0038505261567,2.14084167352,-0.0732339649265,-0.776038348205,-1.14829385406,-0.00896319323339,-1.29388946017,-0.181136515488,0.129059027305,-0.695547336563,0.573755212375,0.819006426273,0.00376522192597,0.0,0.818981936475,-0.573684571594,-0.0116338705045,0.0,-0.00736830684078,0.00975883047396,-0.999925233846,0.0,0.500696923436,0.0495978635862,0.304728884942,1.0,-0.34998,-0.459973714286,1.686
0.21756471415,-0.122301387807,-0.132677237618,-2.2707768922,-0.00686656932983,2.14299757193,-0.0845223238178,-0.823331497363,-1.15696184089,-0.0376321596993,-1.27344667864,-0.186692636256,0.138288541836,-0.717058463738,0.573864619961,0.818929863661,0.00374476467222,0.0,0.818904774667,-0.573793587278,-0.01168914571,0.0,-0.00742401148306,0.00977478102545,-0.999924666017,0.0,0.494742742673,0.0417224506693,0.304697709702,1.0,-0.34998,-0.459973714286,1.703
0.20262236073,-0.142729531083,-0.133003731142,-2.29329104204,-0.0101921108072,2.14490262652,-0.0977270952883,-0.836211699182,-1.15888710098,-0.0192218285497,-1.22573031053,-0.196461125655,0.122327250906,-0.746075364414,0.573765648914,0.818999573332,0.00366413827896,0.0,0.818972581926,-0.573693784894,-0.0118363055256,0.0,-0.00759198198683,0.00979228283927,-0.999923233557,0.0,0.488757573225,0.0339573649219,0.304656868635,1.0,-0.34998,-0.459973714286,1.72
0.188840647476,-0.160641418958,-0.133431185034,-2.31282356499,-0.0132010077882,2.14629979938,-0.10980558803,-0.865736890908,-1.11410080505,-0.0266648667039,-1.21607665256,-0.195430628082,0.0734250378583,-0.75618156774,0.573844807498,0.818944742351,0.00352033877255,0.0,0.818915005955,-0.573772340546,-0.0120108761744,0.0,-0.0078165213693,0.00977542538032,-0.999921668458,0.0,0.483111692517,0.0265244031645,0.30457322082,1.0,-0.34998,-0.459973714286,1.736
0.174824083437,-0.178448778119,-0.133729015447,-2.3317243036,-0.0160480216395,2.14740764462,-0.122211246142,-0.882877760597,-1.0915215644,-0.0216132007987,-1.17717003429,-0.193855329959,0.0556931751645,-0.777641962579,0.573782602447,0.818987888716,0.00362079638451,0.0,0.818958724665,-0.573708837354,-0.012063338586,0.0,-0.00780259553949,0.00988720695676,-0.999920678175,0.0,0.477504330763,0.0192480630053,0.304599655087,1.0,-0.34998,-0.459973714286,1.752
0.158429327939,-0.198254648784,-0.134218431828,-2.35232462916,-0.0193502079366,2.14836558991,-0.136630204633,-0.909431062114,-1.0883596846,-0.0134000097426,-1.13923856424,-0.189573865469,0.0380105233193,-0.805976244982,0.573888980456,0.818912676966,0.00376994923904,0.0,0.818885861956,-0.573815167259,-0.0119518121244,0.0,-0.00762438320121,0.00994636290511,-0.999921466239,0.0,0.471234084456,0.0109008587943,0.304674411001,1.0,-0.34998,-0.459973714286,1.77
0.142583974533,-0.216614361539,-0.134659139392,-2.37119063517,-0.0223282338165,2.14884867964,-0.150710779252,-0.948389844726,-1.08543462358,-0.0377427266907,-1.08150487704,-0.175977670587,0.0287749288873,-0.826949216085,0.573918961697,0.818891182328,0.00387347524624,0.0,0.818864846391,-0.573843623001,-0.0120252479512,0.0,-0.00762474724366,0.0100735644781,-0.999920190079,0.0,0.465284843296,0.00308951877244,0.304700242636,1.0,-0.34998,-0.459973714286,1.787
0.127298874705,-0.233608156765,-0.135024650069,-2.38848900609,-0.0252677114354,2.14907102276,-0.164288821464,-0.952505895716,-1.05157737552,-0.0205746593702,-1.07373318915,-0.168883786426,0.0100695065654,-0.856035368431,0.573856028601,0.818935541374,0.00381895466129,0.0,0.818908513603,-0.573780927795,-0.0120432615171,0.0,-0.00767155924295,0.0100386659862,-0.999920182997,0.0,0.459669636239,-0.00423999989287,0.304682532578,1.0,-0.34998,-0.459973714286,1.803
0.110533659887,-0.251452699127,-0.135502338517,-2.40612677427,-0.0281939972355,2.14911853913,-0.179227699039,-0.991717835385,-1.02768572325,-0.0299809402031,-1.03485231273,-0.169973506111,-0.00779514811,-0.882506577401,0.573938975642,0.818876093045,0.00409186758369,0.0,0.81885313094,-0.573863566858,-0.0118702773546,0.0,-0.00737225455553,0.0101636490895,-0.999921171943,0.0,0.453787353792,-0.0120850001108,0.304784516099,1.0,-0.34998,-0.459973714286,1.82
0.0934651238631,-0.268882555764,-0.135880922145,-2.42326136497,-0.0311274668223,2.1489588929,-0.194575650675,-1.02033926526,-1.00983032229,-0.0258681316195,-0.982080210405,-0.162930021865,-0.00369535496893,-0.904921434659,0.573830389558,0.818951454311,0.004236319455,0.0,0.818930942434,-0.573755317075,-0.0117343322686,0.0,-0.00717937588983,0.0102029659793,-0.999922174995,0.0,0.447892496867,-0.0198210376591,0.304810798007,1.0,-0.34998,-0.459973714286,1.837
0.0768825321157,-0.284989203172,-0.136342689417,-2.43894626231,-0.0338282314238,2.14842096936,-0.209506713514,-1.04694844706,-1.00116258609,-0.0145904000087,-0.971154292673,-0.15082099664,-0.0443510855492,-0.939316664905,0.573844876815,0.818941094958,0.00427635869818,0.0,0.818920330057,-0.573768570416,-0.0118265600812,0.0,-0.00723175507937,0.0102888060809,-0.999920917967,0.0,0.442277399157,-0.0271823270248,0.304779933983,1.0,-0.34998,-0.459973714286,1.853
0.0588217478003,-0.301907713235,-0.1368787325,-2.45492277154,-0.0367434345294,2.14768044207,-0.225836885056,-1.07516960071,-0.992601422193,-0.0321495285769,-0.926786344175,-0.178165743479,-0.0489873729589,-0.967491212043,0.573842918746,0.818941513244,0.00445526566084,0.0,0.818924087715,-0.573767516284,-0.011615623863,0.0,-0.00695636380257,0.010314266449,-0.99992260946,0.0,0.436369322126,-0.0350316962373,0.304866892447,1.0,-0.34998,-0.459973714286,1.87
0.0403543569012,-0.318287149721,-0.137331631819,-2.47048846907,-0.0395345030557,2.14657369177,-0.242550936973,-1.09599134325,-0.953499977336,-0.0336553297549,-0.899406957002,-0.159072619994,-0.0658816006603,-0.997565176181,0.573833148812,0.818948692249,0.00439359649783,0.0,0.818929167219,-0.573756040931,-0.0118224986607,0.0,-0.00716130516253,0.0103823858474,-0.999920457723,0.0,0.430369103429,-0.0427993624457,0.30478672044,1.0,-0.34998,-0.459973714286,1.887
0.0225013824552,-0.333401542398,-0.137835801983,-2.48436460797,-0.0420852601622,2.14547686534,-0.258808956878,-1.12339213846,-0.922584109376,-0.0233088712061,-0.867904678154,-0.160478526291,-0.0743294941789,-1.03013648133,0.573872679927,0.818919892839,0.00459382709167,0.0,0.81890348221,-0.57379567534,-0.0116771866121,0.0,-0.00692689565483,0.0104633208285,-0.999921265417,0.0,0.424828127402,-0.0501689985796,0.304848524388,1.0,-0.34998,-0.459973714286,1.903
0.00189353914629,-0.349988365124,-0.138367570879,-2.499459518,-0.0450317694647,2.14385531756,-0.277613233469,-1.14979748442,-0.903507519386,-0.0263291736791,-0.829907960437,-0.175608845742,-0.0921794869467,-1.0631534449,0.573852247017,0.818934350558,0.00456891350519,0.0,0.818917597784,-0.573775295602,-0.011688673901,0.0,-0.00695086069856,0.010449336637,-0.999921245349,0.0,0.418511730022,-0.0584634363006,0.304856558416,1.0,-0.34998,-0.459973714286,1.921
-0.0191571067478,-0.366126713414,-0.138943457665,-2.51375793964,-0.0477238428044,2.1421545592,-0.296983094359,-1.18586763051,-0.894688801373,-0.0374889829229,-0.778040876554,-0.160689272268,-0.104388071488,-1.07996270682,0.573881287541,0.818912549371,0.00482194919075,0.0,0.818899485373,-0.573804193605,-0.0115380742619,0.0,-0.00668194778988,0.0105703801366,-0.999921806262,0.0,0.412264606379,-0.0667266203221,0.304944109449,1.0,-0.34998,-0.459973714286,1.939
-0.0370034649342,-0.379075159968,-0.139293509367,-2.52526599591,-0.0500378630304,2.14047046646,-0.313534777418,-1.20193686127,-0.875257047948,-0.0277251647263,-0.723492451198,-0.154673970718,-0.122529418231,-1.09986613238,0.573685044694,0.819050605618,0.00472459861414,0.0,0.819035804586,-0.57360753178,-0.011640326083,0.0,-0.00682408216289,0.0105476994924,-0.999921085855,0.0,0.406999834165,-0.073530185831,0.304912927668,1.0,-0.34998,-0.459973714286,1.954
-0.0578338170332,-0.393335360139,-0.139861293401,-2.53758887887,-0.0525157920029,2.13865577568,-0.332774264514,-1.22740554354,-0.808872368836,-0.0361682668373,-0.71698956887,-0.132247647434,-0.117576991771,-1.15645729992,0.573768827726,0.818990844326,0.00490674457396,0.0,0.818979197135,-0.573692020218,-0.0114580757409,0.0,-0.00656922539603,0.0105930123659,-0.999922313666,0.0,0.401104130224,-0.0813822109557,0.304975472008,1.0,-0.34998,-0.459973714286,1.971
-0.0802807241805,-0.40776788691,-0.140380715748,-2.55009946895,-0.0550425158003,2.13633462165,-0.35372360659,-1.25706056113,-0.808791419518,-0.0245754615461,-0.660163033951,-0.137638402195,-0.129886293863,-1.18919947734,0.573683912125,0.819050598103,0.00486144197933,0.0,0.819036782161,-0.573604736208,-0.0117090976432,0.0,-0.00680192824194,0.0106992267321,-0.99991962693,0.0,0.39442278326,-0.0900562022533,0.304918642228,1.0,-0.34998,-0.459973714286,1.99
-0.0994216412061,-0.419429807433,-0.140903998629,-2.55975899029,-0.0570711190782,2.13461260261,-0.371611036469,-1.28068122702,-0.762834292942,-0.0305583592555,-0.633187729962,-0.143759209616,-0.12797937921,-1.20173283045,0.573746710389,0.819005131319,0.00510432084871,0.0,0.818996006382,-0.573669309961,-0.0113934735899,0.0,-0.0064032443969,0.0107175927294,-0.999922062797,0.0,0.389608488859,-0.0965343171316,0.30503289793,1.0,-0.34998,-0.459973714286,2.004
-0.121524463625,-0.431932329055,-0.141409907191,-2.57046535876,-0.0592976771126,2.13227661107,-0.392345086602,-1.32015638187,-0.71760696773,-0.041336564812,-0.61286471756,-0.111708474295,-0.139211180098,-1.21228763733,0.573735286989,0.819013720438,0.00500930119674,0.0,0.819001014605,-0.573654329915,-0.0117811182054,0.0,-0.00677542057884,0.0108620751258,-0.999918051142,0.0,0.383578124164,-0.104311263292,0.304911935756,1.0,-0.34998,-0.459973714286,2.021
-0.145287731939,-0.444619541398,-0.141935831916,-2.58081041972,-0.0615673186857,2.12994086375,-0.414826238453,-1.33734651499,-0.70240641816,-0.037171465607,-0.546580403758,-0.127672382685,-0.121452133167,-1.26226861649,0.573648969693,0.819073435781,0.00512964616082,0.0,0.819062903533,-0.573568629058,-0.0116505243354,0.0,-0.00660055796122,0.0108850237304,-0.999918971164,0.0,0.377340810254,-0.112545337749,0.304977164812,1.0,-0.34998,-0.459973714286,2.039
-0.168273328965,-0.455870268724,-0.142419596456,-2.59007370054,-0.0636800978756,2.12769306026,-0.436569544765,-1.36222604613,-0.64097805341,-0.0258474452157,-0.535329211657,-0.124113447697,-0.138808092909,-1.27792534292,0.573611262314,0.819100074675,0.00509257446773,0.0,0.819088489976,-0.57353011241,-0.0117474528665,0.0,-0.00670172374223,0.010909950449,-0.99991802658,0.0,0.371374095978,-0.120351476378,0.304936804766,1.0,-0.34998,-0.459973714286,2.056
-0.190136237406,-0.465883192621,-0.142878558823,-2.5982062847,-0.0654661404857,2.12553519911,-0.457443731194,-1.3643066337,-0.608759942024,-0.0292578489364,-0.498957149694,-0.0848507056909,-0.130522375035,-1.31894297285,0.573539494215,0.819149967011,0.00515043900336,0.0,0.819137959166,-0.573456244978,-0.011903186581,0.0,-0.00679707434901,0.0110460803765,-0.999915888407,0.0,0.365763720986,-0.127631833004,0.304904268159,1.0,-0.343512,-0.451472914286,2.072
-0.213526370857,-0.475558720199,-0.143166892537,-2.60578488726,-0.0671599859026,2.12351112149,-0.479534305484,-1.37855718307,-0.552227279558,-0.0286448249378,-0.414619806917,-0.10174839615,-0.112951433444,-1.28437534672,0.573658205175,0.819065946595,0.00529014796068,0.0,0.81905686664,-0.573576294815,-0.0116974414444,0.0,-0.00654679852922,0.011043477898,-0.999917587117,0.0,0.360032044787,-0.135293024846,0.304979581276,1.0,-0.332933142857,-0.437569273469,2.089
-0.235275914872,-0.483854054088,-0.143297885133,-2.61224319115,-0.06852214875,2.12158579715,-0.500195916472,-1.34815957853,-0.499640383281,0.0101090963388,-0.386256989871,-0.0970674855171,-0.119478561877,-1.2768512955,0.573689524278,0.819043290849,0.00540040269647,0.0,0.81903570786,-0.573607361728,-0.0116555018246,0.0,-0.00644877398678,0.0111099758436,-0.999917487471,0.0,0.354749565213,-0.142251011209,0.305025894433,1.0,-0.322976571429,-0.424483493878,2.105
-0.254165744167,-0.490361411601,-0.143369696443,-2.61746213433,-0.0695057092064,2.11997654648,-0.51804910092,-1.34820565077,-0.446165446431,-0.00930930792344,-0.364598867422,-0.0761504131593,-0.110755574189,-1.27957681631,0.573867714749,0.818917800619,0.00549806316057,0.0,0.818909934832,-0.573782509618,-0.0118700122359,0.0,-0.00656599825105,0.0113144531787,-0.999914431747,0.0,0.350187186776,-0.14818311285,0.30497067598,1.0,-0.314264571429,-0.413033436735,2.119
-0.281911931393,-0.499029097441,-0.143257788672,-2.62414343321,-0.0708612905565,2.11795005778,-0.544444566508,-1.3182500169,-0.387616979168,-0.0032782942254,-0.300983066267,-0.0604890625814,-0.0908094363682,-1.2279763778,0.573921145137,0.81887952201,0.00562089838363,0.0,0.818874026563,-0.573836849757,-0.0117194446668,0.0,-0.00637145729598,0.0113290629154,-0.999915524865,0.0,0.343691385272,-0.156784137811,0.305015263011,1.0,-0.301196571429,-0.395858351021,2.14
-0.30116737228,-0.504321235456,-0.143017776347,-2.62824122186,-0.0715600545778,2.11655556465,-0.562841039552,-1.28220327693,-0.341260236184,0.0142777899644,-0.266519664376,-0.0347472416217,-0.0871909778397,-1.20037377997,0.573911670156,0.818885576391,0.00570565841803,0.0,0.818880630441,-0.573826094658,-0.0117844422816,0.0,-0.00637617688388,0.0114357022868,-0.999914280867,0.0,0.339243991608,-0.162621136762,0.305014154674,1.0,-0.291862285714,-0.383590432653,2.155
-0.323856425359,-0.509911724782,-0.142743804565,-2.63245487228,-0.0723201070657,2.11519827535,-0.584513874728,-1.23972788664,-0.293000248668,0.0264698480577,-0.223431673221,-0.0306478789831,-0.075441934507,-1.19200489455,0.573972214502,0.818842227704,0.00583523858707,0.0,0.818839889465,-0.573887870083,-0.0116058129431,0.0,-0.00615467557706,0.0114397605265,-0.999915622364,0.0,0.334103372716,-0.169478308972,0.30506664717,1.0,-0.280661142857,-0.368868930612,2.173
-0.344699693987,-0.514377212713,-0.142422185413,-2.6359793929,-0.0729169809706,2.11389374087,-0.604526904506,-1.20558510323,-0.243980604524,0.0212896051375,-0.195829870113,-0.0222829409112,-0.07195531824,-1.15758005614,0.57395812247,0.81885193076,0.00585969641528,0.0,0.818848614692,-0.573871302502,-0.011807678967,0.0,-0.00630615051873,0.0115755404078,-0.999913115891,0.0,0.329350752061,-0.175668381662,0.30501355848,1.0,-0.270082285714,-0.354965289796,2.19
-0.36375774982,-0.517936182477,-0.142025581358,-2.63888116785,-0.0733987315125,2.11286516244,-0.622819276013,-1.17204217809,-0.209234064893,0.0307797182527,-0.172639854377,-0.0333937218362,-0.056545755506,-1.12206342352,0.573924995412,0.818875364363,0.00582959539564,0.0,0.81887033889,-0.57383590629,-0.0120194691834,0.0,-0.00649734114376,0.0116721812788,-0.99991076839,0.0,0.32503667221,-0.181256229625,0.304929536241,1.0,-0.260125714286,-0.341879510204,2.206
-0.383387484315,-0.521073653902,-0.141620648445,-2.64138296129,-0.0737237179002,2.11195538155,-0.641673385629,-1.15597499639,-0.171497618204,0.011792576075,-0.126386585795,-0.0167249564145,-0.0531068451248,-1.11476611159,0.573984898778,0.818832843017,0.0059040725656,0.0,0.818827864441,-0.573893823135,-0.0121472253091,0.0,-0.00655836252664,0.0118069703406,-0.999908787506,0.0,0.320658912749,-0.186992023457,0.304879248589,1.0,-0.249546857143,-0.327975869388,2.223
-0.40335942603,-0.523856358984,-0.141000958884,-2.64350625538,-0.0739840976394,2.11112981472,-0.661000925207,-1.0950447381,-0.140350895714,0.040203841323,-0.106306112989,-0.0167581005411,-0.0392034733436,-1.05240637784,0.57383519494,0.818937739703,0.00590715147332,0.0,0.818932793596,-0.573744122995,-0.0121452790103,0.0,-0.00655716014499,0.0118071759315,-0.999908792964,0.0,0.316266969014,-0.192751789663,0.304881011209,1.0,-0.238345714286,-0.313254367347,2.241
-0.41958308561,-0.525727252142,-0.140594378163,-2.6448980779,-0.0741521035752,2.11055878029,-0.676569156573,-1.05739334669,-0.110427916925,0.040539863584,-0.0895273256441,-0.00100999816657,-0.0340169148436,-1.02669079532,0.573929010491,0.818871674739,0.00595131323728,0.0,0.818867472324,-0.573838032133,-0.0121129083525,0.0,-0.00650395289313,0.0118255140103,-0.99990892376,0.0,0.312711376935,-0.197451116876,0.304895514511,1.0,-0.229011428572,-0.30098644898,2.256
-0.438257321048,-0.527498352207,-0.140114367542,-2.64619795826,-0.074224615614,2.11002843809,-0.694544356627,-1.0290641983,-0.0896235477682,0.0272352321133,-0.0723473980243,-0.00459886402615,-0.0328059654445,-0.983720151584,0.574053153646,0.818783860123,0.0060592155239,0.0,0.81878145168,-0.573962402868,-0.0120350064776,0.0,-0.00637642992478,0.0118701352422,-0.999909216395,0.0,0.308639175915,-0.202835850755,0.304919819975,1.0,-0.217810285714,-0.286264946939,2.274
-0.455028899552,-0.528723236737,-0.139496609296,-2.64712113709,-0.0742451796674,2.10961493494,-0.710786112935,-0.978311387552,-0.0654592413086,0.0357311550578,-0.0547324406739,-0.00196207620961,-0.0229089389291,-0.946940325052,0.573986877133,0.818830344101,0.00605634875819,0.0,0.818828067286,-0.573896467027,-0.0120078415592,0.0,-0.00635679026832,0.0118516800077,-0.99990956036,0.0,0.305006622518,-0.207604162292,0.304928683081,1.0,-0.207231428572,-0.272361306123,2.291
-0.470277178678,-0.529501635548,-0.138966393508,-2.64771401533,-0.0742373612558,2.10931145264,-0.725439031375,-0.92323238274,-0.0383985689561,0.0418490341069,-0.0300807490416,0.00367956629127,-0.0182212240961,-0.90496906315,0.5740683028,0.818773288915,0.00605243588159,0.0,0.818770998443,-0.573977961563,-0.0120041097082,0.0,-0.0063548019261,0.0118469659474,-0.999909628862,0.0,0.301706856634,-0.211945748975,0.304931413233,1.0,-0.197274857143,-0.259275526531,2.307
-0.485617029621,-0.530001799708,-0.138333756281,-2.64808635936,-0.0742128330451,2.109082471,-0.740314641206,-0.88839707067,-0.0250656542929,0.0289086837646,-0.0144891457883,0.000895456113329,-0.00572890453643,-0.857647904501,0.573990583582,0.818828275459,0.00598432697997,0.0,0.818825340849,-0.573900989493,-0.0119775767103,0.0,-0.00637329001221,0.0117753615372,-0.999910357,0.0,0.298409640543,-0.216289189987,0.304941765001,1.0,-0.186696,-0.245371885714,2.324
-0.500156303571,-0.530194795341,-0.137652445061,-2.64825916853,-0.0741064511711,2.10893310918,-0.75446355621,-0.829855341408,-0.00887095730693,0.0399211548746,-0.00352193613238,0.0134331982478,-0.0079482624638,-0.814590698021,0.573856957839,0.818922376849,0.00592279806036,0.0,0.818918630606,-0.573767622189,-0.0119891231777,0.0,-0.00641997509362,0.0117305572804,-0.999910584975,0.0,0.295120635934,-0.220607928394,0.304937780883,1.0,-0.175494857143,-0.230650383674,2.342
-0.51405244742,-0.530238765845,-0.137030594,-2.64831812554,-0.0739646224934,2.10886061753,-0.767818533754,-0.816075573276,0.00153809510389,0.0339008925508,0.000706576198717,0.00968171877,-0.00203277161818,-0.776176289532,0.573926909605,0.818873580566,0.00589138215587,0.0,0.818869623411,-0.573838047894,-0.0119658491398,0.0,-0.00641794205916,0.0116920218126,-0.999911049367,0.0,0.292309084423,-0.224269777083,0.304938213886,1.0,-0.165538285714,-0.217564604082,2.358
-0.52627182688,-0.530093948991,-0.136341203015,-2.64825487255,-0.0737042692552,2.10883899197,-0.779709123637,-0.744336678597,0.0164524035694,0.0462283088307,0.0113461578636,0.023185412527,-0.0013018415453,-0.733695027195,0.573824881896,0.818945065544,0.00589333848134,0.0,0.81894109198,-0.573735956732,-0.0119702431612,0.0,-0.00642187501926,0.0116953455912,-0.999910985245,0.0,0.289706361374,-0.227641901068,0.304930430046,1.0,-0.155581714286,-0.20447882449,2.374
-0.539296212032,-0.529792583044,-0.13568637409,-2.64807445718,-0.0733814447292,2.10884024688,-0.79223167683,-0.706398740532,0.0182487929697,0.0315441648038,0.0115725228794,0.0183009812575,0.00163967788749,-0.682451341138,0.573922254732,0.818876361514,0.00595793407607,0.0,0.81887302779,-0.573832680154,-0.0119902646915,0.0,-0.00639981026132,0.0117604976889,-0.999910362544,0.0,0.286906677077,-0.231243959844,0.304919792345,1.0,-0.144380571429,-0.189757322449,2.392
-0.550058761906,-0.529354492901,-0.134990642597,-2.64779714688,-0.0730543706603,2.10888488591,-0.802607679994,-0.649140743471,0.0292542797487,0.0434521762436,0.021555716546,0.0245046814512,0.0111616775785,-0.646058354889,0.573903694338,0.818889303571,0.0059669945498,0.0,0.818885891479,-0.573813725622,-0.0120188154997,0.0,-0.00641825965233,0.0117841571498,-0.999909965739,0.0,0.284629265646,-0.234184689039,0.304907933434,1.0,-0.134424,-0.176671542857,2.408
-0.56071540285,-0.528787139006,-0.134279384412,-2.64744395004,-0.0726827647115,2.1089606634,-0.812921661194,-0.618035517868,0.045208310395,0.0400058382681,0.0218383284435,0.0256215148759,0.00663541085094,-0.599054417321,0.573861486303,0.818918679728,0.00599478370912,0.0,0.818915261455,-0.573770733556,-0.0120700775506,0.0,-0.00644490461002,0.0118360003912,-0.999909182026,0.0,0.282374542755,-0.237084678815,0.304886289499,1.0,-0.123845142857,-0.162767902041,2.425
-0.570716933646,-0.528155169202,-0.133618907988,-2.64697815735,-0.0723227299977,2.10908811077,-0.822393060248,-0.559399313013,0.0436907891353,0.0438677936969,0.0280199707269,0.0245469562745,0.00912716984988,-0.553432266029,0.574009442459,0.818814812688,0.00601742398206,0.0,0.818811939165,-0.573919023796,-0.0120295181527,0.0,-0.00639655670896,0.0118324234183,-0.999909534817,0.0,0.280271245469,-0.239825021966,0.304895117903,1.0,-0.113266285714,-0.148864261225,2.442
-0.579110678098,-0.527436498936,-0.132872133447,-2.64651150178,-0.0719174625813,2.10921537292,-0.830595395071,-0.52128230837,0.045316292136,0.0482833377301,0.0324370865804,0.0204316301557,0.011001339949,-0.494083166646,0.573825982259,0.818943358838,0.00602195989782,0.0,0.818940222785,-0.573734988673,-0.0120756440334,0.0,-0.00643438327293,0.0118611718435,-0.999908951512,0.0,0.278448164459,-0.242208386113,0.304875970587,1.0,-0.102687428572,-0.134960620408,2.459
-0.587479032681,-0.526726783099,-0.132167610119,-2.64601259241,-0.07153900831,2.10931819967,-0.838534243814,-0.479352062979,0.0423151845561,0.0400682227927,0.029258654849,0.0182876148234,0.00482834418208,-0.451938331221,0.573882237556,0.818904001043,0.00601343450692,0.0,0.818900492084,-0.573790787528,-0.0121187092571,0.0,-0.006473730816,0.0118793451758,-0.999908481796,0.0,0.276810932452,-0.244319658687,0.304868597478,1.0,-0.092730857143,-0.121874840816,2.475
-0.595468919171,-0.525947478567,-0.131455363134,-2.64545365195,-0.0710935285152,2.10945866601,-0.846097951928,-0.424923564199,0.0381414009889,0.0438354698997,0.0312331161189,0.0278148754317,0.00578496393515,-0.405189572153,0.573949242584,0.818856767756,0.00605043286243,0.0,0.818853637907,-0.573857426786,-0.0121293161292,0.0,-0.00646021114637,0.0119162601907,-0.999908129987,0.0,0.275173122294,-0.246459023502,0.304867576223,1.0,-0.0815297142858,-0.107153338776,2.493
-0.601603715765,-0.525268913346,-0.130720538187,-2.64501806344,-0.0706704880765,2.10957986971,-0.852020381572,-0.372618478815,0.0407233947068,0.0477620682497,0.0222520359723,0.0269268424439,0.0129899086119,-0.358834716664,0.57380872866,0.818955216059,0.00605342087607,0.0,0.81895169858,-0.573716144268,-0.0121921327109,0.0,-0.00651199076987,0.0119536416238,-0.999907347922,0.0,0.273952078413,-0.248045393991,0.304845993463,1.0,-0.0715731428572,-0.0940675591838,2.509
-0.607564132151,-0.52468895578,-0.130012427825,-2.64457210229,-0.0702459944971,2.10970304118,-0.857555590684,-0.33915650842,0.0297223946628,0.0400871659057,0.0321858338236,0.0216078701932,0.0132260921938,-0.306615233697,0.573861725641,0.818917979717,0.00606706204344,0.0,0.818914924717,-0.573769592898,-0.0121469025828,0.0,-0.00646634570141,0.0119392800021,-0.999907815734,0.0,0.272765208322,-0.249588382407,0.304864506195,1.0,-0.0609942857144,-0.0801639183675,2.526
-0.612946039835,-0.524081692016,-0.129242433036,-2.64411055917,-0.0697532145474,2.10985096467,-0.862497688606,-0.273650038446,0.0382380063041,0.0413407656427,0.0238645390073,0.0293248598968,0.012857817853,-0.259936634739,0.573912568834,0.818882124463,0.00609725100637,0.0,0.818879811072,-0.573820938466,-0.0120885274947,0.0,-0.0064004720109,0.0119309033269,-0.999908339551,0.0,0.271740954782,-0.250954307481,0.304883548959,1.0,-0.0497931428572,-0.0654424163267,2.544
-0.616749037905,-0.523614581496,-0.128639184082,-2.64376559425,-0.0693676505564,2.10994903196,-0.865954247491,-0.240333513958,0.0325145660348,0.0393732765028,0.0161628340732,0.024486870772,0.0129612531305,-0.21688515374,0.573952656995,0.818853865023,0.00611900038725,0.0,0.818851927397,-0.573861096324,-0.0120710407797,0.0,-0.0063730848283,0.0119389910516,-0.999908417948,0.0,0.271031346171,-0.251903077443,0.304892389656,1.0,-0.040458857143,-0.0531744979593,2.559
-0.62033827773,-0.523225668398,-0.127891029527,-2.64347200704,-0.0689193522219,2.11001334044,-0.869162206748,-0.191090041287,0.0228118119734,0.0478287070435,0.0142522863783,0.0264241350586,0.00296790934935,-0.162899409242,0.573948736253,0.818856596933,0.00612116930651,0.0,0.818854746136,-0.57385727682,-0.0120614042622,0.0,-0.00636400542601,0.011935206062,-0.999908520961,0.0,0.270360529891,-0.252779251388,0.304906910894,1.0,-0.0292577142858,-0.0384529959185,2.577
-0.623186965511,-0.522918853622,-0.127037273493,-2.6432569007,-0.0684812883247,2.11009460308,-0.871614291743,-0.146791818406,0.0129628532347,0.0478554277934,0.0113848871112,0.026088354049,0.00924286596474,-0.118703182886,0.573861376097,0.818918184226,0.00607251757104,0.0,0.818915947058,-0.573770605549,-0.0120295786632,0.0,-0.00636713121892,0.0118764207011,-0.999909201013,0.0,0.269946968221,-0.253331067881,0.304920097092,1.0,-0.0199381818182,-0.0262044675325,2.594
-0.624998625677,-0.522731600457,-0.126509890166,-2.64310387569,-0.0681801315341,2.11012881472,-0.873186893661,-0.111318027341,0.0120157732728,0.029896912465,0.00921174317589,0.0226114415175,0.000714560727911,-0.115359947729,0.573820308573,0.818947021296,0.00606437810406,0.0,0.81894484871,-0.573729899092,-0.0120035228169,0.0,-0.00635105649578,0.0118544846113,-0.999909563549,0.0,0.269662666898,-0.2537113579,0.304936683052,1.0,-0.0196381818182,-0.0258101818182,2.609
-0.626849002358,-0.522517433764,-0.1260774879,-2.64290677435,-0.0679558057372,2.11016387977,-0.874902426302,-0.0997845673105,0.0108373211382,0.0206861727885,0.00874446448182,0.015221490437,-0.000935150882024,-0.0880675274663,0.573730521955,0.819010141836,0.00603511783845,0.0,0.819007863697,-0.573640765531,-0.0119640388323,0.0,-0.00633680152709,0.0118071705366,-0.999910213804,0.0,0.269351065831,-0.254141539182,0.304961104976,1.0,-0.0192781818182,-0.025337038961,2.627
-0.62845689204,-0.522284147916,-0.125872796791,-2.64271367717,-0.0677985496575,2.11024942937,-0.876471087351,-0.0930097435329,0.0137614515834,0.0067098612993,0.00986338809386,0.0128367197999,0.00493501765539,-0.0904791205853,0.573694875751,0.819034949337,0.00605707874997,0.0,0.819033321084,-0.573605719444,-0.0119014484816,0.0,-0.00627344802337,0.0117889763069,-0.999910827968,0.0,0.269053081319,-0.254569123094,0.30497547701,1.0,-0.0189381818182,-0.0248901818182,2.644
-0.629938993115,-0.522052467497,-0.125758141771,-2.64254437087,-0.0677299133582,2.11027030574,-0.877825785913,-0.0982509637056,0.0153876801606,0.00408334418812,0.00905598389905,0.00136457458163,0.000124985817578,-0.0874671037848,0.573756324359,0.818991918751,0.00605509538214,0.0,0.818990079536,-0.573666815817,-0.0119323490111,0.0,-0.00629901139995,0.0118055510516,-0.999910471702,0.0,0.268743652631,-0.254976822163,0.304971877069,1.0,-0.0186181818182,-0.0244696103896,2.66
-0.631433579474,-0.521829347898,-0.125697099361,-2.64238474355,-0.0677018715773,2.11028263421,-0.879267386207,-0.0823373181097,0.00930545121026,0.00236926351283,0.00962340775046,4.68886399263e-05,0.00177805824612,-0.084287442764,0.573776987153,0.818977491828,0.00604845383866,0.0,0.818975307703,-0.57368701805,-0.0119748735067,0.0,-0.00633735443665,0.0118246688474,-0.999910003523,0.0,0.268412000481,-0.255400077273,0.30496497304,1.0,-0.0182781818182,-0.0240227532468,2.677
-0.632910008812,-0.521580719589,-0.125626784145,-2.64221305175,-0.0676623625886,2.11034557343,-0.880768394933,-0.0768775579225,0.0130745378155,0.00635940679785,0.0103871435798,0.00413898965537,0.00621604752392,-0.0770851215175,0.57373308882,0.819008293328,0.00604194947358,0.0,0.819005998324,-0.573643106736,-0.0119794701647,0.0,-0.00634548491807,0.0118216388837,-0.999909987787,0.0,0.268097693872,-0.255824393766,0.304958710085,1.0,-0.0179181818182,-0.0235496103896,2.695
-0.634088953965,-0.521375522341,-0.125589124764,-2.64208178036,-0.0676364209148,2.11037917125,-0.881946824923,-0.0764269476416,0.00858407472065,0.00192696455014,0.00930862535304,0.00195480278489,0.000313646471793,-0.0896071995569,0.573713682587,0.819021875193,0.00604361383691,0.0,0.819019336238,-0.573623203533,-0.012020571435,0.0,-0.00637847663302,0.0118464309785,-0.999909484458,0.0,0.26782023031,-0.25618424214,0.304944166506,1.0,-0.0175981818182,-0.023129038961,2.711
-0.635411125345,-0.521155028888,-0.125584643875,-2.641941386,-0.0676031344631,2.11038949238,-0.883326050584,-0.0820335070981,0.014739120868,0.00143226017017,0.0101534388286,0.00215966186296,-0.000322466485632,-0.0766619294356,0.573696904054,0.819033419611,0.00607179872792,0.0,0.81903087937,-0.573605624347,-0.0120728313717,0.0,-0.00640535778552,0.0118993657323,-0.999908684074,0.0,0.267531964355,-0.256546528355,0.304930495879,1.0,-0.0172781818182,-0.0227084675325,2.727
-0.636716747184,-0.520961012157,-0.125584540427,-2.64178827977,-0.0675779859109,2.1104221617,-0.884565505947,-0.0817810179016,0.00823515694194,0.000104904053109,0.0082769273858,0.00116540622963,0.00126909551792,-0.0767351636164,0.573769808803,0.818982218746,0.00608923520781,0.0,0.818979891507,-0.57367841216,-0.012073260952,0.0,-0.0063946463734,0.0119144632082,-0.999908572853,0.0,0.267235499138,-0.256933104541,0.304931553495,1.0,-0.0169381818182,-0.0222616103896,2.744
-0.637997323771,-0.520778903529,-0.125578803686,-2.64162099759,-0.0675428252148,2.11047109776,-0.885877547388,-0.0747210443854,0.0150857838595,7.35639730624e-05,0.013206153201,0.00103091101916,0.00494038714883,-0.0742834659709,0.573763618344,0.818986405748,0.00610936710014,0.0,0.818984590933,-0.573672604387,-0.0120303654076,0.0,-0.00634805140921,0.0119062927347,-0.999908967075,0.0,0.266953185871,-0.2573164423,0.304944948327,1.0,-0.0165981818182,-0.0218147532468,2.761
-0.639269674736,-0.520598107273,-0.125564017075,-2.64146214861,-0.0675185444974,2.11051741148,-0.887150261369,-0.0729224902389,0.0129378532695,-0.000622440945399,0.0119314289153,0.000237772201633,0.00451949152453,-0.0681870033454,0.573771447431,0.818980866906,0.00611658868816,0.0,0.818979341647,-0.573680768707,-0.0119983528902,0.0,-0.0063175737838,0.011893901076,-0.999909307577,0.0,0.266671090898,-0.25769392151,0.304954967431,1.0,-0.0162581818182,-0.0213678961039,2.778
-0.640494828195,-0.520419032119,-0.125536437852,-2.64130696145,-0.0674977697918,2.11053240554,-0.888367697742,-0.072024175711,0.00928151993672,-0.000336545001184,0.0102890353735,5.27594568494e-05,0.00180937771057,-0.0679847533763,0.573775169467,0.818978253024,0.00611742407029,0.0,0.818976726352,-0.573684463313,-0.0120002144727,0.0,-0.00631856519213,0.0118956820603,-0.999909280126,0.0,0.266397291689,-0.258050819346,0.304961573569,1.0,-0.0159181818182,-0.020921038961,2.795
-0.641608825563,-0.520240914505,-0.125476917177,-2.64116945931,-0.0674742939056,2.11056586428,-0.88954577351,-0.0681860291149,0.0105918457402,0.00195313461571,0.00813939725676,0.00113286234608,0.00858684505897,-0.0734652874901,0.573697755916,0.819032578112,0.00610473175314,0.0,0.819030888604,-0.573607123884,-0.01200074342,0.0,-0.00632740402168,0.0118849922648,-0.99990935135,0.0,0.266157750339,-0.258368630511,0.304962820733,1.0,-0.0155981818182,-0.0205004675325,2.811
-0.642749222307,-0.520040197293,-0.125431061759,-2.64102105654,-0.0674490019688,2.11061638939,-0.890706344965,-0.0668154753398,0.0140527471603,0.0026937567695,0.00899443879376,0.000239349474435,0.00901559758535,-0.060478746394,0.573667355496,0.819053924776,0.00609757720957,0.0,0.819052177579,-0.573576826398,-0.0119958961159,0.0,-0.00632797864358,0.0118761165451,-0.999909453172,0.0,0.265912949049,-0.258700831743,0.304961829782,1.0,-0.0152581818182,-0.0200536103896,2.828
-0.643894754356,-0.519831951851,-0.125370229632,-2.64086689911,-0.0674246675244,2.11065532246,-0.89182685729,-0.0667589492748,0.0152581550923,0.000705263594294,0.00656123216276,3.24883149496e-05,-6.30489040396e-05,-0.0653641912016,0.573663246484,0.819056915776,0.0060823724548,0.0,0.8190549298,-0.573572705437,-0.0120050176856,0.0,-0.00634423208117,0.011868863076,-0.999909436303,0.0,0.26566888628,-0.259030707643,0.304960035438,1.0,-0.0149181818182,-0.0196067532468,2.845
-0.645024028773,-0.519645016655,-0.125334693188,-2.64073090859,-0.0673954474303,2.1106801396,-0.892999922903,-0.0668687230275,0.0100874991235,0.00320103844072,0.00890891457889,0.00337949307888,0.0003342611173,-0.06511995267,0.573621849048,0.819085867643,0.00608790802146,0.0,0.819083824257,-0.573531051204,-0.0120236868916,0.0,-0.00635695011371,0.0118837852908,-0.999909178292,0.0,0.265417636405,-0.259354839663,0.304956014607,1.0,-0.0145781818182,-0.0191598961039,2.862
-0.646078732025,-0.519477560593,-0.125319772834,-2.64060826369,-0.0673754005531,2.11070888852,-0.894015635624,-0.0701279374338,0.0149744183318,0.00137808992254,0.0099956156745,0.000177016066081,0.00302003150589,-0.0636605958032,0.573658241701,0.819060328147,0.00609487378058,0.0,0.819058308652,-0.573567281728,-0.0120335888505,0.0,-0.00636053750593,0.0118954534558,-0.999909016736,0.0,0.265178054884,-0.259661872437,0.304952930363,1.0,-0.0142581818182,-0.0187393246753,2.878
-0.647237648963,-0.519305129858,-0.125313362409,-2.64045464194,-0.0673510174629,2.11075320491,-0.89515772802,-0.0690315898857,0.0138247247813,0.00249401964538,0.00829343115485,0.000111480645974,0.00303961311641,-0.0613300584643,0.573685810164,0.819040941368,0.00610528307047,0.0,0.819039254962,-0.573595170669,-0.0120010798554,0.0,-0.00632753668212,0.0118855445506,-0.999909343946,0.0,0.26491905728,-0.26000774078,0.304963211282,1.0,-0.0138981818182,-0.0182661818182,2.896
-0.648236142755,-0.519154471744,-0.125285438888,-2.64032279098,-0.0673322597382,2.11079420705,-0.896159921567,-0.0643599502266,0.00907975229353,0.0027080599937,0.00816210947803,0.000108683345876,0.0020492865678,-0.0655479339767,0.573677793436,0.8190465866,0.00610124556813,0.0,0.819045026463,-0.573587508641,-0.0119733644994,0.0,-0.00630726651276,0.0118662766264,-0.999909700857,0.0,0.26470051377,-0.260301089406,0.304971829496,1.0,-0.0135781818182,-0.0178456103896,2.912
-0.649239700025,-0.518974111188,-0.125274333844,-2.64017047306,-0.0673110922611,2.1108245674,-0.897148945389,-0.0546270153411,0.0106447307694,-0.00140146248824,0.010057468812,0.00469416162993,0.0038445897837,-0.0604187600641,0.573698763507,0.819031857601,0.00610670832302,0.0,0.819030415716,-0.573608540489,-0.0119652543338,0.0,-0.00629718567566,0.0118662599351,-0.999909764593,0.0,0.264479238497,-0.26060228209,0.304977498828,1.0,-0.0132381818182,-0.0173987532468,2.929
-0.650245169226,-0.518790887402,-0.125250562597,-2.64003566929,-0.0672963984946,2.11085935248,-0.89815345132,-0.0576439331258,0.00837640025831,-0.000553386749522,0.00979581503649,-0.000327047338357,0.00565161526057,-0.0584145273992,0.573696068086,0.81903377484,0.00610278908352,0.0,0.819032233216,-0.573605770097,-0.0119736529651,0.0,-0.00630635257146,0.0118678470915,-0.999909687983,0.0,0.264255930368,-0.260897764843,0.30497481865,1.0,-0.0128981818182,-0.0169518961039,2.946
-0.651167774832,-0.518630821594,-0.125239155792,-2.63992194815,-0.0672802423026,2.11088147046,-0.899122626507,-0.0582084020531,0.00855284316133,-0.001207844535,0.0106019637296,0.00019916938989,6.27090380067e-05,-0.0639009129638,0.573662752901,0.81905705982,0.00610946758902,0.0,0.819055477028,-0.573572193064,-0.0119921555656,0.0,-0.00631816059916,0.0118836746631,-0.99990942546,0.0,0.264045052726,-0.261166930181,0.304969706164,1.0,-0.0125781818182,-0.0165313246753,2.962
-0.652201505014,-0.51846362973,-0.125230935234,-2.6398019883,-0.0672716832914,2.11092215674,-0.900130020155,-0.057773074473,0.00525060830245,-0.00159366504565,0.00561680267567,-0.000174691468228,-0.000640704136543,-0.0563289915464,0.573688478918,0.819039044081,0.00610903665688,0.0,0.819037449897,-0.57359790461,-0.0119935980685,0.0,-0.00631921613606,0.011884347648,-0.999909410791,0.0,0.263807676246,-0.261470802682,0.304966300125,1.0,-0.0122181818182,-0.0160581818182,2.98
-0.653151879991,-0.518292773804,-0.125230578091,-2.6396831567,-0.067260678324,2.1109529705,-0.901041864715,-0.0519075480025,0.00819631604394,0.000640137974579,0.00484382078317,-0.000255344843616,0.000326066407816,-0.0505583459468,0.573730784495,0.819009366198,0.00611489197444,0.0,0.81900774375,-0.573639980177,-0.0120098177233,0.0,-0.00632852853448,0.0118987751116,-0.999909180315,0.0,0.263588375748,-0.261752216198,0.304959996504,1.0,-0.0118781818182,-0.0156113246753,2.997
-0.654005544645,-0.518138373518,-0.125230131239,-2.63956460465,-0.0672481337402,2.11098406695,-0.901902479602,-0.0506021649721,0.00700331272684,0.00134115141565,0.0053928870536,-0.000253381605084,0.00387693557648,-0.0516619420877,0.573736338676,0.8190054318,0.00612072431624,0.0,0.81900387975,-0.57364549814,-0.0120097593246,0.0,-0.00632505394898,0.0119035614856,-0.999909145331,0.0,0.263394625071,-0.262008051616,0.304959647449,1.0,-0.0115581818182,-0.0151907532468,3.013
-0.654885634038,-0.517975338221,-0.125202915347,-2.63945207305,-0.0672413889802,2.11101444758,-0.902785592293,-0.0525059994815,0.00995158175665,0.000595770452366,0.00780914795663,-5.54971655855e-06,-3.30605372114e-05,-0.0510244366482,0.573723398574,0.81901457617,0.00611006140017,0.0,0.81901279297,-0.573632432481,-0.012025982664,0.0,-0.00634464786518,0.0119040352873,-0.999909015555,0.0,0.263197372227,-0.262263661061,0.304953941585,1.0,-0.0112181818182,-0.0147438961039,3.03
-0.655737033846,-0.517818044703,-0.125174176543,-2.63933598126,-0.0672280161624,2.11104108841,-0.903588483282,-0.0452166322963,0.00529980322024,0.00583818208565,0.00697688769699,-2.17309056808e-05,0.000336721533133,-0.0511837101463,0.573754544894,0.818992810078,0.00610296278994,0.0,0.818990878564,-0.573663497723,-0.0120365738788,0.0,-0.00635694287498,0.0119045390243,-0.999908931467,0.0,0.263008691376,-0.262511067675,0.304951682101,1.0,-0.0108781818182,-0.014297038961,3.047
-0.656525874973,-0.517676647871,-0.125146484897,-2.63923116209,-0.0672144712894,2.1110740918,-0.904338953047,-0.0478002981877,0.00790766525749,0.00183483412182,0.00420166071581,0.000342874680448,0.000915624447009,-0.0526686713398,0.573777597472,0.818976710407,0.00609617512899,0.0,0.818974701879,-0.573686595679,-0.0120363832245,0.0,-0.00636034603839,0.0118990493513,-0.999908975169,0.0,0.262834790217,-0.262740371278,0.304950670803,1.0,-0.0105581818182,-0.0138764675325,3.063
-0.657330830021,-0.517536390632,-0.125154601497,-2.63912460435,-0.0672029621564,2.11110357784,-0.90517333085,-0.0512926811644,0.00847813400337,-0.00222543153587,0.00602417556359,-0.000239821594661,0.0029364445492,-0.0443251453728,0.573769752408,0.818982129849,0.00610648104518,0.0,0.818980247343,-0.57367869301,-0.0120357197203,0.0,-0.00635400364016,0.0119070485283,-0.999908920269,0.0,0.262648261627,-0.262981750251,0.304949716726,1.0,-0.0102181818182,-0.0134296103896,3.08
-0.65815092815,-0.517371980001,-0.125146385996,-2.63899506097,-0.0671856020319,2.11112988153,-0.906018344903,-0.0436914662921,0.0114890765652,0.00186329676231,0.00641450910095,0.000964004326772,0.0030500823807,-0.0449360183272,0.573757680353,0.818990547996,0.00611174534287,0.0,0.818988703462,-0.573666543695,-0.0120393998598,0.0,-0.00635417319946,0.0119133779001,-0.9999088438,0.0,0.262465851632,-0.263227916422,0.304950412853,1.0,-0.00985818181819,-0.0129564675325,3.098
-0.658834790132,-0.51723929521,-0.125136927045,-2.63890422883,-0.0671712026388,2.1111665062,-0.906663587382,-0.041279495085,0.00562742841811,0.000312186973093,0.00166719526538,0.00016323464494,-0.000136515853633,-0.0414526658589,0.57379354538,0.818965398445,0.00611476337805,0.0,0.818963584598,-0.573702372087,-0.0120408581681,0.0,-0.00635311426967,0.0119169646713,-0.999908807788,0.0,0.262312633992,-0.263430248747,0.304946119131,1.0,-0.00955818181819,-0.0125621818182,3.113
-0.659624206227,-0.517087916534,-0.125103610726,-2.63881230859,-0.0671546771339,2.1111944682,-0.907424513352,-0.0454886037235,0.0101249950005,0.00169944694576,0.00610205287147,0.000603636334685,-0.000654808714314,-0.0423888353714,0.573805227634,0.818957241558,0.00611098524273,0.0,0.818955210154,-0.573713752788,-0.0120681615935,0.0,-0.00637747483865,0.0119296270963,-0.99990850172,0.0,0.26213536577,-0.263653508181,0.304935246561,1.0,-0.00919818181819,-0.012089038961,3.131
-0.660280952836,-0.516953375527,-0.125069198968,-2.63873346994,-0.0671393314572,2.11121384098,-0.908078048374,-0.0372686668026,0.00655481469677,0.00299272051543,0.00315381964041,0.000109722483154,0.000315377464206,-0.037044601066,0.573797016183,0.818963022589,0.00610727049933,0.0,0.818960729127,-0.573705160255,-0.012102071929,0.0,-0.00640750017024,0.0119459774607,-0.999908114561,0.0,0.261979910642,-0.263849749101,0.304923424597,1.0,-0.00885818181819,-0.0116421818182,3.148
-0.660906445859,-0.516823334388,-0.125033191484,-2.6386655789,-0.0671213558945,2.11123817752,-0.908751329253,-0.0369260699331,0.0092191666447,0.00279616498797,0.00658187833242,0.00161696923747,0.00089743524307,-0.0466921618543,0.573740948198,0.819002319799,0.00610503279991,0.0,0.818999784191,-0.573648717583,-0.0121346286412,0.0,-0.0064362686887,0.0119623842012,-0.999907733648,0.0,0.261849957276,-0.264010478861,0.304909748373,1.0,-0.00855818181819,-0.0112478961039,3.163
-0.661586807474,-0.516696470348,-0.124998381156,-2.63858317349,-0.0671069365868,2.11126335191,-0.909421846782,-0.034993541834,0.00890649979875,0.00202872511724,0.00346810909386,2.62108668186e-05,-0.000205902357073,-0.033630476011,0.573734833371,0.819006652761,0.00609841048309,0.0,0.81900393538,-0.573642456377,-0.012150431096,0.0,-0.00645310097423,0.0119659781276,-0.999907582157,0.0,0.261699107092,-0.264202338967,0.304903372077,1.0,-0.00819818181819,-0.0107747532468,3.181
-0.662194229213,-0.516573272293,-0.124990151512,-2.63849007669,-0.0670834960154,2.11128355588,-0.910025198931,-0.030681981957,0.00393807062291,0.000299939090062,0.00487714257736,0.000256066383636,0.00196425120523,-0.0334123408619,0.57374719512,0.818997903085,0.00611046114707,0.0,0.818995296813,-0.573654676184,-0.0121557884345,0.0,-0.00645039481765,0.0119790190928,-0.999907443471,0.0,0.261564065951,-0.264382016079,0.304902155051,1.0,-0.00785818181819,-0.0103278961039,3.198
-0.662769309363,-0.516491206243,-0.124989142944,-2.63842067703,-0.0670660052018,2.111303983,-0.910559945242,-0.0363724188676,0.00128543926065,-0.000694391100856,0.00587109129249,0.000127882395458,-7.91430416589e-05,-0.0340633940139,0.573790554521,0.818967440974,0.00612185159633,0.0,0.818965051753,-0.573698102829,-0.0121440404647,0.0,-0.00643360296267,0.0119819489115,-0.99990751655,0.0,0.261430897161,-0.264549922579,0.304905186598,1.0,-0.00753818181819,-0.00990732467533,3.214
-0.663354642457,-0.516419385167,-0.124982714025,-2.63834783061,-0.067046455678,2.11131987926,-0.91112852206,-0.0317226721717,-0.000869462931168,0.000130678177371,0.00634218909088,8.49606155606e-05,-9.76092786718e-05,-0.0311440463725,0.5738117447,0.818952516818,0.0061321890511,0.0,0.818950389798,-0.573719480204,-0.0121228702962,0.0,-0.00641002223804,0.0119784345912,-0.999907710101,0.0,0.26129659527,-0.264719491163,0.304913303459,1.0,-0.00719818181819,-0.00946046753247,3.231
-0.663906523867,-0.516354147555,-0.124981615755,-2.63827135939,-0.0670242793889,2.11133120167,-0.911693781894,-0.0325190625656,0.0036362022726,-0.000570791519334,0.00641446026592,0.00282668329191,3.31659721864e-06,-0.0320822255957,0.573813300994,0.818951315656,0.00614695768767,0.0,0.818949539514,-0.573721267594,-0.0120956910226,0.0,-0.00637926454096,0.0119749471161,-0.999907948576,0.0,0.261170353359,-0.264881550057,0.30492498007,1.0,-0.00685818181819,-0.00901361038962,3.248
-0.664398768051,-0.516285171009,-0.124959990523,-2.63819761113,-0.0670010442048,2.11135156333,-0.912203256454,-0.0249430735935,0.00579793563019,0.00275434199818,0.00114662661708,0.00253967794062,-9.32429116244e-05,-0.0274459900038,0.573797458038,0.818962383526,0.00615129420877,0.0,0.81896084196,-0.57370574382,-0.0120667205346,0.0,-0.00635327971117,0.0119617529548,-0.999908271945,0.0,0.261065184099,-0.265023956141,0.304935294097,1.0,-0.00653818181819,-0.00859303896105,3.264
-0.664922144047,-0.516191014778,-0.12491260131,-2.638104558,-0.0669756308364,2.11138278939,-0.91271711081,-0.0267175951971,0.00353132072027,0.0041282518482,0.00378941718827,5.03377614101e-05,0.000876087569921,-0.0363037398051,0.573787150164,0.818969677882,0.0061416543875,0.0,0.818968230521,-0.57369589373,-0.0120335288574,0.0,-0.00633177525562,0.0119347338363,-0.99990873121,0.0,0.260963108562,-0.265174794363,0.30494662014,1.0,-0.00617818181819,-0.0081198961039,3.282
-0.665389330001,-0.516109043207,-0.124861103687,-2.63803310628,-0.0669509681733,2.11140145656,-0.913179015001,-0.032851225839,0.00687764238181,0.00343799556452,0.00507622627131,0.00132374669032,0.00493332387377,-0.0268794665498,0.573769084622,0.81898239844,0.00613314588356,0.0,0.818980917896,-0.573678014594,-0.0120224205472,0.0,-0.00632782169129,0.0119212521987,-0.999908917061,0.0,0.260870130586,-0.265302924838,0.304951650967,1.0,-0.00583818181819,-0.00767303896105,3.299
-0.665782550203,-0.516015359269,-0.124823077047,-2.63797917263,-0.0669271381017,2.11141924362,-0.913591374371,-0.0187890464483,0.00613416834984,-0.000271674868162,0.00687596598766,-0.000121572746048,-0.000114065258065,-0.0160164414487,0.573739482268,0.819003133506,0.00613357121221,0.0,0.819001535952,-0.573648185987,-0.0120411678483,0.0,-0.00634336432876,0.0119321273813,-0.999908688864,0.0,0.260789301443,-0.265409840332,0.30494400658,1.0,-0.00551818181819,-0.00725246753247,3.315
-0.666195314795,-0.515917746653,-0.124782301926,-2.63794329488,-0.0669037235103,2.11144415862,-0.914017770119,-0.0204436667546,0.00934991593178,0.00300926222739,0.00114247700538,0.000450855776752,0.00324229481324,-0.0318579819984,0.573711442018,0.819022767303,0.0061347240499,0.0,0.819020967949,-0.573619739387,-0.0120745826649,0.0,-0.00637048194902,0.0119520239754,-0.999908278835,0.0,0.260700761749,-0.265517526229,0.30492737982,1.0,-0.00517818181819,-0.00680561038962,3.332
-0.666608259637,-0.515842722708,-0.124766520455,-2.63792464244,-0.0668790035052,2.11145911626,-0.91443959614,-0.0230497832739,0.00148336426524,0.000200591236335,0.00062369152617,0.00034230428354,0.00268030157152,-0.0250943441544,0.573704716163,0.819027348241,0.00615210422116,0.0,0.819025520706,-0.573612460917,-0.0121114827289,0.0,-0.00639083498399,0.0119873759186,-0.999907725766,0.0,0.260601745559,-0.26562497781,0.304909826807,1.0,-0.00481818181819,-0.00633246753247,3.35
-0.666939550901,-0.515794785691,-0.124757727449,-2.6379029068,-0.0668621238282,2.1114616774,-0.914766991134,-0.0233315600144,2.44432782736e-06,-0.000619029326526,0.00109198850399,-0.000106224853882,0.000449420376462,-0.01437274407,0.573710094397,0.819023485631,0.00616477689716,0.0,0.819021680705,-0.573617514092,-0.0121318161652,0.0,-0.0064001415865,0.0120094625522,-0.999907401211,0.0,0.260521473384,-0.265712911284,0.304902443661,1.0,-0.00451818181819,-0.00593818181819,3.365
-0.667316119847,-0.515734414228,-0.124732412627,-2.637879478,-0.0668351073166,2.11146754967,-0.91515261971,-0.0190051949128,0.00496649547443,-3.74926992955e-05,0.000543391424085,0.0036592669523,0.000370343006956,-0.0262735990745,0.573697584832,0.819032144159,0.00617858344142,0.0,0.819030332102,-0.573604593879,-0.0121586134123,0.0,-0.00641435486366,0.0120360461287,-0.999906990497,0.0,0.260434362764,-0.265808736978,0.304891916462,1.0,-0.00415818181819,-0.00546503896105,3.383
-0.667654159468,-0.515697315453,-0.124710885143,-2.63782705408,-0.0668232516813,2.11147044462,-0.915459454116,-0.0203961558491,-0.000737817534179,0.0010757699475,0.00173950814933,0.000263142053337,0.000205237515912,-0.0212491327377,0.573715488904,0.819019631087,0.00617483500451,0.0,0.819017904233,-0.573622762736,-0.0121385961891,0.0,-0.00639984587485,0.0120216325253,-0.999907256861,0.0,0.260361824526,-0.265904364472,0.304902795813,1.0,-0.00381818181819,-0.00501818181819,3.4
-0.667936567108,-0.515661569504,-0.12469171512,-2.63777964312,-0.0668025641546,2.11147805296,-0.915732762438,-0.0175017623757,0.00155654643219,0.00120530613115,0.00196190561949,-0.000133323601,-0.000151047134002,-0.0155183269998,0.573720492754,0.819016091352,0.00617941750167,0.0,0.819014560193,-0.573628000711,-0.0121166783076,0.0,-0.00637919041983,0.0120128508412,-0.999907494393,0.0,0.260303964078,-0.265984511426,0.304912249161,1.0,-0.00349818181819,-0.00459761038962,3.416
-0.668211773141,-0.515625268636,-0.124675562169,-2.63772835246,-0.0667867598344,2.11148746761,-0.915983590208,-0.0188693690444,0.000739435650743,0.0026159391466,0.00256103406132,0.000331253100379,0.00054161296251,-0.0186911415289,0.57373824708,0.819003647956,0.00618024064957,0.0,0.81900229676,-0.573646066644,-0.0120902864896,0.0,-0.00635684038917,0.0119985220725,-0.999907808775,0.0,0.260248021128,-0.26606516886,0.304923339882,1.0,-0.00315818181819,-0.00415075324676,3.433
-0.668456670581,-0.515585872242,-0.12465147122,-2.63768466895,-0.0667684006075,2.11149664705,-0.91622286321,-0.0201220100013,0.00184315278458,-0.000956088048752,0.00302240993971,0.00114543604615,0.000191644047491,-0.0190082868278,0.573735757331,0.819005389208,0.00618062361346,0.0,0.819004141159,-0.573643761138,-0.0120747245438,0.0,-0.00634391043871,0.0119898884076,-0.999907994456,0.0,0.260200304799,-0.26613389278,0.304929999865,1.0,-0.00281818181819,-0.0037038961039,3.45
-0.668673641545,-0.515571433828,-0.124625160337,-2.63765873393,-0.0667526910633,2.11150223853,-0.916417236781,-0.0141100938651,0.00228945286885,0.00214653037864,0.000794210702597,0.000690821214235,-0.000163636737711,-0.00583350576964,0.573743527629,0.818999957392,0.00617909357644,0.0,0.818998811148,-0.573651766687,-0.0120559038303,0.0,-0.00632925863452,0.0119778976971,-0.999908231015,0.0,0.26015625148,-0.266190421109,0.304937554812,1.0,-0.00249818181819,-0.00328332467533,3.466
-0.668895282505,-0.515560177365,-0.124597945467,-2.63764193454,-0.066737852159,2.11151331424,-0.916626640682,-0.0100971104872,-0.001304354998,0.00377284411856,0.000261125084119,0.00378227314435,1.83209727663e-05,-0.0102545696172,0.573741359832,0.819001490551,0.0061771671711,0.0,0.819000437424,-0.573649831529,-0.0120374909129,0.0,-0.00631531368246,0.011965739398,-0.999908464758,0.0,0.260109930894,-0.266246507387,0.304942622926,1.0,-0.00213818181819,-0.00281018181819,3.484
-0.669090600932,-0.515536399868,-0.124564995807,-2.63762596369,-0.0667290583995,2.11152344762,-0.916812001091,-0.0122839927636,0.00211517835405,0.00252526951446,-0.000352306572142,0.000802194027818,0.00599046658533,-0.00545834767101,0.573730691996,0.819009032691,0.0061680089272,0.0,0.819007888982,-0.573639259729,-0.0120343003385,0.0,-0.00631811024752,0.0119563256279,-0.9999085597,0.0,0.260070726731,-0.266294537252,0.304942742522,1.0,-0.00179818181819,-0.00236332467533,3.501
-0.669253337339,-0.51552023156,-0.124541112883,-2.6376128641,-0.0667194680315,2.11153282779,-0.91694330294,-0.0108822524581,0.00149986776214,-0.000717085827419,0.000231296307996,0.000723020392271,0.00222898286959,-0.0101985429927,0.573744228969,0.818999583825,0.00616346655423,0.0,0.818998432965,-0.573652911729,-0.0120270763904,0.0,-0.00631460159888,0.0119485651669,-0.999908674628,0.0,0.260037645276,-0.266335237995,0.304944090259,1.0,-0.00149818181819,-0.00196903896105,3.516
-0.669434322441,-0.515499506527,-0.124513418454,-2.63759126664,-0.0667064591802,2.11154305553,-0.917074205281,-0.0137564747858,-0.000183257878615,0.000491420072496,0.00199344904307,-0.000215033102669,0.00012860643907,-0.00758593044759,0.57377219908,0.818980024918,0.00615867269202,0.0,0.818978896534,-0.573681057052,-0.0120149370866,0.0,-0.00630700104385,0.0119378896808,-0.99990885011,0.0,0.260002804035,-0.266381777299,0.304947779512,1.0,-0.00113818181819,-0.0014958961039,3.534
-0.669574371008,-0.515473486484,-0.124496769944,-2.63758114089,-0.0666975888066,2.11154937264,-0.917175724802,-0.0137859833301,-0.00346541575688,-0.000330354164372,-0.000628119352705,-9.5057640289e-05,0.000205637454559,-0.00654716382469,0.573796292844,0.818963148058,0.00615819321161,0.0,0.818961962168,-0.573705050757,-0.0120235667925,0.0,-0.00631399312613,0.011942633981,-0.999908749329,0.0,0.259972710842,-0.266416814417,0.304943707431,1.0,-0.000798181818187,-0.00104903896105,3.551
-0.669670111261,-0.515445553724,-0.12448845893,-2.63757710857,-0.0666901593938,2.11155253209,-0.91721952986,-0.00297253724426,0.00499288609508,-7.96818802592e-05,-0.00119555940738,-0.000306987568823,0.000913861410772,-0.00158644485037,0.573836407666,0.818935016178,0.00616144592564,0.0,0.818933747591,-0.57374490667,-0.0120435056007,0.0,-0.00632787206757,0.0119570482023,-0.99990848933,0.0,0.259950521343,-0.266440192964,0.30493569536,1.0,-0.000478181818187,-0.000628467532475,3.567
