nelsonifechukwu/NELSON_IML_WORK/CNN-GradCAM/train2dof/data_sample_2022-02-22-11-43-09/robot_state.csv
position_joint1,position_joint2,position_joint3,position_joint4,position_joint5,position_joint6,position_joint7,velocity_joint1,velocity_joint2,velocity_joint3,velocity_joint4,velocity_joint5,velocity_joint6,velocity_joint7,ee_T_00,ee_T_10,ee_T_20,ee_T_30,ee_T_01,ee_T_11,ee_T_21,ee_T_31,ee_T_02,ee_T_12,ee_T_22,ee_T_32,ee_T_03,ee_T_13,ee_T_23,ee_T_33,v_x,v_y,time
0.465070451612,0.547815065328,-0.124009114391,-1.3558536745,0.0795690586465,1.89409395981,0.159158900386,0.000408433255402,-0.00117173742933,-0.000576045934677,-0.000522017118067,-0.000207048048253,0.000158924337777,0.000939055824057,0.573841990417,0.818952020025,0.00192505401621,0.0,0.818907983225,-0.57378296859,-0.0119819391989,0.0,-0.00870823776321,0.00845234467481,-0.999926359521,0.0,0.661671815388,0.260884250937,0.303180777722,1.0,0.0,0.0,0.0
0.465067699071,0.547822548216,-0.124009797751,-1.35585117798,0.0795656305521,1.89409314601,0.15916204074,-0.000117736105231,0.00254307312086,0.00180039850026,0.000321612120516,-0.000322166437263,4.76911894969e-05,0.00141097493347,0.573846616303,0.818948765456,0.00193065181409,0.0,0.818904842648,-0.573787609935,-0.0119743172591,0.0,-0.00869873572414,0.00845260430054,-0.999926440033,0.0,0.661674522952,0.260881920179,0.303185051914,1.0,-0.00026,-0.000341714285714,0.014
0.465063852034,0.54780915648,-0.124012329651,-1.35585482106,0.0795648131894,1.89409080778,0.159154919972,-0.000653922880581,-0.000501881917449,-0.00123237714729,0.000838744811132,-0.000128012263495,3.54941075061e-05,-0.00209266594356,0.573845287043,0.818949713319,0.00192366713085,0.0,0.818905709061,-0.573786319841,-0.011976883243,0.0,-0.0087048588102,0.00844834265502,-0.999926422763,0.0,0.661673779157,0.26087706324,0.303184242697,1.0,-0.00066,-0.000867428571429,0.034
0.46506626972,0.547788223322,-0.124008028668,-1.35587848024,0.0795658631522,1.89409475938,0.159155634297,-0.000477854176195,-0.00303274748796,0.000296301171304,-0.00442154250288,-0.000163905207101,-5.36444446291e-05,-0.000595115575136,0.573842447926,0.818951693814,0.00192744885197,0.0,0.818907687614,-0.573783415244,-0.0119807536861,0.0,-0.00870588795474,0.00845363046418,-0.999926369113,0.0,0.661668019961,0.260879057551,0.303188014286,1.0,-0.00092,-0.00120914285714,0.047
0.465070209801,0.547647807787,-0.124012992974,-1.35602254159,0.0795663802409,1.89412255364,0.159160281988,0.000326297479113,-0.00580607048277,-0.00137832453629,-0.00886114556663,0.000218752724494,0.0025165047777,0.00136669869979,0.573854445507,0.818943224122,0.00195395448932,0.0,0.818899474112,-0.573795211826,-0.0119771902115,0.0,-0.00868763630158,0.00847341929089,-0.999926360359,0.0,0.661644336913,0.260865512364,0.303221497627,1.0,-0.00134,-0.00176114285714,0.068
0.465057747377,0.547545085119,-0.124010432678,-1.35616687149,0.0795626577189,1.89414821163,0.15915316086,-0.0048719541424,-0.00610066550923,-0.000562176851057,-0.0115516651345,2.82106177808e-05,0.00108428976751,0.000104224624574,0.573863921053,0.818936605616,0.00194499271597,0.0,0.818892642099,-0.573804630088,-0.0119930857984,0.0,-0.00870569876034,0.00847530264165,-0.999926187303,0.0,0.661621947138,0.260844100878,0.303227706893,1.0,-0.0016,-0.00210285714286,0.081
0.46503824552,0.5473472076,-0.124010513666,-1.35641421663,0.0795585789108,1.89427487918,0.159149888742,-0.00117645043158,-0.015725726738,0.000793964409987,-0.00803166842635,-0.00026900126504,0.00657426415464,0.00151916960802,0.573890226339,0.818918000238,0.00201591158565,0.0,0.818874917315,-0.573830589516,-0.0119612386288,0.0,-0.0086386482054,0.00851538132446,-0.999926428313,0.0,0.661601066327,0.260812344418,0.303261143905,1.0,-0.002,-0.00262857142857,0.101
0.465023600991,0.547208535989,-0.12401075173,-1.35657911579,0.0795584573438,1.89437223313,0.159135573141,-0.000385677985147,-0.0144970143111,-0.000254712711929,-0.0161780389798,0.000365720876561,0.00908769072715,-0.00284198045707,0.573900062908,0.818910943641,0.00208112463323,0.0,0.81886867714,-0.573840121214,-0.0119311267493,0.0,-0.00857646257665,0.00855160681228,-0.999926654466,0.0,0.661590219467,0.260791368641,0.303289345407,1.0,-0.00226,-0.00297028571429,0.114
0.464986249144,0.546952305965,-0.12401044775,-1.35691251204,0.0795506027505,1.89453291999,0.159119261359,-0.00265372313265,-0.0109390650453,-0.000491701201511,-0.0145435286612,-0.00196648984056,0.0163340480009,-0.00351596561258,0.573933851943,0.818887063209,0.00215828731311,0.0,0.818845748631,-0.57387353851,-0.0118974219392,0.0,-0.00850422466676,0.00859580308828,-0.999926892494,0.0,0.661562683865,0.260740274333,0.303326075832,1.0,-0.00268,-0.00352228571429,0.135
0.464962290995,0.546766526189,-0.124007836785,-1.35720557995,0.0795442344649,1.89462680835,0.159088233648,-0.00304155274906,-0.0110548402745,0.00025541626769,-0.0223950434787,-0.004445076753,0.00500541766063,-0.001462715681,0.573940866061,0.818882158224,0.00215409103725,0.0,0.818840652235,-0.573880430571,-0.0119157272472,0.0,-0.00852154981927,0.00860294575927,-0.999926683569,0.0,0.661525081245,0.260698927116,0.303326217075,1.0,-0.00294,-0.003864,0.148
0.464920800358,0.546430483022,-0.124007812479,-1.35769790377,0.0795341956317,1.89480971105,0.158940609145,-0.00196804756834,-0.0170016873154,0.00041849347206,-0.0272718994868,3.75188947241e-05,0.011130250386,-0.0068300448456,0.573878806343,0.818925558904,0.00218895104217,0.0,0.818884323794,-0.573818051966,-0.0119186569774,0.0,-0.00850459694358,0.00863252853631,-0.999926572945,0.0,0.661468828485,0.26062826088,0.30334573156,1.0,-0.00334,-0.00438971428571,0.168
0.464882697287,0.546197878713,-0.124012752185,-1.35809223019,0.0795267661816,1.89494755349,0.158922295773,-0.00159798399939,-0.0188651611022,-0.000482488189027,-0.0270170879772,-0.000610511150882,0.00939467934049,-0.00167369292047,0.573918547851,0.818897743319,0.00217561959192,0.0,0.818856198513,-0.573857704781,-0.0119418475123,0.0,-0.00853082015814,0.00863533362831,-0.999926325346,0.0,0.661423420104,0.2605645928,0.303334877914,1.0,-0.00362,-0.00475771428571,0.182
0.464821982916,0.545820155993,-0.124010690335,-1.35874156345,0.079492088492,1.89516896518,0.158871301186,-0.00221732885982,-0.0210330710699,-0.00035712852622,-0.0325287754565,-0.00270133239527,0.0146427756055,-0.00513687297523,0.573952123992,0.818874317961,0.00213486535092,0.0,0.818832155811,-0.57389135738,-0.0119731965908,0.0,-0.00857952760055,0.0086203039795,-0.999926038298,0.0,0.661345721113,0.260462914839,0.303312361888,1.0,-0.00402,-0.00528342857143,0.202
0.46477316878,0.545537365005,-0.124010923958,-1.35921228468,0.0794201976073,1.89532462589,0.158793176733,-0.00567334378976,-0.0203673413597,0.00014242934867,-0.0416906276132,-0.00228830839534,0.0110185458186,-0.00631110938076,0.573935402782,0.818886169823,0.00208355634458,0.0,0.818843698395,-0.573875210736,-0.0119577172768,0.0,-0.00859647347308,0.00856922924886,-0.999926331763,0.0,0.661292882067,0.260377251868,0.303301917387,1.0,-0.00428,-0.00562514285714,0.215
0.464698278323,0.545070422291,-0.124011252309,-1.36003247414,0.0793787654916,1.89558534976,0.15869705875,-0.000702042050927,-0.0268339367894,-0.000632841131257,-0.0451273885341,4.79237946194e-05,0.0114504883348,-0.00226505879723,0.573952862128,0.818874119637,0.0020087672004,0.0,0.818830525826,-0.57389283637,-0.012013710508,0.0,-0.008685066724,0.00854030786119,-0.999925813627,0.0,0.661190578312,0.260247285096,0.303264664735,1.0,-0.00468,-0.00615085714286,0.235
0.46465090595,0.544743121333,-0.124009456114,-1.36057859945,0.0793618647703,1.89577748405,0.158629717924,-0.00637001719582,-0.0252215626003,-0.000371802575659,-0.0476828225544,1.71825496962e-05,0.0154841780671,-0.00394723024439,0.573961219758,0.818868295718,0.00199483931631,0.0,0.818824341899,-0.573901077474,-0.0120414820175,0.0,-0.00871571522911,0.00854493121324,-0.999925507455,0.0,0.661124817868,0.260166774308,0.303252993062,1.0,-0.00494,-0.00649257142857,0.248
0.464564895244,0.544171174619,-0.124011620329,-1.36152008589,0.0793291870889,1.89612198588,0.158537285261,-0.00552767057783,-0.0341566095956,9.72340088529e-06,-0.0413491512825,-0.00120949893947,0.0128836628806,0.000448727916094,0.574001335384,0.818840200726,0.0019848306572,0.0,0.818795890277,-0.573941010007,-0.0120728620922,0.0,-0.00874673750861,0.00855517486146,-0.999925148982,0.0,0.661016717653,0.26002249696,0.303239584776,1.0,-0.00536,-0.00704457142857,0.269
0.464516356067,0.543782258506,-0.124016987172,-1.36215474528,0.0792976184456,1.89634105711,0.158428137493,-0.00391169860796,-0.0316217686413,-0.000760534273661,-0.0497399605578,-0.0058720986323,0.0192917362387,-0.00613222101205,0.573982359311,0.818853550954,0.00196473655743,0.0,0.818808908779,-0.573922056273,-0.0120909523077,0.0,-0.00877328249938,0.00854890172138,-0.999924970082,0.0,0.660940196575,0.259926826072,0.30323185435,1.0,-0.00562,-0.00738628571429,0.282
0.464408463872,0.543125226704,-0.124017319154,-1.36320084253,0.0792394901183,1.89670990866,0.158294298126,-0.00900735496458,-0.0304510752648,0.000466774918317,-0.0498155393646,-0.00601237900597,0.0182142133196,-0.00879968385512,0.574004015793,0.818838405086,0.00195015656039,0.0,0.818793490619,-0.573943694407,-0.0121079424845,0.0,-0.00879533758947,0.00854694766169,-0.999924793033,0.0,0.66082152246,0.259755398984,0.303230728877,1.0,-0.00604,-0.00793828571429,0.303
0.464357053849,0.542690853468,-0.124023585272,-1.36390913795,0.0791939782996,1.89695046496,0.158200762569,-0.00288359026551,-0.0267646559757,0.000400854302734,-0.0607826127549,-0.00836307352429,0.0132309516639,-0.00475542854305,0.574001068894,0.818840544976,0.00191877915214,0.0,0.818795235292,-0.573940900949,-0.0121223670082,0.0,-0.00882518968433,0.00852950306693,-0.999924678966,0.0,0.660735052799,0.25964837664,0.303221883778,1.0,-0.0063,-0.00828,0.316
0.464255020008,0.541981950236,-0.124023704625,-1.36499526711,0.0791389346572,1.89736887325,0.158057764016,-0.00593572864232,-0.035684795884,0.000749781426742,-0.0540946465793,-0.00125029897789,0.0247796008452,-0.0111390736717,0.574013405482,0.818831801947,0.00195891524847,0.0,0.818786938462,-0.573952982626,-0.0121107406661,0.0,-0.00879250363586,0.00855582643781,-0.999924742025,0.0,0.660616340145,0.259480760791,0.303242522305,1.0,-0.0067,-0.00880571428571,0.336
0.464182999767,0.541487250687,-0.124021897015,-1.36574600236,0.0790946308372,1.89764131939,0.157959952594,-0.00439160246594,-0.031348322688,0.00198505365415,-0.05817553155,-0.00254776665171,0.0256146441214,-0.00303753478221,0.574020824094,0.818826564552,0.00197423181048,0.0,0.818781871071,-0.573960303603,-0.0121063782757,0.0,-0.00878006248671,0.00856594337126,-0.999924764728,0.0,0.660531245082,0.259362933943,0.30325851738,1.0,-0.00696,-0.00914742857143,0.349
0.464079305733,0.540631704824,-0.124027631662,-1.36705471449,0.079014809854,1.89812399856,0.15779305676,-0.00435526995825,-0.0437636822628,0.000436960787556,-0.0608929366131,-0.00332016939993,0.0240188856242,-0.00771377149641,0.574024328433,0.818824051347,0.00199754936526,0.0,0.818779688381,-0.573963730795,-0.0120915064367,0.0,-0.00875446395185,0.00857653683382,-0.999924898368,0.0,0.660380542111,0.259166845003,0.303282399724,1.0,-0.00738,-0.00969942857143,0.37
0.46400871724,0.540064847358,-0.124035019564,-1.36791329727,0.0789583738306,1.898437065,0.157687192225,-0.00306407675028,-0.0468472455489,-0.000735245521176,-0.06984373326,-0.00642946212273,0.0268358650947,-0.00389161581412,0.574033045471,0.818817905745,0.00201167564893,0.0,0.818773795951,-0.573972452693,-0.0120764860228,0.0,-0.00873396474361,0.00857957454096,-0.999925051572,0.0,0.660282660514,0.259033587124,0.303301715829,1.0,-0.00764,-0.0100411428571,0.383
0.46387763248,0.539105568017,-0.124038695659,-1.36940164251,0.0788821192048,1.89901085125,0.157500970366,-0.00264311476812,-0.0433559124506,-0.000843735006859,-0.0703897225288,-0.00636808371774,0.0261503600215,-0.0126580185715,0.574052605573,0.818804085268,0.0020549657544,0.0,0.818760457642,-0.573991741569,-0.0120640172907,0.0,-0.00869870074706,0.00860807099294,-0.999925114056,0.0,0.660117231572,0.258807419272,0.303320971487,1.0,-0.00808,-0.0106194285714,0.405
0.463798527961,0.538613749148,-0.124036411069,-1.37016958203,0.0788345135657,1.89931061241,0.157408525184,-0.011214882079,-0.0418525207949,0.00302952434405,-0.068191636983,-0.00981593054523,0.0216142723505,-0.0124581929814,0.574069883928,0.818791923477,0.00207396163654,0.0,0.818748560975,-0.574008953318,-0.0120524815986,0.0,-0.00867816912422,0.00861718572531,-0.999925213949,0.0,0.660034848685,0.258684462268,0.303328779254,1.0,-0.0083,-0.0109085714286,0.416
0.463663188509,0.537632774557,-0.124048170343,-1.37168800711,0.0787454179282,1.89989387048,0.157221636897,-0.00295912924315,-0.0508247441614,-0.000699683440015,-0.0724905030234,-0.00430249990159,0.0266512597967,-0.00642795901446,0.574096020489,0.818773505337,0.00211024134134,0.0,0.818730672002,-0.574034987909,-0.0120277296295,0.0,-0.00863680027234,0.00863295723849,-0.999925436085,0.0,0.659867979088,0.25844611035,0.303349790127,1.0,-0.00872,-0.0114605714286,0.437
0.463580131912,0.537004034631,-0.124048892979,-1.37268106764,0.0786911229159,1.90026305176,0.157097920521,-0.00861761448633,-0.0495423433874,-0.00023290512117,-0.0794028587961,-0.00402476844203,0.0295084941735,-0.0126254877217,0.574103453632,0.818768276796,0.00211668183192,0.0,0.81872547079,-0.57404233619,-0.0120310699272,0.0,-0.00863575967367,0.00864022647658,-0.999925382287,0.0,0.659752609531,0.258297522529,0.303353078677,1.0,-0.00898,-0.0118022857143,0.45
0.463439193828,0.535943670172,-0.124063362209,-1.37433566361,0.0785939169632,1.90088011957,0.15689858375,-0.0097348708236,-0.0521813676815,0.000915934889772,-0.0812230089725,-0.00887732230834,0.0301600501806,-0.00619998934522,0.574130840484,0.818749030055,0.00213323479573,0.0,0.818706478837,-0.574069688724,-0.0120183567999,0.0,-0.00861555841378,0.00864676891598,-0.999925499995,0.0,0.659564797816,0.258039799833,0.303367970367,1.0,-0.0094,-0.0123542857143,0.471
0.463353614681,0.535266550206,-0.124058714747,-1.37541077001,0.0785354924895,1.90126957519,0.156757647588,-0.0033263631861,-0.0465922498449,8.10682773524e-05,-0.0805832489258,-0.00460133939738,0.0291934542476,-0.0162525468218,0.574125619305,0.818752698566,0.00213043396783,0.0,0.818710001114,-0.574064369963,-0.0120324609214,0.0,-0.00862876974682,0.0086525182622,-0.999925336343,0.0,0.659434874081,0.257884295362,0.303367690128,1.0,-0.00966,-0.012696,0.484
0.463221450417,0.534199607286,-0.124066047733,-1.3771314878,0.0784394046487,1.9018873737,0.156555006325,-0.00730677936436,-0.0514026216167,0.00103573514892,-0.0835570863317,-0.00518971270826,0.0306816383549,-0.0179913222896,0.574141624897,0.818741549782,0.00210145712856,0.0,0.818698383826,-0.574080406168,-0.012057797306,0.0,-0.00866598113837,0.00864350930712,-0.999925092453,0.0,0.659227244387,0.257629009003,0.30335518917,1.0,-0.01006,-0.0132217142857,0.504
0.46311781428,0.53350179384,-0.124058946087,-1.37825803614,0.0783792153559,1.90231142597,0.156408480878,-0.0124395291349,-0.0557143477855,-5.04101840104e-05,-0.0897280404242,-0.00531934324317,0.0292019941039,-0.0179154262402,0.574147149438,0.818737673591,0.00210226932629,0.0,0.81869440376,-0.574085812364,-0.0120706336306,0.0,-0.00867596654276,0.00865160259373,-0.999924935871,0.0,0.659096461983,0.257459275374,0.303347685321,1.0,-0.01032,-0.0135634285714,0.517
0.462954228367,0.532332839173,-0.124063858105,-1.38015852932,0.0782733781515,1.90302295642,0.156169284439,-0.00900995849124,-0.0561507300911,-0.00052415824248,-0.0942197845928,-0.00259440889191,0.031752861345,-0.0162843474813,0.574164326799,0.818725667277,0.00208673782978,0.0,0.818682115806,-0.574102975805,-0.0120877347973,0.0,-0.00869870381702,0.00864888757194,-0.999924761817,0.0,0.658875538996,0.257169502869,0.303329172252,1.0,-0.01074,-0.0141154285714,0.538
0.462856073473,0.531586486265,-0.124058603164,-1.38135422683,0.0782106508775,1.90345651223,0.156019148933,-0.00511949044496,-0.0552295562806,0.000488422592226,-0.092842685984,0.000131549139963,0.0306932820134,-0.0207850749821,0.574166442415,0.818724202484,0.00207932014121,0.0,0.818680407595,-0.574104977695,-0.0121083321263,0.0,-0.00871980440346,0.00865466327034,-0.999924528059,0.0,0.658730350171,0.256995015815,0.303323558862,1.0,-0.011,-0.0144571428571,0.551
0.462683520601,0.530392167235,-0.124064124889,-1.38330294354,0.0780851469632,1.90413939688,0.155766742127,-0.0109515548368,-0.0614321972756,-0.000725292995821,-0.099150273636,-0.002473536608,0.0355451418483,-0.00889783806358,0.574177123314,0.818716878804,0.00201254203576,0.0,0.818672209915,-0.574115948439,-0.0121423787914,0.0,-0.0087859071417,0.00861965431567,-0.999924251829,0.0,0.658495594298,0.256688564781,0.30329696877,1.0,-0.0114,-0.0149828571429,0.571
0.462574302241,0.529602476495,-0.124070454154,-1.38454499662,0.0780018977017,1.90460418795,0.155592478339,-0.0147606361251,-0.0599210156672,-0.000832955245178,-0.096315141059,-0.00653579548525,0.0438671035759,-0.0215587240147,0.57417734633,0.818716677768,0.00203061743657,0.0,0.818672319187,-0.574116164635,-0.0121247764062,0.0,-0.00876111504204,0.00862434827337,-0.999924428885,0.0,0.658343079083,0.256482188846,0.303309610173,1.0,-0.01168,-0.0153508571429,0.585
0.462407596384,0.528248360167,-0.12407409099,-1.38663731143,0.0778812473522,1.90541146609,0.15531077411,-0.00923379253233,-0.0641104802576,-0.00216119219158,-0.101161016472,-0.00640068330179,0.0420171363933,-0.0171297811151,0.57416310096,0.81872655313,0.00207643840653,0.0,0.818682804313,-0.574101732251,-0.012100159081,0.0,-0.00871480243757,0.00864757577033,-0.999924632986,0.0,0.658110303477,0.256186776709,0.303330284733,1.0,-0.01208,-0.0158765714286,0.605
0.462295974072,0.527392039505,-0.124069432795,-1.38795693474,0.0777871532909,1.9059185988,0.155116903886,-0.00844963657041,-0.0656809541204,0.00038814907148,-0.100565725961,-0.00549868820504,0.0382606024774,-0.0182676450008,0.574138588809,0.818743665897,0.00210648882098,0.0,0.818700427474,-0.574077211129,-0.0120711481425,0.0,-0.00867405585665,0.00865526189868,-0.99992492078,0.0,0.657957626521,0.255989829031,0.303348740683,1.0,-0.01234,-0.0162182857143,0.618
0.462122926015,0.526013793177,-0.124074425718,-1.390101595,0.0776584093618,1.90671352752,0.154840297619,-0.00743713878723,-0.0694031889607,-0.00084721440814,-0.10934359206,-0.00847909168088,0.0378913960201,-0.0190085348952,0.57413845516,0.818743699371,0.00212977648223,0.0,0.818700752816,-0.574076965892,-0.0120607408988,0.0,-0.00865216658068,0.00866835164968,-0.999924997034,0.0,0.657702039406,0.255669717671,0.303366839929,1.0,-0.01274,-0.016744,0.638
0.461991951239,0.525043167574,-0.124077533307,-1.39161967141,0.0775554931864,1.90725687267,0.15463232251,-0.00787859731508,-0.0729266943537,-0.000599822833094,-0.113654849944,-0.00740611095649,0.0472656592227,-0.0175244373606,0.574131466213,0.818748625495,0.00212006039147,0.0,0.818705614592,-0.574070081772,-0.0120583892631,0.0,-0.0086558930453,0.0086589727656,-0.999925046044,0.0,0.657519361001,0.255434572819,0.303374198199,1.0,-0.01302,-0.017112,0.652
0.461807981012,0.523640517809,-0.124083745149,-1.39385020574,0.077420798575,1.90805999193,0.154320483426,-0.0113517844864,-0.0793562124131,-0.000122081340779,-0.110920122983,-0.00785164028063,0.0486760703853,-0.016645212412,0.574114620836,0.818760494932,0.0020978519014,0.0,0.818717143603,-0.574053283112,-0.0120753393888,0.0,-0.00868269925181,0.00865034275697,-0.999924888331,0.0,0.657247856729,0.255096394788,0.303368620339,1.0,-0.01342,-0.0176377142857,0.672
0.46168507608,0.522632372457,-0.124084337754,-1.39544731707,0.0773353792533,1.90867254291,0.154117681089,-0.0035071257433,-0.0727100254376,-0.000198660839538,-0.116299921328,-0.00602233660207,0.0369631324849,-0.0217375708082,0.574112455268,0.818761950196,0.0021223850569,0.0,0.818718824826,-0.574050918469,-0.0120737641614,0.0,-0.00866734847305,0.00866950190141,-0.99992485558,0.0,0.657056795465,0.254866660083,0.303370187963,1.0,-0.0137,-0.0180057142857,0.686
0.461473892512,0.521097933543,-0.124095379589,-1.3978997523,0.0771817311467,1.9096179796,0.153780499876,-0.0139813474816,-0.0764960642028,-0.00136539870379,-0.118421645211,-0.00406723812709,0.0441482738929,-0.0143246899578,0.574107104074,0.818765663024,0.00213752346241,0.0,0.818722843981,-0.574045612323,-0.0120534898766,0.0,-0.00864211405319,0.00867020038347,-0.999925067938,0.0,0.656772413174,0.254489824443,0.303363307286,1.0,-0.01412,-0.0185577142857,0.707
0.461340708118,0.520103962068,-0.124092617001,-1.39945781047,0.0770836265571,1.91018596315,0.153577297493,-0.0133580103007,-0.0780939706169,0.000261358217071,-0.116223677411,-0.00648078804264,0.0454745629195,-0.0211071253223,0.57410435009,0.818767588797,0.00213954295531,0.0,0.818724775914,-0.574042829846,-0.0120547794836,0.0,-0.00864203982467,0.0086725651413,-0.999925048072,0.0,0.656582728059,0.254254784941,0.303368919579,1.0,-0.01438,-0.0188994285714,0.72
0.461144683887,0.518512306627,-0.124096110145,-1.40189934771,0.0769264617223,1.91106086826,0.1532433308,-0.00923767999041,-0.0785860661635,-0.000997771942183,-0.122327957101,-0.00988144484798,0.0425657134513,-0.0142012029446,0.574080996906,0.818783917562,0.00215690413545,0.0,0.818741350439,-0.574019425381,-0.0120435571521,0.0,-0.00862313205596,0.00868009101945,-0.999925146005,0.0,0.656281252067,0.253889182232,0.303400063641,1.0,-0.01478,-0.0194251428571,0.74
0.461004823982,0.517485100336,-0.124098956987,-1.40353088146,0.0768200914308,1.91164906964,0.153016047332,-0.00790072724524,-0.0832830585903,-0.000405049414484,-0.12620177941,-0.00375186183642,0.0380946485971,-0.0177060963511,0.574069123581,0.818792290234,0.0021386222401,0.0,0.818749506304,-0.574007652856,-0.0120501987976,0.0,-0.0086391906701,0.00866880986745,-0.999925105255,0.0,0.656081403969,0.253638337157,0.303395379706,1.0,-0.01504,-0.0197668571429,0.753
0.460777367916,0.515811250008,-0.124108202272,-1.40619980251,0.0766560058625,1.91264838904,0.152654726556,-0.0117311327167,-0.0804035620911,-0.00140959556266,-0.128004056347,-0.00269092448208,0.0521002951953,-0.0148698426644,0.57406306955,0.818796538227,0.00213730390082,0.0,0.818753761504,-0.574001629682,-0.0120479892829,0.0,-0.00863820230736,0.00866639817292,-0.999925134699,0.0,0.65576090388,0.25323024725,0.303386051719,1.0,-0.01546,-0.0203188571429,0.774
0.460644052572,0.514836009991,-0.124108874118,-1.40775707695,0.076557398598,1.91323482091,0.152439050748,-0.00975436582913,-0.0869696681644,-0.000528523865614,-0.133209888272,-0.00799182569503,0.049618920255,-0.0156227241991,0.574051681701,0.818804521406,0.00213760697713,0.0,0.818761769159,-0.573990262589,-0.0120453608316,0.0,-0.00863599659049,0.00866501734089,-0.999925165719,0.0,0.655573191989,0.252994284577,0.303379454455,1.0,-0.0157,-0.0206342857143,0.786
0.460417924735,0.513190481329,-0.12411209054,-1.41043094315,0.0763857227382,1.91415813204,0.152073331083,-0.013783340236,-0.0916031875946,0.000273639831346,-0.129850716473,-0.0157267959296,0.0517642661487,-0.0157868131423,0.574028025356,0.818821326943,0.00205123122864,0.0,0.818777364105,-0.573966897385,-0.0120985799317,0.0,-0.00872940451778,0.00862459169648,-0.999924704123,0.0,0.655214259877,0.252567417016,0.303346688701,1.0,-0.01612,-0.0211862857143,0.807
0.460257762909,0.511999441587,-0.124112689241,-1.41230956766,0.0762792127203,1.91482674673,0.151807283296,-0.0140061772575,-0.0836608295973,0.000379536409382,-0.130416536397,-0.00695789362403,0.0535919728406,-0.0175799072443,0.57401682986,0.818829222081,0.00203248738009,0.0,0.818784871696,-0.573955644477,-0.0121243126133,0.0,-0.0087613525445,0.00862389544598,-0.999924430709,0.0,0.654996154653,0.252299101363,0.303338309252,1.0,-0.01638,-0.021528,0.82
0.4600235285,0.510290795738,-0.124115867997,-1.4150369812,0.0761089516465,1.91586948741,0.151414504836,-0.0104748336746,-0.0856093498737,0.000798290474304,-0.135074688158,-0.0145941603144,0.0497350860676,-0.0185713127277,0.573986063658,0.818850751652,0.00204747321672,0.0,0.818806638928,-0.573924857875,-0.0121116663285,0.0,-0.00874271962635,0.00862857846996,-0.999924553397,0.0,0.654667888324,0.251885868298,0.303327003939,1.0,-0.01678,-0.0220537142857,0.84
0.459854807884,0.509056991536,-0.124121667276,-1.41699921118,0.075984372698,1.91658125773,0.151148224156,-0.00694272118535,-0.0911373873001,-0.000115061720528,-0.142294355354,-0.00834575243315,0.0512526789788,-0.0173377053814,0.573978747787,0.818855925377,0.00202915371694,0.0,0.818811579029,-0.573917628726,-0.0121202469451,0.0,-0.00876033760211,0.00861842465485,-0.99992448677,0.0,0.654424307736,0.251583619594,0.303318392337,1.0,-0.01706,-0.0224217142857,0.854
0.45960558406,0.507258359961,-0.124125923601,-1.41979950017,0.0758019184958,1.91758990857,0.150746897091,-0.0156669961198,-0.0934081244111,-0.000849903250749,-0.145008091285,-0.0120328685444,0.0518354426777,-0.0214054846803,0.573951183147,0.818875256746,0.00202488370634,0.0,0.818830845787,-0.573890077669,-0.012123186148,0.0,-0.00876548526475,0.00861632016189,-0.999924459794,0.0,0.654056260304,0.25112918588,0.303328727152,1.0,-0.01748,-0.0229737142857,0.875
0.459449393567,0.506153294823,-0.124134446245,-1.42151914078,0.0756981712402,1.91822791758,0.150521189973,-0.0073145786666,-0.0911851781891,0.00216095573146,-0.137880813054,-0.00668247476566,0.050896248307,-0.0216201497183,0.573947781104,0.818877589649,0.00204563863088,0.0,0.818833428879,-0.573886564463,-0.0121150228929,0.0,-0.0087469246245,0.00862859392895,-0.999924516489,0.0,0.653845694336,0.250865563221,0.3033373763,1.0,-0.01772,-0.0232891428571,0.887
0.459163948635,0.504040026233,-0.124131549532,-1.42473207952,0.0755011596656,1.91945594934,0.150070763423,-0.010702550641,-0.095955987103,-0.00136594043368,-0.141554595708,-0.00368223867317,0.0510774580679,-0.0182453004623,0.573938550527,0.818883773501,0.00215699251851,0.0,0.818841131768,-0.573876920581,-0.0120510518786,0.0,-0.00863072878103,0.00868296461658,-0.999925055515,0.0,0.653479111998,0.250391559731,0.303394563213,1.0,-0.01814,-0.0238411428571,0.908
0.458995596511,0.50285345551,-0.124140528519,-1.42648015062,0.0753922088446,1.92012548652,0.149838578404,-0.0158676069438,-0.0962664341732,4.51929923942e-05,-0.145812298255,-0.00801813310075,0.0509255617104,-0.0200224835606,0.573953096957,0.818873337898,0.00224630234592,0.0,0.818831945739,-0.573891177535,-0.0119961612627,0.0,-0.00853436782975,0.00872474600733,-0.999925518913,0.0,0.653273886176,0.250112346587,0.303449435548,1.0,-0.01838,-0.0241565714286,0.92
0.458709759502,0.500742247586,-0.124144046096,-1.42965092039,0.0751944060151,1.92123525779,0.149382519401,-0.0142790079356,-0.0985668376181,-9.17631628505e-05,-0.150925052222,-0.00959461596811,0.0522086652552,-0.022445967377,0.573924488229,0.818893264263,0.00229138762991,0.0,0.818852368975,-0.573862294031,-0.0119838313812,0.0,-0.00849870146266,0.0087542910287,-0.999925564461,0.0,0.652870463851,0.249618753679,0.303510051366,1.0,-0.0188,-0.0247085714286,0.941
0.458526479074,0.499441329652,-0.12414652009,-1.43164293449,0.0750591162751,1.92196893849,0.149110466483,-0.0156211111965,-0.0975448170204,-0.000765985386522,-0.155398454082,-0.00853711898492,0.0547816506345,-0.0191108487768,0.573918348788,0.818897485197,0.00232046651677,0.0,0.818857060126,-0.573856131389,-0.0119583632087,0.0,-0.00846122252507,0.00876342318002,-0.999925802311,0.0,0.652624319728,0.249306502365,0.303533070828,1.0,-0.01906,-0.0250502857143,0.954
0.458202729389,0.497364504137,-0.124141979099,-1.43492061777,0.0748543430158,1.92317111934,0.148626681369,-0.0143003305661,-0.104968670956,-0.000953028575342,-0.158898023843,-0.0185257954105,0.0511892751265,-0.0308400969045,0.573895178961,0.818913722249,0.00232077125496,0.0,0.818873222427,-0.573832881775,-0.0119673007077,0.0,-0.00846861495769,0.00876856243937,-0.999925694676,0.0,0.652217747951,0.248785116586,0.303525141026,1.0,-0.01948,-0.0256022857143,0.975
0.458006406116,0.496094716329,-0.124147242509,-1.43695813278,0.0747261500501,1.92388777219,0.148318064948,-0.0194801450003,-0.099997618931,-0.000963173430538,-0.14984041705,-0.011036314295,0.0581949037734,-0.0252742174089,0.573875277062,0.818927796173,0.00227550711932,0.0,0.818886642882,-0.573813101888,-0.0119973793553,0.0,-0.00851943566235,0.00874855022406,-0.999925438263,0.0,0.651957993728,0.248457148127,0.303502552264,1.0,-0.01974,-0.025944,0.988
0.457674038263,0.49411382462,-0.124151296552,-1.44019868425,0.0745308292803,1.92501697962,0.147874948263,-0.021316001058,-0.108228139094,0.00189017386241,-0.163111699544,-0.0134409622239,0.0581222871025,-0.0230321138098,0.573897921092,0.818912223369,0.00216644517743,0.0,0.818869421178,-0.573835970492,-0.012078780133,0.0,-0.00864844303268,0.00870619013723,-0.999924700508,0.0,0.651543787588,0.24792527096,0.303438022836,1.0,-0.025456,-0.0334564571429,1.008
0.457405630598,0.491982822842,-0.124236263624,-1.44332338647,0.0743511275208,1.92619502271,0.147418678265,-0.0241542620918,-0.173833542631,-0.00593159446352,-0.242754999235,-0.0171588893313,0.0951461896993,-0.0380373425326,0.573913788518,0.818900700993,0.00231347418961,0.0,0.818860106698,-0.573851519208,-0.0119710677675,0.0,-0.00847568829133,0.00876494132906,-0.999925666493,0.0,0.651171184747,0.247409110217,0.303538452054,1.0,-0.036408,-0.0478505142857,1.022
0.456878223321,0.487847791941,-0.12427781462,-1.44989446904,0.0740144976511,1.9286977622,0.146431636078,-0.0330956378837,-0.234958098053,0.00234471601015,-0.377284627847,-0.0200293725821,0.135879410677,-0.0508103462305,0.573806201764,0.818975858515,0.00239434478064,0.0,0.818935849683,-0.573743130793,-0.0119850270707,0.0,-0.00844187149611,0.00883806779905,-0.999925308892,0.0,0.650335996766,0.246432270419,0.303504400221,1.0,-0.0520537142857,-0.0684134530612,1.042
0.45630625863,0.483980385218,-0.124372925195,-1.45597606774,0.0736467963341,1.93098135754,0.145505288309,-0.0430726387553,-0.294019614959,-0.0083812311479,-0.458160137437,-0.0350714797437,0.169128349397,-0.0702974984647,0.573786560851,0.818989498909,0.00243519289624,0.0,0.818950280804,-0.573723600542,-0.0119337610309,0.0,-0.00837665860697,0.00884190384016,-0.999925823412,0.0,0.649587183824,0.245430524567,0.30349610653,1.0,-0.0630057142857,-0.0828075102041,1.056
0.455313019012,0.477520495649,-0.124553793031,-1.46626031244,0.0730354274881,1.9345224716,0.143955630446,-0.0527610560214,-0.369595645836,-0.00741285604765,-0.582306879872,-0.0352003796787,0.204090941609,-0.0840401480089,0.573798578277,0.818981798188,0.00218007019335,0.0,0.81893908964,-0.573736497394,-0.0120808078313,0.0,-0.00864334229559,0.00871746289574,-0.999924646398,0.0,0.648249990165,0.243689109009,0.303391762148,1.0,-0.0778691428571,-0.102342302041,1.075
0.45440281528,0.471857634865,-0.124670949617,-1.47512446568,0.0725117461341,1.93765107636,0.142683904714,-0.0674697869594,-0.413304007643,-0.00881892855954,-0.655997551356,-0.0365264098694,0.229411220538,-0.100076182813,0.573873231332,0.818929656738,0.00211626504127,0.0,0.81888590043,-0.573811201516,-0.0121381214394,0.0,-0.00872609904222,0.0086988900572,-0.999924089372,0.0,0.647104669791,0.242184399727,0.303364869183,1.0,-0.0888211428571,-0.116736359184,1.089
0.452880547791,0.462473188196,-0.124802655683,-1.48942415039,0.071650205691,1.94295981874,0.140383873263,-0.0860316462001,-0.487514183067,-0.00376734503654,-0.767032124696,-0.0476160546955,0.269755132473,-0.120231982367,0.573777636973,0.818995706922,0.00244994992931,0.0,0.818956324458,-0.5737142424,-0.0119688595665,0.0,-0.00839703510304,0.00887403680125,-0.999925367851,0.0,0.645288044173,0.239777328409,0.303497313265,1.0,-0.104466857143,-0.137299297959,1.109
0.451700546833,0.455696573113,-0.124872620082,-1.50009344701,0.0709709345275,1.94659140978,0.138798291908,-0.0897811004839,-0.53303708719,-0.00719486150297,-0.867963176975,-0.0482701024063,0.272779491896,-0.131303566973,0.573806491755,0.818976131843,0.00222539717701,0.0,0.818933318384,-0.573743510211,-0.012138839827,0.0,-0.00866477972253,0.0087879661856,-0.999923843721,0.0,0.643843076684,0.237943286162,0.303399087803,1.0,-0.114636571429,-0.150665208163,1.122
0.449520258957,0.443245537017,-0.125066300917,-1.51889644698,0.0696867508076,1.9532993752,0.135830202498,-0.110025176627,-0.616532130508,-0.0141629548594,-0.942039155883,-0.0607891883464,0.33215053017,-0.141817760761,0.573803531198,0.818977525114,0.00246329930245,0.0,0.818938635927,-0.573740418404,-0.0119243355378,0.0,-0.00835262924896,0.00885968738587,-0.999925867014,0.0,0.641366053864,0.23462592961,0.303573805686,1.0,-0.131064571429,-0.172256293878,1.143
0.447754218163,0.433455647223,-0.12518544371,-1.53374543816,0.0687145245437,1.9584138071,0.133432674603,-0.122739854056,-0.675513877343,-0.011385109225,-1.01134615869,-0.0611802204071,0.365663218276,-0.167592271563,0.573762131037,0.819006407343,0.00250372112907,0.0,0.81896774842,-0.573698549271,-0.0119393682001,0.0,-0.00834219848916,0.00890099556923,-0.999925587232,0.0,0.639328124513,0.232000369173,0.303639596773,1.0,-0.142798857143,-0.187678497959,1.158
0.445358605461,0.420768135937,-0.125334167746,-1.55292350921,0.067370716703,1.96507044334,0.130229005685,-0.140573582169,-0.729436514525,-0.0070319305711,-1.11207770565,-0.0768004600132,0.370354721843,-0.183956024006,0.573659215799,0.819078215261,0.00259389954726,0.0,0.819041048559,-0.573595641341,-0.0118552904092,0.0,-0.00822271894818,0.00892557864928,-0.999926357758,0.0,0.636678656571,0.228541369578,0.303723674286,1.0,-0.15688,-0.206185142857,1.176
0.443436545052,0.410923431648,-0.125461096459,-1.56747659453,0.0663225939172,1.97029095945,0.127813114877,-0.147683026136,-0.78576773955,-0.00729768136167,-1.15606086013,-0.0838435609491,0.403081601743,-0.186928012158,0.573662144072,0.819074884559,0.00297066399027,0.0,0.819043432844,-0.573598173237,-0.0115645006167,0.0,-0.00776837413478,0.00906739362675,-0.999928714827,0.0,0.634691737826,0.225860708157,0.303921731893,1.0,-0.167049714286,-0.219551053061,1.189
0.439904991432,0.394072043035,-0.125651752096,-1.59267792332,0.064632182994,1.97889483469,0.123530462054,-0.178639085294,-0.802608251294,-0.0113994880511,-1.21922818915,-0.0880732994515,0.422378233734,-0.215512222053,0.57373069463,0.819026034882,0.00319235438475,0.0,0.818996786916,-0.573665216632,-0.0115424931795,0.0,-0.00762240650673,0.0092369884541,-0.99992828591,0.0,0.631100256351,0.221119210601,0.304038700924,1.0,-0.183477714286,-0.241142138775,1.21
0.437706451147,0.383970462736,-0.125747742113,-1.60801051457,0.0634732186789,1.98396078354,0.120853926697,-0.180432642782,-0.862050534181,-0.00683759933207,-1.2829074851,-0.0947148429959,0.411955650929,-0.221263643221,0.573672608231,0.819067443711,0.00300135280468,0.0,0.819035753268,-0.573607791791,-0.0116311206227,0.0,-0.00780522315597,0.00913084635655,-0.999927850465,0.0,0.628833358254,0.218198367248,0.303960086152,1.0,-0.192865142857,-0.253479902041,1.222
0.433410066742,0.365165352471,-0.125947750766,-1.63591720474,0.0613632870341,1.99322632602,0.115853188508,-0.219717495854,-0.913333897978,-0.00261308176466,-1.34130059166,-0.104408278752,0.435197126026,-0.243292514461,0.573672500837,0.81906729372,0.003062195827,0.0,0.819036631337,-0.573607767774,-0.0115703145474,0.0,-0.00772051555485,0.00914579792146,-0.999928371445,0.0,0.624685777453,0.212723302039,0.304031802318,1.0,-0.209293142857,-0.275070987755,1.243
0.430475735942,0.352899105939,-0.126121996488,-1.65409025076,0.0599370522031,1.99920211169,0.112512139283,-0.23123999786,-0.944081799917,-0.00910439931848,-1.42495036402,-0.10832737141,0.456378374498,-0.266807418482,0.573696888981,0.819050269125,0.00304682144051,0.0,0.819019841951,-0.573632715954,-0.0115218305469,0.0,-0.00768934999609,0.00910562086618,-0.999928978261,0.0,0.621936175409,0.209060932785,0.304039600311,1.0,-0.219462857143,-0.288436897959,1.256
0.425215759696,0.332243627749,-0.126372482556,-1.68450491065,0.0576144280596,2.00899445947,0.106714705525,-0.255221061656,-1.00303778791,-0.00614401466042,-1.49233088038,-0.118219098491,0.464286171733,-0.282174625555,0.573784534126,0.818988932684,0.00303041908618,0.0,0.818957802391,-0.573719822708,-0.0115943881442,0.0,-0.0077572134209,0.00913464182511,-0.999928189401,0.0,0.617218233664,0.202787926467,0.304029448746,1.0,-0.235890857143,-0.310027983673,1.277
0.421772326344,0.318807913092,-0.126476752934,-1.70389422979,0.0560441961699,2.01517814405,0.102900845723,-0.276689745732,-1.03663314015,-0.0117434193647,-1.51063942161,-0.117126659548,0.464761357254,-0.291968680789,0.573702629557,0.819045757753,0.00317591670011,0.0,0.819016594072,-0.573637566065,-0.0115112264692,0.0,-0.00760654252981,0.00920532660468,-0.999928698694,0.0,0.614126105239,0.198787994668,0.304131002889,1.0,-0.246060571429,-0.323393893878,1.29
0.415978042989,0.29745426649,-0.126710329985,-1.73487673517,0.0534172171143,2.02482050578,0.096562498813,-0.30431940043,-1.08037096441,-0.0162926645575,-1.57176807591,-0.142797957947,0.485949009272,-0.327697051559,0.573553769159,0.81915041824,0.00306807476414,0.0,0.819120214437,-0.573489486708,-0.0115165028305,0.0,-0.00767438724432,0.00911863122658,-0.99992897465,0.0,0.609061885052,0.192208178614,0.304102348111,1.0,-0.261706285714,-0.343956832653,1.31
0.411872679689,0.283023173259,-0.126845473675,-1.75536246631,0.0517544931402,2.03111846435,0.0922744689772,-0.318989634213,-1.11310683137,-0.00292065241038,-1.58546537476,-0.125664201747,0.467557076691,-0.328231097764,0.573566194232,0.819140965082,0.0032629833491,0.0,0.819112800447,-0.573500727575,-0.01148401134,0.0,-0.0075358458957,0.00925977038698,-0.9999287313,0.0,0.605651586405,0.187757963979,0.30420706995,1.0,-0.271876,-0.357322742857,1.323
0.404591100362,0.258979563783,-0.127187454856,-1.78951127273,0.0487617026188,2.04133204683,0.0847756888935,-0.36854786685,-1.14791060009,-0.0201538155558,-1.62698465879,-0.150840110647,0.48233980688,-0.36093376098,0.573587374609,0.819126207281,0.00324455475611,0.0,0.819097956904,-0.573522147998,-0.0114729966717,0.0,-0.00753715335039,0.00923855208238,-0.999928917711,0.0,0.599839221851,0.180048868029,0.304226860146,1.0,-0.288304,-0.378913828571,1.344
0.39970913016,0.243595223032,-0.127383574956,-1.81105651113,0.0468340304601,2.04768832982,0.0799347242082,-0.380692212213,-1.19059920652,-0.0119778721614,-1.66462093796,-0.138698579987,0.469678505818,-0.37239363979,0.573662915303,0.819072895104,0.00334649273363,0.0,0.819046060948,-0.573597500291,-0.0114107232922,0.0,-0.00742681728465,0.00928701928487,-0.999929294329,0.0,0.59609186698,0.175079265206,0.304283377273,1.0,-0.298473714286,-0.392279738775,1.357
0.391292674695,0.218082302116,-0.127662503548,-1.84659311587,0.0436121572139,2.05780305777,0.0714413255923,-0.40947530091,-1.2266048724,-0.0185375585151,-1.6911553698,-0.153610835333,0.47400219612,-0.419648393374,0.573525331753,0.81916915682,0.00336648995294,0.0,0.81914189512,-0.573459018762,-0.011491577772,0.0,-0.00748314612266,0.00934852390205,-0.999928301242,0.0,0.589695591422,0.166785234538,0.304285923033,1.0,-0.314901714286,-0.41387082449,1.378
0.38564252667,0.201734408523,-0.12787322692,-1.86914589099,0.0414099990931,2.06399298557,0.0658898389726,-0.45257334009,-1.25004346592,-0.0168627798565,-1.72999504892,-0.174358320281,0.460128485455,-0.437439459077,0.573463974136,0.819212521917,0.00326514984424,0.0,0.819184077438,-0.573398136478,-0.0115226410667,0.0,-0.00756740670742,0.00928275702334,-0.999928279817,0.0,0.58552575928,0.161369388313,0.304268839752,1.0,-0.325071428571,-0.427236734694,1.391
0.376164655273,0.175938905705,-0.128345487535,-1.90406983453,0.0380629679964,2.07340746919,0.0567749818851,-0.493225484962,-1.30762359637,-0.0327398152222,-1.74953281883,-0.163432266035,0.491522415808,-0.465950509934,0.573616968808,0.819104566409,0.00346832589862,0.0,0.819078345808,-0.573549992042,-0.0114811566688,0.0,-0.0074151523282,0.00942679842162,-0.999928072907,0.0,0.578636147487,0.152166519853,0.304369145956,1.0,-0.341499428571,-0.448827820408,1.412
0.369580442261,0.158739306916,-0.128638677883,-1.9271496087,0.0357151331929,2.07926579268,0.0505130948017,-0.511947234657,-1.32953291814,-0.0208043232563,-1.75387209729,-0.171502720423,0.449367534019,-0.487932062157,0.573606419497,0.819112391528,0.00336339999383,0.0,0.819084659188,-0.573539567828,-0.0115512821501,0.0,-0.00753290039993,0.00938097954528,-0.999927623698,0.0,0.574491983807,0.146723921341,0.304385655153,1.0,-0.350886857143,-0.461165583673,1.424
0.358765726084,0.131636255089,-0.129065565368,-1.96304659087,0.0319452155384,2.08835181213,0.0403387535351,-0.562374996099,-1.37771417435,-0.0219424136238,-1.79376846463,-0.189511331909,0.433762466023,-0.519933093591,0.573574430771,0.819134262052,0.00348998563957,0.0,0.819108455935,-0.573507567551,-0.0114522608668,0.0,-0.00737954815817,0.00942758226634,-0.999928328912,0.0,0.567377717533,0.137404996953,0.304446391407,1.0,-0.366532571429,-0.481728522449,1.444
0.350529559047,0.112244900656,-0.129487472832,-1.98836440089,0.0291685659151,2.09447866157,0.0327162006304,-0.605110639111,-1.38888467524,-0.0375349255164,-1.81912631597,-0.219672461437,0.451821649858,-0.556274853888,0.573657770161,0.819075623978,0.00355412999914,0.0,0.819051114258,-0.573591316464,-0.0113587327868,0.0,-0.00726518291711,0.00942722096154,-0.999929169803,0.0,0.562246511035,0.130530079178,0.304494983969,1.0,-0.377484571429,-0.496122579592,1.458
0.337337105398,0.0824999753246,-0.13001616983,-2.02669184448,0.0249122133224,2.1031106982,0.0205044980989,-0.646545679278,-1.42613389156,-0.0249670848373,-1.82174986304,-0.199784071242,0.396534338324,-0.605801938655,0.573591491169,0.819122139864,0.00353102592742,0.0,0.819096670032,-0.573524257235,-0.0114594243813,0.0,-0.00736168093371,0.00946546213724,-0.999928102756,0.0,0.554167310503,0.119985715921,0.304519571614,1.0,-0.38998,-0.512545142857,1.479
0.328707473942,0.0641446979998,-0.130326570313,-2.05018175156,0.0221869384438,2.10820294017,0.0125879806147,-0.673982282901,-1.40239271322,-0.0236685505565,-1.8185680475,-0.209761050523,0.371529878299,-0.603052062011,0.573509264734,0.819180096783,0.00344081383468,0.0,0.819153161095,-0.573441930628,-0.0115411336911,0.0,-0.00748130412409,0.00943768233144,-0.999927477491,0.0,0.549083205978,0.113359151116,0.304456668145,1.0,-0.38998,-0.512545142857,1.492
0.314590485038,0.0360227866833,-0.130877116948,-2.08529154442,0.0180260079412,2.11519459249,0.000148252751723,-0.7138037299,-1.40269306346,-0.0139297254793,-1.73138183271,-0.1814130123,0.33595227665,-0.635633494075,0.573811646709,0.818968442437,0.00341046843517,0.0,0.818940263826,-0.573743300501,-0.0116711746049,0.0,-0.00760173662829,0.00949020855503,-0.999926072038,0.0,0.541283112225,0.102949979827,0.304495777881,1.0,-0.38998,-0.512545142857,1.512
0.305131416255,0.0179201319174,-0.131204215345,-2.10752779882,0.0152347174846,2.11946896389,-0.00822240918941,-0.734508807314,-1.37425392369,-0.0260227966213,-1.68622150015,-0.211213892908,0.309764717068,-0.644563450658,0.57387301874,0.818925255688,0.00345410773107,0.0,0.818897925052,-0.573804878051,-0.0116145241552,0.0,-0.00752958826601,0.00949400648112,-0.999926581876,0.0,0.536220871014,0.0962258940323,0.304540340395,1.0,-0.38998,-0.512545142857,1.525
0.289236091975,-0.0110288910548,-0.131726182656,-2.14232551007,0.0107981258958,2.1258166758,-0.022224108842,-0.764909840834,-1.37210467152,-0.0109748533071,-1.64084117107,-0.222826620316,0.307349869527,-0.684407570912,0.573996192215,0.818837496613,0.00377787820519,0.0,0.818815019812,-0.573927949528,-0.0113762464065,0.0,-0.00714720484229,0.00962349081846,-0.999928150363,0.0,0.5281050123,0.0853703999564,0.304707476351,1.0,-0.38998,-0.512545142857,1.546
0.279143595712,-0.0286123282408,-0.131971232557,-2.16320790995,0.00810520107346,2.12914855774,-0.0311430979664,-0.780244468309,-1.3537168236,-0.0162087143673,-1.54057545886,-0.203631749978,0.260598377934,-0.689872953796,0.573967103807,0.818857718826,0.00381404865174,0.0,0.818835124027,-0.573897976158,-0.0114411329407,0.0,-0.00717992345418,0.00969009750344,-0.99992727271,0.0,0.523036301503,0.0787532999728,0.30475244612,1.0,-0.38998,-0.512545142857,1.559
0.262078868225,-0.0567721830387,-0.132537457308,-2.19624909603,0.00358897044174,2.13416516536,-0.0460275680897,-0.822142512584,-1.32850058841,-0.0192332420793,-1.54696586255,-0.227940406976,0.230051803668,-0.732641675838,0.574122335325,0.818748727381,0.00384868721143,0.0,0.818726818344,-0.574053412554,-0.0113940054504,0.0,-0.00711961250933,0.00969276306904,-0.999927678116,0.0,0.514842051838,0.0678666217529,0.304778163881,1.0,-0.38998,-0.512545142857,1.58
0.252116276028,-0.072536308656,-0.132755783192,-2.21454077239,0.00111611719614,2.13661769024,-0.0548131119064,-0.833565469024,-1.32566791786,-0.0114591620529,-1.49444271921,-0.207040589521,0.215193793579,-0.731598599743,0.574065158512,0.818788948779,0.00382073828278,0.0,0.818765876562,-0.573995237674,-0.0115175260379,0.0,-0.00723747680222,0.00974028807054,-0.999926370148,0.0,0.510145019836,0.0617801697949,0.304746835321,1.0,-0.38998,-0.512545142857,1.592
0.234002742646,-0.0999993089167,-0.133283014397,-2.24571427067,-0.00332848724086,2.14044277878,-0.0707780867979,-0.873780964808,-1.32022048442,-0.0199246274187,-1.47936666898,-0.226510344486,0.183864104297,-0.780241035152,0.574020976174,0.818819578177,0.00389412474149,0.0,0.818797375492,-0.573950739945,-0.0114957777548,0.0,-0.00717807031529,0.00978750512667,-0.999926337312,0.0,0.501948885006,0.0510038414224,0.30478000483,1.0,-0.38998,-0.512545142857,1.613
0.222500627178,-0.116541317829,-0.133530481822,-2.26438674626,-0.00607969505148,2.14232666925,-0.0808790286775,-0.894120744823,-1.2777542086,-0.0248522397487,-1.41582595864,-0.200386296204,0.145433354331,-0.784974737608,0.573939017126,0.818877912759,0.00370344666419,0.0,0.818852467069,-0.573868341784,-0.0116837653834,0.0,-0.00744242990412,0.00973853275505,-0.999924882787,0.0,0.496854391569,0.0444207856495,0.304696097703,1.0,-0.38998,-0.512545142857,1.626
0.200420355531,-0.14702944676,-0.134064966757,-2.29788309104,-0.0110848062366,2.14535501396,-0.100435856769,-0.924948537078,-1.26315891297,-0.0241682124317,-1.37817597537,-0.223565219358,0.11665070779,-0.834660249211,0.573740525276,0.819016796072,0.00374757373956,0.0,0.818991473097,-0.573669145727,-0.0117228467893,0.0,-0.00745148445664,0.00979529180184,-0.999924260951,0.0,0.487468276678,0.0322182411113,0.304690766232,1.0,-0.38998,-0.512545142857,1.65
0.189854205289,-0.160662541191,-0.13442270884,-2.31284424852,-0.013406717338,2.14635096131,-0.10971066681,-0.962752577336,-1.23715319005,-0.0275173042151,-1.36497712437,-0.212390551885,0.0833486544257,-0.851515569626,0.573801292324,0.818975187749,0.00353067711695,0.0,0.818945802452,-0.57372906435,-0.0119783249019,0.0,-0.00778444868142,0.009764799516,-0.999922022484,0.0,0.483115680471,0.026519790243,0.304567854224,1.0,-0.38998,-0.512545142857,1.661
0.167197572125,-0.18902311386,-0.135047873029,-2.34282902586,-0.018087028165,2.14788620848,-0.12971418571,-1.01313035039,-1.21724127686,-0.0391924719516,-1.25922354849,-0.208353086381,0.0528168952294,-0.873825011694,0.573806888866,0.818971083612,0.00357286970131,0.0,0.818941058524,-0.573733007187,-0.0121130520088,0.0,-0.00787051758335,0.00987671254033,-0.999920249571,0.0,0.474130730964,0.014773222681,0.304591314465,1.0,-0.38998,-0.512545142857,1.684
0.157010215253,-0.201238722378,-0.135349541006,-2.35549858688,-0.0201131479939,2.14844710461,-0.138739184682,-1.01462271975,-1.18595420298,-0.0189164303829,-1.2610018477,-0.188311930507,0.024798567274,-0.911033855507,0.573818948969,0.818962116752,0.00368944865818,0.0,0.818933707352,-0.573744738779,-0.0120542352749,0.0,-0.00775530959369,0.00993855383176,-0.999920537003,0.0,0.470238066855,0.00964281716179,0.304623760408,1.0,-0.38998,-0.512545142857,1.694
0.132816623319,-0.2288038651,-0.136148504303,-2.38362677168,-0.024797793758,2.14903673047,-0.16012599775,-1.06205067645,-1.18982950795,-0.0307588012483,-1.21004873312,-0.220063150686,0.0142508427214,-0.942625635694,0.573977912295,0.818850243624,0.00379231005041,0.0,0.818822910468,-0.573902947735,-0.0120496794375,0.0,-0.00769061309449,0.0100216731485,-0.999920207085,0.0,0.461264696129,-0.00222471248528,0.304668697708,1.0,-0.38998,-0.512545142857,1.717
0.122085898496,-0.240574072125,-0.136427467912,-2.39539431087,-0.0267375687462,2.14908197946,-0.169740334707,-1.08477111928,-1.1638856125,-0.0278129818403,-1.16322997538,-0.194599960022,0.0129223470535,-0.961731945686,0.573932363401,0.818881671114,0.00389844263858,0.0,0.81885551031,-0.573856730817,-0.0120354738925,0.0,-0.00761862810807,0.0101000036684,-0.999919970013,0.0,0.457381050914,-0.00729299638383,0.30470623079,1.0,-0.38998,-0.512545142857,1.727
0.0953759586225,-0.268273238265,-0.137236229762,-2.42261105498,-0.0314471687175,2.14893192855,-0.193650510869,-1.1344155115,-1.14883981656,-0.0243515950789,-1.09818004574,-0.194151189324,-0.000268748510293,-1.01609688905,0.573967684626,0.818855311794,0.00422164107195,0.0,0.818834464145,-0.573892432584,-0.0117619323379,0.0,-0.00720869169719,0.0102079908111,-0.999921912795,0.0,0.448109907934,-0.0196019405773,0.304808901377,1.0,-0.38998,-0.512545142857,1.751
0.0838969145188,-0.279552129005,-0.137639673517,-2.43358967737,-0.0334024092838,2.14864712203,-0.203967168092,-1.15383758698,-1.12420780259,-0.0250243669747,-1.0873570367,-0.188753843647,-0.0402026775299,-1.03873281428,0.574027770843,0.818812806519,0.00429570509917,0.0,0.818792871171,-0.573952197834,-0.0117411933805,0.0,-0.00714844775065,0.0102572612592,-0.999921841089,0.0,0.443825536345,-0.0252680971906,0.304810123485,1.0,-0.38998,-0.512545142857,1.762
0.0604255941466,-0.301738401673,-0.138331575068,-2.45463887323,-0.0372077155932,2.14768697101,-0.225210485922,-1.19381241799,-1.0932977773,-0.044695509542,-1.02844687268,-0.201431313658,-0.0434103957063,-1.05982908375,0.57397789146,0.818846656146,0.00450341376224,0.0,0.818830105371,-0.573902697997,-0.0115628141503,0.0,-0.00688378292842,0.01032452923,-0.99992300585,0.0,0.436469675584,-0.0349973196681,0.304895373631,1.0,-0.38998,-0.512545142857,1.781
0.0448074031661,-0.315716088421,-0.13872687947,-2.46795705804,-0.0396348598647,2.14673043566,-0.2393634921,-1.20482583064,-1.07612485419,-0.0357223701526,-1.01770788924,-0.184654421725,-0.0779446888921,-1.09365138414,0.573926849675,0.818882942564,0.00440959193306,0.0,0.818863949509,-0.573850144835,-0.0117724410526,0.0,-0.00710994308929,0.0103675754803,-0.999920977922,0.0,0.431348578665,-0.0415862136524,0.3048150648,1.0,-0.38998,-0.512545142857,1.794
0.0187880977199,-0.337741616774,-0.139499308039,-2.48830206324,-0.0434348315036,2.14502004644,-0.263163279688,-1.24454786297,-1.02061291984,-0.0373928083136,-0.96209389276,-0.168378067734,-0.0932488839332,-1.14552052401,0.573876451023,0.81891743411,0.00456091801565,0.0,0.818900145861,-0.573798874086,-0.0117537273583,0.0,-0.00700841756109,0.0104803255497,-0.999920519271,0.0,0.423193390807,-0.0523220457754,0.304830834071,1.0,-0.38998,-0.512545142857,1.815
0.00211356908094,-0.351025504009,-0.139987683161,-2.50035468063,-0.0458545750779,2.1436639681,-0.278288943436,-1.29628935315,-1.00905105466,-0.0277107607253,-0.907656751737,-0.181380840485,-0.103052196236,-1.17018501101,0.573959028653,0.818859776203,0.00452186304254,0.0,0.818841909683,-0.573881460651,-0.0117789205566,0.0,-0.00705040662534,0.0104635102253,-0.999920400192,0.0,0.418102262248,-0.0590337332619,0.304835080909,1.0,-0.38998,-0.512545142857,1.828
-0.0240077384378,-0.370881829508,-0.140750767445,-2.51800332352,-0.0493367857201,2.14150156139,-0.30237855957,-1.32057305101,-0.973086565156,-0.02288323607,-0.863745731629,-0.18470337796,-0.118549934507,-1.22582105174,0.573914448238,0.818890040522,0.00469622596761,0.0,0.818874806573,-0.573836885531,-0.01166305559,0.0,-0.0068560243814,0.010539420161,-0.999920954652,0.0,0.410326911701,-0.0692669150993,0.304890286864,1.0,-0.38998,-0.512545142857,1.848
-0.0413830689941,-0.383318991368,-0.14124273342,-2.52885038252,-0.051539796535,2.13987259441,-0.318434428549,-1.35188312187,-0.951812655824,-0.042643774071,-0.829786439632,-0.167060245369,-0.111597534191,-1.22434341746,0.573912149009,0.818891229001,0.00476940108223,0.0,0.818876963692,-0.573834390441,-0.0116343277827,0.0,-0.00679053335262,0.0105828384893,-0.999920942968,0.0,0.405275749108,-0.0759066755003,0.304930749678,1.0,-0.38998,-0.512545142857,1.861
-0.0702264079571,-0.402566488105,-0.142081650088,-2.5455849715,-0.054922285807,2.13719921579,-0.345227921421,-1.38764835806,-0.895187432853,-0.0479040979943,-0.799485913197,-0.153764635329,-0.13143501296,-1.30270492886,0.573956515533,0.818859305439,0.00490948818161,0.0,0.818846145767,-0.573877191234,-0.0116921275025,0.0,-0.00675689420885,0.0107310948425,-0.999919590759,0.0,0.39707917263,-0.0866596441067,0.304905509518,1.0,-0.38998,-0.512545142857,1.882
-0.0883863308787,-0.413982789483,-0.142487782086,-2.55513893814,-0.0569796445354,2.13535591974,-0.36227007117,-1.40548095067,-0.861677691982,-0.031825340324,-0.728790478278,-0.150632579431,-0.12903785765,-1.33306537816,0.57380819231,0.818962847335,0.00497594442707,0.0,0.818951176085,-0.573729691921,-0.0115740528165,0.0,-0.00662399971921,0.0107165481918,-0.999920635962,0.0,0.392075242815,-0.093249508914,0.304983398156,1.0,-0.38998,-0.512545142857,1.895
-0.117128328075,-0.4307466554,-0.143251034328,-2.56925153814,-0.0600236727512,2.13247553881,-0.389262277692,-1.46264951852,-0.853848315146,-0.0336226735393,-0.696795139121,-0.142707679287,-0.162401550422,-1.37863897402,0.573767992906,0.81899065009,0.00503510519603,0.0,0.818979104882,-0.573688278678,-0.0116503894851,0.0,-0.0066531073183,0.0108084746345,-0.999919453276,0.0,0.384254189974,-0.103478496331,0.304966980829,1.0,-0.38998,-0.512545142857,1.915
-0.136115120836,-0.441012711536,-0.143739387082,-2.57778175221,-0.0619307036801,2.13053213667,-0.407152305802,-1.46472555922,-0.770420845316,-0.0437913759859,-0.62838056785,-0.152815537109,-0.133947659728,-1.37917479953,0.573751788338,0.819001988453,0.00503737939061,0.0,0.81898985228,-0.573671064633,-0.0117421618871,0.0,-0.0067271846554,0.0108628581283,-0.999918368318,0.0,0.379188998821,-0.11009507315,0.304948273756,1.0,-0.38998,-0.512545142857,1.928
-0.167522323046,-0.456718964459,-0.144528346806,-2.59053391318,-0.0648732041962,2.12747186053,-0.436943892884,-1.50973216833,-0.73054292399,-0.0310997350754,-0.603209957285,-0.136127136166,-0.161445166547,-1.42858153914,0.573690187005,0.819044513059,0.00513827429455,0.0,0.819033933304,-0.573609548787,-0.0116725548774,0.0,-0.00661310614884,0.0109050611525,-0.999918669927,0.0,0.37102901182,-0.12083421105,0.3049826815,1.0,-0.388373142857,-0.510433273469,1.949
-0.187231880683,-0.46556631689,-0.144859102784,-2.59780088622,-0.0664460418786,2.12556265447,-0.455721062464,-1.50582934832,-0.659313392141,-0.0232063121544,-0.551660512892,-0.123955667343,-0.141575883517,-1.44466270848,0.573613126727,0.819098377399,0.0051551808489,0.0,0.819086582423,-0.573530093253,-0.0118806367661,0.0,-0.00677488938217,0.011037641175,-0.999916132159,0.0,0.366003818953,-0.127371970151,0.304917463202,1.0,-0.378203428572,-0.497067363265,1.962
-0.218945433284,-0.478522956783,-0.145235841694,-2.60800250798,-0.0686792228425,2.12277489492,-0.485695689987,-1.49607446682,-0.584766720282,-0.0100853371593,-0.459958497487,-0.0985254881067,-0.125934372951,-1.41951735344,0.573767996429,0.818988637983,0.00535201167351,0.0,0.818979967724,-0.573685194157,-0.0117412679174,0.0,-0.00654572118922,0.0111201682138,-0.999916744231,0.0,0.358218410468,-0.137713726181,0.304981772913,1.0,-0.361775428572,-0.475476277551,1.983
-0.238381193392,-0.485677441801,-0.145286681862,-2.61364680369,-0.0698508767897,2.12108214989,-0.504045393115,-1.48899102979,-0.530413192361,0.01120543062,-0.421022904926,-0.0890418007586,-0.136371308061,-1.3880065349,0.573863215549,0.818921517652,0.0054133786554,0.0,0.818913172015,-0.573779379717,-0.0117977545397,0.0,-0.00655547621874,0.0112036001465,-0.999915748989,0.0,0.353513450027,-0.143880569294,0.304981246418,1.0,-0.351605714286,-0.462110367347,1.996
-0.267676108094,-0.495367622457,-0.14520856096,-2.62129838888,-0.0713329280469,2.11874861971,-0.531877739095,-1.45340098154,-0.453218452203,0.00926507533317,-0.353377484846,-0.0590465721438,-0.102679953505,-1.39384797169,0.573919461755,0.818881252829,0.00554004385668,0.0,0.818873655593,-0.573833612619,-0.011902441155,0.0,-0.00656774899391,0.0113678574528,-0.999913814531,0.0,0.346542461779,-0.152994810443,0.304953148586,1.0,-0.33596,-0.441547428572,2.016
-0.286279444995,-0.500899757239,-0.145022781636,-2.62555868801,-0.0720877184178,2.11737517788,-0.549587423547,-1.4102740005,-0.407760987968,0.0333952511873,-0.318631935004,-0.067411318297,-0.109779320525,-1.35313408618,0.573941043463,0.818865328658,0.0056567704206,0.0,0.818859197832,-0.573854663606,-0.0118821750809,0.0,-0.00648386195038,0.0114519869397,-0.999913402015,0.0,0.342212835248,-0.15867806444,0.304973737798,1.0,-0.325790285714,-0.428181518367,2.029
-0.315505082099,-0.508487778336,-0.144628539158,-2.63129661162,-0.0730963520056,2.11548738068,-0.577498764298,-1.38072411485,-0.340507268105,0.0298688110692,-0.247829515793,-0.0548948919176,-0.0864964740732,-1.31364744292,0.573958924594,0.81885159381,0.0058281296437,0.0,0.818848495893,-0.573873372791,-0.0117149338967,0.0,-0.00624830417621,0.0114964673963,-0.999914391302,0.0,0.335561835542,-0.167521051965,0.305038457723,1.0,-0.309362285714,-0.406590432653,2.05
-0.333169316912,-0.512519593139,-0.144420038097,-2.63438013471,-0.0736014793224,2.11443692336,-0.594318674016,-1.35466538274,-0.29301339079,0.00866594204227,-0.230071035627,-0.0423649878326,-0.0871292919226,-1.29391016724,0.574099621858,0.818752095153,0.00594792118955,0.0,0.81875049446,-0.574013511838,-0.0116988440025,0.0,-0.00616438459126,0.0115863884068,-0.999913874274,0.0,0.331551441318,-0.172813267276,0.30504602196,1.0,-0.299192571429,-0.393224522449,2.063
-0.359397427067,-0.517645835584,-0.143815071109,-2.63848264277,-0.0742231364644,2.11293552193,-0.61944991603,-1.30679916181,-0.230160029344,0.013971641962,-0.188048149566,-0.0292858473939,-0.0562685145186,-1.24099218354,0.574054758861,0.818783569524,0.00594533496402,0.0,0.818780310009,-0.573965646206,-0.0119577513707,0.0,-0.00637851513242,0.0117325531726,-0.999910826894,0.0,0.325625570192,-0.180499313858,0.304960928501,1.0,-0.283546857143,-0.372661583674,2.083
-0.375783653382,-0.520381387434,-0.143321041989,-2.64065989941,-0.0745165496077,2.11216067302,-0.635207968842,-1.25320061992,-0.201961827765,0.0354825386251,-0.157009305255,-0.0213663839258,-0.0589685413212,-1.18917047744,0.573961877029,0.818848786943,0.00593082967506,0.0,0.81884487395,-0.573871991589,-0.0120314826863,0.0,-0.00644855212003,0.0117622683239,-0.999910028562,0.0,0.321987175054,-0.185248658456,0.304924688177,1.0,-0.273377142857,-0.35929567347,2.096
-0.401308002217,-0.523953793996,-0.142543299785,-2.64340148645,-0.0747895885161,2.11107324789,-0.65975791415,-1.18904143971,-0.151032156864,0.0469569293451,-0.119250601293,-0.00482244177135,-0.0442580795135,-1.13742060172,0.573926185416,0.818873381961,0.0059887320217,0.0,0.818869830417,-0.573835345168,-0.012080743737,0.0,-0.00645617767514,0.0118376750569,-0.999909089477,0.0,0.316383875811,-0.192617992695,0.304917453197,1.0,-0.256949142857,-0.337704587755,2.117
-0.41654330755,-0.525690155516,-0.142045870519,-2.64470661426,-0.0749384296697,2.11054582652,-0.67434717144,-1.15963389328,-0.125730766168,0.051140585912,-0.0940872079185,-0.0109466886341,-0.0421401013641,-1.10364065297,0.573960704138,0.81884926066,0.00597873932564,0.0,0.818845803416,-0.573870310912,-0.0120483767793,0.0,-0.0064349073141,0.0118111878284,-0.999909539813,0.0,0.313070186682,-0.197004689589,0.304928314899,1.0,-0.246779428572,-0.324338677551,2.13
-0.438901407707,-0.527687534935,-0.141275369225,-2.64627762261,-0.0749776703952,2.10992029043,-0.695813401929,-1.10693741883,-0.0890397795661,0.048277363985,-0.0735958645784,-0.00158771502675,-0.0302553468357,-1.05168609355,0.574035308877,0.818796585347,0.00603016487251,0.0,0.818793619152,-0.573944352694,-0.0120679802769,0.0,-0.00642036558032,0.0118651357465,-0.999908994589,0.0,0.308224088674,-0.203391590941,0.304911846663,1.0,-0.231133714286,-0.303775738776,2.15
-0.452616012564,-0.528652046963,-0.14067028723,-2.64704404583,-0.0749587666053,2.10958318644,-0.709092872995,-1.0414806949,-0.073569400166,0.0489069670881,-0.0588028630176,-0.0038763143908,-0.0301530322148,-1.00392390565,0.573926572176,0.81887300225,0.00600356872174,0.0,0.818869582174,-0.573835554793,-0.0120876112828,0.0,-0.00645328159863,0.0118537693418,-0.999908917506,0.0,0.30526809379,-0.207257396626,0.304903166838,1.0,-0.220964,-0.290409828572,2.163
-0.473864102949,-0.529685800736,-0.139776992648,-2.64785628018,-0.0749138985834,2.10917970332,-0.729461055105,-0.978774543552,-0.037230118275,0.0445797949506,-0.0281245173053,0.00815277109508,-0.0173263842738,-0.940923949764,0.573987444109,0.818830754765,0.00594608761558,0.0,0.818826631996,-0.573896744836,-0.012092142191,0.0,-0.00648910252526,0.0118097800607,-0.9999092062,0.0,0.300695684077,-0.21326126914,0.304900618629,1.0,-0.204536,-0.268818742857,2.184
-0.486235711282,-0.53005083687,-0.139175407292,-2.64813284346,-0.0748377699364,2.10901094136,-0.741346560532,-0.93915488513,-0.0259544249556,0.037657181746,-0.0171521944983,0.00576838341074,-0.00972618799944,-0.902488330016,0.573977160524,0.818838372732,0.00588943449779,0.0,0.818833738151,-0.573887113494,-0.0120680210437,0.0,-0.00650201333339,0.0117494623308,-0.999909832914,0.0,0.298054813257,-0.216733376003,0.304909662418,1.0,-0.194366285714,-0.255452832653,2.197
-0.504909124327,-0.530269832464,-0.138109657669,-2.64830764313,-0.0745667524845,2.10885156384,-0.759418864662,-0.858912361287,-0.00553946112872,0.0453605979622,-0.00543554429723,0.0143094529946,-0.00783610075339,-0.829609891103,0.57382298972,0.818946893604,0.00582312862785,0.0,0.818941745108,-0.573733877861,-0.0120250744468,0.0,-0.00650709647637,0.0116692919612,-0.999910738676,0.0,0.294105208903,-0.221918034283,0.304924792495,1.0,-0.177938285714,-0.233861746939,2.218
-0.515872916073,-0.530263970469,-0.137521598126,-2.64832307711,-0.0743538429013,2.10881316204,-0.769876631455,-0.825998001339,0.00558319439393,0.0449231799618,0.000240338570612,0.0184087030159,-0.00258867919411,-0.798265207036,0.573912595983,0.818884028952,0.00583319819728,0.0,0.818879181859,-0.573823731183,-0.0119982478315,0.0,-0.00647807069325,0.0116628546737,-0.99991100225,0.0,0.291769953764,-0.224956347157,0.304927953642,1.0,-0.167768571429,-0.220495836735,2.231
-0.532805680218,-0.529949298697,-0.136297105273,-2.64817318175,-0.0738097806458,2.10880813141,-0.786222683119,-0.747258570925,0.0235116336276,0.0504940327897,0.00738421131623,0.0247548444646,0.00071163353455,-0.708739974793,0.57377051929,0.81898350407,0.0058444979545,0.0,0.818978611329,-0.573681290248,-0.012023240229,0.0,-0.00649408131685,0.0116853245872,-0.999910636056,0.0,0.288224868636,-0.229544349292,0.304913210211,1.0,-0.150558285714,-0.197876604082,2.253
-0.541509615615,-0.529702532884,-0.135766701175,-2.64801906587,-0.0735063806635,2.10881601015,-0.794452775493,-0.718152506142,0.0229883098032,0.0411418769918,0.0125393568868,0.027678174107,-0.00128970609156,-0.678135002729,0.573922784343,0.818876338722,0.00590985571482,0.0,0.818872124489,-0.573832942855,-0.0120392828109,0.0,-0.00646753845254,0.0117492610266,-0.999910058861,0.0,0.286376406162,-0.231919765598,0.304907864074,1.0,-0.141170857143,-0.185538840816,2.265
-0.554607696179,-0.529076889576,-0.134655753975,-2.64767035459,-0.0729435464551,2.10890617442,-0.807090600668,-0.635531734338,0.0353334323716,0.0548931461259,0.0214033228864,0.0270976351635,0.0104290131314,-0.601122260431,0.573776552876,0.818978715056,0.0059227152787,0.0,0.81897417517,-0.573685792905,-0.0121102570321,0.0,-0.00652039067008,0.0117993595687,-0.999909125681,0.0,0.283664016432,-0.235415582447,0.304874709463,1.0,-0.125525142857,-0.164975902041,2.285
-0.562528127173,-0.528635741684,-0.134031396032,-2.64740817033,-0.0725925938576,2.10896962985,-0.814557772082,-0.595296807972,0.0352038715293,0.0451775068812,0.0202470441749,0.027030973778,0.00733569525836,-0.56290155282,0.573872095918,0.818911525215,0.00595636620906,0.0,0.818907076908,-0.573780541363,-0.0121588093412,0.0,-0.00653946797941,0.0118555400976,-0.999908336563,0.0,0.282007367402,-0.237536363041,0.30485441862,1.0,-0.115355428572,-0.151609991837,2.298
-0.573504255164,-0.527915334058,-0.13303492999,-2.64689527219,-0.0720165102818,2.10912845124,-0.82491087031,-0.505663636376,0.0383853410537,0.0549003915135,0.0254964120029,0.0281030028883,0.00856432525709,-0.489532456024,0.573953646828,0.818854071054,0.00599737544249,0.0,0.81885043177,-0.573862396449,-0.0121106247699,0.0,-0.00647529082142,0.0118621191052,-0.9999086762,0.0,0.279765092225,-0.240459666812,0.304863618542,1.0,-0.0997097142858,-0.131047053061,2.318
-0.580243036147,-0.527368872011,-0.132292279648,-2.64652698605,-0.0715997643467,2.10920676029,-0.831297128069,-0.474060504469,0.0364309329497,0.047691364851,0.0265331193362,0.0277525637643,0.00468292074535,-0.451063059082,0.573916549124,0.818880021474,0.00600432951926,0.0,0.81887622411,-0.573824820909,-0.0121470736417,0.0,-0.00650168779117,0.0118884381607,-0.999908192333,0.0,0.27841247987,-0.242216075676,0.304856956905,1.0,-0.0887577142858,-0.116652995919,2.332
-0.589292869716,-0.526645386058,-0.131201257052,-2.64597881132,-0.0709805157101,2.10935967109,-0.839602299733,-0.396747465083,0.0353758699223,0.0516611484325,0.024788577486,0.0256317013939,0.00941641603439,-0.365138784816,0.574050192936,0.818786307259,0.00600882148772,0.0,0.818782989278,-0.573959189106,-0.01208356782,0.0,-0.0064451656547,0.0118567235369,-0.999908934827,0.0,0.276624034762,-0.244554640911,0.304882282814,1.0,-0.0723297142858,-0.0950619102042,2.353
-0.594080121899,-0.526177865445,-0.130531018205,-2.64564636644,-0.0705868654593,2.10944516478,-0.844036024697,-0.351546416057,0.02785321364,0.0513783861604,0.02222539462,0.0335319608578,0.00467229074572,-0.324870819594,0.574052445441,0.818784678387,0.00601558169528,0.0,0.818781436571,-0.573961390197,-0.0120842289855,0.0,-0.00644179393531,0.0118626562156,-0.999908886188,0.0,0.275703758689,-0.24576791277,0.304886518234,1.0,-0.0621600000001,-0.0816960000002,2.366
-0.600645246849,-0.525495486244,-0.129281460362,-2.6452239788,-0.0698655674229,2.10958545566,-0.850089615452,-0.275965420569,0.0257655566517,0.0584440642425,0.013952074937,0.0357201783701,0.011779197073,-0.251973289041,0.573919402916,0.818877939376,0.00601550179512,0.0,0.818874412087,-0.573827853012,-0.0121259736839,0.0,-0.00647795458401,0.011885500905,-0.999908381289,0.0,0.274511476409,-0.247326449371,0.304871931921,1.0,-0.0449497142858,-0.0590767673471,2.388
-0.603379680647,-0.525250725013,-0.128658677204,-2.6450567274,-0.0695255548503,2.1096069337,-0.852499098145,-0.241260108255,0.0212041291996,0.0558980627675,0.0135867949344,0.0345916278854,0.00195544938031,-0.19839569874,0.573899396578,0.818892069078,0.00600072577718,0.0,0.818888222598,-0.573807683918,-0.012147743341,0.0,-0.0065045533519,0.0118857350764,-0.999908205831,0.0,0.274029606042,-0.247940188334,0.304875597906,1.0,-0.0363445714287,-0.0477671510206,2.399
-0.607452259148,-0.524834779517,-0.127500902386,-2.64477638825,-0.0688538188514,2.10972115529,-0.855939738439,-0.163624481721,0.0181654076613,0.0519142538269,0.010605951938,0.0321268124861,0.00467733067487,-0.139860116047,0.573899938611,0.818891742541,0.00599344315206,0.0,0.81888805505,-0.573808722028,-0.0121099431226,0.0,-0.00647776718716,0.0118580829253,-0.999908708034,0.0,0.273391056835,-0.248801194972,0.3048889376,1.0,-0.0199783783784,-0.0262572972973,2.42
-0.609259818536,-0.524614189039,-0.126948905278,-2.64465524789,-0.0684999980555,2.10979022977,-0.857388614822,-0.133294107137,0.0148370133101,0.0338813884044,0.00693404417048,0.0248689263245,0.007872149828,-0.10963223154,0.573960884018,0.818848857202,0.00601660850907,0.0,0.818845441992,-0.57386949991,-0.0121114038685,0.0,-0.00646478556772,0.0118783732205,-0.999908551217,0.0,0.273120894778,-0.249169446542,0.304882595959,1.0,-0.0197183783784,-0.0259155830116,2.433
-0.611490774626,-0.524421405026,-0.126325135122,-2.64448165073,-0.0681786145786,2.10979459028,-0.859346045572,-0.110031824481,0.00277404329671,0.0279003572284,0.0121881506935,0.0136061811909,0.00508864359465,-0.0978238762474,0.57388984085,0.818898905258,0.00598167506167,0.0,0.818895164353,-0.57379886001,-0.0120964851036,0.0,-0.00647364471523,0.0118406426628,-0.999908941407,0.0,0.272759309114,-0.249644947781,0.30490638404,1.0,-0.0193183783784,-0.0253898687259,2.453
-0.612783623136,-0.524281604054,-0.126049153438,-2.64433094993,-0.0680392819427,2.10981660239,-0.860615679051,-0.0966025679394,0.00361152821274,0.0185951511794,0.014240444604,0.0145910461679,0.00847731042301,-0.0993585050833,0.573780797541,0.818975477003,0.00595913941191,0.0,0.818971765019,-0.573690524859,-0.0120489290013,0.0,-0.00644919972637,0.0117940380858,-0.999909650163,0.0,0.272542052189,-0.249958941012,0.304932190855,1.0,-0.0190583783784,-0.0250481544402,2.466
-0.614651812582,-0.524040299432,-0.125828703216,-2.64411099752,-0.0678645101845,2.1099339527,-0.862453000742,-0.0866285437569,0.0113433218108,0.00133268351961,0.0127452261446,0.0132622452995,0.0038064012449,-0.0916448567436,0.573736052822,0.819006624005,0.0059865205995,0.0,0.81900396739,-0.573646963723,-0.0119335372629,0.0,-0.00633961875824,0.0117499109095,-0.999910870442,0.0,0.272201564882,-0.250466512288,0.304959062852,1.0,-0.0186383783784,-0.0244961544402,2.487
-0.615812031838,-0.523920986974,-0.125752767634,-2.64399680478,-0.0678233200957,2.10992985058,-0.863590060005,-0.0912493087455,0.0085288784075,0.00108299833163,0.0124508155787,0.00512979211805,0.000507192757934,-0.0838888962074,0.573724795163,0.819014521126,0.0059850229897,0.0,0.81901183996,-0.573635704979,-0.0119344409176,0.0,-0.00634137962224,0.0117491155687,-0.999910868622,0.0,0.271953935956,-0.250786749694,0.304968687439,1.0,-0.0183783783784,-0.0241544401544,2.5
-0.617612943163,-0.523736556521,-0.12568385156,-2.64379434708,-0.067792339583,2.10993618769,-0.865233921105,-0.0796985458111,0.00983494801262,0.00290677469878,0.0114015150275,0.000224253795124,0.000231866188941,-0.0757103925059,0.57383485334,0.818937491759,0.00597432717151,0.0,0.818934899583,-0.573746206069,-0.011902443775,0.0,-0.00631973157684,0.0117228478014,-0.999911313984,0.0,0.271578565483,-0.251284557037,0.304993532733,1.0,-0.0179783783784,-0.0236287258687,2.52
-0.618672914073,-0.52358329581,-0.125642246398,-2.64366852566,-0.0677618502707,2.10996372509,-0.866324965154,-0.0790515013525,0.0114790250808,0.00424625400232,0.00993407643926,0.000861453975598,0.0015438269241,-0.082179015621,0.573792986953,0.818966811967,0.00597627996811,0.0,0.818964298543,-0.573704439557,-0.0118928821767,0.0,-0.00631137896518,0.0117186379397,-0.999911416087,0.0,0.271339412688,-0.251613563026,0.304999567663,1.0,-0.0176983783784,-0.0232607258687,2.534
-0.620258233989,-0.52335392401,-0.125634930194,-2.64351093403,-0.0677292034483,2.11001033897,-0.8679352225,-0.0764775113331,0.0125973144819,0.00154992045136,0.00807067258399,0.000236259339015,0.00132338451881,-0.0687260839363,0.573789771054,0.818968897502,0.00599920491919,0.0,0.818966558621,-0.573700904081,-0.0119077881386,0.0,-0.00631048033392,0.0117459413827,-0.999911101398,0.0,0.270984164383,-0.252080295779,0.304991196961,1.0,-0.0172983783784,-0.022735011583,2.554
-0.621293961481,-0.523218645566,-0.125632292595,-2.64341226165,-0.0677089432409,2.11000973632,-0.868926324883,-0.0834784406487,0.00991550682759,0.004654225153,0.0109819076479,0.00210143176271,-0.000158962532676,-0.0691153779652,0.573838362076,0.818934723641,0.00601660414332,0.0,0.818932400341,-0.573749023173,-0.0119385502569,0.0,-0.00632499438102,0.0117782169651,-0.999910630032,0.0,0.270745381533,-0.252380498249,0.304986418363,1.0,-0.0170383783784,-0.0223932972973,2.567
-0.622898178892,-0.522989169906,-0.125609587558,-2.64326159726,-0.0676745176704,2.11003293371,-0.87055672787,-0.0787118632176,0.00710871484185,0.00280389627605,0.0132932900812,0.00063368168589,0.00102211449147,-0.0734874941738,0.573823676059,0.818944867336,0.00603655197971,0.0,0.818942492762,-0.573733680092,-0.0119835211,0.0,-0.00635059218364,0.011820244632,-0.999909971845,0.0,0.270382018321,-0.252842980197,0.304973204457,1.0,-0.0166183783784,-0.0218412972973,2.588
-0.623840713092,-0.522835174393,-0.125576587652,-2.64316991109,-0.0676507296018,2.11005993989,-0.871461656635,-0.0741759477568,0.0137750789741,0.00151096542264,0.00576209959331,0.0056564495319,0.000703346659862,-0.0664817058445,0.573846278535,0.818929006934,0.006039628754,0.0,0.818926484805,-0.573755916216,-0.012012826166,0.0,-0.00637250176366,0.0118397554871,-0.99990960162,0.0,0.270175099769,-0.253112014767,0.304961445932,1.0,-0.0163583783784,-0.0214995830116,2.601
-0.625337625138,-0.522610723238,-0.125474887975,-2.64302480605,-0.0676133527004,2.11011068807,-0.873025260276,-0.0689049207891,0.0122414418299,0.00619987680818,0.000928212434911,0.00393612167023,0.000594347727838,-0.0815741870038,0.573743449265,0.819001194803,0.00602031873163,0.0,0.818998313141,-0.57365298894,-0.0120315523912,0.0,-0.00640040517658,0.0118338830936,-0.999909492916,0.0,0.269857930804,-0.253529294197,0.304951755279,1.0,-0.0159383783784,-0.0209475830116,2.622
-0.62616901376,-0.522493526619,-0.125421205654,-2.64294416003,-0.0675988013896,2.11013220339,-0.873869290454,-0.0696363769101,0.0101879019038,0.00238549510577,0.00438919797957,0.000924374578884,0.000472609574121,-0.0702818901107,0.573705617972,0.819027801364,0.00600594716661,0.0,0.819024680475,-0.573615129881,-0.0120416960984,0.0,-0.00641750527302,0.0118276353793,-0.999909457235,0.0,0.269679472002,-0.253761372968,0.304948491236,1.0,-0.0156983783784,-0.0206321544402,2.634
-0.62748565483,-0.522287291544,-0.125352853166,-2.64280531193,-0.0675670813823,2.11016202918,-0.87526077727,-0.0672654680652,0.0140835182592,0.00563957503092,0.00629396139613,0.00377489068014,0.000773311146967,-0.0711675867877,0.573616903956,0.819089987364,0.00599891637014,0.0,0.819086587802,-0.573526119892,-0.0120705585909,0.0,-0.00644646256879,0.0118377363012,-0.999909151433,0.0,0.269395138227,-0.254133332228,0.304940040366,1.0,-0.0152983783784,-0.0201064401544,2.654
-0.628426282217,-0.522152142312,-0.125354914488,-2.64271465749,-0.0675454301206,2.11018900287,-0.876244708102,-0.0680548260041,0.00602807993079,-0.000114958437283,0.00446316144297,0.00434029223711,0.000468063572746,-0.0644410877871,0.573596994554,0.81910378458,0.00601870641498,0.0,0.819100546634,-0.573505953085,-0.0120815223073,0.0,-0.00644438076083,0.0118600789429,-0.999908900092,0.0,0.2691799911,-0.25440910216,0.30493386594,1.0,-0.0150183783784,-0.0197384401544,2.668
-0.629801799052,-0.521961593668,-0.12535698546,-2.64257966611,-0.0675192969775,2.11021868753,-0.877550946774,-0.0723616190005,0.0155473393684,0.0019988865566,0.0115799793458,0.00552160217297,5.0100554182e-05,-0.065344469528,0.573673551631,0.819050001359,0.00604138510425,0.0,0.819046928793,-0.573582156489,-0.0120989707413,0.0,-0.00644455538349,0.0118892663368,-0.999908552345,0.0,0.268863742917,-0.254811799923,0.304927717421,1.0,-0.0146183783784,-0.0192127258687,2.688
-0.630678342003,-0.521839639458,-0.125361712081,-2.64248490818,-0.0674963155354,2.11023670073,-0.878376168848,-0.0703725240193,0.0147998358532,-0.00194853150629,0.00717384316854,0.00199291799562,0.00101861741319,-0.0598002342257,0.573733729377,0.819007697784,0.00606181882629,0.0,0.819004853151,-0.573642161892,-0.0121023764261,0.0,-0.00643474848677,0.0119084298731,-0.999908387459,0.0,0.268663621209,-0.25507038689,0.304927415675,1.0,-0.0143583783784,-0.018871011583,2.701
-0.632037532166,-0.521644804473,-0.125356893382,-2.64232247461,-0.0674674582569,2.11028647388,-0.87978637338,-0.0647881929862,0.0116896569647,0.00126212093264,0.00615961805719,0.00336505030015,0.00215896886005,-0.0594720902478,0.573709325645,0.819024662605,0.00607935966697,0.0,0.819022192729,-0.573617958398,-0.0120761136755,0.0,-0.0064035283359,0.0119075387751,-0.999908598495,0.0,0.268361822457,-0.255475881399,0.304934024415,1.0,-0.0139383783784,-0.018319011583,2.722
-0.632839447824,-0.521525463483,-0.125332849956,-2.64222680056,-0.0674442251756,2.11031482589,-0.880585947138,-0.0636068776678,0.0111553400462,0.00477639051961,0.00704055293346,0.00119527507002,-0.000143010319787,-0.0533701853561,0.573709137996,0.819024758079,0.0060842036634,0.0,0.819022409904,-0.573617858939,-0.012066104704,0.0,-0.00639255368387,0.0119057628983,-0.999908689865,0.0,0.268188250285,-0.255709375109,0.30493665209,1.0,-0.0136783783784,-0.0179772972973,2.735
-0.634033293526,-0.521333383173,-0.125258497285,-2.64208238585,-0.0674211508434,2.11034616655,-0.881765289799,-0.0606434485281,0.0105180743112,0.00407992972343,0.0052666588838,0.000508327447352,-1.47088789519e-05,-0.0637798898098,0.573685821911,0.819041244082,0.00606342579856,0.0,0.819038583373,-0.57359455949,-0.012075892113,0.0,-0.00641282911655,0.0118941767684,-0.999908697923,0.0,0.267935099047,-0.256048196512,0.304936136795,1.0,-0.0132783783784,-0.0174515830116,2.755
-0.634780976808,-0.521199601997,-0.125198634128,-2.64198710486,-0.0674003581614,2.1103589767,-0.882572656858,-0.0561671517652,0.0125195526642,0.00816653079394,0.00119686528991,0.00366490028461,0.00331392358853,-0.0641672841507,0.573599188931,0.819102015003,0.00605032047565,0.0,0.819099060555,-0.573507773714,-0.0120958418108,0.0,-0.00643794652457,0.0118942058701,-0.999908536173,0.0,0.267767267768,-0.2562698874,0.304932081519,1.0,-0.0129983783784,-0.0170835830116,2.769
-0.635945480438,-0.521005470947,-0.1251515692,-2.64186457856,-0.0673755025252,2.11039049313,-0.883758927471,-0.0580574079335,0.0136807781872,0.00118834443192,0.00548088909847,-0.000230043807035,0.000515430822566,-0.0545918709638,0.573574504278,0.819119319034,0.00604782007976,0.0,0.819116113806,-0.573482702688,-0.0121296628983,0.0,-0.00646744552701,0.0119113615953,-0.999908141588,0.0,0.267522371519,-0.256587594873,0.304920919796,1.0,-0.0125983783784,-0.0165578687259,2.789
-0.636655883543,-0.520890567786,-0.125134738171,-2.64178200768,-0.0673625589659,2.11040134161,-0.88445426882,-0.0526977174834,0.00986174474155,0.000529928552164,0.00892147885326,0.00357533372403,0.00612668636972,-0.0487454811622,0.573584822363,0.819112080079,0.00604968801043,0.0,0.819108785928,-0.573492801841,-0.0121470141644,0.0,-0.00648043828012,0.0119229251165,-0.999907919649,0.0,0.267363144902,-0.25679304217,0.30491752935,1.0,-0.0123383783784,-0.0162161544402,2.802
-0.637771524815,-0.520716533447,-0.125135105136,-2.6416531285,-0.0673485438671,2.11044749214,-0.885597137718,-0.0549861380287,0.00776191981276,-0.000778900393331,0.00581713219138,0.000640875183209,0.00367512679037,-0.0590844470153,0.573575560674,0.819118501853,0.00605830178797,0.0,0.819115357827,-0.573483573632,-0.0121395324259,0.0,-0.00646950361239,0.0119256167595,-0.999907958358,0.0,0.267111082947,-0.257125976198,0.304916040824,1.0,-0.0119383783784,-0.0156904401544,2.822
-0.63856456597,-0.52059165387,-0.125132727656,-2.64155193474,-0.0673410009387,2.11046718046,-0.886363514347,-0.0562299396187,0.00990885151267,-0.000279193288717,0.0102718599717,-0.000374243483432,-0.00172987364101,-0.0558267557371,0.573604227575,0.819098410886,0.00606055225865,0.0,0.819095297303,-0.573512226571,-0.0121394732691,0.0,-0.0064677469678,0.0119276526861,-0.999907945438,0.0,0.266932115946,-0.257362754501,0.30491784249,1.0,-0.0116583783784,-0.0153224401544,2.836
-0.639643742081,-0.520414895475,-0.125134000139,-2.64140983185,-0.0673255526588,2.11050933217,-0.887375806571,-0.0520479983235,0.0145616017545,-0.000558454705615,0.00428907894182,0.000490876833589,0.00210099726431,-0.0528806188436,0.573673929242,0.819049540793,0.0060679103652,0.0,0.819046608062,-0.573582037873,-0.0121262752905,0.0,-0.00645170003053,0.0119266590208,-0.999908060959,0.0,0.266691053843,-0.257688363279,0.30492098333,1.0,-0.0112583783784,-0.0147967258687,2.856
-0.64036506171,-0.520318855472,-0.125134368825,-2.64131632027,-0.0673212167202,2.11052279053,-0.888078588677,-0.0540789875608,0.00836461858222,-0.00215924304366,0.00808474626385,0.000878035857118,0.000107786048711,-0.0481609943097,0.573696020887,0.819034059851,0.00606888159344,0.0,0.819031234455,-0.573604295733,-0.0121118043635,0.0,-0.00643896771777,0.0119193270363,-0.999908230458,0.0,0.266527092055,-0.257904338843,0.304929292064,1.0,-0.0109783783784,-0.0144287258687,2.87
-0.641335763607,-0.520155459,-0.125120545669,-2.64119948191,-0.0673132077638,2.11057965175,-0.889089850099,-0.0517936232769,0.00868360845227,-0.000368611458468,0.00372681071804,-0.000229314753446,0.00126971966514,-0.0575011243299,0.573662595492,0.819057508319,0.00606395085227,0.0,0.819054719156,-0.573571084942,-0.0120964642481,0.0,-0.00642971678916,0.0119062258709,-0.999908446073,0.0,0.266312778655,-0.258193969738,0.304927461149,1.0,-0.0105783783784,-0.013903011583,2.89
-0.641950962355,-0.520075173689,-0.125110330418,-2.64112846925,-0.0673067284943,2.11060324858,-0.889717626077,-0.0452462652302,0.00334333983472,0.000918252170521,0.00499840249134,8.3984460407e-05,0.00373945118577,-0.0456255576077,0.573651483755,0.819065304364,0.0060621178918,0.0,0.819062605304,-0.573560194665,-0.0120788488469,0.0,-0.00641650002656,0.0118945326438,-0.99990867014,0.0,0.266175069966,-0.258374863961,0.304932451921,1.0,-0.0103183783784,-0.0135612972973,2.903
-0.642887059702,-0.519929990214,-0.125091800682,-2.64102782375,-0.0672977035616,2.11061344609,-0.89059864586,-0.0467530587872,0.00959253723794,-0.000641173226713,0.00387311272535,-0.000315563133549,-0.000170284132679,-0.0428863119741,0.573692672469,0.819036466003,0.00606067774796,0.0,0.819033563646,-0.573601039325,-0.0121085179928,0.0,-0.00644103073988,0.0119106958587,-0.999908320021,0.0,0.265959543933,-0.258643553511,0.304926082542,1.0,-0.00991837837838,-0.0130355830116,2.923
-0.643492526847,-0.519849181644,-0.125076286449,-2.64097250964,-0.0672894793253,2.1106227659,-0.891156976478,-0.0453039236222,0.00306771853072,0.000694521774021,0.00276349478185,0.000896671425762,-9.65590192829e-06,-0.040029993618,0.573726736748,0.819012605488,0.00606056872585,0.0,0.819009621941,-0.573634949471,-0.0121215021794,0.0,-0.00645123325377,0.0119183234554,-0.999908163361,0.0,0.265819440102,-0.258814333742,0.304922650291,1.0,-0.00965837837838,-0.0126938687259,2.936
-0.64443350077,-0.519722056852,-0.125067961526,-2.64088357696,-0.0672775868355,2.11065197337,-0.892084377583,-0.0427978762607,0.00642247318927,-4.41946204507e-05,0.00518761073152,-0.000222582566749,0.00332133234168,-0.0482915311612,0.573741741555,0.81900205178,0.00606630682224,0.0,0.818999115046,-0.573649874181,-0.012125110598,0.0,-0.00645067850808,0.0119252115873,-0.999908084813,0.0,0.265600981725,-0.259085936227,0.304918977274,1.0,-0.00923837837838,-0.0121418687259,2.957
-0.645034367232,-0.519641550126,-0.125058445869,-2.64083337677,-0.0672681560879,2.11066343219,-0.89269550192,-0.0416736387665,0.00304532837011,0.00495147519504,0.00522500080566,-0.000249924480824,0.00062571126983,-0.0486951884269,0.573733324621,0.819007910653,0.00607135970881,0.0,0.819004935869,-0.57364124464,-0.0121401964949,0.0,-0.00646025900616,0.0119379387078,-0.999907871093,0.0,0.265459763702,-0.259255492463,0.304913369081,1.0,-0.00895837837838,-0.0117738687259,2.971
-0.645866495016,-0.519526912993,-0.125033635854,-2.64073940044,-0.0672527866833,2.11069179524,-0.893457560715,-0.0430895027576,0.00539126781986,-1.40694700447e-05,0.00507596435376,-0.000135615168616,0.00383960463944,-0.037383315863,0.573784562437,0.81897203382,0.0060688245432,0.0,0.818969112247,-0.57369264229,-0.0121281601099,0.0,-0.00645110816777,0.0119293605675,-0.999908032551,0.0,0.265274300484,-0.259495338599,0.304916895012,1.0,-0.00855837837838,-0.0112481544402,2.991
-0.646380708418,-0.519450866418,-0.125011180342,-2.64066649605,-0.0672442529499,2.11070567795,-0.893959210783,-0.0359630373878,0.00612851636661,0.000633530212961,0.00743990041288,0.000831050950175,0.000349768874306,-0.0355223898085,0.573786302154,0.818970867483,0.00606173047925,0.0,0.818967946842,-0.573694585513,-0.0121149288074,0.0,-0.00644431587313,0.0119159725855,-0.999908235985,0.0,0.265163771517,-0.25964521842,0.304923750943,1.0,-0.00829837837838,-0.0109064401544,3.004
-0.647144701435,-0.519334449698,-0.124988672097,-2.64055347803,-0.0672256210304,2.1107497117,-0.894693353055,-0.0425530101452,0.00373777549245,0.0004653947551,0.00493190501121,0.000152113661952,0.00232968258588,-0.0350308386841,0.57380849784,0.818955341303,0.00605835443703,0.0,0.818952670802,-0.573717335885,-0.0120701446442,0.0,-0.0064092498571,0.0118876859886,-0.99990879806,0.0,0.265002294515,-0.259874006289,0.304936551379,1.0,-0.00789837837838,-0.0103807258687,3.024
-0.647616186215,-0.519252469575,-0.124966546686,-2.64049386541,-0.067218314262,2.11078775887,-0.895161610631,-0.0330646064993,0.0034307449023,-0.000522889279931,0.00286904695911,0.000238145456267,0.00531637655929,-0.0330136311517,0.573801694616,0.818960173939,0.00604943461156,0.0,0.818957511145,-0.573710802045,-0.0120522801632,0.0,-0.00639983469252,0.0118700772307,-0.999909067557,0.0,0.264903125741,-0.260012529425,0.304937232433,1.0,-0.00763837837838,-0.010039011583,3.037
-0.648347417295,-0.519137726845,-0.124955159701,-2.64040468579,-0.0672047835712,2.11079906614,-0.895870118933,-0.0374235911162,0.0103322994533,0.000953475749771,0.00485436159241,0.000593047989898,0.000507757449888,-0.0282575891079,0.573822671036,0.818945443765,0.00605386175087,0.0,0.818942771562,-0.573731630765,-0.0120623242993,0.0,-0.00640521687166,0.0118796301889,-0.999908919644,0.0,0.264736356534,-0.260224778903,0.304936752541,1.0,-0.00721837837838,-0.00948701158302,3.058
-0.648770132301,-0.519079955493,-0.124953851939,-2.64036387865,-0.0671945310561,2.11080551499,-0.896307918609,-0.0253082633277,0.00922663271737,0.00121646355553,0.00550433392138,0.000692182880519,0.00178191544847,-0.0375328236843,0.573815925268,0.818950105057,0.00606269221224,0.0,0.81894748928,-0.573724739799,-0.0120697823488,0.0,-0.00640635635284,0.0118910888321,-0.999908776141,0.0,0.264636648222,-0.260345716022,0.30493461174,1.0,-0.00695837837838,-0.0091452972973,3.071
-0.649384228002,-0.518990599733,-0.124936676068,-2.64031730403,-0.0671848835048,2.11081831043,-0.896898233691,-0.0334479497548,0.00304189224972,0.00296835636031,0.00264604058539,-0.000444854365893,0.00366354735295,-0.0269912645401,0.573829910094,0.818940291578,0.0060646527539,0.0,0.818937531013,-0.573738397328,-0.0120962238043,0.0,-0.00642668463153,0.0119079760363,-0.999908444724,0.0,0.264492058474,-0.260515662996,0.304924376837,1.0,-0.00655837837838,-0.00861958301159,3.091
-0.649815321025,-0.518948994082,-0.12492634662,-2.64028215007,-0.0671733600558,2.11082745855,-0.897308123119,-0.0305442548144,0.000891441739444,0.00100106628486,0.00126766632395,0.00180381691415,0.000631409417946,-0.0252455922672,0.573846683332,0.818928501119,0.00606967749844,0.0,0.818925838106,-0.573755204682,-0.0120906444948,0.0,-0.00641898790366,0.0119090212607,-0.999908481716,0.0,0.264391604167,-0.260635825826,0.304926061232,1.0,-0.00627837837838,-0.00825158301159,3.105
-0.650406235063,-0.518869570313,-0.124900684443,-2.64021627134,-0.0671588808142,2.11085019415,-0.897873354222,-0.026057413011,0.000786561922281,0.000871210754034,0.00876120149204,-0.000305600231831,0.000830878491769,-0.0228806572658,0.573859102098,0.818919819225,0.00606692026346,0.0,0.818917205256,-0.573767790456,-0.0120780988845,0.0,-0.00641011453519,0.0118996614729,-0.999908650072,0.0,0.264261385888,-0.260803685415,0.304929301954,1.0,-0.00587837837838,-0.00772586872587,3.125
-0.650757135427,-0.518804459579,-0.124891110235,-2.64015356964,-0.0671491821883,2.11086495431,-0.898219585908,-0.0238174996774,0.0032984717407,0.000508148601444,0.00718073066687,-0.000104762227336,0.00025952692429,-0.0268495563351,0.573863471934,0.818916762095,0.00606623786816,0.0,0.81891423222,-0.573772335017,-0.0120637779452,0.0,-0.0063987137022,0.0118909189596,-0.999908827098,0.0,0.26418808344,-0.260910383569,0.304935305147,1.0,-0.00561837837838,-0.00738415444016,3.138
-0.651297302682,-0.518716893032,-0.124887661681,-2.64005593316,-0.0671294090163,2.1108911333,-0.898778883078,-0.0258833404434,0.00235330632756,0.00223134343083,0.0110195982832,2.06349799873e-05,0.00245991169139,-0.0306892128908,0.573858708133,0.818920041971,0.00607411384177,0.0,0.818917860821,-0.573767997138,-0.0120237094936,0.0,-0.00636144702733,0.0118743393285,-0.999909261912,0.0,0.264074216642,-0.261077554967,0.304949746091,1.0,-0.00519837837838,-0.00683215444016,3.159
-0.651620425779,-0.518673458654,-0.124862355976,-2.64000949713,-0.0671168276135,2.1109015949,-0.899088300332,-0.0222879666698,0.000616759855439,0.00306701616899,0.00149232842403,-0.000305906330682,-0.000157652224962,-0.0247491679623,0.573859693921,0.818919384429,0.00606962935234,0.0,0.818917247966,-0.573769194037,-0.0120083245508,0.0,-0.00635140569183,0.0118618459939,-0.99990947403,0.0,0.264007830192,-0.261168731968,0.304956345152,1.0,-0.00493837837838,-0.00649044015445,3.172
-0.652075843465,-0.518629348769,-0.124841132328,-2.63996396411,-0.0670897579012,2.11091440345,-0.899522848796,-0.0212005016985,0.00132647327252,0.00120094712573,0.000352299728051,0.000664510683046,0.000439428314749,-0.0160496005155,0.573875580132,0.81890816896,0.0060808090421,0.0,0.818906283271,-0.573785227084,-0.0119899666807,0.0,-0.00632972513014,0.0118605901697,-0.999909626407,0.0,0.263907404006,-0.261294319401,0.30496239768,1.0,-0.00453837837838,-0.00596472586873,3.192
-0.65236154676,-0.518589979498,-0.124818012389,-2.63993616291,-0.0670727189088,2.11091755365,-0.899809008242,-0.0238467307913,0.00260845870351,0.0028048411887,0.00225422030387,0.0014100943605,-4.99832156233e-05,-0.0311063117408,0.573867543903,0.818913774445,0.00608432243816,0.0,0.818911892293,-0.57377709881,-0.0119958510883,0.0,-0.00633264473868,0.0118667820746,-0.999909534455,0.0,0.263845313332,-0.261369859561,0.304961353025,1.0,-0.00425837837838,-0.00559672586873,3.206
-0.652735428933,-0.518551191692,-0.124775855312,-2.63992056566,-0.0670450167069,2.11093066982,-0.900190741606,-0.019053384785,0.000506157290118,6.385507777e-05,0.00142856421628,0.000152832988378,0.000426210391515,-0.0209642543881,0.573843920909,0.818930291636,0.00608923462312,0.0,0.818928425643,-0.573753370649,-0.0120020932845,0.0,-0.00633528083779,0.011874204208,-0.999909429644,0.0,0.263764057018,-0.261461690103,0.30495628249,1.0,-0.00385837837838,-0.00507101158302,3.226
-0.652958583947,-0.518509756197,-0.124739244524,-2.63990224381,-0.0670249167353,2.11093590858,-0.900417312119,-0.0172922087692,0.00314648460644,0.00237813352641,0.000809311279649,0.00129706123476,-0.000259645956831,-0.0165238990198,0.573824765461,0.81894371412,0.00608921571848,0.0,0.81894174699,-0.573734030322,-0.0120176698501,0.0,-0.00634832713139,0.0118829783255,-0.999909242666,0.0,0.263719615245,-0.261515272551,0.30495066622,1.0,-0.00359837837838,-0.0047292972973,3.239
-0.653254628526,-0.518450069571,-0.124686028096,-2.63986941858,-0.0669991177323,2.11094786922,-0.900741509322,-0.0141324425886,-8.910639714e-05,0.00264977957371,0.000427155014472,0.0032057794991,-0.000753165140452,-0.0193073337408,0.573776751193,0.818977387884,0.00608480288421,0.0,0.818975286521,-0.573685901218,-0.0120297012982,0.0,-0.00636141019676,0.0118858949545,-0.999909124852,0.0,0.263664216414,-0.261588234984,0.304945883681,1.0,-0.00319837837838,-0.00420358301159,3.259
-0.653442009781,-0.518400387805,-0.124659688393,-2.63984408768,-0.0669782757014,2.11095098458,-0.900946571773,-0.0130544275894,0.00126534243186,0.00192224921931,0.00173542325218,0.000768390520428,0.000121533784794,-0.0150610504555,0.57375387799,0.818993375258,0.00608980100071,0.0,0.818991210722,-0.573662771977,-0.0120485563351,0.0,-0.00637431842244,0.0119006285401,-0.9999088674,0.0,0.263628014733,-0.261635895844,0.304939990028,1.0,-0.00291837837838,-0.00383558301159,3.273
-0.653710623514,-0.518346611065,-0.124630620402,-2.63982478855,-0.0669533509649,2.11096051484,-0.901218332224,-0.0129014146762,0.000308264397229,0.000251978603836,-0.000750473129455,0.00164510244539,0.000204117215,-0.00829405529189,0.573742451054,0.819001318981,0.00609805438128,0.0,0.81899911246,-0.573651032929,-0.0120703400838,0.0,-0.00638759223543,0.0119197971238,-0.99990855437,0.0,0.263571050743,-0.261703238003,0.304930460662,1.0,-0.00249837837838,-0.00328358301159,3.294
-0.65385261234,-0.518320423837,-0.12460653793,-2.63981509281,-0.0669356203774,2.11096217425,-0.901361060058,-0.0107148365837,0.00235369355768,0.00267440930411,0.00092461482714,0.0069078015554,-0.000180080620399,-0.00719069505963,0.573732893958,0.819007982246,0.00610231998728,0.0,0.81900574317,-0.573641294937,-0.0120832238384,0.0,-0.00639583717499,0.0119306077986,-0.999908372734,0.0,0.263542651428,-0.261735902648,0.304925937747,1.0,-0.00225837837838,-0.00296815444016,3.306
-0.65409449274,-0.518290498423,-0.124573192991,-2.6397988382,-0.0669129546881,2.11096213627,-0.901598061474,-0.00820103204519,0.00179565936939,0.00310185262988,0.00160557025927,0.000464144213119,-0.000486026369928,-0.00751587320894,0.573723792055,0.819014325684,0.00610668941895,0.0,0.819012067481,-0.573632034044,-0.0120942027495,0.0,-0.00640245590405,0.0119404140798,-0.999908213323,0.0,0.263491719866,-0.261793754247,0.304923093274,1.0,-0.00183837837838,-0.00241615444016,3.327
-0.654230463773,-0.518277447218,-0.124551379887,-2.63979764179,-0.0668935417741,2.11096536751,-0.901721144613,-0.00671134350803,0.00174694064962,0.000651243710087,-8.35410817637e-05,-0.000130535134068,-0.000374495413888,-0.00734739645937,0.573727267402,0.819011838095,0.00611380418822,0.0,0.819009623695,-0.573635386258,-0.0121006954086,0.0,-0.00640364165172,0.0119499934523,-0.999908091291,0.0,0.263463135168,-0.261823407804,0.304919629355,1.0,-0.00157837837838,-0.00207444015445,3.34
-0.654422060081,-0.518267822909,-0.124523327918,-2.63979093042,-0.066872422507,2.11097008355,-0.90188049798,-0.00843626953998,0.000231877552145,0.00444016600072,-0.000283462633849,0.000300338349823,0.00455136734756,-0.00732271511706,0.573743131424,0.819000689398,0.00611856269017,0.0,0.818998559893,-0.573651268785,-0.0120965952176,0.0,-0.00639732174052,0.0119516625581,-0.999908111797,0.0,0.263423073121,-0.261867867761,0.304920207643,1.0,-0.00117837837838,-0.00154872586873,3.36
-0.654544300343,-0.518269998471,-0.124512603869,-2.63978450052,-0.0668569716608,2.11096609084,-0.901950068349,-0.00644096513463,0.00170167863871,0.000153835370956,-0.00124728931004,0.000253955792302,0.000437102615386,-0.000567090840751,0.573785537642,0.818970920698,0.00612656058616,0.0,0.818968931434,-0.573693698345,-0.0120903567631,0.0,-0.0063870043787,0.0119549648024,-0.999908138277,0.0,0.263395688458,-0.26189730107,0.304923851414,1.0,-0.000898378378384,-0.00118072586873,3.374
-0.654659080592,-0.518262056497,-0.124501376173,-2.63977236641,-0.0668414073319,2.11096921391,-0.902018171192,-0.0115571167927,0.00167564730093,-0.000409060544442,0.000860653172569,0.000201002489964,-0.000775372758959,-0.00116135384083,0.573823031712,0.818944601178,0.00613313782327,0.0,0.818942751025,-0.573731255778,-0.0120815391414,0.0,-0.00637546113598,0.0119555843613,-0.999908204536,0.0,0.263372576259,-0.26192694438,0.304926978422,1.0,-0.000538378378384,-0.00070758301159,3.392
-0.654688648013,-0.518261441994,-0.124495311462,-2.63976998444,-0.066828088076,2.11097155526,-0.90205215957,-0.000365789557343,-3.83929432951e-05,0.00183826286643,0.00182138892851,0.00272792439739,0.000391304735458,-0.000225565350971,0.573820900688,0.818946033911,0.00614120318317,0.0,0.818944314535,-0.573729138259,-0.012076112988,0.0,-0.00636642019973,0.0119590597118,-0.999908220581,0.0,0.263368258289,-0.261932999406,0.304928184866,1.0,-0.000238378378384,-0.000313297297304,3.407
-0.654685589101,-0.51826385897,-0.124479706873,-2.6397718826,-0.0668113965844,2.11097192014,-0.902069929855,0.000119536968683,-0.00107844274846,0.000194237436549,-0.000177162810664,2.65316297533e-05,-0.000147803265778,0.000572713379692,0.573799791522,0.818960773726,0.0061479466194,0.0,0.81895914722,-0.573708013612,-0.012073823066,0.0,-0.00636098370578,0.0119631046055,-0.999908206794,0.0,0.263373656207,-0.261926715233,0.304928621067,1.0,0.0,0.0,3.425
-0.654677521162,-0.518263755038,-0.124445137471,-2.63977162472,-0.0667996445956,2.11097097695,-0.902081677358,0.00163543485718,-0.00208206752972,0.00156604290886,0.000664793024433,0.00151323804833,2.00296009952e-05,0.000276420292108,0.573764060236,0.818985859646,0.00614099204156,0.0,0.81898414389,-0.573672322775,-0.0120741476066,0.0,-0.00636576154913,0.0119573172799,-0.999908245612,0.0,0.263384306929,-0.261915807869,0.30492943854,1.0,0.0,0.0,3.441
-0.654680026774,-0.518255256283,-0.124400614497,-2.63976848055,-0.0667901052813,2.11097248681,-0.902091313762,0.000493846987663,0.000757546249475,0.00408306249068,0.000194221885761,0.00195046302529,0.000238140276436,-0.00114255810905,0.573730881044,0.819009209121,0.00612686003995,0.0,0.819007296071,-0.57363918745,-0.0120780174212,0.0,-0.00637752326807,0.0119477046814,-0.999908285569,0.0,0.263395029336,-0.261906686038,0.304928915842,1.0,0.0,0.0,3.457
-0.654671715039,-0.518252894704,-0.124374508769,-2.63976647088,-0.0667846500185,2.11097766321,-0.902096665198,0.000452332415456,0.000932523261825,-0.000240212719263,0.000322805245854,-0.00044804560528,0.000602128579484,-0.000978339933622,0.5737035928,0.819028391969,0.00611781484735,0.0,0.819026398202,-0.573612013817,-0.0120732578062,0.0,-0.00637921165167,0.0119373530705,-0.999908398435,0.0,0.263404638338,-0.261899467439,0.304930016518,1.0,0.0,0.0,3.476
-0.654671458842,-0.5182415443,-0.124361697607,-2.63977157162,-0.0667813311796,2.11097479728,-0.902096955295,-4.82305236502e-05,0.0020531720791,0.00101565122055,-0.00118323649757,-0.000543584075862,-0.000257240396363,-0.0039151707525,0.573695293099,0.819034220012,0.0061158831489,0.0,0.819032079775,-0.57360349751,-0.0120924292311,0.0,-0.00639614452438,0.0119467042382,-0.999908178581,0.0,0.263405938457,-0.261894363958,0.304923575591,1.0,0.0,0.0,3.492
-0.65467893406,-0.518243725541,-0.124364310216,-2.63976625804,-0.0667738096206,2.11097562758,-0.902096165155,-0.00379121456142,0.00141639419016,0.000288829643041,9.96154334043e-05,-0.000114140015816,0.000116167661717,0.000283423714494,0.573707358575,0.8190257189,0.00612253200666,0.0,0.819023717127,-0.573615628289,-0.0120834045937,0.0,-0.00638476201682,0.0119470670724,-0.999908246992,0.0,0.263405479951,-0.261897664701,0.304926807599,1.0,0.0,0.0,3.509
-0.654674323958,-0.518244357301,-0.124367006765,-2.639763288,-0.0667736319194,2.11098293156,-0.90209853092,0.000387124004067,0.000291067857771,-0.00130714725119,-0.000343319606898,-0.000207053504356,0.000239740595886,0.000546137910072,0.573703762394,0.819028236526,0.00612271908227,0.0,0.819026306167,-0.573612161181,-0.0120724998423,0.0,-0.00637577488464,0.0119409364747,-0.999908377568,0.0,0.263407957744,-0.261898824684,0.304928949741,1.0,0.0,0.0,3.525
-0.654677756866,-0.518253937065,-0.124364225335,-2.63976543602,-0.0667723094821,2.11098226197,-0.902097005059,0.000366829363119,-0.00194558861407,0.000129842426033,-0.00113120969849,0.000517210845835,-8.56156785667e-05,0.00116394598828,0.573706269539,0.81902648253,0.00612242661512,0.0,0.81902459258,-0.573614751903,-0.0120656557508,0.0,-0.00637030001315,0.0119367901346,-0.99990846197,0.0,0.263407403152,-0.261898506167,0.304931512136,1.0,0.0,0.0,3.542
-0.654685313416,-0.518251435293,-0.124364936708,-2.63975834823,-0.0667729032508,2.11098320854,-0.902109341517,-0.00059846523812,-0.00100956055336,0.000205337153408,0.000378004092172,0.000321206165456,-0.000202425262432,-0.00224206252115,0.573702943016,0.819028820674,0.00612135456293,0.0,0.819026952376,-0.573611497465,-0.0120601890146,0.0,-0.00636648560297,0.0119327500455,-0.999908534486,0.0,0.263406929913,-0.261902626414,0.304933874371,1.0,0.0,0.0,3.56
-0.654682133805,-0.518246206116,-0.124369140554,-2.63975731619,-0.0667736314237,2.11098425388,-0.902111132136,0.00132807964934,0.000813459049207,-0.000296504055129,0.000257383085235,0.000130874325026,4.48988238719e-06,-0.0017784191622,0.573701616777,0.819029738919,0.00612279152376,0.0,0.819027867652,-0.57361012465,-0.0120633249393,0.0,-0.00636824927491,0.0119357157067,-0.999908487859,0.0,0.263407060836,-0.261903101575,0.304932406837,1.0,0.0,0.0,3.575
