nelsonifechukwu/NELSON_IML_WORK/CNN-GradCAM/train2dof/data_sample_2022-02-21-15-42-07/robot_state.csv
position_joint1,position_joint2,position_joint3,position_joint4,position_joint5,position_joint6,position_joint7,velocity_joint1,velocity_joint2,velocity_joint3,velocity_joint4,velocity_joint5,velocity_joint6,velocity_joint7,ee_T_00,ee_T_10,ee_T_20,ee_T_30,ee_T_01,ee_T_11,ee_T_21,ee_T_31,ee_T_02,ee_T_12,ee_T_22,ee_T_32,ee_T_03,ee_T_13,ee_T_23,ee_T_33,v_x,v_y,time
0.465082243765,0.547849445008,-0.123922817926,-1.35585211199,0.0795041414463,1.89409234529,0.159178237673,0.00246610110002,-0.00226992475217,-0.00104537344562,0.00112953710565,0.000261153716718,-0.000226908349652,-0.00117681881889,0.573770632852,0.819002120386,0.00188004818084,0.0,0.818957645884,-0.573711956332,-0.0119880069757,0.0,-0.00873976528005,0.00841820825801,-0.999926372426,0.0,0.661651680635,0.260931088336,0.303154049541,1.0,0.0,0.0,0.0
0.465082193292,0.547859948784,-0.123917536984,-1.35586003505,0.0795048403587,1.89409397435,0.159179250694,-0.00385653557904,0.00226308670692,4.85727103779e-05,-0.000644113186668,0.000371802103365,5.50250777939e-05,-0.000929335086977,0.573768460026,0.819003671816,0.00186727921793,0.0,0.818958989442,-0.573709798885,-0.0119994657274,0.0,-0.00875649869576,0.00841430207428,-0.999926258907,0.0,0.661648668349,0.260933252362,0.303142805959,1.0,-0.00014,-0.000184,0.008
0.465084708988,0.547861265505,-0.123925332353,-1.355862982,0.0795002349748,1.89409314601,0.159179261336,0.000795546775396,0.00164614427971,-0.00150555071211,-0.000255759248666,-8.22464761755e-05,0.000476773094439,-0.00120502311336,0.573770791193,0.819002058515,0.00185855393119,0.0,0.818957340957,-0.57371224285,-0.0119951239225,0.0,-0.00875792465757,0.00840468994532,-0.999926327257,0.0,0.66164918456,0.260929234556,0.303140648192,1.0,-0.00046,-0.000604571428571,0.024
0.465084237904,0.547843951203,-0.123920594881,-1.35587068303,0.0794998807907,1.89409637491,0.159181219999,0.00184939785869,0.00151265109328,-0.00873487469752,0.000499173565194,5.67684978107e-05,0.000189897023668,-1.03151950969e-06,0.573769790639,0.819002731089,0.0018710210527,0.0,0.818958152125,-0.573711165731,-0.0119912586827,0.0,-0.00874761635976,0.00841267189775,-0.999926350368,0.0,0.661647578466,0.260931142952,0.30314937151,1.0,-0.0008,-0.00105142857143,0.041
0.465078083946,0.547783711738,-0.123915800898,-1.35592780835,0.0795005402126,1.89410380437,0.159178064564,-0.000360961828003,-0.0035566695337,0.000981667606869,-0.00709767313541,0.000301064434461,8.15116657322e-05,-0.00136341840027,0.573772135276,0.819001057331,0.00188461477651,0.0,0.818956575811,-0.57371337484,-0.0119932217498,0.0,-0.00874140088927,0.00842495632286,-0.999926301295,0.0,0.661638027781,0.260924470587,0.303165345421,1.0,-0.00112,-0.001472,0.057
0.465083230155,0.547646808597,-0.123919177607,-1.35610830062,0.079501992524,1.894135355,0.159181913526,0.000978215644468,-0.00475485065698,7.50621343186e-06,-0.0138534692843,0.000450255520487,0.00406135156438,0.00105698796326,0.573783642276,0.818993001721,0.00188199065797,0.0,0.818948342449,-0.573724753442,-0.0120111027514,0.0,-0.00875743307784,0.00843318977932,-0.999926091607,0.0,0.661605909166,0.260908671052,0.303179277991,1.0,-0.00148,-0.00194514285714,0.075
0.465068636113,0.547498316788,-0.123925615332,-1.35631380731,0.0794972034795,1.89420256124,0.159167542674,-0.00334680531618,-0.00882249421074,-0.000906134746522,-0.0119878160247,0.000110712467733,0.00809594472392,-0.0015186604269,0.573798474184,0.818982582935,0.0018938781065,0.0,0.818938030665,-0.573739485908,-0.0120104596558,0.0,-0.00874993308327,0.00844271478003,-0.999926076887,0.0,0.661581672844,0.260876636787,0.303192695736,1.0,-0.00182,-0.002392,0.092
0.465043274592,0.547327993257,-0.123920633742,-1.35651267488,0.0794957682484,1.89432645147,0.159155570397,-0.00484186220803,-0.00738200265358,0.000201981683912,-0.0123048681,0.000249969866159,0.00468313540624,-0.00157087643829,0.573816995455,0.818969400045,0.00198101453112,0.0,0.818925936597,-0.573757587356,-0.0119703058591,0.0,-0.00866685895376,0.00849123260557,-0.999926389553,0.0,0.661570844197,0.260849573725,0.303229282652,1.0,-0.00214,-0.00281257142857,0.108
0.465028589022,0.547130303299,-0.123923902938,-1.35675652532,0.0794936243276,1.89444376186,0.159143634165,-0.00330407751203,-0.0116881565603,-0.00162565791668,-0.0168744795656,0.000198157315003,0.0110831357651,-0.00621108616351,0.573834731635,0.818956809393,0.0020474424292,0.0,0.818914156508,-0.573774989303,-0.0119420610358,0.0,-0.0086054266267,0.00852961320106,-0.999926593471,0.0,0.661548246686,0.260819250211,0.303263537815,1.0,-0.00248,-0.00325942857143,0.125
0.46499093219,0.546907060656,-0.123921421007,-1.3571085919,0.0794854590452,1.89459497938,0.159093171357,-0.00219129747117,-0.0130698755774,-0.000517483588357,-0.021691316054,-0.000159485954731,0.0127989577786,-0.00569338056704,0.573840202683,0.818952910818,0.00207329411132,0.0,0.818910490238,-0.573780248866,-0.011940765895,0.0,-0.00858947514999,0.00855009843441,-0.99992655567,0.0,0.661513248167,0.260765865463,0.303267120512,1.0,-0.00284,-0.00373257142857,0.143
0.464962069531,0.54666036926,-0.123918918272,-1.35745736595,0.0794772048566,1.89471465462,0.158981983665,-0.000720731659079,-0.0137691636504,0.000272168992431,-0.0192736378767,-0.000947333365732,0.00527057581485,-0.00968000154239,0.573788254387,0.818989246575,0.00209762329587,0.0,0.818946995967,-0.573728059995,-0.0119447842716,0.0,-0.00857934970605,0.00857178424649,-0.999926456932,0.0,0.661471019082,0.260716853037,0.303286123537,1.0,-0.00314,-0.00412685714286,0.158
0.46491923466,0.546357967881,-0.123921423916,-1.35794104274,0.0794647506848,1.8948906565,0.15896697472,-0.00362346105097,-0.0135675416149,-1.79765615375e-05,-0.0315773300263,0.000128513120507,0.00607025716833,0.000373838265815,0.573836540071,0.818955406959,0.00210085533448,0.0,0.818913056061,-0.573776183972,-0.0119601095403,0.0,-0.00858954099426,0.0085837310032,-0.999926266956,0.0,0.661415530602,0.260643557965,0.303285405443,1.0,-0.0035,-0.0046,0.176
0.464869258245,0.546069789365,-0.123921423934,-1.35841961595,0.0794465960768,1.89505652841,0.158912134801,-0.00410164388924,-0.0212928119145,-0.000385966701637,-0.0327579218494,0.000349891354617,0.00625743705001,-0.00833023422473,0.573852317021,0.818944385776,0.00208762012645,0.0,0.818901787528,-0.573791939274,-0.0119757967879,0.0,-0.00860981770948,0.00858205981937,-0.999926106914,0.0,0.661366409311,0.260568694715,0.303277803209,1.0,-0.0038,-0.00499428571429,0.191
0.464817953271,0.545747397788,-0.123913637671,-1.35897300581,0.0793938403279,1.89523608307,0.158833927868,-0.00508487218694,-0.0230534314512,0.00136620094526,-0.0384453753252,-0.0120884293485,0.0111095364836,-0.00274955670556,0.573843769746,0.818950512654,0.00203289179443,0.0,0.818907247824,-0.573783669458,-0.0119986260208,0.0,-0.00866000754942,0.00855025123086,-0.999925945995,0.0,0.661292124332,0.260478556757,0.303256163205,1.0,-0.00414,-0.00544114285714,0.208
0.464750817616,0.545344870129,-0.123926380587,-1.35967284541,0.079317458611,1.89546527015,0.158724698488,-0.00273128949705,-0.0189315880507,-0.00133538689036,-0.0401827126904,-0.000450613423205,0.0085717613798,0.00068133785947,0.573836858837,0.818955550203,0.00195272458462,0.0,0.818911562036,-0.57377741603,-0.0120032211964,0.0,-0.00870984304419,0.00848716289127,-0.999926050616,0.0,0.661212323163,0.260352175843,0.303228222429,1.0,-0.0045,-0.00591428571429,0.226
0.464685005864,0.544875831171,-0.123922343887,-1.3604573979,0.0793003867154,1.89572903837,0.158675143608,-0.00454327649095,-0.0210375398467,0.000859917120242,-0.0414576855497,-0.00179003934082,0.0140113872782,-0.00409291596564,0.573886460069,0.81892085709,0.00192553232705,0.0,0.818876170573,-0.573826794531,-0.0120571160326,0.0,-0.00876907058422,0.00849635175797,-0.999925454925,0.0,0.661114091798,0.260239165215,0.303209563401,1.0,-0.00488,-0.00641371428571,0.245
0.46461946804,0.544510293757,-0.123924948281,-1.36105807804,0.0792782282449,1.89595028927,0.158576602109,-0.00430415462703,-0.0277552132582,-0.000778710188361,-0.0466852039108,-0.000234414336257,0.0196911061042,-0.00725611999236,0.57387748062,0.818927164318,0.0019192918525,0.0,0.818882252451,-0.57381770417,-0.0120766677236,0.0,-0.00878875681969,0.00850236537968,-0.999925230973,0.0,0.661040971611,0.26013690919,0.303199832111,1.0,-0.00518,-0.006808,0.26
0.464553374393,0.543990204789,-0.123925300031,-1.36190695004,0.0792352615604,1.89625783035,0.158452167806,-0.00467335577643,-0.0252025145784,-7.07797736088e-05,-0.051972598178,-0.00459498753911,0.0254083472843,-0.00319144471922,0.573877217793,0.818927379288,0.0019061092228,0.0,0.818882215179,-0.573817421943,-0.0120925943636,0.0,-0.00880936753843,0.00850070701698,-0.999925063704,0.0,0.660947975346,0.260015347334,0.303192300616,1.0,-0.00552,-0.00725485714286,0.277
0.464469114475,0.543436389423,-0.123925440534,-1.36280280858,0.0791919825435,1.89656529913,0.158360095381,-0.00306837533099,-0.0345628433743,0.00170023115299,-0.0535515774176,-0.00062458644574,0.0175514089839,-0.0119073522011,0.573909131302,0.818905069384,0.00188235145592,0.0,0.818859451827,-0.573849299006,-0.0121213483035,0.0,-0.00884621782715,0.00849809737111,-0.999924760555,0.0,0.660841975923,0.259874369499,0.303184386649,1.0,-0.00588,-0.007728,0.295
0.464401032982,0.542937922547,-0.123934118382,-1.36357283648,0.0791400482954,1.89685128875,0.158258556525,-0.00406723596612,-0.0363697786036,-0.000200227020979,-0.0515377747052,-0.00817475374753,0.0212719603504,-0.00886362118639,0.573916798211,0.818899680171,0.00188929857553,0.0,0.818854245112,-0.573857022246,-0.0121074432629,0.0,-0.0088307641806,0.00849588880303,-0.99992491592,0.0,0.660757339412,0.259750502147,0.303195536454,1.0,-0.00618,-0.00812228571429,0.31
0.464320475962,0.542311701649,-0.123928992043,-1.36454849486,0.0790847563548,1.89719775352,0.158117630075,-0.00308280094436,-0.0305108386438,0.000771272167663,-0.0500992988861,-0.00146860644931,0.0186420279733,-0.00160183856814,0.573907203627,0.818906414076,0.0018850757422,0.0,0.818860810519,-0.573847338679,-0.0121223672672,0.0,-0.00884550891447,0.00850089221832,-0.99992474307,0.0,0.660632263839,0.259599672681,0.303200911238,1.0,-0.00656,-0.00862171428571,0.329
0.464249499043,0.541767464908,-0.123931296829,-1.36539821986,0.0790411188207,1.89751634805,0.158005015564,-0.00299206100244,-0.0402205787966,0.000954767096677,-0.056452482567,-0.00341156903144,0.0186135481077,-0.0117753988578,0.573906220712,0.818907057356,0.00190476809924,0.0,0.818861672258,-0.57384623088,-0.012116596606,0.0,-0.00882949247245,0.00851369567208,-0.999924775695,0.0,0.660544143047,0.259479845194,0.303212000213,1.0,-0.00684,-0.00898971428571,0.343
0.464163497325,0.541111373791,-0.123934082318,-1.36641079087,0.0789820874085,1.89789778094,0.157868900411,-0.00307408024792,-0.0372820126282,-0.000380391482535,-0.0620128515499,-0.00129851319451,0.025579560206,-0.00701536014267,0.57390756926,0.818906062419,0.00192607907496,0.0,0.818860952675,-0.573847481923,-0.0121059727366,0.0,-0.00880854843021,0.00852506446698,-0.999924863552,0.0,0.660430041346,0.259326182363,0.303227041246,1.0,-0.00718,-0.00943657142857,0.36
0.464074268972,0.540406300964,-0.123932124892,-1.36748204856,0.0789121484478,1.89828478448,0.157746472703,-0.000579899412854,-0.0421413758815,6.25933772387e-05,-0.0667817617388,-0.00192596267001,0.0308904848616,-0.00124938369524,0.573919559712,0.81889762223,0.00194169691338,0.0,0.818852736224,-0.573859421175,-0.0120957847071,0.0,-0.0087911175251,0.00853213553396,-0.999924956642,0.0,0.660304957579,0.259165442413,0.303248978381,1.0,-0.00752,-0.00988342857143,0.377
0.463980978778,0.539670661024,-0.123938008761,-1.36863242232,0.0788468595264,1.89872812179,0.157597870226,-0.00135704452563,-0.0427495656946,-0.000401622617787,-0.0678904499886,-0.00446014842587,0.0287198198769,-0.00717787067948,0.573924716675,0.818893950722,0.00196569609016,0.0,0.818849385,-0.57386447901,-0.0120826866529,0.0,-0.00876656462941,0.00854432605323,-0.999925068111,0.0,0.660176009901,0.258993061133,0.303259912872,1.0,-0.00786,-0.0103302857143,0.394
0.463871432388,0.538961572324,-0.123938801832,-1.36973784416,0.0787870474266,1.89914150179,0.157471608985,-0.0082805601031,-0.0410714003288,-0.000374647462078,-0.0771477498379,-0.00279737006953,0.0303797738529,-0.00324730690612,0.573956703238,0.818871489979,0.00198308080199,0.0,0.818827090198,-0.5738963261,-0.0120809828802,0.0,-0.00875485822305,0.00855792615512,-0.99992505437,0.0,0.660053294584,0.258816753499,0.303270604919,1.0,-0.00818,-0.0107508571429,0.41
0.463770771085,0.53817230427,-0.123940631834,-1.37095123263,0.0787238269371,1.8996089236,0.157318367609,-0.00525549515605,-0.0427330232892,0.00113789434227,-0.0769745290765,-0.00336658351267,0.0228131002089,-0.00749002003967,0.57396174754,0.818867872182,0.00201672274849,0.0,0.818823839325,-0.573901152766,-0.0120720300018,0.0,-0.00872816605455,0.00858038929902,-0.999925095213,0.0,0.659907740298,0.258624300432,0.303284877118,1.0,-0.00854,-0.011224,0.428
0.463658921889,0.537371080515,-0.123948039151,-1.37221807874,0.0786444328319,1.90007925848,0.157149855514,-0.00959392277368,-0.0487218734929,-0.000814815598093,-0.0732088645378,-0.00149996926546,0.0330984806253,-0.0130357674293,0.573972470299,0.81886033831,0.00202400169031,0.0,0.818816459712,-0.573911900999,-0.0120615959807,0.0,-0.00871533170471,0.00858047514002,-0.999925206423,0.0,0.659772770077,0.258438182897,0.303294958948,1.0,-0.00886,-0.0116445714286,0.444
0.463556973775,0.536574437346,-0.123947024311,-1.37345384524,0.0785733319189,1.9005432981,0.157003593657,-0.00996380577719,-0.0462697762986,0.00201124259326,-0.0722361378535,-0.0121103484187,0.0234911202814,-0.00556238991148,0.573984458739,0.818851878605,0.00204668803025,0.0,0.818808258315,-0.573923753037,-0.0120544065328,0.0,-0.00869629798991,0.0085950525519,-0.999925246942,0.0,0.659629771825,0.25825526987,0.303309374972,1.0,-0.00918,-0.0120651428571,0.46
0.463434390288,0.535661122945,-0.123958626518,-1.37490428599,0.0784958389472,1.90107496589,0.156830091388,-0.00488036257997,-0.048896882159,-0.0061765014355,-0.0824049522764,-0.00812251984153,0.031139623057,-0.0115842560748,0.574009848505,0.818834087619,0.00204393578758,0.0,0.818790372511,-0.573949093226,-0.0120628010611,0.0,-0.00870448519739,0.00859788709047,-0.999925151336,0.0,0.659461773395,0.25803103668,0.30331009756,1.0,-0.00954,-0.0125382857143,0.478
0.463317056226,0.534763469413,-0.123948772611,-1.37634262276,0.0784192082311,1.90159713819,0.156654489979,-0.00574696837792,-0.0422830180936,0.00142036281445,-0.0811112585072,-0.00841547504959,0.0385526458445,-0.00557022806841,0.574013527639,0.818831529712,0.00203542103473,0.0,0.818787524318,-0.573952631951,-0.0120877292428,0.0,-0.00872974664132,0.00860526313178,-0.999924867663,0.0,0.659287604795,0.257823469488,0.303303826801,1.0,-0.00988,-0.0129851428571,0.495
0.463189869206,0.533899425166,-0.123958700159,-1.377741435,0.0783325917495,1.90210824306,0.156480452681,-0.00958706851035,-0.0553872306564,-0.000780304442094,-0.0827622930112,-0.00659069001014,0.0299130107948,-0.0116649080303,0.574035504609,0.81881618444,0.00201058438124,0.0,0.818771891776,-0.573974750684,-0.0120963513218,0.0,-0.00875083204668,0.00859011049861,-0.999924813644,0.0,0.659126792865,0.257599828313,0.303292153586,1.0,-0.0102,-0.0134057142857,0.511
0.463056846481,0.532969456623,-0.123959755836,-1.37924208861,0.07824593965,1.90268724757,0.156285885822,-0.00940836837626,-0.0607695469874,-0.00106836262235,-0.087327107394,-0.00951647869489,0.036493156595,-0.00764008578281,0.574044844888,0.818809619744,0.0020173182611,0.0,0.818765395185,-0.573984040925,-0.0120952599095,0.0,-0.00874597506697,0.00859509746413,-0.999924813283,0.0,0.658956678746,0.257370880613,0.303283936337,1.0,-0.01054,-0.0138525714286,0.528
0.462932605304,0.532000505184,-0.123954589167,-1.3808026225,0.0781691360609,1.90325535507,0.156088090961,-0.00801818825398,-0.055817313972,-4.98013529014e-05,-0.0938809692186,-0.00654584154595,0.0310583115775,-0.0117435488283,0.57404552611,0.818809166738,0.00200731691114,0.0,0.818764584369,-0.573984542906,-0.0121262850694,0.0,-0.00877711348023,0.0086047253565,-0.999924457637,0.0,0.658766826578,0.257145618353,0.303273376881,1.0,-0.01088,-0.0142994285714,0.545
0.462803969179,0.53105096142,-0.123960142277,-1.38233054882,0.0780665653013,1.90380185149,0.155893602137,-0.00703119374372,-0.0627925619016,-0.000521642385746,-0.0981893563373,-0.00481377882107,0.031855829905,-0.0103165456162,0.574051037631,0.818805386745,0.00197274771887,0.0,0.818760418781,-0.573990271099,-0.0121364007465,0.0,-0.00880518183602,0.00858228642571,-0.999924403709,0.0,0.658584337421,0.256909262263,0.303262875304,1.0,-0.0112,-0.01472,0.561
0.462655884118,0.529953168534,-0.123961410739,-1.38407240166,0.0779683479083,1.90442486603,0.155660345526,-0.00623670176092,-0.0588005242494,-0.00022148328655,-0.0984594735202,-0.00373611194052,0.0378416879615,-0.0125493530406,0.574050349298,0.818805903442,0.00195853550923,0.0,0.818760629358,-0.573989528948,-0.0121572764888,0.0,-0.00883044089779,0.0085826258232,-0.999924178049,0.0,0.65837439035,0.256645055466,0.303261298701,1.0,-0.01156,-0.0151931428571,0.579
0.462514533075,0.528888095098,-0.123968216286,-1.38573435953,0.0778590672856,1.90505323556,0.155433530844,-0.00980179847611,-0.0689906677126,-0.00413731154028,-0.101580087744,-0.00788094326231,0.0361007640002,-0.0147211861893,0.574045963803,0.818808931138,0.00197803743207,0.0,0.818764024888,-0.573985167254,-0.0121345054294,0.0,-0.008800646714,0.00858547505078,-0.999924416261,0.0,0.658182976682,0.256389721155,0.303275046097,1.0,-0.0119,-0.01564,0.596
0.462389556633,0.527915634636,-0.123963752523,-1.38723849703,0.0777571930852,1.90564343172,0.1552154125,-0.0070465372318,-0.0649994787894,0.000135084829463,-0.102734130601,-0.00278771510303,0.0374078208127,-0.0180094920124,0.574020701951,0.818826534501,0.00202164036923,0.0,0.818782306933,-0.573959823764,-0.0120996471012,0.0,-0.00874734016791,0.0086008968816,-0.999924751475,0.0,0.658010831029,0.256167863073,0.303294781239,1.0,-0.0122,-0.0160342857143,0.611
0.462245045352,0.526675454794,-0.123966856246,-1.38913010364,0.0776507588226,1.90635229486,0.154956691425,-0.00710034754205,-0.0687831870268,0.000219779199283,-0.106831861624,-0.00977103975075,0.0462373762201,-0.0113368311839,0.574002924986,0.81883886449,0.00207436966756,0.0,0.818795260796,-0.573941756455,-0.0120800660671,0.0,-0.00870122773642,0.00863264351462,-0.999924880229,0.0,0.657785128101,0.255893608834,0.303328820359,1.0,-0.01256,-0.0165074285714,0.629
0.46208736387,0.525494868842,-0.12397255683,-1.39096828805,0.0775271324558,1.90701531393,0.154708688608,-0.0104417823403,-0.0663649052472,-0.000307238181382,-0.110695066851,-0.00826261253566,0.0382817559974,-0.0183752894218,0.573998541834,0.81884194469,0.002071349698,0.0,0.818798389309,-0.573937473906,-0.0120714792922,0.0,-0.00869597579016,0.00862519536966,-0.999924990192,0.0,0.6575655233,0.255608920206,0.303342109128,1.0,-0.0129,-0.0169542857143,0.646
0.461940694115,0.52437872949,-0.123978250686,-1.39272876742,0.0774216697658,1.90765396738,0.154463481894,-0.00602522271231,-0.0741778713268,-0.00107658329628,-0.110117434085,-0.0114023794049,0.035608509908,-0.0199088313502,0.573988037169,0.81884932209,0.00206586589325,0.0,0.818805662848,-0.573926962215,-0.0120778902204,0.0,-0.00870448367105,0.00862427323679,-0.999924924119,0.0,0.657353228435,0.255341154717,0.303344680045,1.0,-0.01322,-0.0173748571429,0.662
0.461791364656,0.523182686461,-0.123973889412,-1.39463631812,0.0772994453509,1.90836262877,0.154214851437,-0.0110147369129,-0.0706920201662,0.00138929636394,-0.108808371506,-0.0103297676068,0.0453773316336,-0.0132299078573,0.573973005116,0.818859874654,0.00205960687244,0.0,0.8188161412,-0.573911966528,-0.0120800863749,0.0,-0.0087100326794,0.00862024879682,-0.999924910501,0.0,0.657121156467,0.255063162965,0.303338878889,1.0,-0.01356,-0.0178217142857,0.679
0.461628984831,0.521869087279,-0.123976848998,-1.39671327694,0.0771754020773,1.90918080354,0.153948025045,-0.00144421296354,-0.0738143049353,0.00136037089888,-0.112581058533,-0.00672022970696,0.0464370027113,-0.010100362093,0.5739676063,0.8188635473,0.0021035024271,0.0,0.818820425828,-0.573906418732,-0.0120532023202,0.0,-0.00866288125083,0.00864070479741,-0.999925143553,0.0,0.656878583532,0.254760895827,0.30334446248,1.0,-0.01392,-0.0182948571429,0.697
0.461478733491,0.520766804799,-0.123979668242,-1.39848658037,0.0770623882482,1.90984431419,0.15369155239,-0.0109130694516,-0.0732498082545,-0.000635909340589,-0.122274218681,-0.00484696317866,0.0411766700234,-0.0212683322189,0.573948843001,0.818876735447,0.00208917744744,0.0,0.818833471793,-0.573887763576,-0.0120551727869,0.0,-0.00867291414447,0.00862990704817,-0.999925149831,0.0,0.656652377916,0.25447100997,0.303331574526,1.0,-0.01424,-0.0187154285714,0.713
0.461297268242,0.519360485077,-0.123983539984,-1.40067114575,0.0769337483258,1.91062321266,0.153400600232,-0.00881961249154,-0.084057055207,-0.000935343051656,-0.122973909881,-0.00438131210493,0.0442132152153,-0.0156016361887,0.57394126865,0.818882029018,0.00209513557135,0.0,0.818838739117,-0.573880061166,-0.0120640631269,0.0,-0.00867685501806,0.00863980820872,-0.99992503014,0.0,0.656397281241,0.254161176749,0.303347699486,1.0,-0.01458,-0.0191622857143,0.73
0.461119085726,0.51802508326,-0.123980502663,-1.40277382619,0.0767878826679,1.91137681592,0.153115879818,-0.00846624418456,-0.0774135402931,0.00214519986892,-0.124306562237,-0.013982284861,0.0439429338116,-0.0175101875951,0.573923771058,0.818894344569,0.00207469263239,0.0,0.81885086152,-0.573862726733,-0.0120658342401,0.0,-0.00869022196423,0.00862389897421,-0.999925051396,0.0,0.656137954746,0.253841597043,0.303349364941,1.0,-0.01492,-0.0196091428571,0.747
0.460945883564,0.516749821682,-0.123991688252,-1.40479619618,0.0766640521092,1.91210910046,0.15282954959,-0.00859767287363,-0.0746958224799,-0.000538228025158,-0.121618272023,-0.0113211470413,0.0500123134627,-0.0208265418335,0.573912585946,0.818902223168,0.00205900097882,0.0,0.818858532985,-0.573851608304,-0.0120740012602,0.0,-0.00870603306946,0.00861561768424,-0.999924985246,0.0,0.655891829131,0.253527866473,0.303345320596,1.0,-0.01524,-0.0200297142857,0.763
0.460752118637,0.515371000997,-0.123997294121,-1.40698873881,0.0765288086631,1.91293900483,0.152538354798,-0.0127619485885,-0.0863902716304,-0.00104261393746,-0.131483446964,-0.0101399386255,0.0498225392,-0.0212029210198,0.573916124103,0.818899719432,0.00206855269411,0.0,0.818856184669,-0.573855135329,-0.0120656283257,0.0,-0.00869365744435,0.00861867174661,-0.999925066601,0.0,0.655631380362,0.25318986968,0.303340814988,1.0,-0.01558,-0.0204765714286,0.78
0.460569425974,0.513987342031,-0.124000250852,-1.40923600003,0.0763951592016,1.9137260206,0.152236617212,-0.012156871399,-0.0829266070056,-0.000571260037699,-0.129950642394,-0.0158386219734,0.0490586444765,-0.0139423407317,0.573895537678,0.818914297565,0.00200797829923,0.0,0.818869793282,-0.573834638748,-0.0121167621138,0.0,-0.00877051109275,0.00859819402491,-0.999924571753,0.0,0.655327423876,0.25283040354,0.303313013277,1.0,-0.01594,-0.0209497142857,0.798
0.460384119856,0.512667621621,-0.123997774793,-1.41137795577,0.0762713379606,1.91447305009,0.151931057621,-0.00831262714134,-0.0826759321134,-0.000185995830692,-0.132653036763,-0.0058533689928,0.0494148554137,-0.00879910634758,0.57388119897,0.818924496845,0.00194546563633,0.0,0.8188790163,-0.573820424147,-0.0121665277303,0.0,-0.00884729002102,0.00857540761084,-0.999924091041,0.0,0.65507231023,0.252525617425,0.303279386116,1.0,-0.01624,-0.021344,0.813
0.460170489964,0.511129355237,-0.124002132455,-1.4138067584,0.0761224730773,1.91539918802,0.151581519454,-0.0116724310491,-0.0853607729305,-0.000253602553513,-0.133899163496,-0.0121412926906,0.0455396948001,-0.0247254235162,0.573860016075,0.818939276006,0.00197257835681,0.0,0.818894172674,-0.573799144895,-0.0121499868206,0.0,-0.00881840741761,0.00858788989719,-0.999924239049,0.0,0.654781890952,0.252153914634,0.303281095824,1.0,-0.0166,-0.0218171428571,0.831
0.459971598327,0.509654553058,-0.124007689862,-1.41616151621,0.0759769444596,1.91628454849,0.151262166597,-0.0129859355821,-0.0861082414697,-0.000234509268517,-0.140624726318,-0.00516706483546,0.0479963263968,-0.0194616604058,0.573848881496,0.81894707712,0.00197306437865,0.0,0.818901994413,-0.573788023472,-0.0121480273354,0.0,-0.00881664051677,0.0085870435808,-0.999924261898,0.0,0.654494689912,0.251796980509,0.3032696244,1.0,-0.01694,-0.022264,0.848
0.459792616617,0.508325316317,-0.124011847049,-1.41824573224,0.0758416226948,1.91702387213,0.150960795912,-0.0118934076385,-0.0888066876086,-0.0006540845914,-0.138123823046,-0.0110383333955,0.0508912981309,-0.025720116424,0.573823036407,0.818965228409,0.00195561921632,0.0,0.818919918359,-0.573762260151,-0.0121566049135,0.0,-0.00883394629895,0.00857740061438,-0.999924191922,0.0,0.654232369712,0.251475969446,0.303271841812,1.0,-0.01724,-0.0226582857143,0.863
0.459561159295,0.506698466851,-0.124011268618,-1.4207968172,0.0756818420863,1.91795256053,0.150610917766,-0.0138693974576,-0.0869675933494,0.000466991530928,-0.144296044027,-0.00784191445024,0.0553275626203,-0.0202383156228,0.573814438226,0.818971247883,0.00195768385931,0.0,0.818925923399,-0.573753613608,-0.0121601709532,0.0,-0.00883577230744,0.00858104493817,-0.999924144521,0.0,0.653916528702,0.251080863622,0.303275806204,1.0,-0.0176,-0.0231314285714,0.881
0.459328924234,0.504982252732,-0.124018271358,-1.42341437657,0.0755189529139,1.91896157462,0.150268084044,-0.0126385121441,-0.0964292862016,-0.00113154988819,-0.149588265271,-0.0126771645017,0.0609462213848,-0.0191017144512,0.573820102263,0.818967066194,0.00204490347254,0.0,0.818922970181,-0.573758978469,-0.0121058018005,0.0,-0.00874113955104,0.00862133684007,-0.999924629675,0.0,0.653604105864,0.250679072394,0.303317102441,1.0,-0.01796,-0.0236045714286,0.899
0.459123056773,0.503500243085,-0.124020193294,-1.42558998048,0.0753725084694,1.91979054828,0.149947931843,-0.0150068234036,-0.0975590066118,-0.000137279695007,-0.14572472712,-0.0126004724056,0.0614976511637,-0.0181554127406,0.573799998077,0.818980873444,0.00215361099303,0.0,0.818938347482,-0.573738560934,-0.0120330221592,0.0,-0.00861937127575,0.00866838961292,-0.999925279939,0.0,0.653345991532,0.250337415353,0.303388636847,1.0,-0.01826,-0.0239988571429,0.914
0.458874588164,0.50171024403,-0.124029855288,-1.42826347604,0.0751997992147,1.92076457659,0.149570541087,-0.0141698811821,-0.0938685881483,3.05032196513e-05,-0.149954004276,-0.0127029293762,0.0568732826389,-0.0201874482465,0.57379127983,0.818986787799,0.00222609581059,0.0,0.818945280157,-0.573729615406,-0.0119876359402,0.0,-0.00854070279366,0.00870161915864,-0.999925666347,0.0,0.653018026322,0.249914134903,0.303450507067,1.0,-0.01862,-0.024472,0.932
0.458629428163,0.499979504687,-0.124024754307,-1.43086979429,0.0750387684082,1.92167703226,0.149209446888,-0.0145831956569,-0.0985175620923,0.00157014323464,-0.149841008766,-0.00574206558228,0.0557488074607,-0.0193126993898,0.573781702752,0.818993399706,0.00226179720989,0.0,0.818952232231,-0.573719764697,-0.0119841487891,0.0,-0.00851746498395,0.00872875722778,-0.999925628028,0.0,0.652686357198,0.2495067152,0.303496506828,1.0,-0.01896,-0.0249188571429,0.949
0.458403603849,0.498506275945,-0.124027184231,-1.43318632349,0.0748939113888,1.92255665853,0.148865520443,-0.0134804807453,-0.0917930103858,0.00158822960331,-0.152229889213,-0.00689677138408,0.0614237867296,-0.0221152705653,0.573764192024,0.819005571074,0.00229638892437,0.0,0.818964901719,-0.573702163643,-0.0119609399321,0.0,-0.00847879638826,0.00874358930691,-0.999925827078,0.0,0.652387886828,0.249118549922,0.303500315339,1.0,-0.01928,-0.0253394285714,0.965
0.458128124177,0.496731000833,-0.124026459816,-1.43600799842,0.0747225429266,1.92356043321,0.148449218581,-0.017817581789,-0.0965248937049,0.0016225806056,-0.157070850865,-0.0142207530283,0.0596431730836,-0.0175128996326,0.573746200696,0.819018288324,0.00225554404492,0.0,0.818976911063,-0.573684161594,-0.0120020324694,0.0,-0.00853607854111,0.00873352717209,-0.999925427653,0.0,0.652048670377,0.248688908529,0.303479244094,1.0,-0.01962,-0.0257862857143,0.982
0.457863525411,0.495052178441,-0.124038630546,-1.43873226872,0.0745587906645,1.92450341204,0.148059479553,-0.015202556296,-0.0971904167984,-0.00229820393311,-0.160370826259,-0.00756151051929,0.057862953083,-0.022027714435,0.573745481811,0.819019025803,0.0021689573812,0.0,0.818976360532,-0.573683644906,-0.0120641351678,0.0,-0.00863662713802,0.00869823533467,-0.999924871865,0.0,0.65169842593,0.248246072435,0.303434419945,1.0,-0.01996,-0.0262331428571,0.999
0.457597400268,0.493355438764,-0.124067684011,-1.44144269476,0.0743811667464,1.92549123452,0.147683035469,-0.0184682544305,-0.113636721392,-0.00514966531223,-0.18051531259,-0.00715595838834,0.0671223457397,-0.0245656121154,0.573764116632,0.819006063442,0.00213387278815,0.0,0.818963080129,-0.573702567327,-0.0120658414255,0.0,-0.00865795568361,0.00867067681553,-0.999924926765,0.0,0.65136459763,0.247795114657,0.303412353076,1.0,-0.024212,-0.0318214857143,1.015
0.457294243829,0.491128669176,-0.124103919602,-1.44493569763,0.0741804155101,1.92679982424,0.147167603797,-0.021367041583,-0.141250068716,0.000318329068314,-0.223917983122,-0.0125219337906,0.0807989030727,-0.0397069499357,0.573737425892,0.819024669476,0.0021688293469,0.0,0.818982127566,-0.573675716509,-0.0120496438674,0.0,-0.00862491691261,0.00868973143251,-0.999925046879,0.0,0.650929057127,0.247248085201,0.303413866596,1.0,-0.0293508571429,-0.0385754122449,1.032
0.45688447279,0.488515596862,-0.124114706886,-1.44916781588,0.0739424263985,1.92830350512,0.146556155221,-0.0278188118605,-0.165305342365,-0.000243662012887,-0.265084964658,-0.014120330203,0.0970551448993,-0.0372737277973,0.573726659167,0.819032437829,0.00208164518748,0.0,0.818988372151,-0.573664942002,-0.0121378540208,0.0,-0.00874729771548,0.00866882054193,-0.999924165291,0.0,0.650382666182,0.246571713199,0.3033472777,1.0,-0.0344897142857,-0.0453293387755,1.049
0.456425506429,0.485566551605,-0.124153249131,-1.45372337528,0.0736626891318,1.93004980703,0.145879114827,-0.0299358146973,-0.192616494988,0.00148112818447,-0.291666991464,-0.0169002762817,0.113642331618,-0.0471943134941,0.573726107118,0.819032539067,0.00219108715022,0.0,0.818990076537,-0.573664091868,-0.0120627996872,0.0,-0.00862304345617,0.00871538953661,-0.999924839729,0.0,0.649831888199,0.245823050554,0.303379992292,1.0,-0.0393262857143,-0.0516859755102,1.065
0.455871453839,0.482049504351,-0.124217572318,-1.4592054993,0.0733260799665,1.93196114622,0.145047809865,-0.0362088925299,-0.21657703133,-0.000662452382165,-0.337098553102,-0.0233648476988,0.113757255428,-0.0566773771661,0.573723151686,0.819034746969,0.00213901331884,0.0,0.818991552681,-0.573661307102,-0.0120949689202,0.0,-0.00867929773616,0.0086911648595,-0.999924563877,0.0,0.649129683169,0.244898154454,0.303378743668,1.0,-0.0444651428571,-0.0584399020408,1.082
0.455231917824,0.478074969368,-0.124297663011,-1.4654032799,0.0729600921021,1.93417208369,0.144123170335,-0.0351297803658,-0.243621491533,-0.00735809167457,-0.370506498278,-0.0181364663613,0.136531927223,-0.0626796908458,0.573750585326,0.819015563634,0.00212585600722,0.0,0.818972111572,-0.573688708114,-0.0121117113259,0.0,-0.00870026799886,0.0086902855606,-0.999924389278,0.0,0.648343481718,0.243845973086,0.303377333357,1.0,-0.049604,-0.0651938285714,1.099
0.45454915927,0.473913182136,-0.124337198094,-1.47175639295,0.0725762874749,1.9365076195,0.143214121168,-0.044242493463,-0.269020309892,-0.00322050671353,-0.410048185666,-0.0295026098344,0.149003217435,-0.059002181212,0.573796826223,0.818982838197,0.0022494123557,0.0,0.818940938069,-0.573734353625,-0.0120572934679,0.0,-0.00858431655612,0.00876074126084,-0.999924776632,0.0,0.647544304008,0.242780010136,0.303437096527,1.0,-0.0544405714286,-0.0715504653061,1.115
0.453691492688,0.468815663991,-0.124387477484,-1.47950452201,0.0721013662661,1.93931466235,0.142014769358,-0.050271596432,-0.296365977192,-0.0054805100671,-0.443016466475,-0.0300179190248,0.166713246481,-0.0723915362428,0.573794687722,0.818983956373,0.00238378838853,0.0,0.818943721706,-0.573731568858,-0.0120006031348,0.0,-0.00846080967905,0.00883824102641,-0.999925147296,0.0,0.646559070499,0.24146047163,0.303515966986,1.0,-0.0598817142857,-0.0787016816326,1.133
0.452816861973,0.463576026774,-0.124417076289,-1.48751352575,0.0715855518591,1.94218535693,0.140735843069,-0.0570438974535,-0.317639041026,-0.00299874260897,-0.487163860402,-0.0245682801685,0.17113701388,-0.0782211722059,0.573722109039,0.819034562155,0.00246464953136,0.0,0.818995322434,-0.573658611246,-0.0119668907961,0.0,-0.0083875912233,0.00888437731559,-0.999925355291,0.0,0.645515904945,0.240112773196,0.303567419518,1.0,-0.0650205714286,-0.0854556081633,1.15
0.451900547496,0.458281875786,-0.124455552078,-1.49568693306,0.071044668074,1.94497443937,0.139539266461,-0.0577763322918,-0.337506508367,-0.00214752603296,-0.519912461306,-0.0351868947528,0.1792356485,-0.0827796034775,0.573752374656,0.819013615594,0.00237843424407,0.0,0.818973071225,-0.573689032882,-0.0120311703467,0.0,-0.00848937413099,0.00885095656223,-0.999924792719,0.0,0.644418195753,0.238707103642,0.303564971529,1.0,-0.0698571428571,-0.091812244898,1.166
0.450865068956,0.452311797668,-0.124520505821,-1.50483804311,0.0704256726787,1.94823504873,0.138068873214,-0.0585556959108,-0.368609808568,-0.00347868761532,-0.549898881386,-0.0366726550424,0.19991278025,-0.0903527738737,0.573693997075,0.819054386328,0.00242009470443,0.0,0.819014608913,-0.573630727221,-0.0119835752584,0.0,-0.0084271214422,0.00885716863504,-0.999925264301,0.0,0.643211621725,0.237123911987,0.303596068786,1.0,-0.074996,-0.0985661714286,1.183
0.449719885762,0.445881111278,-0.124554384518,-1.51441598135,0.069784439743,1.95180375954,0.136597205756,-0.0694142841513,-0.377509742534,-0.00474734618637,-0.578515784387,-0.0390949449322,0.199544518875,-0.0832522021997,0.573709123678,0.819042720917,0.00275855456406,0.0,0.819007715466,-0.573644956284,-0.0117717050059,0.0,-0.00805925355117,0.00901298556254,-0.99992690459,0.0,0.641975656777,0.235463603053,0.303756073602,1.0,-0.0801348571429,-0.105320097959,1.2
0.448576612074,0.439612416653,-0.124582612317,-1.52419025196,0.0691126353754,1.95507861235,0.135065559674,-0.0730565215707,-0.395582493294,-0.00446680042638,-0.622280477983,-0.0403795170823,0.200618619368,-0.106438932306,0.57366036633,0.819077551767,0.00254856714819,0.0,0.819039503461,-0.57359665071,-0.0119130586144,0.0,-0.00829602902793,0.00892159850889,-0.999925787737,0.0,0.640609440999,0.233762680263,0.3036775851,1.0,-0.0849714285714,-0.111676734694,1.216
0.447170971252,0.432027545121,-0.124609594338,-1.53556921882,0.0683504825924,1.9591504288,0.133206822555,-0.077922997989,-0.437816509156,-0.00219130269633,-0.62985391321,-0.0407963487966,0.242657314912,-0.103075012775,0.57359647152,0.81912155913,0.0027759916281,0.0,0.819086467324,-0.573531905367,-0.011800825105,0.0,-0.00807434594743,0.00904286292035,-0.999926513084,0.0,0.639072348421,0.231765563188,0.303791034818,1.0,-0.0904125714286,-0.11882795102,1.234
0.445720315483,0.424638906614,-0.124661733672,-1.54692375819,0.0675238715082,1.96306347326,0.131345968625,-0.085228127723,-0.447815528404,-0.0053231265458,-0.670612047125,-0.0512266876017,0.229662743619,-0.120528301663,0.573554478068,0.819151260541,0.00268699510297,0.0,0.819115253469,-0.573490512749,-0.011814407384,0.0,-0.00813697716383,0.00897733777724,-0.99992659581,0.0,0.637500203396,0.22971014525,0.303756570969,1.0,-0.0955514285714,-0.125581877551,1.251
0.444235872876,0.417313370326,-0.124779650983,-1.55809633014,0.0667203977689,1.96683494803,0.129543468454,-0.0925903612373,-0.475949357279,-0.00777060431279,-0.696035233982,-0.0485107773773,0.248704554997,-0.110695726039,0.573625747169,0.819101700914,0.00257927234846,0.0,0.819064550137,-0.573562455953,-0.0118371758372,0.0,-0.00821663527518,0.00890287078758,-0.999926610205,0.0,0.63594283328,0.227614355421,0.303741991308,1.0,-0.100388,-0.131938514286,1.267
0.442558183778,0.409182680098,-0.124845455062,-1.57035370825,0.0658959689698,1.97114758612,0.127479874209,-0.107556339855,-0.488580918756,-0.000764244103319,-0.734015110656,-0.0436549511089,0.24188945108,-0.118523963263,0.573634458947,0.819095112084,0.00272979303753,0.0,0.81905978672,-0.573570465386,-0.0117785362644,0.0,-0.00808216842548,0.00899261111593,-0.999926903078,0.0,0.634240651075,0.225348475521,0.303787410347,1.0,-0.105526857143,-0.138692440816,1.284
0.440734485937,0.400741240277,-0.124940530982,-1.58319688922,0.065015289254,1.97537607085,0.12534584783,-0.111591458587,-0.512807742208,-0.00662261507893,-0.764232529365,-0.0524138655073,0.259858420972,-0.125477513565,0.57372091493,0.819035047858,0.00257857574806,0.0,0.818997234248,-0.573656906612,-0.0119176630114,0.0,-0.00828192536052,0.00894943123697,-0.999925655933,0.0,0.632388218536,0.222903066622,0.303741135271,1.0,-0.110665714286,-0.145446367347,1.301
0.438928417811,0.392428102885,-0.125036183701,-1.59551187008,0.064080754469,1.97972757594,0.123223771323,-0.112862089634,-0.514898016394,-0.00756441964359,-0.805734999201,-0.0607289342845,0.270098263401,-0.132713302155,0.573752048134,0.819012474235,0.00281090916077,0.0,0.818978526419,-0.573688114335,-0.0116990442517,0.0,-0.00796923143519,0.00901459840199,-0.999927611563,0.0,0.630667044935,0.220534217591,0.303851562706,1.0,-0.115502285714,-0.151803004082,1.317
0.436893104245,0.383388951711,-0.125079270397,-1.60920318324,0.0630616103909,1.98416447954,0.120795149615,-0.121681793133,-0.535594793255,-0.00243250902065,-0.777516834653,-0.0631167204416,0.263988671957,-0.152564337028,0.573694702784,0.819053327113,0.00260427432472,0.0,0.819016338881,-0.573631131782,-0.0118451761707,0.0,-0.00820809615576,0.00892862994932,-0.999926450658,0.0,0.628626332129,0.217906253465,0.303783260275,1.0,-0.120641142857,-0.158556930612,1.334
0.43462394702,0.373407306829,-0.125150793872,-1.62400099861,0.0619747590419,1.98921164525,0.118139453872,-0.1281306486,-0.555205891944,-0.00242454577811,-0.813250732588,-0.0566631770556,0.289500740601,-0.159763178079,0.573672377424,0.819068417726,0.00277080581215,0.0,0.819033678961,-0.573608291218,-0.0117519306449,0.0,-0.00803643277754,0.0090113147661,-0.99992710332,0.0,0.626457940518,0.215039221536,0.303848869234,1.0,-0.126082285714,-0.165708146939,1.352
0.432568039198,0.364837711238,-0.125241589304,-1.63675502498,0.060979102739,1.99336110003,0.115948491519,-0.13534203835,-0.5836843185,-0.00144411245809,-0.843938916349,-0.0623240561665,0.287835008526,-0.153605782167,0.5737977955,0.818980734983,0.00271891669481,0.0,0.818945587872,-0.573734175521,-0.0117459289147,0.0,-0.00805990924567,0.00896660558332,-0.999927316282,0.0,0.624422135596,0.212305296798,0.303864557166,1.0,-0.130918857143,-0.172064783673,1.368
0.430000459635,0.354283613772,-0.125356447525,-1.6524366142,0.0597714109204,1.99847789981,0.113002659292,-0.146338504231,-0.600877763632,-0.00219011948496,-0.879147938045,-0.0564646928628,0.284249011388,-0.165160947826,0.573778740599,0.818994348849,0.00263823622033,0.0,0.818958138634,-0.573715399648,-0.0117878867459,0.0,-0.00814077261733,0.00892441565831,-0.999927038651,0.0,0.622163300108,0.209318078811,0.303831089961,1.0,-0.136057714286,-0.178818710204,1.385
0.427391552652,0.343908056592,-0.125459914818,-1.66762686799,0.0586401901522,2.0034034174,0.110170107535,-0.154851754653,-0.622161121076,-0.00828443075918,-0.903353924629,-0.0618272333056,0.300777286889,-0.163341227867,0.573860661956,0.818936677004,0.00272151051867,0.0,0.818901211565,-0.573796633015,-0.0117888311646,0.0,-0.00809286846019,0.00899396787859,-0.999926804332,0.0,0.619832081744,0.206208114376,0.303885151314,1.0,-0.141196571429,-0.185572636735,1.402
0.424858443797,0.3340128417,-0.125504760473,-1.68226255551,0.0574660652225,2.00809794717,0.107379922318,-0.153207116586,-0.620259318877,-0.00203586246372,-0.938638028367,-0.0693640606801,0.296330395081,-0.174640800026,0.573816044087,0.818968201456,0.00264186532121,0.0,0.818931624887,-0.573752231745,-0.0118371123397,0.0,-0.00817859994265,0.00895600446725,-0.999926447538,0.0,0.617528732162,0.203230780477,0.303839610208,1.0,-0.146033142857,-0.191929273469,1.418
0.422052747134,0.323094161331,-0.125510484331,-1.69804261438,0.0561470944143,2.01313266927,0.104277602158,-0.171166541097,-0.64589821004,-0.0012363467942,-0.941542928816,-0.0758591749418,0.295104359962,-0.182397340131,0.573679134689,0.819063811632,0.00273309333441,0.0,0.819028661489,-0.573615270735,-0.0117609413073,0.0,-0.00806537262596,0.00898566140952,-0.99992710117,0.0,0.615010703541,0.200011146249,0.303919634754,1.0,-0.151172,-0.1986832,1.435
0.419062693481,0.312000529589,-0.125551129229,-1.71418067658,0.0548698704795,2.01816064843,0.101048756737,-0.18231680444,-0.656455102406,-0.00615839762677,-0.951153754463,-0.0749835562596,0.297736804843,-0.205920082717,0.573616122094,0.819107948192,0.00273140678035,0.0,0.819072206993,-0.573551639421,-0.011831464376,0.0,-0.00812480009994,0.00902411183596,-0.999926273797,0.0,0.612238436056,0.196442722634,0.303923305571,1.0,-0.156613142857,-0.205834416327,1.453
0.416112181791,0.301263579288,-0.125620134087,-1.72960689585,0.0535356246445,2.02300912729,0.0978565276559,-0.190386560125,-0.666338530253,-0.00466386981382,-0.968751978813,-0.079951834387,0.295925643827,-0.201429299565,0.573518188558,0.819176380563,0.00277341349188,0.0,0.819141653738,-0.5734540885,-0.0117518677227,0.0,-0.00803658188904,0.00901190190979,-0.99992709683,0.0,0.609876890962,0.193363130858,0.303965718522,1.0,-0.161147428571,-0.211793763265,1.468
0.412756466562,0.289534364292,-0.125710692807,-1.74633069779,0.0522041769042,2.02812764918,0.0944421293129,-0.193744276912,-0.693917262145,-0.0088054854718,-0.979081943941,-0.0826100000843,0.308280848595,-0.216786460763,0.573616403269,0.819107186398,0.00289585787352,0.0,0.819073518553,-0.573551252578,-0.0117591995324,0.0,-0.00797127540436,0.00911736577631,-0.999926663516,0.0,0.606946368842,0.189509683749,0.304041302501,1.0,-0.166588571429,-0.218944979592,1.486
0.409041967862,0.277019068385,-0.125843162423,-1.76443485845,0.0506360151843,2.03347199213,0.0905825992026,-0.211020380146,-0.696337014052,-0.00360148439602,-1.00676026834,-0.0878057164249,0.28426397874,-0.214673202027,0.573579864014,0.819133700081,0.00262066592082,0.0,0.819096066084,-0.573515311073,-0.0119402425194,0.0,-0.00827782237775,0.00899543301682,-0.999925277129,0.0,0.604026536593,0.185729682218,0.303933817851,1.0,-0.171727428571,-0.225698906122,1.503
0.405500961764,0.265490564788,-0.125989864241,-1.78060437828,0.0491874212581,2.03842533272,0.0870385444898,-0.229038865642,-0.710013349056,-0.00835254481565,-1.02142213938,-0.0845716946528,0.299580415288,-0.217162412871,0.573644204508,0.819088036732,0.00280385776442,0.0,0.819053541609,-0.573579795072,-0.0117584677585,0.0,-0.00802313857966,0.00904186059953,-0.999926934333,0.0,0.601317017227,0.182037576913,0.304044919954,1.0,-0.176564,-0.232055542857,1.519
0.401509276085,0.25309178177,-0.126190825842,-1.79806816551,0.0476552596108,2.04357658485,0.0831831661173,-0.238012573305,-0.738507689577,-0.0146409964109,-1.01898622301,-0.0937120054855,0.302506873991,-0.228719035318,0.573847255706,0.818945718647,0.00282558484828,0.0,0.818911570533,-0.573782815646,-0.0117416786807,0.0,-0.00799467937757,0.00905200849331,-0.999927070463,0.0,0.59832688445,0.177948952245,0.304075395603,1.0,-0.181702857143,-0.238809469388,1.536
0.397407693731,0.240534149974,-0.126288306131,-1.81591143181,0.0460541540031,2.0486899861,0.0790759411122,-0.24596017856,-0.753129264239,-0.00699824371237,-1.05581336907,-0.0905556753539,0.29103788401,-0.246676477047,0.573809009206,0.818973120652,0.0026449014911,0.0,0.818936128154,-0.573744687946,-0.0118910874016,0.0,-0.008221141059,0.0089893915404,-0.999925799087,0.0,0.595162106008,0.173841632132,0.303980258532,1.0,-0.186841714286,-0.245563395918,1.553
0.393410975653,0.228375303864,-0.126355306346,-1.83265404153,0.0445585707295,2.05363037078,0.0751423466058,-0.251023511578,-0.742890644576,-0.00239459895554,-1.06950237031,-0.0979560501139,0.300176072963,-0.253933616195,0.573786520115,0.818987953265,0.00291695750739,0.0,0.818954504889,-0.573721209728,-0.0117575222887,0.0,-0.00795590190057,0.00913533917403,-0.999926621909,0.0,0.592195876883,0.169959671065,0.304094054017,1.0,-0.191678285714,-0.251920032653,1.569
0.388923709448,0.21525722211,-0.126449282213,-1.85075559543,0.04279605572,2.05874956698,0.0707486983399,-0.269826160006,-0.773731499791,-0.00868277867509,-1.06705786647,-0.100190014849,0.31114192009,-0.254981322915,0.573714305841,0.81903845114,0.0029424019167,0.0,0.819005842478,-0.57364950364,-0.0116800625514,0.0,-0.00787866463098,0.00911103875526,-0.999927455177,0.0,0.588916954114,0.165657775712,0.304135100656,1.0,-0.196817142857,-0.258673959184,1.586
0.384209407552,0.202020397541,-0.12658524482,-1.86915084128,0.0410860397311,2.06370231022,0.0662163110534,-0.28162329366,-0.782683479269,-0.00802198230822,-1.07628768151,-0.104693048165,0.285135878395,-0.274529439277,0.57374410843,0.819018232571,0.0027531183405,0.0,0.818982340176,-0.573679045758,-0.0118754300174,0.0,-0.00814694425533,0.00906838790339,-0.999925693059,0.0,0.585492912515,0.161212889948,0.304050110654,1.0,-0.201956,-0.265427885714,1.603
0.379230726294,0.188437938912,-0.126756663796,-1.88757817974,0.0393015329923,2.06880739257,0.0614558125971,-0.295716381358,-0.785933102991,-0.0131850863994,-1.09652058252,-0.10327124,0.294476544263,-0.284935861314,0.573772956548,0.818997479885,0.00291018528081,0.0,0.818963949028,-0.573707678186,-0.011759978063,0.0,-0.0079619500488,0.00913107001354,-0.999926612763,0.0,0.582080955509,0.156636907242,0.30412195814,1.0,-0.207094857143,-0.272181812245,1.62
0.373962909666,0.174590048143,-0.126937266469,-1.90617362269,0.0375541681021,2.07373737315,0.0565481087392,-0.313765470895,-0.856806371905,-0.00219255468598,-1.09612828869,-0.108632337322,0.291910909544,-0.291324277842,0.573917439395,0.818895702085,0.00305757527791,0.0,0.818863499488,-0.573850943169,-0.0117648260124,0.0,-0.00787972470942,0.00925595381778,-0.999926115899,0.0,0.578348058893,0.15164405304,0.304204940997,1.0,-0.212536,-0.279333028571,1.638
0.368573021357,0.160620319067,-0.12704261271,-1.92501071591,0.0356019092114,2.07852130959,0.0514100264793,-0.320005410288,-0.869779109878,-0.00752960901274,-1.09404545974,-0.0983019211699,0.290803593969,-0.307509513819,0.5737893641,0.818985929083,0.00292583502571,0.0,0.818951962177,-0.573723294213,-0.0118326761992,0.0,-0.00801232986346,0.00918575894158,-0.999925709442,0.0,0.574881272945,0.147175848593,0.304182727209,1.0,-0.217372571429,-0.285689665306,1.654
0.363301905738,0.147295091169,-0.127129993754,-1.9428520677,0.0337530809743,2.08308412254,0.0464669753385,-0.330082990946,-0.826202799472,-0.0100811892024,-1.1187473795,-0.116455747948,0.271588653276,-0.312449626456,0.573706414221,0.819044093652,0.00291029823079,0.0,0.819009896185,-0.573640379454,-0.0118427999782,0.0,-0.00803046540433,0.0091780300672,-0.99992563493,0.0,0.571359017281,0.142647213968,0.304166355978,1.0,-0.222209142857,-0.292046302041,1.67
0.357389049874,0.132795711611,-0.127254513477,-1.96181424292,0.0318348032082,2.08784429387,0.0409590605244,-0.354862158903,-0.870212156427,-0.00636906589977,-1.12453248521,-0.119791108203,0.276017975858,-0.334886364813,0.573674493904,0.819065588691,0.00314378235836,0.0,0.819034204139,-0.573607373859,-0.0117601022722,0.0,-0.00782914908349,0.0093215154692,-0.999925904142,0.0,0.567580230754,0.137702614471,0.304281056368,1.0,-0.227348,-0.298800228571,1.687
0.351111711986,0.118195317886,-0.127483636577,-1.98088438957,0.0297222002405,2.09247031434,0.0352804168744,-0.376888593125,-0.858900578145,-0.0118184402257,-1.11641447553,-0.13107032917,0.285536591706,-0.347355907509,0.573772849789,0.818996579713,0.00317272190917,0.0,0.818966265473,-0.573706449528,-0.0116581597064,0.0,-0.00772793069008,0.00928766654776,-0.999927006505,0.0,0.563733848268,0.132516230604,0.304331802857,1.0,-0.232486857143,-0.305554155102,1.704
0.344955414513,0.104304039337,-0.127626207202,-1.99905804111,0.0277439626077,2.09669391091,0.0296524974295,-0.374166330939,-0.86974310419,-0.00917399454448,-1.14002690253,-0.11759823801,0.251889167537,-0.34831628675,0.573751162865,0.819012105119,0.00308572189741,0.0,0.818980330239,-0.57368466446,-0.0117418629941,0.0,-0.00784664766974,0.00926423145078,-0.999926299352,0.0,0.559966899915,0.127578900699,0.304292365501,1.0,-0.237323428571,-0.311910791837,1.72
0.337863641512,0.0884544472647,-0.127751785481,-2.01945983091,0.0255285688985,2.1014016143,0.023112536285,-0.402942601086,-0.882848490084,-0.0150098575022,-1.14919153407,-0.109875798766,0.251184761336,-0.365539373306,0.573628010011,0.81909795652,0.00319228098999,0.0,0.819067257775,-0.573560796735,-0.0117297310486,0.0,-0.00777698123537,0.00934337500478,-0.999926107223,0.0,0.55567034242,0.122033523148,0.304321479781,1.0,-0.242764571429,-0.319062008163,1.738
0.330368761622,0.0722805483503,-0.12792150647,-2.03997013329,0.0231742980189,2.10593564156,0.0162546050651,-0.423035892433,-0.891517098079,-0.00673087719455,-1.15369729249,-0.129563506778,0.26508301377,-0.375519987273,0.573510727973,0.81917969544,0.00328913055017,0.0,0.819150562681,-0.573443583714,-0.0116429746427,0.0,-0.00765170493083,0.00937184444103,-0.999926807293,0.0,0.551276723145,0.116295377431,0.304392664711,1.0,-0.248205714286,-0.32621322449,1.756
0.32372972109,0.0587032411406,-0.128178936004,-2.05715086862,0.0212010234207,2.10949215515,0.0103548813914,-0.455383210111,-0.923761674454,-0.0155270966567,-1.12599068069,-0.137650839873,0.248143286404,-0.400162659413,0.573639848056,0.819089349581,0.00327246485885,0.0,0.819059867376,-0.573572577752,-0.0116695589754,0.0,-0.00768156326029,0.00937464916187,-0.999926552072,0.0,0.547294334211,0.110955089522,0.30441737208,1.0,-0.24998,-0.328545142857,1.772
0.31604681781,0.0434895536658,-0.128341972995,-2.07641524198,0.018990641371,2.11339620902,0.00360324282376,-0.45072937448,-0.902264066368,-0.00597401571899,-1.14144159727,-0.131468758911,0.212815107775,-0.396840183347,0.573734437152,0.81902372275,0.00311192864611,0.0,0.818990938301,-0.5736662554,-0.0119003066574,0.0,-0.00796157829201,0.00937643762933,-0.999924344982,0.0,0.54323817144,0.105692612074,0.30430252674,1.0,-0.24998,-0.328545142857,1.788
0.308200090848,0.028203569266,-0.128513476384,-2.09516978672,0.0167251942516,2.11709414106,-0.00336103092284,-0.469212070641,-0.886033438953,-0.00929713672619,-1.09719452046,-0.14420822603,0.214803882429,-0.409219102795,0.573729480703,0.81902664029,0.00325459197247,0.0,0.81899600079,-0.573661134286,-0.0117983304593,0.0,-0.00779626413683,0.00943472946503,-0.999925099268,0.0,0.539011993096,0.100111129782,0.304401950777,1.0,-0.24998,-0.328545142857,1.805
0.300591328209,0.0139230970818,-0.128700831248,-2.11252277161,0.0145848243873,2.1203668169,-0.0100742347102,-0.482802688088,-0.899029078431,-0.0165428641211,-1.07545706553,-0.140286429215,0.210489229508,-0.420405708737,0.573760985974,0.819004079943,0.00337563495591,0.0,0.818975303142,-0.573692579386,-0.0117057294709,0.0,-0.00765061076839,0.00948103508337,-0.99992578631,0.0,0.535037381404,0.094814997086,0.304491239833,1.0,-0.24998,-0.328545142857,1.821
0.292273668536,-0.000994125645552,-0.128885823425,-2.13076381142,0.0123809486991,2.12353428324,-0.0173412592192,-0.49222330002,-0.893239699312,-0.00282879211914,-1.04219105118,-0.127234703144,0.187102371933,-0.431221040527,0.573859460614,0.818935474568,0.0032794600662,0.0,0.818904311256,-0.57378998238,-0.0118967234151,0.0,-0.00786107885228,0.00951279441963,-0.999923852192,0.0,0.530747854721,0.0891686607251,0.304443765448,1.0,-0.24998,-0.328545142857,1.838
0.283934475867,-0.0157985255687,-0.128998787811,-2.14848153434,0.0101106680068,2.12671808068,-0.0247242680343,-0.50140208563,-0.858354849224,-0.0119723562541,-1.04915791447,-0.13578078821,0.171601630017,-0.432884585136,0.573753036178,0.819009525503,0.00340551232993,0.0,0.818980605844,-0.573683871976,-0.0117613429472,0.0,-0.0076791122537,0.0095373384,-0.999925032396,0.0,0.526296776063,0.0833311846268,0.304491029388,1.0,-0.24998,-0.328545142857,1.856
0.275817698836,-0.0297422692938,-0.129152261111,-2.16490306528,0.00797829725918,2.12935723379,-0.0318346598257,-0.513053774547,-0.884779541494,-0.00681336101771,-1.0219094385,-0.129945997458,0.178754049901,-0.441451946476,0.573767864796,0.818998495622,0.00355645868728,0.0,0.818971831035,-0.573698574245,-0.0116547321951,0.0,-0.00750501735122,0.00959993511795,-0.999925755224,0.0,0.522325554679,0.078070774302,0.304602469754,1.0,-0.24998,-0.328545142857,1.872
0.266401721165,-0.0451433270286,-0.129364275939,-2.18329385512,0.00564690829549,2.13208084478,-0.0400165758607,-0.525513579858,-0.869785070814,-0.003792808354,-1.01003193929,-0.115569351041,0.144525012892,-0.465616584062,0.573871614322,0.818926518425,0.00338741747181,0.0,0.818896108323,-0.573800946366,-0.0119325028597,0.0,-0.00782829039078,0.00962185291442,-0.999923065949,0.0,0.518003220231,0.0724182486847,0.304492154458,1.0,-0.24998,-0.328545142857,1.889
0.257436617659,-0.0596395872939,-0.129494544503,-2.20002485569,0.00338149477962,2.13463668286,-0.0478569872101,-0.53769040954,-0.822556752351,-0.00865609694485,-0.996891020907,-0.125672753628,0.129345071714,-0.462609434615,0.573828771083,0.818955668977,0.00359174456905,0.0,0.818928817386,-0.573758531533,-0.0117254615714,0.0,-0.00754198434222,0.00966997651318,-0.999924802186,0.0,0.513825263402,0.0668863237141,0.304589197217,1.0,-0.24998,-0.328545142857,1.906
0.248766679666,-0.073179871455,-0.129669508047,-2.21563619363,0.00124470878572,2.13671279241,-0.0554574695447,-0.544225195516,-0.885403715125,-0.0113382487115,-0.96139646535,-0.13749277225,0.135796119251,-0.480215031649,0.573810348752,0.818968616449,0.00358271383985,0.0,0.818941543455,-0.573740008346,-0.0117430033119,0.0,-0.00756175049407,0.00967247625271,-0.999924628726,0.0,0.509818312682,0.0616180445257,0.304600487292,1.0,-0.24998,-0.328545142857,1.922
0.239301886806,-0.0874075345062,-0.129847691787,-2.23204079804,-0.000953703042852,2.13872842838,-0.0637141225012,-0.550623657195,-0.829228621275,-0.00180359264602,-0.974422215292,-0.134601173563,0.114656858331,-0.494607492269,0.573847615556,0.818942846013,0.00350371021302,0.0,0.818913683284,-0.573776198438,-0.0119163894851,0.0,-0.00774864557809,0.00970761482941,-0.999922857378,0.0,0.505520576441,0.0560031198872,0.304535589923,1.0,-0.24998,-0.328545142857,1.939
0.229774620273,-0.101601678575,-0.129981816247,-2.24791843907,-0.00317881742223,2.14059632716,-0.0721007184581,-0.568855798873,-0.813414771957,-0.00586031361067,-0.931559387142,-0.137728821574,0.103339034976,-0.491926293029,0.57375649592,0.819006094396,0.00363972986667,0.0,0.818979047821,-0.573685054752,-0.0118120314053,0.0,-0.0075862131384,0.00975828012646,-0.999923609752,0.0,0.501302361878,0.0504894347861,0.304616589038,1.0,-0.24998,-0.328545142857,1.956
0.219878753517,-0.11555991534,-0.130210491853,-2.26366906637,-0.00543582176211,2.14216307997,-0.08064535162,-0.590396764678,-0.820045912029,-0.0203089540877,-0.896381595065,-0.127747608021,0.0917482101478,-0.502719049873,0.573873989475,0.818924458616,0.00348169303529,0.0,0.818894516255,-0.573802033701,-0.0119893398467,0.0,-0.00782071167166,0.00973169698818,-0.999922062234,0.0,0.497009176386,0.044837522084,0.30454780809,1.0,-0.24998,-0.328545142857,1.973
0.209859508963,-0.129493965797,-0.130351585907,-2.2789996999,-0.00757266148531,2.14364989268,-0.0894431267176,-0.58739656211,-0.811549508212,-0.00606820848355,-0.899187777123,-0.118236927233,0.0779990542221,-0.511797748396,0.573845150661,0.818944130795,0.00360563468427,0.0,0.818915440004,-0.573772283838,-0.0119839611423,0.0,-0.0077455305191,0.00982983715598,-0.999921687463,0.0,0.492773190472,0.0392948240254,0.304589521173,1.0,-0.24998,-0.328545142857,1.99
0.199625591868,-0.143322651257,-0.130533309678,-2.2940379661,-0.00981132576947,2.14498790623,-0.0984455614221,-0.604248810524,-0.805666506757,-0.00433930357595,-0.866561530347,-0.136815651243,0.0837749489777,-0.526289364284,0.573789534007,0.81898272766,0.00368908666292,0.0,0.81895559292,-0.573716975557,-0.0118876273911,0.0,-0.00761941656069,0.00984238383291,-0.999922532985,0.0,0.488545602687,0.0337193402033,0.304637299449,1.0,-0.24998,-0.328545142857,2.007
0.189705179548,-0.156172666797,-0.130760317508,-2.30797975209,-0.0119079577724,2.14604816517,-0.107074411545,-0.619306904098,-0.799255157357,-0.0118173789787,-0.857122100713,-0.135270041789,0.0570728895631,-0.549833495217,0.573875558396,0.818922518954,0.00367400682468,0.0,0.818895052324,-0.573802865793,-0.0119126566576,0.0,-0.00764753439125,0.00984519805284,-0.999922290627,0.0,0.484540661374,0.0284009640637,0.304625141462,1.0,-0.24998,-0.328545142857,2.023
0.179186349621,-0.169767692373,-0.130878629333,-2.32236941524,-0.0139559258571,2.14694086303,-0.116424181362,-0.622944167919,-0.808460553637,-0.00828076508767,-0.830457598463,-0.115247560247,0.0611929703373,-0.556021776653,0.573764135716,0.818999814073,0.00384291759588,0.0,0.818974026503,-0.573690182124,-0.0119107409299,0.0,-0.00755039588008,0.00998139784522,-0.999921678542,0.0,0.480310701996,0.0229456591699,0.304699521258,1.0,-0.24998,-0.328545142857,2.04
0.168222937188,-0.183121124808,-0.131118724816,-2.33669130034,-0.0162069316153,2.14768142695,-0.12601582515,-0.659056767242,-0.788638713623,-0.0179780283392,-0.837788718167,-0.127230793619,0.0357715527549,-0.565038570424,0.573804079591,0.818972585332,0.00367826325254,0.0,0.818944070527,-0.573729965733,-0.0120533261407,0.0,-0.00776116324787,0.00992873075149,-0.999920589172,0.0,0.47601075219,0.0172977012219,0.304616561537,1.0,-0.24998,-0.328545142857,2.057
0.157125639514,-0.196497852722,-0.131286650644,-2.35044718278,-0.0183599045862,2.14834754692,-0.135817219846,-0.648628879945,-0.769861474332,-0.0015950513372,-0.81879127447,-0.116973933987,0.0327582592289,-0.571555110345,0.573754748102,0.819006178145,0.00388794191468,0.0,0.818981453179,-0.573681273565,-0.0118288888504,0.0,-0.00745763716256,0.00997122543886,-0.999922476151,0.0,0.471826578679,0.0117409039959,0.304737757674,1.0,-0.24998,-0.328545142857,2.074
0.145819802489,-0.209606283091,-0.131522522976,-2.3641992951,-0.0204133101774,2.14867814417,-0.145867846144,-0.678227979513,-0.757322857234,-0.0161254398015,-0.777426611588,-0.11584345746,0.0119826430279,-0.589089406624,0.573750347569,0.819009705371,0.00379316151422,0.0,0.818981818459,-0.573674680004,-0.0121197961151,0.0,-0.00775033914556,0.0100604612432,-0.99991935643,0.0,0.467499256928,0.00617212047799,0.30464914471,1.0,-0.24998,-0.328545142857,2.091
0.134169465252,-0.222645417388,-0.131771733713,-2.37735431476,-0.0225633800228,2.14904063131,-0.156023975861,-0.674261694202,-0.745914873761,-0.00469672269781,-0.768664498432,-0.131342622548,0.0121517356142,-0.597010783637,0.573899839683,0.8189041489,0.00396431921387,0.0,0.818879629922,-0.573825021319,-0.0119056082594,0.0,-0.00747487035582,0.0100791209765,-0.999921265717,0.0,0.463321430896,0.000529935177079,0.304745751308,1.0,-0.24998,-0.328545142857,2.108
0.123226090026,-0.234750069166,-0.131925451985,-2.3897344457,-0.0245255890856,2.14914169595,-0.165903189683,-0.691193144387,-0.756603299213,-0.0117229307595,-0.767067456289,-0.1291545269,0.000636338139572,-0.612456380257,0.573705539063,0.819040569351,0.00390475438218,0.0,0.819014446435,-0.57362985911,-0.0120361193352,0.0,-0.00761833300353,0.0101034331026,-0.999919937616,0.0,0.459271898866,-0.00462782742926,0.304691424058,1.0,-0.24998,-0.328545142857,2.124
0.111080953706,-0.247521238111,-0.132228602699,-2.40226963603,-0.0265456254917,2.1492045806,-0.17660799273,-0.71499592374,-0.749627865685,-0.017448060628,-0.741285425594,-0.116137184976,0.00221675619449,-0.634606598337,0.573888644713,0.818910923576,0.0041796673323,0.0,0.818889221039,-0.573813108278,-0.0118197857572,0.0,-0.00728114395193,0.0102061218544,-0.999921406921,0.0,0.4551070087,-0.0103019363433,0.304815201889,1.0,-0.24998,-0.328545142857,2.141
0.0989645961017,-0.260030954707,-0.132383891429,-2.41483588592,-0.0285641365105,2.14911666424,-0.187539279106,-0.717312318143,-0.744564000069,-0.0115919293081,-0.719106965011,-0.119387234884,-0.0128520549886,-0.63766513938,0.573727954869,0.819023632484,0.00415573524158,0.0,0.819000922281,-0.573651554867,-0.0119218204606,0.0,-0.00738045081309,0.0102436298884,-0.99992029532,0.0,0.450825501165,-0.0157876103012,0.304744793256,1.0,-0.24998,-0.328545142857,2.158
0.0871629423585,-0.271734088999,-0.132671160068,-2.42608618516,-0.0305100696388,2.14895336583,-0.198023380352,-0.742022892546,-0.742567198574,-0.0175715537107,-0.698053586408,-0.126341655086,-0.00839906297838,-0.669879370861,0.573831155798,0.818950285287,0.00435680673963,0.0,0.818931569673,-0.573756036982,-0.0116550898874,0.0,-0.00704533066392,0.0102561777462,-0.99992258407,0.0,0.446910419059,-0.0211096287651,0.304852542921,1.0,-0.24998,-0.328545142857,2.174
0.0745806867133,-0.283906474577,-0.132824192978,-2.43799692172,-0.0324945232493,2.14854589492,-0.209414357776,-0.737241895236,-0.72915199727,-0.0108447247127,-0.694787615835,-0.112841446455,-0.0316879100859,-0.678023019903,0.573673096064,0.819061189375,0.00432363433147,0.0,0.819041516347,-0.573597344135,-0.0117400256688,0.0,-0.00713591160641,0.0102763707442,-0.999921734422,0.0,0.442645564789,-0.0266009440695,0.304805247302,1.0,-0.24998,-0.328545142857,2.191
0.0608215383301,-0.296687565611,-0.13315679208,-2.45012727053,-0.0345223849511,2.14801479594,-0.221762710398,-0.776380252268,-0.723540841397,-0.027048089211,-0.671368053953,-0.11483924573,-0.0245442220092,-0.693435732493,0.573791099708,0.818977502354,0.00451347254807,0.0,0.818960445041,-0.573714952377,-0.0116485955647,0.0,-0.00695062483462,0.0103804158009,-0.999921964846,0.0,0.438185909598,-0.0325642188368,0.304862530692,1.0,-0.24998,-0.328545142857,2.209
0.0484791427217,-0.307830703736,-0.133319064991,-2.46071361354,-0.0363593300697,2.14740006802,-0.232905510573,-0.76598611759,-0.704300279726,-0.0123407508973,-0.663411971365,-0.114381245738,-0.0605674813404,-0.6959445941,0.573723273986,0.81902498663,0.00451918838926,0.0,0.819007991965,-0.573647102706,-0.0116472123667,0.0,-0.00694707237953,0.0103837281388,-0.999921955142,0.0,0.434190762244,-0.037764164816,0.304853972828,1.0,-0.24998,-0.328545142857,2.225
0.0358248249586,-0.318783723748,-0.13359808159,-2.47106794138,-0.038188104221,2.14661041005,-0.24430088232,-0.799964497525,-0.680072547556,-0.0260596840183,-0.638831372795,-0.106254912297,-0.0465554442491,-0.721736223,0.573793224605,0.818976236395,0.0044728648078,0.0,0.81895791332,-0.573716110733,-0.011768916583,0.0,-0.00707244457467,0.0104162131702,-0.999920738374,0.0,0.43015852668,-0.0430533672858,0.304811856323,1.0,-0.24998,-0.328545142857,2.241
0.0214931273334,-0.330960300206,-0.13380399888,-2.48216024315,-0.0401015849981,2.14580892362,-0.257447999071,-0.786168804374,-0.656883007931,-0.0187850890247,-0.625319607492,-0.103767571952,-0.0464613908967,-0.738413681386,0.573666517179,0.819063541714,0.00473165964028,0.0,0.819049749871,-0.573590412079,-0.0115018828245,0.0,-0.0067068674077,0.010473911361,-0.999922654564,0.0,0.425760757785,-0.0488936116298,0.304917824835,1.0,-0.24998,-0.328545142857,2.259
0.00838458280966,-0.341538758689,-0.134084640074,-2.49195460139,-0.0418853530172,2.14478774796,-0.269301185698,-0.837391837777,-0.656036425931,-0.017538402888,-0.602386431742,-0.120141918914,-0.067680388609,-0.746386470073,0.573748219028,0.819006725912,0.00465950360495,0.0,0.818991171119,-0.573671035952,-0.0116512248022,0.0,-0.006869541478,0.0105011639739,-0.999921264378,0.0,0.421714641172,-0.0541827615498,0.304869996646,1.0,-0.24998,-0.328545142857,2.275
-0.00565461814497,-0.352655247921,-0.134271757951,-2.5019040044,-0.0436831172825,2.14367653284,-0.282215196463,-0.824571958296,-0.659061665693,-0.0128451225948,-0.577212612213,-0.100569766187,-0.0479848392449,-0.765380965062,0.573625895425,0.81909183388,0.00475885183422,0.0,0.819078021936,-0.573549136749,-0.0115468011704,0.0,-0.00672858473082,0.0105216176815,-0.999922007813,0.0,0.417499629219,-0.0597104817987,0.304935259437,1.0,-0.24998,-0.328545142857,2.292
-0.0200337656654,-0.363434211809,-0.134602154791,-2.51160798666,-0.0455136828065,2.1425121376,-0.295369631504,-0.853969454236,-0.637899880058,-0.0155515960322,-0.567780009511,-0.100497025542,-0.0707029873422,-0.787330240879,0.573678873619,0.819054655283,0.00477163736847,0.0,0.819040892326,-0.573601886181,-0.0115602668424,0.0,-0.00673159978302,0.0105402499215,-0.99992179129,0.0,0.413250571078,-0.0653403409479,0.304924820574,1.0,-0.24998,-0.328545142857,2.309
-0.0336385845272,-0.373393406448,-0.134777519944,-2.52057484003,-0.0471290133432,2.1412515982,-0.307975773039,-0.847994609108,-0.617400059029,-0.0150416032617,-0.552699812982,-0.104271094719,-0.0854565728602,-0.794156632257,0.573543244335,0.819149927647,0.00472120903654,0.0,0.819134401545,-0.573464716721,-0.0117387299901,0.0,-0.00690846602873,0.0106001781079,-0.999919951457,0.0,0.409210835359,-0.070506375705,0.304868759067,1.0,-0.24998,-0.328545142857,2.325
-0.0493918575832,-0.384377084062,-0.135097457496,-2.53002711292,-0.048996756805,2.13991531613,-0.322377570229,-0.879690731978,-0.596368574349,-0.012946834957,-0.519106490599,-0.104878802321,-0.0733047326839,-0.808053840397,0.573661799262,0.819066097912,0.00485944651634,0.0,0.819053781994,-0.573585051225,-0.0114820779247,0.0,-0.00661740228817,0.0105671809801,-0.999922269316,0.0,0.404780410526,-0.0764845738616,0.304970023124,1.0,-0.24998,-0.328545142857,2.343
-0.0652675273292,-0.395045252693,-0.13535599555,-2.53935268786,-0.050763452747,2.13838924165,-0.33716333313,-0.893062124662,-0.591539199016,-0.0185208962366,-0.517886328628,-0.0995567055467,-0.0883023566983,-0.822614455262,0.573559849742,0.819137513871,0.00485582488933,0.0,0.81912456945,-0.573482203526,-0.0115693069419,0.0,-0.00669225301474,0.0106134197642,-0.999921281437,0.0,0.400261128533,-0.0823535863106,0.304947852857,1.0,-0.24998,-0.328545142857,2.361
-0.0796683500336,-0.404230572677,-0.135611340241,-2.54736738283,-0.0523127006052,2.13690941743,-0.350455639214,-0.890555888768,-0.578095067319,-0.00378803828709,-0.489316391754,-0.0900722705612,-0.0988620046656,-0.834485366543,0.573615588015,0.819098893051,0.00478617692382,0.0,0.819083816836,-0.573536228087,-0.0117746749715,0.0,-0.00689971021612,0.0106746226898,-0.999919219952,0.0,0.396210919334,-0.0876042193472,0.304891588546,1.0,-0.24998,-0.328545142857,2.377
-0.0942324529394,-0.413215509524,-0.135910811315,-2.55486997596,-0.0537157526091,2.13561826222,-0.364066981904,-0.922580506136,-0.555042514405,-0.0271592632191,-0.462790482276,-0.101755915502,-0.0773461128297,-0.846597466286,0.573656011613,0.819069145149,0.00502620196416,0.0,0.819058029316,-0.573577230718,-0.0115694388502,0.0,-0.00659338232832,0.0107538362678,-0.999920437992,0.0,0.392288403883,-0.0928710733234,0.304975991433,1.0,-0.24998,-0.328545142857,2.393
-0.110882444253,-0.422989720071,-0.136164857987,-2.5631145696,-0.0554016909892,2.13396306139,-0.3796558799,-0.928329296611,-0.532911914637,-0.0135495304305,-0.456778166429,-0.0834216253055,-0.101388128043,-0.870195333605,0.573583835625,0.819119780117,0.00501160967571,0.0,0.819108466868,-0.573505097281,-0.0115745323575,0.0,-0.0066068719078,0.0107442234428,-0.999920452289,0.0,0.387791332956,-0.0987772013517,0.304981315689,1.0,-0.24998,-0.328545142857,2.411
-0.124991512506,-0.430854450051,-0.136461784166,-2.56982877434,-0.0567760491906,2.13249568506,-0.392770119218,-0.945437576153,-0.525795032738,-0.0174885875359,-0.434614309849,-0.0882430366747,-0.0885835380796,-0.884226585563,0.573692926706,0.819043778755,0.00494582967947,0.0,0.8190303307,-0.573612321822,-0.0117884922288,0.0,-0.00681843365111,0.0108139673285,-0.999918280198,0.0,0.383976031676,-0.103729091152,0.304913726798,1.0,-0.24998,-0.328545142857,2.426
-0.141942712124,-0.439930910614,-0.136696471362,-2.57738203615,-0.0582724422552,2.13084512029,-0.408861435188,-0.956154939265,-0.501847794926,-0.0146365849095,-0.407971687713,-0.0752253283439,-0.0901491855173,-0.907090179777,0.573543751844,0.819147919077,0.00499982941359,0.0,0.819134843005,-0.573462464932,-0.0118176643208,0.0,-0.00681333181476,0.0108736913666,-0.999917667283,0.0,0.379514225356,-0.109562839859,0.304906473972,1.0,-0.24998,-0.328545142857,2.444
-0.158418603912,-0.448289634484,-0.136975228677,-2.58402944756,-0.0596820780196,2.12932412162,-0.424292298324,-0.965838998764,-0.487956937675,-0.0105943541825,-0.394069337042,-0.0797489277718,-0.094828093055,-0.894655261989,0.57365366083,0.819069989016,0.00515532831682,0.0,0.819060381185,-0.57357422127,-0.0115521239558,0.0,-0.00650515986137,0.0108496522633,-0.999919980769,0.0,0.375326923192,-0.115212988052,0.305015338485,1.0,-0.24998,-0.328545142857,2.461
-0.174970884525,-0.456233705535,-0.137297481519,-2.59065313961,-0.0610663036902,2.1275935195,-0.439973768265,-0.983514793498,-0.463966242925,-0.0242221757769,-0.376446213193,-0.0858103805392,-0.104429717011,-0.925716407848,0.573661293574,0.819064967319,0.00510357390958,0.0,0.819052833982,-0.573578974342,-0.0118474570874,0.0,-0.0067766648354,0.0109767355686,-0.999916790583,0.0,0.371002034721,-0.120781298368,0.304934049191,1.0,-0.24998,-0.328545142857,2.478
-0.190632302145,-0.46335878167,-0.13750147048,-2.59646563266,-0.0623055983606,2.12612272795,-0.454967670222,-0.990559774881,-0.43676697675,-0.0123425394004,-0.36284999998,-0.0749335099492,-0.0852794487877,-0.942897393924,0.573515104903,0.81916730975,0.00510783580012,0.0,0.819154879322,-0.573432226479,-0.0118958908972,0.0,-0.00681585851437,0.0110067936491,-0.999916193771,0.0,0.367022679353,-0.125973061686,0.304911696549,1.0,-0.24998,-0.328545142857,2.494
-0.208721825623,-0.471075164855,-0.137810867154,-2.60261191782,-0.0636809947217,2.12451012607,-0.472012979228,-0.991179694211,-0.431178330473,-0.0115010154953,-0.325752690619,-0.0758007090175,-0.0880125789425,-0.938648336017,0.573672485855,0.819056723413,0.0051681433956,0.0,0.819045429155,-0.57358993881,-0.0118285238569,0.0,-0.00672396639616,0.0110188550575,-0.999916683084,0.0,0.362520197249,-0.131947737111,0.304933277139,1.0,-0.24998,-0.328545142857,2.512
-0.224845172472,-0.477597573851,-0.138064340372,-2.60759783499,-0.0647788590999,2.12310599539,-0.487437450959,-1.02042320245,-0.404125353432,-0.0255736857926,-0.308915329531,-0.0740896710966,-0.0823643672119,-0.958856298997,0.573683368926,0.819048123973,0.00532068940311,0.0,0.819039895346,-0.573602127659,-0.0116187726858,0.0,-0.00646449967061,0.0110235657869,-0.999918342287,0.0,0.358590592876,-0.13721762768,0.305028908368,1.0,-0.248389714286,-0.326455053061,2.528
-0.241948882767,-0.484002147243,-0.138192773359,-2.61277464636,-0.0658183649623,2.12159263386,-0.503857486435,-0.997213749919,-0.355820015071,-0.00626521479762,-0.29550555167,-0.0528825990766,-0.08955687069,-0.943179099887,0.573604747284,0.819102982988,0.00535201411429,0.0,0.819093954889,-0.573521368169,-0.0117932276944,0.0,-0.00659050041381,0.0111486684452,-0.999916132731,0.0,0.354382084182,-0.142659708928,0.304974093209,1.0,-0.243250857143,-0.319701126531,2.545
-0.258174380848,-0.48958229895,-0.138321720484,-2.61727877725,-0.0667596648058,2.12018666984,-0.519248746346,-1.00868315163,-0.339891169028,-0.00289267817881,-0.272324655539,-0.0633597985057,-0.0804587219015,-0.963695430502,0.573726348913,0.819017805498,0.00535329261264,0.0,0.819007337383,-0.573640497256,-0.0120128315701,0.0,-0.00676798781884,0.0112766810368,-0.999913511663,0.0,0.350437348056,-0.147784722453,0.304910982577,1.0,-0.238414285714,-0.313344489796,2.561
-0.274131446254,-0.49473849859,-0.138341794745,-2.62130174264,-0.0675518681558,2.11901865465,-0.534553891298,-1.0032893165,-0.31294230425,-0.00412410255639,-0.24426585122,-0.0436241452272,-0.0734525132065,-0.958275085107,0.573708556211,0.819029598822,0.00545487723404,0.0,0.819020698013,-0.573622731765,-0.0119500932977,0.0,-0.00665856673714,0.0113237461494,-0.999913714408,0.0,0.34666778112,-0.152767732254,0.304921129739,1.0,-0.233577714286,-0.306987853061,2.577
-0.291904166269,-0.500073156698,-0.138319384383,-2.62537615619,-0.0683876353036,2.11767156596,-0.551524671974,-0.974104370039,-0.292146201287,0.00255728307612,-0.226856035326,-0.0402108392467,-0.0716475387302,-0.926172216998,0.573759148702,0.818993704405,0.00552252905542,0.0,0.818985797473,-0.57367325426,-0.0119167019634,0.0,-0.00659170358106,0.0113604083594,-0.999913741563,0.0,0.342501270035,-0.158262712646,0.304952177383,1.0,-0.228136571429,-0.299836636735,2.595
-0.308542528684,-0.504582293384,-0.138318873765,-2.6288293128,-0.069062201841,2.11653205578,-0.567390612381,-0.981909291073,-0.253959059535,0.00268826009842,-0.192780259035,-0.043276425658,-0.0595546066299,-0.923025162779,0.573904890905,0.818890858549,0.00562893243768,0.0,0.818884299057,-0.573818505166,-0.0118985203879,0.0,-0.00651372938828,0.0114382836612,-0.999913364745,0.0,0.33864671517,-0.163377207583,0.304967012231,1.0,-0.222997714286,-0.293082710204,2.612
-0.322882297992,-0.508229633443,-0.13823052453,-2.63158414535,-0.0695870756267,2.11565291458,-0.581257608645,-0.951112461061,-0.238975213614,0.00647428164026,-0.178761402984,-0.0348039689083,-0.0536105067754,-0.916661602223,0.573831072187,0.818941894422,0.00572896631125,0.0,0.818937304165,-0.573745524016,-0.0117691299273,0.0,-0.0063513870639,0.0114453770304,-0.999914327944,0.0,0.335147457378,-0.168015932306,0.305004864875,1.0,-0.218161142857,-0.286726073469,2.628
-0.339961608458,-0.512183618955,-0.138154954192,-2.63458875033,-0.0702031745028,2.11457424794,-0.597638948873,-0.934550368204,-0.202813368082,0.0103033166997,-0.162395512844,-0.0325122857927,-0.0610588697626,-0.908901857059,0.573925938194,0.818875128912,0.0057695424241,0.0,0.818870829795,-0.573839799005,-0.0117981392243,0.0,-0.00635053198061,0.011495989449,-0.999913752766,0.0,0.331436384867,-0.172889908335,0.305007224703,1.0,-0.213022285714,-0.279972146939,2.645
-0.355751181897,-0.515395785417,-0.138043086717,-2.63716269705,-0.0706326872271,2.11364194962,-0.612927059996,-0.934381694356,-0.181631661415,-0.000496724115829,-0.148666416578,-0.0259649984919,-0.0515251700763,-0.902490705119,0.573924925461,0.818875319755,0.00584273320665,0.0,0.818870667297,-0.573836146863,-0.0119855619217,0.0,-0.0064620337548,0.0116634801304,-0.999911098724,0.0,0.327814357026,-0.177594376602,0.304947489915,1.0,-0.207883428571,-0.273218220408,2.662
-0.370363887057,-0.51805698317,-0.137878049604,-2.6392985332,-0.071017097564,2.11290514006,-0.627005815489,-0.896860773099,-0.163547858847,0.00969370612497,-0.127598270984,-0.0216714687941,-0.0379273660577,-0.873419151469,0.573957146358,0.818852532862,0.00587115591842,0.0,0.818847549688,-0.573866981184,-0.0120882247682,0.0,-0.00652933665625,0.0117459307757,-0.999909696359,0.0,0.324501086914,-0.181922280759,0.304899007809,1.0,-0.203046857143,-0.266861583674,2.678
-0.385670246333,-0.520536453997,-0.137753446074,-2.64121554878,-0.0713714593353,2.11219288992,-0.641726242676,-0.895646532867,-0.133460705107,0.0114557692977,-0.107128925535,-0.0226527831407,-0.0440894789959,-0.871855486989,0.574085566674,0.818762001128,0.00594092141953,0.0,0.818757566764,-0.573994425588,-0.0121323189003,0.0,-0.00652355152208,0.0118293912892,-0.999908750225,0.0,0.321060304374,-0.186464462506,0.30488213506,1.0,-0.197908,-0.260107657143,2.695
-0.401324581554,-0.522845731029,-0.137496836442,-2.64294974201,-0.0716489153055,2.11151001411,-0.657064291299,-0.856512055496,-0.129210844202,0.00845975216536,-0.0916941586912,-0.0187005961959,-0.0409634073851,-0.850902068843,0.573942775588,0.818861635729,0.00600489657359,0.0,0.818858000435,-0.573851322513,-0.0121235999199,0.0,-0.00648175781493,0.011875638832,-0.99990847382,0.0,0.317569000466,-0.191048279672,0.304890078345,1.0,-0.192466857143,-0.252956440816,2.713
-0.415209571419,-0.524649969215,-0.137341694367,-2.64424494047,-0.0719005677248,2.11096045373,-0.670386439002,-0.855652306482,-0.108843621643,0.0205010913771,-0.0734743387727,-0.0190158149949,-0.0338063736284,-0.830473244607,0.57411011854,0.818743865729,0.00606638459853,0.0,0.818741347587,-0.574018947451,-0.0120665082047,0.0,-0.00639728303877,0.0118945333635,-0.999908793264,0.0,0.314477900531,-0.195132670775,0.304919752908,1.0,-0.187630285714,-0.246599804082,2.729
-0.429407049708,-0.526200388394,-0.137090767481,-2.64536597788,-0.0720696447356,2.11050817393,-0.684243894099,-0.82840344614,-0.0908905281521,0.0144308778398,-0.0628831525826,-0.00473054726238,-0.0340212108586,-0.807406520845,0.574072977557,0.81876943019,0.00613054036516,0.0,0.818768190648,-0.573982373261,-0.0119846597847,0.0,-0.00629397213322,0.0118997898779,-0.999909386352,0.0,0.311353373193,-0.199274253992,0.304945633061,1.0,-0.182491428571,-0.239845877551,2.746
-0.44337592642,-0.527454923104,-0.136867380914,-2.64633437597,-0.0722265853416,2.11008334734,-0.697821125494,-0.793912974438,-0.0638508495368,0.0254289261229,-0.0513120394354,-0.00158032095053,-0.0242536320462,-0.782583351896,0.574112362052,0.818741489645,0.00617379736178,0.0,0.818740544683,-0.574021057587,-0.012020517433,0.0,-0.0062979279131,0.0119560960632,-0.999908689767,0.0,0.308256466004,-0.203333195607,0.30493365687,1.0,-0.177352571429,-0.23309195102,2.763
-0.456086998903,-0.528405018035,-0.136594624468,-2.64705678071,-0.0723272631845,2.10977988808,-0.710224500819,-0.805221841201,-0.0553323884461,0.0229941293708,-0.0443935548029,-0.0036182257321,-0.0232112034687,-0.768668619073,0.574086590919,0.818759371774,0.00619872248434,0.0,0.818758856688,-0.573995386194,-0.0119990884211,0.0,-0.0062664486398,0.0119640050442,-0.999908792943,0.0,0.305460738002,-0.207003562947,0.304933536119,1.0,-0.172516,-0.226735314286,2.779
-0.469418970392,-0.529135595402,-0.13633080231,-2.64761773647,-0.0723920313111,2.1094790828,-0.723141039965,-0.759515191476,-0.0366022231036,0.0257750481654,-0.0281040181148,0.000931541939599,-0.0117204804515,-0.750054616723,0.574180230078,0.818693411259,0.00623767982549,0.0,0.81869316766,-0.574088386895,-0.0120319641134,0.0,-0.00626963090496,0.0120154931136,-0.999908155609,0.0,0.30252975018,-0.210854216316,0.304926415465,1.0,-0.167377142857,-0.219981387755,2.796
-0.482931656887,-0.529629808015,-0.136004803808,-2.64802475654,-0.0724152666152,2.10925235812,-0.736475757952,-0.751050789524,-0.0261459260977,0.0174729176899,-0.0116816105624,-0.00132725499211,-0.0156135016389,-0.738385830371,0.574062593877,0.818775712573,0.0062624047656,0.0,0.818775527706,-0.573970162965,-0.0120678977973,0.0,-0.00628658917067,0.0120554645838,-0.999907568013,0.0,0.299573722669,-0.214736827627,0.304910822256,1.0,-0.161936,-0.212830171429,2.814
-0.494041718621,-0.529882760582,-0.135773212654,-2.64823677715,-0.0724287118334,2.10909086411,-0.747252473322,-0.716720716379,-0.0133886757674,0.0276534322413,-0.012340889722,-0.000921098062254,-0.00418646104275,-0.720242220215,0.574154286603,0.818711221501,0.00628791418802,0.0,0.818711107837,-0.574061220622,-0.012107179029,0.0,-0.0063027569854,0.0120996068839,-0.999906933053,0.0,0.29713257681,-0.217934523891,0.304898910478,1.0,-0.157401714286,-0.20687082449,2.829
-0.506066312008,-0.530024415625,-0.135423485777,-2.64837455077,-0.0724279292829,2.10897851111,-0.759137107561,-0.708559876815,-0.00454695369461,0.0227593371434,-0.00759587042881,0.00564614982924,-0.0101621312252,-0.68743087092,0.57401487486,0.818809110821,0.0062697988264,0.0,0.818808669267,-0.573921745376,-0.0121218900693,0.0,-0.00632726196294,0.0120921436561,-0.999906868572,0.0,0.294502989517,-0.221364722994,0.30488736973,1.0,-0.152262857143,-0.200116897959,2.846
-0.518679234573,-0.53004590063,-0.135145685067,-2.64840602557,-0.0724284738164,2.10887739897,-0.771341889226,-0.682508967409,-0.00165445081808,0.0182736799042,8.63447177616e-05,0.00115551495416,-0.00184678729712,-0.664577272171,0.574151278944,0.818713404526,0.00627829896618,0.0,0.818712950768,-0.57405784592,-0.012142515525,0.0,-0.00633725545626,0.0121119986842,-0.999906564976,0.0,0.291714312015,-0.224976176309,0.304879396306,1.0,-0.146821714286,-0.192965681633,2.864
-0.528565970737,-0.529920453497,-0.134817883609,-2.648333512,-0.0724117588249,2.10888351911,-0.781172566324,-0.662389360215,0.00629150635638,0.0223249239858,0.00559034860431,-0.000482053565197,0.00607399808673,-0.644534493788,0.573978768268,0.818834709666,0.00623207228598,0.0,0.818833830682,-0.57388592031,-0.0121183786609,0.0,-0.00634657272434,0.0120589558525,-0.999907146988,0.0,0.289413456723,-0.227969455015,0.304875409181,1.0,-0.141985142857,-0.186609044898,2.88
-0.540339013325,-0.529697416901,-0.134545846638,-2.64815325111,-0.0723869285421,2.1088730217,-0.792587544222,-0.651403887337,0.0154139083651,0.0146738731376,0.0123723285962,-0.00176925717581,-0.00101995793342,-0.633328079066,0.574099883852,0.818749801076,0.00623165312091,0.0,0.818749144014,-0.574007444279,-0.0120847006423,0.0,-0.00631745259591,0.0120402177052,-0.999907557202,0.0,0.28694644954,-0.231149069771,0.304882158371,1.0,-0.136846285714,-0.179855118367,2.897
-0.552018062976,-0.529224492599,-0.13408571006,-2.64781698311,-0.0723123214975,2.10890022913,-0.804168627728,-0.59789158532,0.0283802145578,0.0255597680142,0.0168535128597,0.00934543101091,-0.00202110178296,-0.608380117634,0.573906880722,0.818885677527,0.00615518506733,0.0,0.818883938997,-0.573814660359,-0.0121068951494,0.0,-0.00638235048831,0.011988843446,-0.999907762364,0.0,0.284400231116,-0.234444837335,0.30487650575,1.0,-0.131102857143,-0.172306612245,2.916
-0.561022857217,-0.528765499907,-0.133804022111,-2.64749209472,-0.0722680572925,2.1089621688,-0.813000045298,-0.605948563357,0.0309918139095,0.014994025378,0.0286959843765,0.00243951224104,0.00339601695145,-0.579454499345,0.573887770912,0.818899396576,0.00611159440883,0.0,0.818897068928,-0.573795707933,-0.0121170524322,0.0,-0.00641596381182,0.0119588252027,-0.999907906713,0.0,0.282416702246,-0.237004569488,0.30486906753,1.0,-0.126568571429,-0.166347265306,2.931
-0.570945228913,-0.528146709335,-0.133523080352,-2.64701353216,-0.072152191523,2.10907905078,-0.822644600961,-0.567183754265,0.0404289694872,0.0169240486075,0.032103372973,0.0106180213543,0.00957010578191,-0.563572602766,0.573993583771,0.81882516884,0.00612009513472,0.0,0.818823231074,-0.5739019827,-0.0120738315143,0.0,-0.00637414511821,0.0119418078103,-0.999908377553,0.0,0.280239163062,-0.239838726645,0.304877736874,1.0,-0.121429714286,-0.159593338776,2.948
-0.579666778238,-0.52742169558,-0.133158929162,-2.64651310082,-0.0719795579308,2.10919087123,-0.831374899467,-0.549315917174,0.0455582172421,0.0189285822815,0.0301240198424,0.0154455423237,0.0112487499888,-0.536441931002,0.573818728987,0.818947705513,0.00612117641018,0.0,0.818945362775,-0.573726377299,-0.0121360488735,0.0,-0.00642703275261,0.0119770317703,-0.999907617713,0.0,0.278229276741,-0.242446106626,0.304854955422,1.0,-0.116290857143,-0.152839412245,2.965
-0.588827411259,-0.52663464938,-0.132851627918,-2.64591154811,-0.0717964476576,2.10931297842,-0.840230145244,-0.538533681655,0.0483382865964,0.0135329413626,0.0407165211797,0.00791027595033,0.00488745208125,-0.508732630338,0.573976678753,0.81883681295,0.00614759363154,0.0,0.818834879495,-0.573884297073,-0.0121243802788,0.0,-0.00640000467645,0.0119932065212,-0.9999075972,0.0,0.276341708709,-0.244898109823,0.304862968514,1.0,-0.111454285714,-0.14648277551,2.981
-0.597502256518,-0.52571063672,-0.132518730594,-2.64522807514,-0.0715930361126,2.10948178724,-0.848770742207,-0.489521981148,0.0548917169946,0.0270289662368,0.0391149756081,0.0134873089509,0.013376143969,-0.496934347503,0.573976679362,0.818836685984,0.00616442504456,0.0,0.818834882285,-0.57388405438,-0.0121356739385,0.0,-0.0063995930045,0.0120134713813,-0.999907356566,0.0,0.274462658625,-0.247365925442,0.304858366533,1.0,-0.106315428571,-0.13972884898,2.998
-0.605573309254,-0.524748925539,-0.132111550849,-2.64453328788,-0.071348048703,2.10964961327,-0.856876253485,-0.46576763,0.0531083966684,0.0186722423712,0.0367916554043,0.0165761497925,0.0159940021728,-0.473078556244,0.57380420507,0.818957486948,0.00617379275382,0.0,0.818955523597,-0.573711046412,-0.0121750768519,0.0,-0.00642902101949,0.0120424038256,-0.999906819758,0.0,0.272733220584,-0.249635796774,0.304846613017,1.0,-0.101176571429,-0.132974922449,3.015
-0.61307937544,-0.523881166814,-0.131771216773,-2.64386113006,-0.0711449473936,2.10980146428,-0.864123975609,-0.45942066825,0.0575101733787,0.0178678357988,0.0449507688727,0.0127648238707,0.0114294012943,-0.447647958481,0.57389906462,0.818890999726,0.00617584791168,0.0,0.818889120858,-0.573805984278,-0.0121674586354,0.0,-0.00642020748523,0.0120404596128,-0.9999068998,0.0,0.271104085995,-0.251753473743,0.304855635065,1.0,-0.0963400000001,-0.126618285714,3.031
-0.620616704656,-0.522876419749,-0.13145425792,-2.64307413865,-0.070905254992,2.10998592771,-0.871471104589,-0.429562556225,0.0620131465841,0.0215731267708,0.0517503601271,0.0122457896959,0.0103532020764,-0.418469844374,0.573976289581,0.818836638711,0.00620685143893,0.0,0.818835267324,-0.573883246082,-0.0121479115043,0.0,-0.00638526990807,0.0120552341293,-0.9999069455,0.0,0.269478070369,-0.253901514683,0.304868540186,1.0,-0.0912011428572,-0.119864359184,3.048
-0.627535663937,-0.521865592441,-0.131036518203,-2.64231132664,-0.0706274195862,2.1101768363,-0.87840766268,-0.393260998797,0.0573122611433,0.026116492517,0.0430687636787,0.0130616011608,0.0169690597348,-0.402119788883,0.57382680853,0.818941314086,0.00621810238148,0.0,0.818940031507,-0.573733636964,-0.0121525928625,0.0,-0.00638484880219,0.0120659688452,-0.999906818709,0.0,0.268013704359,-0.25584193146,0.304870965388,1.0,-0.0860622857144,-0.113110432653,3.065
-0.633894923964,-0.520982203269,-0.130708817407,-2.64162966646,-0.0704178006962,2.11034546991,-0.884608384191,-0.396920062795,0.0569017778475,0.0170594181035,0.0455767919318,0.00773027946472,0.0141319352166,-0.384319633395,0.57386532955,0.818914314628,0.00621898218443,0.0,0.818913138172,-0.573772324654,-0.0121383067595,0.0,-0.00637207597797,0.0120587917947,-0.999906986768,0.0,0.266549552329,-0.257741512808,0.304881444336,1.0,-0.0809234285715,-0.106356506123,3.082
-0.640263198495,-0.520011209043,-0.130353728377,-2.64085764756,-0.0701463135935,2.11055876468,-0.890797962276,-0.364290958623,0.0546753870685,0.0193191610898,0.049418061047,0.0181119872748,0.0176535713514,-0.362917423099,0.573898400159,0.818890942089,0.0062448507881,0.0,0.818890478061,-0.573805985875,-0.0120756952506,0.0,-0.00630546609678,0.0120443029226,-0.999907583662,0.0,0.265204703955,-0.259530403442,0.304903373322,1.0,-0.0757845714286,-0.0996025795919,3.099
-0.646550483698,-0.518966514954,-0.130054119472,-2.6400707743,-0.0698718916989,2.11075611584,-0.896906218975,-0.341153762021,0.0594783938072,0.0147233694024,0.0462272747745,0.0170303316388,0.0092581622411,-0.324958679086,0.573998166422,0.818820596619,0.00629939662095,0.0,0.818820691249,-0.573905195556,-0.0120933452085,0.0,-0.00628714473611,0.0120998672311,-0.99990702819,0.0,0.263920929733,-0.261210858013,0.304897297272,1.0,-0.0706457142858,-0.0928486530613,3.116
-0.651667130717,-0.518088082195,-0.129676686004,-2.63943196133,-0.0696166917874,2.11093628011,-0.902016249193,-0.310879388261,0.0509820866455,0.0228447429974,0.0398337038396,0.0131351853448,0.0036814628702,-0.308136626783,0.573879624001,0.818903623288,0.00630712489521,0.0,0.818903676322,-0.573786370358,-0.0121126793147,0.0,-0.00630029597775,0.0121163808924,-0.999906745444,0.0,0.262840877604,-0.262625801602,0.304888870707,1.0,-0.0658091428572,-0.0864920163266,3.132
-0.656793251382,-0.517216097446,-0.129267066863,-2.6387791391,-0.0693714243784,2.11111679229,-0.906976553106,-0.297449969142,0.0497226648331,0.0256432739973,0.0393603312142,0.0108475935805,0.0120890517558,-0.281148181363,0.573864742459,0.818914206366,0.00628704026751,0.0,0.818914004212,-0.573771595742,-0.0121143108208,0.0,-0.00631337765682,0.0121007541564,-0.999906852167,0.0,0.261760535595,-0.264036634675,0.304889717466,1.0,-0.0606702857144,-0.079738089796,3.149
-0.66160447137,-0.516326903505,-0.128916606608,-2.63812230165,-0.0691173567498,2.11131686332,-0.911629314029,-0.270823616231,0.0549377984786,0.0264237048164,0.0383168366138,0.0162531426834,0.010989383713,-0.262592991211,0.573889586325,0.818896709809,0.0062982754434,0.0,0.818896675035,-0.573796423522,-0.0121097841482,0.0,-0.00630285582114,0.0121075489422,-0.999906836294,0.0,0.260747658245,-0.265376388448,0.304886002617,1.0,-0.0555314285715,-0.0729841632654,3.166
-0.665682395478,-0.515517291028,-0.128616553265,-2.63754846887,-0.0688780044788,2.11147707165,-0.915630544359,-0.25130060236,0.0502641023087,0.0170733872967,0.0332630882684,0.0159868512898,0.0102769141429,-0.247589755309,0.573872479462,0.818908460392,0.00632911654459,0.0,0.818908534644,-0.573778616046,-0.0121514837452,0.0,-0.00631956278469,0.0121566037134,-0.999906135651,0.0,0.259887966974,-0.266508075636,0.304869053159,1.0,-0.0506948571429,-0.0666275265307,3.182
-0.670019679499,-0.514754773104,-0.128284453835,-2.63698669638,-0.0686380056071,2.11164463354,-0.919696000555,-0.238811901946,0.0394434260277,0.017142072428,0.0278809712596,0.0114599733014,0.0202981606766,-0.222337784627,0.573991674837,0.81882479825,0.00634459531344,0.0,0.818825076765,-0.57389771816,-0.01215111732,0.0,-0.00630860887529,0.0121699882362,-0.999906042006,0.0,0.258960838216,-0.267695973715,0.30486519176,1.0,-0.0452537142858,-0.0594763102042,3.2
-0.673428717748,-0.514118410105,-0.127924345889,-2.63649651817,-0.0684213878608,2.11178001093,-0.923017313255,-0.200258086314,0.0442795335786,0.024907002362,0.0279862918357,0.0163741155201,0.0124731571282,-0.203714469965,0.57393539969,0.818864393866,0.00632521475119,0.0,0.818864583813,-0.573841861038,-0.0121267802112,0.0,-0.00630063682967,0.0121397165194,-0.999906460254,0.0,0.25822314762,-0.268671100885,0.304875484152,1.0,-0.0401148571429,-0.0527223836736,3.217
-0.676237083191,-0.513560875254,-0.127564004762,-2.63606775467,-0.0682047767284,2.111913688,-0.925691584675,-0.182546464182,0.0358201250828,0.0306746747916,0.0224390538277,0.0182662586867,0.0110916048624,-0.169803905672,0.573894828388,0.818892964671,0.00630755592583,0.0,0.818893057899,-0.573801635976,-0.0121074017552,0.0,-0.00629550141647,0.0121138222411,-0.999906806644,0.0,0.257713596176,-0.269364592312,0.304882016517,1.0,-0.0358828571429,-0.0471603265307,3.231
-0.679279685907,-0.512984003206,-0.127165199739,-2.63562312625,-0.0679718019885,2.11205213868,-0.928601925674,-0.155677733352,0.0312770118383,0.018440090399,0.0236469286492,0.01140002347,0.00331121294269,-0.150088043442,0.573853381323,0.81892215003,0.0062893430227,0.0,0.818922159443,-0.57376057519,-0.0120849506213,0.0,-0.00628817774242,0.012085704834,-0.999907192973,0.0,0.257075161767,-0.270210286632,0.304889724459,1.0,-0.0301394285715,-0.0396118204083,3.25
-0.681933170143,-0.512462189552,-0.126816640848,-2.6352482557,-0.0677238214759,2.11216494082,-0.931054072829,-0.139020245045,0.0252773137698,0.0179679160685,0.0198519294911,0.0119487688463,0.00563650997536,-0.124961299108,0.573885028538,0.818899854935,0.00630464178326,0.0,0.818900059499,-0.573792138913,-0.0120839056609,0.0,-0.00627807557129,0.0120978769981,-0.999907109255,0.0,0.256585256312,-0.270856088953,0.30488748988,1.0,-0.0250005714286,-0.0328578938776,3.267
-0.683838231462,-0.51208607559,-0.12654240756,-2.63497205989,-0.067539583828,2.11223564334,-0.932807589198,-0.121695369824,0.0186466973396,0.0177775085306,0.0182694260678,0.0129026556116,0.00605719565707,-0.109391017277,0.573912535854,0.818880512162,0.00631307319369,0.0,0.818880810841,-0.573819572016,-0.0120856654579,0.0,-0.00627427176108,0.0121060024843,-0.999907034788,0.0,0.256189602858,-0.271375907763,0.304889280081,1.0,-0.0201640000001,-0.026501257143,3.283
-0.685798346777,-0.511729893603,-0.12626266809,-2.63469492656,-0.0673279011849,2.11231016591,-0.93452821881,-0.108757182606,0.0162809641357,0.0106724811157,0.0112405688963,0.013513230019,0.00370084866557,-0.0940371997457,0.574009090812,0.818812623155,0.00634024669484,0.0,0.818813317731,-0.573916064641,-0.0120767691923,0.0,-0.00624996196076,0.0121238871579,-0.999906970341,0.0,0.255827907186,-0.271844564966,0.304893558917,1.0,-0.019652173913,-0.0258285714286,3.3
-0.687386873775,-0.51143287394,-0.126036928108,-2.63446327158,-0.0671769543482,2.11237239789,-0.936068879509,-0.0865475799889,0.0186862012607,0.0131368193502,0.0105553036827,0.0113706961745,0.00195237836721,-0.0867834670519,0.573964117658,0.818844104054,0.00634600652324,0.0,0.818844943832,-0.573871211749,-0.0120638794561,0.0,-0.00623676618844,0.0121208626468,-0.999907089402,0.0,0.255515472561,-0.272253333275,0.304899535588,1.0,-0.019312173913,-0.0253817142857,3.317
-0.688780016744,-0.511133016576,-0.125874879017,-2.6342224993,-0.067105245401,2.11242266864,-0.937422648477,-0.0872402244978,0.0160003112961,0.00828565384557,0.0147874650205,0.00290761698376,0.00195523994085,-0.0782009569705,0.573924076963,0.81887241342,0.00631437432862,0.0,0.818872855472,-0.573831348941,-0.0120655064011,0.0,-0.00625684487072,0.0120955872389,-0.999907270031,0.0,0.255233828531,-0.27263372527,0.304905991515,1.0,-0.018992173913,-0.0249611428571,3.333
-0.690202232819,-0.510824790245,-0.125754031781,-2.63398388942,-0.0670561987674,2.11250831248,-0.938920104092,-0.0782180933487,0.0214325734397,0.00780208761894,0.0177465399663,0.0015913402834,0.00313654624145,-0.0921052111835,0.573801440461,0.81895861416,0.00628029616429,0.0,0.818958740781,-0.573709137887,-0.0120479418963,0.0,-0.00626382309876,0.0120566619812,-0.999907696451,0.0,0.254920858264,-0.273059042362,0.304908895925,1.0,-0.018632173913,-0.024488,3.351
-0.691688707091,-0.510515760265,-0.125699779272,-2.63374664093,-0.0670030578494,2.1125457656,-0.94040795655,-0.0781992096288,0.0184524880545,0.000540508314296,0.00963216622602,0.00268842583825,0.0030853364582,-0.0814436723187,0.573804975343,0.81895605019,0.0062916635561,0.0,0.818956191368,-0.573712364698,-0.0120675645357,0.0,-0.00627332059178,0.0120772579188,-0.999907388356,0.0,0.254599185071,-0.273461829472,0.304908110215,1.0,-0.018292173913,-0.0240411428571,3.368
-0.692980834184,-0.51023240827,-0.125684008147,-2.63352360619,-0.0669556606849,2.1126168015,-0.941736999561,-0.0815724106903,0.0198456436956,0.00267630812334,0.0113237517245,0.00165265407104,0.00499787849918,-0.0781785401226,0.573795286784,0.818962700947,0.00630953433071,0.0,0.818963183439,-0.573702808427,-0.0120473513781,0.0,-0.00624665412596,0.0120802223422,-0.999907519494,0.0,0.254307180094,-0.273847495671,0.304910843532,1.0,-0.017972173913,-0.0236205714286,3.384
-0.69430882854,-0.50993198912,-0.125675134766,-2.63329674502,-0.0669199897931,2.11270046321,-0.943039221266,-0.0765599909758,0.0179091196002,-0.000379304991111,0.0130706951543,0.00659004910535,0.00513245824079,-0.0707409303453,0.573837077217,0.818933344538,0.0063192496924,0.0,0.818934061495,-0.573744755996,-0.0120293304848,0.0,-0.00622570333769,0.0120781572044,-0.999907675106,0.0,0.254004468486,-0.274247143211,0.304909870728,1.0,-0.017632173913,-0.0231737142857,3.401
-0.695622352859,-0.509620295184,-0.125668138513,-2.63306149859,-0.0668717928713,2.11271907051,-0.944350764418,-0.0777740218721,0.0247269378192,0.000360152096685,0.0124465945766,0.0015377820822,-0.000466388073449,-0.0875016760248,0.573866573621,0.818912436614,0.00635009771165,0.0,0.81891323452,-0.57377348587,-0.0120767603962,0.0,-0.00624641184565,0.0121308617223,-0.999906907933,0.0,0.253697593553,-0.274634424181,0.304902912999,1.0,-0.017292173913,-0.0227268571429,3.418
-0.696847055137,-0.509349289857,-0.125647537645,-2.63285848803,-0.0668379799215,2.1127866212,-0.945626962709,-0.0755389766703,0.0142852378388,0.00123887548829,0.0115088071778,0.000684402192501,0.00252719495309,-0.0805228357291,0.573834700671,0.81893471822,0.00635692544653,0.0,0.818935640323,-0.5737416577,-0.0120695538422,0.0,-0.00623706381406,0.0121320752074,-0.999906951564,0.0,0.253417628069,-0.274996727734,0.304900864078,1.0,-0.016972173913,-0.0223062857143,3.434
-0.698132438479,-0.509049674578,-0.125615605918,-2.63263155857,-0.0668117776111,2.11285736236,-0.946886196025,-0.0793728744766,0.0156272948542,0.00269230895962,0.0111219734543,0.000709484246674,0.000602750863344,-0.0685099978685,0.573856298076,0.818919646105,0.00634895914115,0.0,0.818920496847,-0.573763349161,-0.0120658984539,0.0,-0.00623832133831,0.0121236180113,-0.999907046296,0.0,0.25312743368,-0.275378828329,0.304899574579,1.0,-0.016632173913,-0.0218594285714,3.451
-0.699443433584,-0.508728238684,-0.125579277758,-2.63238885413,-0.0667630070867,2.11289079284,-0.948215476092,-0.0683809428141,0.0166183110334,0.00160068670763,0.0155066538816,0.00633655107646,0.00289471624586,-0.0802863916265,0.573848875801,0.818924734173,0.00636352121948,0.0,0.818925534761,-0.573755396633,-0.0121020763526,0.0,-0.00625970553746,0.0121562469728,-0.999906516503,0.0,0.252830095698,-0.275762317964,0.304894258969,1.0,-0.016272173913,-0.0213862857143,3.469
-0.700513737211,-0.508473285814,-0.125549381208,-2.63220304004,-0.0667328729068,2.11296697435,-0.949290907317,-0.0685142478901,0.0150791663453,0.00311981079447,0.0136278602194,0.00357610081239,0.00399273489662,-0.0701554983261,0.573845872549,0.818926858751,0.00636093359876,0.0,0.818927706928,-0.573752563762,-0.012089388064,0.0,-0.00625084297936,0.0121468240721,-0.99990668646,0.0,0.252590933791,-0.276080128858,0.304891237327,1.0,-0.015972173913,-0.020992,3.484
-0.701747686689,-0.508165153353,-0.125532781961,-2.63197889342,-0.0667027295409,2.11300518124,-0.950488268636,-0.0637753075638,0.0148081973102,0.000766869697135,0.013525085838,-0.000200102616533,0.000448441048916,-0.0765281825707,0.573888554634,0.818896880443,0.00636969095738,0.0,0.818897596397,-0.573794718051,-0.0121282749436,0.0,-0.00627703234183,0.0121766372304,-0.999906159782,0.0,0.25230450729,-0.276445520318,0.304882310695,1.0,-0.015612173913,-0.0205188571429,3.502
-0.702900766749,-0.507874860041,-0.12549631305,-2.63175308677,-0.0666622745379,2.11306292869,-0.951713606759,-0.065574763137,0.0147793468509,0.00647925281802,0.0123016947824,0.00484419560774,0.000697453444997,-0.0719464651697,0.573832295968,0.818936280494,0.00637271500734,0.0,0.818937029928,-0.573738446367,-0.0121277810568,0.0,-0.00627572912908,0.0121783992214,-0.999906146504,0.0,0.252049243808,-0.276788759713,0.30488286969,1.0,-0.015272173913,-0.020072,3.519
-0.703900176027,-0.507630257638,-0.125469624112,-2.63155621575,-0.0666344756522,2.11312497499,-0.952696950511,-0.0678632256835,0.0192893569605,0.00452066882502,0.00929247991264,-0.000126973398423,0.000930628756869,-0.0672769439151,0.573843569803,0.818928438903,0.0063652378834,0.0,0.818929229204,-0.57375002055,-0.0121069556547,0.0,-0.00626279550595,0.0121604121315,-0.999906446508,0.0,0.251812886935,-0.277109504114,0.304887581328,1.0,-0.014952173913,-0.0196514285714,3.535
-0.705089640719,-0.507337405083,-0.125447681351,-2.63134077965,-0.0666029547221,2.11317843888,-0.953892131201,-0.0647378093719,0.0170514923081,0.00133264035064,0.0116350790873,0.0017006323472,0.00014458309342,-0.0714965267299,0.5738526786,0.818921995134,0.00637307227389,0.0,0.818922762795,-0.573758849174,-0.0121259421096,0.0,-0.00627371488018,0.0121777927744,-0.99990616653,0.0,0.251554636504,-0.277442420191,0.304881503348,1.0,-0.014612173913,-0.0192045714286,3.552
-0.706157603749,-0.507063573546,-0.125436094094,-2.63113861221,-0.0665676768323,2.11320647228,-0.955017493798,-0.0628475706102,0.0141491342455,0.000702484740317,0.0104687634332,0.000913527531199,0.00138819460252,-0.0623781092134,0.573822979239,0.818942667177,0.00639087437461,0.0,0.818943423835,-0.573728601811,-0.012161698984,0.0,-0.00629322794817,0.0122126620168,-0.99990561863,0.0,0.251306205539,-0.277758806004,0.304874252614,1.0,-0.014272173913,-0.0187577142857,3.569
-0.70715651216,-0.506836563678,-0.125431616805,-2.63094135271,-0.0665427912935,2.11325782779,-0.955973925383,-0.0661984973732,0.0134901403315,-0.00165367483688,0.0119585517036,-0.000478663340171,4.0541749883e-05,-0.0538609094271,0.573875218716,0.818906036805,0.00639399157791,0.0,0.818907006052,-0.573781149278,-0.012134870114,0.0,-0.00626868724782,0.0122002206326,-0.999905924663,0.0,0.251077379409,-0.278063134441,0.304883962313,1.0,-0.013952173913,-0.0183371428572,3.585
