nelsonifechukwu/NELSON_IML_WORK/CNN-GradCAM/train2dof/data_sample_2022-02-21-14-05-21/robot_state.csv
position_joint1,position_joint2,position_joint3,position_joint4,position_joint5,position_joint6,position_joint7,velocity_joint1,velocity_joint2,velocity_joint3,velocity_joint4,velocity_joint5,velocity_joint6,velocity_joint7,ee_T_00,ee_T_10,ee_T_20,ee_T_30,ee_T_01,ee_T_11,ee_T_21,ee_T_31,ee_T_02,ee_T_12,ee_T_22,ee_T_32,ee_T_03,ee_T_13,ee_T_23,ee_T_33,v_x,v_y,time
0.465106290624,0.547772067119,-0.123987911238,-1.35576144987,0.0794967028035,1.89409126643,0.159173966256,0.00154302629762,-0.00110452918335,0.000529077623954,0.00067948133128,0.000185555473538,-0.000719901370143,0.00176364817721,0.573785862308,0.818991162353,0.00200177523423,0.0,0.818948778152,-0.573727166964,-0.0118652244894,0.0,-0.00856920614592,0.00844761209006,-0.999927600657,0.0,0.661683420081,0.260919865983,0.303254061769,1.0,0.0,0.0,0.0
0.465100699482,0.547774908081,-0.123990273886,-1.35576422542,0.0794967013431,1.89409314599,0.159166942825,-0.000444398656684,-0.000980598866764,-6.01147239719e-06,0.000304510884717,-8.07305022348e-06,0.000127174492855,-0.00112139360641,0.573786509678,0.818990717997,0.00199801089636,0.0,0.818948295928,-0.573727840533,-0.0118659384688,0.0,-0.00857194402583,0.00844494562827,-0.999927599714,0.0,0.661685084579,0.260914558958,0.303250969612,1.0,-0.00016,-0.000210285714286,0.009
0.465100349547,0.547769668345,-0.123991218742,-1.3557645496,0.0794955920474,1.89409197851,0.159175487747,0.000770392407744,-0.00126196743671,-0.00329634923301,0.000416845920521,-0.000342524043793,0.000144527833508,0.00271477923975,0.573794160604,0.818985351705,0.00200046280415,0.0,0.818942975649,-0.573735494447,-0.0118630496851,0.0,-0.00856809236487,0.00844537619741,-0.999927629088,0.0,0.661685287148,0.260913552628,0.303254455071,1.0,-0.00048,-0.000630857142857,0.025
0.465097130171,0.547753754517,-0.123991359768,-1.35578535179,0.0794949261215,1.89409562886,0.159169574456,0.000398854761864,-0.00369373156766,-0.00135175949583,-0.00309858262853,-0.000120734357042,0.000663292736987,0.0018895656903,0.573793009726,0.818986159234,0.00199996842341,0.0,0.818943766498,-0.573734335622,-0.0118644992583,0.0,-0.00856957511503,0.00844579101953,-0.999927612878,0.0,0.661682576964,0.260909220193,0.303256148248,1.0,-0.00082,-0.00107771428571,0.042
0.465096616619,0.547667332809,-0.123986047134,-1.35588330429,0.0794919254662,1.89411353507,0.159171094158,-0.0013760975714,-0.00635798261727,0.000495890193955,-0.00711925921936,-0.000116825187318,0.00175779051178,-4.50076442202e-05,0.573795487029,0.818984400176,0.00200953606312,0.0,0.818942055441,-0.573736698238,-0.011868353976,0.0,-0.00856721712178,0.00845586434553,-0.99992754795,0.0,0.661665061268,0.260902193406,0.303272122579,1.0,-0.00118,-0.00155085714286,0.06
0.465096012201,0.547549840271,-0.123988552825,-1.35603694192,0.0794894550067,1.89414419716,0.159165997251,-8.49550106954e-05,-0.00897778416805,-0.000791816673797,-0.0141379291059,0.000189909382136,0.00250181760966,-0.000111286797258,0.57380129638,0.818980330392,0.00200937942207,0.0,0.818937900357,-0.573742425346,-0.0118781992587,0.0,-0.0085753104316,0.00846144600729,-0.999927431358,0.0,0.661639930405,0.260885329265,0.303284968928,1.0,-0.00148,-0.00194514285714,0.075
0.465078011873,0.547384368999,-0.123986048112,-1.35625173948,0.0794868901827,1.89422434014,0.159161114221,-0.00153304058022,-0.016519965982,0.000633447908031,-0.011374618405,-2.60121746461e-07,0.0128262318002,-0.000218615811933,0.57382159648,0.818966025567,0.00204237141089,0.0,0.818923921187,-0.573762486026,-0.0118729877301,0.0,-0.00855190212541,0.00848568695435,-0.99992742641,0.0,0.661615304984,0.260856577272,0.303306820094,1.0,-0.00184,-0.00241828571429,0.093
0.465067006313,0.547200131612,-0.123988257901,-1.35646022135,0.0794861794475,1.89435091302,0.159148494898,-0.00191039206566,-0.0146226011496,0.000265537568124,-0.0165735453811,-0.000638504968103,0.00638312430873,-0.000684929845685,0.573833554477,0.818957411554,0.00213464734518,0.0,0.818916481616,-0.573774046877,-0.0118273483575,0.0,-0.00846145225969,0.00853519157033,-0.999927774557,0.0,0.661601037435,0.260834187284,0.303349157275,1.0,-0.00218,-0.00286514285714,0.11
0.465049873465,0.547023925139,-0.12399100812,-1.35668117765,0.0794829721526,1.89445836898,0.159136036107,0.000124340466863,-0.0130452662821,-0.00143840182313,-0.0178346599301,0.00010269609987,0.00523535713809,0.000291287165546,0.573850936886,0.818945078569,0.00219258373484,0.0,0.818904862588,-0.573791160033,-0.0118015930675,0.0,-0.00840693325676,0.00856803768192,-0.999927953506,0.0,0.661581733297,0.260804132825,0.303378214351,1.0,-0.00248,-0.00325942857143,0.125
0.46501135745,0.546783348804,-0.123985760181,-1.35703595918,0.0794760414962,1.89459793232,0.159105381858,-0.00443729905958,-0.0149292184037,0.000450292096036,-0.0227210960478,-0.00428749643319,0.0077252910636,-0.00438646855443,0.57387176344,0.818930402199,0.00222314688391,0.0,0.818890440728,-0.573811719401,-0.0118026972944,0.0,-0.00839008144144,0.00859391390072,-0.999927872987,0.0,0.661543768085,0.260751090736,0.303391672608,1.0,-0.00284,-0.00373257142857,0.143
0.464974022088,0.546520922678,-0.123990920744,-1.35743033782,0.079468226941,1.89473255111,0.158980285337,-0.000812331858149,-0.0169098542434,-0.00198271963612,-0.0229096135846,-1.7252510241e-05,0.00554141875729,-0.0144233757198,0.57382340842,0.818964254604,0.00223439706923,0.0,0.818924299815,-0.573763183636,-0.0118130088798,0.0,-0.00839257881904,0.00860854881576,-0.999927726142,0.0,0.661498413811,0.260687909314,0.303401655977,1.0,-0.00318,-0.00417942857143,0.16
0.464926794395,0.546240240198,-0.123990775241,-1.35789216428,0.0794524396856,1.89489863065,0.15893075537,-0.00109977207573,-0.00830922675081,-0.000433097325782,-0.0299803489916,-0.00325858578065,0.0138420336781,-0.00110333539758,0.573843071054,0.818950495496,0.00222769641532,0.0,0.81891033558,-0.573782749021,-0.0118307273112,0.0,-0.008410728153,0.00861343034731,-0.999927531609,0.0,0.661446112371,0.260614332564,0.303394991044,1.0,-0.00352,-0.00462628571429,0.177
0.464879282025,0.545952312963,-0.123988208578,-1.35836841224,0.0794361619199,1.89506780326,0.158910024528,-8.0736964686e-05,-0.0183930183717,9.15832122607e-05,-0.0267347054121,-0.000873009143986,0.0133107789044,0.000800041877967,0.573885509029,0.818920783673,0.00221799366228,0.0,0.818880363047,-0.573825082241,-0.0118521267243,0.0,-0.00843337487821,0.00861820116076,-0.999927299756,0.0,0.661390814673,0.260540484822,0.303386762058,1.0,-0.00384,-0.00504685714286,0.193
0.464812147911,0.54558663656,-0.123991749099,-1.35899772518,0.0793534462347,1.89526678376,0.158800494507,-0.00315684448419,-0.0229594185135,-0.000772717413735,-0.0361955369216,-0.0060648764444,0.0100067356645,-0.0117892102882,0.573866309743,0.818934451273,0.00213774690459,0.0,0.818893345968,-0.573806568248,-0.0118514583892,0.0,-0.00847907760616,0.00855190405707,-0.999927482461,0.0,0.661318540196,0.260424235697,0.303363371255,1.0,-0.0042,-0.00552,0.211
0.464754574392,0.545229839287,-0.123989483136,-1.35964378346,0.0793033546897,1.89547828153,0.158737962622,-0.00364517969493,-0.0226214859549,0.00117610191205,-0.0372753442036,-0.000257362741114,0.0119216944893,-0.00128579718572,0.573883349166,0.818922697521,0.00206493017869,0.0,0.818880686951,-0.573823940896,-0.0118849608555,0.0,-0.00854812240875,0.00851167645984,-0.999927237836,0.0,0.661238954072,0.260321704669,0.303326655576,1.0,-0.00452,-0.00594057142857,0.227
0.464685739859,0.544795256586,-0.12399457049,-1.36035195697,0.0792873159897,1.89571951267,0.158648567395,-0.00164252559487,-0.0299055463939,-0.000271139839291,-0.0436417676417,-0.000649847562034,0.0101366693745,-0.00433615003645,0.573905227572,0.818907400584,0.00205083791684,0.0,0.81886495503,-0.57384562422,-0.0119219079587,0.0,-0.00858623960364,0.0085215686653,-0.999926827001,0.0,0.661155710907,0.260208661389,0.303318289341,1.0,-0.00486,-0.00638742857143,0.244
0.464614093172,0.544353677972,-0.123995636017,-1.36108551836,0.0792602307558,1.89598111688,0.158556371284,-0.000853758881671,-0.0285177345946,0.000414918377945,-0.0475989216159,-0.00124858909996,0.0158967283514,-0.00348677500771,0.573922842158,0.81889509906,0.00203344188667,0.0,0.818852253902,-0.573863137286,-0.0119512696291,0.0,-0.00862008474955,0.00852435922532,-0.999926512019,0.0,0.661071212725,0.260092765588,0.303304366715,1.0,-0.0052,-0.00683428571429,0.261
0.464556776814,0.543882531297,-0.123995987607,-1.36184198758,0.0792182364734,1.89625317891,0.158458088538,-0.0060346285933,-0.0358251343909,-8.06807998181e-06,-0.0505196061911,-0.00389647372907,0.0196269722072,-0.00405957217409,0.573920494701,0.818896768381,0.00202370890749,0.0,0.818853745247,-0.573860780221,-0.0119622623637,0.0,-0.00863469706428,0.0085226732396,-0.999926400315,0.0,0.660981158343,0.259982729834,0.303301274823,1.0,-0.00552,-0.00725485714286,0.277
0.464471984167,0.543328041979,-0.124001371676,-1.36273740961,0.0791630276565,1.89656297247,0.158341660223,-0.00528334987136,-0.0312536058061,-0.000479258088074,-0.0483027306612,-0.00027771740278,0.0214861863926,-0.00380697115706,0.573933399798,0.818887793668,0.0019952139941,0.0,0.81884439688,-0.573873801187,-0.0119775169065,0.0,-0.00866340815169,0.00850823060876,-0.999926274968,0.0,0.660877755673,0.259836643928,0.303294378404,1.0,-0.00588,-0.007728,0.295
0.464406767458,0.542805555107,-0.12401051057,-1.36357846606,0.0791170012686,1.89685933136,0.158243736821,-0.00630936232633,-0.0342193340925,-0.00137778705419,-0.056292120322,-0.00373608855243,0.0265142765068,-0.00604857713194,0.573947471796,0.818877976583,0.00197635729592,0.0,0.818834307183,-0.573887924949,-0.011990574581,0.0,-0.00868477707229,0.00850043278296,-0.999926155918,0.0,0.660778480129,0.259707934346,0.30328962738,1.0,-0.0062,-0.00814857142857,0.311
0.464341746852,0.542213852002,-0.124002956037,-1.36450093341,0.0790681747765,1.89719509854,0.158108628389,-0.00544647744776,-0.030203694227,0.00063889138081,-0.0592691578198,-0.00223058556679,0.0181636258601,-0.0155334757892,0.573923000608,0.818895103641,0.00198632993825,0.0,0.818851444314,-0.573863296968,-0.0119989766088,0.0,-0.0086861885825,0.00851316170314,-0.999926035367,0.0,0.660666278238,0.25958250288,0.303297881699,1.0,-0.00654,-0.00859542857143,0.328
0.464250015544,0.541574972959,-0.124008417831,-1.36546386659,0.0790134779378,1.89754250397,0.157985450072,-0.0045379518437,-0.0399478751186,-0.000154228078479,-0.0576862414171,-0.00340772180879,0.0215350108138,-0.00855619355759,0.573939852082,0.818883241706,0.00200737293953,0.0,0.818839835444,-0.573880036206,-0.0119906144537,0.0,-0.00866708884696,0.00852577256093,-0.999926093656,0.0,0.660558402547,0.259427547489,0.303321576959,1.0,-0.00688,-0.00904228571429,0.345
0.464177776643,0.540905212208,-0.124008055196,-1.36648419488,0.0789497525014,1.89792675222,0.157848765623,-0.000878244655357,-0.0422243626769,9.82982188996e-05,-0.0619086577972,-0.00482312469223,0.0249722938321,-0.00873470303651,0.573926418982,0.818892588845,0.00203480466427,0.0,0.818849558723,-0.573866507536,-0.01197408068,0.0,-0.00863794598814,0.00853860454132,-0.99992623634,0.0,0.66043938688,0.259283483281,0.303342686183,1.0,-0.00722,-0.00948914285714,0.362
0.464086088958,0.540245409959,-0.124006941659,-1.36749436015,0.0788900847075,1.89829628173,0.1577276467,-0.00305082316037,-0.0407931050046,-0.000305358598486,-0.0667349043681,-0.00859167736948,0.022088566529,-0.00817097613718,0.57394150875,0.81888196954,0.00205216891933,0.0,0.818839135417,-0.573881492709,-0.0119686898548,0.0,-0.00862340858569,0.00854988874848,-0.999926265395,0.0,0.660323981606,0.259127750933,0.303360199178,1.0,-0.00754,-0.00990971428571,0.378
0.463986978135,0.539501485521,-0.12400840158,-1.36864262971,0.0788226201018,1.89874296422,0.157583915226,-0.00227526565348,-0.0410944435736,0.00554774878429,-0.0665725468585,-0.00501470760678,0.0241455380631,-0.012444086865,0.573951635897,0.818874781606,0.00208772683582,0.0,0.818832423082,-0.573891482951,-0.0119488747122,0.0,-0.00858666884058,0.00856773956745,-0.999926428772,0.0,0.660197016492,0.258954317384,0.303378095749,1.0,-0.00788,-0.0103565714286,0.395
0.463881831258,0.53875951525,-0.124016491134,-1.3698050889,0.0787515404455,1.89919785079,0.157434387065,-0.00619131163251,-0.0453645705317,5.53877578766e-05,-0.0701334642633,-0.000302659992917,0.0303117839979,-0.0126462188238,0.57396127966,0.818867965458,0.002109857479,0.0,0.818825942337,-0.573901081447,-0.0119319642682,0.0,-0.00856001862224,0.00857625663822,-0.999926584257,0.0,0.660061815412,0.258764237485,0.303385917149,1.0,-0.00824,-0.0108297142857,0.413
0.463762235593,0.537971722118,-0.124022465645,-1.371039465,0.0786787870433,1.89966702058,0.157283859483,-0.00505367625732,-0.0450345651093,-0.00158179618385,-0.0754302022835,-0.00164945276493,0.0305064765205,-0.00944738470429,0.5739939853,0.818844986694,0.00213061180815,0.0,0.818803278822,-0.573933743298,-0.0119161988676,0.0,-0.00853485401499,0.00858454369112,-0.999926728254,0.0,0.659936285215,0.258572800365,0.303398404601,1.0,-0.00856,-0.0112502857143,0.429
0.463657184034,0.537217386138,-0.124023586245,-1.3722335354,0.0786218277085,1.90010043576,0.157148123696,-0.0106219052655,-0.048522435922,-5.03137024577e-05,-0.0784709962167,-0.00157587295591,0.0317640776428,-0.00765387797408,0.574020183601,0.818826615995,0.00213275814821,0.0,0.818784781131,-0.573959773718,-0.0119334506094,0.0,-0.00854747416084,0.00859647693219,-0.999926517935,0.0,0.659796477044,0.258391177443,0.303400337178,1.0,-0.00888,-0.0116708571429,0.445
0.463522686787,0.536279398582,-0.12403538221,-1.37371074522,0.0785370492965,1.90065907551,0.156951222153,-0.0088654643692,-0.0490457600181,-0.000856651377518,-0.0815896814604,-0.00536207003282,0.0316113439379,-0.00522870019155,0.574036056483,0.818815449333,0.00214771792364,0.0,0.818773827826,-0.573975602174,-0.0119236688328,0.0,-0.00853071080708,0.00860327670073,-0.999926602608,0.0,0.659632127278,0.258156744705,0.30340819111,1.0,-0.00926,-0.0121702857143,0.464
0.463413252123,0.535506825535,-0.124036819859,-1.3749200565,0.0784468233709,1.90110419898,0.156803950159,-0.0032804951933,-0.0531774519818,0.00161267434098,-0.0804053322281,-0.00694443775385,0.0349203123871,-0.00860822535726,0.574048286243,0.818806883684,0.002144573214,0.0,0.818765365964,-0.573987989147,-0.0119084303534,0.0,-0.00851990951525,0.00859208173283,-0.999926790957,0.0,0.659494082041,0.257965937329,0.30341641668,1.0,-0.00956,-0.0125645714286,0.479
0.463297902135,0.534613643075,-0.124037149753,-1.3763634097,0.0783824909553,1.90162026444,0.156623954917,-0.00447235384762,-0.0488101597214,-0.00191648710995,-0.0792557472873,-0.000321753330931,0.0205374629294,-0.0138359487858,0.574057487079,0.818800477753,0.00212745428024,0.0,0.81875848576,-0.573997005791,-0.0119468088032,0.0,-0.00856106519594,0.00860019186556,-0.999926369721,0.0,0.659318528897,0.257754673896,0.303404392574,1.0,-0.0099,-0.0130114285714,0.496
0.463168995957,0.533642401017,-0.124045331894,-1.37793260343,0.0782894427846,1.90219792261,0.156434448127,-0.00737531221065,-0.0529485427124,0.00052892139974,-0.0837563237705,-0.00249618967724,0.0308520700684,-0.0164915650887,0.574074627382,0.818788511502,0.00210773112229,0.0,0.818746258956,-0.574014221711,-0.0119575758252,0.0,-0.00858102328263,0.00859040324937,-0.999926282789,0.0,0.659134547987,0.257515559736,0.303392905828,1.0,-0.01026,-0.0134845714286,0.514
0.463051720529,0.532815035562,-0.12404958185,-1.37927187631,0.0782104668352,1.90271874103,0.156256655436,-0.0069333071526,-0.0540271126068,-0.00221844633457,-0.0881495980987,-0.00313657879016,0.0355564519385,-0.0171908908031,0.574080309144,0.818784513951,0.00211311789304,0.0,0.818742349538,-0.574019898475,-0.011952745653,0.0,-0.00857391639586,0.00859210045273,-0.99992632917,0.0,0.658983915554,0.257310229819,0.303384158366,1.0,-0.01056,-0.0138788571429,0.529
0.462925067264,0.531834306395,-0.124041790381,-1.38082159093,0.0781245997437,1.90328735122,0.156076033104,-0.00866903959338,-0.0643731277668,0.000727482414495,-0.0952775632569,-0.0023899682609,0.027173075613,-0.0101469459902,0.574092132249,0.818776211041,0.00211821237796,0.0,0.818733976959,-0.574031562655,-0.0119660749791,0.0,-0.00858178199695,0.00860404759822,-0.999926158965,0.0,0.658797506118,0.257084908465,0.303386936951,1.0,-0.0109,-0.0143257142857,0.546
0.462788565772,0.53076959232,-0.124038559138,-1.38255249874,0.0780117819918,1.90389189616,0.155844846921,-0.00917716531482,-0.0622943287519,0.00184410944043,-0.0971500975642,-0.0169592172972,0.0357412304415,-0.00892828932157,0.574076061203,0.818787622768,0.00206195458681,0.0,0.818744627582,-0.574015700922,-0.0119981999355,0.0,-0.00864054965262,0.00857625872032,-0.999925891598,0.0,0.658582799609,0.256828173525,0.303365680663,1.0,-0.01126,-0.0147988571429,0.564
0.462658140194,0.529808763381,-0.124046768386,-1.3840901312,0.077919813666,1.90445497065,0.155644312956,-0.0100687150611,-0.0569633770166,0.000984226213599,-0.0995120212822,-0.00489409477724,0.0333369288945,-0.0129458365851,0.574083287834,0.818782590748,0.00204807693584,0.0,0.818739411915,-0.574022982538,-0.0120057401697,0.0,-0.00865461443699,0.00856930108112,-0.999925829613,0.0,0.658401657376,0.256590934871,0.303359781964,1.0,-0.01158,-0.0152194285714,0.58
0.462517430077,0.528727122987,-0.124049250917,-1.38576913569,0.0778060649684,1.90508323108,0.155422296499,-0.00350006323717,-0.0668334687872,0.000464290049585,-0.108291484999,-0.00363901612733,0.045849247031,-0.0126625300381,0.574078912889,0.818785611693,0.0020665821633,0.0,0.818742784357,-0.574018639594,-0.0119833785912,0.0,-0.00862572735991,0.00857156921812,-0.999926059781,0.0,0.658205746902,0.256335995916,0.303376877398,1.0,-0.01192,-0.0156662857143,0.597
0.462391651731,0.527756054059,-0.124044524824,-1.38727960525,0.0777231726771,1.90567083295,0.155201881363,-0.00816110827785,-0.0694461719704,0.000719042471015,-0.104945136685,-0.00352674153426,0.0342191878177,-0.0112243371542,0.574055014023,0.818802244027,0.00211493582196,0.0,0.818759997954,-0.573994493447,-0.0119638682658,0.0,-0.00858224590235,0.00859970898542,-0.999926192307,0.0,0.658005909195,0.256083857556,0.303395497409,1.0,-0.01226,-0.0161131428571,0.614
0.462242147306,0.526598375876,-0.124047703721,-1.38905627851,0.0776078654642,1.90634359287,0.154960076002,-0.0062091595959,-0.0735926133253,0.00074942765005,-0.108887028087,-0.00301158787184,0.0400936805602,-0.00948191878494,0.574049379582,0.818806096129,0.00215259049856,0.0,0.818764394256,-0.57398875863,-0.0119381139959,0.0,-0.00853960218183,0.00861569726723,-0.999926419771,0.0,0.657824277415,0.255846949321,0.303419874722,1.0,-0.01256,-0.0165074285714,0.629
0.462079561326,0.525341870937,-0.124053161964,-1.3910071812,0.0774853791272,1.90705059685,0.154691585288,-0.0107103351792,-0.0679076913237,0.000690325909457,-0.10791765737,-0.00455021558958,0.0437866467108,-0.0199218412034,0.574038516512,0.818813691833,0.00216021505222,0.0,0.818772104202,-0.573977880854,-0.0119323330632,0.0,-0.00853060627038,0.00861850852695,-0.999926472331,0.0,0.657590124095,0.255549940095,0.303436699233,1.0,-0.01292,-0.0169805714286,0.647
0.461911292649,0.524098664652,-0.12406725915,-1.39299287736,0.0773616458719,1.90775555759,0.154427636755,-0.00785249307208,-0.0714136094237,-0.0010823501607,-0.112406106323,-0.00319094542802,0.0379678379344,-0.0171350298022,0.574043372928,0.818810384028,0.00212318320322,0.0,0.818768333505,-0.573982908093,-0.0119492329388,0.0,-0.0085656500574,0.00859793869011,-0.999926349833,0.0,0.657349842575,0.255239570959,0.303427387249,1.0,-0.01328,-0.0174537142857,0.665
0.461775024216,0.52303829865,-0.124069397278,-1.39469133778,0.0772513242627,1.90839664959,0.154189316109,-0.012920494998,-0.0712635902196,-0.00155304114487,-0.112818830869,-0.0133791434148,0.0403661783979,-0.0152612692069,0.574022757439,0.818824845525,0.00211971566455,0.0,0.818782811322,-0.573962371174,-0.011943670357,0.0,-0.00856330187614,0.00859169075998,-0.999926423649,0.0,0.657147343853,0.254986742059,0.303420018736,1.0,-0.01358,-0.017848,0.68
0.461605823217,0.521725353152,-0.124066639112,-1.39676453418,0.0771279295044,1.90921075032,0.153916487132,-0.00372871789416,-0.0730334760919,0.00165405029724,-0.11739873632,-0.00795907477712,0.0404070136448,-0.0144086516966,0.574013938337,0.81883091035,0.00216465964351,0.0,0.818789460514,-0.573953368448,-0.0119204487852,0.0,-0.0085185822457,0.00861507012242,-0.999926604468,0.0,0.656905190956,0.254683583151,0.303426343153,1.0,-0.01394,-0.0183211428571,0.698
0.461436281662,0.520465238978,-0.1240777726,-1.3987984542,0.0769989325907,1.90995258826,0.153636021937,-0.00569839110846,-0.0812807633707,0.00132301878008,-0.122801004137,-0.01179143904,0.0483428731545,-0.0158788969358,0.574004688922,0.818837482993,0.00213083122413,0.0,0.818795638096,-0.573944304017,-0.0119325531037,0.0,-0.00854800788088,0.0085942222096,-0.999926532754,0.0,0.65665927985,0.254370369952,0.303408058384,1.0,-0.01428,-0.018768,0.715
0.461268306327,0.519217557756,-0.124087208137,-1.40073927813,0.0768766488059,1.91064294241,0.153379451655,-0.0112686460266,-0.0817513481608,-0.00101128520372,-0.122717541819,-0.00737393421102,0.045555464353,-0.0172416406035,0.574008886405,0.818834556181,0.00212481383678,0.0,0.818792646289,-0.573948539068,-0.0119341437197,0.0,-0.00855272014505,0.00859025187998,-0.999926526576,0.0,0.656422905933,0.254067717356,0.303420432597,1.0,-0.0146,-0.0191885714286,0.731
0.461091868486,0.517857888316,-0.124085114535,-1.40285357291,0.0767400905629,1.91139809047,0.153086953527,-0.0129515950416,-0.0804886611934,0.00138442845943,-0.129607706735,-0.013546048409,0.0462053163345,-0.0210574631023,0.573987440894,0.818849595318,0.00212246185578,0.0,0.818807641064,-0.573927092105,-0.0119367828221,0.0,-0.00855645616061,0.00858961678671,-0.99992650007,0.0,0.656160995444,0.253749261955,0.303433706416,1.0,-0.01494,-0.0196354285714,0.748
0.460917984284,0.516520690612,-0.124093300778,-1.40498713234,0.0765985301571,1.91219442079,0.152800377615,-0.0127309956587,-0.0816596321983,0.000723287272765,-0.129976307396,-0.0120382427815,0.0494487399853,-0.0168147973238,0.573975669506,0.818857867325,0.00211443550057,0.0,0.818815909389,-0.573915456295,-0.0119290593856,0.0,-0.0085548616202,0.00857848843718,-0.999926609246,0.0,0.655888123876,0.253404693171,0.303427915409,1.0,-0.0153,-0.0201085714286,0.766
0.460738600282,0.515213774484,-0.124102232048,-1.40704343131,0.0764790113341,1.91296933063,0.15252164068,-0.0152183440498,-0.0760028156824,-0.00136827471108,-0.127838400868,-0.00453307771327,0.0457482486923,-0.0153962087276,0.573977065662,0.818856837533,0.00213415579577,0.0,0.818815123667,-0.573916758877,-0.0119203202523,0.0,-0.00853637231854,0.00858963485908,-0.999926671572,0.0,0.655658531167,0.253109430157,0.30343075285,1.0,-0.0156,-0.0205028571429,0.781
0.460555575189,0.513802646584,-0.124095424268,-1.40930005886,0.0763382334426,1.91375898298,0.152211343377,-0.0100038439785,-0.0831154441687,-8.6601430679e-05,-0.136050234105,-0.0102095684515,0.0496272208098,-0.0163874657442,0.573948424491,0.81887703363,0.00208727540486,0.0,0.8188345912,-0.573888195977,-0.0119581634741,0.0,-0.00859456818883,0.00857266743905,-0.999926318671,0.0,0.655369523517,0.252775041242,0.303414006286,1.0,-0.01594,-0.0209497142857,0.798
0.460346274109,0.512316341349,-0.124100417139,-1.41169545375,0.0761951557527,1.91461212096,0.151864569029,-0.0106810345822,-0.0860991878612,-0.000397539482602,-0.133291038551,-0.0121123457982,0.0464308520849,-0.0155973806773,0.573926282786,0.818892670631,0.00204029792,0.0,0.818849508705,-0.573866147141,-0.0119947555873,0.0,-0.00865172610258,0.00855496714615,-0.999925977347,0.0,0.655070679436,0.252405048666,0.303389332173,1.0,-0.0163,-0.0214228571429,0.816
0.46017652678,0.511043143603,-0.124101091536,-1.41373025752,0.0760691396537,1.91538355657,0.151575429051,-0.0102860822872,-0.08584354224,0.00079766014228,-0.13259694757,-0.00732524387185,0.0535943234645,-0.0220554102955,0.573901512086,0.818910017201,0.00204574057455,0.0,0.818866929225,-0.57384135956,-0.0119913794888,0.0,-0.008646096695,0.008557224876,-0.99992600672,0.0,0.65482307327,0.252100707544,0.303379349185,1.0,-0.0166,-0.0218171428571,0.831
0.459961685225,0.509477078765,-0.124109583994,-1.41622623356,0.0759123926989,1.91631627101,0.151233328682,-0.0144187316674,-0.0921175889321,-0.00111891572418,-0.139812121086,-0.00987011073211,0.0497595830006,-0.0156308662112,0.573891191726,0.818917258583,0.00204219398865,0.0,0.818874164719,-0.573831095352,-0.0119884638066,0.0,-0.00864585196112,0.00855253834043,-0.999926048932,0.0,0.654519292147,0.251717458671,0.303368673795,1.0,-0.01696,-0.0222902857143,0.849
0.459748645628,0.507961019561,-0.12411349149,-1.41860715029,0.0757584780307,1.91716237368,0.150901128575,-0.0132159098507,-0.0904113104804,-0.000213610632714,-0.143408309797,-0.00737694313942,0.0508938872706,-0.0183341833204,0.57387817019,0.818926434298,0.0020218528264,0.0,0.818883069779,-0.573818155954,-0.0119995345107,0.0,-0.00866672701098,0.00854209641908,-0.999925957475,0.0,0.65422169125,0.251345801208,0.303369528184,1.0,-0.0173,-0.0227371428571,0.866
0.459547326456,0.506504160494,-0.124116213998,-1.4208812891,0.0756186365589,1.91799604573,0.150588345998,-0.0141968190677,-0.0961098261077,-0.000617168403009,-0.144847011923,-0.0106148823889,0.052486312544,-0.0240012948783,0.573868738872,0.818933011056,0.00203490775403,0.0,0.818889780992,-0.573808635309,-0.0119968134458,0.0,-0.00865710559307,0.00855112600335,-0.999925963643,0.0,0.653940696746,0.250995854469,0.303378184678,1.0,-0.01762,-0.0231577142857,0.882
0.459317948617,0.504899840804,-0.124119892922,-1.4233513475,0.0754729718719,1.91895236311,0.150253941135,-0.016623979377,-0.0984031882518,0.000726302914556,-0.149337739493,-0.00567630810656,0.0533422116658,-0.0154761087085,0.573873801338,0.818929266908,0.00211254356615,0.0,0.818887039263,-0.573813363102,-0.0119577653897,0.0,-0.0085805235177,0.0085923482552,-0.999926270366,0.0,0.653647747531,0.250613071577,0.303406786579,1.0,-0.01796,-0.0236045714286,0.899
0.459096705014,0.50324260916,-0.124130515157,-1.42582518894,0.0753110832654,1.91989885483,0.149899313889,-0.0112777596754,-0.0961977743368,-0.000431459426199,-0.147146191427,-0.0141042909326,0.0514275527929,-0.0253696986583,0.57385558092,0.818941763244,0.00221530184063,0.0,0.818901029353,-0.573794884444,-0.0118861941733,0.0,-0.00846313489247,0.00863523807496,-0.999926901334,0.0,0.653352653305,0.250228649715,0.303469196183,1.0,-0.0183,-0.0240514285714,0.916
0.458877757789,0.501640987164,-0.124128453897,-1.42819167143,0.0751570586731,1.92075690441,0.149574599156,-0.0149554491489,-0.0988891202784,0.00602312246161,-0.152252838193,-0.00499813876558,0.054056129423,-0.0199604958713,0.573846711749,0.818947764294,0.00229296183055,0.0,0.818908057437,-0.573785726831,-0.0118439879831,0.0,-0.00838410012848,0.00867452548804,-0.999927227088,0.0,0.653059337736,0.249860588291,0.303535159336,1.0,-0.01862,-0.024472,0.932
0.458641262024,0.499934430194,-0.124126988127,-1.43079855508,0.0749899559788,1.9216768688,0.149207042636,-0.0102402331278,-0.0959025769665,0.000750379539866,-0.149531666572,-0.00909691673131,0.0561866354325,-0.0227068752868,0.573825794119,0.818962376233,0.00230894343784,0.0,0.818922823499,-0.57376469387,-0.0118419644742,0.0,-0.00837349435598,0.00868623838474,-0.999927214279,0.0,0.652727382084,0.24945582663,0.303564779598,1.0,-0.01896,-0.0249188571429,0.949
0.458373490955,0.498148052256,-0.124132370206,-1.43358336371,0.074809486698,1.92271954043,0.148797593179,-0.0164957384738,-0.0954722698313,-0.000499260755978,-0.15249183382,-0.0132173365977,0.0602677887656,-0.0286223953004,0.573806426897,0.81897585883,0.00233965932914,0.0,0.818936775368,-0.573745282907,-0.0118175798223,0.0,-0.00833610457644,0.00869720376702,-0.99992743137,0.0,0.652387929287,0.24901279946,0.303575617233,1.0,-0.01932,-0.025392,0.967
0.458127768508,0.496576803314,-0.124129862653,-1.43609785643,0.0746539345962,1.92360748349,0.148432184708,-0.0157452418698,-0.0945421360756,0.000679528035288,-0.153329946613,-0.00874878266126,0.0556402460064,-0.0180393736263,0.573791747131,0.818986274151,0.00229359472505,0.0,0.81894646527,-0.573730652593,-0.0118563146503,0.0,-0.00839441498074,0.0086815539374,-0.99992707955,0.0,0.652067369022,0.248611740503,0.303550914438,1.0,-0.01964,-0.0258125714286,0.983
0.457854285839,0.494888035259,-0.124134502199,-1.43883583824,0.0744894960726,1.92454577804,0.148036926559,-0.0190348898832,-0.0984926882677,-0.00031693864863,-0.162207539781,-0.00767444397156,0.055218117702,-0.0248380996305,0.573788810395,0.818988582495,0.00220220572371,0.0,0.818947383965,-0.573727875431,-0.0119270344971,0.0,-0.00850480200882,0.00864725603848,-0.999926443948,0.0,0.651713607941,0.24816561322,0.303505769336,1.0,-0.01998,-0.0262594285714,1.0
0.457573894955,0.493105707387,-0.124148547536,-1.44168428732,0.0743017909738,1.92558902425,0.147649333609,-0.0177003147706,-0.112524354932,-0.0020903370111,-0.175068369161,-0.0056223073627,0.0702103575109,-0.0221918138534,0.573803381246,0.818978454869,0.00217187303904,0.0,0.818936949641,-0.573742657392,-0.0119324139839,0.0,-0.00852645791922,0.00862565264255,-0.999926446111,0.0,0.651360203589,0.247701052372,0.303481844565,1.0,-0.0226222857143,-0.0297321469388,1.017
0.457294273601,0.491219493882,-0.124164711328,-1.44468369419,0.0741220231473,1.92669062393,0.147211531779,-0.017963021673,-0.11872922514,0.000831847285196,-0.198279066827,-0.0173202891164,0.0720469927557,-0.0332922645346,0.573787166121,0.818989844906,0.00216074898952,0.0,0.818948136165,-0.573726430545,-0.0119448762313,0.0,-0.00854321801044,0.00862352406966,-0.999926321415,0.0,0.650982887443,0.247224562864,0.303462746841,1.0,-0.0252645714286,-0.0332048653061,1.033
0.456945554302,0.488997479828,-0.124182068447,-1.44826458162,0.0739167882886,1.92796164535,0.146698014406,-0.0283443581027,-0.136738770036,0.000257986724679,-0.220935930147,-0.0088199537147,0.0746786794635,-0.0273627290938,0.573787760437,0.818989608107,0.00209157507759,0.0,0.818946754998,-0.57372706886,-0.012008740046,0.0,-0.00863520632009,0.00860352232377,-0.999925703548,0.0,0.650523475418,0.246645557915,0.303414315809,1.0,-0.028072,-0.0368946285714,1.05
0.456516400854,0.48631643969,-0.124218946985,-1.45241646817,0.0736550636015,1.92955261666,0.146093069174,-0.0208678407375,-0.152424314023,-0.00572433769025,-0.233978620542,-0.0137970042704,0.0920906558798,-0.0371120069231,0.57380564883,0.818976842731,0.00218067490956,0.0,0.818935364549,-0.573744800119,-0.0119381710563,0.0,-0.0085260989034,0.00863618806422,-0.999926358235,0.0,0.650025372113,0.245953873995,0.303439859258,1.0,-0.0310445714286,-0.0408014367347,1.068
0.456092872663,0.483728492332,-0.124244793952,-1.45640272414,0.0734094519856,1.93097595221,0.145472657282,-0.0254584166931,-0.165116937205,-0.00278865907588,-0.253957440987,-0.0203697239633,0.0804214373736,-0.0417165126187,0.573792664224,0.818985886286,0.00220078346604,0.0,0.818944612144,-0.573731676519,-0.0119345087761,0.0,-0.00851169893631,0.00865041989622,-0.999926357897,0.0,0.649524131565,0.245282520713,0.303463062423,1.0,-0.0336868571429,-0.044274155102,1.084
0.455609392624,0.480722557131,-0.124297637062,-1.46109409019,0.0731217886644,1.93261510501,0.144773980889,-0.028431861531,-0.180582393914,-0.0067819202998,-0.282839390131,-0.0106996381785,0.100673235586,-0.0396164610223,0.573805987155,0.81897666966,0.00215651560172,0.0,0.818934765398,-0.573745125017,-0.0119636299865,0.0,-0.008560808352,0.00863101428653,-0.999926106346,0.0,0.648923599333,0.244486773165,0.303458472906,1.0,-0.0364942857143,-0.0479639183673,1.101
0.45507173132,0.477466041438,-0.124333328681,-1.46606204641,0.0728190911332,1.93442825029,0.144051125966,-0.0286550960829,-0.195954946186,-0.0064905518097,-0.29660710405,-0.0159894395506,0.109721934627,-0.0494070872832,0.573839645427,0.818952857633,0.00224169852903,0.0,0.818912036003,-0.573778404169,-0.0119233845872,0.0,-0.00847861491537,0.00867803176935,-0.999926399718,0.0,0.648302501852,0.243646210563,0.303508000543,1.0,-0.0393017142857,-0.0516536816327,1.118
0.454559801277,0.474435737646,-0.124354529595,-1.47071467651,0.072533990758,1.93615799119,0.143392009834,-0.0326931973709,-0.208907520469,-0.00130721519609,-0.31610946542,-0.0220487869355,0.116847023001,-0.0433564026483,0.573881967362,0.818922949766,0.00233169138865,0.0,0.818883275467,-0.573820337334,-0.011880594431,0.0,-0.00839148105921,0.00872761002074,-0.999926703248,0.0,0.647722080898,0.242862837943,0.303541070287,1.0,-0.0417788571429,-0.054909355102,1.133
0.453907565289,0.470579537991,-0.124375947544,-1.47666986792,0.0721679209397,1.93823523597,0.142491103016,-0.0384558860806,-0.222938867386,-0.000307615375469,-0.331157552796,-0.0211057955982,0.12157345083,-0.0515124153714,0.573879126467,0.818924975291,0.00231947235796,0.0,0.818884855395,-0.57381724771,-0.0119208530537,0.0,-0.00843149338026,0.00874067780879,-0.999926252516,0.0,0.64694356394,0.24185692506,0.303552750746,1.0,-0.0447514285714,-0.0588161632653,1.151
0.453269296065,0.466654275865,-0.124377846997,-1.48254952787,0.0717927572406,1.94047759113,0.14152662725,-0.0362328597548,-0.234751318652,-0.00034910578897,-0.354410127157,-0.0279477542646,0.135959084081,-0.0638739839393,0.573790556193,0.818986313684,0.00256174211228,0.0,0.818949433325,-0.573727849113,-0.0117867599597,0.0,-0.00818360985746,0.00886123941048,-0.999927250837,0.0,0.646205358713,0.240891454065,0.303657883339,1.0,-0.0475588571429,-0.0625059265306,1.168
0.452569060895,0.462540905639,-0.124381960328,-1.48891538902,0.071371583961,1.94265498786,0.140583494545,-0.0425717964789,-0.249661479328,0.00030973421679,-0.383364629126,-0.0287577300923,0.132103045731,-0.0593886999582,0.573777670864,0.818995547297,0.00249496021554,0.0,0.818957576457,-0.573714977679,-0.0118473310476,0.0,-0.0082716745863,0.00884117080583,-0.999926703863,0.0,0.645348786255,0.239819795833,0.303652342513,1.0,-0.0503662857143,-0.0661956897959,1.185
0.45182668716,0.458241285092,-0.124389376374,-1.49555484737,0.0709079996941,1.94498568064,0.139596558144,-0.0438105066986,-0.262990019347,0.00121732112299,-0.393364774783,-0.0272243047932,0.146232641895,-0.0685853260202,0.573763404752,0.819005623923,0.0024678433088,0.0,0.818967372994,-0.573700894662,-0.011852102663,0.0,-0.00829129445529,0.00882155577125,-0.99992671461,0.0,0.644464784219,0.238693912292,0.303654046335,1.0,-0.0531737142857,-0.0698854530612,1.202
0.451018363645,0.4537948257,-0.124403989701,-1.50252510785,0.0704406287684,1.94745656115,0.13847768726,-0.0467018193178,-0.270385830392,-0.00290130295396,-0.410981956238,-0.0311151211401,0.143958978018,-0.0726944842314,0.573712473781,0.819041465304,0.00241297357225,0.0,0.81900243679,-0.573650115345,-0.0118869928039,0.0,-0.00835189823601,0.0087961166354,-0.999926434358,0.0,0.643484300985,0.237421439546,0.303607919895,1.0,-0.0561462857143,-0.0737922612245,1.22
0.450215327976,0.449290844985,-0.124466114614,-1.50924585607,0.0699732883222,1.94999598313,0.137440015674,-0.0540896462077,-0.282998482177,-0.00432344937214,-0.428308561162,-0.0229398916284,0.154055447131,-0.0585727787004,0.573742630842,0.819019605365,0.00265075144855,0.0,0.818984262297,-0.573680023858,-0.0116942394841,0.0,-0.00805728338076,0.00888057842559,-0.999928105171,0.0,0.642691901615,0.236305875774,0.3037208542,1.0,-0.0586234285714,-0.0770479346939,1.235
0.449310694507,0.444350445462,-0.124505865953,-1.51685126555,0.0694719242149,1.95251336471,0.136303167527,-0.0602961852424,-0.294243970421,-0.00102666431499,-0.453643004927,-0.0309997842742,0.145732603643,-0.0690803842967,0.57378460788,0.818990598309,0.00252399356587,0.0,0.818953277129,-0.573722095872,-0.0117997241179,0.0,-0.00821595041909,0.00883770303144,-0.999927193932,0.0,0.64163898907,0.234962931802,0.30370506908,1.0,-0.0614308571429,-0.0807376979592,1.252
0.448362501727,0.439256798546,-0.124524754852,-1.52477600173,0.0689181582013,1.95521645581,0.135011320749,-0.0579762443256,-0.301755560721,-0.000184251090564,-0.474491446082,-0.0388122607883,0.160184652339,-0.0803402487668,0.573714663261,0.819039975162,0.00239815499924,0.0,0.819000915987,-0.573652533037,-0.0118750938442,0.0,-0.00835062965273,0.00877717559488,-0.999926611394,0.0,0.640543455839,0.233575033242,0.303651931525,1.0,-0.0642382857143,-0.0844274612245,1.269
0.447402366655,0.434228547158,-0.124532203301,-1.53231410199,0.0684249557854,1.95796527589,0.133796823269,-0.0564006061729,-0.314121678481,-0.000742509329382,-0.471593238379,-0.033186119693,0.176464227204,-0.0786132152458,0.57370647696,0.819045090135,0.00260106164721,0.0,0.819008606587,-0.573643511377,-0.0117801143053,0.0,-0.00815651968467,0.00888879088839,-0.999927227644,0.0,0.639541140534,0.23224462978,0.303734850186,1.0,-0.0668805714286,-0.0879001795918,1.285
0.446303401045,0.428778496965,-0.124570716108,-1.54069308918,0.0678215297887,1.96090913047,0.132449036971,-0.0678076880684,-0.328606314567,-0.00401356151838,-0.502881420458,-0.0355966723678,0.169664570325,-0.0804944689631,0.573724727092,0.819032371206,0.00258056979961,0.0,0.818995866243,-0.573662100902,-0.0117606108411,0.0,-0.00815210284451,0.0088609998454,-0.999927510323,0.0,0.638405413715,0.230712900968,0.303716939929,1.0,-0.069688,-0.0915899428571,1.302
0.445024537134,0.422395193737,-0.124678564069,-1.55053156746,0.0671043429278,1.96410529504,0.130821910562,-0.0674274272097,-0.340969872966,-0.00269880721504,-0.524963602349,-0.0377069845869,0.175278568669,-0.0890926092616,0.573737687519,0.819024029993,0.00233476253771,0.0,0.818984464617,-0.573676135439,-0.0118695090874,0.0,-0.0083821769999,0.00872228687381,-0.999926827733,0.0,0.63708747481,0.228968254469,0.303659393184,1.0,-0.0726605714286,-0.0954967510204,1.32
0.444030255776,0.417508371168,-0.124728723399,-1.55785432762,0.0665932970202,1.96669932022,0.129678211064,-0.0717197143516,-0.345120038885,-0.00273832927942,-0.518380308926,-0.0338740053971,0.199367279245,-0.0869314257825,0.573814645555,0.818969822136,0.00243513426012,0.0,0.818931727784,-0.573752871541,-0.0117989206324,0.0,-0.00826595380263,0.00876477091666,-0.999927423766,0.0,0.636015712612,0.227511217442,0.303711762503,1.0,-0.0751377142857,-0.0987524244898,1.335
0.442682145026,0.411058686112,-0.124738138278,-1.56749820347,0.0659420862529,1.97014921,0.128012730607,-0.0762974264067,-0.363101235688,0.000710466742163,-0.54876106598,-0.0432325799346,0.182124478035,-0.0971488880692,0.57377854636,0.818994442674,0.00265132193321,0.0,0.818959024919,-0.573715842302,-0.0117044733619,0.0,-0.00806494851693,0.00888727084416,-0.999927983918,0.0,0.634689083924,0.225739236917,0.303788226565,1.0,-0.0781102857143,-0.102659232653,1.353
0.441345859693,0.404855590333,-0.124807139349,-1.57704920658,0.06524682819,1.97326834199,0.126476597868,-0.0781688988226,-0.369511096675,-0.00707629215352,-0.567763778188,-0.0355385941342,0.185590415415,-0.100052463959,0.573856454852,0.818940541837,0.00243003323031,0.0,0.818902149624,-0.573794449622,-0.0118298700664,0.0,-0.0082937803031,0.00877877575229,-0.999927070493,0.0,0.633308912423,0.223924086051,0.303706279463,1.0,-0.0809177142857,-0.106348995918,1.37
0.440098744184,0.399148576294,-0.124864491102,-1.58552216679,0.0646614835624,1.97625382956,0.125020870853,-0.0827338688963,-0.388392718176,-0.00163447000358,-0.561806736023,-0.0419481282464,0.206098797235,-0.0989680479278,0.573894154524,0.818913550729,0.00261586267572,0.0,0.818877684953,-0.573831575969,-0.0117220479738,0.0,-0.00809843524631,0.00886945714782,-0.999927871437,0.0,0.632050977806,0.222200084828,0.303784884281,1.0,-0.08356,-0.109821714286,1.386
0.438556681102,0.392160402362,-0.124887260322,-1.59601821182,0.0638559396667,1.97982054891,0.123225568404,-0.0891318318392,-0.384381468826,-0.00155489754453,-0.590815750628,-0.0401261509874,0.190713118665,-0.106968500074,0.573892085368,0.8189150124,0.00261222488998,0.0,0.818879327138,-0.573829769545,-0.0116957287913,0.0,-0.00807899102717,0.00885135356218,-0.999928189144,0.0,0.630618706203,0.220305698486,0.303794709321,1.0,-0.0863674285714,-0.113511477551,1.403
0.43704604719,0.385422702156,-0.124928165421,-1.60630686009,0.0630806080536,1.98310506899,0.121421472881,-0.0942361655342,-0.398863939833,-0.00114168169919,-0.611038028903,-0.0406268281845,0.191330818079,-0.109835371422,0.573853987831,0.818942468444,0.00236239906563,0.0,0.818903289024,-0.573792340765,-0.0118532614336,0.0,-0.00835177348542,0.00873678591754,-0.999926955558,0.0,0.629073536507,0.218332439608,0.303704381867,1.0,-0.0891748571428,-0.117201240816,1.42
0.435587568948,0.378804088161,-0.124937675286,-1.61593094689,0.0624063992288,1.98646365508,0.119718790331,-0.0916496797995,-0.415670418351,0.000774116629863,-0.611113840919,-0.0448688504385,0.213809196003,-0.11052363886,0.573831828417,0.818957070266,0.00266395533766,0.0,0.818921677724,-0.573768919502,-0.0117157871526,0.0,-0.00806638724961,0.00890463377941,-0.999927817842,0.0,0.62767844062,0.216509233941,0.303842760003,1.0,-0.0918171428571,-0.120673959184,1.436
0.433906162109,0.37174128259,-0.124967784359,-1.62658491737,0.0615981574897,1.98994344043,0.11781663351,-0.101352127874,-0.420325777844,-0.00242366091265,-0.63927712295,-0.0457654053801,0.200099944797,-0.105547083876,0.573832445413,0.81895701448,0.00254557005778,0.0,0.818919925641,-0.573769794907,-0.0117951151951,0.0,-0.00819927897716,0.00885320829044,-0.999927193613,0.0,0.626080345954,0.214416608634,0.303788940081,1.0,-0.0946245714286,-0.124363722449,1.453
0.432092338102,0.363976994891,-0.125064571787,-1.63800628469,0.0607128271509,1.99368124812,0.115819409106,-0.0996234172427,-0.440069909225,-0.00142862111205,-0.634223639512,-0.0514849738101,0.220086552844,-0.115758791786,0.57390895374,0.818903321044,0.00257108947454,0.0,0.818866832428,-0.573846490293,-0.0117500310044,0.0,-0.00814688559346,0.00884899826467,-0.999927659126,0.0,0.624366725191,0.21213550813,0.303846042431,1.0,-0.0975971428571,-0.128270530612,1.471
0.430171524653,0.356104320665,-0.125064009179,-1.64967964499,0.0598404803688,1.99751756857,0.113612173495,-0.114809484924,-0.440654461362,0.00150181574732,-0.666177469886,-0.0448972034831,0.208361072412,-0.123644183027,0.573830397944,0.818958290398,0.00259612893357,0.0,0.818921742647,-0.573767434524,-0.0117837770158,0.0,-0.00816100476599,0.00888808700788,-0.999927197305,0.0,0.622584434085,0.209834716607,0.303846525783,1.0,-0.100569714286,-0.132177338775,1.489
0.428487170836,0.349451108743,-0.125112177718,-1.65966574964,0.0590740368448,2.0006810459,0.111777336201,-0.113671457333,-0.441119090859,-0.00138309818412,-0.662444764574,-0.0526403660433,0.208130351634,-0.123554292912,0.573861584231,0.818936928756,0.00243634239247,0.0,0.818897989153,-0.573798888099,-0.011902364444,0.0,-0.00834947598016,0.00882559552207,-0.999926194834,0.0,0.621032800695,0.207808143288,0.303772239428,1.0,-0.103046857143,-0.135433012245,1.504
0.426537493363,0.341613393486,-0.125154645054,-1.67088144317,0.0582151507172,2.0044993613,0.10965530718,-0.117271393868,-0.454363923144,0.000231468546616,-0.673208280869,-0.0476392588241,0.214977211694,-0.137044853795,0.573876744575,0.818925192531,0.00278531418404,0.0,0.818891068234,-0.573813059634,-0.0116934965212,0.0,-0.00797800283724,0.00899166774127,-0.999927748081,0.0,0.619340889297,0.205531314195,0.303935270647,1.0,-0.105854285714,-0.13912277551,1.521
0.424639099369,0.334231217969,-0.125159870967,-1.68189858558,0.0573242297969,2.00792956469,0.107536127486,-0.114797767347,-0.464363930996,-0.00314705421134,-0.693891093746,-0.060661978155,0.215155593832,-0.127919528178,0.573793367702,0.818984262767,0.00258755146815,0.0,0.818947253868,-0.573730060785,-0.0118304537333,0.0,-0.00820455733105,0.00890747555468,-0.99992666837,0.0,0.617574075684,0.203305981877,0.303846373635,1.0,-0.108496571429,-0.142595493878,1.537
0.422541964748,0.326084646717,-0.125166252316,-1.69355709054,0.0563337188001,2.01169950278,0.105251230065,-0.120263294967,-0.482070483293,0.000480886006039,-0.69148958641,-0.0653318589915,0.228477328481,-0.129877871498,0.573715277851,0.819038434521,0.00275129768863,0.0,0.81900404289,-0.573651928076,-0.0116871743702,0.0,-0.00799411168775,0.0089586069022,-0.999927916172,0.0,0.615737133592,0.200910927056,0.303964811077,1.0,-0.111304,-0.146285257143,1.554
0.420329559713,0.317912572668,-0.12518365534,-1.70552538354,0.0553933005383,2.01549478664,0.10295879112,-0.133877477165,-0.488180654846,-0.00402787047393,-0.707256411696,-0.056627164778,0.229071879394,-0.1321304316,0.573750819747,0.819013573572,0.00274044622945,0.0,0.818978663551,-0.573687081418,-0.0117400239815,0.0,-0.00804323525292,0.00898038827405,-0.999927326856,0.0,0.613815399204,0.198424663777,0.303939805342,1.0,-0.114111428571,-0.149975020408,1.571
0.418048341603,0.309533882818,-0.125273902658,-1.71759340425,0.0543890941031,2.01926474436,0.100454386599,-0.133628038193,-0.50712787605,-0.00621533775741,-0.711913590107,-0.0633908720786,0.236455188718,-0.14377067608,0.573693665127,0.819053522184,0.00276645867971,0.0,0.819019130939,-0.573630044801,-0.0117039206397,0.0,-0.00799936761953,0.0089804206127,-0.999927678466,0.0,0.611868536713,0.19584566891,0.303982056478,1.0,-0.116918857143,-0.153664783673,1.588
0.415648569856,0.301066348914,-0.125309789502,-1.72987412918,0.0533639684032,2.02307756962,0.0979253342977,-0.146393474355,-0.509160328866,-0.00199093113914,-0.738565247381,-0.0687138357145,0.216421820059,-0.147725084441,0.573658165192,0.819078493819,0.00273447863017,0.0,0.819043600979,-0.573594565787,-0.0117303323189,0.0,-0.00803973563508,0.00896903082086,-0.999927456937,0.0,0.609857278293,0.193216462932,0.303965481053,1.0,-0.119726285714,-0.157354546939,1.605
0.413105406046,0.292406878949,-0.125396718137,-1.74229823175,0.0523738665654,2.02681096067,0.0954233849429,-0.148048487548,-0.522394023777,-0.00650276696242,-0.714599809035,-0.0557515329932,0.233737379622,-0.15002836152,0.573805811246,0.818975155279,0.00270793612683,0.0,0.818939366005,-0.573741675674,-0.0118131834155,0.0,-0.00812120426941,0.00899628199435,-0.999926553779,0.0,0.607800105467,0.190470967143,0.303978837321,1.0,-0.122533714286,-0.161044310204,1.622
0.410537100555,0.283654294277,-0.125471271923,-1.75479261856,0.0513089320779,2.03071286223,0.0927645749828,-0.156183132109,-0.520369026209,-0.000982915385983,-0.726446658364,-0.0637840657966,0.219729197983,-0.154862369525,0.573805706432,0.818974901197,0.00280524109275,0.0,0.818940627468,-0.573741500433,-0.0117339790576,0.0,-0.00800050514024,0.00903052390868,-0.999927218129,0.0,0.605862590321,0.187887807816,0.304011089376,1.0,-0.125176,-0.164517028571,1.638
0.407992507697,0.27527197256,-0.125504584827,-1.76683276782,0.050247058816,2.03424253757,0.0901858609648,-0.165623389063,-0.532998632477,-0.00474193742756,-0.73049477746,-0.0629921169461,0.231097270226,-0.151578659339,0.573777474974,0.818995171936,0.00265790513473,0.0,0.818958761728,-0.573713561356,-0.0118339767841,0.0,-0.00816725087525,0.00896695665769,-0.999926442145,0.0,0.60367484233,0.185053246411,0.303972069743,1.0,-0.127983428571,-0.168206791837,1.655
0.405015371198,0.26568881407,-0.125628923899,-1.78032947185,0.0490583963144,2.0384440383,0.0872156297362,-0.169297404439,-0.535622151257,-0.0111993764828,-0.765362840903,-0.0669447675614,0.22546946314,-0.157346708331,0.573846039913,0.818946526142,0.00283843219206,0.0,0.818913052085,-0.573782130987,-0.011671597368,0.0,-0.0079299251229,0.00902230280593,-0.999927854567,0.0,0.601425647376,0.181965897645,0.304044050286,1.0,-0.130956,-0.1721136,1.673
0.402433239354,0.257622829994,-0.125745419632,-1.79185436896,0.0480382268574,2.04172724665,0.0846906713377,-0.172139773789,-0.541819874826,-0.00580757278268,-0.777518572018,-0.0703758542586,0.221091557636,-0.169456361929,0.573938789919,0.81888212862,0.00265927704586,0.0,0.818846097894,-0.573875247783,-0.01179045574,0.0,-0.00812905672968,0.00894471074563,-0.999926952625,0.0,0.599420495685,0.179296293115,0.30398674304,1.0,-0.133433142857,-0.175369273469,1.688
0.399439560523,0.248288389269,-0.125780945955,-1.80486038761,0.0468297175624,2.0456077227,0.0817352358948,-0.175852401154,-0.536946534339,0.000467836093863,-0.778874666723,-0.0693660125698,0.227964480589,-0.180779009696,0.573910847896,0.818901332342,0.00277370813422,0.0,0.818867241723,-0.573847406466,-0.0116765331703,0.0,-0.00797039680598,0.00897276053488,-0.999927978578,0.0,0.597167536376,0.176313291794,0.304057903592,1.0,-0.136240571429,-0.179059036735,1.705
0.396347426876,0.238903634155,-0.125788796632,-1.81813664123,0.0456959366478,2.04938179235,0.0786512891177,-0.183090182452,-0.562585205819,-0.00233942404629,-0.784060572565,-0.0701358933319,0.225507309047,-0.187823619689,0.573856254711,0.818939684511,0.00274571731446,0.0,0.818904349344,-0.573791932797,-0.011799634886,0.0,-0.00808787454272,0.00901994779544,-0.999926610721,0.0,0.594661188546,0.173106864998,0.30403634914,1.0,-0.139213142857,-0.182965844898,1.723
0.393196523315,0.229295032977,-0.125801960298,-1.83130619074,0.0444908771917,2.05327891523,0.0755956468624,-0.187115830962,-0.549768027724,-0.00196941699786,-0.794426794863,-0.0813878005702,0.224598684374,-0.179611363895,0.573831204389,0.818956572172,0.00293745909626,0.0,0.818923888469,-0.573766391106,-0.0116850431358,0.0,-0.00788427936429,0.00911097321575,-0.999927411518,0.0,0.592453588179,0.170249247707,0.304117621453,1.0,-0.141855428571,-0.186438563265,1.739
0.389875619381,0.219597021543,-0.125826046357,-1.84487068595,0.0432105210104,2.05695822584,0.072303885184,-0.201938087951,-0.572434181054,-0.00678484598009,-0.77876968524,-0.0763300611323,0.226863129039,-0.195532050956,0.573724503171,0.819031972525,0.00275124418574,0.0,0.818996427538,-0.573659864179,-0.0118304188987,0.0,-0.00811136912944,0.00904083442842,-0.999926231781,0.0,0.589954369454,0.167067960805,0.304060976517,1.0,-0.144662857143,-0.190128326531,1.756
0.386435586849,0.209728152754,-0.1259255398,-1.85827801946,0.0419974034548,2.06080967198,0.0690252541111,-0.20457012035,-0.572327656466,-0.00264945379748,-0.811405642735,-0.0678783685375,0.218823820048,-0.194802420491,0.573792703249,0.818983342363,0.002994249641,0.0,0.81895099415,-0.573727234607,-0.0117079610279,0.0,-0.00787089402776,0.00917026288397,-0.999926974987,0.0,0.587536357866,0.163830730374,0.304171012061,1.0,-0.147470285714,-0.193818089796,1.773
0.383084082441,0.200418180402,-0.125993807727,-1.87119839509,0.0407465115839,2.06419649462,0.0657886093589,-0.212829362119,-0.591633436165,-0.00754573529774,-0.823279905191,-0.0777683426551,0.225596400375,-0.198027164536,0.57375434811,0.819010978674,0.00277700149857,0.0,0.818975364631,-0.573689158434,-0.0118679620741,0.0,-0.00812701205064,0.00908376554871,-0.99992571568,0.0,0.58510408621,0.160698336824,0.304101674421,1.0,-0.150112571429,-0.197290808163,1.789
0.379142655564,0.189749634259,-0.126116052229,-1.88566662655,0.0393596717857,2.06824122547,0.0620610342093,-0.226115221866,-0.589732973635,-0.0094395244273,-0.782329039377,-0.0787716128712,0.220661712529,-0.212746998636,0.573806238571,0.818974065191,0.00293734981438,0.0,0.818940808376,-0.573740769317,-0.0117570787946,0.0,-0.0079436182122,0.0091519769951,-0.999926567427,0.0,0.582435122563,0.157098284739,0.304163641574,1.0,-0.153085142857,-0.201197616327,1.807
0.374996159212,0.178957807023,-0.126292356033,-1.90029562738,0.0379807473751,2.07210229808,0.0582133892001,-0.230542928522,-0.606008133485,-0.0140057873488,-0.779313682817,-0.0792053425374,0.223504453685,-0.215340856806,0.573957419737,0.818868084742,0.00294737527433,0.0,0.818834524046,-0.573891394492,-0.0118083216341,0.0,-0.00797813801814,0.00919106340293,-0.999925934091,0.0,0.579677865245,0.153357062345,0.304177231241,1.0,-0.156057714286,-0.20510442449,1.825
0.371748814717,0.170514474234,-0.126335331102,-1.91172743253,0.0367777089206,2.07511739086,0.0552039495907,-0.231418879146,-0.598080718441,0.00346723444541,-0.808770435752,-0.0849928312047,0.209151410606,-0.219930626502,0.573939044404,0.818881120652,0.00290352361838,0.0,0.818847369685,-0.57387361464,-0.011781616213,0.0,-0.00798164116481,0.00913964819508,-0.999926377407,0.0,0.577482516285,0.150489002508,0.304169264838,1.0,-0.158369714286,-0.208143053061,1.839
0.367198959411,0.158839716149,-0.126359678488,-1.92732165496,0.0352489824363,2.07915639712,0.0508851990868,-0.240684552264,-0.627245895234,-0.000264239612659,-0.780208438587,-0.0774869374642,0.223791134906,-0.216884937272,0.573834081779,0.818954345763,0.00299550432578,0.0,0.818921355006,-0.573767836833,-0.011791125192,0.0,-0.00793782200785,0.00921940946129,-0.999925993997,0.0,0.574442598964,0.146573006945,0.304211643969,1.0,-0.161507428571,-0.212266906122,1.858
0.363217101961,0.148978781406,-0.126413919491,-1.94052586861,0.0338373329712,2.08253262083,0.0472219330024,-0.252490273602,-0.616751912449,-0.00224532468183,-0.803230903285,-0.0872082070983,0.194557066087,-0.232751141188,0.573795772753,0.818981353209,0.00294977419982,0.0,0.818948125894,-0.573730108974,-0.0117675848354,0.0,-0.00794521124931,0.00916807900074,-0.999926407265,0.0,0.571677811862,0.14295975212,0.304202445702,1.0,-0.164314857143,-0.215956669388,1.875
0.358830899356,0.138271982244,-0.126507548906,-1.95460944966,0.0324472581301,2.08600412508,0.0432051548177,-0.264152087295,-0.640471745478,-0.0080365942941,-0.848092398028,-0.0819860905443,0.214161632334,-0.237977748787,0.57386005831,0.818935969517,0.0030427305516,0.0,0.818903359592,-0.573793370686,-0.0117984027582,0.0,-0.00791639019727,0.00926251269789,-0.999925765557,0.0,0.569037519378,0.139496082711,0.30425418737,1.0,-0.166957142857,-0.219429387755,1.891
0.354287047668,0.127552712016,-0.126650773446,-1.9687976467,0.0309189800851,2.08949441765,0.0389675171996,-0.267552063333,-0.63088788973,-0.00842153022219,-0.873421734952,-0.0960459151714,0.200293688923,-0.248483923086,0.573827633572,0.818958842845,0.00300126247975,0.0,0.818925904347,-0.573761342813,-0.0117911654955,0.0,-0.00793462362556,0.00922408577597,-0.999925976255,0.0,0.566188963248,0.135706993367,0.304236916311,1.0,-0.169764571429,-0.22311915102,1.908
0.349265890873,0.115954544963,-0.126807856495,-1.98377302454,0.0293144887729,2.09313264366,0.0344919789309,-0.278814810366,-0.64442883246,-0.00449321169949,-0.809333155083,-0.0931479132406,0.212905794066,-0.253925202653,0.573961953782,0.818864079476,0.00316888892403,0.0,0.81883368947,-0.573895509461,-0.01166533797,0.0,-0.00773386401597,0.0092904320516,-0.999926934941,0.0,0.56316372266,0.131618950543,0.30434163908,1.0,-0.172737142857,-0.227025959184,1.926
0.344984025774,0.106328618136,-0.126874773533,-1.99644770226,0.0279381135313,2.09604928704,0.0305954086104,-0.28687371838,-0.644217315201,-0.00465208121823,-0.86835198491,-0.0938257284551,0.18723438229,-0.255055996493,0.573934496193,0.818883827228,0.00303619575062,0.0,0.818851316575,-0.573868037129,-0.0117789730412,0.0,-0.00790338699371,0.00924672987404,-0.999926014493,0.0,0.560522053093,0.128199999908,0.304275982967,1.0,-0.175214285714,-0.230281632653,1.941
0.34004351667,0.0952055843639,-0.126884884764,-2.01064320875,0.0263735238268,2.09936432505,0.0260397104194,-0.297673903151,-0.65731894363,-0.00109168964014,-0.84005712882,-0.0832479310118,0.189827424944,-0.270266780973,0.573783826113,0.818988782956,0.00320018513561,0.0,0.818958624108,-0.573717091673,-0.0116712305403,0.0,-0.00772275467392,0.00931776192618,-0.999926766505,0.0,0.557552074823,0.124365217959,0.304367997157,1.0,-0.178021714286,-0.233971395918,1.958
0.334595451562,0.0834274179191,-0.126942410341,-2.02597899717,0.0247653131346,2.10264740788,0.0210996902437,-0.307686961321,-0.653277223119,-0.0050316205067,-0.865006567905,-0.0901479996302,0.171781413074,-0.284444749287,0.573745984788,0.819015978707,0.0030196793564,0.0,0.818981917497,-0.57367805694,-0.0119521002594,0.0,-0.00805679242399,0.00933071196823,-0.999924010068,0.0,0.554243352366,0.120176768341,0.304266594972,1.0,-0.180994285714,-0.237878204082,1.976
0.329562616947,0.0727185345966,-0.127088316265,-2.03934956714,0.0232034146533,2.10575897541,0.0165653744926,-0.317177058212,-0.660762970166,-0.00679699340057,-0.83380425178,-0.0856992978853,0.192418618102,-0.279688216894,0.573750974656,0.819011367459,0.00330846730741,0.0,0.818982263665,-0.573683462523,-0.0116654845792,0.0,-0.00765629890422,0.00940284022567,-0.999926481139,0.0,0.551428876511,0.116348430887,0.304412781136,1.0,-0.183636571429,-0.241350922449,1.992
0.323969697639,0.0613976060435,-0.127273079731,-2.05388030301,0.0215448201568,2.10866725631,0.0116198175104,-0.332127028628,-0.67889354045,-0.0101927097041,-0.857812854694,-0.0988757415823,0.161886800035,-0.287724162957,0.573858968841,0.818936687625,0.00305490494992,0.0,0.818903386653,-0.573791244592,-0.0118994898687,0.0,-0.00799220497889,0.00933048063585,-0.999924530548,0.0,0.548232818191,0.112134637781,0.304315431826,1.0,-0.186444,-0.245040685714,2.009
0.318248388754,0.0498523329683,-0.127393057409,-2.06819814371,0.0198733568819,2.11175130468,0.0065245632473,-0.330422937634,-0.67152046795,-0.00509359732449,-0.834108030778,-0.100511028223,0.172713589054,-0.300531107077,0.573868838352,0.818928959485,0.00326536173966,0.0,0.818898945781,-0.573801025207,-0.0117323046538,0.0,-0.00773440503983,0.00940698644268,-0.999925841043,0.0,0.545108709676,0.107956338564,0.304415801665,1.0,-0.189251428571,-0.24873044898,2.026
0.313109242952,0.0397111139056,-0.127453380791,-2.08100914465,0.0184243416529,2.11425214097,0.00194861443055,-0.348084080982,-0.673476595925,-0.00611207559842,-0.829966172923,-0.0977667586275,0.163043467894,-0.312274071,0.573843433422,0.818947202846,0.00315274024681,0.0,0.81891471831,-0.573774813182,-0.0119119600991,0.0,-0.00794645645137,0.00941760679129,-0.999924078374,0.0,0.542210195977,0.10426879418,0.304345324035,1.0,-0.18998,-0.249688,2.041
0.307094896181,0.0281420446946,-0.127514135607,-2.09519914163,0.0166847970022,2.11712737327,-0.00335106475334,-0.36163528101,-0.662537796929,-0.003337897451,-0.811047531616,-0.10212308921,0.163405280638,-0.305656912209,0.573807481755,0.818971818144,0.00329876780521,0.0,0.818941930356,-0.573739188302,-0.0117560798291,0.0,-0.0077354146396,0.00944740772811,-0.999925452145,0.0,0.539022019457,0.100049141889,0.30442292267,1.0,-0.18998,-0.249688,2.058
0.300945052059,0.0166390383545,-0.127683944528,-2.10932245143,0.0149763347271,2.11970556598,-0.00876368495047,-0.366441453915,-0.6789213185,-0.0161705378929,-0.830493231363,-0.10230319448,0.157991356132,-0.313766755594,0.573870539024,0.818927811724,0.00325430873574,0.0,0.818896973619,-0.573801938255,-0.0118249377887,0.0,-0.00781659226047,0.0094511089608,-0.999924785884,0.0,0.535768069563,0.0957469656798,0.304428939529,1.0,-0.18998,-0.249688,2.075
0.29499826734,0.00592489671175,-0.127829582421,-2.12235927975,0.0133653326043,2.12207858603,-0.0139348240689,-0.366281371077,-0.668492822834,-0.00737610776584,-0.838716728422,-0.0854928846611,0.143575514789,-0.317445271932,0.573964623166,0.818861800668,0.00327256182,0.0,0.818831187212,-0.573895929786,-0.0118192861529,0.0,-0.00780040221525,0.0094637100089,-0.999924793131,0.0,0.532747211832,0.0916814977521,0.304449378553,1.0,-0.18998,-0.249688,2.091
0.288705321399,-0.00547143167485,-0.12784892138,-2.1360241624,0.0117522599228,2.12451652296,-0.0195468242451,-0.374865062132,-0.673047904491,0.000114372668607,-0.788041760855,-0.0944063263044,0.148330996419,-0.33636912229,0.573859442591,0.818934823136,0.0034412943305,0.0,0.818906002107,-0.573789685404,-0.0117942162694,0.0,-0.00768426316916,0.00958650352629,-0.999924522676,0.0,0.529521580226,0.0875201357125,0.304517183114,1.0,-0.18998,-0.249688,2.108
0.282258166504,-0.0166960725352,-0.127882762919,-2.14957581983,0.00998611172211,2.12685342488,-0.0251551746293,-0.381276241916,-0.655427836976,-0.000344107380169,-0.815600189908,-0.105865942275,0.12453615514,-0.332187318718,0.573809581645,0.818969950375,0.00339577616647,0.0,0.818940805122,-0.573740319719,-0.0117792247845,0.0,-0.00769868565731,0.00954015539102,-0.999924855014,0.0,0.526281148579,0.0833039630863,0.304496855517,1.0,-0.18998,-0.249688,2.125
0.276084839112,-0.0272804555978,-0.127979894827,-2.16205813235,0.00838602218217,2.12881197633,-0.0305645937693,-0.383006051555,-0.680435662576,-0.00329319378,-0.755416332475,-0.0976516336077,0.140091423185,-0.328721808512,0.573823049871,0.818960229394,0.00346366976236,0.0,0.818931999921,-0.57375359838,-0.011744562706,0.0,-0.00763118370201,0.00957599516449,-0.999925029866,0.0,0.523061939295,0.0790497629795,0.304568088327,1.0,-0.18998,-0.249688,2.142
0.268913904326,-0.0390329498569,-0.128171748605,-2.17601915964,0.0065907154666,2.13102606048,-0.0367483430137,-0.406789008019,-0.652173227281,-0.00754007415434,-0.750944538052,-0.101022569706,0.112356420848,-0.354191939332,0.573952639745,0.818869533837,0.00343522696266,0.0,0.818840613501,-0.573882864718,-0.0118006002352,0.0,-0.00769188221591,0.00958607357082,-0.999924468218,0.0,0.519833075011,0.0747191439655,0.304537576603,1.0,-0.18998,-0.249688,2.159
0.262160276158,-0.0501052945756,-0.1282255403,-2.18894672966,0.00497761912736,2.13296713991,-0.0426566596492,-0.395206916916,-0.668209211543,-0.00140177141577,-0.729535019832,-0.100814442994,0.130312884083,-0.343441260427,0.573935548304,0.818881059335,0.00354174484348,0.0,0.818853058764,-0.573864825333,-0.0118142836699,0.0,-0.00764215747616,0.00968099236348,-0.999923935015,0.0,0.516607550176,0.0705344192591,0.304571493395,1.0,-0.18998,-0.249688,2.176
0.25565507138,-0.0603914886985,-0.128284612923,-2.20100284177,0.00334328341373,2.13469845032,-0.0483605740808,-0.405510438935,-0.637818970768,-0.00223667659645,-0.770954338919,-0.092046760106,0.106956912868,-0.363998916042,0.573864308788,0.818931234928,0.00348345517817,0.0,0.818902487212,-0.573793811372,-0.0118374562347,0.0,-0.00769542579002,0.00964588946267,-0.999923865721,0.0,0.513559552317,0.0665515182434,0.304541175092,1.0,-0.18998,-0.249688,2.192
0.248632827255,-0.0713009680315,-0.128418595969,-2.21365941614,0.00166334402625,2.1363438448,-0.0545003964821,-0.413708822308,-0.651326847564,-0.0120550885496,-0.722874070298,-0.102203008026,0.101586771529,-0.361369999354,0.573880335401,0.81892025874,0.00342306399716,0.0,0.818890103667,-0.573809278153,-0.0119439241209,0.0,-0.00781708605327,0.00965768235228,-0.999922808189,0.0,0.51030132037,0.0622902320549,0.304515187629,1.0,-0.18998,-0.249688,2.209
0.241401772485,-0.0821493282069,-0.12858291259,-2.2260567811,5.21721666008e-06,2.13796614645,-0.0607708329549,-0.421689041036,-0.635175077677,-0.00865434345995,-0.718151732736,-0.0936641326027,0.0898683496974,-0.362714303009,0.573979305456,0.818850602051,0.00349218129238,0.0,0.818821117836,-0.573907696616,-0.0119448587769,0.0,-0.00777701481083,0.00971576059254,-0.99992255802,0.0,0.506903828763,0.0577289884471,0.304530265255,1.0,-0.18998,-0.249688,2.227
0.234225378652,-0.0929419748155,-0.128613453162,-2.23837366707,-0.00159872525035,2.13938609218,-0.067086336441,-0.429860836859,-0.641192793548,-0.00482587917672,-0.714681800105,-0.102547245345,0.0787985857571,-0.371544647979,0.573895618967,0.81890931583,0.00347820048626,0.0,0.818878708291,-0.573822903764,-0.0120699264683,0.0,-0.00788845600056,0.00977529044739,-0.999921104867,0.0,0.503822051236,0.0538202368843,0.304512269993,1.0,-0.18998,-0.249688,2.243
0.226848942985,-0.103671259332,-0.128713446412,-2.25038185714,-0.00337397572874,2.140784256,-0.0735151997648,-0.433881905339,-0.622806426646,-0.00581997432795,-0.694903742531,-0.10463081267,0.0756031897863,-0.377711024473,0.573849414954,0.818941588976,0.00350281378861,0.0,0.818912197295,-0.57377772881,-0.0119447873501,0.0,-0.00777239623509,0.00972319337053,-0.999922521682,0.0,0.500623525411,0.0495728658644,0.304557273411,1.0,-0.18998,-0.249688,2.26
0.219284795129,-0.114322724622,-0.128896727161,-2.26241891261,-0.00504210211484,2.14196258513,-0.080043510285,-0.452821246519,-0.632411434327,-0.0165607160669,-0.692297858892,-0.0973531687633,0.0663016732151,-0.387844020002,0.573974685102,0.818854285675,0.00338623606487,0.0,0.818822326827,-0.57390213016,-0.0121280249525,0.0,-0.00798787090958,0.00973409240831,-0.999920717539,0.0,0.497335539526,0.0452577149898,0.304494706339,1.0,-0.18998,-0.249688,2.277
0.211658825019,-0.124957886244,-0.128985915139,-2.27402956005,-0.00663410670416,2.14321027559,-0.0867124010557,-0.451070679784,-0.616386328466,0.00151747128159,-0.689947337048,-0.0897317511242,0.0707902588534,-0.390360493421,0.57398220777,0.818847991803,0.00362469092067,0.0,0.81881954482,-0.573909244858,-0.0119782548278,0.0,-0.00772827507516,0.00984346243822,-0.999921686939,0.0,0.494166606345,0.0410394310735,0.304588096626,1.0,-0.18998,-0.249688,2.294
0.203942653538,-0.135458740572,-0.129050501687,-2.28564606408,-0.00831434219536,2.14418858256,-0.0934947309755,-0.464242065888,-0.6155015351,-0.00758921264469,-0.67938819187,-0.102088544696,0.0542393634533,-0.403250216491,0.573895924444,0.818908867288,0.00353297118707,0.0,0.818878720048,-0.573822682599,-0.0120796394488,0.0,-0.00786497627933,0.00982571994762,-0.999920795551,0.0,0.49089781255,0.0368305299182,0.30455406832,1.0,-0.18998,-0.249688,2.311
0.196095043202,-0.145985850159,-0.129187760707,-2.2968690587,-0.00994556184526,2.1452578461,-0.100410834565,-0.464723088755,-0.623441009586,-0.0096010132746,-0.650348126287,-0.0953720140633,0.062179231144,-0.413735805914,0.573879327199,0.818919259742,0.00380929638478,0.0,0.818893820972,-0.573806512102,-0.0118213173937,0.0,-0.00749504972006,0.00990360961944,-0.999922868398,0.0,0.487753444392,0.0325967408826,0.304683137884,1.0,-0.18998,-0.249688,2.328
0.188987002413,-0.15513291993,-0.129341747785,-2.3068462962,-0.0114008420011,2.14593401842,-0.106583684463,-0.471233749286,-0.617608215614,-0.00670312453137,-0.657082294972,-0.0998512914166,0.0414035516824,-0.414058259662,0.573963880809,0.818860362281,0.00373061822882,0.0,0.818833171366,-0.573890375752,-0.0119507736352,0.0,-0.00764519612504,0.00991425724995,-0.999921626168,0.0,0.484865205719,0.028798095362,0.304642178747,1.0,-0.18998,-0.249688,2.343
0.180962124189,-0.16544846501,-0.129371766495,-2.31784351716,-0.0130018298613,2.14663928658,-0.11364179327,-0.48205404079,-0.613525749563,-0.00244013228685,-0.63473629171,-0.088224118408,0.0458406956886,-0.421599425077,0.573879617074,0.818919196244,0.00377915760972,0.0,0.818892502903,-0.573805774351,-0.0119477575791,0.0,-0.00761589220444,0.00995148997526,-0.999921479934,0.0,0.48164367035,0.0246428896737,0.304675626676,1.0,-0.18998,-0.249688,2.36
0.172759926534,-0.175657071111,-0.129452227334,-2.32874605499,-0.0145844023418,2.14732486248,-0.120901778384,-0.486189773347,-0.597416120727,-0.0101144434095,-0.651761431819,-0.092869673875,0.0314680133565,-0.419363323299,0.573813194286,0.818965552813,0.00381945939855,0.0,0.818939052558,-0.573738780975,-0.0119744019546,0.0,-0.00761539735708,0.00999916681133,-0.999921008073,0.0,0.478414391596,0.020441248813,0.304664956821,1.0,-0.18998,-0.249688,2.377
0.164800377567,-0.185265071171,-0.12965825152,-2.33889816549,-0.0161403397424,2.14778884168,-0.127838750127,-0.499019745899,-0.601921206769,-0.0102339766145,-0.630530264865,-0.087168285148,0.0300241178685,-0.437728877996,0.573926054069,0.818886606651,0.00378903821219,0.0,0.818859329043,-0.573851237659,-0.0120375735592,0.0,-0.00768321142222,0.0100115591351,-0.999920365302,0.0,0.475345976076,0.0163585627987,0.304656523825,1.0,-0.18998,-0.249688,2.393
0.155858416275,-0.195991288289,-0.129735638972,-2.34989999889,-0.0178030488232,2.14835550522,-0.135770930879,-0.495895987248,-0.590009153049,-0.00436080902409,-0.612441112668,-0.0940962053268,0.0168367396447,-0.440986455436,0.573847401306,0.818940638253,0.00401720462094,0.0,0.818917270242,-0.573773036925,-0.0118217383723,0.0,-0.00737648029265,0.0100738260384,-0.999922049746,0.0,0.472003610543,0.0119207532662,0.304768195963,1.0,-0.18998,-0.249688,2.411
0.148750081199,-0.204177364069,-0.129809523449,-2.35856634895,-0.0191045230866,2.14858107165,-0.142046875411,-0.514344984733,-0.585932883012,-0.00445717716776,-0.611919073505,-0.0921878789317,0.0112592563084,-0.443247528015,0.573820741957,0.818959936704,0.00388909677313,0.0,0.818933776065,-0.573745322952,-0.0120217183565,0.0,-0.00761410121528,0.0100834181899,-0.999920171884,0.0,0.469286939503,0.00843513180497,0.304688487259,1.0,-0.18998,-0.249688,2.425
0.138934246991,-0.215338923815,-0.130035003508,-2.3699301213,-0.0208361607079,2.1488771555,-0.150669751737,-0.523561315301,-0.590045056942,-0.0107032490513,-0.574153273534,-0.0958102718396,0.0222193530317,-0.454881933833,0.573946588833,0.818871082381,0.0040262276016,0.0,0.818846654963,-0.573870575768,-0.0119776802804,0.0,-0.00749778681934,0.0101716075777,-0.999920157609,0.0,0.46569872549,0.00364052511896,0.304747224773,1.0,-0.18998,-0.249688,2.444
0.129622781316,-0.225720057619,-0.130092521756,-2.38056846248,-0.0225218426138,2.14911256062,-0.158957107058,-0.522377079755,-0.572225451264,-0.0034438383739,-0.591422100601,-0.10122080594,8.76136056813e-05,-0.470055312947,0.573823738745,0.818957204553,0.0040200577783,0.0,0.818932813643,-0.573747925599,-0.0119629223107,0.0,-0.00749076582319,0.010156961587,-0.999920359108,0.0,0.462283779936,-0.000772734385427,0.30473312943,1.0,-0.18998,-0.249688,2.462
0.120591833801,-0.235432042953,-0.130198989408,-2.39049432113,-0.0240870365858,2.14912787861,-0.166974954291,-0.534047605635,-0.572515078179,-0.00598486330076,-0.571249444972,-0.0874949657989,-0.000635141709464,-0.472436245152,0.573789911437,0.818981337776,0.00393100621973,0.0,0.818954956628,-0.573713322253,-0.0121057748832,0.0,-0.00765928053541,0.0101656842472,-0.999918993862,0.0,0.459014991618,-0.00500727958618,0.304682348259,1.0,-0.18998,-0.249688,2.479
0.111885735505,-0.244614195353,-0.130394685573,-2.39944303087,-0.025552610963,2.14922927086,-0.174636376425,-0.546496390454,-0.567894241136,-0.012076211096,-0.555141785945,-0.0884937711424,0.00246464360457,-0.484038150787,0.573911079819,0.818895239301,0.00417209934063,0.0,0.818873373256,-0.57383547424,-0.011831905097,0.0,-0.007295132606,0.0102070790091,-0.999921295192,0.0,0.456059136265,-0.00907615144076,0.304809438836,1.0,-0.18998,-0.249688,2.495
0.102724083079,-0.254155582462,-0.130492067811,-2.40907296894,-0.0270167945298,2.14918232098,-0.182885590147,-0.541299740249,-0.559683509893,-0.00974036454379,-0.569743941162,-0.0889088386531,-0.00417377517628,-0.483490619124,0.573820079972,0.818959002176,0.00417318534883,0.0,0.818936244411,-0.573743221801,-0.0119536575834,0.0,-0.00739536106326,0.0102770193517,-0.999919842541,0.0,0.45280020798,-0.0132352078769,0.304751665053,1.0,-0.18998,-0.249688,2.512
0.0932479720595,-0.263641748326,-0.130654787971,-2.41848548945,-0.0285518805936,2.1490401339,-0.191287286519,-0.559950950113,-0.5634824234,-0.0127178492196,-0.5386510584,-0.0824283488312,-0.00991489392985,-0.498258366733,0.573876266998,0.818919634481,0.00417245000127,0.0,0.818896601896,-0.573799034342,-0.0119904333988,0.0,-0.00742519651271,0.0102980285552,-0.999919405285,0.0,0.449552471954,-0.0175141397905,0.304728938474,1.0,-0.18998,-0.249688,2.529
0.0841897283111,-0.272548031575,-0.130836505486,-2.42693217263,-0.0299499588053,2.14891599236,-0.199329965189,-0.565935296032,-0.551842943571,-0.00538897335243,-0.538023435247,-0.0859366342779,-0.0104433472809,-0.496702624586,0.573977626959,0.818847260986,0.0044264915364,0.0,0.818828871096,-0.573901420653,-0.0117126484269,0.0,-0.00705063604861,0.0103475364393,-0.999921605438,0.0,0.446603416814,-0.0215624891305,0.304858041918,1.0,-0.18998,-0.249688,2.545
0.0746460495401,-0.281788839069,-0.130928112968,-2.43607192324,-0.031454363805,2.14858740452,-0.208035224662,-0.57456845733,-0.544312108273,-0.0144442186242,-0.530128197188,-0.0980129701078,-0.0194175692694,-0.51762444949,0.573787042787,0.818981370264,0.00432337729716,0.0,0.818960830177,-0.573710034109,-0.0118618000276,0.0,-0.00723436758781,0.0103470230327,-0.999920298344,0.0,0.443329740973,-0.0257192668545,0.304779543854,1.0,-0.18998,-0.249688,2.562
0.0647132604923,-0.290988413664,-0.131113915896,-2.44493213393,-0.0328991867148,2.1482077753,-0.216856835223,-0.589146196946,-0.537259867011,-0.0162511267972,-0.505289519714,-0.0817544876527,-0.0212645813113,-0.524295196581,0.573940601143,0.818873362662,0.00439877057071,0.0,0.818853571452,-0.573862975303,-0.0118684875437,0.0,-0.00719463525625,0.0104139563682,-0.999919890159,0.0,0.439909822499,-0.0302809245893,0.304786550393,1.0,-0.18998,-0.249688,2.58
0.0553370783677,-0.299611157511,-0.131243919494,-2.45291817713,-0.0342369845272,2.14788448969,-0.225279570789,-0.575416317679,-0.539707283066,9.28851090881e-05,-0.506012118574,-0.0831630683809,-0.0283641331343,-0.528716274396,0.573944260723,0.818869590241,0.00461808005902,0.0,0.818853852591,-0.573867713315,-0.0116173410826,0.0,-0.00686305242363,0.0104494400712,-0.999921850803,0.0,0.43713836343,-0.0340209905932,0.30489556049,1.0,-0.18998,-0.249688,2.595
0.0447442120049,-0.3090636084,-0.131384141797,-2.46202939105,-0.0357846561644,2.14726106113,-0.234880723911,-0.598808403323,-0.523680690172,-0.00808135278407,-0.506116042528,-0.0856516041338,-0.0378317206446,-0.547371353166,0.573870589302,0.818921886416,0.00449862033688,0.0,0.818903555153,-0.573792872121,-0.0118090712112,0.0,-0.00708956708556,0.0104610162492,-0.999920149401,0.0,0.43366660417,-0.0384634468581,0.304814799077,1.0,-0.18998,-0.249688,2.613
0.0343897105366,-0.317937532976,-0.131575156751,-2.47035973432,-0.037216549305,2.14665789341,-0.244126305155,-0.614543542012,-0.516328869722,-0.0120440142291,-0.476307609312,-0.0885681724835,-0.0283494503677,-0.553600850073,0.57400094839,0.818830379618,0.00452410908192,0.0,0.81881216967,-0.573922813808,-0.0118313774105,0.0,-0.0070915383763,0.0104958195047,-0.99991977071,0.0,0.430423394849,-0.042774964417,0.304811225078,1.0,-0.18998,-0.249688,2.63
0.0247966387771,-0.326222808731,-0.131639014479,-2.47782365655,-0.0384768221604,2.14618302537,-0.252989430874,-0.600376822907,-0.513750328616,-0.00473259402992,-0.459388081008,-0.069261799772,-0.033495541725,-0.561642854497,0.573820846118,0.818955177907,0.00477493891417,0.0,0.818941788132,-0.573744344306,-0.0115118169204,0.0,-0.00668819664618,0.01051632001,-0.999922334504,0.0,0.427496644877,-0.0466713579908,0.3049367508,1.0,-0.18998,-0.249688,2.646
0.0142816086704,-0.334781942465,-0.131799975675,-2.48592839259,-0.0398531789177,2.14539635591,-0.262558108825,-0.626762117959,-0.500591095641,-0.0122680862877,-0.476252240131,-0.0825995841859,-0.0513266184707,-0.581526985961,0.573812927013,0.818961355818,0.00466576591033,0.0,0.818945106832,-0.573734531429,-0.0117620722155,0.0,-0.00695590551327,0.0105704387613,-0.999919937396,0.0,0.424202391572,-0.0509137385378,0.304837946925,1.0,-0.18998,-0.249688,2.663
0.00291098436988,-0.343826482587,-0.131969474938,-2.49418014439,-0.0412953217167,2.14455155064,-0.272753424697,-0.623506175961,-0.495590351352,-0.00451203214646,-0.456637577151,-0.0791835693874,-0.0437346383714,-0.571183375055,0.573955039348,0.818861536399,0.00470573212615,0.0,0.818845676768,-0.573876290924,-0.011768910514,0.0,-0.00693673360023,0.0106082981473,-0.999919669642,0.0,0.420770622151,-0.0554497168906,0.304848261551,1.0,-0.18998,-0.249688,2.681
-0.0070920695468,-0.351751547809,-0.132104211098,-2.50122062679,-0.0425477600512,2.14378773072,-0.282037090076,-0.63326023388,-0.497640898242,-0.00882318093499,-0.443505485659,-0.082655717306,-0.0475309878366,-0.585966627214,0.573819604558,0.818955753988,0.00482507371405,0.0,0.81894212599,-0.573741557927,-0.0116260865262,0.0,-0.00675303516402,0.0106229370229,-0.999920771724,0.0,0.417786065667,-0.0593845330578,0.304919964155,1.0,-0.18998,-0.249688,2.697
-0.018151047166,-0.35996707566,-0.1323163651,-2.50863738825,-0.0439102089986,2.14292324118,-0.29202466279,-0.656226653035,-0.478175325107,-0.0113985936719,-0.447782119202,-0.0849468173966,-0.0578481817177,-0.59037009146,0.573962742317,0.818855380862,0.00483555228673,0.0,0.818841845257,-0.573884571175,-0.0116309210432,0.0,-0.00674912337172,0.0106354726608,-0.99992066488,0.0,0.414550833637,-0.0637149285698,0.304911994097,1.0,-0.18998,-0.249688,2.714
-0.0290470831889,-0.368111263203,-0.132373942163,-2.51596335416,-0.0452009866518,2.14194619504,-0.302176402525,-0.640011763019,-0.482297779707,-0.00648900124917,-0.427447219837,-0.0642771145528,-0.0512087399219,-0.587988321625,0.573748743046,0.81900552838,0.0048032526885,0.0,0.818991091079,-0.573669952822,-0.0117100326217,0.0,-0.00683523131083,0.0106526427542,-0.999919897199,0.0,0.411301767077,-0.0678474427138,0.304887611625,1.0,-0.18998,-0.249688,2.731
-0.0389049281789,-0.375125418798,-0.132540317054,-2.52224947278,-0.046277790035,2.1410558031,-0.311218049709,-0.66406385526,-0.469190803854,-0.016275439647,-0.414244942732,-0.0766289905963,-0.0609598354707,-0.612473167243,0.573808721469,0.818963360007,0.00482835715632,0.0,0.818948335359,-0.573728417111,-0.0118352994562,0.0,-0.00692264418312,0.0107455799905,-0.999918301417,0.0,0.40843000335,-0.0715869084907,0.304853801037,1.0,-0.18998,-0.249688,2.746
-0.0509517773903,-0.383468220007,-0.132698027781,-2.52934358059,-0.0476463281208,2.14006876404,-0.322239135838,-0.660554485912,-0.456470527093,-0.00365795545197,-0.394738591106,-0.0711061082977,-0.0544775335968,-0.617308766544,0.573863291055,0.818924215573,0.00497988247206,0.0,0.818912881997,-0.573785234366,-0.0115301094599,0.0,-0.00658502959579,0.01069500238,-0.999921124044,0.0,0.405096423716,-0.0761277520579,0.304973310002,1.0,-0.18998,-0.249688,2.764
-0.0623077453456,-0.391118530542,-0.132853515063,-2.53612490924,-0.0488896181604,2.13899420371,-0.332833474301,-0.67897166666,-0.449009606116,-0.0151054841251,-0.396045249628,-0.069429945141,-0.0715006820664,-0.62050525702,0.573764770232,0.818993477975,0.00494149533781,0.0,0.818980899449,-0.573685641734,-0.0116540854849,0.0,-0.00670988426597,0.0107339006377,-0.999919877205,0.0,0.401843536856,-0.0803249745489,0.304923889408,1.0,-0.18998,-0.249688,2.781
-0.073328208208,-0.398248531302,-0.133042580627,-2.54230687741,-0.0500732538057,2.13791856475,-0.342935770187,-0.689141894763,-0.443005024942,-0.0045340143823,-0.373387117054,-0.0771002637625,-0.0635184526954,-0.63985661596,0.573866140954,0.818922520608,0.00492995012024,0.0,0.818909455629,-0.573786494785,-0.0117093460716,0.0,-0.00676043856006,0.0107569871178,-0.999919288592,0.0,0.39876676557,-0.0843802409728,0.304916334168,1.0,-0.18998,-0.249688,2.797
-0.0848563854652,-0.405614946345,-0.133143071295,-2.54866176574,-0.0512581641144,2.13678671841,-0.353795866501,-0.686073951202,-0.428159329997,-0.00698674150277,-0.368879862403,-0.0720505972784,-0.0657298112639,-0.643513876985,0.573683198996,0.81905072175,0.00492435686977,0.0,0.819037313802,-0.57360317302,-0.0117484213051,0.0,-0.00679805710748,0.0107733113599,-0.999918857799,0.0,0.395550908632,-0.088527212647,0.304906521406,1.0,-0.18998,-0.249688,2.814
-0.0975429315253,-0.413244856085,-0.133380946736,-2.55502439471,-0.0524040340126,2.1356812121,-0.36545443469,-0.707643294084,-0.421098318855,-0.0135350818108,-0.352167469229,-0.0640193938463,-0.0622807203124,-0.643458622126,0.573909573178,0.818890774944,0.00514270621791,0.0,0.818880890549,-0.573829939034,-0.0115773513161,0.0,-0.00652967311196,0.0108558256082,-0.99991975399,0.0,0.392187598324,-0.0931080915575,0.304980724908,1.0,-0.18998,-0.249688,2.832
-0.108030460334,-0.419504916655,-0.133443896572,-2.56032003013,-0.0533735384158,2.134628234,-0.375330818854,-0.700238714019,-0.420946497441,-0.00853684785375,-0.356780471611,-0.0609108379664,-0.0707691950911,-0.659758837563,0.573786118706,0.818977133288,0.00516643330352,0.0,0.818967350333,-0.5737060906,-0.0115994653996,0.0,-0.00653580850233,0.0108869620317,-0.999919375382,0.0,0.389339135062,-0.0967865938725,0.304984156585,1.0,-0.18998,-0.249688,2.847
-0.120829383117,-0.426761388462,-0.133676010448,-2.5665426625,-0.054608157577,2.13326380012,-0.387295738363,-0.721469122958,-0.402039787608,-0.010712243395,-0.332299011933,-0.0619452854784,-0.0736122032408,-0.665875901275,0.573808171402,0.818962191112,0.00508516093308,0.0,0.818950011995,-0.573726203562,-0.0118265844883,0.0,-0.00676816577741,0.0109508942649,-0.99991713149,0.0,0.38585748155,-0.101288209591,0.304918655953,1.0,-0.18998,-0.249688,2.865
-0.132305384459,-0.433065462153,-0.133775824857,-2.57181600398,-0.0556213639014,2.13219611855,-0.39802951571,-0.710148513246,-0.378918051666,-0.00390286929305,-0.320709218864,-0.0565383039071,-0.0589606147032,-0.680166846567,0.573794359237,0.818971638567,0.0051220535216,0.0,0.818960104889,-0.57371253703,-0.0117906045796,0.0,-0.00671771376838,0.0109603509098,-0.999917368101,0.0,0.382835869529,-0.105253371257,0.304920905889,1.0,-0.18998,-0.249688,2.881
-0.144647252941,-0.439538061824,-0.133955324061,-2.57714981894,-0.0566864564491,2.13097455895,-0.409657404317,-0.734765000421,-0.381445393661,-0.0134741299137,-0.30793910092,-0.0649881069116,-0.0756212225856,-0.683227484771,0.573786937808,0.818976624108,0.00515616778312,0.0,0.81896541747,-0.573704810414,-0.0117975589555,0.0,-0.00670393581717,0.010992219962,-0.999917110737,0.0,0.379625762267,-0.10950955702,0.304934226163,1.0,-0.18998,-0.249688,2.898
-0.157148397011,-0.445936653182,-0.134078974124,-2.58224139644,-0.0577451929902,2.12981482103,-0.421391498231,-0.72986689011,-0.37511763689,-0.0045515623202,-0.302534528981,-0.0543594271656,-0.0771383705322,-0.697870312615,0.573792026856,0.81897250624,0.00524317082155,0.0,0.818963719311,-0.573711764829,-0.0115751566249,0.0,-0.0064717908479,0.0109359098081,-0.99991925764,0.0,0.376449517682,-0.113774472917,0.305022060406,1.0,-0.18998,-0.249688,2.915
-0.169659405823,-0.452092598336,-0.134259647378,-2.58740609691,-0.0587267359065,2.12852725013,-0.433274708978,-0.747843232345,-0.356826022177,-0.0139756788118,-0.303982464864,-0.0536959438403,-0.0753210423995,-0.70743973225,0.573754061001,0.818999136464,0.00523821129444,0.0,0.818988866647,-0.573671444922,-0.0117922216039,0.0,-0.00665293515815,0.0110560846287,-0.999916747258,0.0,0.373167506173,-0.117971409468,0.304957762451,1.0,-0.18998,-0.249688,2.932
-0.181685835958,-0.457724144354,-0.134399261052,-2.5920035287,-0.0596391536,2.12733462606,-0.444584140153,-0.747367276047,-0.343583160669,-0.00174539420415,-0.279000553936,-0.0549606441387,-0.0755236751917,-0.709644474744,0.573813737825,0.818957217453,0.00525520370589,0.0,0.818946601877,-0.573730111002,-0.0118730747727,0.0,-0.00670860083427,0.0111168786662,-0.999915701289,0.0,0.370096852202,-0.121978014875,0.304945657285,1.0,-0.18998,-0.249688,2.948
-0.195177427143,-0.463740176061,-0.134536386198,-2.59687256302,-0.0606171165748,2.12616391432,-0.457473339893,-0.762519022981,-0.330941230834,-0.0114992095936,-0.267969758128,-0.0561740897169,-0.0670433357132,-0.7156764801,0.573732815433,0.819013475906,0.00532256335798,0.0,0.819003994841,-0.573649396992,-0.0118140876218,0.0,-0.00662273921532,0.0111375448383,-0.999916043686,0.0,0.366726689355,-0.126439435501,0.304950221722,1.0,-0.18998,-0.249688,2.966
-0.208189846612,-0.469252585032,-0.134686583976,-2.60131065411,-0.0615912735858,2.12497081238,-0.469706623169,-0.753752906312,-0.31872109686,-0.000265017205786,-0.254691566353,-0.0487777737325,-0.065727985646,-0.716122632245,0.573827105956,0.818947535558,0.00530409040556,0.0,0.8189377358,-0.573743603236,-0.0118325622649,0.0,-0.006647187744,0.0111337791075,-0.999915923395,0.0,0.363486880552,-0.130716268581,0.304944150914,1.0,-0.18998,-0.249688,2.983
-0.220371216891,-0.474369394142,-0.134829618123,-2.60522385673,-0.0624121050266,2.12387678634,-0.481422714628,-0.769592979708,-0.316900917108,-0.00876888181551,-0.242759951212,-0.0525726494157,-0.0697880669878,-0.735977306694,0.573749829241,0.819000924069,0.00541910710183,0.0,0.818993527626,-0.573667498157,-0.0116597669818,0.0,-0.00644071832295,0.0111282172094,-0.999917336548,0.0,0.360494910479,-0.134687282157,0.30502492657,1.0,-0.18998,-0.249688,2.999
-0.233584994881,-0.479498035551,-0.134987199179,-2.60927938991,-0.0633043479306,2.1227257091,-0.493976152084,-0.770957575705,-0.292089580956,-0.00914898756878,-0.233464067413,-0.052263007164,-0.0627426905002,-0.734412312981,0.573803417307,0.818963245016,0.00543953125464,0.0,0.818956167775,-0.5737211041,-0.0116463245155,0.0,-0.00641726139267,0.0111376529112,-0.999917382309,0.0,0.357258029426,-0.138962277768,0.305032249516,1.0,-0.18998,-0.249688,3.016
-0.24671948504,-0.484389761165,-0.135096049047,-2.61321313263,-0.0641262539774,2.12158269931,-0.506612990607,-0.786637859972,-0.278029510819,-0.00776575424036,-0.230809735222,-0.0552850866124,-0.0713103273077,-0.74733333568,0.57372408463,0.819018795749,0.0054436961117,0.0,0.819011169748,-0.573640729335,-0.0117373071226,0.0,-0.00649047429888,0.0111926391981,-0.999916295782,0.0,0.354026898407,-0.143140599639,0.304999120744,1.0,-0.18998,-0.249688,3.033
-0.25939517702,-0.488729937632,-0.135243990682,-2.61669155197,-0.0648813938663,2.12049038691,-0.518698807429,-0.780486869135,-0.258359192291,-0.00214079403532,-0.215881259895,-0.0435927852144,-0.0672937242236,-0.744547934729,0.573800145149,0.818965514589,0.00544299926958,0.0,0.81895695096,-0.573715185289,-0.0118804690242,0.0,-0.00660709030042,0.0112748140115,-0.999914608818,0.0,0.350951613801,-0.14717026406,0.304960933932,1.0,-0.18998,-0.249688,3.049
-0.272719675845,-0.493116826971,-0.135384308905,-2.62016053409,-0.0655727730416,2.11947554528,-0.53163555022,-0.793340955939,-0.258204692738,-0.00904043378989,-0.201789525827,-0.0450807235583,-0.0595820125416,-0.766434000284,0.573741531261,0.819005851931,0.00555128001601,0.0,0.818998405756,-0.573655682693,-0.011896049106,0.0,-0.00655853677743,0.0113719658586,-0.999913828281,0.0,0.347566764312,-0.151621733894,0.304947286625,1.0,-0.188794857143,-0.248130383674,3.067
-0.287011260373,-0.497564320606,-0.13548469049,-2.62359771802,-0.0663312254235,2.11836529115,-0.545311151694,-0.771327335078,-0.245357388588,-0.000742854965449,-0.191145911347,-0.0368969560674,-0.0714224947528,-0.758044541882,0.573792116236,0.818970213681,0.00558062275017,0.0,0.818963029846,-0.573705940884,-0.0119078142617,0.0,-0.00655063488476,0.0114031532069,-0.999913524901,0.0,0.344360579189,-0.155834347212,0.304954462765,1.0,-0.185987428571,-0.244440620408,3.084
-0.299555240965,-0.501251105908,-0.135492052579,-2.6264128139,-0.0669041935596,2.11742107277,-0.557405528401,-0.79100003142,-0.217437814105,-0.00219237641643,-0.169014838059,-0.0461807634867,-0.0462957047644,-0.749304202811,0.573762561104,0.818990553723,0.00563411833269,0.0,0.818984053967,-0.573676169823,-0.011896151772,0.0,-0.00651080185458,0.0114400398368,-0.999913363721,0.0,0.341410079934,-0.159699913776,0.304972580428,1.0,-0.183345142857,-0.240967902041,3.1
-0.313738165798,-0.505051862358,-0.135500254696,-2.62929241172,-0.0675270895857,2.11649193499,-0.570949399628,-0.779274343752,-0.206640987,0.010150203257,-0.157119861039,-0.0343198542126,-0.0496456548331,-0.747551277691,0.573862941599,0.818919845993,0.00568832132059,0.0,0.818914554431,-0.573777222655,-0.0118067016556,0.0,-0.00640503640941,0.0114338978003,-0.999914117057,0.0,0.338133230792,-0.164068275697,0.305000936732,1.0,-0.180372571429,-0.237061093878,3.118
-0.32766443756,-0.508571445792,-0.135500508955,-2.63194173862,-0.0680380394169,2.11563949542,-0.58437814975,-0.781987656464,-0.192015110248,-0.0027157643508,-0.14504172757,-0.0341405104186,-0.0534711433824,-0.73575205316,0.573902073189,0.818891623619,0.00580224587072,0.0,0.818888287023,-0.573816801863,-0.0117046220386,0.0,-0.00625551121388,0.011468918848,-0.999914662599,0.0,0.334928419109,-0.168318577595,0.305032082061,1.0,-0.1774,-0.233154285714,3.136
-0.338442179647,-0.511102608407,-0.135458257505,-2.6338817877,-0.0684866282714,2.11495025915,-0.594791619052,-0.755212057427,-0.176554640825,0.00852152473091,-0.135441854607,-0.0346126679604,-0.0427349299207,-0.739943218182,0.573854594723,0.818925032586,0.00578290756817,0.0,0.818921370497,-0.573769264053,-0.0117203870628,0.0,-0.00628018465088,0.0114617652336,-0.999914589962,0.0,0.33226455769,-0.171802869323,0.305028529483,1.0,-0.174922857143,-0.229898612245,3.151
-0.352041669567,-0.514019072124,-0.135383825425,-2.63618130525,-0.0688969679382,2.11410498551,-0.608029477366,-0.763382319305,-0.155719549668,0.000764492805027,-0.121527244665,-0.0258022399208,-0.0421057471635,-0.740523931001,0.573805731271,0.818958894915,0.00583593187328,0.0,0.818955016354,-0.573718566623,-0.011850502189,0.0,-0.00635701409983,0.011579474698,-0.999912748262,0.0,0.32930316521,-0.175646197238,0.304994226214,1.0,-0.172115428571,-0.22620884898,3.168
-0.364210522283,-0.516382386929,-0.135345375801,-2.6380288527,-0.069299976584,2.11343984007,-0.619663682099,-0.751350694773,-0.141526124121,0.00673012942987,-0.108039566813,-0.0224021983101,-0.0406465092986,-0.7266181186,0.573938874277,0.818865503944,0.00584824285469,0.0,0.818861392464,-0.573850920944,-0.0119116483107,0.0,-0.00639814153277,0.0116256821401,-0.999911949773,0.0,0.326522877871,-0.179297655814,0.304970960288,1.0,-0.169473142857,-0.222736130612,3.184
-0.375999444262,-0.518474457575,-0.135213246757,-2.63966613094,-0.0696165886274,2.11286681177,-0.631175821682,-0.744295971314,-0.119702946955,0.00792180110184,-0.0976367022251,-0.020176087438,-0.0375668972197,-0.716518719951,0.573843140651,0.818932485046,0.00586359659187,0.0,0.818928361454,-0.573754761425,-0.0119398262051,0.0,-0.00641376856641,0.011653677287,-0.999911523775,0.0,0.323862779276,-0.182794824337,0.304952035315,1.0,-0.166830857143,-0.219263412245,3.2
-0.389295415664,-0.520660227197,-0.135156738971,-2.64129159806,-0.069979994522,2.11221670073,-0.644005593392,-0.717385079933,-0.112337032402,0.0153510995781,-0.084644202276,-0.0236136585856,-0.0333122862171,-0.700961221491,0.57393619554,0.818866984621,0.00590354543434,0.0,0.818863355758,-0.573847593843,-0.0119369401161,0.0,-0.00638715378832,0.0116854640032,-0.999911323167,0.0,0.320861361258,-0.186759936336,0.304963058822,1.0,-0.163858285714,-0.215356604082,3.218
-0.401478689136,-0.52251604346,-0.135006623234,-2.64266569833,-0.0702431815823,2.11167263531,-0.656019286638,-0.719858932703,-0.104726458039,0.00582260943711,-0.0751036844486,-0.0237728784595,-0.0339394716483,-0.699382964553,0.573777204183,0.818978126429,0.00594098411625,0.0,0.818975094869,-0.57368868938,-0.0119091798116,0.0,-0.00634520454295,0.0116989591678,-0.999911432445,0.0,0.318127579203,-0.190343735807,0.304977343962,1.0,-0.161050857143,-0.211666840816,3.235
-0.413088034164,-0.524088362559,-0.134967374457,-2.64378512234,-0.070494669851,2.111186565,-0.667122236144,-0.718044633407,-0.0946901314805,0.00489745543072,-0.0712886692542,-0.0170527300911,-0.025088064614,-0.706744465628,0.57399190433,0.818827213606,0.00600290949029,0.0,0.818825198136,-0.573903494918,-0.0118667737975,0.0,-0.00627186733984,0.011726991424,-0.999911566766,0.0,0.315523077257,-0.193788940659,0.305004585636,1.0,-0.158408571429,-0.208194122449,3.251
-0.424925085637,-0.525475656106,-0.134814643319,-2.64482652183,-0.0706999698357,2.11078893742,-0.67883146034,-0.697076804306,-0.0805382239393,0.00481097423046,-0.0663488159949,-0.0176222561424,-0.0210429515425,-0.68282481508,0.573841004608,0.818932735699,0.00603512488518,0.0,0.818931307008,-0.57375281684,-0.0118307426259,0.0,-0.00622603239153,0.0117315438125,-0.999911799811,0.0,0.312891704825,-0.197258774818,0.305009294476,1.0,-0.155601142857,-0.204504359184,3.268
-0.436861327519,-0.526658138733,-0.134754772655,-2.64573523464,-0.0708958178042,2.11039996843,-0.690355913031,-0.696661722129,-0.066286781206,0.00222379142029,-0.0493361421107,-0.0154423665506,-0.0197297436267,-0.680695150623,0.574000159657,0.818820772323,0.00609150451554,0.0,0.818819802027,-0.573911200724,-0.0118664398114,0.0,-0.0062206245067,0.011799410043,-0.999911034919,0.0,0.310220507182,-0.200772930478,0.304997187686,1.0,-0.152793714286,-0.200814595918,3.285
-0.447668789581,-0.527586935221,-0.134566513005,-2.64648053942,-0.0710147292619,2.11010255043,-0.701062109689,-0.667924386234,-0.0510967008169,0.0134708402412,-0.0448830961859,-0.00171842725042,-0.0115002686772,-0.656311953497,0.57385679664,0.818921076387,0.00611510436084,0.0,0.818920167299,-0.573767307433,-0.011898882869,0.0,-0.00623571906002,0.0118362649778,-0.999910505315,0.0,0.307822389773,-0.203903675911,0.304977369621,1.0,-0.150151428571,-0.197341877551,3.301
-0.459153138656,-0.528407461793,-0.13445468383,-2.64712137075,-0.0711595303255,2.1098252674,-0.71220597003,-0.681350668167,-0.0407844980757,0.00886905721261,-0.03350194232,-0.0040063338407,-0.00744808226335,-0.654181028924,0.573958209414,0.81884974212,0.00614984362142,0.0,0.818849147115,-0.57386829642,-0.0119163557338,0.0,-0.00622862445765,0.0118755130444,-0.999910084171,0.0,0.305266808301,-0.207258090653,0.304964979532,1.0,-0.147344,-0.193652114286,3.318
-0.47105027992,-0.529061758308,-0.134276372767,-2.64761594347,-0.0712888242669,2.10957238648,-0.723872734477,-0.643990509103,-0.0366951140306,0.0148828448576,-0.0251736238076,-0.00311563231143,-0.0164718089092,-0.634274667134,0.573937480368,0.818864243936,0.00615349767286,0.0,0.818863656102,-0.573847479876,-0.0119218059434,0.0,-0.00623129144984,0.011881475622,-0.999909996722,0.0,0.302640017947,-0.210719498893,0.304961967054,1.0,-0.144371428571,-0.189745306123,3.336
-0.480737082762,-0.529459237403,-0.134159446619,-2.6479244042,-0.0713553343159,2.10938554904,-0.733446913514,-0.648146847122,-0.0261872006852,0.00706459897966,-0.0191751297282,-0.00358449196268,-0.0182137299431,-0.62809058051,0.573901197403,0.818889399659,0.00618980183098,0.0,0.818889053769,-0.573810614881,-0.0119516847494,0.0,-0.00623545400656,0.0119280768055,-0.999909415946,0.0,0.300495149288,-0.213536874368,0.304953821367,1.0,-0.141894285714,-0.186489632653,3.351
-0.492354326478,-0.52980795129,-0.134027492371,-2.64817321556,-0.0714170904763,2.10918488531,-0.744715527389,-0.633421317756,-0.0148635472378,0.0096407558582,-0.010928033979,-0.000600478755525,-0.00835949077232,-0.619419776162,0.574052891224,0.818782703127,0.00623779115263,0.0,0.818782812587,-0.573961750269,-0.0119733847274,0.0,-0.00622346660595,0.0119809829759,-0.999908858102,0.0,0.297921011334,-0.216914734956,0.304954152895,1.0,-0.138921714286,-0.18258282449,3.369
-0.502800570193,-0.529968577225,-0.13383287913,-2.64831165957,-0.0714331093053,2.10905978965,-0.755219054914,-0.616031959466,-0.0108974574947,0.00692689264854,-0.00306256895608,-0.000705844853059,-0.00634792992964,-0.615301806837,0.573854104596,0.818921819112,0.00626639613309,0.0,0.818922086593,-0.573762471268,-0.0119995648302,0.0,-0.00623140250187,0.0120179211101,-0.999908365399,0.0,0.295619026166,-0.219926242743,0.304944076076,1.0,-0.136114285714,-0.178893061225,3.386
-0.512748630418,-0.530081780687,-0.133717555735,-2.64841517471,-0.0714491196569,2.10895377018,-0.764874709106,-0.625191052047,-0.00551463920891,0.00705206398087,-0.00486321209777,-0.00127971384945,-0.0108592198605,-0.589067334771,0.573999609653,0.818819418194,0.00632102902874,0.0,0.818820176879,-0.573907281209,-0.0120290237448,0.0,-0.00622203343328,0.0120806736318,-0.99990766755,0.0,0.293394157147,-0.222795808852,0.304932180166,1.0,-0.133472,-0.175420342857,3.402
-0.522938322234,-0.530033706875,-0.133511404837,-2.64838569664,-0.0714584529747,2.10891212192,-0.774982415783,-0.582921042467,0.00239805118026,0.0125015172613,0.00407448475868,-0.000167163180468,0.000333086795617,-0.584874322838,0.573919187736,0.818875757772,0.00632504406152,0.0,0.818876641003,-0.573826999631,-0.0120153325447,0.0,-0.00620970304212,0.0120754932204,-0.999907806776,0.0,0.29114586243,-0.225726649128,0.304929698744,1.0,-0.130664571429,-0.171730579592,3.419
-0.532931534937,-0.529892304846,-0.133366844883,-2.64829395462,-0.0714637426982,2.10890270902,-0.784848697331,-0.589821243253,0.00823757495457,0.0116720019506,0.00539056954514,0.000201274818405,-0.00136717031093,-0.576594856314,0.573924326829,0.818871951452,0.00635146436975,0.0,0.818873215419,-0.573832093682,-0.0120055083206,0.0,-0.00618641903717,0.0120915301317,-0.999907757305,0.0,0.288920970426,-0.228609165393,0.304922652329,1.0,-0.127857142857,-0.168040816327,3.436
-0.542308776323,-0.529698017993,-0.133242874783,-2.64810446535,-0.0714652125842,2.10891489887,-0.793987740157,-0.580708917252,0.0148559883951,0.00720434488387,0.0106127409651,-5.35195125412e-05,0.00123432290485,-0.571670887848,0.574041868801,0.818789374616,0.00637493372851,0.0,0.818791366449,-0.573950338443,-0.0119354149743,0.0,-0.00611381330139,0.0120714010272,-0.999908447091,0.0,0.286833499365,-0.231322251208,0.3049420577,1.0,-0.125214857143,-0.164568097959,3.452
-0.552268892817,-0.529270109252,-0.132997840896,-2.64778332999,-0.0714631653977,2.10893182503,-0.80402763528,-0.55425064011,0.0332022825296,0.00843214769698,0.021711162385,-0.000534776533452,-0.000799290119543,-0.553408375687,0.573822972573,0.81894315129,0.00632913931765,0.0,0.818944453532,-0.573731500835,-0.0119538228411,0.0,-0.00615839331592,0.0120428235578,-0.999908518112,0.0,0.28463609304,-0.234181710437,0.304939457939,1.0,-0.122242285714,-0.160661289796,3.47
-0.561704442023,-0.528825540675,-0.132828923122,-2.64746424946,-0.0714599744027,2.1089767403,-0.813334337896,-0.557233701199,0.0233934114514,0.00809185379081,0.0230686442226,-0.000195938239573,0.00449551522077,-0.5436103373,0.573828980715,0.818939061236,0.00631361814834,0.0,0.818940067812,-0.573737391191,-0.0119715572084,0.0,-0.00618173603397,0.0120403331587,-0.999908404064,0.0,0.2825234562,-0.23689243211,0.30493024495,1.0,-0.119434857143,-0.156971526531,3.487
-0.569912720275,-0.528304440345,-0.132697723732,-2.64705875174,-0.0714531823203,2.10908233167,-0.821320607729,-0.536043247369,0.0390313534458,0.0171393395524,0.0309953688415,0.000420808297329,0.0133837002419,-0.526444117828,0.573944045602,0.818858577059,0.00629366319647,0.0,0.818859616331,-0.573853085441,-0.0119294581793,0.0,-0.00615701964745,0.0120006991703,-0.999909033027,0.0,0.280701318448,-0.239275446297,0.304936519676,1.0,-0.116957714286,-0.153715853061,3.502
-0.579211670804,-0.527524028077,-0.132489122751,-2.64651564105,-0.071420200304,2.10920114093,-0.830747953196,-0.519729336793,0.0386922614411,0.00509431003633,0.0313784010484,-0.000904174259218,0.00875230879147,-0.519889469631,0.573736778467,0.81900411839,0.00625379850903,0.0,0.819004303824,-0.573645382319,-0.0119863489914,0.0,-0.00622952648948,0.0119991281705,-0.999908602785,0.0,0.278642842728,-0.241958998286,0.304913549758,1.0,-0.113985142857,-0.149809044898,3.52
-0.588056225974,-0.526769528659,-0.132304856281,-2.64594201013,-0.0713894651598,2.10930891571,-0.839424157881,-0.516751747202,0.0431404555585,0.0085424382961,0.0334142271661,0.00540392066386,0.00606895942091,-0.508125383263,0.573789980533,0.818967137769,0.0062154964705,0.0,0.818966754111,-0.573698601466,-0.0120048839402,0.0,-0.00626590444528,0.0119787977209,-0.999908619248,0.0,0.276670969317,-0.244511357687,0.304912185427,1.0,-0.111177714286,-0.146119281633,3.537
-0.596124836639,-0.52591751244,-0.132158466419,-2.64529282427,-0.071340589884,2.10944591109,-0.847386967328,-0.496304546699,0.0570722107678,0.0116529017376,0.0414409449229,0.00709045703833,0.0128208163165,-0.493750937147,0.573830514097,0.818938905562,0.00619329874811,0.0,0.818938152553,-0.573739068324,-0.0120220910422,0.0,-0.00629214177029,0.0119708017933,-0.999908550247,0.0,0.274881890137,-0.24686204264,0.304910841016,1.0,-0.108535428571,-0.142646563265,3.553
-0.604216879619,-0.524941381118,-0.131924985774,-2.6445925101,-0.0712483880735,2.10960273615,-0.855635964767,-0.4738384963,0.0535945126302,0.0147501584792,0.0421162862308,0.00499603878748,0.0126074370543,-0.487713836892,0.573615723936,0.819089611758,0.00616084927363,0.0,0.819088019417,-0.573523676808,-0.0120894784359,0.0,-0.00636909589556,0.0119812234302,-0.999907938214,0.0,0.273101490661,-0.249195328594,0.304890944975,1.0,-0.105728,-0.1389568,3.57
-0.612400439459,-0.524003392577,-0.131742293576,-2.64385702632,-0.0711752252276,2.10975589533,-0.863666740914,-0.474708870136,0.0579139455022,0.00563920243682,0.0518375981022,0.00341667777093,0.0169259627563,-0.467744835066,0.573689234043,0.819038327944,0.00613408537073,0.0,0.81903643753,-0.573597383776,-0.0120872753174,0.0,-0.00638156930987,0.0119586093884,-0.999908129397,0.0,0.271173152468,-0.251697830895,0.304899386772,1.0,-0.102755428571,-0.135049991837,3.588
