nelsonifechukwu/NELSON_IML_WORK/CNN-GradCAM/train2dof/data_sample_2022-02-21-08-12-02/robot_state.csv
position_joint1,position_joint2,position_joint3,position_joint4,position_joint5,position_joint6,position_joint7,velocity_joint1,velocity_joint2,velocity_joint3,velocity_joint4,velocity_joint5,velocity_joint6,velocity_joint7,ee_T_00,ee_T_10,ee_T_20,ee_T_30,ee_T_01,ee_T_11,ee_T_21,ee_T_31,ee_T_02,ee_T_12,ee_T_22,ee_T_32,ee_T_03,ee_T_13,ee_T_23,ee_T_33,v_x,v_y,time
0.465060026301,0.547560446363,-0.124005937391,-1.35573581137,0.0794420517481,1.8941043089,0.159170808385,-0.00146578053178,0.0026554529466,-0.000793675754572,-0.000699016880982,-0.000304756569942,0.000198104307632,0.00141748072235,0.573817576314,0.81896847389,0.00218512914367,0.0,0.818929105344,-0.573758795353,-0.0116923940039,0.0,-0.00832212523506,0.00849893067408,-0.999929252702,0.0,0.661716791165,0.260876714437,0.303417813068,1.0,0.0,0.0,0.0
0.465065285848,0.547547605212,-0.123998141685,-1.35573080006,0.0794424884732,1.89410314334,0.159167949511,0.000938508826067,-0.00204806216499,0.00488457208767,0.00100844150856,0.000177279716573,-0.000340192065385,-0.00393680030072,0.57380528867,0.818977038513,0.00220181363458,0.0,0.818937847042,-0.573746406436,-0.0116880574044,0.0,-0.00830912795499,0.00850998151392,-0.999929266802,0.0,0.661714860109,0.260885463758,0.303428937138,1.0,-0.00014,-0.000184,0.008
0.465065864931,0.547546358943,-0.124000964846,-1.35574189093,0.0794413053721,1.89410186458,0.159168467187,0.00102584289294,-0.00178880435041,0.000598770228448,-0.00251397917178,-6.5800610889e-05,-0.000724134195864,-0.000418202714352,0.573807494258,0.818975521159,0.00219138696747,0.0,0.81893620614,-0.573748662785,-0.0116922678034,0.0,-0.00831853593316,0.00850388074582,-0.999929240483,0.0,0.661712658778,0.26088263255,0.303424520592,1.0,-0.0005,-0.000657142857143,0.026
0.465059892041,0.547530219866,-0.12400338223,-1.35575523971,0.0794384600785,1.8941075041,0.15916694266,0.000112637653645,-0.000795546364461,0.000101470184299,-0.00222318144167,6.28809008409e-05,-0.000239381546646,-0.000497172455687,0.573812810706,0.818971781119,0.00219702117718,0.0,0.818932570405,-0.573753989423,-0.0116855317247,0.0,-0.00830973105268,0.00850468374489,-0.999929306863,0.0,0.661713423257,0.260875831632,0.303430164664,1.0,-0.00084,-0.001104,0.043
0.465064860861,0.547412893025,-0.123995751757,-1.35585426612,0.0794380920665,1.89411623579,0.159168351355,-0.00127538770192,-0.00692533729465,0.00109368173138,-0.00514774651053,6.45126911121e-05,-0.000278813724925,0.000597682437061,0.573809718341,0.818973865441,0.00222750135044,0.0,0.818934928577,-0.573750659067,-0.0116837869831,0.0,-0.00829084544514,0.00852861337951,-0.999929259816,0.0,0.661692533178,0.260873856571,0.303466647678,1.0,-0.00118,-0.00155085714286,0.06
0.465059458887,0.547273446197,-0.124000395086,-1.35603315188,0.0794383474953,1.89415393715,0.159158078504,0.000219268686665,-0.00762041945087,-0.000942632197044,-0.0132201338362,-0.000308382078822,-0.000441158915654,-5.8467198201e-05,0.573818819924,0.818967474442,0.00223262362891,0.0,0.818928493644,-0.573759626872,-0.0116944333177,0.0,-0.00829653095285,0.0085390094337,-0.999929123934,0.0,0.661665183405,0.260850791644,0.303483706957,1.0,-0.00152,-0.00199771428571,0.077
0.465042437128,0.547134803256,-0.124004748915,-1.35621841797,0.079431760572,1.89422521715,0.159159550355,-0.00389852124891,-0.0108993652343,-0.000187376572386,-0.00955198742842,-0.00296853424666,0.00432993766182,0.000806540813028,0.573845616449,0.818948636783,0.00225514854267,0.0,0.818909934541,-0.573786322254,-0.0116842802576,0.0,-0.00827501131995,0.00855190120325,-0.99992919208,0.0,0.661646392387,0.260820614677,0.303500051929,1.0,-0.00184,-0.00241828571429,0.093
0.46502333656,0.546937631722,-0.12400134512,-1.35642722291,0.0794247232078,1.89434317658,0.159143594849,-6.71173970652e-06,-0.0100912552943,-0.000217430095755,-0.0106446925148,-0.000653443672733,0.00226314107628,0.000417859678815,0.573855780933,0.818941249082,0.00234949855557,0.0,0.818903758719,-0.57379612892,-0.0116354326643,0.0,-0.0081807600886,0.00860123909683,-0.999929544443,0.0,0.661631839027,0.260794634296,0.303550445386,1.0,-0.00218,-0.00286514285714,0.11
0.465003729025,0.546750399368,-0.124002054392,-1.35665688221,0.0794201405103,1.89447459642,0.159131654322,-0.000900205443524,-0.014558257795,-0.00338977522414,-0.0171926293012,-0.000348396114725,0.0148194980909,-0.00212286428995,0.573874417639,0.818927957156,0.00242912912145,0.0,0.818891482426,-0.573814463496,-0.0115951883577,0.0,-0.00810191047794,0.00864354152845,-0.999929821656,0.0,0.661615856128,0.260764641541,0.303585175296,1.0,-0.0025,-0.00328571428571,0.126
0.464972586434,0.546521346995,-0.124004258704,-1.35697789089,0.0794063589905,1.89460550631,0.159094667961,-0.000740486154184,-0.0158734687384,-0.000399894565327,-0.0162302555008,-0.000971643963,0.0137870340577,-0.00876274876678,0.573885514327,0.818920074325,0.00246479496866,0.0,0.818884039166,-0.573825410595,-0.0115790956527,0.0,-0.00806814722443,0.00866362332533,-0.99992992086,0.0,0.661583775137,0.260714324791,0.303606015905,1.0,-0.00284,-0.00373257142857,0.143
0.464930617114,0.546256408352,-0.123999076966,-1.35741340303,0.0793834333344,1.89475238,0.158974928666,-0.00241521665193,-0.00851961043554,0.000259783605902,-0.018842789724,-0.000415132156662,0.0087635145596,-0.00405003895774,0.573836430156,0.818954518528,0.00244845050653,0.0,0.818918190744,-0.573776302614,-0.0115973414281,0.0,-0.00809298810181,0.0086602243995,-0.999929749561,0.0,0.661531172906,0.260647598054,0.303598874081,1.0,-0.0032,-0.00420571428571,0.161
0.464898688521,0.545986705581,-0.124001764835,-1.35782321797,0.0793555415104,1.89489591795,0.15893994765,-0.000914835484513,-0.0224075316767,0.000564074434677,-0.0334815740872,-0.000305008497177,0.00411577689336,-0.000143891707288,0.573851261091,0.818944124474,0.00244908882567,0.0,0.818907833709,-0.573791160265,-0.0115935841029,0.0,-0.00808938780955,0.00865873759032,-0.999929791569,0.0,0.661483362448,0.26058504358,0.303607284764,1.0,-0.0035,-0.0046,0.176
0.464848613557,0.545669006039,-0.124001712261,-1.35836639532,0.0793028231747,1.89508272909,0.158895735541,-0.0059576779159,-0.0199185171049,0.00115030780431,-0.0304846634714,-0.00501840295078,0.0113686551748,0.00022260466035,0.573872368267,0.818929466477,0.00240432471525,0.0,0.818892746005,-0.573812581952,-0.0115990618159,0.0,-0.00811933805424,0.00862543120861,-0.999929836682,0.0,0.661420290282,0.260495788636,0.303589801821,1.0,-0.00386,-0.00507314285714,0.194
0.464781922687,0.545303854149,-0.124007318235,-1.35899923172,0.079273633373,1.89528286083,0.158805293639,-0.0011859014675,-0.0219797363593,-0.000816094462513,-0.0399395653125,-0.000227608399901,0.0132185681335,-0.00850141418941,0.573884300729,0.818921260969,0.0023504491451,0.0,0.818883741948,-0.573824598716,-0.0116401882939,0.0,-0.00818380970176,0.00860503158412,-0.999929486859,0.0,0.661344782348,0.260386964339,0.303564598629,1.0,-0.00422,-0.00554628571429,0.212
0.464726993222,0.544951688547,-0.124005214699,-1.35959741226,0.0792470675391,1.8954734022,0.158709548459,-0.00488892587931,-0.0219148330837,0.000274446443751,-0.0386658237788,-0.000623328872818,0.0153633737302,-0.00389696190593,0.573872743418,0.818929477764,0.0023090499121,0.0,0.818891267694,-0.57381303199,-0.0116808781742,0.0,-0.00824101119693,0.00859436388117,-0.999929108809,0.0,0.661264663019,0.260288702709,0.303545108258,1.0,-0.00454,-0.00596685714286,0.228
0.464660857134,0.54452202773,-0.124012642244,-1.36034253751,0.0792077790848,1.89572998147,0.158650870588,-0.00284937089573,-0.0209490744413,-0.00608815171969,-0.0396408657045,-0.00636231737074,0.0163948657559,-0.00514220105599,0.573916311566,0.818899057384,0.00226892825807,0.0,0.8188603159,-0.573856731986,-0.0117038925459,0.0,-0.00828242628062,0.00857515524936,-0.999928931538,0.0,0.661188246301,0.260182168113,0.303523937307,1.0,-0.00486,-0.00638742857143,0.244
0.464598114368,0.544095285997,-0.124008421187,-1.36104249699,0.079172516681,1.89597757279,0.158545441434,-0.00387496318633,-0.0276681732719,-3.2446650198e-05,-0.0430236457398,-0.00543495369745,0.0197969173954,-0.00591104160886,0.573909707945,0.818903759778,0.00224192960311,0.0,0.818864543601,-0.573850102161,-0.0117331318736,0.0,-0.0083219344965,0.00856975994252,-0.999928649765,0.0,0.66109923679,0.260068895734,0.303507615648,1.0,-0.0052,-0.00683428571429,0.261
0.464527443335,0.543633838503,-0.12400865799,-1.36179559232,0.0791383975592,1.89624897082,0.15845617884,-0.00426594164113,-0.0296108544379,-0.000267393728193,-0.0508168902635,-0.00618964890767,0.0226627059983,-0.00890336409627,0.573932101093,0.818888094303,0.00223142213446,0.0,0.818848643312,-0.573872431202,-0.0117507001466,0.0,-0.00834211741607,0.0085714660392,-0.999928466965,0.0,0.661007622019,0.25993884161,0.303502159901,1.0,-0.00554,-0.00728114285714,0.278
0.464452798845,0.543117184801,-0.12401930657,-1.36263775643,0.0790919090244,1.89653900045,0.158346226774,-0.00280194676989,-0.0283603265843,-0.00183272433008,-0.0515439433006,-0.0021083756456,0.0191078287953,-0.00647524822614,0.573940466273,0.818882317368,0.00219963142913,0.0,0.818842413222,-0.573880875829,-0.0117724070505,0.0,-0.00837805085891,0.00855797706693,-0.999928282074,0.0,0.660914585166,0.25981507369,0.303489310123,1.0,-0.00586,-0.00770171428571,0.294
0.464382990747,0.542629936342,-0.124017318162,-1.36342240347,0.079034069713,1.89681307523,0.158250039906,-0.00648172826946,-0.0297965059673,0.000136309733735,-0.0527042628506,-0.00481826709635,0.0187771742943,-0.00380155447467,0.573947998064,0.818877071264,0.00218736782397,0.0,0.818837061143,-0.57388850838,-0.0117726016484,0.0,-0.00838516974168,0.00854812356657,-0.999928306686,0.0,0.660817814863,0.259684214211,0.303492853462,1.0,-0.00618,-0.00812228571429,0.31
0.464306940174,0.54200535468,-0.124020420685,-1.36439262096,0.078975436748,1.89717584689,0.158111048601,-0.0054076787885,-0.0282767102697,0.000121070651834,-0.0566390713375,-0.00894603104327,0.0211689977697,-0.0034913585779,0.573934546222,0.818886498288,0.00218780159863,0.0,0.818846504837,-0.573875067768,-0.0117709392757,0.0,-0.00838369986653,0.00854738694778,-0.999928325308,0.0,0.660711154776,0.25954871087,0.303495554642,1.0,-0.00652,-0.00856914285714,0.327
0.464214914325,0.541375588356,-0.124017295016,-1.36534910296,0.0789229717783,1.89753102258,0.157999058479,-0.0091537491138,-0.0340597194996,-0.00209596846926,-0.0539060790287,-0.00500706914272,0.0217465925419,-0.0140192758352,0.573955075928,0.818872034422,0.002215616979,0.0,0.818832335788,-0.573895420097,-0.0117643342638,0.0,-0.00836211289189,0.00856658312504,-0.999928341793,0.0,0.660604064839,0.259400074858,0.303516240972,1.0,-0.00686,-0.009016,0.344
0.464145781009,0.540748582016,-0.124021194629,-1.36630491594,0.0788644367946,1.89787946647,0.157855294028,-0.00745325650103,-0.0388522887216,0.00221058198445,-0.0605059154609,-0.00394585119498,0.0280745601472,-0.0104375667348,0.57393400316,0.818886761221,0.00223141560857,0.0,0.818847276737,-0.573874298736,-0.0117547238336,0.0,-0.00834539633635,0.00857378937223,-0.999928419686,0.0,0.660491561696,0.259261101855,0.303534840851,1.0,-0.00718,-0.00943657142857,0.36
0.464030734358,0.539952347965,-0.124024137629,-1.3675062852,0.0787961020034,1.89831958366,0.157716837477,-0.007096329725,-0.0410163919093,0.000418007976937,-0.0705182860652,-0.00544555847776,0.0210221923203,0.000208848156297,0.573965095652,0.818864881636,0.00226307283377,0.0,0.818825772625,-0.573905230537,-0.0117425443584,0.0,-0.00831692798643,0.00859303840012,-0.999928491643,0.0,0.660357130195,0.259070077993,0.303563980404,1.0,-0.00756,-0.009936,0.379
0.463938077772,0.539267524438,-0.124031910993,-1.3685988829,0.0787261959338,1.89873795352,0.157582557022,-0.00407876850695,-0.0408576259566,-6.35299954957e-05,-0.0706879664448,-0.00221797357665,0.0275193536522,-0.00737207342568,0.573978333989,0.818855592868,0.00226650419115,0.0,0.818816607816,-0.573918536386,-0.0117312939565,0.0,-0.00830560680846,0.0085895252091,-0.999928615928,0.0,0.660235722942,0.258900767566,0.303564312537,1.0,-0.00788,-0.0103565714286,0.395
0.463836616699,0.53851853172,-0.124036083573,-1.3697679835,0.0786683688938,1.89918516175,0.157431627437,-0.00722709095572,-0.0440203220238,-0.000624169431045,-0.0757692457663,-0.000321412520665,0.0271996052985,-0.00463781668651,0.573989982101,0.818847349839,0.00229456109571,0.0,0.81880864484,-0.573929990499,-0.0117267234278,0.0,-0.00828563849747,0.00860999400076,-0.99992860555,0.0,0.660104625547,0.258723411587,0.303575860223,1.0,-0.00822,-0.0108034285714,0.412
0.463719629945,0.537704592903,-0.124047804806,-1.37106873254,0.0785835575146,1.89968374599,0.15727512986,-0.00229345364398,-0.0417153917351,-0.00409296240504,-0.0741951820486,-0.00581027360714,0.0259593717385,-0.00481765414993,0.574015066245,0.818829760824,0.00229639150141,0.0,0.818791199862,-0.573955189759,-0.0117114507039,0.0,-0.00827181781695,0.00860297993845,-0.999928780347,0.0,0.659961993333,0.258515791592,0.303575152195,1.0,-0.00858,-0.0112765714286,0.43
0.463621085711,0.536930827808,-0.124046077616,-1.37226023965,0.0785152281889,1.90012678709,0.157129028332,-0.00470726920836,-0.0418751830336,0.00079799360661,-0.0740449602956,-0.00531296213373,0.0253962292547,-0.00760204359892,0.5740222423,0.818824663523,0.00232005447746,0.0,0.818786360845,-0.57396222624,-0.0117049154075,0.0,-0.0082528086794,0.00861867668697,-0.999928802246,0.0,0.65982349162,0.258339498374,0.303592684429,1.0,-0.0089,-0.0116971428571,0.446
0.463493324535,0.536044647096,-0.124051647191,-1.37367026573,0.0784354370844,1.90065781768,0.156953846257,-0.00724547384853,-0.0475790778733,0.000913675398673,-0.0728252535931,-0.00550669665697,0.0335567870464,-0.00978406301775,0.574043607367,0.818809667644,0.00232635245464,0.0,0.818771422698,-0.573983540296,-0.0117046889147,0.0,-0.0082487832369,0.00862391879387,-0.999928790264,0.0,0.659664397627,0.258119359181,0.303593290572,1.0,-0.00926,-0.0121702857143,0.464
0.463389586597,0.53521536571,-0.124055666231,-1.37497728428,0.0783538437462,1.9011318901,0.156789526681,-0.0103518583573,-0.0571154539472,0.00142610178207,-0.0861897343566,4.45948767249e-05,0.0318417874889,-0.0140675616409,0.574046674223,0.818807534155,0.00232050099474,0.0,0.818769226957,-0.573986642724,-0.0117061464068,0.0,-0.00825330320003,0.00861999518001,-0.999928786799,0.0,0.659509562886,0.257923317109,0.303597594258,1.0,-0.00958,-0.0125908571429,0.48
0.463276839909,0.534368575903,-0.124051694965,-1.37633138582,0.0782946125494,1.90161944889,0.156622633602,-0.00606684217543,-0.0551845186504,0.00240163349041,-0.0806770337504,0.000512328995933,0.0299711588926,-0.0125433808261,0.574057897271,0.81879967689,0.00231659389929,0.0,0.818761067357,-0.573997616363,-0.0117387346556,0.0,-0.00828211222313,0.008635616489,-0.99992841381,0.0,0.659345895346,0.257725151005,0.303592642359,1.0,-0.0099,-0.0130114285714,0.496
0.463146141694,0.533449709791,-0.124058898656,-1.37781445142,0.078191043973,1.90215875806,0.156435778495,-0.0112481433129,-0.0530218857531,0.000557176137232,-0.0873176640165,-0.00288664525263,0.0300863891631,-0.00804622852099,0.574070336848,0.818791044249,0.00228497501596,0.0,0.818752147195,-0.574010301131,-0.0117406371042,0.0,-0.00830168915096,0.00861094548522,-0.999928464229,0.0,0.659173746612,0.257490676782,0.303581762855,1.0,-0.01024,-0.0134582857143,0.513
0.4630162996,0.532510467266,-0.124066285848,-1.37933328959,0.0781152678019,1.90272747017,0.156246684455,-0.0107234987123,-0.05700751242,-0.00183075692211,-0.0934505899202,-0.00574662009659,0.0303458680355,-0.015932486997,0.574089821854,0.818777393626,0.00228101561073,0.0,0.818738327468,-0.574029676681,-0.0117570543221,0.0,-0.00831719977288,0.00861732603757,-0.999928280368,0.0,0.658997568793,0.25725916955,0.303570649087,1.0,-0.01058,-0.0139051428571,0.53
0.462895646126,0.531596948089,-0.124062625599,-1.38078631294,0.0780279635236,1.90327459185,0.156066663165,-0.0115424317924,-0.0593015369859,-0.0011319436781,-0.0935206414391,-0.00354571456866,0.0327697464484,-0.0125731560299,0.574094525866,0.818774077857,0.00228729122912,0.0,0.818735063673,-0.574034325724,-0.011757351084,0.0,-0.00831379067965,0.00862268243949,-0.999928262543,0.0,0.658827105183,0.257044313494,0.30357027004,1.0,-0.0109,-0.0143257142857,0.546
0.462755023921,0.53053790086,-0.124062296545,-1.38251217028,0.0779198365932,1.90388139907,0.155845041894,-0.00804680275669,-0.0598526065454,-0.00025757645619,-0.100487423706,-0.00166972713832,0.0341383428644,-0.00931365525912,0.574092720483,0.818775491428,0.00223379221918,0.0,0.818735741486,-0.574032682957,-0.0117903100636,0.0,-0.00837150835314,0.00859778224259,-0.999927995402,0.0,0.658615342573,0.256784620754,0.303547653327,1.0,-0.01126,-0.0147988571429,0.564
0.462611585853,0.529509778915,-0.124059580869,-1.38415601192,0.0778204124304,1.9044774148,0.155623764651,-0.0147759659871,-0.0622227874217,0.00121928947133,-0.0983747504182,-0.0063854587666,0.0342201544558,-0.018283960582,0.574089590961,0.81877773085,0.00221718641914,0.0,0.818737708958,-0.574029560528,-0.0118056965885,0.0,-0.00839367252226,0.00859298709627,-0.999927850814,0.0,0.658418970841,0.256534486802,0.303541032164,1.0,-0.0116,-0.0152457142857,0.581
0.462488653435,0.528489377058,-0.124070545891,-1.38572267192,0.0777152683027,1.90506761485,0.155409559494,-0.00541663651705,-0.0703355736336,-0.00117889319647,-0.0960823445899,-0.00845628360596,0.0425273795567,-0.0113612472015,0.574079239657,0.818784910101,0.00224599335287,0.0,0.818745399663,-0.574019240184,-0.0117740957274,0.0,-0.00835136930356,0.0085983261926,-0.999928159128,0.0,0.658237008106,0.256297663425,0.303565376154,1.0,-0.01192,-0.0156662857143,0.597
0.462344987288,0.527385272994,-0.12406804351,-1.38744960074,0.0776076146942,1.90573705887,0.155159495501,-0.00344653012715,-0.068997792183,-0.00123096342131,-0.101712277151,-0.00532481948137,0.0419789267754,-0.0190296913285,0.574054994986,0.818801805851,0.00228306095536,0.0,0.818762806603,-0.573994888194,-0.0117508192155,0.0,-0.00831128669407,0.00861506772802,-0.999928348994,0.0,0.658037473919,0.256042080424,0.303578575395,1.0,-0.01226,-0.0161131428571,0.614
0.462184050012,0.52615669163,-0.124073742522,-1.38935471116,0.0774831751879,1.90646147448,0.154913892564,-0.00895839947365,-0.0656306713893,-0.000796238832631,-0.108043477444,-0.0028499906188,0.0485530691556,-0.0182367981677,0.574059084037,0.818798845544,0.00231634875421,0.0,0.818760384919,-0.573998962523,-0.0117204953888,0.0,-0.00826730548301,0.00862495750209,-0.999928628337,0.0,0.657817075723,0.255751907821,0.303599276986,1.0,-0.01262,-0.0165862857143,0.632
0.462031362059,0.52497405581,-0.124077583843,-1.3911795083,0.0773747162841,1.90711637594,0.15466254062,-0.0129633135277,-0.0703263678699,0.000507159656641,-0.110693503158,-0.00546565765908,0.0359543809232,-0.0210770921699,0.574049898536,0.818805251113,0.00232844201191,0.0,0.818766893253,-0.573989676548,-0.0117206071118,0.0,-0.00826055201333,0.00863483080277,-0.99992859894,0.0,0.657596408699,0.25547509145,0.30361947342,1.0,-0.01296,-0.0170331428571,0.649
0.461894172135,0.523950041478,-0.124087099933,-1.39283863479,0.0772652691461,1.90770609482,0.154428161731,-0.011360364791,-0.0690365057176,0.000827334640197,-0.112457432904,-0.0103174574697,0.0358327640667,-0.0117914478847,0.574036568569,0.818814725839,0.00228245382536,0.0,0.818775828972,-0.573976580655,-0.0117377021747,0.0,-0.00830108816767,0.00860685401083,-0.999928504444,0.0,0.657394325344,0.255218213752,0.303601246871,1.0,-0.01326,-0.0174274285714,0.664
0.46173801042,0.522733440604,-0.124099991712,-1.39476578806,0.0771391729977,1.90842950409,0.15417776822,-0.0118780609443,-0.0724973449315,0.000127077459141,-0.117583194922,-0.00972408612661,0.0497892864375,-0.0163377599904,0.574037899835,0.818813788636,0.00228385506136,0.0,0.818775033388,-0.57397803452,-0.0117220940981,0.0,-0.00828748919978,0.0085990553403,-0.999928684342,0.0,0.657166936138,0.254924002029,0.303602248107,1.0,-0.0136,-0.0178742857143,0.681
0.461581591037,0.521504091973,-0.12409719106,-1.39672354363,0.0770276336658,1.90920914632,0.153911669942,-0.0096423664421,-0.0736708485898,0.00132224163897,-0.119048199479,-0.00515096771339,0.0492979736641,-0.0181364905552,0.574022929568,0.818824167598,0.0023250351871,0.0,0.818785979599,-0.573962947318,-0.0116962224598,0.0,-0.00824282427102,0.00861777201335,-0.999928892399,0.0,0.656927405626,0.254620976618,0.303600423866,1.0,-0.01396,-0.0183474285714,0.699
0.461418470209,0.520306677893,-0.124107822992,-1.39862623879,0.0769009879284,1.90991225936,0.153651078526,-0.00965457143344,-0.0718007742109,-6.21505703864e-05,-0.117191406841,-0.012715569421,0.0517649937199,-0.0179955687064,0.574016172665,0.818828925954,0.00231742127331,0.0,0.818790681377,-0.573956263437,-0.0116950695669,0.0,-0.00824632156482,0.00861080779998,-0.999928923559,0.0,0.656712780787,0.254345254396,0.303598387168,1.0,-0.01426,-0.0187417142857,0.714
0.46123731856,0.518904332119,-0.124114556751,-1.40081560957,0.0767602946111,1.9106916715,0.153361141077,-0.00796345168293,-0.0821104388635,-0.0011978893536,-0.118955748204,-0.0100585380124,0.0379099615386,-0.011657217778,0.574010099521,0.818833215411,0.00230605481647,0.0,0.818794843785,-0.57395025435,-0.0116985564832,0.0,-0.00825576482141,0.00860344100729,-0.999928909048,0.0,0.656443267177,0.254011139031,0.303608592281,1.0,-0.01462,-0.0192148571429,0.732
0.461068656957,0.517551305296,-0.124112127091,-1.40292747981,0.0766262755067,1.91144118989,0.153082798899,-0.0110644982426,-0.0782349151214,0.00116493080659,-0.123742620789,-0.00889596883433,0.036802100493,-0.0170328109527,0.573994132503,0.818844434751,0.00229661272529,0.0,0.818805898961,-0.573934280965,-0.0117084525488,0.0,-0.00826945564864,0.00860122871111,-0.99992881495,0.0,0.656178393318,0.25369822259,0.303617756707,1.0,-0.01496,-0.0196617142857,0.749
0.460890031654,0.516292175932,-0.124116687773,-1.40493560457,0.0764872904476,1.9121943902,0.152785959196,-0.0106985305509,-0.0796406247758,-0.000287625099601,-0.122548831933,-0.0114230453815,0.0474124908624,-0.0228283673823,0.573969238259,0.818861906938,0.00228862405728,0.0,0.818823409259,-0.573909566818,-0.0116953181074,0.0,-0.00826354634524,0.00858689710278,-0.999928986979,0.0,0.655940005238,0.253385252587,0.303610600032,1.0,-0.01528,-0.0200822857143,0.765
0.460696356295,0.514849047472,-0.124122352551,-1.40725101859,0.0763527706591,1.91306682365,0.152473817814,-0.00855627715042,-0.0814264685206,0.000244278381497,-0.128180481332,-0.00563351360701,0.0517619848789,-0.016915285608,0.573962281689,0.818866782375,0.00228884712784,0.0,0.818828234224,-0.573902554826,-0.0117015940314,0.0,-0.00826863063566,0.00859061165767,-0.999928913043,0.0,0.655660418904,0.253036541178,0.303596239185,1.0,-0.01564,-0.0205554285714,0.783
0.460515467814,0.513518615174,-0.124122441679,-1.40938154755,0.0762342631156,1.91379858269,0.152186467083,-0.0110127992218,-0.0807275140895,-0.000738671916243,-0.133834006696,-0.00335377259405,0.0430219209084,-0.0191725589701,0.57395497688,0.818872042369,0.00223822299775,0.0,0.818832619459,-0.573895216354,-0.0117545249706,0.0,-0.00834110699035,0.00857946328915,-0.999928406809,0.0,0.655387433051,0.252713105791,0.303578060681,1.0,-0.01596,-0.020976,0.799
0.46033095016,0.512194945219,-0.124130227287,-1.41152880492,0.0761012712985,1.91455678033,0.151885464378,-0.0112518700366,-0.0850021704846,-0.000896242823957,-0.134396086802,-0.00323976316907,0.0509240391288,-0.0170589395949,0.573941627592,0.818881556776,0.00217967650849,0.0,0.818841331158,-0.573882050752,-0.0117903822047,0.0,-0.00840421111725,0.00855196501806,-0.999928113981,0.0,0.655118224494,0.252380246312,0.303549327151,1.0,-0.01628,-0.0213965714286,0.815
0.460131537168,0.510747692906,-0.124131556427,-1.41383293901,0.0759530658443,1.9154335461,0.151554045769,-0.0148015358517,-0.0840809510995,-0.00067113084891,-0.135855991799,-0.00920125772892,0.0498941094088,-0.0143879503124,0.573915007106,0.818900186111,0.00219013861971,0.0,0.81886015538,-0.573855453072,-0.0117775978584,0.0,-0.00838801558358,0.00855292207929,-0.999928241785,0.0,0.654840866054,0.252029999503,0.30354209203,1.0,-0.01662,-0.0218434285714,0.832
0.459920683901,0.509189423458,-0.124131211795,-1.41633128862,0.0758027699497,1.91635928307,0.151206388773,-0.00719888484263,-0.0824969940528,0.00400240392215,-0.134193397164,-0.0104093064026,0.0515909857719,-0.0219552989436,0.573892388108,0.81891607058,0.00217787020934,0.0,0.818875807187,-0.5738328098,-0.0117926121523,0.0,-0.00840758809617,0.008551260214,-0.99992809162,0.0,0.654531496072,0.251654726689,0.303523848258,1.0,-0.01698,-0.0223165714286,0.85
0.459717407533,0.50776626558,-0.12413507299,-1.41857031681,0.0756582611717,1.91716042701,0.15089158724,-0.0177749722555,-0.0816882778367,0.000529641422786,-0.143834680334,-0.00951471741036,0.0444837300085,-0.0158659843562,0.573880767781,0.818924258627,0.00216099629878,0.0,0.81888377852,-0.573821259295,-0.0118011253029,0.0,-0.00842436436729,0.00854220812802,-0.999928027793,0.0,0.654253387088,0.251303571879,0.303523256329,1.0,-0.0173,-0.0227371428571,0.866
0.459508991659,0.506203130726,-0.124140955921,-1.4210006584,0.0755016429232,1.91805215719,0.150570798255,-0.0173529889121,-0.0958269093062,-0.000601556710492,-0.139152058813,-0.00723752899327,0.0582425388136,-0.0100095375752,0.573876235616,0.818927394376,0.0021761978554,0.0,0.81888715324,-0.573816710531,-0.0117881243425,0.0,-0.00840504108062,0.00854714944845,-0.999928148179,0.0,0.653952737295,0.250931261029,0.303536885211,1.0,-0.01764,-0.023184,0.883
0.459310846551,0.50478820501,-0.124140857235,-1.42316489926,0.0753623372799,1.91890267142,0.150266718732,-0.0120691070586,-0.0968452814516,0.000345189656195,-0.149768330238,-0.0134510290649,0.0571135474897,-0.0218155101655,0.573863587756,0.818936039023,0.00225688665751,0.0,0.818896935763,-0.573803847388,-0.0117345737696,0.0,-0.00831501520512,0.00858236740958,-0.999928599197,0.0,0.653697973867,0.250598774444,0.30356927725,1.0,-0.01794,-0.0235782857143,0.898
0.459086050124,0.503132636188,-0.124151466785,-1.42564134101,0.0752096146518,1.91983944175,0.149928816269,-0.0126546696373,-0.101942787865,-0.00203411981765,-0.151189293763,-0.00543652333346,0.0629126801676,-0.0191803592541,0.573864587896,0.818935067427,0.00235308271311,0.0,0.818897259218,-0.573804538923,-0.011678050236,0.0,-0.0082135134518,0.00862871860019,-0.999929039188,0.0,0.653400704785,0.250212523528,0.303628412409,1.0,-0.01828,-0.0240251428571,0.915
0.458808347851,0.50112366513,-0.124154334344,-1.42862091478,0.0750213355837,1.9209199589,0.149500275377,-0.0188015032787,-0.102253103588,-0.000411691323269,-0.152467454925,-0.0119408882656,0.0504438416015,-0.0226710403709,0.573844381039,0.81894895342,0.00244641439251,0.0,0.818912340459,-0.573783982959,-0.0116304103523,0.0,-0.00812115534913,0.00867761163664,-0.999929370452,0.0,0.653032560226,0.249745408884,0.303706217324,1.0,-0.01868,-0.0245508571429,0.935
0.458572037854,0.499418099055,-0.124155076408,-1.43120448538,0.0748562988693,1.92184173565,0.149139461299,-0.0113273167427,-0.104856608119,-0.000618581820274,-0.154412137821,-0.00210091733468,0.0604781925064,-0.0263962361555,0.573829691572,0.81895913735,0.00248260393935,0.0,0.818922961316,-0.573769133328,-0.0116151612389,0.0,-0.0080880566379,0.00869835323134,-0.999929458507,0.0,0.652706681452,0.249342693175,0.303746226328,1.0,-0.01902,-0.0249977142857,0.952
0.458345395349,0.497943298247,-0.124153631206,-1.43353525767,0.0747047582588,1.92272114145,0.14879302253,-0.0191676260516,-0.100840522805,0.00567527506391,-0.154326499258,-0.0115607963688,0.0578661867154,-0.0153423899257,0.573808063098,0.818974247795,0.00249701295693,0.0,0.81893829655,-0.573747498189,-0.011602657796,0.0,-0.00806977837213,0.00870276568931,-0.999929567793,0.0,0.652422605233,0.248973855038,0.303741420422,1.0,-0.01932,-0.025392,0.967
0.458076262641,0.496176785345,-0.12414834539,-1.43636859107,0.0745309330089,1.92372122532,0.148376558271,-0.0170288657002,-0.0999323063588,0.00233951647225,-0.152869384568,-0.011444497278,0.0544869242575,-0.0266002796558,0.573779878785,0.818994158121,0.00244265569893,0.0,0.8189573434,-0.573719338659,-0.0116506240428,0.0,-0.0081405509482,0.00868549169572,-0.999929144322,0.0,0.652058568264,0.248528610641,0.303710563893,1.0,-0.01968,-0.0258651428571,0.985
0.457832348013,0.494700133578,-0.124151129451,-1.43879235277,0.0743780416957,1.92455286337,0.148034273614,-0.0199451998286,-0.0989602691324,-0.000668427055269,-0.161706822801,-0.0162652345461,0.0541792301264,-0.0247828635428,0.573781917934,0.81899302164,0.00234266066253,0.0,0.818954800865,-0.573721626635,-0.0117164915035,0.0,-0.00825184856721,0.00864141053667,-0.999928613962,0.0,0.651745608488,0.248131966641,0.303657796191,1.0,-0.01998,-0.0262594285714,1.0
0.457555447918,0.492975322419,-0.124162866552,-1.44159302894,0.0741943584787,1.92558193003,0.147653288552,-0.0170219815448,-0.10880698649,-0.00846538934882,-0.168817083375,-0.0123946167004,0.0670771722128,-0.0247390028825,0.573796102268,0.818983226746,0.00229221105935,0.0,0.818944421681,-0.573736071168,-0.011734638461,0.0,-0.0082955076182,0.00861064905246,-0.999928518083,0.0,0.651397867628,0.247675636837,0.303615241807,1.0,-0.0210862857143,-0.0277134040816,1.017
0.457270706676,0.491135522857,-0.124159279034,-1.44454456547,0.0740148379944,1.9266329894,0.147231987661,-0.0185110944698,-0.107660740541,1.26571496681e-05,-0.17802939362,-0.0165938342502,0.0582413387018,-0.0262704743058,0.573780710142,0.818994145931,0.00224332367804,0.0,0.818954537098,-0.573720692288,-0.0117805054504,0.0,-0.00836128476702,0.00859677240197,-0.999928089625,0.0,0.651017712655,0.24720916863,0.303581600916,1.0,-0.0222617142857,-0.0292582530612,1.034
0.456957627706,0.48921631401,-0.124170427197,-1.44765311291,0.0738148850087,1.92772995423,0.146789733692,-0.0191218673384,-0.11886934798,-0.00128561181257,-0.187577482427,-0.0127313039241,0.0590712996142,-0.0227172365453,0.573783386749,0.818992499092,0.00215833822224,0.0,0.818951748687,-0.573723661856,-0.0118296259393,0.0,-0.00845024789642,0.0085553824144,-0.999927696757,0.0,0.650620362059,0.246698123262,0.30353212402,1.0,-0.0234371428571,-0.0308031020408,1.051
0.456625279859,0.487136085679,-0.124177818598,-1.45085736947,0.0736129307344,1.92896315028,0.146326037913,-0.0166690394977,-0.121502689793,0.00141474499914,-0.19187992911,-0.0141211097357,0.0745351831154,-0.0239464591946,0.573785619333,0.818990699852,0.00224577471749,0.0,0.81895115679,-0.573725626359,-0.011775200719,0.0,-0.00835548224022,0.00859578613563,-0.999928146607,0.0,0.650233451768,0.246176404042,0.303559583296,1.0,-0.0246125714286,-0.0323479510204,1.068
0.456256903688,0.48494494394,-0.12420156071,-1.45417752872,0.0734094466805,1.93020441558,0.145817082189,-0.0245719190536,-0.126162595186,-0.00310358198376,-0.198002869241,-0.0136666773938,0.0625102128659,-0.0295274730913,0.573796481249,0.818982830862,0.00233832444237,0.0,0.818944533372,-0.573736182862,-0.01172137518,0.0,-0.00825818268224,0.00864080821533,-0.999928566875,0.0,0.649833436225,0.245609974789,0.303608974595,1.0,-0.025788,-0.0338928,1.085
0.455885790867,0.48266374206,-0.124231669134,-1.45770172775,0.0731753828692,1.93139447523,0.145282445744,-0.0228943040328,-0.135754894619,-0.00276237076903,-0.216649082504,-0.0105900739124,0.0712396786604,-0.0298739730181,0.573792945397,0.818985460818,0.00228422499159,0.0,0.818946486627,-0.573732876913,-0.011746697033,0.0,-0.00830999909991,0.0086109957091,-0.99992839477,0.0,0.649377093006,0.245007298039,0.303618395666,1.0,-0.0269634285714,-0.0354376489796,1.102
0.455547636574,0.480571646569,-0.12425646635,-1.46096661107,0.0729843834621,1.9325785902,0.144803460824,-0.0238777303462,-0.141737530085,-0.00549026150902,-0.223611902572,-0.0114703664521,0.0798976373512,-0.0335846907468,0.573803551087,0.818977997301,0.00229599610708,0.0,0.81893907456,-0.573743331637,-0.0117528065948,0.0,-0.00830813750919,0.00862424913001,-0.999928296018,0.0,0.648964734867,0.244463837122,0.303618415019,1.0,-0.0280005714286,-0.0368007510204,1.117
0.455127687756,0.478120171443,-0.124265490182,-1.46471032015,0.0727517115679,1.93396403598,0.144257525809,-0.0243939265152,-0.145108762313,-0.00121650430117,-0.224317635903,-0.00599522233392,0.085701523638,-0.0263290302805,0.573825819936,0.818962170424,0.0023745927879,0.0,0.818924234159,-0.573765268557,-0.0117158954352,0.0,-0.00823257478802,0.00866766176403,-0.999928545623,0.0,0.648500755618,0.243831826071,0.303655220483,1.0,-0.029176,-0.0383456,1.134
0.454716387826,0.475726318432,-0.124275721825,-1.4683911323,0.0725192647745,1.93530417808,0.143732168552,-0.023473338281,-0.14979581006,0.000309569944908,-0.2376171762,-0.0158220832854,0.0807677241714,-0.0354643330096,0.573854536509,0.818941923111,0.00241751940136,0.0,0.818904510087,-0.573793788212,-0.0116978147226,0.0,-0.0081928310071,0.00869272894876,-0.999928654447,0.0,0.648037379482,0.243208787239,0.303676832911,1.0,-0.0302822857143,-0.0397995755102,1.15
0.454271105349,0.473096447844,-0.124285323873,-1.47247885024,0.0722575933561,1.93673908947,0.14314226247,-0.0282645105407,-0.154889391165,-0.00480000532557,-0.246267886692,-0.0178547103835,0.0811475265963,-0.0296667925864,0.573867935694,0.818932596653,0.00239612672301,0.0,0.818894799618,-0.573807151619,-0.0117220651431,0.0,-0.00822482494933,0.00868926033365,-0.999928421943,0.0,0.647505482321,0.242521371585,0.303674868406,1.0,-0.0314577142857,-0.0413444244898,1.167
0.453787652465,0.470221571435,-0.124277793643,-1.47689069083,0.0719877924451,1.93831772589,0.142470581436,-0.0300759501651,-0.161378273568,-0.000296915789751,-0.24644877858,-0.0127397380283,0.0821073050475,-0.0384715484496,0.573845526932,0.81894816794,0.00244056330729,0.0,0.818910693743,-0.573784312542,-0.0117296741378,0.0,-0.00820579619319,0.008729792503,-0.99992822524,0.0,0.646931130537,0.241793011121,0.303698105036,1.0,-0.0327022857143,-0.0429801469388,1.185
0.453347107559,0.46755759761,-0.124273325253,-1.48088501214,0.071723201348,1.93987515549,0.141810395789,-0.031141570601,-0.168678021932,0.00123151367377,-0.25489606763,-0.0153385820325,0.0922915559282,-0.0441024736872,0.573779985766,0.81899351634,0.00262583867607,0.0,0.8189585989,-0.573718285847,-0.0116141583596,0.0,-0.00800558286242,0.00881459448963,-0.99992910427,0.0,0.646437744947,0.241136700892,0.303770657742,1.0,-0.0338085714286,-0.044434122449,1.201
0.452816756153,0.464481281917,-0.124282885794,-1.48564705186,0.0713871260118,1.94148549004,0.141103680274,-0.027637402889,-0.170787100645,0.000466206944774,-0.270180575016,-0.0128389579684,0.0876665489812,-0.0392340407583,0.573773568459,0.818998261108,0.00254702590514,0.0,0.818962344576,-0.573712168723,-0.011652146842,0.0,-0.00808198384915,0.00877178106465,-0.999928866167,0.0,0.645799328802,0.240322309257,0.303765572595,1.0,-0.0350531428571,-0.046069844898,1.219
0.452253641616,0.461342579409,-0.124290302022,-1.49059223303,0.0710621235665,1.94323063779,0.140366055784,-0.0320509566359,-0.180641453905,-0.000329788040214,-0.272644372957,-0.00603925532499,0.104138796962,-0.0446200883387,0.573778123904,0.818995248369,0.00248889101209,0.0,0.818958477473,-0.57371682296,-0.0116947051926,0.0,-0.00815014625525,0.00874863283718,-0.999928515715,0.0,0.645146428638,0.239478532882,0.303725944298,1.0,-0.0362977142857,-0.0477055673469,1.237
0.451764022222,0.458661576125,-0.124287586658,-1.49475558612,0.0707774944166,1.94469409491,0.139730009624,-0.0377709516134,-0.181940306828,0.000355204370757,-0.276596302038,-0.0247249704393,0.0973450533117,-0.0473043296825,0.573770888295,0.819000388879,0.00246529166588,0.0,0.818963276808,-0.573709636511,-0.0117111535244,0.0,-0.00817723514226,0.0087386705481,-0.999928381667,0.0,0.644595519816,0.238762398654,0.303716374257,1.0,-0.0373348571429,-0.0490686693878,1.252
0.451176932091,0.455595783222,-0.124312917829,-1.49967100389,0.0704552867664,1.94640941716,0.138978521339,-0.0353692270996,-0.177925306168,-0.0026251120004,-0.286201629349,-0.0230085024448,0.0978723105321,-0.050718253981,0.573792877194,0.818985344103,0.00234246171497,0.0,0.818946542237,-0.573731980157,-0.0117865517938,0.0,-0.00830922795685,0.00868155753464,-0.999927791038,0.0,0.64394367207,0.237895043863,0.303634695728,1.0,-0.0385102857143,-0.0506135183673,1.269
0.45064893506,0.452722317299,-0.124357242258,-1.50406415676,0.0701393627626,1.94794337753,0.138272643884,-0.034839271279,-0.196171145027,-0.00203140609757,-0.29298970843,-0.0154766471351,0.107900427406,-0.0467926937704,0.573792793726,0.818985436558,0.00233055246407,0.0,0.818946751011,-0.573732224846,-0.0117601056051,0.0,-0.00829440186555,0.00865662888509,-0.999928130254,0.0,0.64336802327,0.237103014854,0.303651557332,1.0,-0.0395474285714,-0.0519766204082,1.284
0.450039645066,0.449335345817,-0.12439110402,-1.50910116134,0.0698064956142,1.9498401625,0.137505976599,-0.0386207505232,-0.194706925358,-0.000364865894743,-0.298260581534,-0.0190162626854,0.104213496766,-0.0529733438126,0.573826285319,0.818961386859,0.00252745176813,0.0,0.818925475757,-0.573765228866,-0.0116307438104,0.0,-0.00807512161012,0.00874398950681,-0.99992916502,0.0,0.642729619596,0.236217715693,0.303742972778,1.0,-0.0407228571429,-0.0535214693878,1.301
0.449334370667,0.445488000353,-0.124403481063,-1.51496305211,0.0694043243298,1.95177266465,0.136627994338,-0.0387628179735,-0.199935268858,0.000206293337322,-0.311382844903,-0.0190973690451,0.10807427514,-0.0486260718915,0.573845346689,0.818948257319,0.00245292028693,0.0,0.818911195981,-0.573784356222,-0.0116924143299,0.0,-0.00816819231463,0.00871852929928,-0.999928631394,0.0,0.64191712333,0.235185873497,0.303757021176,1.0,-0.0420365714286,-0.0552480653061,1.32
0.448803299932,0.442626965257,-0.124397933236,-1.51935711397,0.069093906999,1.95335969594,0.135931855918,-0.0373391051737,-0.206317168966,0.00216318774861,-0.307401155613,-0.0214401101173,0.113278649449,-0.0564510412833,0.573815948306,0.818968755658,0.00248628772345,0.0,0.81893220022,-0.573754919612,-0.011665786062,0.0,-0.00812755096259,0.00873028325264,-0.999928860004,0.0,0.641329046859,0.234427539403,0.303761247445,1.0,-0.0430045714286,-0.0565202938775,1.334
0.448083623934,0.438930058366,-0.124398992223,-1.52511730415,0.0687148556721,1.9553939936,0.134994629593,-0.0401986907335,-0.206173216615,0.0014713969554,-0.32059357042,-0.0146362407427,0.114037275172,-0.0542680284177,0.573788812779,0.818987844135,0.00246097349,0.0,0.818950759908,-0.573727664104,-0.0117032982104,0.0,-0.00817308775603,0.00873080579055,-0.999928484276,0.0,0.640548141971,0.233415185799,0.303723728288,1.0,-0.0442491428571,-0.0581560163265,1.352
0.447366246462,0.435276681033,-0.12442102803,-1.53067609187,0.0683310658427,1.95735178267,0.134111495459,-0.0410333988665,-0.221876385536,-0.000699394755181,-0.323424151624,-0.0256791616077,0.122786656019,-0.0562973620605,0.573806140396,0.818975607508,0.00249288022961,0.0,0.818938987173,-0.573744927698,-0.0116807589379,0.0,-0.00813613590604,0.0087441763659,-0.999928668792,0.0,0.6398008159,0.232410298494,0.303742621729,1.0,-0.0454245714286,-0.0597008653061,1.369
0.446573277206,0.431306142357,-0.124433703799,-1.53667706133,0.0678845715785,1.95949242786,0.133144831766,-0.0423815359054,-0.213891367354,-8.97530633272e-05,-0.341499849086,-0.0339902075366,0.112063875306,-0.0535026738228,0.573808207388,0.818973961392,0.00255706824163,0.0,0.81893848823,-0.573747108707,-0.0116083869396,0.0,-0.00804001092202,0.00875523786605,-0.999929349521,0.0,0.638997369606,0.231318629826,0.303779357257,1.0,-0.0466691428571,-0.0613365877551,1.387
0.445818189731,0.427493703612,-0.12446530539,-1.54260943085,0.0674564716799,1.96136994135,0.132205528996,-0.0401956890304,-0.224514018144,-0.000525911802715,-0.350429414628,-0.0196372855824,0.110137631365,-0.0633923198305,0.573814285843,0.818970361056,0.0023366591695,0.0,0.818931886001,-0.573753828364,-0.011741270343,0.0,-0.00827524459209,0.00865103991671,-0.99992833735,0.0,0.638142460273,0.230233616551,0.303715657983,1.0,-0.0478445714286,-0.0628814367347,1.404
0.445091942512,0.423805545537,-0.12447748522,-1.54814490722,0.0670608420386,1.96334260165,0.131269200695,-0.0450621573828,-0.233006257642,0.00171749701333,-0.342042279563,-0.0200579001002,0.126876197328,-0.0627768805221,0.573775669664,0.818997153009,0.00242717257248,0.0,0.81895998865,-0.573715027195,-0.0116769629131,0.0,-0.00817105132122,0.00868788170614,-0.999928874786,0.0,0.637387979349,0.229234982206,0.303759943722,1.0,-0.0489508571429,-0.0643354122449,1.42
0.444271909287,0.419834152968,-0.124499788021,-1.55417536571,0.0666487049986,1.96540146569,0.130305941086,-0.0468236674862,-0.231467771901,-0.00108778048078,-0.352546961204,-0.024997715567,0.123256116959,-0.0647679719368,0.573813281536,0.818970816005,0.00242226477813,0.0,0.818933451659,-0.573752507376,-0.0116965352033,0.0,-0.00818949816313,0.00869546831791,-0.99992865793,0.0,0.636547938707,0.22812144252,0.303765544386,1.0,-0.0501262857143,-0.0658802612245,1.437
0.443385027526,0.415523401279,-0.12451428982,-1.56057138389,0.0662066173087,1.9677435272,0.129259340669,-0.0473604747541,-0.246122198885,-0.00171642369674,-0.364808542596,-0.0224071941144,0.12833891258,-0.0577122104408,0.57383607783,0.818954207656,0.0026283918119,0.0,0.818919646759,-0.573774718701,-0.0115728662623,0.0,-0.00796969618896,0.00879353918221,-0.999929576326,0.0,0.635686428439,0.226946969379,0.303847038937,1.0,-0.0513708571429,-0.0675159836735,1.455
0.442577984404,0.411641509963,-0.124516888156,-1.56650011286,0.0657863648046,1.96973118038,0.128245819504,-0.0490540306855,-0.247802471226,0.00114976231154,-0.379415322154,-0.0247588498045,0.110581269307,-0.058580263159,0.573794104333,0.818983794043,0.00257251405224,0.0,0.818948334999,-0.573732751001,-0.0116233356616,0.0,-0.00804354283855,0.00877632654666,-0.999929136245,0.0,0.63483606593,0.225861490829,0.303825891304,1.0,-0.0524771428571,-0.0689699591837,1.471
0.441759494054,0.407703887201,-0.124546953506,-1.57249519558,0.0653576433514,1.97168935383,0.127280440616,-0.0481348216823,-0.253348639932,-0.00222367586936,-0.373407882475,-0.0237568347602,0.132748457835,-0.0598684936816,0.573818549257,0.818966957633,0.00247825254922,0.0,0.818930142594,-0.573757382387,-0.0116890807317,0.0,-0.00815121212493,0.0087370952773,-0.999928607905,0.0,0.633966132958,0.224744098036,0.303805250799,1.0,-0.0535834285714,-0.0704239346939,1.487
0.440738746976,0.402995169837,-0.124547488869,-1.57971661506,0.0648734453132,1.97418985216,0.126070537193,-0.0517204983916,-0.251328574508,9.78599003146e-05,-0.387536488093,-0.0219529585959,0.136197499139,-0.0693411698758,0.573818902898,0.81896672431,0.00247346949585,0.0,0.818929484794,-0.573757365428,-0.01173590445,0.0,-0.00819230161004,0.00876004957402,-0.999928071276,0.0,0.632936014177,0.223412656284,0.303763834666,1.0,-0.0548971428571,-0.0721505306122,1.506
0.439830882971,0.398856211819,-0.12457705281,-1.5857559098,0.0644371737195,1.97637036774,0.125026321899,-0.0570767876361,-0.259455825918,-0.00240059937842,-0.385187320729,-0.0229191421275,0.134751537107,-0.0709586632357,0.573845774536,0.818947205064,0.00269244607533,0.0,0.818913082395,-0.573783763596,-0.0115889178526,0.0,-0.00794598302753,0.00885530134789,-0.999929219991,0.0,0.632110223791,0.222252772946,0.303867552393,1.0,-0.0560034285714,-0.0736045061224,1.522
0.438963637363,0.394948290861,-0.124586466621,-1.59163120023,0.0639821845571,1.9783192772,0.124045620226,-0.0633826706176,-0.257563951643,-0.000901561062618,-0.403193992554,-0.030426552666,0.13102981179,-0.056197379894,0.573859398228,0.818937786941,0.00265312775515,0.0,0.818903261062,-0.573797636823,-0.0115960294647,0.0,-0.00797422179952,0.00882731541434,-0.999929242641,0.0,0.631256301093,0.221131061516,0.303869866353,1.0,-0.0570405714286,-0.0749676081633,1.537
0.437912827938,0.390192119204,-0.124598863718,-1.59883722571,0.0634473804827,1.98062163258,0.122829850976,-0.05981745341,-0.267705980584,-0.000841466110131,-0.402598466332,-0.030721981967,0.134924048179,-0.0722591140152,0.573858949245,0.818938529907,0.0025174403671,0.0,0.818902009336,-0.573797405933,-0.0116954243501,0.0,-0.00813348946656,0.00877322981539,-0.999928435833,0.0,0.630177841211,0.219763074015,0.303835492811,1.0,-0.0582851428571,-0.0766033306122,1.555
0.436975004423,0.385952585864,-0.124594649856,-1.60528112362,0.0629612109252,1.98281506057,0.121644701174,-0.0557678095392,-0.266623449801,0.00115964720266,-0.397188946099,-0.0333298646479,0.143847690765,-0.0759450247568,0.573759901453,0.819008008458,0.00249087680514,0.0,0.818971137591,-0.57369846064,-0.0117089261956,0.0,-0.00816084925753,0.00875823717403,-0.999928344343,0.0,0.629229017007,0.218559146303,0.303802307312,1.0,-0.0593914285714,-0.0780573061224,1.571
0.435735219616,0.380470114914,-0.124605535282,-1.61328905409,0.0623906094043,1.98562209601,0.120231177697,-0.0681468654495,-0.267421434157,-0.00149464606837,-0.404248372116,-0.038097735901,0.145647860799,-0.0710376907701,0.573764967455,0.81900372018,0.00272311479278,0.0,0.818969858501,-0.573702711012,-0.0115895273802,0.0,-0.00792976037292,0.00887998470385,-0.999929129875,0.0,0.628079418201,0.217022402317,0.303903840326,1.0,-0.0607742857143,-0.0798747755102,1.591
0.434834638255,0.376657824402,-0.12461481428,-1.61912412304,0.0619347863311,1.98747547984,0.11921063039,-0.0642766473239,-0.27508679671,-0.000653141629519,-0.419507481748,-0.0403998097112,0.136347761093,-0.0778362249718,0.57375766709,0.819009357128,0.00256111184666,0.0,0.818973303013,-0.573695871559,-0.0116842975617,0.0,-0.00810040569937,0.00880160699722,-0.999928455012,0.0,0.627192189232,0.21588603246,0.303835885524,1.0,-0.0617422857143,-0.0811470040816,1.605
0.433510835086,0.371021699554,-0.124682687033,-1.62758188382,0.0612783971579,1.99018218539,0.117730423431,-0.0625713841968,-0.281812315923,-0.00935065653479,-0.424104254225,-0.0401443264033,0.138333065973,-0.0723170152022,0.573799219007,0.81898064112,0.00243159168737,0.0,0.818942981564,-0.573737970352,-0.0117422836314,0.0,-0.00822176479168,0.00872921618793,-0.999928099099,0.0,0.625916912532,0.214201866818,0.303806749938,1.0,-0.0631251428571,-0.0829644734694,1.625
0.43255615787,0.36702845147,-0.124708862486,-1.6334725215,0.0608264240296,1.9921495117,0.11672327931,-0.0697951004549,-0.289884891955,-0.00183607919008,-0.417919983086,-0.0266508752214,0.145888134166,-0.0727492948061,0.57385703167,0.818940012148,0.00247196400318,0.0,0.818902975577,-0.573795732916,-0.011709841204,0.0,-0.00817141242595,0.00874424174614,-0.999928380563,0.0,0.6250417005,0.213030016034,0.303832920479,1.0,-0.0640931428571,-0.0842367020408,1.639
0.431505336887,0.36266109814,-0.124717564103,-1.63969754952,0.0603354502873,1.99436646824,0.115520123939,-0.0700418481494,-0.292278048351,-0.00117235913276,-0.42210567654,-0.0307711239346,0.144367488278,-0.0876627541737,0.573817169898,0.818967062305,0.00274832500802,0.0,0.818934033655,-0.573755392909,-0.0115127985954,0.0,-0.00785188772295,0.00885710891903,-0.999929947287,0.0,0.624147227364,0.211787016092,0.303964339322,1.0,-0.0651302857143,-0.0855998040816,1.654
0.430268775982,0.357751315868,-0.124723043919,-1.64708853628,0.0597840336694,1.99667920214,0.114147911115,-0.0752965627161,-0.291598812593,-0.00174568670616,-0.436895458151,-0.036772546925,0.13248455582,-0.0724121537033,0.573808411657,0.818973661668,0.00260674262877,0.0,0.81893835737,-0.573746621238,-0.0116416643048,0.0,-0.00803876143901,0.00881501614667,-0.99992883437,0.0,0.622999157639,0.210306612343,0.303905983661,1.0,-0.0663057142857,-0.0871446530612,1.671
0.429014215319,0.35273738018,-0.12476110434,-1.65461667963,0.0592157953544,1.99906451108,0.112809378188,-0.0698721425343,-0.292983513506,5.50058237419e-05,-0.451404608717,-0.0313460153701,0.145357763604,-0.0727520238404,0.573862100719,0.818936410721,0.00248826359681,0.0,0.818899305465,-0.573800441569,-0.0117357431007,0.0,-0.00818321813371,0.00877250441837,-0.999928036464,0.0,0.621831420407,0.208787207773,0.3038521844,1.0,-0.0674811428571,-0.0886895020408,1.688
0.427797444456,0.347959281483,-0.124772506253,-1.66162229229,0.0587057108122,2.00138160214,0.111453027768,-0.0798745597535,-0.304803205679,-2.4464328503e-05,-0.430869954804,-0.026976891501,0.148792574495,-0.0835234541452,0.573846016994,0.818947434787,0.0025680220805,0.0,0.818911094818,-0.573783777444,-0.0117278483569,0.0,-0.0081311584675,0.00883313090609,-0.999927927433,0.0,0.620762556945,0.207370134261,0.303877358969,1.0,-0.0685874285714,-0.090143477551,1.704
0.426484649492,0.342781337935,-0.12477538906,-1.6690484053,0.0581160287063,2.00387843751,0.110085998133,-0.0750885860408,-0.30065244883,-0.00069041961847,-0.440915661266,-0.0361940765638,0.140920574773,-0.0818890127113,0.573877221838,0.818924957847,0.00275582500103,0.0,0.818891263914,-0.573814553407,-0.0116061658177,0.0,-0.00792339891081,0.00891740690162,-0.999928847271,0.0,0.61963577243,0.205859364895,0.303974322716,1.0,-0.0697628571429,-0.0916883265306,1.721
0.425223831799,0.337893705076,-0.124770820818,-1.67634491587,0.0575175741688,2.00610318141,0.108674381798,-0.0775973846233,-0.305077928649,0.000340932146557,-0.459262620141,-0.0393163702978,0.13684984823,-0.095518489239,0.573809211494,0.818973211401,0.00257190872724,0.0,0.81893694262,-0.573746985075,-0.0117229701935,0.0,-0.00812533010613,0.00883314941836,-0.999927974647,0.0,0.618388436388,0.204286101982,0.30391224695,1.0,-0.0709382857143,-0.0932331755102,1.738
0.423807385969,0.332344315193,-0.124773275726,-1.68458369347,0.0568354841392,2.00870710571,0.107131470986,-0.0802844956756,-0.312331946541,-0.00115624826801,-0.45591528705,-0.0357403715821,0.145251532981,-0.0833557886179,0.573768974906,0.81900168494,0.00248000029471,0.0,0.818964188296,-0.573707053989,-0.0117737586329,0.0,-0.00822009275772,0.00878661801956,-0.999927610089,0.0,0.617141043716,0.202724542669,0.303864991508,1.0,-0.0721137142857,-0.0947780244898,1.755
0.422494332422,0.327247393817,-0.124768256624,-1.69173542647,0.0562820441309,2.01113820446,0.105671933656,-0.0816992626974,-0.31405715683,-0.000311671550738,-0.449873036982,-0.0377288633252,0.150868037,-0.0893061895602,0.573706957644,0.819044131563,0.00279001850959,0.0,0.819010779773,-0.573644081934,-0.0115998611501,0.0,-0.00790047270401,0.0089401484102,-0.999928825606,0.0,0.616041464887,0.201260822593,0.304011680911,1.0,-0.07322,-0.096232,1.771
0.420840812063,0.321279958273,-0.124787437409,-1.700601655,0.0555468741741,2.01387768478,0.103991182607,-0.0909798179176,-0.323806874706,-0.00175288892853,-0.470203705703,-0.0405132495376,0.137527669745,-0.081958201242,0.573751968095,0.81901314085,0.00262699874313,0.0,0.818977562798,-0.573689524822,-0.011697334882,0.0,-0.00807334475751,0.00886299257819,-0.999928131651,0.0,0.614612045735,0.199393685426,0.303934978532,1.0,-0.0745337142857,-0.0979585959184,1.79
0.419363446367,0.315820400203,-0.124840883269,-1.70861404721,0.054901010377,2.01631738948,0.102396793904,-0.0861333215728,-0.313184002105,-0.000641133916721,-0.478857921117,-0.0421375021869,0.142855880056,-0.100368489858,0.573745496381,0.819018021992,0.00251633373694,0.0,0.81898079519,-0.573683226455,-0.0117796305283,0.0,-0.00820430919641,0.00881950877236,-0.999927450156,0.0,0.613304728517,0.197702256037,0.303898284349,1.0,-0.0757091428571,-0.099503444898,1.807
0.417819171597,0.310225828297,-0.12487125261,-1.71649533105,0.0542115179822,2.01892957565,0.100750645682,-0.0914981176132,-0.340956197877,-0.00080264992603,-0.461765268277,-0.0395759588742,0.159516627454,-0.0952692114133,0.573708794518,0.81904301458,0.00273975596723,0.0,0.819009364193,-0.573646484506,-0.0115809792373,0.0,-0.00791382113285,0.00888816655506,-0.999929183458,0.0,0.612071929967,0.196007670305,0.304015875094,1.0,-0.0768845714286,-0.101048293878,1.824
0.416216027663,0.304667297826,-0.124883625594,-1.7245172006,0.0535521045377,2.02143375374,0.0991061385883,-0.0931642629788,-0.326738525658,-0.000248288787505,-0.476451728108,-0.0410266679158,0.134648098611,-0.102719661295,0.573717120697,0.819037119044,0.00275861345075,0.0,0.819003621414,-0.573654643595,-0.0115829570419,0.0,-0.00790453253642,0.00890482661497,-0.999929108701,0.0,0.610770706405,0.194275916313,0.304026766702,1.0,-0.07806,-0.102593142857,1.841
0.414776358973,0.299728630414,-0.124938103171,-1.73181002037,0.0529495480157,2.0235396791,0.0976667563456,-0.10199274914,-0.327619989231,-0.00342531902415,-0.486266891238,-0.0391040047049,0.145427753095,-0.0867060548854,0.573782867076,0.818991774655,0.00253799105981,0.0,0.81895505474,-0.573720755648,-0.0117413694207,0.0,-0.00816014393811,0.00881566694581,-0.99992784543,0.0,0.609544069062,0.19268043661,0.303942806079,1.0,-0.0790971428571,-0.103956244898,1.856
0.413006431885,0.293709857902,-0.124991897967,-1.74042987802,0.0522719660998,2.0262437454,0.0958879555258,-0.0956636503493,-0.337854942897,-0.0015197411961,-0.473249604863,-0.0330801637579,0.155892411343,-0.108110301422,0.573852518184,0.81894270676,0.00262246441381,0.0,0.818906852264,-0.573789839648,-0.011727494717,0.0,-0.00809955877313,0.00887757737448,-0.999927790277,0.0,0.60813923197,0.190784571832,0.303968834627,1.0,-0.0803417142857,-0.105591967347,1.874
0.411293258355,0.28790876855,-0.125006091775,-1.74856528148,0.0515844544158,2.02888466909,0.0941332134418,-0.0998812109479,-0.335759514103,-0.00101727084895,-0.489319764223,-0.0343576922114,0.140746846588,-0.10884658781,0.573839375401,0.818951141206,0.00285419996693,0.0,0.818918589596,-0.573776233952,-0.0115725480453,0.0,-0.00783983026139,0.0089783140138,-0.999928960946,0.0,0.606824660082,0.188996454629,0.3040676912,1.0,-0.0815171428571,-0.107136816327,1.891
0.409672666153,0.282462127223,-0.125032977102,-1.7564851264,0.0508810104036,2.03111173232,0.0924855731634,-0.0991921570315,-0.341713266504,-0.00280171846702,-0.492436408469,-0.0361427367886,0.140427334169,-0.102667844357,0.573828148921,0.818959780648,0.00262299225329,0.0,0.81892398122,-0.573765524449,-0.0117210425179,0.0,-0.00809423572268,0.00887406624349,-0.999927864546,0.0,0.605452141872,0.187256467449,0.303999151926,1.0,-0.0826234285714,-0.108590791837,1.907
0.407791879925,0.276249005627,-0.125028168028,-1.76536557355,0.0501221508195,2.03378502864,0.090587815251,-0.107064245404,-0.353874593863,-0.00115379570705,-0.485011046785,-0.0354212176586,0.15211199726,-0.0988985342987,0.573804293006,0.818976523993,0.00261407274191,0.0,0.818940397425,-0.573741472441,-0.0117513900266,0.0,-0.00812446703326,0.00888393885958,-0.999927531707,0.0,0.603941811493,0.185309860536,0.303994141441,1.0,-0.083868,-0.110226514286,1.925
0.406176382699,0.270999189912,-0.125057816284,-1.77264665944,0.0494801049445,2.03615290288,0.0889633369655,-0.109511720075,-0.349084190759,0.000773122909459,-0.490160798031,-0.0417792608886,0.150150538218,-0.113580347296,0.573803407992,0.818976321105,0.00286030537992,0.0,0.818943905648,-0.573740316531,-0.0115618117424,0.0,-0.00782792824396,0.00897680947094,-0.9999290677,0.0,0.60275253729,0.183664005703,0.304095745501,1.0,-0.0849051428571,-0.111589616327,1.94
0.404422177881,0.265410151313,-0.125121337963,-1.78068575389,0.0487784516282,2.03844317157,0.0872425179606,-0.110815621642,-0.350651661596,-0.00535772959327,-0.511530391986,-0.0469916196116,0.135666408161,-0.108518171776,0.573858067584,0.818938541285,0.00270753904326,0.0,0.818903909836,-0.573795218478,-0.0116696447648,0.0,-0.00800330299255,0.00891410572687,-0.999928240355,0.0,0.601355590905,0.181833949965,0.304042223108,1.0,-0.0860114285714,-0.113043591837,1.956
0.402289109667,0.258679827892,-0.125165568629,-1.79029556235,0.0479098518229,2.04117894569,0.0851212621807,-0.109973519585,-0.35245654323,-0.00276066664298,-0.500119553168,-0.0436277621253,0.15536117457,-0.116811527083,0.573856627339,0.818940037328,0.0025560558998,0.0,0.818903297094,-0.57379416455,-0.0117640825691,0.0,-0.00816758551002,0.00884422962957,-0.999927532449,0.0,0.599671993283,0.17964836297,0.303997136727,1.0,-0.0873251428571,-0.114770187755,1.975
0.400475256325,0.252866886407,-0.125148919887,-1.79817765876,0.0471951160494,2.04364038358,0.0833513930048,-0.109957785562,-0.357471101687,0.000644354764577,-0.49744395579,-0.0473123315898,0.151214356966,-0.110624520584,0.573835224418,0.818954050278,0.00285405871943,0.0,0.818921608036,-0.573772211344,-0.0115583857999,0.0,-0.00782835800288,0.00897003196624,-0.999929125157,0.0,0.59833206028,0.177870127867,0.304150552605,1.0,-0.0884314285714,-0.116224163265,1.991
0.398479845089,0.246806774007,-0.125157685937,-1.80686500904,0.0464568069117,2.04610534558,0.081329441481,-0.115376031118,-0.355046827385,-0.00229999805929,-0.512497478321,-0.0455255510757,0.143488684901,-0.121416957078,0.573783321857,0.818990851468,0.00272610923253,0.0,0.818956095719,-0.573720010103,-0.0117051353204,0.0,-0.00802252978472,0.00894894749545,-0.999927775069,0.0,0.596783553742,0.175894461166,0.304073566379,1.0,-0.0896068571428,-0.117769012245,2.008
0.396329649825,0.240301660857,-0.125160482604,-1.81613505935,0.0456271290159,2.04871518409,0.0792130869092,-0.120612408987,-0.364130539331,0.0023049420824,-0.509112442555,-0.0414946436388,0.150597742334,-0.126530428228,0.5737501595,0.819014539862,0.00258551147903,0.0,0.818977508349,-0.573686870076,-0.0118305884136,0.0,-0.00820630793475,0.00890544919567,-0.999926672054,0.0,0.59511586433,0.173780374494,0.304002307002,1.0,-0.0908514285714,-0.119404734694,2.026
0.394384511219,0.234276327403,-0.125151778406,-1.82418929348,0.0449316659687,2.05118726198,0.077365916293,-0.124885638416,-0.368069151755,0.00135730919955,-0.503243165536,-0.0479151316589,0.156122070653,-0.109899033407,0.573772430116,0.818997699067,0.00295199300314,0.0,0.818965587914,-0.573708020273,-0.0116284215819,0.0,-0.00783021921369,0.00908982340209,-0.999928028799,0.0,0.593715537261,0.171930631028,0.304178060854,1.0,-0.0919577142857,-0.120858710204,2.042
0.392257097774,0.228026417628,-0.12516735774,-1.83301047491,0.0440672588726,2.05364097934,0.0752517071471,-0.130867511033,-0.369914322435,-0.000824715047446,-0.521462898658,-0.048065845378,0.147441906914,-0.129387795518,0.573693025943,0.81905383395,0.00280641707176,0.0,0.819019942503,-0.573629245095,-0.0116863106415,0.0,-0.0079620279231,0.00900303979923,-0.999927773084,0.0,0.592113460859,0.169869113603,0.304123462716,1.0,-0.0931331428571,-0.122403559184,2.059
0.39004811174,0.221701352501,-0.125210592803,-1.84190866948,0.0432353333798,2.05604338826,0.0731491302918,-0.13122971929,-0.373387368231,-0.00576007652122,-0.518862033476,-0.0439062752992,0.145889994297,-0.113105753577,0.573718813714,0.819036313145,0.00264337699057,0.0,0.818999995486,-0.573655270499,-0.0118061392969,0.0,-0.00815342663836,0.00893850206916,-0.999926809729,0.0,0.590481205995,0.167748095938,0.304064312882,1.0,-0.0943085714286,-0.123948408163,2.076
0.387930221919,0.215628649891,-0.125268014813,-1.85005493315,0.0425193625066,2.05854570241,0.0711196055264,-0.134727879211,-0.379231785564,-0.00513873915445,-0.512102974207,-0.0475170491675,0.15714866874,-0.123474289589,0.573761866935,0.819004969297,0.00298784522624,0.0,0.818973445613,-0.573697483137,-0.0115948317722,0.0,-0.00778225538583,0.0090998134239,-0.999928312379,0.0,0.589059713496,0.165773146929,0.304198688131,1.0,-0.0954148571428,-0.125402383673,2.092
0.385592208449,0.209205114423,-0.12531952662,-1.85897795684,0.0416640681166,2.0609525394,0.0689364893687,-0.133198889258,-0.375490832798,-0.00105340973334,-0.530319533567,-0.043624764042,0.132808983971,-0.131543920989,0.57381172375,0.818970416113,0.00288272800423,0.0,0.818937411491,-0.573747547644,-0.0116625269312,0.0,-0.00789745846139,0.00905304279063,-0.999927833679,0.0,0.587416186079,0.163586439938,0.304166452342,1.0,-0.0965902857143,-0.126947232653,2.109
0.383663337491,0.203891740352,-0.125372371883,-1.86645648234,0.0409214323239,2.06284202081,0.0671020585259,-0.136022223263,-0.37957150774,-0.00266423432529,-0.536039751746,-0.0505822565212,0.131274476895,-0.142159258224,0.573816004681,0.818968281347,0.00262560874231,0.0,0.818931655748,-0.573752430749,-0.0118253255815,0.0,-0.0081782746269,0.0089359272382,-0.999926629823,0.0,0.585995571139,0.161763630788,0.304077170774,1.0,-0.0975582857143,-0.128219461224,2.123
0.380971308096,0.196503662852,-0.125403313345,-1.8763082094,0.0400008458052,2.06574201511,0.0645542932646,-0.14617461551,-0.385218075811,-0.00289768974142,-0.519615833311,-0.0464124626547,0.148258735099,-0.133884484272,0.573823198708,0.818962088748,0.00296322791311,0.0,0.818930266738,-0.573758911865,-0.0116050065911,0.0,-0.00780403226653,0.00908607396349,-0.999928267597,0.0,0.584217537525,0.159340490965,0.304216617305,1.0,-0.098872,-0.129946057143,2.142
0.378631550472,0.190357168314,-0.125478835607,-1.8847980937,0.039206349293,2.06802676095,0.0623758536277,-0.141802839293,-0.378041060255,-0.00418835327808,-0.526764165261,-0.046451391868,0.142065064345,-0.144387520516,0.573890750981,0.818914963448,0.00290438975455,0.0,0.818882098883,-0.573826328921,-0.0116704441503,0.0,-0.00789063795335,0.00907608747866,-0.999927678619,0.0,0.58263023371,0.15721032608,0.304174371069,1.0,-0.0999782857143,-0.131400032653,2.158
0.37607851531,0.18372820471,-0.125576851868,-1.89390992764,0.0383294404436,2.07033892823,0.0600324415193,-0.148424335189,-0.384403412621,-0.00229035310841,-0.529255893851,-0.0524171180461,0.144920873978,-0.136303090009,0.573989069248,0.818846585152,0.00275050347798,0.0,0.81881129605,-0.573924694472,-0.0118005693744,0.0,-0.00808442971715,0.00902571492238,-0.999926586538,0.0,0.580891999249,0.15489185103,0.304124484807,1.0,-0.101153714286,-0.132944881633,2.175
0.373377293598,0.176573912151,-0.125567865123,-1.90335675922,0.0373800469436,2.07299646612,0.0575250792645,-0.152321287101,-0.400994325015,0.002398234158,-0.529578920474,-0.0566176859862,0.149051606422,-0.131037311227,0.573956445869,0.818868452133,0.00303368553099,0.0,0.818837496912,-0.573891857806,-0.0115773959515,0.0,-0.00773950588662,0.00912919226458,-0.999928376384,0.0,0.579027539646,0.152411842353,0.304264640035,1.0,-0.102467428571,-0.134671477551,2.194
0.370958522287,0.170252091781,-0.125558626195,-1.91196326411,0.0365076751139,2.07512906349,0.0551911680477,-0.155570832899,-0.391729349336,-0.000219313226535,-0.529717392863,-0.056163294251,0.127726738915,-0.157436154554,0.573845081967,0.818947090393,0.00286913563049,0.0,0.818913546533,-0.573780533283,-0.0117153673226,0.0,-0.00794816483639,0.00907255463094,-0.999927255068,0.0,0.57742896721,0.150423152044,0.30420726631,1.0,-0.103504571429,-0.136034579592,2.209
0.368308686359,0.163520276504,-0.125564292727,-1.92117483837,0.0356014598313,2.07746609314,0.0526894435274,-0.156932678372,-0.400819924345,0.000686442553338,-0.533711088279,-0.0477579961804,0.13407573395,-0.152234048264,0.573785776273,0.818989067523,0.00274538251602,0.0,0.818953398144,-0.573721097277,-0.0118398103106,0.0,-0.00812174770519,0.00904202917776,-0.999926136733,0.0,0.575617561546,0.148128425747,0.304135372994,1.0,-0.10468,-0.137579428571,2.226
0.365448563759,0.15615009862,-0.125564290964,-1.93069551788,0.0346204149367,2.08009958393,0.050047440445,-0.160967232539,-0.403681235016,-0.000546804409537,-0.535273317134,-0.0505181463165,0.14229632828,-0.151652823875,0.573746926106,0.819015022374,0.00309916287166,0.0,0.818984736904,-0.573681943831,-0.0115661118261,0.0,-0.00769503370885,0.00917436483127,-0.999928306173,0.0,0.573801406204,0.145712383265,0.304308912286,1.0,-0.105924571429,-0.13921515102,2.244
0.362789661194,0.149705272659,-0.125584125397,-1.93945180852,0.0337303191007,2.08212501144,0.0476287299173,-0.166245627837,-0.397599934751,-0.00112885317381,-0.553628451985,-0.0559860735442,0.119359811095,-0.151550599825,0.573755606814,0.819009807685,0.00286102555624,0.0,0.818975711343,-0.573690589102,-0.0117745109363,0.0,-0.00800225056881,0.00909897729077,-0.999926583604,0.0,0.572030362637,0.143455627092,0.304225036683,1.0,-0.107030857143,-0.140669126531,2.26
0.359918500219,0.142774765674,-0.125624169898,-1.94871297094,0.0328158242918,2.08440384799,0.0450067079517,-0.160215045268,-0.410747893903,0.000923127054752,-0.525920772629,-0.0491257757946,0.143881945754,-0.155874958265,0.573779802963,0.818992990754,0.00282235870582,0.0,0.81895788053,-0.573714344299,-0.0118569796028,0.0,-0.00809171130244,0.00911486381343,-0.999925718974,0.0,0.570181130404,0.141049241794,0.304202084327,1.0,-0.108206285714,-0.14221397551,2.277
0.356825292468,0.135369325956,-0.125667456213,-1.9583197499,0.03181628031,2.08701090691,0.0421248552427,-0.172089430602,-0.403384171491,0.000398091409865,-0.536971527569,-0.0514353583512,0.138814006587,-0.16209523414,0.573739364985,0.819020261051,0.00311447515728,0.0,0.818989661867,-0.573673723666,-0.0116249486806,0.0,-0.00773452485593,0.00922059115491,-0.999927576289,0.0,0.568317417777,0.138508203656,0.304310341591,1.0,-0.109450857143,-0.143849697959,2.295
0.353807936671,0.128336180357,-0.125747512967,-1.9676546076,0.0307693509105,2.08911290304,0.0393831814908,-0.17624782173,-0.408047455218,-0.00624460550938,-0.548974747616,-0.0656853837151,0.128202639572,-0.160726035465,0.573747031415,0.819015672912,0.00290144233509,0.0,0.818982269576,-0.573682063655,-0.0117336635656,0.0,-0.00794570191388,0.009108559835,-0.999926947311,0.0,0.566403102524,0.135995512841,0.304268904019,1.0,-0.110626285714,-0.145394546939,2.312
0.350918512578,0.121666273654,-0.12585726077,-1.9763973852,0.0298619150332,2.09126532872,0.0368529976713,-0.182338545388,-0.421984412837,-0.00272968932051,-0.533263851504,-0.0549875107499,0.136978200919,-0.153940474855,0.573888500551,0.818916386402,0.00294752751024,0.0,0.818883600385,-0.573823375808,-0.0117102219361,0.0,-0.00789848451595,0.00913421950987,-0.99992708733,0.0,0.564644183373,0.133619957656,0.304281137557,1.0,-0.111732571429,-0.146848522449,2.328
0.347938666272,0.114928335743,-0.125896574317,-1.98505733901,0.0289542827297,2.09348926983,0.0341407696917,-0.192249700308,-0.414657835234,-0.00130676201194,-0.550383838456,-0.064000562973,0.128056995968,-0.16513920481,0.573889397208,0.818914918944,0.00317209781106,0.0,0.81888542423,-0.573823980497,-0.0115519821644,0.0,-0.00764001183927,0.00922732239717,-0.999928240796,0.0,0.562914458834,0.131257666572,0.304363119941,1.0,-0.112838857143,-0.148302497959,2.344
0.344753956815,0.107813209206,-0.125906432996,-1.99446960416,0.0279028766725,2.09553056858,0.0312721224968,-0.179528531659,-0.41547952491,-0.00374013347226,-0.559451221742,-0.0580130397135,0.127130249057,-0.168831138737,0.573847678523,0.818945031702,0.00293663169441,0.0,0.818912061777,-0.57378254782,-0.0117204861177,0.0,-0.00791359822092,0.00913079266143,-0.99992699913,0.0,0.560923060593,0.12872834861,0.304285169139,1.0,-0.114014285714,-0.149847346939,2.361
0.341733955633,0.100993697084,-0.125903383174,-2.00318957004,0.0269609473023,2.09760633668,0.0285103117922,-0.188514100559,-0.432148631024,-0.00104662653028,-0.537015768963,-0.0564222913979,0.13707319964,-0.172851268888,0.573776790933,0.818994239741,0.00306208400052,0.0,0.818963028104,-0.573711396489,-0.0116421234802,0.0,-0.00777822933555,0.00918789073085,-0.999927538281,0.0,0.559111803648,0.126382461974,0.304345383536,1.0,-0.115120571429,-0.151301322449,2.377
0.338273945601,0.0933172445385,-0.125898763546,-2.01306270982,0.0259554490503,2.09988897934,0.0253272100622,-0.194739158613,-0.427184103451,0.000444221166448,-0.563205282855,-0.0655628068042,0.123002917523,-0.177800879074,0.573699278294,0.819048178857,0.00315684914427,0.0,0.819017655018,-0.573632936011,-0.0116654358371,0.0,-0.00774383042748,0.00927814593714,-0.999926971883,0.0,0.557029276398,0.123727190042,0.304365771604,1.0,-0.116365142857,-0.152937044898,2.395
0.334862067522,0.0860686591941,-0.125953838328,-2.02255047306,0.0249272417894,2.10183949264,0.0222600972599,-0.202694068722,-0.417216394537,0.00152940281364,-0.557953725863,-0.0694996538011,0.111467412897,-0.188524278975,0.57370205821,0.819047070828,0.0029310533419,0.0,0.819012690501,-0.573635429539,-0.0118892252868,0.0,-0.00805663421794,0.00922162044586,-0.99992502337,0.0,0.554973971774,0.121093149919,0.304275835427,1.0,-0.117540571429,-0.154481893878,2.412
0.33159241728,0.0790842300766,-0.126037147803,-2.03123018467,0.0239366609403,2.10391245866,0.0193166487627,-0.2081710089,-0.437118095723,-0.00337834154278,-0.539114651607,-0.0580682409073,0.13360679205,-0.18359832352,0.573712344979,0.819038888593,0.00319234899321,0.0,0.819008766123,-0.573645812537,-0.01165631476,0.0,-0.00771584600793,0.00930211257921,-0.999926965544,0.0,0.553168422859,0.118607806535,0.30440348712,1.0,-0.118646857143,-0.155935869388,2.428
0.32803566954,0.0717378947548,-0.126091396279,-2.0406449676,0.0228955208809,2.10595803161,0.0162171700548,-0.209019025779,-0.427819967067,-0.00652467739699,-0.56120031857,-0.0594427879553,0.112957820294,-0.181837361614,0.573783981386,0.818988806719,0.00316608196339,0.0,0.818958072851,-0.57371720162,-0.0117044597598,0.0,-0.00776953543547,0.00930889912932,-0.999926486656,0.0,0.551138190763,0.11593909562,0.304379263364,1.0,-0.119822285714,-0.157480718367,2.445
0.324810596899,0.0651962851042,-0.126205414933,-2.04909023997,0.021913286352,2.1075911635,0.0133555512217,-0.217038642739,-0.429689977872,-0.00739887918476,-0.562349999537,-0.0637340380907,0.104162361044,-0.190667142175,0.573834583267,0.818954226497,0.00293135661487,0.0,0.818919887945,-0.573767978879,-0.0118857243385,0.0,-0.00805210064958,0.00922116343914,-0.999925064102,0.0,0.549269389356,0.113492210512,0.304299717411,1.0,-0.120859428571,-0.158843820408,2.46
0.320860008099,0.0572568820508,-0.126297339203,-2.05885345766,0.0207685978684,2.10984195337,0.00986185212021,-0.222400878648,-0.434123180385,-0.00246055691178,-0.537879088734,-0.0654304837852,0.136212414561,-0.19534606293,0.573881004062,0.818920664981,0.00320695273659,0.0,0.818890936926,-0.573814648932,-0.0116244996714,0.0,-0.00767949439634,0.0092974030781,-0.999927289187,0.0,0.547314297713,0.11075661449,0.304426951703,1.0,-0.122034857143,-0.160388669388,2.477
0.316879993266,0.0493354507639,-0.126292873859,-2.06885530157,0.0196508479464,2.111855766,0.00635194669962,-0.22685636119,-0.434117902414,0.000267782564062,-0.555246477674,-0.0637811203063,0.106911122235,-0.196737245855,0.573857862544,0.818936973687,0.00318333576604,0.0,0.818906338153,-0.57379086382,-0.0117132758212,0.0,-0.00776601519383,0.00932878886953,-0.999926328639,0.0,0.544959318032,0.107745561421,0.304405142428,1.0,-0.123348571429,-0.162115265306,2.496
0.313070765461,0.0418193262598,-0.126300983128,-2.07838958975,0.0185549200947,2.11366357093,0.00295757359583,-0.22903782966,-0.445379270696,-0.0012503054132,-0.55775905182,-0.0687421149227,0.104881798151,-0.207087435416,0.573798022847,0.818979514472,0.00302171381261,0.0,0.818945995678,-0.573730678697,-0.0118874465961,0.0,-0.00800207938984,0.00929579275326,-0.999924774652,0.0,0.542787227547,0.105022831614,0.304333137448,1.0,-0.124524,-0.163660114286,2.513
0.309351580221,0.0345980576875,-0.126337824591,-2.08706673423,0.0175110938427,2.11557586286,-0.000355013461291,-0.23941069498,-0.441069694586,-0.00123677807431,-0.547973226833,-0.0742865967988,0.118518478969,-0.207337407634,0.573764065458,0.819002053523,0.00334371276828,0.0,0.818973785478,-0.573696905306,-0.0115994156444,0.0,-0.00758181353843,0.00939392184255,-0.999927132513,0.0,0.540888503364,0.102417988331,0.304484108789,1.0,-0.125630285714,-0.165114089796,2.529
0.305338385158,0.0269845438137,-0.126419686085,-2.09657097025,0.0163862078924,2.11729986875,-0.00385456827734,-0.242201034849,-0.448986727347,-0.00230595836553,-0.567327451545,-0.0649833091883,0.0999967857747,-0.211847023011,0.573814918702,0.8189669622,0.00320948619984,0.0,0.818936381747,-0.573747494892,-0.0117371912088,0.0,-0.00777108677949,0.00936352071182,-0.999925964604,0.0,0.538700585901,0.0995836634608,0.304438168517,1.0,-0.126805714286,-0.166658938775,2.546
0.301472292034,0.0197745315568,-0.126501408334,-2.10552962543,0.0153471121129,2.11890544566,-0.00729774204283,-0.247042368144,-0.450977469077,-0.0034937267555,-0.553451420049,-0.0687122178502,0.105546097137,-0.216984983105,0.573817136635,0.818965777607,0.00311379411512,0.0,0.818933212513,-0.573749166581,-0.0118757817854,0.0,-0.00793947494559,0.00936469681661,-0.999924630755,0.0,0.536623578922,0.0968886702818,0.304395246031,1.0,-0.127912,-0.168112914286,2.562
0.297268347526,0.0119986624141,-0.126626950019,-2.11478921142,0.0141802450815,2.12076626599,-0.010942322113,-0.247406269702,-0.454116665025,-0.0100296400826,-0.548837354559,-0.0691779594367,0.109558256579,-0.223071842817,0.573904742027,0.818903418675,0.00335929496619,0.0,0.818875130258,-0.573837237405,-0.0116229476996,0.0,-0.00759052920448,0.00942148929703,-0.999926807024,0.0,0.534532850298,0.0939895619402,0.304525910228,1.0,-0.129087428571,-0.169657763265,2.579
0.292964098749,0.00430740918489,-0.12665574293,-2.12432899552,0.0130868897473,2.12237950152,-0.0147312612504,-0.252446137371,-0.457082205253,-0.00170742098033,-0.560642872124,-0.0676420983769,0.0987270160127,-0.221117017344,0.573900170169,0.818907194734,0.00321682996114,0.0,0.81887585485,-0.573831680692,-0.0118441327011,0.0,-0.00785347774502,0.00943171574677,-0.999924679976,0.0,0.532270259097,0.0910970633482,0.304443314755,1.0,-0.12998,-0.170830857143,2.596
0.288176408595,-0.0043784930417,-0.126650416442,-2.13475822117,0.011805321997,2.12427488091,-0.0190218757964,-0.252002475105,-0.462091048103,0.0013923548476,-0.536750320942,-0.0653258439125,0.101700281299,-0.232839817877,0.573752561982,0.819010090131,0.00334914686962,0.0,0.818980748604,-0.573683972474,-0.0117464906998,0.0,-0.0076992907614,0.00948264851414,-0.999925397367,0.0,0.529689359732,0.0877663115352,0.30450399066,1.0,-0.12998,-0.170830857143,2.616
0.284312696915,-0.0111816860114,-0.126655348535,-2.14290331217,0.0107657174325,2.12577164427,-0.0223869814119,-0.25840749201,-0.447468041967,0.000215916560311,-0.552809691755,-0.0668458142211,0.0937325478294,-0.223515103722,0.573728757636,0.819026507845,0.00341159915591,0.0,0.818998379028,-0.573660463093,-0.0116651247149,0.0,-0.00759709307476,0.00948689434106,-0.999926138779,0.0,0.527891227988,0.0854111997631,0.304525007074,1.0,-0.12998,-0.170830857143,2.63
0.279808832677,-0.018809742865,-0.126701276587,-2.15224408692,0.00958438706889,2.1271525638,-0.0263421625977,-0.266726031985,-0.451709336365,-0.00150525292276,-0.547694427873,-0.0644663219452,0.0786884885849,-0.242181289618,0.573699010275,0.819048371686,0.00315552663789,0.0,0.819015958999,-0.573630442027,-0.0119046959832,0.0,-0.00794056860088,0.0094143202335,-0.999924156096,0.0,0.525602080313,0.0824710775764,0.304424840229,1.0,-0.12998,-0.170830857143,2.647
0.276074524411,-0.0251543387565,-0.126783561834,-2.1596654485,0.00864399819487,2.12839797057,-0.0295449106803,-0.264990942456,-0.464488192958,-0.00688554204237,-0.522422918854,-0.0668952494828,0.0987435878111,-0.231516151495,0.573791825385,0.818982704861,0.00331921099123,0.0,0.81895290382,-0.573723245551,-0.011769695902,0.0,-0.00773501780574,0.0094718151373,-0.999925224313,0.0,0.523705007993,0.079882120472,0.304517109365,1.0,-0.12998,-0.170830857143,2.662
0.271189132424,-0.0332564068249,-0.126906690272,-2.16915930382,0.00742091681715,2.13003275204,-0.0337422398184,-0.27528579249,-0.444095566183,-0.00817874819217,-0.546290175718,-0.0701372499668,0.0821932605867,-0.236215326461,0.573897090029,0.818908440155,0.00344145313651,0.0,0.818880670441,-0.573828640337,-0.0116570153877,0.0,-0.00757136968627,0.00950824972444,-0.999926131046,0.0,0.521543580634,0.0769213517518,0.304561625103,1.0,-0.12998,-0.170830857143,2.679
0.266012506435,-0.0417222461639,-0.126935458892,-2.17929912377,0.00619184728288,2.13143854586,-0.0382823346803,-0.276409924377,-0.445261237516,-0.000347973899892,-0.535290710465,-0.0630084774314,0.0772321000159,-0.247695066368,0.573875884533,0.818923928488,0.00328867798619,0.0,0.818892788994,-0.573806254109,-0.0119050317688,0.0,-0.00786240276424,0.00952526871585,-0.99992372303,0.0,0.518994519377,0.0736806603763,0.304483921456,1.0,-0.12998,-0.170830857143,2.698
0.261639501482,-0.048871520435,-0.126929802021,-2.18752065092,0.0051330148578,2.13278007873,-0.0420511307017,-0.27878679669,-0.449605067088,0.000706875962943,-0.504635226953,-0.0778353319736,0.0833769867004,-0.234806320693,0.573872184252,0.818925710345,0.00348482127719,0.0,0.818897727699,-0.573802620067,-0.0117393217093,0.0,-0.00761417938694,0.00959076706824,-0.999925017918,0.0,0.51697008015,0.0710009465186,0.304569674201,1.0,-0.12998,-0.170830857143,2.714
0.256905359161,-0.0564086800177,-0.126941034734,-2.19626426441,0.00394603244922,2.13405047968,-0.0462499404111,-0.280614039875,-0.437025860015,0.00164763745561,-0.525397555151,-0.0780290065661,0.0701626180162,-0.257240282556,0.573759423125,0.819004641283,0.0035026894228,0.0,0.818977230325,-0.573690244975,-0.0116852869228,0.0,-0.00756099104398,0.00957335068273,-0.999925588417,0.0,0.514771043668,0.0681111630604,0.304595615583,1.0,-0.12998,-0.170830857143,2.731
0.252693651434,-0.0630038491837,-0.12699310628,-2.20408419581,0.00298001316541,2.13502531177,-0.0498846884906,-0.279998539723,-0.439981645782,-0.00581677437048,-0.512170785126,-0.0607211818157,0.0648012637687,-0.244105874215,0.573808594523,0.818970789156,0.00336009855137,0.0,0.818940299343,-0.573738373498,-0.011908475554,0.0,-0.00782502680049,0.00958509027675,-0.99992344457,0.0,0.512749012512,0.0655459792386,0.30451500904,1.0,-0.12998,-0.170830857143,2.746
0.248107205141,-0.0700258006818,-0.127076564408,-2.21212886227,0.0018994267857,2.13616565204,-0.0538470039943,-0.291640550601,-0.446024850389,-0.00709411030783,-0.485235181202,-0.064284506693,0.0796442178158,-0.244147290681,0.573863596575,0.81893192446,0.0034383904107,0.0,0.818902764411,-0.573793473442,-0.0118346599925,0.0,-0.00771900352089,0.00960737293166,-0.999924054801,0.0,0.510706656168,0.062778334694,0.304550696305,1.0,-0.12998,-0.170830857143,2.762
0.242619012754,-0.0783590446939,-0.127187765128,-2.22157346519,0.000652914659337,2.13745645449,-0.0586664753914,-0.289856857711,-0.436589485502,-0.00405807428876,-0.508321282167,-0.0581950595451,0.0648936810899,-0.26384217677,0.573887206712,0.81891475556,0.00358385267467,0.0,0.818887734606,-0.573816899206,-0.0117384495646,0.0,-0.00755645981214,0.00967150523613,-0.999924678114,0.0,0.5082846149,0.0595022124496,0.304613939518,1.0,-0.12998,-0.170830857143,2.781
0.238296454758,-0.0848764899137,-0.127180547934,-2.2291467368,-0.000340044124177,2.13830967722,-0.0624037950451,-0.284182824544,-0.435241901544,0.00130999615001,-0.50210682727,-0.0579115768719,0.0530002211048,-0.245746286815,0.573863490896,0.818931928721,0.00345497315173,0.0,0.818902387705,-0.573792566562,-0.0119044895213,0.0,-0.00776667818461,0.00966102368209,-0.999923168714,0.0,0.506271435419,0.0569829712848,0.304550360089,1.0,-0.12998,-0.170830857143,2.796
0.233367380249,-0.0922562976135,-0.127166348011,-2.23752318826,-0.00145275528215,2.1393053827,-0.0667877752983,-0.292716649584,-0.44102221017,0.000479956278834,-0.47729085456,-0.0698363345989,0.0574967947846,-0.257896776839,0.573734897415,0.819021958536,0.00347070962431,0.0,0.818992381037,-0.573663634431,-0.0119273314817,0.0,-0.00777787624136,0.00968579752482,-0.999922842007,0.0,0.504050567206,0.0541500270326,0.304555157512,1.0,-0.12998,-0.170830857143,2.813
0.227676647957,-0.100472287468,-0.127202740447,-2.24664378588,-0.00275628509588,2.14043589468,-0.071688805402,-0.304611578356,-0.421863079129,-0.00534492034886,-0.48459082224,-0.0668812834912,0.0536030564671,-0.25360688024,0.57374818609,0.819012087889,0.00360079864602,0.0,0.818985140868,-0.573677654969,-0.0117487925809,0.0,-0.00755685091135,0.00969003558158,-0.999924495757,0.0,0.501645795238,0.0508976469706,0.304634785544,1.0,-0.12998,-0.170830857143,2.832
0.22253202114,-0.107800356546,-0.127316999252,-2.25498147185,-0.00388286541507,2.14122637356,-0.0761279636684,-0.302864531796,-0.436511570824,-0.00544853752055,-0.492638028855,-0.0651198793694,0.0371282645527,-0.264139354813,0.573833697073,0.818952731547,0.00347253454289,0.0,0.818923125988,-0.573762348641,-0.011934316304,0.0,-0.00778138117695,0.00969223829535,-0.999922752328,0.0,0.499370038935,0.0479448833485,0.304576479824,1.0,-0.12998,-0.170830857143,2.849
0.217596229794,-0.114629164401,-0.127447457212,-2.26265871554,-0.00497774419923,2.14202706025,-0.0803656627004,-0.305326344966,-0.435672634751,-0.00225369198039,-0.467325736792,-0.0673450881847,0.0481037531332,-0.2718182215,0.573940566268,0.818878009082,0.0034321328234,0.0,0.818847765774,-0.573869211977,-0.0119670770495,0.0,-0.00783013162439,0.00967897162286,-0.99992250027,0.0,0.497284940834,0.0451346977794,0.304554018422,1.0,-0.12998,-0.170830857143,2.865
0.212407279915,-0.121899838949,-0.127459544896,-2.27049302492,-0.00605932865481,2.14294178731,-0.0849458784545,-0.303729090139,-0.408040080834,-0.000180250966896,-0.468120462054,-0.0580668113419,0.0460703059247,-0.282271646796,0.573875307267,0.818922606353,0.003693699218,0.0,0.818896715509,-0.573804256655,-0.0117299306855,0.0,-0.00748658921527,0.00975646357623,-0.999924378341,0.0,0.495168403381,0.0422850193115,0.304674181831,1.0,-0.12998,-0.170830857143,2.882
0.207457471528,-0.128645605667,-0.127459466758,-2.27808795577,-0.00709654396501,2.14354382381,-0.0892631486739,-0.31621172223,-0.424920065794,0.000633843353667,-0.472607837139,-0.0739207476609,0.0343397978073,-0.269302621505,0.573835857013,0.818950899278,0.00354692528152,0.0,0.818922063716,-0.573763989848,-0.0119283030665,0.0,-0.00773374542051,0.00974973109679,-0.999922562964,0.0,0.493026655079,0.0395877650774,0.30460156369,1.0,-0.12998,-0.170830857143,2.898
0.202096721019,-0.135864307435,-0.127488598332,-2.28604374954,-0.00823670079649,2.14422897421,-0.0939264447034,-0.315916488628,-0.413521268815,-0.00196418244421,-0.467598648401,-0.0681156778906,0.0385776414224,-0.270088129409,0.573816045682,0.818964933947,0.00351135076307,0.0,0.818935471726,-0.573744105777,-0.0119641605239,0.0,-0.0077837609911,0.00974098451944,-0.999922260121,0.0,0.490788910878,0.036683618076,0.304588887509,1.0,-0.12998,-0.170830857143,2.915
0.196713983105,-0.143117905391,-0.127547714168,-2.29369546164,-0.00929952689854,2.14500456728,-0.0986793455573,-0.320749130867,-0.431960269622,-0.00958482590597,-0.444336308026,-0.0591843251163,0.0401682934419,-0.272543803309,0.573797064178,0.818976921983,0.00380490478909,0.0,0.818952230207,-0.573725340674,-0.0117143078381,0.0,-0.00741092016323,0.00983786011843,-0.999924144508,0.0,0.488660084313,0.0337992520064,0.304721942858,1.0,-0.12998,-0.170830857143,2.932
0.191513983389,-0.149761948482,-0.127681063074,-2.30097338426,-0.0103419128048,2.1455514641,-0.103140159104,-0.330802003724,-0.414021398622,-0.0089007164941,-0.463118602167,-0.0694303930694,0.0289192036138,-0.277419559809,0.573936357281,0.818879492457,0.00376583660308,0.0,0.818853854883,-0.573864163227,-0.0117912428271,0.0,-0.00749467256631,0.00985128244302,-0.999923388124,0.0,0.486575574323,0.0309970918191,0.304692211588,1.0,-0.12998,-0.170830857143,2.948
0.185730415676,-0.157275424424,-0.127675132417,-2.30916697161,-0.0115617948708,2.14603705444,-0.10826511437,-0.323680072838,-0.418559925258,0.00261755837279,-0.459850786029,-0.0662887164764,0.0318178527219,-0.28840089714,0.573796345767,0.818978257666,0.0036213196469,0.0,0.81895024843,-0.5737240366,-0.0119150041856,0.0,-0.00768063911847,0.00980265521746,-0.99992245486,0.0,0.484175440996,0.0279740925401,0.30464815983,1.0,-0.12998,-0.170830857143,2.966
0.179883232463,-0.164746167949,-0.12768032035,-2.3170755994,-0.012673834244,2.14660633976,-0.113391038708,-0.32899962349,-0.416160600566,-0.000751064805252,-0.431318610097,-0.059927988701,0.0357467186669,-0.283072818961,0.573762662119,0.819001288794,0.00374745410891,0.0,0.818975103797,-0.573690151904,-0.0118378997191,0.0,-0.00754552288429,0.0098614063372,-0.999922905903,0.0,0.481872865775,0.0249645358447,0.304701907547,1.0,-0.12998,-0.170830857143,2.984
0.174886563418,-0.170958969082,-0.127706922803,-2.32358258979,-0.0135840162165,2.14707260153,-0.117834048475,-0.331616429646,-0.410699384623,-0.000312461492534,-0.43394147761,-0.0608566852498,0.021986504616,-0.292881623518,0.573717443469,0.819032230774,0.00390472971834,0.0,0.819008385925,-0.573644807114,-0.0117322614013,0.0,-0.00736931418352,0.00992920056921,-0.99992354917,0.0,0.4799691232,0.0224128350642,0.304763863146,1.0,-0.12998,-0.170830857143,2.999
0.168818448228,-0.178295234922,-0.127841121111,-2.33155642826,-0.0147797480814,2.14739936336,-0.123046084696,-0.340293139058,-0.420167789925,-0.0113014750958,-0.433706068859,-0.0745001250186,0.0131715266848,-0.293063758896,0.573847010877,0.818942366422,0.0037088392694,0.0,0.818914860804,-0.573773562065,-0.011962321307,0.0,-0.00766856544395,0.00990195656255,-0.999921569104,0.0,0.47755846526,0.0192806367356,0.304669242572,1.0,-0.12998,-0.170830857143,3.017
0.163670611863,-0.18444605507,-0.127959851816,-2.33807959492,-0.0157663490196,2.14773147567,-0.12754243956,-0.340085528773,-0.413328965766,-0.0084457784851,-0.429817020387,-0.0636439819449,0.0217168068334,-0.297766580981,0.573911027614,0.818897571053,0.00369423983478,0.0,0.818869708321,-0.573837407493,-0.011990723806,0.0,-0.00769942982834,0.00990690045586,-0.999921282954,0.0,0.475591229365,0.0166522396238,0.304654953897,1.0,-0.12998,-0.170830857143,3.032
0.157252158092,-0.192215679829,-0.127960729392,-2.3460074401,-0.016915685262,2.14820394023,-0.133258169754,-0.342194835932,-0.411032022124,0.00144847392428,-0.413104820935,-0.0649421142217,0.0238331163274,-0.294212268487,0.573816053206,0.818962974527,0.00394085486977,0.0,0.818939255355,-0.573742819967,-0.0117651806548,0.0,-0.00737435213794,0.00997856239933,-0.999923020649,0.0,0.473202693799,0.0134867909303,0.304767080028,1.0,-0.12998,-0.170830857143,3.051
0.151714407949,-0.198674864011,-0.127993229254,-2.35276394019,-0.017963553935,2.14842980229,-0.138175400856,-0.348668869074,-0.404217849748,-0.00540444591288,-0.431113662649,-0.0666001002763,0.00888491719569,-0.307334053116,0.573742099403,0.81901503024,0.00388979626837,0.0,0.81899055397,-0.573668921064,-0.0117978139524,0.0,-0.00743127479759,0.00995480060681,-0.999922836073,0.0,0.4711091033,0.0107591773788,0.304755709373,1.0,-0.12998,-0.170830857143,3.067
0.145765296954,-0.205468965617,-0.128063205288,-2.35998228107,-0.0190000500958,2.14861658226,-0.143363504369,-0.355440148898,-0.399658979686,-0.00507735793899,-0.42194168389,-0.0636841510944,0.0139371074032,-0.305666724047,0.573804088448,0.818972071106,0.003789687284,0.0,0.818945069767,-0.57372963741,-0.0120009484242,0.0,-0.00765433304447,0.00998993132537,-0.999920803093,0.0,0.46883998503,0.00785230151581,0.304674200426,1.0,-0.12998,-0.170830857143,3.084
0.140070478704,-0.211892140279,-0.128209996921,-2.36654319345,-0.0199571402,2.14879670018,-0.148355091541,-0.359690658934,-0.406131363883,-0.0119921780369,-0.405465577906,-0.0550169926984,0.0108042609716,-0.310631659997,0.573924028892,0.818887587437,0.00388266710766,0.0,0.818861533906,-0.5738488706,-0.0120003708804,0.0,-0.00759903692895,0.0100668617656,-0.999920453302,0.0,0.466772393876,0.00506384160938,0.304701863834,1.0,-0.12998,-0.170830857143,3.1
0.133336492731,-0.219466255767,-0.128240215572,-2.37408180312,-0.0211199105745,2.1490402421,-0.154295306301,-0.35037517555,-0.392669552056,0.00192561760079,-0.401493661274,-0.0633854576339,0.00411575036202,-0.313294396192,0.573904470322,0.818900325961,0.00408190976786,0.0,0.818877962192,-0.573830105615,-0.0117745415304,0.0,-0.00729999373157,0.0101002424338,-0.999922344582,0.0,0.464389192141,0.00185897514787,0.30481134888,1.0,-0.12998,-0.170830857143,3.119
0.128365844735,-0.224971585565,-0.128234860789,-2.37985198413,-0.0220502026589,2.14910102879,-0.158771767045,-0.358789278364,-0.395313444337,-0.000370699694998,-0.41774423781,-0.0637667264266,0.000292585452345,-0.319353660334,0.573752261678,0.819007722088,0.0039294122312,0.0,0.818982932328,-0.573677835116,-0.0118930632376,0.0,-0.00748643806591,0.0100419868216,-0.999921552796,0.0,0.462515398643,-0.000479203592315,0.304738251522,1.0,-0.12998,-0.170830857143,3.133
0.121433628807,-0.232442150038,-0.128278289092,-2.38746986055,-0.0232117810803,2.14912487726,-0.1649077886,-0.36596663855,-0.39909006173,-0.000614920858148,-0.400934489919,-0.0596746252035,0.00557559180689,-0.331432868337,0.573733172308,0.819021290567,0.0038883792198,0.0,0.81899538833,-0.57365812424,-0.0119857118673,0.0,-0.00758609892829,0.0100613588534,-0.999920606929,0.0,0.460015420865,-0.0037184659344,0.304713767898,1.0,-0.12998,-0.170830857143,3.152
0.115123360284,-0.239107590458,-0.128412863411,-2.39408252697,-0.0242455818962,2.14915269488,-0.170427301135,-0.379239240811,-0.387309055238,-0.00885822781481,-0.387088029579,-0.0678563547232,0.00255336619534,-0.326108526701,0.573858146754,0.818933290177,0.00398001815664,0.0,0.818908764366,-0.573782994387,-0.0119271915334,0.0,-0.00748405156054,0.0101039823131,-0.999920946132,0.0,0.457830747363,-0.00667900477565,0.30475926019,1.0,-0.12998,-0.170830857143,3.169
0.109528711507,-0.24496322091,-0.128507041706,-2.39979243953,-0.0251553388149,2.14923919558,-0.175387701495,-0.363679163687,-0.3880833821,-0.00339531268819,-0.391302288412,-0.0545572224146,0.00432272912554,-0.326232524221,0.573897019015,0.818905216722,0.00414782976124,0.0,0.818883792542,-0.573822556172,-0.0117369179356,0.0,-0.00723144427723,0.0101325678647,-0.999922515639,0.0,0.455943821162,-0.00926992331724,0.304838009169,1.0,-0.12998,-0.170830857143,3.184
0.103245251411,-0.251497405232,-0.128498923379,-2.40644674447,-0.0261434580334,2.14920253242,-0.181040910268,-0.37066174584,-0.380211610843,-0.000206061054789,-0.400759829594,-0.0580430874575,0.00152035879155,-0.335037463403,0.57378839102,0.818981579949,0.00409889450252,0.0,0.818958745277,-0.573713031072,-0.0118607931058,0.0,-0.0073623236357,0.0101626065529,-0.999921255709,0.0,0.453693670945,-0.0120934836763,0.30477532298,1.0,-0.12998,-0.170830857143,3.201
0.0963953297307,-0.258375777892,-0.128567678564,-2.41333035604,-0.0272255870331,2.14914501096,-0.187116680164,-0.378737114948,-0.37576398123,-0.00926577182581,-0.373996604039,-0.0652277435964,-0.00295298562951,-0.335645645538,0.573804728945,0.81897016677,0.0040921732433,0.0,0.818946992912,-0.573729042794,-0.0118976954322,0.0,-0.00739620137429,0.0101784228408,-0.999920844824,0.0,0.451340419647,-0.0151812790723,0.304746492938,1.0,-0.12998,-0.170830857143,3.219
0.0902672555125,-0.264483517146,-0.128702571358,-2.419260056,-0.0281760211253,2.14905425451,-0.192507319813,-0.386365464679,-0.381686789404,-0.00880264971993,-0.363136251449,-0.0582877018831,-0.00187218756452,-0.340897029015,0.57392318701,0.818886682894,0.00418603536777,0.0,0.818864993153,-0.573847525576,-0.0118273952628,0.0,-0.0072832906622,0.0102160108959,-0.999921290302,0.0,0.449287657148,-0.0179498580361,0.304786141386,1.0,-0.12998,-0.170830857143,3.235
0.0840434881068,-0.270541185899,-0.128817722216,-2.42501003246,-0.0291122063344,2.14900311373,-0.198095863293,-0.390101321267,-0.378216893736,-0.0034725530707,-0.361152200399,-0.0590198340832,-0.00169806034987,-0.344762236442,0.573949518816,0.818867240655,0.00437480678572,0.0,0.818849016826,-0.573874703667,-0.0116128822935,0.0,-0.00699895268355,0.0102477117399,-0.999922996568,0.0,0.447287237005,-0.0207298730582,0.304876486431,1.0,-0.12998,-0.170830857143,3.251
0.0771520885373,-0.277287357223,-0.12880938128,-2.431703331,-0.0301676811319,2.1487755269,-0.20436255232,-0.391199462005,-0.367408440027,-0.00234675433071,-0.375836859764,-0.0552986628127,-0.0184718286548,-0.344578859089,0.57378561211,0.818982513302,0.00429664308942,0.0,0.818962654485,-0.573710166352,-0.0117287034371,0.0,-0.00714071267794,0.010248748831,-0.999921983642,0.0,0.444905380264,-0.0237108381281,0.304819708881,1.0,-0.12998,-0.170830857143,3.269
0.0708132469501,-0.28323112376,-0.128843627,-2.43751476483,-0.0311268564999,2.14855409444,-0.209987147645,-0.395964732973,-0.381546376883,-0.00113281884222,-0.362239645375,-0.0580845930811,-0.0139182799086,-0.347533373873,0.573793185174,0.818977439449,0.00425220207188,0.0,0.818956837659,-0.573717645774,-0.0117689370974,0.0,-0.00719906921145,0.0102355029303,-0.999921700876,0.0,0.44280850809,-0.0264515350135,0.304793854304,1.0,-0.12998,-0.170830857143,3.285
0.0640472839044,-0.289523038691,-0.128950843055,-2.44354395984,-0.0320669432426,2.14832164798,-0.216080506069,-0.402944740701,-0.369502498894,-0.0126272961325,-0.349488817825,-0.0485812976554,-0.0167632615466,-0.361083618606,0.573821933913,0.818956832829,0.0043406249867,0.0,0.818937266064,-0.5737459385,-0.0117515618986,0.0,-0.00713374330323,0.010298201807,-0.999921525294,0.0,0.440611484718,-0.0293720851664,0.304808657436,1.0,-0.12998,-0.170830857143,3.302
0.0571877916321,-0.295798084577,-0.12907085535,-2.44935760073,-0.0329886034292,2.14811190521,-0.222159973793,-0.399984637559,-0.369505089804,-0.00266271203075,-0.336600017649,-0.0560418585429,-0.0168830464338,-0.36020423258,0.573958816488,0.818859724417,0.00455802633612,0.0,0.818843801915,-0.573883346606,-0.0115533308998,0.0,-0.00684491373484,0.0103636472764,-0.999922868011,0.0,0.438472915039,-0.0323148849638,0.304902548299,1.0,-0.12998,-0.170830857143,3.319
0.0504032002891,-0.302011817797,-0.129069067981,-2.45525128367,-0.0339561815829,2.14776965639,-0.228368247443,-0.402682045905,-0.368387876341,-0.00138809577723,-0.346903028961,-0.0631217529311,-0.0238423107961,-0.361766101473,0.573806763585,0.81896624282,0.00456487535013,0.0,0.818950479901,-0.573731405311,-0.0115383244561,0.0,-0.0068306173891,0.0103593749221,-0.999923010045,0.0,0.436264116316,-0.0351461614382,0.304911603282,1.0,-0.12998,-0.170830857143,3.336
0.0438440671921,-0.307738302741,-0.129105559353,-2.46084474147,-0.0349217674128,2.14734660058,-0.234188276774,-0.411152564057,-0.363109212856,-0.00110656124927,-0.346871851167,-0.0608382902429,-0.0225279029277,-0.369625011033,0.573825454588,0.818954104286,0.00438971988313,0.0,0.818935207681,-0.573749347223,-0.0117285584468,0.0,-0.00708668860064,0.0103252403394,-0.999921581054,0.0,0.434119948827,-0.0378781976975,0.304825837931,1.0,-0.12998,-0.170830857143,3.352
0.0372530389034,-0.313469496315,-0.12922695481,-2.46622922791,-0.0357622326683,2.14701696685,-0.240168424289,-0.413537792532,-0.360724580486,-0.00817384014229,-0.333580382848,-0.0516087233176,-0.0280767054946,-0.383684769357,0.573860999705,0.818928671121,0.00448681795859,0.0,0.818910916686,-0.57378440219,-0.0117097069186,0.0,-0.00701508362806,0.0103942484475,-0.999921371009,0.0,0.432182279381,-0.0404526650167,0.304840393694,1.0,-0.12998,-0.170830857143,3.367
0.0301778716079,-0.319524229075,-0.129313596269,-2.47179710866,-0.0367016591506,2.14662339702,-0.246536130402,-0.410332822189,-0.357157803292,0.000457269796865,-0.319073408522,-0.0561412585761,-0.0228895697692,-0.366464170922,0.573901223812,0.818900001697,0.00457377632071,0.0,0.818883742216,-0.57382489777,-0.0116254176514,0.0,-0.00689564056725,0.0104174330549,-0.99992196057,0.0,0.42987282431,-0.0435418552084,0.304879898444,1.0,-0.12998,-0.170830857143,3.385
0.0231319650051,-0.32551283903,-0.129308140553,-2.47721332357,-0.037639316768,2.14625933018,-0.253014060254,-0.419408987855,-0.3488589342,-0.000782400181399,-0.320817809246,-0.0587377650677,-0.0136632530167,-0.379558167558,0.573754303478,0.819002285722,0.00469064204867,0.0,0.81898874192,-0.573679513708,-0.0114018885066,0.0,-0.00664737548157,0.0103836655464,-0.999923993056,0.0,0.427740714815,-0.0463872108124,0.304959856298,1.0,-0.12998,-0.170830857143,3.402
0.0154859646744,-0.331762017685,-0.129352619291,-2.48314192418,-0.0386053750623,2.14567079936,-0.2599224256,-0.414653371736,-0.336663842675,-0.00140045051203,-0.32811270152,-0.049966663411,-0.0351137075882,-0.390063801025,0.573752118338,0.819004365796,0.00459373597383,0.0,0.818988458233,-0.573675896851,-0.0116024805255,0.0,-0.00686729881651,0.0104193651273,-0.999922135487,0.0,0.42533961936,-0.0494489445414,0.304887161508,1.0,-0.12998,-0.170830857143,3.42
0.00944341545219,-0.336584534048,-0.129506770055,-2.48764732114,-0.0393517536652,2.14523258941,-0.265361930942,-0.4390246684,-0.338473182616,-0.0104791457411,-0.31952975467,-0.05109622125,-0.0322991453243,-0.38476103468,0.573870043083,0.818921737029,0.0045944721033,0.0,0.818905141382,-0.573792745009,-0.0117047894147,0.0,-0.00694916551196,0.010479666599,-0.999920939718,0.0,0.423487089407,-0.0518989484303,0.304853237197,1.0,-0.12998,-0.170830857143,3.434
0.00128524813413,-0.343134040731,-0.129573084555,-2.49354400263,-0.0403038675721,2.14468080285,-0.272774855614,-0.423586550127,-0.343483889552,-0.000374561365043,-0.310849751681,-0.0498073894115,-0.0322777317893,-0.398320503518,0.573890332763,0.818906750539,0.00472935341434,0.0,0.818892238373,-0.573813123427,-0.0116081099311,0.0,-0.00679232530242,0.0105348157025,-0.999921437902,0.0,0.421047385555,-0.0551222936398,0.304902122752,1.0,-0.12998,-0.170830857143,3.453
-0.00522752429286,-0.348155063105,-0.129601723579,-2.49811281529,-0.0411108540403,2.14416738404,-0.278707969484,-0.444503083499,-0.331008890501,0.00101878049417,-0.303691515846,-0.0531549455771,-0.0302219658599,-0.391003677879,0.573856692749,0.818930462235,0.00470543436016,0.0,0.818915636842,-0.573779556606,-0.0116166715606,0.0,-0.00681349535083,0.0105198610381,-0.999921451317,0.0,0.419111022633,-0.0576722550812,0.304901066979,1.0,-0.12998,-0.170830857143,3.468
-0.0126680866786,-0.353912943899,-0.129686139745,-2.50314957217,-0.0420033297134,2.14364482042,-0.285532187235,-0.441281819022,-0.334981309638,-0.0066561929468,-0.299472620364,-0.0491021846135,-0.0411246526807,-0.398425241815,0.573837012259,0.818943462806,0.0048409699099,0.0,0.818931433096,-0.573761126264,-0.0114116071624,0.0,-0.00656802719289,0.0105130273934,-0.999923165685,0.0,0.416956169695,-0.0605863249363,0.304986338604,1.0,-0.12998,-0.170830857143,3.485
-0.0215423460985,-0.360528746736,-0.129846889565,-2.50923568746,-0.0430496483296,2.1428370281,-0.293614807282,-0.439240954681,-0.332302879239,-0.00209203446064,-0.301813079349,-0.0507878118418,-0.0462973567449,-0.414907681053,0.573908493545,0.818893811264,0.00476590092784,0.0,0.818879570189,-0.573830854818,-0.0116252521074,0.0,-0.00678515663704,0.0105747334238,-0.999921065216,0.0,0.414285095432,-0.064032382036,0.304917022907,1.0,-0.12998,-0.170830857143,3.505
-0.0290251204535,-0.366074824083,-0.129847854182,-2.51423442124,-0.0439379561566,2.1422179498,-0.300583833252,-0.446089031363,-0.325152982507,-0.00297319865392,-0.281045919423,-0.0594399747446,-0.0405030359992,-0.398360619274,0.573738747098,0.819012941405,0.00473273607778,0.0,0.818998303723,-0.573661289817,-0.0116297018801,0.0,-0.00681001997573,0.010548716501,-0.999921170997,0.0,0.412078668662,-0.066865190454,0.304902513223,1.0,-0.12998,-0.170830857143,3.522
-0.0358111900515,-0.370922680275,-0.129872898511,-2.51851025485,-0.0446917131728,2.14165109616,-0.306780750256,-0.451348182145,-0.318343505102,-0.00206153104915,-0.288175402448,-0.0561274792834,-0.0447833706083,-0.410959904458,0.573734861429,0.819015520578,0.00475738730655,0.0,0.819001444037,-0.573657705643,-0.0115852631696,0.0,-0.0067595286006,0.0105433794258,-0.999921569886,0.0,0.410144043734,-0.0694297704517,0.304921511841,1.0,-0.12998,-0.170830857143,3.537
-0.0435721407887,-0.37630331614,-0.130029736176,-2.52329910679,-0.0454769309625,2.14093857843,-0.313821130846,-0.460426138292,-0.320122090396,-0.0127200577277,-0.280546179798,-0.0425293332684,-0.041325266525,-0.421143397142,0.573902547077,0.818897739935,0.00480675459089,0.0,0.818883473974,-0.573823916321,-0.0116925622274,0.0,-0.00681691328461,0.0106467681253,-0.999920084818,0.0,0.407922951412,-0.0723769306657,0.304904697727,1.0,-0.12998,-0.170830857143,3.554
-0.0508224486574,-0.381392746753,-0.130077808325,-2.52763135327,-0.0462350120505,2.14035572895,-0.320558043075,-0.451210302105,-0.31516442701,-0.00170292188606,-0.276758335644,-0.0485948869848,-0.0383145445147,-0.42271261122,0.573844978112,0.818937304154,0.00493759670685,0.0,0.818925666363,-0.573767441251,-0.0115075294488,0.0,-0.00659103981383,0.010647267651,-0.999921593869,0.0,0.405904195706,-0.0750829295879,0.304979496974,1.0,-0.12998,-0.170830857143,3.57
-0.0586687890797,-0.386704346847,-0.130106295482,-2.53232355183,-0.0471027881304,2.13962280409,-0.32777975046,-0.464748620209,-0.311494840864,-0.00223874476482,-0.280698319837,-0.0506227198261,-0.0417111030831,-0.429261338168,0.573798575105,0.818970151592,0.00488189616305,0.0,0.818957670003,-0.573721011157,-0.0115448257166,0.0,-0.00665414937718,0.0106226753723,-0.999921437446,0.0,0.403673375447,-0.0779754174583,0.304961173897,1.0,-0.12998,-0.170830857143,3.587
