nelsonifechukwu/NELSON_IML_WORK/CNN-GradCAM/train2dof/data_sample_2022-02-21-17-16-32/robot_state.csv
position_joint1,position_joint2,position_joint3,position_joint4,position_joint5,position_joint6,position_joint7,velocity_joint1,velocity_joint2,velocity_joint3,velocity_joint4,velocity_joint5,velocity_joint6,velocity_joint7,ee_T_00,ee_T_10,ee_T_20,ee_T_30,ee_T_01,ee_T_11,ee_T_21,ee_T_31,ee_T_02,ee_T_12,ee_T_22,ee_T_32,ee_T_03,ee_T_13,ee_T_23,ee_T_33,v_x,v_y,time
0.465069191612,0.547835303608,-0.123993572991,-1.35586290505,0.0794599072488,1.89409754808,0.159151958753,-0.000360642806938,0.000948980779156,-6.16858741432e-05,-0.00135556309648,9.10116047819e-05,-0.000242779653921,-0.00152896759991,0.573798115982,0.818982942692,0.00184623300791,0.0,0.818938798543,-0.573740321196,-0.0119178427601,0.0,-0.00870141914452,0.00835054833758,-0.999927274179,0.0,0.661672760035,0.260873595115,0.303161642941,1.0,0.0,0.0,0.0
0.465072676771,0.547835329608,-0.123991026667,-1.35586362029,0.0794591820467,1.89409821782,0.159156369983,0.000243554488833,0.000554478267481,-0.00132738719121,-0.000988517884105,-0.000162447887019,-4.47222526453e-05,0.000394254620734,0.573796946659,0.818983761702,0.00184634055575,0.0,0.818939612791,-0.573739145647,-0.0119184837544,0.0,-0.00870189434439,0.00835099178938,-0.99992726634,0.0,0.6616712756,0.260877217446,0.303161256621,1.0,-0.00012,-0.000157714285714,0.007
0.465066954277,0.547834599413,-0.123994506514,-1.35585554115,0.0794585848384,1.89409942277,0.159152870018,-0.00055123817278,-0.000131626258438,-1.63405535599e-05,0.00202134939492,-0.000406089449247,0.00040925222688,-0.000545952843063,0.57380060722,0.818981180938,0.00185346271737,0.0,0.818937158471,-0.573742808128,-0.0119108143335,0.0,-0.00869148922266,0.00835246279893,-0.999927344551,0.0,0.661675714858,0.26087237309,0.303165837704,1.0,-0.00036,-0.000473142857143,0.019
0.465064039322,0.547821111292,-0.123999169667,-1.35587000883,0.079459195184,1.89409710056,0.159149528851,-0.000613055700319,-0.00042566318002,-0.000576744940132,0.000302419670588,-0.000170330137479,-0.000264693061749,0.00167978003923,0.573804427784,0.818978510232,0.00185076581603,0.0,0.818934452965,-0.573746639878,-0.0119122573801,0.0,-0.00869417952441,0.00835112270572,-0.999927332356,0.0,0.661674088628,0.26086614612,0.303168461018,1.0,-0.0007,-0.00092,0.036
0.465071559434,0.547788319096,-0.123994884389,-1.35590280022,0.079455293959,1.89410533042,0.159149362959,0.0009599791535,9.61269070774e-05,-0.000367435919906,-0.00168073929267,-6.58823802145e-06,0.000323488732404,-0.00208589276528,0.573795895376,0.818984471414,0.00185820721259,0.0,0.818940501183,-0.573738067743,-0.0119093260057,0.0,-0.00868759611123,0.00835544439296,-0.999927353473,0.0,0.661666354536,0.260870069025,0.30317665009,1.0,-0.001,-0.00131428571429,0.051
0.465071163393,0.547668334123,-0.123989608542,-1.35604349593,0.0794551172529,1.89413137126,0.15915281452,0.000628635115382,-0.00253574693586,0.000878174086483,-0.00976959018642,-0.000358118917863,5.99390666448e-05,0.000754197545676,0.573802962557,0.818979492571,0.00187024301544,0.0,0.818935541666,-0.573744951205,-0.0119187442465,0.0,-0.00868833190475,0.00837078039896,-0.999927218814,0.0,0.661641367654,0.260859477134,0.303196770203,1.0,-0.00136,-0.00178742857143,0.069
0.465062661021,0.54752718193,-0.123992460366,-1.35624350532,0.0794527279865,1.89417996207,0.15914841864,-0.00235962682294,-0.0113606496612,-0.000118230412733,-0.0109629477626,-7.12292613573e-05,0.00217492424271,0.000320289568281,0.573818688255,0.818968481345,0.00186721029844,0.0,0.81892438299,-0.573760583809,-0.0119329088178,0.0,-0.0087015120727,0.00837659140181,-0.999927055542,0.0,0.661611935416,0.260833224187,0.303205874921,1.0,-0.0017,-0.00223428571429,0.086
0.465048457529,0.547369684491,-0.1239969389,-1.35644583903,0.0794488867163,1.89430552909,0.159142800647,0.000703050849924,-0.0118061277069,-0.00137062291724,-0.0146297215418,-0.00012056686145,0.00723438282894,0.000923602005365,0.573839471709,0.818953754763,0.00193782594802,0.0,0.818910590853,-0.573781083819,-0.0118936512713,0.0,-0.00862862862159,0.00841211471355,-0.999927388911,0.0,0.661599702521,0.260807207408,0.303232182496,1.0,-0.00202,-0.00265485714286,0.102
0.46503035127,0.547173645836,-0.123992577757,-1.35667669509,0.0794487732275,1.894404055,0.159125962234,0.000355342613127,-0.00887301707896,-0.000568008300448,-0.01930525436,0.000234032545525,0.0067341044388,-0.00116186969279,0.573850366393,0.818945967994,0.00200134910784,0.0,0.818903501634,-0.573791589365,-0.0118749268263,0.0,-0.00857673128779,0.00845350565873,-0.999927486332,0.0,0.661575322052,0.260779608812,0.303269573459,1.0,-0.00236,-0.00310171428571,0.119
0.464999105083,0.546962350632,-0.123992805751,-1.35697143516,0.0794406449777,1.89454081122,0.159110037596,-0.00202055080996,-0.00946459634149,-0.00154585520906,-0.0227413658546,0.000342781609535,0.0106463294975,-0.00280360559561,0.573877569748,0.81892678231,0.00205111103784,0.0,0.818884915569,-0.573818540157,-0.0118543210056,0.0,-0.00853101966468,0.0084827161373,-0.999927629996,0.0,0.661549231198,0.260734572593,0.303290814015,1.0,-0.0027,-0.00354857142857,0.136
0.46496799551,0.546724609223,-0.123989895959,-1.35732735488,0.079432651963,1.89467572554,0.159080635783,-0.00516876697365,-0.0160405191321,0.0011316326768,-0.0210780952356,-0.000147696300817,0.00764372226097,0.000106261254407,0.573894738892,0.818914694582,0.00207329958715,0.0,0.818872983955,-0.573835485794,-0.0118582584348,0.0,-0.00852133327068,0.00850332486305,-0.999927537547,0.0,0.661508648598,0.260684418328,0.30330139103,1.0,-0.00302,-0.00396914285714,0.152
0.464930340078,0.546453857879,-0.12399770054,-1.35774926054,0.0794207802432,1.8948227685,0.158935485264,-0.00297416024452,-0.0136196225609,-0.0021268855045,-0.0258653247615,0.000359849276625,0.0105662623439,-0.0123209046536,0.573832561324,0.818958256598,0.00207663560239,0.0,0.81891648242,-0.573773195709,-0.0118685132654,0.0,-0.00852846328567,0.00851129435775,-0.999927408956,0.0,0.661460569612,0.260616524234,0.30330532482,1.0,-0.00336,-0.004416,0.169
0.464881677321,0.546125743934,-0.123990200083,-1.358263487,0.0793974732521,1.89501113608,0.158908629217,0.000906739973046,-0.0216053434535,0.000309293255102,-0.027077376369,0.000116385466555,0.00643374665236,-0.00296705710774,0.573867736437,0.818933590061,0.00208399788626,0.0,0.818891801513,-0.573808226716,-0.0118778478264,0.0,-0.00853151768924,0.00852304652438,-0.999927282798,0.0,0.661401014313,0.260540960268,0.30330898035,1.0,-0.00372,-0.00488914285714,0.187
0.464828439752,0.545837731478,-0.123992475783,-1.35875641401,0.0793495618693,1.89516936371,0.15886619079,-0.00399890854902,-0.0222337177431,-4.81209006393e-05,-0.0309891743614,-0.000828047122966,0.0117160465664,-0.00160319199516,0.573892881658,0.818916096213,0.00203338314666,0.0,0.818873788121,-0.573833713038,-0.0118884738653,0.0,-0.0085690037865,0.00848795810458,-0.999927260725,0.0,0.661344041416,0.260452676139,0.303292018893,1.0,-0.00402,-0.00528342857143,0.202
0.464757832133,0.545462409093,-0.123994887401,-1.35941909092,0.0792682195575,1.89539939966,0.158751138274,-0.00587783584693,-0.0136654359031,0.00055783179665,-0.0334378199643,-0.000699219494342,0.0100021906651,-0.0127715168968,0.573873550448,0.818929820997,0.00196042841452,0.0,0.818886920624,-0.573815035134,-0.0118854359163,0.0,-0.00860858034973,0.00842626872718,-0.999927442538,0.0,0.661271065948,0.26033328675,0.303262236848,1.0,-0.00438,-0.00575657142857,0.22
0.464691069544,0.545043409339,-0.12399560972,-1.36011956819,0.0792596973063,1.89561848867,0.158676814823,-0.000858997544977,-0.0297243583468,0.000640144543697,-0.0448977117404,-0.00105220653834,0.0173009929169,-0.00129888366732,0.573904472802,0.818908232503,0.00192606813696,0.0,0.818864519239,-0.573845740359,-0.0119462255348,0.0,-0.00867776351562,0.00843334349454,-0.999926784889,0.0,0.661182822041,0.260224560534,0.303244476149,1.0,-0.00472,-0.00620342857143,0.237
0.464622540338,0.544633803447,-0.12400401095,-1.36079585289,0.0792337772727,1.8958545312,0.158612244843,-0.00577071782244,-0.0249622279501,-0.000961745496235,-0.0428907916268,-0.000788439749377,0.0122379766073,-0.0036616238598,0.5739443678,0.818880320137,0.00190548275023,0.0,0.818836220332,-0.573885602849,-0.0119710491064,0.0,-0.00870949509257,0.00843115683028,-0.999926527446,0.0,0.661106389252,0.260111310234,0.303233236915,1.0,-0.00504,-0.006624,0.253
0.464551886886,0.54415896656,-0.12400357634,-1.36157790334,0.0791972322788,1.89614239163,0.158492939702,-0.00778760592463,-0.0318355140182,0.000289254991324,-0.047666397097,-0.00585426953069,0.0210140254514,-0.000990392150631,0.573938128632,0.818884719261,0.00189419241002,0.0,0.818840358779,-0.573879302909,-0.0119899720512,0.0,-0.00873153518633,0.00843270566973,-0.99992632217,0.0,0.661016711235,0.259991878861,0.303221970445,1.0,-0.00538,-0.00707085714286,0.27
0.464479189237,0.543616421747,-0.124007727546,-1.36245149351,0.0791512356167,1.89644243044,0.158389939881,-0.00525426676807,-0.0273874418862,-0.000791811475495,-0.0500479543499,-0.00280431518578,0.0119350971889,-0.00573086718365,0.573952494411,0.818874704919,0.00187048251704,0.0,0.818829953204,-0.573893689894,-0.0120119664554,0.0,-0.00876300608808,0.00842606744964,-0.999926102825,0.0,0.660912170538,0.259857765826,0.303216180232,1.0,-0.00574,-0.007544,0.288
0.464407347663,0.543147827547,-0.124010865402,-1.3632067097,0.0791014177593,1.89670853959,0.158298856726,-0.00881635994077,-0.0349343917575,-0.000487693282217,-0.0519791066847,-0.00132622478945,0.0203956412428,-0.00691264302869,0.57395874625,0.818870357155,0.00185544536862,0.0,0.818825452279,-0.573900047333,-0.0120150435606,0.0,-0.00877409175527,0.00841558725745,-0.999926093871,0.0,0.660819989256,0.259728296285,0.303216389577,1.0,-0.00606,-0.00796457142857,0.304
0.464339573508,0.542530808971,-0.124012218311,-1.36416949372,0.0790540440299,1.89705142551,0.158178034073,-0.00184375774848,-0.0370870917233,-0.00222255599228,-0.0520567076792,-0.00217344650871,0.0163593294129,-0.00501094133367,0.573965931226,0.818865326744,0.00185292995079,0.0,0.818820253938,-0.573907112812,-0.012031812272,0.0,-0.00878919342837,0.00842322908116,-0.9999258969,0.0,0.660709132215,0.259598826707,0.303219297784,1.0,-0.0064,-0.00841142857143,0.321
0.46425893057,0.541920269329,-0.124009085565,-1.36511282297,0.0789969351975,1.89740785682,0.158049970406,-0.00334709261776,-0.0373153107658,0.000831350539177,-0.0548683370229,-0.00274569345578,0.0160744050476,-0.0104671672338,0.573962102193,0.818867964239,0.00187331014496,0.0,0.818823143853,-0.573903182736,-0.0120225969237,0.0,-0.00876998966281,0.0084345870984,-0.999925969771,0.0,0.660602171834,0.2594583555,0.303232831582,1.0,-0.00674,-0.00885828571429,0.338
0.464180557311,0.541304133503,-0.124011953358,-1.36604954009,0.0789387375547,1.89775394472,0.157915148997,-0.00327157905388,-0.0377688492347,0.000685298959576,-0.0592935052699,-0.00100578479222,0.0203219201064,-0.00681089236831,0.573954292428,0.81887339132,0.00189369825821,0.0,0.818828857068,-0.573895305272,-0.0120095095909,0.0,-0.00874765172619,0.00844368692718,-0.999926088639,0.0,0.660495513745,0.259315895473,0.303252680082,1.0,-0.00706,-0.00927885714286,0.354
0.464097086897,0.540615093723,-0.124020076895,-1.36711361899,0.0788795961385,1.89814244271,0.157783363493,-0.00787818358566,-0.0408297098547,-0.00184474531631,-0.0629700033762,-0.00397809876145,0.027324200341,-0.00702461115633,0.573963556674,0.818866869447,0.00190594704754,0.0,0.818822472204,-0.573904493686,-0.0120057503941,0.0,-0.0087374478882,0.00845165819069,-0.999926110509,0.0,0.66037223552,0.259155590433,0.30326721345,1.0,-0.0074,-0.00972571428571,0.371
0.463989061935,0.539887997258,-0.124014814798,-1.36822426282,0.0788158469988,1.89856159497,0.157649482862,-0.0049333501946,-0.045968630313,-0.000539620056312,-0.0642018619306,-0.000232372243497,0.0273565919908,-0.0113294309774,0.573983164605,0.81885304794,0.00193895093681,0.0,0.818809027247,-0.573923905628,-0.0119947634171,0.0,-0.0087093059701,0.00847258591885,-0.999926178914,0.0,0.660248667893,0.258983151345,0.303288582562,1.0,-0.00774,-0.0101725714286,0.388
0.463904058799,0.539176021815,-0.124016547839,-1.36932393226,0.078754057897,1.89898076709,0.157522009633,-0.00569716616428,-0.0431834370709,-0.0015554905914,-0.0632815681291,-0.00469658028991,0.0326997437434,-0.00488194018622,0.573993951245,0.818845419932,0.00196700080726,0.0,0.81880173908,-0.573934546416,-0.0119831302672,0.0,-0.00868356880526,0.00848899141151,-0.99992626361,0.0,0.660122557866,0.258823287302,0.303304611197,1.0,-0.00806,-0.0105931428571,0.404
0.46378568361,0.538406409146,-0.124025423258,-1.37052236649,0.0786839268795,1.89944136644,0.15737848174,-0.00381679993369,-0.0479963955527,0.000324549469436,-0.0723267193756,-0.00348974303209,0.0306729035115,-0.00514619072232,0.57401993524,0.818827121105,0.00200164723814,0.0,0.818783909197,-0.573960398107,-0.0119632080285,0.0,-0.00864709942694,0.00850620021897,-0.999926433409,0.0,0.659986431677,0.258618885457,0.303322936426,1.0,-0.00842,-0.0110662857143,0.422
0.463673303927,0.537564246204,-0.12403223209,-1.37183969722,0.0786037612317,1.89994621972,0.157209657277,-0.00633292860833,-0.0495813393621,-0.0024874801183,-0.0771319225342,-0.00548532029377,0.0274771510474,-0.0112490581639,0.574048936457,0.818806732544,0.00202489371151,0.0,0.818763861737,-0.573989336231,-0.0119468618764,0.0,-0.00862006950279,0.00851615711138,-0.99992658204,0.0,0.659840672248,0.258410762901,0.303335535615,1.0,-0.00878,-0.0115394285714,0.44
0.463553480313,0.536778556221,-0.124036421679,-1.37306270921,0.0785477504734,1.90040136563,0.15707178673,-0.00960592950647,-0.0504242134029,-0.00223859219867,-0.0773600618406,-0.00598101553911,0.0342835558615,-0.00324732609956,0.574077498078,0.818786677144,0.00203726108008,0.0,0.8187438517,-0.574017728317,-0.0119540696957,0.0,-0.00861857496161,0.00853072164922,-0.999926470774,0.0,0.659709599925,0.258231078653,0.303341967999,1.0,-0.00908,-0.0119337142857,0.455
0.463439327616,0.535917746567,-0.124045444975,-1.37441583223,0.0784564159542,1.90090210358,0.156886564874,-0.00686412706433,-0.0543136979653,-0.00325265477974,-0.0775341895094,-0.00704686981584,0.0329952752538,-0.0135920253152,0.574075546551,0.818788047401,0.00203646416829,0.0,0.818745326185,-0.5740158938,-0.0119411648063,0.0,-0.00860848595569,0.00852264031958,-0.999926626594,0.0,0.659554729964,0.258020429235,0.303349189177,1.0,-0.00942,-0.0123805714286,0.472
0.463318411719,0.534965934454,-0.124051251025,-1.37592793118,0.0783751867128,1.90144873579,0.156713494532,-0.00916453503748,-0.0562656217985,-0.000894569486509,-0.0886722871534,-0.00298044347307,0.0320820912845,-0.00978219102331,0.574098086363,0.818772263728,0.00202836998435,0.0,0.818729337053,-0.57403836557,-0.0119571904696,0.0,-0.00862601979563,0.00852545032078,-0.999926451535,0.0,0.659374586166,0.257794269727,0.303348693507,1.0,-0.00978,-0.0128537142857,0.49
0.463200189454,0.534126615308,-0.124053954417,-1.37731329545,0.078306729992,1.90194846086,0.156545355822,-0.00481094185039,-0.0585891112917,-0.00105551276363,-0.0854897034198,-0.00619286407113,0.0311060501814,-0.019840645411,0.57411668243,0.81875930551,0.00199536910855,0.0,0.818715781642,-0.574056933526,-0.0119938676705,0.0,-0.00867480230943,0.0085196837262,-0.999926078665,0.0,0.659209095758,0.257584150417,0.303324832108,1.0,-0.0101,-0.0132742857143,0.506
0.463075685335,0.533263166467,-0.124051945082,-1.37870594773,0.0782130670178,1.90247097111,0.156368265983,-0.0105274065497,-0.0531939126286,-0.00142556566061,-0.0855337524757,-0.00204743710916,0.0370856381623,-0.018761622775,0.574123311738,0.818754686117,0.00198337601839,0.0,0.818711071247,-0.574063676984,-0.011992642994,0.0,-0.00868061564904,0.00850923164598,-0.999926117215,0.0,0.659048696051,0.257369580396,0.303316131009,1.0,-0.01042,-0.0136948571429,0.522
0.462940620555,0.532252638508,-0.124049270834,-1.38034490328,0.0781321284547,1.90308877084,0.156165411651,-0.0103443027254,-0.0546085331593,-0.000112661867642,-0.0941785911776,-0.00603685243586,0.0359839078451,-0.0113747356554,0.57413386445,0.818747287563,0.0019828517682,0.0,0.818703476332,-0.574074044888,-0.0120148129273,0.0,-0.00869895924176,0.00852164268032,-0.999925852108,0.0,0.658855283285,0.257129656902,0.30330200877,1.0,-0.01078,-0.014168,0.54
0.462814572776,0.531311451377,-0.124046769366,-1.38185354893,0.0780271054407,1.90362781414,0.155967229044,-0.00550973404729,-0.0559146598575,-0.000172066439757,-0.0977921858267,-0.00407646131128,0.0277229245725,-0.0148061204586,0.57412688168,0.818752259632,0.0019514046421,0.0,0.818708098964,-0.574067257062,-0.012024140741,0.0,-0.00872472286951,0.00850117688738,-0.999925801849,0.0,0.658673322829,0.256900956974,0.303293926556,1.0,-0.0111,-0.0145885714286,0.556
0.462676235663,0.530276108918,-0.124052211017,-1.38350360933,0.077939550316,1.90420888983,0.155756918192,-0.00958440558371,-0.0638693040948,9.40225178242e-05,-0.101740786725,-0.00615852536048,0.0320462655876,-0.010556616515,0.574137860324,0.818744615487,0.00192843330205,0.0,0.818700000507,-0.57407818334,-0.0120538576191,0.0,-0.0087621282329,0.00849954801012,-0.99992548862,0.0,0.658472794428,0.256649684023,0.303288615373,1.0,-0.01144,-0.0150354285714,0.573
0.462538049147,0.529224747256,-0.12405244935,-1.38515146793,0.0778270281942,1.9048192736,0.155532818629,-0.00552177543319,-0.0646021306056,0.000420824981205,-0.0981889949721,-0.00897480829762,0.0345813301805,-0.0107939405201,0.574126810993,0.818752353556,0.00193270480998,0.0,0.818707889019,-0.574067208771,-0.0120407297253,0.0,-0.00874904179164,0.00849538999688,-0.999925638543,0.0,0.658278737357,0.256399997354,0.303297711548,1.0,-0.01178,-0.0154822857143,0.59
0.462404526527,0.5282064072,-0.1240475462,-1.3867487423,0.0777322457775,1.9054411622,0.155324636744,-0.00772864517728,-0.0632778011414,0.000703861479863,-0.096735299657,-0.0016498446859,0.0400043179535,-0.00974870819958,0.574123453055,0.818754620122,0.00196966542491,0.0,0.818710617336,-0.574063672088,-0.0120238243669,0.0,-0.00871401615713,0.00851590951806,-0.999925769849,0.0,0.658094146314,0.256165590247,0.303308251828,1.0,-0.0121,-0.0159028571429,0.606
0.462254027385,0.527052593395,-0.12405031085,-1.38851129058,0.0776196539368,1.9061146306,0.155065242113,-0.00902191982555,-0.0741205240194,0.00110157321606,-0.106605256578,-0.00907823036126,0.0390125311256,-0.0166694408396,0.574101267643,0.818770052337,0.00202059089632,0.0,0.818726787946,-0.574041345773,-0.0119886172859,0.0,-0.00865618474365,0.00853715664216,-0.99992609098,0.0,0.65789129971,0.25589837697,0.303339916273,1.0,-0.01244,-0.0163497142857,0.623
0.462090299577,0.52574340185,-0.124060948534,-1.39053031094,0.0774943354555,1.90685333081,0.154799562485,-0.00584077982629,-0.0708116233486,-0.000824190740286,-0.106783765735,-0.00969107494878,0.0363300546237,-0.0071149051468,0.574100315181,0.818770668686,0.00204135027273,0.0,0.818727714575,-0.574040345373,-0.0119732273119,0.0,-0.00863167610345,0.00854530814061,-0.999926233217,0.0,0.657650671847,0.255591895648,0.303364426159,1.0,-0.01282,-0.0168491428571,0.642
0.461948534498,0.524723000037,-0.124067003554,-1.39216351497,0.0773835471563,1.90743804725,0.154576749829,-0.01122789618,-0.0707813384596,-0.0012896974911,-0.112256088745,-0.00674085251061,0.0363643791075,-0.0150959236575,0.574101095268,0.81877018573,0.00201550827778,0.0,0.818726938852,-0.574041277437,-0.011981581609,0.0,-0.00865334345659,0.0085289542561,-0.999926185569,0.0,0.657440155873,0.255323244135,0.303357012164,1.0,-0.01314,-0.0172697142857,0.658
0.461799607792,0.523521452441,-0.124073362284,-1.39408029543,0.0772745538619,1.90813590936,0.154320459992,-0.0098032144196,-0.0747036321679,-0.000307691386871,-0.112810029344,-0.00463116271892,0.0415438213929,-0.0188180350249,0.574086179945,0.818780690246,0.00199654162821,0.0,0.818737143449,-0.574026392344,-0.0119974052012,0.0,-0.0086773431895,0.00852235139231,-0.999926033885,0.0,0.657219749569,0.2550528762,0.303348829051,1.0,-0.01346,-0.0176902857143,0.674
0.461642915395,0.522298638219,-0.124070438151,-1.39601353983,0.0771605862753,1.90889293192,0.154053797062,-0.00984809502158,-0.0732201845554,-0.00132477351393,-0.113364333346,-0.00380890417087,0.0375498545933,-0.0165376946753,0.574067172158,0.818793919368,0.00203626067745,0.0,0.818750872204,-0.574007201403,-0.0119786853947,0.0,-0.00863941280584,0.00854392475341,-0.999926178223,0.0,0.656993280831,0.2547711097,0.303353628747,1.0,-0.0138,-0.0181371428571,0.691
0.461485014441,0.521115400226,-0.12407510114,-1.39790439211,0.0770406946172,1.90961070242,0.153793473238,-0.0158895694484,-0.0799625806589,0.000166780241755,-0.124305346733,-0.00332580747031,0.0483262154575,-0.0119945584704,0.574055395917,0.818802168426,0.00203919123157,0.0,0.818759218592,-0.573995472847,-0.0119702140126,0.0,-0.00863091682672,0.00854133701072,-0.999926273701,0.0,0.656769638515,0.254485088859,0.303347306513,1.0,-0.01412,-0.0185577142857,0.707
0.461313916344,0.51982852055,-0.124078746097,-1.39995532059,0.0769076282337,1.9103589346,0.153525665119,-0.0134505091109,-0.0782537454078,-4.87084373281e-05,-0.12364911959,-0.0148096053306,0.043187702598,-0.0194233698552,0.57405204478,0.818804566663,0.00201950412003,0.0,0.818761400897,-0.573992244877,-0.0119757305741,0.0,-0.0086467696569,0.00852834884336,-0.999926247601,0.0,0.6565201936,0.25417336872,0.303339844821,1.0,-0.01446,-0.0190045714286,0.724
0.461110019278,0.518243984563,-0.124084022058,-1.40240530968,0.0767527768128,1.9112299289,0.153194687116,-0.0158096708647,-0.077424091941,-0.00176860100132,-0.122085538642,-0.00599129656718,0.0487020424523,-0.0174863250788,0.574039726811,0.818813197926,0.00202134771503,0.0,0.818770043727,-0.573979908404,-0.0119761072387,0.0,-0.00864614815561,0.00852994451243,-0.999926239364,0.0,0.656217805918,0.253800604226,0.303361610616,1.0,-0.01486,-0.0195302857143,0.744
0.460975149641,0.517200087384,-0.124092560459,-1.40404519199,0.0766472897577,1.91182123694,0.152962907661,-0.00720069905812,-0.0883050922441,-0.000953928473124,-0.123030678895,-0.00948729125056,0.0492192380459,-0.0193943839958,0.574021534189,0.818825947823,0.00202295802875,0.0,0.818782894738,-0.573961790363,-0.0119658426202,0.0,-0.00863700810216,0.00852517890555,-0.999926358996,0.0,0.656001925888,0.253534333468,0.303374144507,1.0,-0.01514,-0.0198982857143,0.758
0.460778022361,0.515773416813,-0.124099064322,-1.40633793708,0.0764947462552,1.91269394896,0.152655394095,-0.0132484806738,-0.0782776473198,0.000361847574989,-0.128058799338,-0.00880257454476,0.0518191162652,-0.0200675164304,0.574011077809,0.818833329318,0.00200206198224,0.0,0.818790067098,-0.57395148523,-0.0119693577333,0.0,-0.0086519891719,0.00850997624134,-0.999926358982,0.0,0.655756120231,0.253224143272,0.303348493277,1.0,-0.01546,-0.0203188571429,0.774
0.460585188269,0.514301826172,-0.124093320146,-1.40870351931,0.076350701626,1.91353745814,0.15232898853,-0.0143179192289,-0.0849222398185,0.00277983847298,-0.137319615898,-0.0117808544547,0.0497255494259,-0.0204802857541,0.573990997879,0.818847494045,0.00196538832449,0.0,0.818803661306,-0.573931472382,-0.0119990058565,0.0,-0.00869752511603,0.00849675208989,-0.999926076398,0.0,0.655445302086,0.252846941104,0.303328952643,1.0,-0.01584,-0.0208182857143,0.793
0.460412727467,0.513065640981,-0.124103560751,-1.41070352153,0.0762339068381,1.91423966296,0.15205212219,-0.0124150049662,-0.0838207018504,0.00042055777183,-0.131997609751,-0.00738525585017,0.0504975267026,-0.0189602072305,0.573986116569,0.818851038136,0.00191369540132,0.0,0.818806432619,-0.573926718028,-0.0120372395531,0.0,-0.00875855381269,0.00847631768536,-0.999925717128,0.0,0.655194554025,0.252535650752,0.303304508244,1.0,-0.01614,-0.0212125714286,0.808
0.46021494133,0.51163266205,-0.124103253698,-1.4130031972,0.0761004264164,1.91507864184,0.151723476105,-0.0103168778218,-0.084369846934,-0.00448393228676,-0.140154048856,-0.00584192785978,0.0562160070135,-0.0186685030482,0.573968290533,0.818863565947,0.00189966532874,0.0,0.818818737608,-0.573908916773,-0.0120489456432,0.0,-0.00877637669667,0.00847135739978,-0.99992560289,0.0,0.654897407178,0.252165142116,0.303289657654,1.0,-0.0165,-0.0216857142857,0.826
0.460013500381,0.510170277105,-0.124107020116,-1.41531888109,0.0759546449382,1.91596147664,0.151402315132,-0.0095970836159,-0.0910822650237,-0.00408096151863,-0.135231328111,-0.00530242338746,0.0579833733472,-0.0248891679601,0.573949391501,0.818876780973,0.00191323811673,0.0,0.818832084751,-0.573889917536,-0.0120468433451,0.0,-0.00876706102736,0.0084810624499,-0.999925602343,0.0,0.654630938764,0.251834230805,0.303284717385,1.0,-0.01682,-0.0221062857143,0.842
0.459808122702,0.508738867154,-0.124115727533,-1.41754920252,0.0758136122805,1.91676154219,0.151095783112,-0.0161790865979,-0.0899128004067,0.000777210828461,-0.142675269211,-0.0126810165172,0.048782190341,-0.0151489298829,0.573950446604,0.818876047688,0.00191056746523,0.0,0.818831322316,-0.573890989635,-0.0120475936064,0.0,-0.00876919721737,0.00847931746794,-0.99992559841,0.0,0.654356762341,0.25148045162,0.30329442734,1.0,-0.01714,-0.0225268571429,0.858
0.459592025331,0.507121575604,-0.124116389848,-1.42009303052,0.0756516499155,1.91767692863,0.150736016991,-0.00966577828711,-0.0941106203227,0.000990227730479,-0.141864795382,-0.00636140552647,0.0526920963751,-0.0265007389652,0.573921143432,0.818896614428,0.00189813086454,0.0,0.818851695451,-0.573861714113,-0.0120573974794,0.0,-0.00878466647525,0.00847444618419,-0.999925503924,0.0,0.654036551743,0.251094142147,0.303294194566,1.0,-0.0175,-0.023,0.876
0.459356318415,0.505435583658,-0.124125554668,-1.42269294556,0.0754845428208,1.91866923179,0.150372701599,-0.0176332061397,-0.0967987327616,-0.000164632329612,-0.14842018069,-0.0116943823981,0.0576333465823,-0.0303920306467,0.573912416541,0.818902591338,0.00195727903585,0.0,0.818858559203,-0.573852844083,-0.0120133367173,0.0,-0.00871473021255,0.00849750140062,-0.99992592023,0.0,0.653726083112,0.250688695901,0.30332156695,1.0,-0.01786,-0.0234731428571,0.894
0.459176566349,0.504077423388,-0.124131567774,-1.42472677429,0.0753591868913,1.91945464153,0.150102388172,-0.0112028634446,-0.099273524149,-0.000309633344242,-0.147362680269,-0.0120197221172,0.0515139962426,-0.0188750721376,0.573913518347,0.818901596062,0.00204849387014,0.0,0.818858809382,-0.573853615643,-0.0119593065127,0.0,-0.00861812550265,0.00854119937377,-0.999926385203,0.0,0.653483560359,0.250377279654,0.303370652246,1.0,-0.01814,-0.0238411428571,0.908
0.458931197824,0.502294505621,-0.124131950641,-1.42736415762,0.0751893655975,1.92044031852,0.14973058576,-0.0119347745847,-0.103058723338,0.000771118923622,-0.148035916266,-0.00230125370155,0.049452040924,-0.0199895699815,0.573899466893,0.818911163889,0.00215741949398,0.0,0.818869851211,-0.573839174592,-0.0118960238058,0.0,-0.00850393860599,0.00859393296019,-0.999926911001,0.0,0.653163785565,0.249966814563,0.303445692812,1.0,-0.0185,-0.0243142857143,0.926
0.458697218423,0.500564270323,-0.124140906231,-1.42995362614,0.0750282399534,1.92135030243,0.149372533758,-0.0128813583148,-0.106840994268,-0.0024463707637,-0.155571255464,-0.00956772289877,0.0521962956178,-0.0207285088124,0.573892617647,0.818915847395,0.00220118071339,0.0,0.81887505749,-0.573832103146,-0.0118787423985,0.0,-0.00846474521166,0.00861978051012,-0.999927021073,0.0,0.652836428713,0.249560223572,0.30349979163,1.0,-0.01884,-0.0247611428571,0.943
0.458464091969,0.498965150899,-0.124140792226,-1.43241830447,0.0748749724016,1.92224965557,0.149022355352,-0.0144676024341,-0.104462146248,-0.001613334481,-0.155202082717,-0.00153921452227,0.0592074427996,-0.0184969457559,0.573880641874,0.818924162086,0.00222991834088,0.0,0.818883698734,-0.573819966174,-0.0118693415143,0.0,-0.00844068139643,0.00863779541001,-0.999927069035,0.0,0.652529797723,0.249173175697,0.303520059037,1.0,-0.01916,-0.0251817142857,0.959
0.458213688546,0.497299728815,-0.124141537514,-1.43507439852,0.074705084033,1.92322477318,0.14862502703,-0.0141549494335,-0.103768237771,-0.000661532963575,-0.154240386057,-0.0134516654959,0.0527236356227,-0.0139497400024,0.573849639918,0.818945934132,0.00221238248125,0.0,0.818905229359,-0.573789024304,-0.0118797229591,0.0,-0.00845957290363,0.008629072462,-0.999926984702,0.0,0.652198056694,0.248755111743,0.30350154344,1.0,-0.0195,-0.0256285714286,0.976
0.457947048323,0.495618792131,-0.124138756481,-1.43776231584,0.0745458308571,1.92415358974,0.148226175758,-0.0179955417821,-0.0959476025783,-0.000693605420894,-0.151669533026,-0.00552366901704,0.0642780187469,-0.0214912534278,0.573831939191,0.818958497878,0.00215202683499,0.0,0.818916774985,-0.573771334059,-0.0119381222149,0.0,-0.00854221979272,0.00861297252265,-0.999926420886,0.0,0.651851175849,0.248323740462,0.303473957987,1.0,-0.01984,-0.0260754285714,0.993
0.457679613133,0.494035999045,-0.124147778128,-1.44036992566,0.0743772700597,1.92508607385,0.147863362467,-0.0222156555763,-0.103028822273,-0.0049035198412,-0.169226816321,-0.00885328545067,0.0592600352237,-0.0246586103138,0.573845878479,0.818948952017,0.00206606994445,0.0,0.818906098385,-0.573785617071,-0.0119839297156,0.0,-0.00862891159691,0.00856901093248,-0.999926054234,0.0,0.651524010172,0.247892040469,0.303416394861,1.0,-0.0230702857143,-0.0303209469388,1.009
0.457406044062,0.491833137597,-0.124221736854,-1.4437613154,0.0741866550887,1.92635443261,0.147378180942,-0.0140830395243,-0.137573267791,-0.00313657536693,-0.213077724736,-0.0168770170179,0.0842207389589,-0.0316196850271,0.57384484423,0.81894951949,0.00212748177152,0.0,0.818907595073,-0.573784457004,-0.0119371074057,0.0,-0.0085553371177,0.00859242395164,-0.999926485527,0.0,0.651105742307,0.24735271333,0.303447572461,1.0,-0.0296371428571,-0.0389516734694,1.026
0.457008624513,0.489159620939,-0.124224090591,-1.44807421704,0.0739436189281,1.92792518098,0.146751278862,-0.0272032601172,-0.167587182864,-0.00284730319407,-0.275257517805,-0.0188029535312,0.0973737913702,-0.0369092628822,0.57380129986,0.818980146061,0.00208219562251,0.0,0.81893724627,-0.573740721403,-0.0120049230196,0.0,-0.00863731948467,0.00859379343983,-0.999925768958,0.0,0.650515751516,0.246639830403,0.303390493316,1.0,-0.0365902857143,-0.0480900897959,1.044
0.45649374919,0.485843761782,-0.124275733206,-1.45324252827,0.0736285450841,1.92987343617,0.145986620509,-0.0267140408932,-0.206481310267,-0.00980550582374,-0.317817005884,-0.0203398419208,0.12856702601,-0.0557032046288,0.573812491729,0.818972125415,0.00215151808649,0.0,0.818930295569,-0.573751789996,-0.0119499529898,0.0,-0.00855240570561,0.00861914158878,-0.99992628066,0.0,0.649919442597,0.245831552417,0.303404662367,1.0,-0.0427708571429,-0.0562131265306,1.06
0.455894679947,0.482010138232,-0.124372238488,-1.4592483547,0.0732636355514,1.93199086095,0.145049946377,-0.0338939015203,-0.2356532195,-0.00878713553506,-0.375210608126,-0.0223441473847,0.126440572537,-0.0561236751811,0.573801911584,0.818979689743,0.00209307257647,0.0,0.818937156952,-0.573741511833,-0.011973197767,0.0,-0.00860508884271,0.00858450394986,-0.99992612664,0.0,0.649158192891,0.244809952125,0.303392809321,1.0,-0.0493377142857,-0.0648438530612,1.077
0.455186020371,0.477554264745,-0.124459625026,-1.46616836887,0.0728531604258,1.93445168114,0.144040450547,-0.0448391258166,-0.270770590995,-0.00666986783128,-0.418046346147,-0.0300672903307,0.15055468827,-0.0605669235653,0.573844711449,0.818949715364,0.00208752205932,0.0,0.818907010889,-0.573784230475,-0.0119879637665,0.0,-0.00861991823613,0.0085888814208,-0.999925961322,0.0,0.648277053911,0.243639284949,0.303402719356,1.0,-0.0559045714286,-0.0734745795918,1.094
0.454323771397,0.472285583792,-0.124535286817,-1.47430797215,0.0723738827706,1.93739794148,0.142863344422,-0.0463534467905,-0.307028135026,-0.00315410517812,-0.476346864301,-0.025721376476,0.163401977144,-0.0763880565237,0.573904507453,0.818907636357,0.00215553737372,0.0,0.81886561642,-0.573843533168,-0.0119770024138,0.0,-0.00857128257871,0.00863891743727,-0.999925948368,0.0,0.647241622221,0.242265319617,0.303431029928,1.0,-0.0628577142857,-0.0826129959184,1.112
0.45339526103,0.466720216707,-0.124584072212,-1.48269058491,0.0718528625087,1.94054531578,0.141514447794,-0.0608516948471,-0.344450179474,-0.00272434634189,-0.508202496871,-0.032190217241,0.188553568718,-0.0819545814393,0.573853592418,0.818942541945,0.00243194635695,0.0,0.818904220467,-0.573791628803,-0.0118233378568,0.0,-0.00828736345484,0.00877656501524,-0.999927143103,0.0,0.646194128802,0.240847792782,0.303557960604,1.0,-0.0694245714286,-0.091243722449,1.129
0.452491195638,0.461427629512,-0.124598238204,-1.4908964073,0.0713238233209,1.9433791298,0.140257941571,-0.0642643387692,-0.355921804191,0.00208030190701,-0.569556728396,-0.0293560421583,0.189020848026,-0.079296152201,0.57381555089,0.818969390714,0.0023659103711,0.0,0.818929866153,-0.573753486313,-0.011897821987,0.0,-0.00838666416904,0.00876483869168,-0.999926418026,0.0,0.645095269999,0.239463997049,0.303546156006,1.0,-0.0752188571429,-0.0988590693877,1.144
0.451288153103,0.454559863217,-0.124689439588,-1.50158181465,0.0706093464837,1.94699299859,0.138650473569,-0.0680473550635,-0.383629109099,-0.00720231424664,-0.611635786958,-0.0420889165694,0.209187774453,-0.0924346346453,0.573848307941,0.818946981819,0.00216964135176,0.0,0.818904804967,-0.573786938418,-0.0120090218177,0.0,-0.00859000568776,0.00866825346888,-0.999925533819,0.0,0.643653890884,0.237596323585,0.303499939936,1.0,-0.082172,-0.107997485714,1.162
0.450140641119,0.447840215574,-0.124757985607,-1.51145147272,0.069927197492,1.95075721461,0.1370697204,-0.0737319769694,-0.418238211733,0.000837629049809,-0.622540143522,-0.042686223892,0.230119427658,-0.0985117453938,0.573805889064,0.81897528759,0.0026508288245,0.0,0.818940188616,-0.573743541864,-0.0116645848889,0.0,-0.00803226549139,0.00886424842453,-0.999928451346,0.0,0.642406293492,0.235888829824,0.303740077073,1.0,-0.0883525714286,-0.116120522449,1.178
0.448626587336,0.439519872991,-0.124783271288,-1.52428668093,0.0690827299812,1.95515858675,0.135064932238,-0.0841523519561,-0.448731839005,-0.00425326521599,-0.702875997507,-0.0571221609828,0.234008964119,-0.110459928146,0.573762952571,0.819005669169,0.00255637013016,0.0,0.818968801972,-0.573700358722,-0.0117790789518,0.0,-0.00818069948226,0.00885215693231,-0.999927355098,0.0,0.640636571133,0.233666553721,0.30370743244,1.0,-0.095692,-0.125766628571,1.197
0.447413954467,0.432902812514,-0.124825396534,-1.53422865131,0.0684170370003,1.9586547537,0.133434987802,-0.0882998390231,-0.488017867045,-0.00408084907549,-0.714869557928,-0.0444578504389,0.259264173965,-0.122540545435,0.573703912913,0.819046584792,0.0026942809322,0.0,0.8190114396,-0.57364075048,-0.0117174269638,0.0,-0.00805172422194,0.00892915251723,-0.999927717374,0.0,0.6392823646,0.231916227373,0.303795547822,1.0,-0.1011,-0.132874285714,1.211
0.445615376226,0.423563538952,-0.124863383241,-1.54847758074,0.0673917899868,1.96363030216,0.131092539452,-0.0965320723894,-0.506311482751,-0.00141338772645,-0.75452072218,-0.0562456719831,0.265950259923,-0.132832674335,0.573611463628,0.819111295141,0.00270589514567,0.0,0.819076527604,-0.573548524058,-0.0116824389943,0.0,-0.00801740992792,0.00891768782334,-0.999928095406,0.0,0.637312390852,0.229373656407,0.303802243172,1.0,-0.108439428571,-0.142520391837,1.23
0.444069646873,0.415780642564,-0.124974707819,-1.56029120471,0.0665398392656,1.96766677502,0.129186180985,-0.101496214147,-0.533908575865,-0.00660654484754,-0.81656619869,-0.0622806778656,0.287265148372,-0.135035991187,0.573655111797,0.819080861291,0.00266500983276,0.0,0.819045884171,-0.573592665551,-0.0116636421646,0.0,-0.00802499048225,0.00887384413371,-0.999928424648,0.0,0.635664180688,0.227184541567,0.303813039357,1.0,-0.114233714286,-0.150135738775,1.245
0.441925935651,0.40543507108,-0.125038218313,-1.57601379529,0.0654850372342,1.9730544203,0.12656022259,-0.117836047814,-0.554082167558,-0.00206693064643,-0.87529102417,-0.0570520371461,0.276315952535,-0.131684819688,0.573656987728,0.819079504192,0.00267827278259,0.0,0.819044105661,-0.573593838099,-0.0117306767683,0.0,-0.00807227156262,0.00892318003372,-0.999927605024,0.0,0.633431922311,0.224288550629,0.303795262652,1.0,-0.121573142857,-0.159781844898,1.264
0.440181404334,0.397410655006,-0.125157012717,-1.58796408269,0.0646707066949,1.97713397438,0.124514484151,-0.126695910879,-0.585008500031,-0.0080368395842,-0.84917193392,-0.0585385001541,0.308662432128,-0.153907476983,0.573747936936,0.819015394785,0.00279908351784,0.0,0.818981462709,-0.573684236055,-0.0116836613508,0.0,-0.00796346174549,0.00899604731135,-0.9999278246,0.0,0.63174742412,0.221979567331,0.303872032612,1.0,-0.126981142857,-0.166889502041,1.278
0.437576668647,0.385614433751,-0.125296750206,-1.60588074547,0.0632899204287,1.9831249042,0.121423957947,-0.132455393723,-0.596531850714,-0.00840639059173,-0.907363538668,-0.0668890243669,0.287137470759,-0.159516067555,0.573753862665,0.819011894436,0.00260168222092,0.0,0.818975955929,-0.573691474721,-0.0117141941288,0.0,-0.0081016573972,0.0088519497408,-0.999928000475,0.0,0.629138003011,0.218526203059,0.303789579378,1.0,-0.134706857143,-0.177043297959,1.298
0.435613161795,0.376870174844,-0.125376675387,-1.61873037115,0.0623553975952,1.98744620917,0.119119640341,-0.13997298258,-0.617396597833,-0.007545157303,-0.931551977222,-0.0649586543031,0.308184912114,-0.162777356419,0.573751281359,0.819013164269,0.00276600690966,0.0,0.818979334402,-0.573688292883,-0.0116335434144,0.0,-0.007941352317,0.00894023506579,-0.999928501004,0.0,0.627256671526,0.216025566268,0.303898456973,1.0,-0.140114857143,-0.184150955102,1.312
0.432714979216,0.36476633602,-0.125526286744,-1.63676199548,0.0609972787069,1.99343249429,0.115918329675,-0.156952348689,-0.64567633728,-0.0129415591297,-0.951045638214,-0.0740057899253,0.32310345813,-0.175519824895,0.573881839968,0.818921696011,0.00276341415063,0.0,0.818887986896,-0.573819017454,-0.0116166701713,0.0,-0.00792759627678,0.0089296946273,-0.999928704344,0.0,0.624585255269,0.212407261699,0.30390335743,1.0,-0.147454285714,-0.193797061224,1.331
0.430295842154,0.354856054992,-0.125635831739,-1.65146838048,0.0598611156626,1.99823032621,0.113173295872,-0.166409979722,-0.652602795855,-0.00365424639087,-0.990318510574,-0.0710817482632,0.313945903587,-0.185253722985,0.573884815372,0.818919750983,0.00272158722195,0.0,0.818885574091,-0.573822218337,-0.0116286366471,0.0,-0.00796136629123,0.00890233790755,-0.99992867997,0.0,0.622355777321,0.209435268919,0.303897434251,1.0,-0.153248571429,-0.201412408163,1.346
0.427021552373,0.341759999485,-0.125786387996,-1.67063580181,0.0584414963714,2.0044561018,0.1095818134,-0.173909393623,-0.692019562217,-0.00698746088572,-1.02358558623,-0.0734293070335,0.333776363538,-0.18596175289,0.573977266485,0.818854548742,0.00284120821685,0.0,0.818821484353,-0.573913756864,-0.0116242567243,0.0,-0.00788811888344,0.0089986746814,-0.999928398154,0.0,0.619412451232,0.205512964088,0.303966676566,1.0,-0.160588,-0.211058514286,1.365
0.424495639484,0.331991863419,-0.125844097398,-1.68518092956,0.0572673801401,2.00906170414,0.106805837847,-0.180245147568,-0.700986474478,-0.00470116482207,-1.04327791053,-0.0805744360847,0.31788835684,-0.194977730428,0.573942166064,0.818879777818,0.00265450473749,0.0,0.818844128168,-0.573879128654,-0.0117382435692,0.0,-0.00808900115853,0.00891087011927,-0.999927579605,0.0,0.617105784957,0.202538529231,0.303868386875,1.0,-0.165996,-0.218166171429,1.379
0.42066830782,0.317400356335,-0.12585734728,-1.70627907158,0.0555126515264,2.0157821302,0.102655984918,-0.194646386166,-0.744408079027,-0.000315510265988,-1.07139097676,-0.0856625817038,0.33190686981,-0.205784707739,0.573818527732,0.818966037401,0.00277014753234,0.0,0.818932047646,-0.573755276016,-0.0116589657867,0.0,-0.00795906348515,0.00895886565948,-0.999928193439,0.0,0.613730198074,0.198192968769,0.303955195026,1.0,-0.173721714286,-0.228319967347,1.399
0.417660164593,0.306135894765,-0.125955941691,-1.72248770841,0.0541742500506,2.02090626162,0.0993135100888,-0.201386867904,-0.760939234413,-0.0095214332921,-1.08920548122,-0.0929924909682,0.344434521346,-0.228904327536,0.573698600089,0.819049692248,0.00287485401698,0.0,0.819017202476,-0.573635172751,-0.0115869552622,0.0,-0.00784132573079,0.009002148227,-0.99992873493,0.0,0.611103630609,0.194784411157,0.304017534658,1.0,-0.179516,-0.235935314286,1.414
0.413514454707,0.291539883661,-0.126078332811,-1.74350208893,0.0524549081203,2.02727233134,0.0950215699096,-0.226758256731,-0.780370091134,-0.0117787923245,-1.09978253419,-0.0941373022131,0.351211570875,-0.230291389333,0.573745181521,0.819017295237,0.00280779014021,0.0,0.818983306825,-0.573681259359,-0.0117005428465,0.0,-0.00797232386325,0.00901283685831,-0.999927602791,0.0,0.607613343247,0.190238475856,0.304019183605,1.0,-0.186855428571,-0.245581420408,1.433
0.410310978246,0.28054936351,-0.126185429443,-1.75927464101,0.0511342587096,2.0320851978,0.0916556877897,-0.225675982968,-0.810126193153,-0.0123499035739,-1.14866311875,-0.0982673678951,0.33785109386,-0.236768020607,0.573713501243,0.81903949923,0.00280429898253,0.0,0.8190052315,-0.573649331165,-0.0117312629829,0.0,-0.00799983754477,0.00902729330065,-0.999927252641,0.0,0.604967507392,0.186786061805,0.30400888597,1.0,-0.192263428571,-0.252689077551,1.447
0.405664003199,0.265185279556,-0.126364025442,-1.78094838059,0.0492106666794,2.03859339048,0.0869194005797,-0.254449654245,-0.801343912776,-0.0189286548772,-1.14664129878,-0.108009032686,0.340762718268,-0.249954497248,0.573727858802,0.819029154931,0.00288692032055,0.0,0.818996382803,-0.573663883732,-0.0116370253488,0.0,-0.00787509273418,0.00904103700415,-0.999928118699,0.0,0.601294006368,0.181896545691,0.304096704782,1.0,-0.199602857143,-0.262335183673,1.466
0.401983740342,0.253669963145,-0.126518627292,-1.79719136268,0.047791206132,2.04335668906,0.0833273390634,-0.266010433987,-0.820326084663,-0.00809180085806,-1.14467842445,-0.101125684605,0.343050807987,-0.262600673536,0.573862950933,0.818934528272,0.00288077270949,0.0,0.818901515257,-0.573798794271,-0.011661856839,0.0,-0.00789746537264,0.0090515509863,-0.99992784713,0.0,0.5984957463,0.178130392682,0.304111770381,1.0,-0.205010857143,-0.269442840816,1.48
0.396534632448,0.236876415092,-0.126662944566,-1.82077027937,0.0456709292746,2.05015329325,0.0778811334266,-0.2730300392,-0.883953108652,-0.00273749091414,-1.1592642455,-0.103544529914,0.343102330778,-0.281226331816,0.573828506386,0.818958806267,0.0028400348311,0.0,0.818924903896,-0.573764083698,-0.0117271027176,0.0,-0.00797465759694,0.00905529543031,-0.999927200581,0.0,0.594325658298,0.172684870495,0.304105381373,1.0,-0.212736571429,-0.279596636735,1.5
0.392858472618,0.225713060494,-0.126725768192,-1.83629944492,0.0442575629284,2.05468952629,0.0742304370106,-0.28971015279,-0.855945880625,-0.00217179176224,-1.20881051042,-0.111837908958,0.337069935067,-0.293910413297,0.573766034241,0.819002190739,0.00294896878203,0.0,0.818969635493,-0.573701166066,-0.0116813995724,0.0,-0.00787541663792,0.00911768173917,-0.999927420212,0.0,0.591544656187,0.169102253325,0.30412670177,1.0,-0.217758285714,-0.286196604082,1.513
0.387421520377,0.209914580995,-0.126860490016,-1.85800825115,0.0422130823415,2.06076504866,0.0689301938201,-0.312094258745,-0.89006362739,-0.00246864614159,-1.21985916131,-0.111217205871,0.33222643287,-0.299305283828,0.573733858617,0.819024434659,0.00303015003763,0.0,0.81899290264,-0.573668686344,-0.0116451979261,0.0,-0.00779954962189,0.00916309213316,-0.999927599763,0.0,0.58758785225,0.163919168188,0.304193236116,1.0,-0.224711428571,-0.295335020408,1.531
0.382295885035,0.195678696592,-0.12703253555,-1.87753933624,0.0403284767189,2.06608852105,0.0639829387377,-0.327800161828,-0.904696644776,-0.0170561630987,-1.22432213861,-0.123040256545,0.341756627722,-0.315164735892,0.573735866055,0.819023153107,0.00299626082254,0.0,0.818991120577,-0.573670735778,-0.011669542814,0.0,-0.00783890952346,0.00914932241423,-0.999927418064,0.0,0.583965863592,0.159128891094,0.304195204638,1.0,-0.230892,-0.303458057143,1.547
0.376470272501,0.180285626281,-0.127283967347,-1.89847847182,0.0383281434284,2.07169547405,0.0585272982544,-0.349493044765,-0.928060948988,-0.0155622014155,-1.2060349512,-0.120195461894,0.327886739219,-0.326922736176,0.573896444662,0.818910687861,0.00298379166428,0.0,0.818878118752,-0.573830899207,-0.0117248729307,0.0,-0.00788958380196,0.00917240119101,-0.999926808083,0.0,0.580268179786,0.154133308652,0.304189925548,1.0,-0.237072571429,-0.311581093878,1.563
0.370410630164,0.164647062778,-0.127444416284,-1.91975529623,0.0361777383571,2.07717998111,0.0528656477411,-0.357473334008,-0.914012987451,-0.0106782680802,-1.25735883661,-0.133398161779,0.311484528284,-0.345787261363,0.57393250939,0.818885962267,0.00282884588622,0.0,0.818850992069,-0.573867069177,-0.011848485273,0.0,-0.00807933231851,0.00911680967239,-0.999925801333,0.0,0.575924028394,0.148442252371,0.304123020048,1.0,-0.244025714286,-0.320719510204,1.581
0.363746241267,0.147668294132,-0.127614525277,-1.94232790212,0.0338431344727,2.08301304236,0.0465657187454,-0.381650128725,-0.947181584608,-0.00608975394128,-1.28728293349,-0.136828140737,0.313377834618,-0.344301009598,0.573843486285,0.818947909012,0.00295338344991,0.0,0.818914831814,-0.573777922644,-0.0117533238874,0.0,-0.00793092649575,0.00916331428832,-0.999926564342,0.0,0.571503987726,0.142675617014,0.304188781021,1.0,-0.250978857143,-0.329857926531,1.599
0.357896594807,0.133246605246,-0.127768113646,-1.96123907811,0.0319169987424,2.08769852072,0.0411017551354,-0.397415539909,-0.966867513519,-0.00877666960165,-1.27692107705,-0.128855218724,0.30262853281,-0.370987438167,0.573816964404,0.818965943946,0.00310176087246,0.0,0.818934428798,-0.573750462834,-0.0117283685397,0.0,-0.00782564834387,0.00927025408234,-0.999926408101,0.0,0.567720798511,0.137748134536,0.304276748192,1.0,-0.256773142857,-0.337473273469,1.614
0.350834134704,0.116724278193,-0.128039607496,-1.98283544409,0.0295609370605,2.09295127627,0.0346455442427,-0.428789248158,-0.978533274814,-0.020175976696,-1.27245001027,-0.144788195396,0.320334354786,-0.382005528854,0.573894015934,0.818911726596,0.00316060444142,0.0,0.818881449093,-0.573827872195,-0.011640117063,0.0,-0.00771873404994,0.0092685323202,-0.999927255081,0.0,0.563357492242,0.131902779167,0.304325482173,1.0,-0.26334,-0.346104,1.631
0.343434820222,0.0999819638108,-0.12824472171,-2.0045308591,0.0271678138435,2.09800994477,0.0278686335791,-0.437206885816,-1.00983295532,-0.0111039386098,-1.25673637788,-0.147254613017,0.312367275531,-0.402643436236,0.573869408976,0.818928870512,0.00318643759879,0.0,0.818898955071,-0.573803216909,-0.0116239644929,0.0,-0.00769096004319,0.00928018672589,-0.999927360996,0.0,0.558861458495,0.125975105309,0.304356192994,1.0,-0.269906857143,-0.354734726531,1.648
0.335790749201,0.083011565432,-0.128412723355,-2.02650461546,0.0248440473869,2.10283856738,0.0207883496663,-0.45507745288,-1.00686753397,-0.0100044526933,-1.29153313303,-0.133406539877,0.266802272307,-0.426593766858,0.573751068849,0.81901215562,0.00308979648316,0.0,0.818979290513,-0.57368320986,-0.0118845840144,0.0,-0.00796120768595,0.00934945211863,-0.999924600616,0.0,0.55415301155,0.120006947541,0.304284645983,1.0,-0.276473714286,-0.363365453061,1.665
0.327649100851,0.0656878241929,-0.128652971689,-2.04842741777,0.022273745061,2.10770649489,0.0134008075868,-0.489401618672,-1.00969952432,-0.0163813315841,-1.31173810174,-0.156422360377,0.271230670199,-0.436150001672,0.573695274192,0.819050751211,0.0032165527255,0.0,0.819020259902,-0.573627839511,-0.0117329667548,0.0,-0.00776494054302,0.00936574974841,-0.999925991476,0.0,0.549446793806,0.113800376409,0.304351163575,1.0,-0.27998,-0.367973714286,1.682
0.319092357969,0.0484949266652,-0.128919773053,-2.06995694013,0.0197346263797,2.11214719676,0.00582756548845,-0.510603448915,-0.999738709513,-0.00708608139434,-1.27507643462,-0.153247782044,0.255003597478,-0.444921132146,0.573809084014,0.818970883904,0.00325166462036,0.0,0.818940845636,-0.573741511548,-0.0117181985415,0.0,-0.0077313972963,0.00938711047626,-0.999926051092,0.0,0.544718649656,0.107473271948,0.304398430331,1.0,-0.27998,-0.367973714286,1.699
0.310908442766,0.0323925476999,-0.129081799942,-2.08992355057,0.0174317345848,2.11610581826,-0.00141893592317,-0.519623347847,-1.00900755318,-0.0102970192882,-1.23758227478,-0.152927738995,0.252137949837,-0.45697069669,0.573844782499,0.818945485928,0.00334717462063,0.0,0.81891596012,-0.573775991557,-0.0117689708183,0.0,-0.00771776567968,0.0094948000219,-0.999925139631,0.0,0.540223503298,0.101619543756,0.3044342312,1.0,-0.27998,-0.367973714286,1.715
0.301959520801,0.0154239851314,-0.129289554447,-2.11066928259,0.0148402905555,2.12004587107,-0.00935759308787,-0.528313804966,-1.01943103021,-0.0205791512324,-1.20632004037,-0.154456973783,0.239503825582,-0.47279548094,0.573813972672,0.818966806009,0.00341208488396,0.0,0.818938510499,-0.573745448785,-0.0116885807603,0.0,-0.00761503809207,0.00950154160765,-0.999925863203,0.0,0.535476611642,0.0953528116103,0.304501025617,1.0,-0.27998,-0.367973714286,1.732
0.292681139598,-0.00131890458344,-0.129541142669,-2.13108370866,0.0123376341833,2.12360763565,-0.0174697131285,-0.546801590432,-0.970539378062,-0.012959909024,-1.18864772775,-0.140111902725,0.199383246242,-0.486368703493,0.573938782206,0.818879650281,0.00333759448354,0.0,0.818849442849,-0.573869327665,-0.0118461645144,0.0,-0.00778538984529,0.0095321441418,-0.999924260098,0.0,0.530686212926,0.0890185829571,0.304477525666,1.0,-0.27998,-0.367973714286,1.749
0.283870814804,-0.016954097215,-0.129683408771,-2.14980625864,0.00994477403188,2.12693832666,-0.0252755924243,-0.553975674707,-0.948050388784,-0.0174734689317,-1.16680087577,-0.161022577778,0.194135609821,-0.487528111769,0.573846656331,0.818943572464,0.00349099386547,0.0,0.818915784324,-0.573777219404,-0.0117212447441,0.0,-0.00759613154046,0.00958521162889,-0.999925208455,0.0,0.526243349139,0.083193194712,0.304533526651,1.0,-0.27998,-0.367973714286,1.765
0.274165084485,-0.0334808665009,-0.129890914632,-2.16929554755,0.00734445718163,2.13009182879,-0.0337227968105,-0.572947297641,-0.955306116981,-0.0105986727442,-1.14417089114,-0.14952054138,0.176890430513,-0.500710368034,0.573884485342,0.818916688434,0.0035779587977,0.0,0.818890624254,-0.573815523372,-0.0116033420451,0.0,-0.00744922556289,0.00958911951146,-0.999926276195,0.0,0.521516404314,0.0769075313285,0.304615406022,1.0,-0.27998,-0.367973714286,1.782
0.263587464774,-0.0508201769936,-0.130119023587,-2.18956936997,0.00478374638737,2.13312429392,-0.0429390374052,-0.586028747268,-0.97090553521,-0.00771998579528,-1.10077716066,-0.146538310335,0.177489687262,-0.517030403998,0.573995957919,0.818837929923,0.00371910114486,0.0,0.818812830082,-0.573925411685,-0.0116583882581,0.0,-0.00741198655553,0.00973730294303,-0.99992512089,0.0,0.516480244645,0.0702545853401,0.304665053334,1.0,-0.27998,-0.367973714286,1.8
0.254677800778,-0.0649899195884,-0.130275149848,-2.20621798183,0.00251146921139,2.13545660375,-0.0508037087973,-0.603327162613,-0.954270310446,-0.0122006722981,-1.10702191612,-0.150096083066,0.141506298141,-0.540675025568,0.573894623893,0.818909557435,0.00358389574241,0.0,0.818882290942,-0.573824000448,-0.0117710233963,0.0,-0.00758302416467,0.00969030236928,-0.999924295027,0.0,0.51224428775,0.0647691072377,0.304586312853,1.0,-0.27998,-0.367973714286,1.815
0.243604626307,-0.0819709101251,-0.130557812929,-2.2256160964,-0.000175287497749,2.13801138845,-0.0604851574418,-0.626581407716,-0.925065883228,-0.0165835024482,-1.07773193837,-0.142027815397,0.131375429883,-0.551105771413,0.573944314419,0.818874333111,0.00367388343815,0.0,0.818848431164,-0.573873639014,-0.011706413883,0.0,-0.00747788097594,0.009727370662,-0.999924726945,0.0,0.507242971928,0.0580917538055,0.304639160313,1.0,-0.27998,-0.367973714286,1.833
0.233037893473,-0.0978542493381,-0.130687191096,-2.24364895564,-0.00262739105357,2.14012144676,-0.0698127558536,-0.62273894369,-0.950602106016,-0.0126126503275,-1.05677641119,-0.152636943911,0.133516956429,-0.553547896195,0.573819426089,0.818961776612,0.00369074418163,0.0,0.818935314044,-0.573747699883,-0.0118014910653,0.0,-0.00754755941836,0.00979459415182,-0.999923547214,0.0,0.502453427724,0.051940972948,0.304633397488,1.0,-0.27998,-0.367973714286,1.85
0.222747481622,-0.112562806766,-0.130899087289,-2.26036943938,-0.00506485547087,2.14184037035,-0.0787501082445,-0.655374162707,-0.927483269697,-0.0174270890319,-1.04066383192,-0.156806242574,0.096014448857,-0.564950449909,0.573840267684,0.818948208856,0.0034533023176,0.0,0.818917886285,-0.573768409995,-0.0120022545815,0.0,-0.00784798020968,0.00971553507064,-0.999922005751,0.0,0.497911656067,0.0460334879341,0.304526121722,1.0,-0.27998,-0.367973714286,1.866
0.21150301337,-0.128228356828,-0.131158688236,-2.27758806686,-0.00751773132301,2.14354656258,-0.0885425174753,-0.658184868012,-0.916868724729,-0.000744976623842,-1.00688831731,-0.142813324883,0.0921316632507,-0.584543483345,0.573935202381,0.818881012046,0.0036081129874,0.0,0.818852637256,-0.573862673691,-0.0119472634383,0.0,-0.00771297430824,0.00981165679939,-0.999922117676,0.0,0.493178364353,0.0397406797016,0.304592763784,1.0,-0.27998,-0.367973714286,1.883
0.199414835014,-0.144655708882,-0.131389892017,-2.29543487934,-0.0101290997229,2.14508833198,-0.099206324625,-0.68345664491,-0.928329188216,-0.00844626543379,-0.965561968604,-0.15046441286,0.0927678186365,-0.598062722084,0.573869897131,0.818926237787,0.00372895861335,0.0,0.818899462118,-0.573796979179,-0.011893045405,0.0,-0.00760000806524,0.00987889314518,-0.999922320657,0.0,0.488149032496,0.0331514202261,0.304652210493,1.0,-0.27998,-0.367973714286,1.901
0.188980241236,-0.158117508628,-0.131683872263,-2.31010074148,-0.0123854943236,2.14613426503,-0.108291508305,-0.703935553327,-0.890333385323,-0.0137294863506,-0.978578460319,-0.157684025796,0.0596215064785,-0.595819575283,0.573970081524,0.818856549247,0.00361167156437,0.0,0.818827809229,-0.573897011525,-0.0119994123231,0.0,-0.00775321912401,0.00984483032754,-0.999921480372,0.0,0.4839128504,0.0275373745694,0.304598207199,1.0,-0.27998,-0.367973714286,1.916
0.177166789193,-0.173305989299,-0.131835847571,-2.32616866447,-0.0146898107031,2.14714867118,-0.1188061931,-0.704766555514,-0.882937409993,-0.0125246616055,-0.948868014483,-0.145710939024,0.0598142074047,-0.618220518212,0.573841357924,0.818945816141,0.0038200866849,0.0,0.818919277265,-0.573766876619,-0.0119806309754,0.0,-0.00761979511107,0.0100035167735,-0.999920931061,0.0,0.479179323679,0.0214277156919,0.304672227567,1.0,-0.27998,-0.367973714286,1.933
0.164104861773,-0.189120493822,-0.132181334152,-2.34284843644,-0.0173349876025,2.14794303192,-0.13024372208,-0.732725156212,-0.863370971165,-0.0205011016974,-0.889412791029,-0.140351718547,0.0457879917883,-0.647544604102,0.573939461821,0.818877246872,0.00378095504972,0.0,0.818850024094,-0.573864882215,-0.0120200625582,0.0,-0.00767334614628,0.00999501580428,-0.999920606557,0.0,0.474140909837,0.0147240030769,0.30466850378,1.0,-0.27998,-0.367973714286,1.951
0.151646283926,-0.203944152091,-0.132343840468,-2.35820374557,-0.0197035702105,2.14858283677,-0.141341942783,-0.739467525727,-0.843475457017,-0.0115640265247,-0.910152971668,-0.13323611385,0.0252177568655,-0.647244785225,0.573795278573,0.818977680051,0.00390957385109,0.0,0.818952255688,-0.573720412555,-0.0119514862153,0.0,-0.0075451433984,0.0100596543659,-0.999920933957,0.0,0.469406148264,0.00856477258177,0.304711454639,1.0,-0.27998,-0.367973714286,1.968
0.138779501437,-0.218616995012,-0.132708531875,-2.37316812216,-0.0220847715947,2.14897317788,-0.152686971081,-0.761599260224,-0.869460762574,-0.0231309381998,-0.860323780676,-0.149500472326,0.0313729108633,-0.662110156371,0.573920386697,0.818889363503,0.00404313944207,0.0,0.818865720366,-0.573845085426,-0.0118952445458,0.0,-0.00742089641156,0.0101379068275,-0.999921073456,0.0,0.464671900421,0.00225256235797,0.304766872489,1.0,-0.27998,-0.367973714286,1.985
0.125749354224,-0.233028099486,-0.132911258887,-2.38794328929,-0.0245004871147,2.14914999025,-0.164296672976,-0.765001931911,-0.871422227689,-0.0141399806385,-0.867032483557,-0.144872095789,0.00944838214815,-0.698558405097,0.573795423464,0.818977439348,0.0039386231419,0.0,0.818951982014,-0.573719902934,-0.0119946252405,0.0,-0.00756380660544,0.0101081989118,-0.999920303396,0.0,0.459585475042,-0.0043042611872,0.30470528231,1.0,-0.27998,-0.367973714286,2.003
0.113066929954,-0.246502041884,-0.133267075701,-2.40127631997,-0.0266600337675,2.14922038502,-0.175523638218,-0.798641427712,-0.855166959335,-0.0294855613298,-0.849230731545,-0.135637089579,-0.00383922976623,-0.709321186638,0.573949676985,0.818868198797,0.00416991461875,0.0,0.818846065538,-0.573873739067,-0.0118658950063,0.0,-0.00732374058174,0.0102251416508,-0.999920901523,0.0,0.455442852598,-0.00988738871503,0.304789701002,1.0,-0.27998,-0.367973714286,2.018
0.0970097765437,-0.262996887265,-0.133543153051,-2.41775792078,-0.029385884589,2.14903990423,-0.189909678366,-0.81283120095,-0.799656243397,-0.0158405538015,-0.830426640034,-0.140154003426,-0.0205824931032,-0.70947016389,0.573850375003,0.818937973521,0.00413394904955,0.0,0.818914673128,-0.57377360939,-0.0119728946008,0.0,-0.00743325028747,0.0102561990548,-0.999919775368,0.0,0.449804981049,-0.0171836319633,0.304723715004,1.0,-0.27998,-0.367973714286,2.038
0.0845586259782,-0.275266115273,-0.133883700615,-2.42951323133,-0.0314042755464,2.14884046598,-0.200974614001,-0.837655835762,-0.791861169173,-0.0193668557121,-0.780714500699,-0.136348695116,-0.0251806665393,-0.744203429864,0.57399715979,0.818833793337,0.00438478543039,0.0,0.818815007377,-0.573921295676,-0.0117079872303,0.0,-0.00707050998991,0.010310878048,-0.999921843787,0.0,0.445687497218,-0.0227818857733,0.304837808532,1.0,-0.27998,-0.367973714286,2.053
0.0721061387586,-0.287297377723,-0.134066437614,-2.44123749251,-0.03335254849,2.1483792202,-0.212303141372,-0.840204520577,-0.821336937346,-0.0179224620013,-0.772944821051,-0.120303232076,-0.0381548030698,-0.767932766247,0.573821370608,0.818957048898,0.00437419650947,0.0,0.818937348807,-0.573744441535,-0.0118186901828,0.0,-0.00716946673492,0.0103642094353,-0.999920587802,0.0,0.441456438591,-0.0281956607935,0.304793331714,1.0,-0.27998,-0.367973714286,2.068
0.0566359464233,-0.30155590555,-0.134427785339,-2.45460713897,-0.035746921814,2.14776006955,-0.22620246382,-0.867995119462,-0.769876263965,-0.0132462576882,-0.74175129242,-0.132706692172,-0.0301899938445,-0.77935898676,0.573877734227,0.818916452145,0.00457574759069,0.0,0.818900756979,-0.573802222177,-0.0115458626584,0.0,-0.00682965424149,0.010373196384,-0.999922873336,0.0,0.436500540746,-0.0348722817128,0.304908812891,1.0,-0.27998,-0.367973714286,2.086
0.0418856195993,-0.314695815947,-0.134644855646,-2.46713781806,-0.0379294754709,2.14687500199,-0.239562957202,-0.875444620772,-0.750706241768,-0.0160197244518,-0.724622009606,-0.13050361257,-0.060955813292,-0.79086374279,0.573776897079,0.81898761933,0.00448315338094,0.0,0.818969709574,-0.573700165256,-0.011725275559,0.0,-0.00703100504916,0.0103994592718,-0.999921205003,0.0,0.431693374867,-0.041033309933,0.304837637517,1.0,-0.27998,-0.367973714286,2.103
0.0276167161469,-0.32689779248,-0.134999769708,-2.47829406196,-0.0399140563116,2.1460476536,-0.252528319015,-0.880034995474,-0.74936266433,-0.0101878348368,-0.68841185497,-0.123925469378,-0.0577288696684,-0.816414163514,0.573830681855,0.818948665803,0.00470937818704,0.0,0.818934510171,-0.573754496675,-0.0115235627159,0.0,-0.00673530907569,0.0104694477388,-0.999922510136,0.0,0.427290167635,-0.0469520891336,0.304935686711,1.0,-0.27998,-0.367973714286,2.119
0.0131698251375,-0.338810352121,-0.135246206692,-2.48935843297,-0.0418668373018,2.14502927212,-0.26576431069,-0.920174822911,-0.758318473206,-0.0201882632149,-0.668078167646,-0.127124398217,-0.0714178659841,-0.82944560696,0.573727686218,0.819020829479,0.00470848681555,0.0,0.819005956152,-0.573650426801,-0.0116266297849,0.0,-0.00682155783531,0.0105270008288,-0.999921321206,0.0,0.42279131694,-0.0527757244618,0.304891120739,1.0,-0.27998,-0.367973714286,2.135
-0.003479647372,-0.351967699041,-0.135603773368,-2.50123405398,-0.044097534968,2.14368526417,-0.280924612657,-0.92671326966,-0.750520462236,-0.0131391680283,-0.638906617878,-0.119382264237,-0.0738992550923,-0.853008616907,0.57376505222,0.818994468895,0.00474042938259,0.0,0.818980053604,-0.573687757402,-0.0116092939788,0.0,-0.00678855195545,0.0105435272714,-0.999921371706,0.0,0.417764180949,-0.0594095910707,0.304924482565,1.0,-0.27998,-0.367973714286,2.153
-0.0185750274016,-0.363376663062,-0.135999517019,-2.51147541147,-0.0459821316516,2.14250721541,-0.294763749278,-0.950412284313,-0.717572178205,-0.0300426370015,-0.64428127309,-0.11426724806,-0.0885324247249,-0.870692199505,0.573844945427,0.818937807459,0.00485726505464,0.0,0.818924785109,-0.5737670943,-0.0115872660293,0.0,-0.00670244042258,0.0106272333905,-0.999921066486,0.0,0.413296700532,-0.0653329394763,0.304931407593,1.0,-0.27998,-0.367973714286,2.169
-0.0357426359449,-0.375856169607,-0.136249470443,-2.52271443818,-0.0481034304309,2.14090621843,-0.310657146813,-0.961980982141,-0.693973935483,-0.0120815376045,-0.612877247885,-0.116567676948,-0.0940035706596,-0.887685602857,0.573667029693,0.819063159244,0.00473572732803,0.0,0.81904732474,-0.573587671475,-0.0118071956683,0.0,-0.00695461807305,0.0106523887583,-0.999919076676,0.0,0.408207851241,-0.0718604800837,0.304851748486,1.0,-0.27998,-0.367973714286,2.187
-0.051404303021,-0.386749622702,-0.136612079685,-2.53203291996,-0.0499794917021,2.13958440834,-0.325047541276,-0.970159494986,-0.670278659155,-0.0120787424934,-0.58221994193,-0.115321028809,-0.0860631645321,-0.911693931186,0.573747486403,0.819005787315,0.00490806405656,0.0,0.818993847271,-0.573670179707,-0.0115043447516,0.0,-0.00660664213981,0.0106204676252,-0.999921775914,0.0,0.403809718784,-0.07779916933,0.304967900642,1.0,-0.27998,-0.367973714286,2.203
-0.067268540144,-0.397266973225,-0.1369269706,-2.54124308895,-0.0517706501712,2.13805922993,-0.339801307252,-1.00143553368,-0.650359121575,-0.0309203445965,-0.563211485254,-0.105953664314,-0.0933623314658,-0.929982414961,0.573692721264,0.819044282648,0.00488585003209,0.0,0.819031312492,-0.573614303546,-0.0116226858362,0.0,-0.00671703024344,0.0106697198554,-0.999920516133,0.0,0.399304685873,-0.0836670534725,0.304927223173,1.0,-0.27998,-0.367973714286,2.219
-0.0843321694961,-0.408131889537,-0.137235120871,-2.55059854898,-0.0534797116711,2.13629622398,-0.355733130665,-1.00306423799,-0.62915704748,-0.0195556319344,-0.533394698821,-0.0958099073129,-0.102954447007,-0.944313315714,0.573668439712,0.819060843118,0.00496018654397,0.0,0.819047381768,-0.573587473386,-0.0118128614337,0.0,-0.0068304828862,0.0108395022831,-0.999917921478,0.0,0.394528080514,-0.0898447605187,0.304904940052,1.0,-0.27998,-0.367973714286,2.236
-0.101860760153,-0.418675090655,-0.137626218351,-2.55936818436,-0.0553519569704,2.13475418552,-0.372012299704,-1.02911425464,-0.602926391627,-0.0147560172985,-0.519067468744,-0.105451206655,-0.0977392071987,-0.963829010397,0.573745619765,0.819005927707,0.00509912568402,0.0,0.818996089095,-0.573667156541,-0.0114954971579,0.0,-0.00648980433107,0.0107718625261,-0.999920921582,0.0,0.38984161119,-0.0961791841409,0.3049998161,1.0,-0.27998,-0.367973714286,2.253
-0.119534638524,-0.428783602644,-0.137953544126,-2.56800872168,-0.0571022253716,2.13284407232,-0.388634201997,-1.04946242388,-0.583439864753,-0.0291879460033,-0.49224445156,-0.101172033561,-0.105782101167,-0.969220863329,0.573664526528,0.819063332542,0.00500151881469,0.0,0.819050389369,-0.57358339001,-0.0118025963584,0.0,-0.00679841667957,0.0108674360161,-0.999917836807,0.0,0.385011018845,-0.102387022927,0.304916744059,1.0,-0.27998,-0.367973714286,2.27
-0.137425565746,-0.438512452708,-0.138264466324,-2.57614733092,-0.0587534430687,2.1310778533,-0.40550848759,-1.05210554236,-0.560871872796,-0.0141128969036,-0.458672380106,-0.0857542932329,-0.106515459875,-0.998608095016,0.573600773716,0.819107748865,0.00503934943872,0.0,0.81909472705,-0.573518604979,-0.0118737005022,0.0,-0.00683581103949,0.0109386789514,-0.999916805034,0.0,0.380255896497,-0.108578973813,0.304893301363,1.0,-0.27998,-0.367973714286,2.287
-0.155811154785,-0.447927106787,-0.138633735836,-2.58361863816,-0.060360285371,2.12942300553,-0.422744485168,-1.08257318609,-0.53951678633,-0.0109161955124,-0.440651567167,-0.0972455670011,-0.0937705351234,-1.01084384495,0.573731646319,0.819014709734,0.0052583412161,0.0,0.819006469809,-0.573651943614,-0.0115150727696,0.0,-0.00641467982564,0.0109133872506,-0.99991987172,0.0,0.375580646353,-0.114916027666,0.305028820698,1.0,-0.27998,-0.367973714286,2.304
-0.173211832141,-0.456288731215,-0.138935931165,-2.59058689233,-0.0618728294815,2.12760930237,-0.439241530244,-1.09746618735,-0.522414643705,-0.0348357352593,-0.429672556204,-0.0955693503547,-0.110674281666,-1.04076418017,0.573673613191,0.819055992142,0.00515889191711,0.0,0.819044822886,-0.573591499914,-0.0117947544128,0.0,-0.0067015967515,0.0109919147256,-0.999917129772,0.0,0.371038650942,-0.120766909717,0.304946275273,1.0,-0.27998,-0.367973714286,2.32
-0.191825015325,-0.464767662407,-0.139211313748,-2.5974973003,-0.0633523720912,2.12585179946,-0.45707157505,-1.09891275594,-0.485388481229,-0.0184112548084,-0.404917346896,-0.0902021146651,-0.098412574374,-1.05084592321,0.573507954088,0.819171844736,0.00518288437358,0.0,0.819160478458,-0.573424952793,-0.0118608999601,0.0,-0.006744249921,0.0110481472241,-0.999916223259,0.0,0.366296244285,-0.126935911062,0.304918816585,1.0,-0.27998,-0.367973714286,2.337
-0.209835282748,-0.472376138148,-0.139547153941,-2.60350769052,-0.0647717574065,2.12424132633,-0.474066574985,-1.11555644593,-0.463412389498,-0.0110977329408,-0.364864524347,-0.0851430519637,-0.0997642557615,-1.06381675538,0.57364398737,0.819076334309,0.00522314374619,0.0,0.819066126157,-0.573561870037,-0.0117562375907,0.0,-0.00663358761364,0.0110222073342,-0.999917249807,0.0,0.361826194811,-0.132892828199,0.304956522026,1.0,-0.277721714286,-0.365005681633,2.353
-0.227783361498,-0.479415430146,-0.139799907261,-2.60898036546,-0.0658842326128,2.12268809846,-0.491143806633,-1.12241337794,-0.427036200312,-0.0128721482656,-0.343492950905,-0.0811716252528,-0.0959616791442,-1.06093497245,0.573750553976,0.819000511747,0.00540467136868,0.0,0.818992820472,-0.573668084538,-0.0116805693367,0.0,-0.00646602928376,0.0111283344306,-0.999917171889,0.0,0.357186930811,-0.139073976946,0.30500971881,1.0,-0.271154857143,-0.356374955102,2.37
-0.24775960739,-0.486731244922,-0.139862895941,-2.61486815868,-0.067085155797,2.12089336883,-0.510277903269,-1.11218700426,-0.397202768563,-0.00882019947418,-0.313648551553,-0.0572676848348,-0.0995916159085,-1.06072133445,0.573648884553,0.819071707383,0.00540761656292,0.0,0.819062671832,-0.573564062422,-0.0118891888045,0.0,-0.00663661142499,0.0112496133561,-0.999914697156,0.0,0.352565340528,-0.145026181549,0.304951671169,1.0,-0.264588,-0.347744228572,2.387
-0.266613038987,-0.492952516857,-0.139936211764,-2.61982945229,-0.068086786542,2.11937742043,-0.528152561807,-1.09024907214,-0.359471697458,-0.000827394530625,-0.280152131847,-0.0540101065569,-0.0779359570617,-1.05678473816,0.57379283098,0.81897050501,0.00546314383765,0.0,0.818961219019,-0.573706122175,-0.0120230621129,0.0,-0.00671242341931,0.0113730687506,-0.999912794537,0.0,0.34805219041,-0.150939009018,0.304908864464,1.0,-0.258021142857,-0.339113502041,2.404
-0.28521402178,-0.498666600064,-0.139913685656,-2.62420681548,-0.0690016311071,2.11801778697,-0.54583608816,-1.08622493182,-0.316983990954,0.00935125514941,-0.254200235514,-0.0532508125142,-0.0792320691758,-1.03088117167,0.573884641783,0.818905654033,0.00554027248971,0.0,0.818897943876,-0.573798597972,-0.0119194539236,0.0,-0.00658203434863,0.0113775283482,-0.999913610605,0.0,0.343696111554,-0.156712687207,0.304945762217,1.0,-0.251454285714,-0.33048277551,2.421
-0.303416275517,-0.503727663843,-0.139818684553,-2.62808690179,-0.0697110001547,2.11674835721,-0.563247364086,-1.07013134665,-0.287584681635,-0.000117320544313,-0.217817477035,-0.0422636661758,-0.0698175375446,-1.01788654098,0.573936513788,0.818868488545,0.00565893185344,0.0,0.818862315667,-0.573850002805,-0.0118923993611,0.0,-0.006491058003,0.0114595889042,-0.999913268233,0.0,0.339483070506,-0.162282448222,0.30496531159,1.0,-0.244887428571,-0.32185204898,2.438
-0.321281507304,-0.508286847453,-0.139646580807,-2.63152064897,-0.0703823968446,2.115616181,-0.580434476079,-1.04112900782,-0.261598951598,0.0110354643915,-0.199360735531,-0.0313947804278,-0.0615862015445,-1.00721454316,0.573881606796,0.818906497124,0.00572688840317,0.0,0.818901892746,-0.573796079434,-0.0117684401985,0.0,-0.00635130830884,0.0114436714496,-0.999914347965,0.0,0.335398479676,-0.167697952763,0.30500747632,1.0,-0.238320571429,-0.313221322449,2.455
-0.337922762228,-0.512119831415,-0.13949240941,-2.6344669903,-0.0709708934446,2.11457811644,-0.596363524084,-1.02799589788,-0.223060316841,0.0191558351607,-0.177778533603,-0.0329769271304,-0.0675564664906,-0.993508505549,0.573931346075,0.818871497224,0.00574699298339,0.0,0.81886696614,-0.573845398006,-0.0117939753089,0.0,-0.00635998719296,0.011475175766,-0.999913931748,0.0,0.331585828407,-0.172699063072,0.305003891817,1.0,-0.23214,-0.305098285714,2.471
-0.355097176888,-0.515613814232,-0.139273107929,-2.63727818105,-0.071379776836,2.11354693962,-0.612982254294,-1.02171409094,-0.188309529622,0.00754916765313,-0.157556447755,-0.0245381268544,-0.0504082908669,-0.974352559867,0.573892056954,0.818898461378,0.00582784856289,0.0,0.818893385913,-0.573802932669,-0.0120234715963,0.0,-0.0065020909795,0.0116727862257,-0.999910730453,0.0,0.32765755384,-0.177778088436,0.304934705458,1.0,-0.225573142857,-0.296467559184,2.488
-0.372927581317,-0.518794978485,-0.138985378213,-2.63983010669,-0.0718051887028,2.11266086721,-0.630177774936,-0.971783168919,-0.165734326616,0.0123807597354,-0.134429237304,-0.01715017746,-0.0400064453845,-0.945162943759,0.573876945449,0.818908860167,0.00585466677267,0.0,0.818903315534,-0.57378624576,-0.0121429355639,0.0,-0.00658475703102,0.0117631832794,-0.999909130118,0.0,0.323636740719,-0.183029840635,0.304878748605,1.0,-0.21862,-0.287329142857,2.506
-0.387568589426,-0.521104441508,-0.138813438208,-2.6416032863,-0.0721305000267,2.11199288384,-0.644201934247,-0.966186260078,-0.150775170182,0.0133277816527,-0.110406406563,-0.0174520748942,-0.0414020292254,-0.92929141017,0.574016995836,0.818810344327,0.00590384751441,0.0,0.818805220114,-0.573925657851,-0.0121695387942,0.0,-0.00657630129601,0.0118198508317,-0.999908517509,0.0,0.320359643282,-0.187357458553,0.304869250094,1.0,-0.212825714286,-0.279713795918,2.521
-0.40354012154,-0.523390829352,-0.138474492789,-2.64330456288,-0.072363186626,2.11130536783,-0.659814328296,-0.93278425244,-0.118920248921,0.023169378169,-0.0935661146506,-0.0106122358652,-0.0379118672603,-0.903265197342,0.573871193395,0.818912067818,0.00596870798814,0.0,0.818907817186,-0.573779651549,-0.0121509391424,0.0,-0.00652595315424,0.0118611239399,-0.999908358638,0.0,0.316818887781,-0.192007887174,0.304885160516,1.0,-0.206258857143,-0.271083069388,2.538
-0.419309614169,-0.525322069174,-0.138217992619,-2.64468968551,-0.0725941732559,2.1107278476,-0.675011067461,-0.909431496155,-0.102139724024,0.0210068641224,-0.0775037824143,-0.00917763334151,-0.0322010348574,-0.886198977221,0.57399939317,0.818821679848,0.00604153560461,0.0,0.818818800382,-0.573908282244,-0.0120748753143,0.0,-0.00642000597282,0.0118781227299,-0.999908842707,0.0,0.313133942724,-0.196890094818,0.304916462813,1.0,-0.199305714286,-0.261944653061,2.556
-0.433683297368,-0.526773558484,-0.137995622977,-2.64576004603,-0.0727437196876,2.11030300651,-0.688935958404,-0.890505085926,-0.0800829561077,0.0113516118299,-0.0630702842281,-0.00487103387428,-0.0270239981797,-0.872112184668,0.574061202393,0.818777754894,0.0061213478001,0.0,0.818776240156,-0.573970345722,-0.0120107322315,0.0,-0.00632076995246,0.0119071387722,-0.999909129828,0.0,0.31017037166,-0.200818330903,0.304934500166,1.0,-0.193511428571,-0.254329306123,2.571
-0.449338441798,-0.528074036005,-0.137627974017,-2.64673241502,-0.0728557134022,2.10987871164,-0.704155594565,-0.850390955035,-0.0648300882975,0.0255256750064,-0.0451680116422,-0.00226851431051,-0.0191585831167,-0.828249905609,0.574053021488,0.818783202667,0.00615974452001,0.0,0.818782295598,-0.573962208565,-0.0119867616939,0.0,-0.00627921945485,0.0119247561151,-0.999909181673,0.0,0.306735603515,-0.205334716631,0.304941162885,1.0,-0.186558285714,-0.245190889796,2.589
-0.466276084587,-0.529086745507,-0.137259751795,-2.64753063991,-0.0729246316955,2.10950045913,-0.720517792175,-0.834170631411,-0.0436427054111,0.0197647142708,-0.0294271094196,-0.00294385908773,-0.0177820894138,-0.814689766123,0.574188198261,0.818688004155,0.00621383384643,0.0,0.81868751978,-0.574096589987,-0.0120248584987,0.0,-0.00627738744171,0.011991950938,-0.999908389564,0.0,0.303016901799,-0.210215773233,0.304925409332,1.0,-0.178832571429,-0.235037093878,2.609
-0.476772342429,-0.529529458221,-0.136911134102,-2.64788227205,-0.0729301526296,2.10931948527,-0.730819285328,-0.799539955296,-0.0295359870794,0.024566148235,-0.0209279605284,-0.00154020344355,-0.0109806075742,-0.788937586881,0.574078874854,0.81876475584,0.00620217229446,0.0,0.818764093277,-0.573987290033,-0.0120290208084,0.0,-0.00628909130208,0.0119839534346,-0.999908411901,0.0,0.300740476373,-0.213207949499,0.304920768943,1.0,-0.173810857143,-0.228437126531,2.622
-0.490287803931,-0.529886035339,-0.136583438967,-2.64819665412,-0.0729422580198,2.10910714492,-0.743895985738,-0.786325241812,-0.0213023508503,0.0213300425956,-0.00901879779715,-0.000746393687389,-0.0159953223839,-0.762519742176,0.574183767876,0.818691082447,0.00621764677069,0.0,0.818690180901,-0.574091254453,-0.0120981882245,0.0,-0.00633530415307,0.012037141411,-0.999907481294,0.0,0.297778308728,-0.217085049602,0.304898327932,1.0,-0.167244,-0.2198064,2.639
-0.503816182859,-0.530058124351,-0.136058644893,-2.64835150308,-0.0729339414787,2.10897414784,-0.757296284001,-0.738164463883,-0.00803376571597,0.0224676218681,-0.00707021426972,-0.00103115805566,-0.0060196346019,-0.738557055037,0.573913331268,0.818881279181,0.00613886800418,0.0,0.818879378218,-0.573821275759,-0.0121018311524,0.0,-0.00638747288327,0.0119726251555,-0.99990792398,0.0,0.294851988604,-0.22091758897,0.304892951474,1.0,-0.160290857143,-0.210667983674,2.657
-0.515665623087,-0.53008094636,-0.135744018234,-2.64839530266,-0.0729355866254,2.10888096587,-0.768726585534,-0.727207612763,-0.00262166766813,0.0165825519233,-0.00303795045516,-5.27115232086e-05,-0.00266822380405,-0.711683508173,0.574031688755,0.818798467047,0.00611862462745,0.0,0.818796158218,-0.573939428285,-0.0121297505853,0.0,-0.00642022487359,0.0119729980685,-0.999907709756,0.0,0.292245164213,-0.224299840598,0.3048815262,1.0,-0.154110285714,-0.202544946939,2.673
-0.52821363462,-0.529956044752,-0.135244300946,-2.64832344642,-0.0728718861492,2.10885364168,-0.781082001779,-0.692362242444,0.0154507623576,0.0216369761068,0.0043112013852,0.000260762008272,0.00191256616605,-0.675576821919,0.573868550642,0.81891326674,0.00605764330529,0.0,0.81891032017,-0.573776885112,-0.0121128251006,0.0,-0.00644374152776,0.0119120653474,-0.999908286241,0.0,0.289517847839,-0.227834919384,0.304879206505,1.0,-0.147157142857,-0.193406530612,2.691
-0.539096801388,-0.529750038541,-0.134935947524,-2.64816292815,-0.0728139070758,2.10884523466,-0.791612321894,-0.666536737623,0.0149425279667,0.0152766926289,0.00980688871197,0.0117309213182,-0.000839703070923,-0.654860775195,0.573974018907,0.818839353282,0.00605690008392,0.0,0.81883655098,-0.573882619305,-0.0120908618781,0.0,-0.00642464753021,0.0118996808643,-0.999908556569,0.0,0.287119021191,-0.230926645564,0.304884247038,1.0,-0.140976571429,-0.185283493878,2.707
-0.549410319836,-0.529390225438,-0.134460852982,-2.64788482904,-0.0726785455431,2.10888014003,-0.801697531236,-0.620454125219,0.0280787301436,0.0357181666361,0.0203345210833,0.0178182691232,0.00221388931998,-0.624084197555,0.573899536244,0.818891856103,0.0060164115931,0.0,0.818888762991,-0.573808763465,-0.0120600049331,0.0,-0.00642369380352,0.0118482312005,-0.999909173663,0.0,0.284892138329,-0.233814263926,0.304894587381,1.0,-0.134796,-0.177160457143,2.723
-0.559870677459,-0.528851966617,-0.134027709954,-2.64751997434,-0.0725124167034,2.10895675646,-0.811975167213,-0.609973316558,0.0307355692654,0.0254353380151,0.0194054259278,0.00777474790457,0.00235239427839,-0.594036184937,0.57383554951,0.818936742676,0.0060100345054,0.0,0.818933433555,-0.573744572445,-0.0120807241739,0.0,-0.00644524831743,0.0118543954219,-0.999908961898,0.0,0.282620063723,-0.236751502609,0.304881627402,1.0,-0.128229142857,-0.168529730612,2.74
-0.570573689088,-0.528164040585,-0.133618163466,-2.64702085404,-0.0722993511649,2.10907172678,-0.822319668478,-0.575235824128,0.0470687869182,0.0250962729364,0.0307358811842,0.0128127257146,0.00992049794199,-0.567495249701,0.573959472218,0.818849672885,0.00604022913452,0.0,0.818846745285,-0.573868317722,-0.0120792612086,0.0,-0.00642492665705,0.0118792570682,-0.999908797626,0.0,0.280294628175,-0.2397699396,0.304877590421,1.0,-0.121276,-0.159391314286,2.758
-0.578795937866,-0.527468516376,-0.133168085464,-2.64655220161,-0.0720407475104,2.1091855565,-0.83051032456,-0.541759305462,0.0448395756084,0.0330576892242,0.0332228444492,0.0109006318854,0.00283714977709,-0.534311711785,0.573804734552,0.818957920489,0.00606613350871,0.0,0.818954968274,-0.573712830209,-0.0121282848675,0.0,-0.00645246056036,0.0119273870933,-0.999908047367,0.0,0.278542591108,-0.242053464624,0.304857706073,1.0,-0.115481714286,-0.151775967347,2.773
-0.588426056434,-0.526642469762,-0.132735049657,-2.64594438928,-0.0718042999631,2.10932495928,-0.839819802281,-0.529343924667,0.0485897590233,0.0266303073879,0.034807838288,0.0188310085922,0.0119326415087,-0.507222858833,0.573896687942,0.818893383362,0.00607989781157,0.0,0.818890538229,-0.573804569487,-0.012138753479,0.0,-0.00645179597698,0.0119453911944,-0.999907836732,0.0,0.276457310491,-0.244755182358,0.304854861012,1.0,-0.108528571429,-0.142637551021,2.791
-0.596965548207,-0.525767789605,-0.132321609032,-2.64528755432,-0.0715342725441,2.109476264,-0.84812452263,-0.482183337554,0.0544155519798,0.0329106965342,0.0373092051653,0.0248915224107,0.0105961812732,-0.472162881897,0.573948847058,0.818856567215,0.00611475195161,0.0,0.818854119616,-0.573856456982,-0.0121426714097,0.0,-0.00643424021612,0.0119765926683,-0.999907576619,0.0,0.274627090957,-0.247153350231,0.304856783868,1.0,-0.101961714286,-0.13400682449,2.808
-0.604329819287,-0.52488675631,-0.131833759983,-2.64466679678,-0.0712381595992,2.10962321746,-0.855484173027,-0.456012160343,0.0489236411238,0.0255492645284,0.0362195637923,0.0183548972954,0.0173344198989,-0.450145101309,0.573769005207,0.818982491582,0.00612813564169,0.0,0.818979830904,-0.573675872623,-0.0121974031582,0.0,-0.00647402071252,0.0120175427427,-0.999906828521,0.0,0.273077559948,-0.249188019966,0.304841216224,1.0,-0.0957811428572,-0.125883787755,2.824
-0.611932656554,-0.524022664375,-0.131385930621,-2.64401321691,-0.0709852885034,2.1097614615,-0.862764461746,-0.441588364947,0.0471317602331,0.023106898015,0.0373680095959,0.0141145850617,0.00812716361999,-0.414526458148,0.573860634814,0.818918331383,0.00612251887642,0.0,0.818915499386,-0.573767326506,-0.01221502355,0.0,-0.00649033037513,0.0120237782668,-0.999906647827,0.0,0.271447849064,-0.2512985204,0.304844707015,1.0,-0.0892142857144,-0.117253061225,2.841
-0.61901823806,-0.523120187667,-0.130975698483,-2.64330914057,-0.0706796229523,2.10994433096,-0.869606328962,-0.402123425215,0.0545686213436,0.0239994416137,0.0431111390493,0.0200131051318,0.0101131859787,-0.39240665349,0.573939119544,0.818862995496,0.00616673052787,0.0,0.818860955408,-0.573845992779,-0.0121761726571,0.0,-0.00643198744943,0.0120383084408,-0.999906849995,0.0,0.269947935227,-0.253279794597,0.304859693231,1.0,-0.0826474285715,-0.108622334694,2.858
-0.625057828297,-0.522264067105,-0.130523959774,-2.64265970482,-0.0703864413586,2.11012168811,-0.875565186759,-0.361130870096,0.0482414132118,0.0291400558167,0.0357809717984,0.0182798772741,0.00890425277514,-0.36402471691,0.573846251592,0.818928008835,0.00617598411103,0.0,0.818926191466,-0.573753294048,-0.0121571954604,0.0,-0.00641250010424,0.0120342678884,-0.999907023797,0.0,0.268695777007,-0.254949561582,0.304867122769,1.0,-0.0764668571429,-0.100499297959,2.874
-0.631434529457,-0.521408869156,-0.130007529171,-2.64199771373,-0.0700807859666,2.11030098374,-0.881764622996,-0.351821771003,0.050586415397,0.0249332584086,0.0383990623443,0.0176676601427,0.00732590121983,-0.32681275483,0.573792228513,0.818965942912,0.00616520478185,0.0,0.818964218709,-0.573699769785,-0.0121214489446,0.0,-0.00639020033151,0.012004506444,-0.999907524307,0.0,0.267365200032,-0.256691241113,0.304882083343,1.0,-0.0695137142858,-0.0913608816328,2.892
-0.637008351172,-0.520614321669,-0.129554351385,-2.64137355762,-0.0697722401229,2.1104731497,-0.887038370352,-0.308895740129,0.0443147350937,0.0255173666786,0.0334225166038,0.0187631504287,0.00863474761572,-0.293702420554,0.573882369283,0.81890265389,0.0061819559642,0.0,0.818901437763,-0.573790363425,-0.0120748073159,0.0,-0.00634106708204,0.0119921625447,-0.99990798522,0.0,0.266209073557,-0.258216308404,0.304899703402,1.0,-0.0629468571429,-0.0827301551021,2.909
-0.641724501094,-0.519849534914,-0.129172121463,-2.64080330987,-0.0694805375407,2.11062767332,-0.891655517428,-0.28440420646,0.0475897358725,0.023554280922,0.031260214386,0.0107832634961,0.014738516983,-0.284034604895,0.573847961751,0.818926472773,0.00622060172281,0.0,0.818925722991,-0.573755722975,-0.0120738344338,0.0,-0.00631859845955,0.0120229875234,-0.999907757288,0.0,0.265235698648,-0.259510283039,0.30490028554,1.0,-0.0567662857144,-0.0746071183675,2.925
-0.646331718645,-0.519134014747,-0.128783963123,-2.64029885367,-0.06919064001,2.11077199881,-0.895974642772,-0.259929254716,0.0392118101725,0.0262378782333,0.0280707837342,0.0225978564382,0.00709193169772,-0.247044899699,0.573959835879,0.81884776173,0.00626073541791,0.0,0.818847338173,-0.573867019361,-0.0121007337843,0.0,-0.00631595080288,0.0120721541352,-0.999907181622,0.0,0.264270152894,-0.260753223664,0.304888166736,1.0,-0.0501994285715,-0.0659763918368,2.942
-0.650797174057,-0.518424906408,-0.128197135942,-2.63979320386,-0.0688522864292,2.11092893348,-0.900284521738,-0.222002229229,0.0353737429759,0.0341583287681,0.0261195410606,0.0211492305141,0.0176781858517,-0.226453711856,0.573842751113,0.818929959416,0.00624223253859,0.0,0.818929261301,-0.573749979159,-0.012106746119,0.0,-0.00633321825307,0.0120595475653,-0.999907224526,0.0,0.263386340354,-0.261909317781,0.304884672377,1.0,-0.0428600000001,-0.0563302857144,2.961
-0.653695508643,-0.517953186844,-0.127742493959,-2.6394499674,-0.0686424697702,2.11104206538,-0.903059859367,-0.202287070657,0.0296386490146,0.0333965754982,0.0205178186954,0.014230162308,0.00610831844638,-0.196335448031,0.573728862515,0.819010205129,0.00618248441129,0.0,0.819008824707,-0.573636563844,-0.0120989492922,0.0,-0.00636278633131,0.0120052568449,-0.999907690119,0.0,0.262830355685,-0.262648325342,0.304887619451,1.0,-0.0374520000001,-0.0492226285715,2.975
-0.656968071513,-0.517384264366,-0.127260120992,-2.63904990823,-0.0683429120798,2.11115538058,-0.906006709207,-0.17460060455,0.0290410823688,0.0251976790991,0.0164640194105,0.0133802766592,0.00808670788635,-0.158125228263,0.573802590466,0.818958549795,0.00618286290637,0.0,0.818957028301,-0.573709999041,-0.0121231059669,0.0,-0.00638127386891,0.0120200000628,-0.999907395183,0.0,0.262198797251,-0.263482308373,0.304881178595,1.0,-0.0304988571429,-0.040084212245,2.993
-0.659574902538,-0.516939036459,-0.126852378588,-2.63873470695,-0.0680695787979,2.11125015157,-0.908418330193,-0.145462755016,0.021320188448,0.0253978162949,0.0139383015471,0.0139865133893,0.00142416604797,-0.128113851056,0.573806501004,0.818955667358,0.00620171013898,0.0,0.818954328679,-0.573713705677,-0.0121300600412,0.0,-0.00637609807042,0.0120394564696,-0.999907194124,0.0,0.261702337716,-0.264136851478,0.304878262302,1.0,-0.0239320000001,-0.0314534857144,3.01
-0.661485357001,-0.516637928255,-0.126481066622,-2.6385509083,-0.0678348287179,2.11129397081,-0.910117880882,-0.11813321082,0.0178581310204,0.0207097687139,0.00787177319971,0.0153698698246,0.00259330375238,-0.106611337888,0.573825763432,0.818942049594,0.006217678827,0.0,0.818940582632,-0.573732256418,-0.0121805979138,0.0,-0.0064080442924,0.012081683028,-0.999906480579,0.0,0.261342553347,-0.264581347339,0.304863472068,1.0,-0.0198846153846,-0.0261340659341,3.025
-0.663367294507,-0.516328223252,-0.126155678283,-2.63832692527,-0.0676143217586,2.11135029717,-0.91178705204,-0.101416764554,0.0160474515695,0.0120329292334,0.0139220274995,0.0159177035898,0.00296997038421,-0.0890380220244,0.573870357033,0.818910657613,0.00623659110485,0.0,0.818909365417,-0.573776617351,-0.0121898119141,0.0,-0.00640408004116,0.0121028075959,-0.999906250509,0.0,0.260969347705,-0.2650662289,0.304862694768,1.0,-0.0195046153846,-0.0256346373626,3.044
-0.665057883604,-0.516043188986,-0.125926684787,-2.63809072434,-0.0674664445085,2.11142653141,-0.913456495941,-0.0944619180072,0.014580176261,0.0121510136639,0.0161356003269,0.00273966183151,6.28331402017e-05,-0.0808463134674,0.573804996313,0.818956460067,0.00623615441509,0.0,0.818955443879,-0.573711806126,-0.0121446018226,0.0,-0.00636826731365,0.0120759983115,-0.999906803375,0.0,0.260663777257,-0.265485471874,0.304877836727,1.0,-0.0191646153846,-0.0251877802198,3.061
-0.666414568286,-0.51580006331,-0.125783204716,-2.63789796483,-0.0674103923804,2.11148774597,-0.914761677385,-0.0896660426013,0.0182930486067,0.00592241786528,0.0170180165701,0.000420722368458,0.00917348776976,-0.0831703483792,0.573779229744,0.818974767859,0.00620258211366,0.0,0.818973458521,-0.573686470322,-0.0121266197997,0.0,-0.00637318089917,0.012037984462,-0.999907230445,0.0,0.260388027741,-0.265857126724,0.304884336229,1.0,-0.0188646153846,-0.0247934945055,3.076
-0.667875946379,-0.515527765224,-0.125712197991,-2.63768495629,-0.0673652217609,2.11152689518,-0.916223675604,-0.0882668672809,0.0172890371835,0.00381037912524,0.013981189902,0.00396734719897,1.40032968857e-05,-0.0792261657523,0.573758696839,0.818989183066,0.00619860657186,0.0,0.81898775095,-0.57366582582,-0.0121379974571,0.0,-0.0063850827961,0.012041096287,-0.999907117045,0.0,0.260067217355,-0.266274037775,0.304885639225,1.0,-0.0185246153846,-0.0243466373626,3.093
-0.669381607402,-0.515279050283,-0.125680340969,-2.63746646555,-0.0673113790227,2.11157602028,-0.917636435737,-0.0850148262084,0.0198185039649,0.00237647736429,0.01366237856,0.00224102158112,0.00256405997409,-0.0751724351241,0.573846394133,0.818927598001,0.00621707932354,0.0,0.818926584068,-0.573753756748,-0.0121088160066,0.0,-0.00634929323261,0.0120401637464,-0.999907356175,0.0,0.259729295917,-0.266712905958,0.304898044744,1.0,-0.0181646153846,-0.0238734945055,3.111
-0.670686391194,-0.515037446894,-0.125625029458,-2.63725485533,-0.0672772155327,2.11167010547,-0.919009401015,-0.0776432671719,0.0165692365003,0.00211088269346,0.0134754175465,0.00481795806902,0.00149079928642,-0.0863140299039,0.573776696756,0.818976549734,0.00620162452773,0.0,0.81897579126,-0.573685009924,-0.0120378411337,0.0,-0.00630105188395,0.0119862438488,-0.999908309148,0.0,0.259453352709,-0.267100941181,0.304914309239,1.0,-0.0178446153846,-0.0234529230769,3.127
-0.672022099695,-0.514762547912,-0.125587483164,-2.63703433885,-0.0672417988352,2.11170109997,-0.920335273977,-0.0791180167211,0.0181681132318,0.00449049461001,0.00724695250969,0.000116095066288,0.00142815970996,-0.0731135671202,0.573784666794,0.818970946085,0.00620423421225,0.0,0.81897012085,-0.573692775346,-0.0120535294208,0.0,-0.00631228758039,0.011997443793,-0.999908103962,0.0,0.259156192957,-0.267493083045,0.304916502121,1.0,-0.0175046153846,-0.0230060659341,3.144
-0.673173289162,-0.514527455072,-0.125563993216,-2.63685900052,-0.0672140027496,2.11172656607,-0.921499066722,-0.0763714233267,0.0209950262344,0.000976502132372,0.00792430045821,0.000322143569008,0.00361061587071,-0.0789639462673,0.573778717823,0.818975059627,0.00621140753184,0.0,0.818974147171,-0.573686452982,-0.0120808456129,0.0,-0.00633063278553,0.0120189456941,-0.99990772976,0.0,0.25889393511,-0.267828963878,0.304912048376,1.0,-0.0172046153846,-0.0226117802198,3.159
-0.674479512229,-0.514271682252,-0.125541636759,-2.63665407978,-0.0671814331417,2.11179128822,-0.922821815187,-0.0795609322121,0.0144598629861,0.00260832512325,0.012241145395,0.000329144866586,0.000380624681254,-0.0761875694159,0.573773823964,0.818978453297,0.00621601719599,0.0,0.818977732108,-0.573681789333,-0.012059262043,0.0,-0.00631038140278,0.012010299798,-0.999907961657,0.0,0.258602091246,-0.268217520084,0.304916697596,1.0,-0.0168646153846,-0.0221649230769,3.176
-0.675871788388,-0.513973475693,-0.125530986642,-2.63641768388,-0.0671450631356,2.11188027637,-0.924171333486,-0.075392707771,0.0185396337958,-0.000211512832226,0.0149430780086,0.00515389994497,0.000422315317579,-0.0760361745153,0.573829054938,0.818939696782,0.00622379669468,0.0,0.818939296589,-0.573737393627,-0.0120240823932,0.0,-0.00627629433322,0.0119969105011,-0.999908336933,0.0,0.258294122555,-0.268641157707,0.30492173646,1.0,-0.0164846153846,-0.0216654945055,3.195
-0.677037750071,-0.513737570697,-0.125515380127,-2.63622508271,-0.067110140142,2.11190377146,-0.925402362699,-0.0692113799315,0.0146014003349,0.000169984322564,0.00779172161347,0.00144993341331,-2.35210487941e-05,-0.0769036164578,0.573789570599,0.818967245637,0.00623908221361,0.0,0.818966951668,-0.573697673946,-0.0120356921432,0.0,-0.00627761155378,0.0120157881095,-0.999908101992,0.0,0.258028848812,-0.268985253982,0.304924416044,1.0,-0.0161646153846,-0.0212449230769,3.211
-0.678265797803,-0.51348945311,-0.125490611726,-2.63604247402,-0.0670929923329,2.11194382864,-0.926601274365,-0.0692004515868,0.00706808038764,0.00347060833693,0.0109156145109,0.000152043623185,0.00235426009931,-0.0616371330413,0.57381270333,0.818951070394,0.00623479740597,0.0,0.818950603124,-0.573720595771,-0.0120554772559,0.0,-0.0062959355368,0.0120238085857,-0.999907890369,0.0,0.257746899825,-0.269344445535,0.304919643293,1.0,-0.0158246153846,-0.0207980659341,3.228
-0.679437202832,-0.513242641393,-0.1254699391,-2.63584595971,-0.0670504720316,2.11200927877,-0.927797197777,-0.0710827466051,0.0134521220973,0.000941891977657,0.00797064794474,0.00957032011392,0.00518416886939,-0.0674482774331,0.573806251044,0.818955492434,0.00624776576014,0.0,0.818955327427,-0.573714343439,-0.0120320701946,0.0,-0.00626941784591,0.012020949585,-0.999908091362,0.0,0.257488187818,-0.26969451099,0.304923734712,1.0,-0.0154846153846,-0.0203512087912,3.245
-0.680506715566,-0.513004030294,-0.125446204553,-2.63565758598,-0.0670337117103,2.11205813913,-0.928936934316,-0.0678511598772,0.011706941139,0.000523652493467,0.0101532530434,0.00444866643687,-0.000262866691219,-0.0779598856742,0.573748776107,0.818995818218,0.00624007673052,0.0,0.818995577311,-0.573656960706,-0.0120284113583,0.0,-0.00627167589966,0.0120121128101,-0.999908183398,0.0,0.25725066136,-0.270015597025,0.304925784648,1.0,-0.0151646153846,-0.0199306373626,3.261
-0.681713287013,-0.512756521707,-0.125423414999,-2.63545983571,-0.0669971367523,2.11208249098,-0.930102407123,-0.0627551224904,0.0147967153053,0.000449747646416,0.012528213313,0.00133097575736,-0.000595709548696,-0.0607547889097,0.573792098331,0.818965373601,0.00625233046422,0.0,0.818965173722,-0.573699993046,-0.0120461243222,0.0,-0.00627851764308,0.0120326435221,-0.999907893611,0.0,0.256975434891,-0.270368716343,0.304926683263,1.0,-0.0148046153846,-0.0194574945055,3.279
-0.68277830422,-0.512529482695,-0.12538520047,-2.63529176945,-0.0669728989168,2.11212240586,-0.931146860925,-0.0718233400499,0.00659435692085,0.00444936126327,0.00870325249074,-0.000181304245019,0.00599113372974,-0.0621464201709,0.57380086913,0.818959270189,0.00624685985903,0.0,0.818958918556,-0.57370863185,-0.0120599485708,0.0,-0.00629285041385,0.0120361622995,-0.999907761161,0.0,0.256736678063,-0.27067792987,0.3049233386,1.0,-0.0144846153846,-0.0190369230769,3.295
-0.683798293193,-0.512306535255,-0.125380809003,-2.63510325537,-0.0669493705062,2.11218205903,-0.932217025174,-0.0671706248131,0.0148101439959,0.00152154723337,0.00482178544663,0.00137670422501,0.0069695611296,-0.0561335733859,0.573776372304,0.81897640316,0.00625080422803,0.0,0.818976291558,-0.573684484462,-0.0120288425917,0.0,-0.00626546946863,0.0120213575796,-0.999908111205,0.0,0.256509643557,-0.270991014961,0.304931665017,1.0,-0.0141646153846,-0.0186163516484,3.311
-0.684924595977,-0.512060877413,-0.125369210115,-2.63490360693,-0.0669153765542,2.1122370209,-0.933305929883,-0.0627458014969,0.0137801805057,0.00176600694409,0.00959997449493,0.00221543662563,0.00100979556777,-0.0628328313351,0.573823555842,0.818943269928,0.00626053517236,0.0,0.818943379984,-0.5737317981,-0.0120129567814,0.0,-0.00624618226489,0.0120205728443,-0.999908241308,0.0,0.256257258874,-0.271330467226,0.304936403248,1.0,-0.0138046153846,-0.0181432087912,3.329
-0.685956038973,-0.511853490474,-0.125335751855,-2.63472164961,-0.0668921950888,2.11225881041,-0.934351600097,-0.0600498076456,0.010043076123,0.000809103271436,0.0100975426987,0.000110310945579,-0.000309832031768,-0.0583128339694,0.573807304032,0.818954697549,0.00625524606171,0.0,0.818954751485,-0.57371559716,-0.0120114735781,0.0,-0.00624824077963,0.0120152660864,-0.999908292229,0.0,0.256026040632,-0.271632969067,0.304944934001,1.0,-0.0134646153846,-0.0176963516484,3.346
-0.686896019929,-0.511646777527,-0.125296009795,-2.63455951486,-0.0668607678991,2.11229990604,-0.935318062493,-0.0607637521312,0.0134760386756,0.00158829456924,0.011939759332,0.00290532378795,0.00659298438024,-0.0554682530492,0.573779128807,0.818974450648,0.00625359357653,0.0,0.818974494544,-0.573687457193,-0.0120093982728,0.0,-0.00624790244731,0.0120125069949,-0.999908327493,0.0,0.255820147381,-0.271907319174,0.304946497927,1.0,-0.0131446153846,-0.0172757802198,3.362
-0.687792077438,-0.511438069847,-0.125268041688,-2.63440047264,-0.0668394642697,2.11236056499,-0.93621617133,-0.0517743337199,0.0175879695289,0.000644913044016,0.00513415828692,8.43996381491e-05,0.00271928583534,-0.0519154097565,0.573774860977,0.81897749751,0.00624614955469,0.0,0.818977545998,-0.573683417423,-0.0119942747127,0.0,-0.00623984880279,0.0119977005329,-0.999908555553,0.0,0.255624556287,-0.272175784186,0.304947291238,1.0,-0.0128246153846,-0.0168552087912,3.378
-0.688800117658,-0.511212587,-0.125245657823,-2.63421911513,-0.0668131073812,2.11239773625,-0.937221375012,-0.0602011481644,0.0150778493818,0.000192970651552,0.0114262463778,-0.00019994208025,-0.000312248161777,-0.0558175454883,0.573781849866,0.818972589558,0.00624765695288,0.0,0.818972647961,-0.573690379689,-0.0119957094768,0.0,-0.00624005670477,0.0119998115659,-0.999908528924,0.0,0.255398340404,-0.272475596693,0.304949860439,1.0,-0.0124646153846,-0.0163820659341,3.396
-0.689678346726,-0.511035188738,-0.125219725492,-2.63405753903,-0.0667941933685,2.11243411159,-0.938143315735,-0.0563140362119,0.0102681372003,0.00396980483042,0.0122809029279,-0.000551272244309,0.00106266240869,-0.0609570705453,0.573743865454,0.818999257211,0.00624022777891,0.0,0.818999376287,-0.573652737805,-0.0119710045982,0.0,-0.00622463996767,0.0119792637483,-0.999908871396,0.0,0.255203881963,-0.272737558597,0.304961253235,1.0,-0.0121446153846,-0.0159614945055,3.412
-0.690646076631,-0.510824725193,-0.12521106985,-2.63388568509,-0.0667699488991,2.11247969442,-0.9391085395,-0.0531239514097,0.011971159421,-0.00103058897604,0.00804453813388,0.00159205890717,4.14540896822e-05,-0.057737433175,0.573758934463,0.818988660542,0.00624547268223,0.0,0.81898892198,-0.573667924192,-0.0119584835548,0.0,-0.00621115466344,0.011976490306,-0.999908988477,0.0,0.254984210601,-0.273028844969,0.304965436605,1.0,-0.0117846153846,-0.0154883516484,3.43
-0.69139204743,-0.510659550789,-0.125199673219,-2.63374597527,-0.0667530751938,2.11251576446,-0.93982865615,-0.0528174918482,0.0122619260701,-7.35800178062e-05,0.00619859382794,0.0068066066335,0.00285484468597,-0.0512591943337,0.573786340345,0.818969470426,0.00624412080022,0.0,0.818969806652,-0.573695508113,-0.0119443151397,0.0,-0.00619992475717,0.0119674616872,-0.999909166272,0.0,0.254817240554,-0.273254453051,0.304971038776,1.0,-0.0115046153846,-0.0151203516484,3.444
-0.692270181174,-0.510465067313,-0.125191553582,-2.6335881962,-0.0667278310866,2.11256442606,-0.940696236549,-0.0513132337035,0.0101846944967,0.00325953514355,0.0102011703147,0.00431372672409,0.0003536562153,-0.0507859796767,0.573808078554,0.818954193752,0.00625015381619,0.0,0.818954711254,-0.573717415155,-0.0119270852811,0.0,-0.00618203344177,0.0119626811204,-0.999909334251,0.0,0.254619206189,-0.273519635521,0.304974978846,1.0,-0.0111646153846,-0.0146734945055,3.461
-0.693195479993,-0.510258355886,-0.125179201982,-2.63341513662,-0.0667040632388,2.11259817824,-0.941659337885,-0.0474834177924,0.012817164998,-0.000613012812369,0.00931601861742,-0.000260848247035,0.000577734571322,-0.0574028910267,0.573787334352,0.818968695421,0.0062544191286,0.0,0.818969295812,-0.573696710717,-0.011921557431,0.0,-0.00617536155002,0.011962846211,-0.999909373504,0.0,0.254409644991,-0.273797589977,0.304980140761,1.0,-0.0107846153846,-0.0141740659341,3.48
-0.693954011392,-0.51007472019,-0.125159684399,-2.63327666942,-0.0666802097472,2.11262584468,-0.942404075397,-0.043961844682,0.00944551756828,-0.00164810649025,0.0105080331791,0.00100464101204,0.0026291173909,-0.0529785014624,0.573802088215,0.818958328691,0.006258300907,0.0,0.818958896686,-0.573711284713,-0.0119345813757,0.0,-0.00618358601676,0.0119736094503,-0.999909193847,0.0,0.254239158789,-0.274021763113,0.304977783824,1.0,-0.0104646153846,-0.0137534945055,3.496
-0.694742349058,-0.509894057433,-0.125138274948,-2.63312367923,-0.0666616101817,2.11268595742,-0.943154400896,-0.0461069356765,0.00716627445688,0.000628954251924,0.00983816166476,0.00138993617482,0.00544237450409,-0.0434175796982,0.573833691888,0.818936257116,0.00624881885602,0.0,0.818936934138,-0.573743371206,-0.0118991093572,0.0,-0.00615951227319,0.0119457284008,-0.999909675912,0.0,0.254068414188,-0.274262226306,0.304985923018,1.0,-0.0101246153846,-0.0133066373626,3.513
-0.695427215082,-0.509728815104,-0.125116727099,-2.63300530049,-0.0666359447675,2.11271634176,-0.943832374956,-0.0459131687643,0.00826400792053,0.000512711817622,0.00715833710215,0.00398919468801,0.00234731088569,-0.0445799916294,0.573841105641,0.818931020076,0.00625433733573,0.0,0.818931690156,-0.573750607996,-0.0119110697932,0.0,-0.00616603340221,0.0119571667172,-0.999909499003,0.0,0.253914813493,-0.274462254258,0.30498152378,1.0,-0.00982461538462,-0.0129123516484,3.528
-0.696177510953,-0.509546725021,-0.1250826001,-2.63286428162,-0.0666205963399,2.11273788111,-0.944601254258,-0.0512117095011,0.0138841733566,0.00240606811334,0.00466834375042,0.000370268924457,0.00120450987569,-0.0438410629667,0.573815392881,0.818949110803,0.00624465448217,0.0,0.818949559569,-0.573724756208,-0.0119276945377,0.0,-0.00618558105681,0.0119585820049,-0.999909361344,0.0,0.253748265693,-0.274681587566,0.304980683339,1.0,-0.00948461538462,-0.0124654945055,3.545
-0.696983514218,-0.509343622761,-0.125056245166,-2.63271484316,-0.0665915456381,2.1127693211,-0.94540885555,-0.0400853124784,0.0141484994144,0.00337025133969,0.00954638846829,-0.00016950415656,0.000183306722884,-0.0418807486867,0.573815459002,0.818949028697,0.00624934457346,0.0,0.818949427283,-0.573724587833,-0.0119448637446,0.0,-0.00619695123241,0.011972275135,-0.999909127083,0.0,0.253568597377,-0.27491859789,0.304976532662,1.0,-0.00910461538462,-0.0119660659341,3.564
