nelsonifechukwu/NELSON_IML_WORK/CNN-GradCAM/train2dof/data_sample_2022-02-21-09-29-42/robot_state.csv
position_joint1,position_joint2,position_joint3,position_joint4,position_joint5,position_joint6,position_joint7,velocity_joint1,velocity_joint2,velocity_joint3,velocity_joint4,velocity_joint5,velocity_joint6,velocity_joint7,ee_T_00,ee_T_10,ee_T_20,ee_T_30,ee_T_01,ee_T_11,ee_T_21,ee_T_31,ee_T_02,ee_T_12,ee_T_22,ee_T_32,ee_T_03,ee_T_13,ee_T_23,ee_T_33,v_x,v_y,time
0.465091867914,0.547597496765,-0.123988496516,-1.35574510708,0.079454264951,1.89409161948,0.159157041033,-0.000448075064054,0.00247184541216,0.00454632816744,-6.31227077772e-05,-7.82616409509e-05,-0.000101350689669,0.00113533642533,0.573771766446,0.819000673066,0.00214579784918,0.0,0.818960569283,-0.573712911662,-0.0117400107884,0.0,-0.0083841662268,0.00849357408392,-0.999928779942,0.0,0.661698149327,0.260907396284,0.303385482619,1.0,0.0,0.0,0.0
0.46509951405,0.547600272007,-0.12398814504,-1.35574284213,0.0794544060893,1.89408974669,0.159149084933,0.000947113623582,0.00154265885083,0.00146837542602,0.000410348771523,0.000389285691772,-6.052783351e-05,-0.00188083002726,0.573758648855,0.819009867582,0.00214396079827,0.0,0.818969735598,-0.573699798311,-0.0117414008502,0.0,-0.00838649474398,0.00849273280698,-0.999928767561,0.0,0.661696137897,0.260912786792,0.303384420552,1.0,-0.0001,-0.000131428571429,0.006
0.465091682695,0.547589677509,-0.123981140014,-1.35574867529,0.0794544570959,1.89409056049,0.159151788913,-0.000496530690242,-0.00407605499502,0.00152901656933,-0.000427143493165,0.000180495973658,-2.50345364966e-05,-0.000884586784694,0.573762700509,0.819007011059,0.00215087012786,0.0,0.818966929358,-0.573703783007,-0.0117424393626,0.0,-0.00838333924109,0.00849902885598,-0.999928740527,0.0,0.661695674753,0.260911169799,0.30338898832,1.0,-0.00044,-0.000578285714286,0.023
0.465099200938,0.547588595423,-0.123991011805,-1.35576107033,0.0794575982822,1.89409163321,0.159150939991,-0.000130082765942,0.00153104583662,-0.00171770468037,-0.000239006708252,-9.6831355267e-05,-0.000454770265818,-0.000596764991985,0.573764261316,0.819005941411,0.00214179129228,0.0,0.818965751331,-0.573705388127,-0.0117461773233,0.0,-0.00839159337618,0.00849375400113,-0.999928716111,0.0,0.661693204736,0.260909554705,0.303384280537,1.0,-0.00078,-0.00102514285714,0.04
0.465096353612,0.547503108266,-0.123986208236,-1.35582835053,0.0794537941151,1.89410030162,0.159149291242,0.000295797942765,-0.00766377466863,-0.00115693356957,-0.00648362825074,-0.000155100223324,7.12266536972e-07,-0.0010365710516,0.573764456268,0.81900573648,0.00216777233271,0.0,0.818965838067,-0.573705437112,-0.0117377343914,0.0,-0.00836977017016,0.00851019012364,-0.999928759268,0.0,0.661681622636,0.260903561891,0.303413402567,1.0,-0.00112,-0.001472,0.057
0.465093506387,0.54737484074,-0.123986047134,-1.35598669993,0.0794535368958,1.8941385275,0.159151632219,-0.000221020711592,-0.00567142599871,-0.000202932664543,-0.0103603079416,3.18199807492e-05,0.00186112957873,0.000432895243821,0.573777204221,0.818996770101,0.00218114214974,0.0,0.818956937142,-0.573718022338,-0.0117436302636,0.0,-0.00836679578133,0.00852465296047,-0.999928660965,0.0,0.661657052712,0.260887213076,0.303432207044,1.0,-0.00144,-0.00189257142857,0.073
0.465079061196,0.547233346799,-0.123988552462,-1.3561843157,0.0794469690952,1.89419064055,0.15915154436,-0.0019813656248,-0.00672495124136,-5.87810054096e-05,-0.0074867792215,0.000139897781416,-0.00097529113231,0.00146384972206,0.573799869872,0.818980890883,0.00218096433867,0.0,0.818940994883,-0.573740624026,-0.0117511762222,0.0,-0.0083728421339,0.00852906870347,-0.9999285727,0.0,0.661630586291,0.2608570784,0.303442968889,1.0,-0.00178,-0.00233942857143,0.09
0.465058085965,0.547058120031,-0.123988544364,-1.35640360636,0.0794460281722,1.89432758879,0.159138940211,-0.00060701155957,-0.00791052983626,-0.000612591881602,-0.0110885702131,0.000537674297164,0.00788070377277,-0.00149786815555,0.57381905799,0.81896721808,0.00226523688055,0.0,0.818928381724,-0.573759455512,-0.0117106668295,0.0,-0.00829111078562,0.00857503567738,-0.999928860592,0.0,0.661617770928,0.260828638567,0.303474603704,1.0,-0.00212,-0.00278628571429,0.107
0.465032966046,0.546848420996,-0.123986839231,-1.35664188591,0.079441948017,1.89444574349,0.159120093271,-0.00344176594755,-0.016080349299,-0.00136929783553,-0.0179415935685,-0.00475078509996,0.00289976538223,-0.0031750716415,0.573835345646,0.81895557331,0.00234775071276,0.0,0.818917751328,-0.573775377899,-0.0116738672963,0.0,-0.00821345526645,0.00862165840303,-0.999929100566,0.0,0.661598616671,0.260794848551,0.303519914118,1.0,-0.00246,-0.00323314285714,0.124
0.465002874147,0.546617153492,-0.123986047134,-1.35698927676,0.0794309459014,1.89458874215,0.159105623119,-0.00135068086369,-0.00985040787315,0.000372953473448,-0.0219053584696,-0.000770606830184,0.00290535899354,0.00150913533069,0.573864190153,0.818935281565,0.00237545116971,0.0,0.818897748303,-0.573804043837,-0.0116680761375,0.0,-0.00819251346115,0.00864130904935,-0.999929102737,0.0,0.661561840676,0.26074512967,0.303530726468,1.0,-0.00282,-0.00370628571429,0.142
0.464958465017,0.546364198701,-0.123986757475,-1.35736461561,0.0794200660073,1.89472608888,0.159042873624,-0.00356212001696,-0.0143512646494,-0.00100262279097,-0.0270310521237,-8.56232604497e-05,0.00967433520306,-0.00993932421643,0.573867748191,0.818932731593,0.00239491387082,0.0,0.818895348245,-0.573807422596,-0.0116703597906,0.0,-0.00818317781797,0.00865859362663,-0.99992902966,0.0,0.661522144443,0.260681671183,0.303543139321,1.0,-0.00314,-0.00412685714286,0.158
0.464920469541,0.546094264682,-0.123989234231,-1.35778244717,0.0794060028047,1.89487054218,0.158920069989,-0.00323686706416,-0.0201148617506,0.000120507984214,-0.0215532784483,-0.00150202424106,0.014509592692,-0.00371845111419,0.573819598914,0.818966459316,0.00239860777105,0.0,0.818929017387,-0.573759153184,-0.0116809897,0.0,-0.00819027330049,0.00866723720077,-0.999928896683,0.0,0.661473446526,0.260616577942,0.303548003097,1.0,-0.00346,-0.00454742857143,0.174
0.464877482627,0.545788243861,-0.123989234231,-1.35829464321,0.0793765133621,1.89504419849,0.158913040182,-0.00177642735358,-0.0178824449011,-0.000229891529511,-0.0290005340235,-2.91117854876e-06,0.0134457482207,-0.000600279797326,0.573869798244,0.818931365219,0.00237078579271,0.0,0.818893528706,-0.573809412474,-0.0117001581515,0.0,-0.00822140557296,0.00865595519536,-0.999928738926,0.0,0.661411425085,0.260538372377,0.303535909758,1.0,-0.0038,-0.00499428571429,0.191
0.464815700108,0.545446541025,-0.12398995371,-1.35887148287,0.0792687216539,1.89523926668,0.158837503361,-0.00209803847654,-0.019777100626,0.000116004799018,-0.0356328513739,-0.00177217431192,0.00911098361738,-0.00858182661925,0.573862579983,0.818936636751,0.00229590568712,0.0,0.818898438594,-0.573803108082,-0.011665647255,0.0,-0.0082361866815,0.0085747571039,-0.999929316887,0.0,0.661349166985,0.260428889328,0.303520025904,1.0,-0.00414,-0.00544114285714,0.208
0.464754696933,0.5450631751,-0.123992439679,-1.35953132376,0.079246888107,1.89545607678,0.15873357468,-0.00190816298735,-0.0266029135636,-0.000139940485574,-0.0392011771407,-0.000180064241747,0.0221068665394,-0.00309023870761,0.573860103254,0.818938487777,0.00225433632083,0.0,0.818899561171,-0.573800589437,-0.0117106437332,0.0,-0.00829691710143,0.00856651117764,-0.999928885498,0.0,0.66126859419,0.260324994341,0.303496207606,1.0,-0.00448,-0.005888,0.225
0.464692809342,0.544678946337,-0.123995656108,-1.36017958476,0.0792351821819,1.89567758915,0.158663267133,-0.00177674013599,-0.0268570436821,-0.00113057991768,-0.045473129553,-0.00238763853402,0.0187412796255,-0.0106101073839,0.573887377502,0.818919402876,0.00224420112848,0.0,0.818880078895,-0.573827624486,-0.0117482197029,0.0,-0.00833322090188,0.00858005178537,-0.999928467512,0.0,0.661186578177,0.260219065682,0.303488591614,1.0,-0.00482,-0.00633485714286,0.242
0.464624439331,0.544237746847,-0.123995644807,-1.36091001573,0.0792038030062,1.89593199885,0.158588910206,-0.00836447543286,-0.0246984499705,-0.000412296922993,-0.0427931711026,-0.000949368479383,0.0190113860166,-0.00271269804317,0.573915882911,0.818899522761,0.00220858895371,0.0,0.818859607303,-0.573856130464,-0.0117826973864,0.0,-0.0083815943275,0.0085709664746,-0.999928141123,0.0,0.66110533851,0.260109520901,0.303465545228,1.0,-0.00514,-0.00675542857143,0.258
0.464561811285,0.543734294296,-0.12400126501,-1.36170507675,0.0791712194573,1.89621753214,0.158457976799,-0.00579503819549,-0.0317489048234,-0.00114029215211,-0.0455261420083,-0.00422559539872,0.017703959918,-0.00939894642484,0.573899472184,0.818911018056,0.0022107093286,0.0,0.818870999829,-0.573839580302,-0.0117969750092,0.0,-0.0083922418781,0.00858072869498,-0.999927968091,0.0,0.661012026077,0.259991204181,0.303468285888,1.0,-0.00548,-0.00720228571429,0.275
0.464482765786,0.543220992446,-0.124002028575,-1.36253671286,0.0791102838783,1.89650561524,0.158377090295,-0.00879290680983,-0.0339777356166,0.000481117519857,-0.0461094797303,-0.00480804640563,0.0124866223109,-0.00167493952514,0.573928475683,0.818890777924,0.00217842418788,0.0,0.818850406777,-0.573868773863,-0.0118062952293,0.0,-0.00841809874153,0.0085599373621,-0.999927928946,0.0,0.660915684207,0.259856225584,0.303460539061,1.0,-0.00582,-0.00764914285714,0.292
0.464414653274,0.542680010899,-0.124004797353,-1.36342321893,0.079060388633,1.89681952508,0.158269660624,-0.000341519624855,-0.0323450936481,0.000824775556674,-0.052574800375,-0.000980368056729,0.0215487926514,-0.00235250516518,0.573934191837,0.818886841053,0.00215218315345,0.0,0.818846081111,-0.573874543953,-0.0118258256447,0.0,-0.00844909255059,0.00854971703381,-0.999927754977,0.0,0.660809459567,0.25972470719,0.30344852731,1.0,-0.00616,-0.008096,0.309
0.464339254229,0.542127484224,-0.124011173239,-1.364290082,0.0790194990212,1.89713211958,0.158142054752,-0.00115090337108,-0.0365643346148,-0.00200201768221,-0.054159947345,-0.00198067650572,0.0231269295801,-0.00870003178178,0.57393313732,0.81888757131,0.00215553717756,0.0,0.818846764045,-0.573873384291,-0.0118348095025,0.0,-0.00845453577135,0.00855760875045,-0.999927641461,0.0,0.660709887783,0.259590142596,0.303453982687,1.0,-0.00648,-0.00851657142857,0.325
0.464266095915,0.541494615694,-0.124013779728,-1.3652530199,0.0789565866349,1.8974848145,0.158014074499,-0.00513604336029,-0.0353136527403,-7.16107874939e-05,-0.0598330106389,-0.00558889120972,0.0182581208585,-0.00807178295175,0.573926691952,0.818892045719,0.0021717790646,0.0,0.818851492174,-0.573866918824,-0.0118211735651,0.0,-0.00843411522621,0.00856301643154,-0.999927767616,0.0,0.660597919117,0.259448060951,0.303473761527,1.0,-0.00682,-0.00896342857143,0.342
0.464178850754,0.540830485539,-0.124017081259,-1.36626290048,0.0788920027503,1.89786722434,0.157892921102,-0.00422618956371,-0.0459918103534,-0.00125321134157,-0.0597039389426,-0.00206554369883,0.0259050058796,-0.00488604594236,0.573940029435,0.818882623098,0.00219979601142,0.0,0.818842487157,-0.57388019955,-0.0118001988128,0.0,-0.00840072012279,0.00857405796837,-0.99992795412,0.0,0.660485609654,0.259292862224,0.303495806801,1.0,-0.00716,-0.00941028571429,0.359
0.464087208599,0.540134499215,-0.124017082667,-1.36733565052,0.0788387667305,1.89825533765,0.157757137073,-0.0036417319045,-0.0429670288787,-0.00105821041119,-0.0608579210178,-0.000843888733977,0.0234549612006,-0.00299173334469,0.57394901926,0.818876278542,0.00221599473398,0.0,0.818836229793,-0.573888999243,-0.0118064485335,0.0,-0.00839644729537,0.00859100173339,-0.999927844578,0.0,0.660360319775,0.259131858074,0.30351075197,1.0,-0.0075,-0.00985714285714,0.376
0.463993714884,0.539452092705,-0.124015050037,-1.36840902932,0.0787737040935,1.89866119958,0.157622928928,-0.00481532197306,-0.0482363001232,-0.0005175450685,-0.0746271109719,-0.00516595332556,0.0253028950048,-0.00505193279677,0.573956319469,0.818871129067,0.00222805371306,0.0,0.818831230491,-0.573896245025,-0.0118009668718,0.0,-0.00838496084323,0.00859780500977,-0.99992788249,0.0,0.660238540589,0.258969860027,0.303517151586,1.0,-0.00782,-0.0102777142857,0.392
0.463886078084,0.538657425132,-0.124015876769,-1.36964097157,0.078702523114,1.89913640976,0.157468408176,-0.00479947602759,-0.0416948383273,0.000178566096938,-0.0726754880699,-0.000951873332485,0.0173846353303,-0.0135858496202,0.573967665351,0.818863086882,0.00226074659518,0.0,0.818823604175,-0.5739074542,-0.0117849972963,0.0,-0.00835300076304,0.00861552593507,-0.999927997453,0.0,0.660101314754,0.258783244462,0.303533383041,1.0,-0.00818,-0.0107508571429,0.41
0.463774390317,0.537934846576,-0.124023700605,-1.37077853434,0.078636120923,1.89957274976,0.15731914267,-0.0114778458917,-0.0380600388072,0.000332051902718,-0.0737396591353,-0.00182411197342,0.0288475991503,-0.0104443645814,0.57398751204,0.818849130088,0.00227707664075,0.0,0.818809886797,-0.5739272641,-0.0117733472964,0.0,-0.00833387927828,0.00862241319763,-0.999928097638,0.0,0.659978410883,0.258598301494,0.30354034836,1.0,-0.0085,-0.0111714285714,0.426
0.463668915882,0.537126181886,-0.124032782045,-1.37204482021,0.0785599951429,1.90004173268,0.157171841501,-0.00334327904622,-0.043063482917,-0.00121020889092,-0.0727572413217,-0.00921642002072,0.0267117450723,-0.0127487841786,0.574009048264,0.818834014153,0.00228400499318,0.0,0.818794890176,-0.573948801621,-0.0117663860512,0.0,-0.00832397545597,0.008624309721,-0.999928163777,0.0,0.659833435154,0.258403238031,0.303549567985,1.0,-0.00884,-0.0116182857143,0.443
0.463556409102,0.536340558475,-0.12403608492,-1.37326500215,0.0784975409371,1.90051491982,0.157015972369,-0.00831354471932,-0.052165165613,9.28513852528e-05,-0.0792604873482,-0.000523959578059,0.0305818144265,-0.00941758234287,0.574031933962,0.818817855884,0.00232477480389,0.0,0.818779192405,-0.57397145846,-0.0117535466825,0.0,-0.00828981911355,0.00865055491953,-0.999928220823,0.0,0.659690043613,0.258203143984,0.303564493586,1.0,-0.00918,-0.0120651428571,0.46
0.463415054384,0.53530805448,-0.124042632451,-1.37489476506,0.0783888486083,1.90110185627,0.156823733567,-0.0108060705813,-0.0575860846482,0.000884172441187,-0.0864017686311,-0.00531721113291,0.034644851996,-0.0139228937013,0.574049661069,0.818805484974,0.0023046268062,0.0,0.81876664528,-0.573989348338,-0.0117539555761,0.0,-0.00830153188741,0.00863447201375,-0.999928262658,0.0,0.659508811503,0.257959868027,0.303568511386,1.0,-0.00956,-0.0125645714286,0.479
0.463306014358,0.534473981829,-0.124048850601,-1.37624952398,0.0783200741617,1.90159196177,0.156654508701,-0.00694520665638,-0.0540181803766,0.000240006145917,-0.0877360207958,-0.00804335956089,0.0343108731956,-0.00850593683475,0.574060625332,0.818797857666,0.00228333669641,0.0,0.81875862182,-0.574000267943,-0.0117795797125,0.0,-0.00833461922448,0.00863186069266,-0.99992800996,0.0,0.659347091001,0.257756612097,0.303554836615,1.0,-0.00988,-0.0129851428571,0.495
0.463193410062,0.533607977743,-0.124054441003,-1.37764920739,0.0782399495878,1.90210853155,0.156485524449,-0.0014323974834,-0.0571196731477,0.000145893557944,-0.086613441838,-0.00358770432676,0.0375052156005,-0.0115106386179,0.574073593341,0.818788806831,0.00226850989376,0.0,0.818749344351,-0.574013255986,-0.011791521449,0.0,-0.00835277184438,0.00862670816825,-0.999927902955,0.0,0.659182123022,0.257546434418,0.303544402349,1.0,-0.0102,-0.0134057142857,0.511
0.463058180601,0.53261908064,-0.12405527514,-1.3792402836,0.0781527417261,1.90271627709,0.156287713176,-0.0098121816208,-0.0558746044783,-0.000495324197253,-0.0928657952932,-0.00767635520034,0.0325153405371,-0.0052951348837,0.574086696231,0.818779599751,0.00227577319533,0.0,0.818740160396,-0.574026255692,-0.0117963736645,0.0,-0.00835243735175,0.00863557435712,-0.999927829219,0.0,0.658998790454,0.257308050542,0.303537105275,1.0,-0.01056,-0.0138788571429,0.529
0.462935691515,0.531707942935,-0.12405028915,-1.38069430069,0.0780604637722,1.90324605993,0.156104135508,-0.00842233227697,-0.0610427728413,-0.000551638151864,-0.0858718775216,-0.00978670383284,0.0273551329922,-0.0103580754711,0.574087664523,0.818778956976,0.0022627323071,0.0,0.818739330208,-0.57402725561,-0.0118053330462,0.0,-0.00836724935735,0.00863005016616,-0.999927753076,0.0,0.658825045519,0.257090628207,0.303533041246,1.0,-0.01088,-0.0142994285714,0.545
0.462804889586,0.530713924922,-0.124053125634,-1.3823094181,0.077973052366,1.90381581929,0.155899093101,-0.00717643135902,-0.0595468406249,0.00036004184937,-0.0942511915324,-0.00252126792294,0.0342584382087,-0.00751601791469,0.574089441151,0.818777838629,0.00221617451163,0.0,0.81873744622,-0.574029049122,-0.0118487055463,0.0,-0.0084294712636,0.00861684770649,-0.999927344335,0.0,0.658612580826,0.256834028507,0.30351001772,1.0,-0.01124,-0.0147725714286,0.563
0.462667500848,0.529684591197,-0.124052845708,-1.3839594164,0.0778571711016,1.90441526161,0.155676337302,-0.0117078567744,-0.05827135757,0.00375141382675,-0.0971777921606,-0.00472329063085,0.031446439625,-0.0161976158611,0.574081578991,0.818783405276,0.0021960896758,0.0,0.818742867422,-0.574021385343,-0.0118453837388,0.0,-0.00843836366109,0.00859841490496,-0.999927428007,0.0,0.658430013585,0.256597958773,0.303505954915,1.0,-0.01156,-0.0151931428571,0.579
0.462530454905,0.528679829203,-0.124048187898,-1.3855214494,0.0777680749647,1.90499607995,0.155470030049,-0.00540025989821,-0.0635785906809,-0.00113869477085,-0.0998209236948,-0.000734768880635,0.0357749470551,-0.0107446715847,0.574082349875,0.818782800581,0.00221989557452,0.0,0.81874248502,-0.574021973172,-0.0118433289256,0.0,-0.00842300735695,0.00861673481794,-0.999927399779,0.0,0.658246087366,0.256363213339,0.303520246608,1.0,-0.01188,-0.0156137142857,0.595
0.462395828482,0.527567915986,-0.124055292518,-1.3872454575,0.077675129888,1.90566041364,0.155221503816,-0.00538370878442,-0.0692371523811,0.00120763081373,-0.101840440874,-0.000999249435727,0.0316041001642,-0.00861601113158,0.574071058367,0.818790612332,0.00225831869696,0.0,0.818750780153,-0.574010516057,-0.0118251577546,0.0,-0.00838619093832,0.008637647324,-0.999927528799,0.0,0.658034307825,0.25608970707,0.303533884734,1.0,-0.01224,-0.0160868571429,0.613
0.462243790215,0.526487052722,-0.124058860942,-1.38892441002,0.07754866766,1.90630603134,0.154998828045,-0.0101103862644,-0.0639468915685,-0.000390212091101,-0.108459635504,-0.00752632568061,0.040442569836,-0.011995703815,0.57406395255,0.81879549922,0.00229254026672,0.0,0.818756320122,-0.574003494486,-0.0117823375499,0.0,-0.00833155924011,0.00864101346296,-0.999927956408,0.0,0.657856024416,0.255846603934,0.303557811162,1.0,-0.01254,-0.0164811428571,0.628
0.462105550799,0.52538704128,-0.124064763929,-1.39065557473,0.0774395071152,1.90692850262,0.154758467473,-0.00534588311168,-0.065625311942,-0.000532243378501,-0.11024488465,-0.00396190285048,0.037261498889,-0.0158975469963,0.57404826441,0.818806528397,0.00228168429115,0.0,0.818767220553,-0.573987862559,-0.0117863940337,0.0,-0.00834127788715,0.00863429358081,-0.999927933432,0.0,0.657645658558,0.255585796526,0.303561812206,1.0,-0.01286,-0.0169017142857,0.644
0.461943666924,0.524204015888,-0.124070541843,-1.39252288486,0.0773268640197,1.90759524212,0.15450757096,-0.0116537793768,-0.071488440454,-0.00101924202723,-0.113251738754,-0.00248145515292,0.0398918947491,-0.014619130394,0.574049371748,0.818805795535,0.00226603046858,0.0,0.818766243316,-0.573988987563,-0.0117994857565,0.0,-0.00836097176189,0.00862900277449,-0.999927814626,0.0,0.657419985621,0.255296918093,0.303562951277,1.0,-0.0132,-0.0173485714286,0.661
0.461787299734,0.523007555026,-0.124072588664,-1.39442858445,0.0772075555439,1.90830967065,0.154252599127,-0.0106773097066,-0.0737029131153,0.000436952445123,-0.113513722826,-0.00415507384236,0.0414592249169,-0.0210503506489,0.574040215065,0.818812213805,0.00226647585271,0.0,0.818772689808,-0.573979853459,-0.0117964888328,0.0,-0.00835835858284,0.00862755362407,-0.999927848977,0.0,0.657192655916,0.255011639386,0.303558969076,1.0,-0.01354,-0.0177954285714,0.678
0.461609236472,0.521629351135,-0.124077664278,-1.39661981255,0.0770757989085,1.90916942862,0.153952360606,-0.0136332042585,-0.0742965589865,0.000375116071005,-0.114508612355,-0.007825134167,0.0388070373715,-0.0121351226015,0.574025839835,0.818822190916,0.00230255664793,0.0,0.818783178963,-0.573965386779,-0.0117723203982,0.0,-0.00831800951104,0.00864307716133,-0.999928051379,0.0,0.656938089654,0.254686687305,0.303559158518,1.0,-0.01392,-0.0182948571429,0.697
0.461443089741,0.52044785768,-0.1240896056,-1.39850869333,0.0769425780999,1.90988227882,0.153698888786,-0.0055635988205,-0.0786321895541,-0.000787663942525,-0.117089434434,-0.0129655014382,0.0450679150313,-0.0159133182446,0.574027659978,0.818820943408,0.00229240445423,0.0,0.818782003303,-0.573967456737,-0.0117531516657,0.0,-0.00830812113757,0.00862377969391,-0.999928300203,0.0,0.656718165028,0.254388765292,0.303552138963,1.0,-0.01424,-0.0187154285714,0.713
0.461273123932,0.519133436628,-0.124093541345,-1.40057741606,0.076826464774,1.91061046459,0.153414048584,-0.0126287794807,-0.0728509400424,-0.00416093561373,-0.121432420148,-0.00737143401221,0.034774334254,-0.00763160720084,0.574014976199,0.818829881897,0.00227563474222,0.0,0.818790570803,-0.573954679598,-0.0117802305958,0.0,-0.00834005419,0.00862546312147,-0.99992801985,0.0,0.656459870596,0.254077258189,0.303553611212,1.0,-0.01458,-0.0191622857143,0.73
0.461113986621,0.517919689475,-0.124093936347,-1.40243900735,0.0766955818633,1.91128417389,0.153173168443,-0.00579383724992,-0.0791957792165,0.000607154187446,-0.12797725279,-0.0119132422828,0.0485351391396,-0.00830995928636,0.574011503897,0.818832279883,0.00228860581136,0.0,0.818793245963,-0.573951270888,-0.0117603534258,0.0,-0.00831636890975,0.00862463918834,-0.999928224228,0.0,0.656233596203,0.253792173756,0.303577728019,1.0,-0.01488,-0.0195565714286,0.745
0.46094118334,0.516581879968,-0.12410535461,-1.40456428144,0.076567689383,1.91206154204,0.152865954336,-0.00788508184226,-0.0744545996061,-0.00093031950708,-0.124208986512,-0.0133230977887,0.0440645790203,-0.0244052036237,0.573987521081,0.81884912184,0.00227776326027,0.0,0.81880993445,-0.57392731914,-0.0117673485395,0.0,-0.00832857280715,0.00861953235641,-0.999928166688,0.0,0.655973988645,0.253469557144,0.303572444203,1.0,-0.01522,-0.0200034285714,0.762
0.460741438813,0.515043341028,-0.124110782058,-1.40699845328,0.0764121453982,1.91297571033,0.152536256294,-0.0040624488775,-0.0771371752959,-1.01691508604e-06,-0.129383916077,-0.00796625457363,0.0475428039553,-0.0148975607174,0.573971479154,0.81886034165,0.00228667716018,0.0,0.818821333245,-0.573911310841,-0.0117549314378,0.0,-0.00831345734654,0.00861954137857,-0.999928292396,0.0,0.655679835325,0.253103604683,0.303572104302,1.0,-0.0156,-0.0205028571429,0.781
0.460557127853,0.513705307722,-0.124113219857,-1.40912569378,0.0762860835609,1.9137269422,0.15225074856,-0.011300005665,-0.0837376114231,0.000150407171794,-0.12984382573,-0.0115337287267,0.0533391324275,-0.0155395423266,0.573968047305,0.818862831264,0.00225635729698,0.0,0.818823318767,-0.573907881041,-0.011784041047,0.0,-0.00835473283481,0.00861138679525,-0.999928018638,0.0,0.655413638159,0.252777120071,0.303562619747,1.0,-0.01592,-0.0209234285714,0.797
0.460367896953,0.512322431076,-0.124118901908,-1.41140351599,0.0761460755476,1.91452146346,0.151920530666,-0.0109517157136,-0.0870375672598,-0.000594892997104,-0.136292204971,-0.0118031975354,0.0450386074905,-0.0232025100392,0.573938109859,0.818884050637,0.00216900119909,0.0,0.818843315952,-0.573878199103,-0.0118399077458,0.0,-0.00845093181871,0.00857161143679,-0.99992755199,0.0,0.655123345034,0.252429013704,0.303516381927,1.0,-0.01626,-0.0213702857143,0.814
0.460163075556,0.510875507278,-0.12411642776,-1.41369775494,0.0760145270716,1.91538715074,0.151597712206,-0.0106549600411,-0.0857292855489,-0.00100200129411,-0.133156977593,-0.00866390290576,0.0538269300798,-0.0196022742513,0.573924385931,0.818893617764,0.00218836011052,0.0,0.818853026561,-0.573864290379,-0.0118424668574,0.0,-0.00844206134204,0.00858879117959,-0.999927479504,0.0,0.654845792946,0.252080517678,0.303512610102,1.0,-0.0166,-0.0218171428571,0.831
0.459971603489,0.509480729879,-0.124124868088,-1.41591116348,0.0758623161941,1.91622124092,0.151288046786,-0.014455442643,-0.0895197498419,-0.00111363830807,-0.141089522235,-0.00949224590677,0.043360049762,-0.0230514928737,0.573907821705,0.818905225888,0.00218862969405,0.0,0.818864804683,-0.573847896585,-0.0118224421438,0.0,-0.00842568132847,0.00857734898547,-0.999927715877,0.0,0.654579167618,0.251737939779,0.303507909179,1.0,-0.01692,-0.0222377142857,0.847
0.459751855695,0.507884748595,-0.124125559039,-1.41842745038,0.0757068179709,1.91711457263,0.150934960074,-0.0185796239779,-0.0953603384673,0.000411598994998,-0.141095840783,-0.00880781153821,0.0432674583647,-0.0155329630203,0.57388758156,0.818919471298,0.00216567827749,0.0,0.818878665171,-0.573827661605,-0.0118445517247,0.0,-0.00845717076113,0.00857103389996,-0.999927504192,0.0,0.654261877635,0.251351696234,0.303504230184,1.0,-0.01728,-0.0227108571429,0.865
0.459534542384,0.506346266341,-0.124130886208,-1.42085961318,0.0755560454478,1.9180042851,0.150609075614,-0.0129526686466,-0.0903806247075,-7.89056711389e-05,-0.148439733827,-0.0111614800435,0.0468124288534,-0.0190332382219,0.573887596065,0.818919477318,0.00215954953816,0.0,0.818878570651,-0.573827679332,-0.0118502262173,0.0,-0.00846533474398,0.00856927166074,-0.999927450214,0.0,0.653961604002,0.250974135697,0.303499662884,1.0,-0.01762,-0.0231577142857,0.882
0.45932120586,0.504845966881,-0.124131977048,-1.42316360787,0.0754113759812,1.91890630428,0.150289932973,-0.00997626982131,-0.0989078210792,-0.00199858826467,-0.149385536946,-0.0107323436322,0.0650077891541,-0.0183614978573,0.573881754762,0.818923357091,0.00223912083209,0.0,0.81888355342,-0.573821596499,-0.0118003487583,0.0,-0.00837888664888,0.00860574976308,-0.999927865063,0.0,0.653690264041,0.25061817703,0.303529752529,1.0,-0.01794,-0.0235782857143,0.898
0.45909472221,0.503182939412,-0.124138350254,-1.42564178697,0.0752588203486,1.91983952589,0.149943886313,-0.0165345075445,-0.102521461548,-2.74107952507e-05,-0.145416763657,-0.00727107060333,0.0571485443472,-0.0273014652245,0.573874559098,0.818928121108,0.00233875605761,0.0,0.818889635919,-0.57381404721,-0.0117452250287,0.0,-0.00827664333696,0.00865563557921,-0.999928286002,0.0,0.653391535141,0.250232980271,0.30359284226,1.0,-0.01828,-0.0240251428571,0.915
0.458863385089,0.501480650119,-0.124146922328,-1.42816444604,0.0750950487185,1.92075902022,0.149596011325,-0.0120147525396,-0.103177313926,-0.00224370572618,-0.151194622697,-0.0119525367234,0.0557936792947,-0.0234455987694,0.573869859796,0.818931181843,0.00241874421235,0.0,0.818893799152,-0.57380912045,-0.0116955504019,0.0,-0.0081901111089,0.00869258586584,-0.999928677972,0.0,0.653081604615,0.249835989947,0.303660360038,1.0,-0.01862,-0.024472,0.932
0.458636878503,0.499866067613,-0.124145149077,-1.43061826026,0.0749407627488,1.92161213923,0.1492580463,-0.0130164267263,-0.0962395943992,0.000211494712138,-0.160708023512,-0.0148957704028,0.0547119233258,-0.0143534070621,0.573860381836,0.818937783251,0.00243232895952,0.0,0.818900483459,-0.573799494953,-0.0116997727795,0.0,-0.0081858744595,0.00870603905376,-0.999928595622,0.0,0.652767537642,0.249452417146,0.303692791597,1.0,-0.01894,-0.0248925714286,0.948
0.458386946231,0.498188892316,-0.124147959458,-1.43323639444,0.0747761574533,1.92260212255,0.148871678381,-0.0114245893487,-0.100652026759,-0.000980759344159,-0.152675673698,-0.0070254928817,0.0623344424014,-0.0217320696273,0.573839440506,0.81895234349,0.00247032657267,0.0,0.818915559866,-0.573778443412,-0.0116769253688,0.0,-0.00814558208761,0.00872383714965,-0.999928769542,0.0,0.652449162242,0.249039816504,0.303702155658,1.0,-0.01928,-0.0253394285714,0.965
0.458156130071,0.496715919436,-0.124145648928,-1.43558851135,0.0746306760872,1.92344110435,0.148518103021,-0.0176529576738,-0.0927324305134,-8.24112841698e-06,-0.157810931623,-0.0101612370559,0.0506167797083,-0.0257326688472,0.573816998146,0.81896816859,0.00243687825501,0.0,0.81893084938,-0.573756016619,-0.0117065891054,0.0,-0.00818930794903,0.0087132423551,-0.999928504766,0.0,0.652151475921,0.248664596446,0.303682007617,1.0,-0.01958,-0.0257337142857,0.98
0.457885612007,0.495040490087,-0.124145488598,-1.43831320688,0.074462171629,1.9243790795,0.148134018801,-0.0190529630948,-0.0977323760882,0.000642961191785,-0.159438160242,-0.00980356229196,0.0503487369499,-0.0226964242383,0.573815598278,0.818969423187,0.00234306603753,0.0,0.818930722432,-0.573754793571,-0.0117752117732,0.0,-0.00829935281142,0.00867577598691,-0.999927923229,0.0,0.651799159646,0.24822392682,0.303633752731,1.0,-0.01992,-0.0261805714286,0.997
0.457604228075,0.49333532785,-0.124146894194,-1.44108208917,0.0742835361794,1.92538355314,0.147732127379,-0.0190965404831,-0.100501196049,0.00139198517384,-0.166925586306,-0.0079948754753,0.0604985251686,-0.0280926512842,0.573808762882,0.81897437088,0.00228700278269,0.0,0.81893491751,-0.573748148283,-0.0118072065493,0.0,-0.00835779685739,0.00864815152207,-0.999927675738,0.0,0.651452473731,0.247773369718,0.303590340366,1.0,-0.0212354285714,-0.0279094204082,1.014
0.457319698382,0.49145094473,-0.12415222936,-1.44407855642,0.0740957467508,1.92648566487,0.147320322263,-0.0161481796903,-0.111419467712,-0.000455630026063,-0.181707414112,-0.00278534986999,0.0703216641033,-0.0301356342479,0.573807661298,0.818975176855,0.00227473765438,0.0,0.818935535614,-0.573747064867,-0.0118169778855,0.0,-0.00837284870443,0.00864370236154,-0.999927588285,0.0,0.651075436064,0.247299107538,0.303571147237,1.0,-0.0228771428571,-0.0300671020408,1.031
0.456995980067,0.489483970853,-0.124164941089,-1.44730036174,0.073891522531,1.92760927651,0.14685564208,-0.0161594439678,-0.11471499523,-0.00157244361959,-0.191918466042,-0.01342699721,0.0705334824931,-0.0274810944981,0.573806441337,0.818976347533,0.00215799986368,0.0,0.818935099597,-0.573746216102,-0.0118881898454,0.0,-0.00849816565828,0.00858894710628,-0.99992700292,0.0,0.650660506346,0.246768538797,0.303503529277,1.0,-0.0245188571429,-0.0322247836735,1.048
0.456667900237,0.487414543995,-0.124176923869,-1.45049172452,0.0736986933346,1.92882049646,0.146389135648,-0.0180587290367,-0.132212764275,0.00108316188263,-0.206332053984,-0.0100129177283,0.0816624696731,-0.030443352224,0.573808222765,0.818974898569,0.00223291353463,0.0,0.818934622271,-0.573747695901,-0.0118495905563,0.0,-0.00842355040775,0.00862816881864,-0.999927296608,0.0,0.650271768706,0.246248244154,0.303528008244,1.0,-0.026064,-0.0342555428571,1.064
0.456288455285,0.485092665773,-0.124202905231,-1.45401603089,0.0734817950351,1.9301672589,0.14586150048,-0.0238108743361,-0.137454791633,-0.00108934664564,-0.20597935165,-0.0140879816933,0.0766121349196,-0.032248548977,0.573821232437,0.818965454971,0.00235024890267,0.0,0.818926810819,-0.573760361425,-0.0117759535069,0.0,-0.00829577918109,0.00868214115105,-0.999927897637,0.0,0.649850455134,0.245655740159,0.303580351736,1.0,-0.0277057142857,-0.0364132244898,1.081
0.455887181697,0.48263872405,-0.12424441136,-1.45780908263,0.0732380305229,1.93145089785,0.145293971183,-0.0203176809874,-0.144396255197,-0.00226781868355,-0.230941079582,-0.0149561509748,0.076061222355,-0.0389747236498,0.573834490335,0.81895632064,0.0022955363619,0.0,0.818916965025,-0.573773826014,-0.0118045701659,0.0,-0.0083504694411,0.00865388978957,-0.999927687311,0.0,0.649361919881,0.245001967583,0.303590177024,1.0,-0.0293474285714,-0.0385709061224,1.098
0.455461573639,0.480049747528,-0.124270820155,-1.46185886899,0.0729921069936,1.93291034941,0.144690513832,-0.0256678854641,-0.152195002262,0.000208846966945,-0.238538375983,-0.0177853536667,0.0862579251666,-0.038236740461,0.573839145349,0.818953064671,0.00229347599239,0.0,0.818913598634,-0.573778401743,-0.0118156915694,0.0,-0.0083607108022,0.00865863173567,-0.999927560682,0.0,0.648849057312,0.244324331872,0.303584885991,1.0,-0.0309891428571,-0.0407285877551,1.115
0.455021477399,0.477467607284,-0.124291474811,-1.46576436447,0.0727551111142,1.93435295912,0.144121630025,-0.0270958313595,-0.162940324555,-0.00478378460536,-0.247618113622,-0.00955778004125,0.0873244290189,-0.0397648083764,0.573874140265,0.818928250029,0.00239569195775,0.0,0.818890081427,-0.573812970748,-0.0117667346253,0.0,-0.00826159133724,0.00871460088226,-0.999927898321,0.0,0.648367162478,0.243658220158,0.303640105607,1.0,-0.0325342857143,-0.0427593469388,1.131
0.454509539039,0.474454976548,-0.124308439998,-1.4703972638,0.0724642953119,1.93605037226,0.143457988732,-0.0269129924888,-0.178005048256,0.000959108888243,-0.25699871682,-0.0110010201363,0.093675216459,-0.0394622155889,0.57390677785,0.818905192922,0.00245809768177,0.0,0.818867810627,-0.573845346574,-0.0117377099951,0.0,-0.00820166165929,0.00874937684221,-0.99992808799,0.0,0.647784215243,0.242876458727,0.303667392153,1.0,-0.0342725714286,-0.0450439510204,1.149
0.454035509679,0.471680542701,-0.124315560762,-1.47472333816,0.0721949348367,1.93753905756,0.142822187114,-0.0270000733463,-0.173899537954,-0.00200751250727,-0.279167692604,-0.0163256020685,0.0951614329473,-0.0372617606428,0.57391311919,0.818900894586,0.00240901845546,0.0,0.81886263066,-0.573851611188,-0.0117926819504,0.0,-0.0082747779918,0.00874079835895,-0.999927560623,0.0,0.647213060907,0.242148293241,0.303655718367,1.0,-0.0358177142857,-0.0470747102041,1.165
0.453524328555,0.468560337069,-0.12430559466,-1.4794047791,0.0719015677651,1.93933108999,0.142072342261,-0.0284203730799,-0.188571890294,0.00142717825209,-0.274925596042,-0.0187222541931,0.108641422031,-0.0438573594675,0.57385380786,0.818941849953,0.00260777695392,0.0,0.818906147887,-0.573791557531,-0.011692577172,0.0,-0.00807937593288,0.00884552481749,-0.999928237613,0.0,0.6466264379,0.241385376889,0.303737246772,1.0,-0.0374594285714,-0.0492323918367,1.182
0.45297250201,0.465321797347,-0.124305876218,-1.48434492933,0.0715656781616,1.94108731409,0.141298892891,-0.0258299449306,-0.188353516811,0.000220305907535,-0.29635954653,-0.0233276805489,0.103682008405,-0.0474631536239,0.573813394379,0.818970046699,0.0026453623409,0.0,0.818934850873,-0.573751036776,-0.0116706779946,0.0,-0.00804031111741,0.00886334141572,-0.999928394724,0.0,0.645981428856,0.24055303654,0.303772223671,1.0,-0.0391011428571,-0.0513900734694,1.199
0.452425078368,0.462190884927,-0.1243145203,-1.48926353219,0.0712335893797,1.94278792113,0.140570271319,-0.0308757212252,-0.189263384913,-0.000672171787693,-0.312275167961,-0.0233466988519,0.113490028939,-0.0542371267315,0.573801568225,0.818978647164,0.00254611346301,0.0,0.81894202199,-0.573739413163,-0.0117387095799,0.0,-0.00815310381958,0.00882097910467,-0.99992785601,0.0,0.645277632513,0.239668387768,0.303727045537,1.0,-0.0407428571429,-0.053547755102,1.216
0.451791201551,0.45855206657,-0.124320929924,-1.49492750293,0.0708520257771,1.94476511747,0.139719006664,-0.0324209327633,-0.206208668822,-0.00235419554748,-0.315947140972,-0.0171208986506,0.117635978448,-0.0530074274437,0.573795075117,0.818983300777,0.0025123140575,0.0,0.81894622472,-0.573733031993,-0.0117573771735,0.0,-0.0081878556461,0.00880394473436,-0.999927722176,0.0,0.644566473489,0.23875776251,0.303717184633,1.0,-0.0423845714286,-0.0557054367347,1.233
0.451167113279,0.455271872452,-0.124338331228,-1.50016897185,0.0704997715368,1.94661481624,0.138902190509,-0.041771795893,-0.205239807773,-0.00252387215371,-0.323300647777,-0.026086110638,0.112595132273,-0.0453754105068,0.573794689803,0.818983893149,0.00240491539553,0.0,0.818945380717,-0.573733006358,-0.0118172635534,0.0,-0.00829852894378,0.00875034590037,-0.999927280288,0.0,0.643873413098,0.237839899741,0.303638956259,1.0,-0.0439297142857,-0.0577361959184,1.249
0.450487272224,0.451517262647,-0.124389962215,-1.5058316894,0.0701129839582,1.94866229414,0.138004678405,-0.0395091484474,-0.230502486795,-0.00387644144352,-0.33480211794,-0.022323483282,0.127297604179,-0.0574062227805,0.573806324774,0.81897544921,0.00250242730292,0.0,0.818938481548,-0.573744571061,-0.0117336064224,0.0,-0.00817393888479,0.00878232068013,-0.999928026193,0.0,0.643143350763,0.236831153339,0.303700628654,1.0,-0.0455714285714,-0.059893877551,1.266
0.449695160637,0.447179073338,-0.124430672763,-1.51239675065,0.0696687107385,1.9509491739,0.13703430219,-0.0439894797586,-0.230768674873,-0.000118904677431,-0.352270625559,-0.0217850641912,0.116021517318,-0.0536064192621,0.57386414782,0.818934818736,0.00253956888355,0.0,0.818898389676,-0.573802312712,-0.011708125978,0.0,-0.00813113807646,0.00879869200823,-0.999928231231,0.0,0.642268392655,0.235666646509,0.303749784162,1.0,-0.0474062857143,-0.0623054040816,1.285
0.448964333074,0.443211268,-0.124443648928,-1.5184984906,0.0692511199633,1.95301785193,0.136093165302,-0.0440568881562,-0.242727756261,-3.82186461956e-05,-0.357958658401,-0.0241542574407,0.124355878322,-0.0588523702039,0.573858408797,0.818939033296,0.00247654979804,0.0,0.818901648512,-0.573796656888,-0.0117572747624,0.0,-0.00820761325536,0.00877523064956,-0.9999278126,0.0,0.641428668225,0.23459862643,0.303742113514,1.0,-0.049048,-0.0644630857143,1.302
0.448241601968,0.439433117417,-0.124452631159,-1.52434791007,0.068840503546,1.95511070878,0.135128976451,-0.045508686496,-0.246855655332,-0.00258319813838,-0.368858695735,-0.0252881288989,0.137073975821,-0.0616632924125,0.57381259172,0.818971134056,0.00247751264926,0.0,0.818933852909,-0.57375093949,-0.0117452499222,0.0,-0.00819770326962,0.00876866010162,-0.999927951535,0.0,0.640643734361,0.23356890698,0.303723306227,1.0,-0.0505931428571,-0.066493844898,1.318
0.447434592396,0.435268540383,-0.12445653742,-1.53067838836,0.0684236545867,1.95737671518,0.134098631297,-0.0429930494488,-0.255458598314,-0.00375962028874,-0.365569481743,-0.0241024786943,0.134294385155,-0.0609277055841,0.573795241068,0.818983029553,0.00256232971207,0.0,0.818946713912,-0.573733135221,-0.0117182004982,0.0,-0.00812707035706,0.00882242903653,-0.999928055149,0.0,0.63979270013,0.232448705526,0.303750386746,1.0,-0.0522348571429,-0.0686515265306,1.335
0.446626496644,0.431245115268,-0.124477704621,-1.53679241661,0.06797614401,1.95958400021,0.133121068862,-0.0495610339466,-0.24427295402,-0.00253182308059,-0.392468902765,-0.0201375804018,0.130589627853,-0.0615210807269,0.573812340501,0.818970828341,0.00263194155435,0.0,0.81893574636,-0.573750347115,-0.0116417103594,0.0,-0.00802429828856,0.00883571820492,-0.999928767823,0.0,0.638980305841,0.231333902208,0.30377547205,1.0,-0.05378,-0.0706822857143,1.351
0.44569988679,0.426585840873,-0.124525887842,-1.54404043176,0.0674420921242,1.96189356512,0.131976983874,-0.0525814215129,-0.261611137816,-0.00349218492349,-0.4007568492,-0.0304290652207,0.134893772549,-0.0606401978405,0.573827799064,0.818960807382,0.00236640955568,0.0,0.818922215808,-0.573766701078,-0.011786606416,0.0,-0.00829516141018,0.0087015553069,-0.999927734005,0.0,0.637997264368,0.230071653821,0.303694471258,1.0,-0.0554217142857,-0.0728399673469,1.368
0.444851985722,0.422332807708,-0.124566418648,-1.55051404763,0.0669808317503,1.96410497266,0.130885639165,-0.0534687529601,-0.265642689529,-0.00291498432909,-0.399331646625,-0.0275690152052,0.13498061929,-0.0749965945026,0.573805079526,0.818976796952,0.00234172253281,0.0,0.818937982989,-0.573744181171,-0.0117873445261,0.0,-0.00831017198398,0.0086815308373,-0.999927783424,0.0,0.637041464647,0.228810781757,0.303702009259,1.0,-0.0570634285714,-0.0749976489796,1.385
0.4439482299,0.417957281623,-0.124576156851,-1.55705634287,0.0665330431922,1.96644595802,0.129854023297,-0.0540421998788,-0.276117469474,-0.00143352553005,-0.407520202256,-0.0380430834906,0.158338413211,-0.0709983700724,0.573856889128,0.818940079433,0.00248274027806,0.0,0.818903090258,-0.573795452113,-0.0117155794789,0.0,-0.0081699298052,0.00875635826714,-0.999928286647,0.0,0.636150620392,0.22761037083,0.303760384718,1.0,-0.0586085714286,-0.0770284081633,1.401
0.442898204719,0.412955803489,-0.124594556319,-1.56452890587,0.066024479113,1.96916344818,0.128566995953,-0.0558267978074,-0.276432924075,-0.00141617840874,-0.424746707348,-0.0254699702352,0.151756975481,-0.0807214654772,0.573844144014,0.818948376086,0.00268376367363,0.0,0.818914042827,-0.573782053515,-0.0116057066287,0.0,-0.00796473251092,0.00885780908628,-0.99992904861,0.0,0.635137889681,0.226229141391,0.30382788123,1.0,-0.0603468571429,-0.0793130122449,1.419
0.441883441376,0.408112568996,-0.124623957225,-1.5719532653,0.0654863818536,1.97150494989,0.127362597269,-0.0570915405677,-0.288742295976,-0.00124895069998,-0.443347917149,-0.033069210871,0.145085072035,-0.07506786887,0.573860478357,0.818937603694,0.00246972434064,0.0,0.818900203854,-0.573798830093,-0.0117518344357,0.0,-0.00820705220566,0.00876653987992,-0.999927893437,0.0,0.634043512257,0.224842062351,0.303773634917,1.0,-0.0619885714286,-0.0814706938775,1.436
0.440904251512,0.403510091518,-0.124651416546,-1.57902867442,0.065001745707,1.97389867318,0.126213114593,-0.0592392857613,-0.287350690817,-0.000931621816453,-0.442563484296,-0.0319547114265,0.152523594502,-0.0746509095312,0.573890363169,0.818916869517,0.00239974635455,0.0,0.818878286778,-0.5738286841,-0.0118211526406,0.0,-0.00830365789286,0.00874931421692,-0.999927246737,0.0,0.633024875955,0.223529380397,0.303722010862,1.0,-0.0635337142857,-0.0835014530612,1.452
0.439808254259,0.398408391104,-0.124666719936,-1.58645275635,0.0644717335698,1.97663261908,0.124908683144,-0.0661474646024,-0.304435144405,-0.00171392179819,-0.441274814309,-0.0336655630831,0.167036580698,-0.0759903223716,0.573876798614,0.818925337142,0.00273113538627,0.0,0.818891369684,-0.573814265963,-0.0116129124407,0.0,-0.00794309671798,0.00890105558419,-0.99992883668,0.0,0.632011734106,0.222132979564,0.303862765707,1.0,-0.0651754285714,-0.0856591346939,1.469
0.438664332253,0.393251676691,-0.124671270146,-1.5941991423,0.0638744368474,1.97921668094,0.123608867172,-0.073227835723,-0.302068321195,9.44473990802e-05,-0.46857560888,-0.0319765021884,0.153701420657,-0.0764868540316,0.573883865904,0.818920494895,0.0026978504885,0.0,0.81888620415,-0.573821566456,-0.0116164290528,0.0,-0.0079650003864,0.008875884647,-0.999928886192,0.0,0.63088498104,0.220660246273,0.30386831588,1.0,-0.0668171428571,-0.0878168163265,1.486
0.43751264654,0.388024387844,-0.124690382138,-1.60218123084,0.0632824380052,1.98173937553,0.122237039792,-0.0669092060545,-0.31127189739,-7.91526401615e-05,-0.475315610364,-0.0289505805285,0.152892247026,-0.0757481133401,0.573855251419,0.818941204033,0.0024903127604,0.0,0.818903888455,-0.573793331664,-0.0117635416787,0.0,-0.00820488209979,0.00879006620659,-0.99992770471,0.0,0.629677866733,0.219148472574,0.303798161338,1.0,-0.0684588571429,-0.0899744979592,1.503
0.436324107787,0.382644412591,-0.124691362294,-1.61011980752,0.0627074994699,1.98443536799,0.120783789126,-0.0722382943005,-0.33098768979,-0.000184909173348,-0.45530436648,-0.0334451582564,0.163579757758,-0.0801245366905,0.573775922979,0.818996439497,0.00260176899156,0.0,0.818960438592,-0.573713462519,-0.0117221946133,0.0,-0.00810792185719,0.00885682942945,-0.999927906489,0.0,0.628513436639,0.21764753156,0.303857423726,1.0,-0.0701005714286,-0.0921321795918,1.52
0.435066610095,0.377247947334,-0.124702248341,-1.61814218798,0.0621233740015,1.9872403754,0.119382888511,-0.0763755925354,-0.310404249017,-0.00142084237204,-0.48428527185,-0.0401125425309,0.166937754637,-0.0839269450382,0.5737993073,0.818979607363,0.00273944648426,0.0,0.818945434854,-0.573736405628,-0.0116472524307,0.0,-0.00796729543841,0.00892681443786,-0.999928414531,0.0,0.627354634938,0.216096846082,0.303890611754,1.0,-0.0717422857143,-0.0942898612245,1.537
0.433834713881,0.372056703789,-0.124741096017,-1.62602496217,0.0614864808494,1.98973080716,0.117983941602,-0.0745657317068,-0.325755851438,-0.00624860401303,-0.499304308156,-0.0390043442876,0.154150774808,-0.0806502025308,0.573794632246,0.818983555127,0.0025304818595,0.0,0.818946769273,-0.573732580877,-0.0117414496184,0.0,-0.00816439145256,0.00880968032301,-0.999927863521,0.0,0.626155566,0.214535644281,0.303820345466,1.0,-0.0732874285714,-0.0963206204082,1.553
0.432497820571,0.366416209614,-0.124812460087,-1.63442118582,0.0608450037889,1.99244847198,0.116556816044,-0.0788397002472,-0.343667180342,-0.00415331760371,-0.483830722337,-0.0406382779002,0.15960864807,-0.0911096593734,0.573891398582,0.818915931309,0.00247123093634,0.0,0.81887843037,-0.573829611945,-0.0117660371767,0.0,-0.00821748801524,0.00877623421103,-0.99992772269,0.0,0.624891506569,0.212854399375,0.303817544513,1.0,-0.0749291428571,-0.0984783020408,1.57
0.431107142146,0.360659423347,-0.124821450929,-1.64276585398,0.0601978359754,1.99536638252,0.114967947206,-0.0845237086732,-0.340848992514,0.00180982837339,-0.495689131644,-0.0310313037388,0.169662243644,-0.0883943005311,0.573843460173,0.818948729214,0.00272195449782,0.0,0.818914826657,-0.573781168768,-0.0115941343151,0.0,-0.00793334807211,0.00888243806327,-0.999929079626,0.0,0.623671091342,0.211199095659,0.303922967654,1.0,-0.0765708571429,-0.100635983673,1.587
0.429737394095,0.355228273428,-0.124843351429,-1.65092036417,0.0596005081966,1.99791693097,0.113452621438,-0.0840230851989,-0.336006701589,6.33688211132e-05,-0.51005610807,-0.0366379237333,0.159268025573,-0.097362919338,0.573851109099,0.818943824423,0.0025814581723,0.0,0.818907550915,-0.573788702769,-0.0117343313168,0.0,-0.0081287031324,0.00884790497992,-0.999927816776,0.0,0.622403258882,0.2095564036,0.303865058211,1.0,-0.078116,-0.102666742857,1.603
0.428155488369,0.349024807936,-0.124893759616,-1.6602243444,0.0588905307515,2.0008820564,0.111741850692,-0.0921976848989,-0.348999728662,-0.000176393378462,-0.510769466708,-0.0438949840355,0.17274136229,-0.0971236550387,0.573893820486,0.818914293585,0.00245142230048,0.0,0.818876074463,-0.573831617439,-0.0118320074614,0.0,-0.00828285587884,0.00879789642306,-0.999926992993,0.0,0.62096314247,0.207659773054,0.303799644036,1.0,-0.0798542857143,-0.104951346939,1.621
0.426801133444,0.343653691334,-0.124904514211,-1.66784434885,0.0583213974055,2.00351085717,0.11030831457,-0.0979955750539,-0.35311860448,9.65116884187e-05,-0.512916206776,-0.0407564164257,0.169656126544,-0.0935791607472,0.573926532374,0.81889036708,0.00276569019551,0.0,0.818856341491,-0.573863306877,-0.0116594991749,0.0,-0.00796087670945,0.00895657132762,-0.999928199558,0.0,0.619825421267,0.206109516061,0.303944187901,1.0,-0.0813028571429,-0.106855183673,1.636
0.425239808128,0.337581118807,-0.124909605507,-1.67682424042,0.0575895606508,2.00629413822,0.108578511058,-0.0945062926607,-0.35369915202,-0.000792939186821,-0.534368919237,-0.0392508417711,0.167405354019,-0.108405499186,0.573868810395,0.81893124149,0.00263762581539,0.0,0.818895387849,-0.573805860021,-0.0117441758129,0.0,-0.00810434336301,0.00889972716521,-0.999927554613,0.0,0.618394083145,0.204283410007,0.303910827049,1.0,-0.0829445714286,-0.109012865306,1.653
0.423761166446,0.331785368795,-0.124904655248,-1.68542128997,0.0568649766263,2.008947106,0.106964286147,-0.0911710880771,-0.363390773823,0.000732616438326,-0.529668634566,-0.0379556388723,0.170966702939,-0.105603885868,0.573812072352,0.818971490643,0.00247992710919,0.0,0.818933529131,-0.573749650798,-0.0118304681041,0.0,-0.00826611793369,0.00881953068251,-0.999926940918,0.0,0.617002670911,0.202552006955,0.303857226094,1.0,-0.0844897142857,-0.11104362449,1.669
0.422134076417,0.325458946867,-0.124896956166,-1.69435199104,0.0561768855881,2.01198804386,0.105148096661,-0.104808143337,-0.368090432329,0.000200491415498,-0.529134322408,-0.0393313819741,0.173959977233,-0.105286371679,0.573728771761,0.819028677464,0.00284057136229,0.0,0.818995518102,-0.573665197447,-0.0116331194342,0.0,-0.00789847356364,0.00900084383343,-0.999928296892,0.0,0.615623818425,0.200734071919,0.304014108187,1.0,-0.0861314285714,-0.113201306122,1.686
0.42020716151,0.31841511467,-0.12493851662,-1.70473035622,0.05531262063,2.01520388086,0.103189096086,-0.101169269495,-0.378926194413,-0.00795431341303,-0.547081579988,-0.049140983693,0.171473738325,-0.103354235026,0.57379224558,0.818984675713,0.00270310209362,0.0,0.818949712818,-0.573729115777,-0.0117054041308,0.0,-0.00803585294718,0.00893034674175,-0.999927834383,0.0,0.613949616929,0.198545713666,0.303958966565,1.0,-0.0879662857143,-0.115612832653,1.705
0.418543756886,0.312370597914,-0.12498257077,-1.71356294343,0.05458735622,2.0178930144,0.101362128831,-0.110605054713,-0.385977494828,-0.00312644845868,-0.543728545677,-0.0467855739263,0.172207471563,-0.114748654797,0.573737481256,0.819023374675,0.0026002383525,0.0,0.818986892598,-0.573674527987,-0.0117793290587,0.0,-0.00815601235601,0.00888797483438,-0.999927239036,0.0,0.612506172466,0.196669992858,0.303929854008,1.0,-0.0895114285714,-0.117643591837,1.721
0.416715454838,0.305798984117,-0.12499127945,-1.72285486615,0.0537889676089,2.02094321994,0.0994586040999,-0.110496864788,-0.387086605309,-0.000149298033896,-0.55166772135,-0.0458643981775,0.169908497274,-0.109605126811,0.5737107891,0.819041299525,0.00283320389228,0.0,0.819008368935,-0.57364761139,-0.0115955363013,0.0,-0.00787211403811,0.00897307473962,-0.999928754337,0.0,0.611031878739,0.194687807139,0.304042970003,1.0,-0.0911531428571,-0.119801273469,1.738
0.414803053818,0.299258461988,-0.125038245609,-1.7324835299,0.0530003304995,2.0237753539,0.0975269160955,-0.110439116572,-0.391855218423,-0.00227568478044,-0.572364376129,-0.0456903590158,0.158782601112,-0.108509484002,0.5737655706,0.8190036745,0.00260730719633,0.0,0.818967311066,-0.573702616966,-0.0117727479051,0.0,-0.00814626167225,0.00889026794821,-0.999927298136,0.0,0.609421800122,0.192592400068,0.303949364231,1.0,-0.0927948571428,-0.121958955102,1.755
0.41296205324,0.292991636308,-0.12513789765,-1.74146901004,0.0522846274502,2.02656470328,0.0956747003029,-0.113259132774,-0.40614432135,-0.00296058312888,-0.547303186362,-0.0472530897297,0.189987019823,-0.115372121461,0.573866848535,0.818932559905,0.00265506701783,0.0,0.818896700515,-0.573803579804,-0.0117640380368,0.0,-0.0081106229795,0.00892538889619,-0.99992727497,0.0,0.607957629257,0.190590233754,0.303969182853,1.0,-0.09434,-0.123989714286,1.771
0.410841062814,0.285806302332,-0.125170533923,-1.75166509511,0.051419723152,2.02976867926,0.0935001613893,-0.120873754197,-0.392355026608,0.00297744594078,-0.576740751213,-0.0532972530352,0.166696185349,-0.116742442844,0.57385787017,0.81893841016,0.00278785040704,0.0,0.818904436729,-0.573794311866,-0.0116772460748,0.0,-0.00796344595067,0.00898423560358,-0.999927930923,0.0,0.606280273756,0.188350725968,0.304027542067,1.0,-0.0960782857143,-0.126274318367,1.789
0.408782675816,0.279015368905,-0.125205460991,-1.76156735665,0.0505287173346,2.03259153168,0.0913787371268,-0.121741122102,-0.393358468572,-0.00306116569083,-0.580985275964,-0.0467578607741,0.169174212024,-0.128609882936,0.5738138712,0.81897014536,0.00250781369025,0.0,0.818932330305,-0.573751112169,-0.0118425743537,0.0,-0.00826001297686,0.00884933352131,-0.999926728057,0.0,0.604570543197,0.186158854394,0.303928150267,1.0,-0.09772,-0.128432,1.806
0.406776049433,0.272438406282,-0.125250653894,-1.7706818465,0.0497571387253,2.03551967436,0.0894137708187,-0.128408439429,-0.415942663695,-0.00353621398653,-0.571160271077,-0.0525612958354,0.1889621553,-0.129656860307,0.573876914441,0.818924991111,0.00280943186907,0.0,0.818891458207,-0.573813461134,-0.0116463899336,0.0,-0.00792558254028,0.00898438705677,-0.99992823039,0.0,0.603077136257,0.184103211796,0.304059350222,1.0,-0.0992651428571,-0.130462759184,1.822
0.404577313076,0.265484761596,-0.1253051672,-1.78061341894,0.0488898580544,2.03846691409,0.0872328170917,-0.129264068066,-0.418582521337,-0.00712599127986,-0.592118687356,-0.0509318244262,0.159136591515,-0.122238163473,0.573908136648,0.818903289731,0.00275674759872,0.0,0.818868989036,-0.57384476572,-0.0116837730378,0.0,-0.00798608875416,0.00896300009787,-0.999927940912,0.0,0.601380160887,0.181843030002,0.304034937426,1.0,-0.100906857143,-0.132620440816,1.839
0.402330117773,0.25844877745,-0.125382310472,-1.79072401777,0.0479725023136,2.04130707374,0.0850278261713,-0.134680544697,-0.413980718162,-0.00752120991636,-0.587650068482,-0.0538714441021,0.168113407056,-0.137033349287,0.57395413724,0.81887179946,0.00252414234057,0.0,0.818834296583,-0.573891405497,-0.011823550113,0.0,-0.00823354668279,0.00885320027366,-0.999926912106,0.0,0.599605550678,0.179520804253,0.303956419356,1.0,-0.102548571429,-0.134778122449,1.856
0.400184278579,0.251648654655,-0.125366963996,-1.80001960642,0.0471386078416,2.04419059383,0.0829395100624,-0.133970262477,-0.425943716162,0.00109926740033,-0.585162036605,-0.055336141995,0.173368474569,-0.136454733914,0.573939911036,0.818880806822,0.00281951051529,0.0,0.81884750425,-0.573876528498,-0.0116293475301,0.0,-0.00790515078034,0.00898346879509,-0.999928400377,0.0,0.598019400338,0.177417829937,0.304100018192,1.0,-0.104093714286,-0.136808881633,1.872
0.397864672441,0.24446040511,-0.125373982497,-1.8102574153,0.0462599453222,2.04710342671,0.0805793508126,-0.13639748484,-0.418830865255,-0.000141263685725,-0.607019040149,-0.0479443071819,0.176202576924,-0.145188931828,0.573863382364,0.818934805443,0.00271103633028,0.0,0.818899403147,-0.573799612455,-0.0117694168968,0.0,-0.00808294916271,0.00897427620425,-0.99992706149,0.0,0.596186226755,0.175113131911,0.30403521854,1.0,-0.105735428571,-0.138966563265,1.889
0.395326657997,0.236681135464,-0.125369033181,-1.82098048034,0.0453163867155,2.0502107489,0.0780689930386,-0.143179067809,-0.440439465944,-0.00151350144175,-0.590085422168,-0.0432569528113,0.183399713761,-0.139422112234,0.573812082125,0.818970462345,0.00279698319791,0.0,0.818935896169,-0.573747695885,-0.0117612215819,0.0,-0.00802748496542,0.00903945502353,-0.999926921199,0.0,0.594382024358,0.172788467544,0.30408710282,1.0,-0.107377142857,-0.141124244898,1.906
0.393185815599,0.230180641684,-0.12535137954,-1.82997587267,0.0444694632121,2.05286836197,0.0759884477008,-0.146342888725,-0.436246339922,0.00241486472458,-0.604717799349,-0.0614548847734,0.161806387346,-0.145454914139,0.573759332622,0.819006904928,0.00294360508827,0.0,0.818974500862,-0.573694739128,-0.011655905628,0.0,-0.00785768772418,0.00909859731834,-0.999927733524,0.0,0.592675415915,0.170601899482,0.304150263808,1.0,-0.108922285714,-0.143155004082,1.922
0.390473956256,0.222334277787,-0.125389100109,-1.84108257099,0.0434109809981,2.05581997449,0.0733206786414,-0.151192044216,-0.432762369232,-0.00222923936143,-0.619238613762,-0.0612857907211,0.164242797714,-0.142116866333,0.573700458969,0.819049133867,0.00265454163342,0.0,0.819012541492,-0.573636416122,-0.011851830155,0.0,-0.008184647054,0.00897367606033,-0.999926239625,0.0,0.590621877029,0.167982074594,0.304045289862,1.0,-0.110660571429,-0.145439608163,1.94
0.387851065076,0.214742110835,-0.125459238778,-1.85128645069,0.0425102379241,2.05888335631,0.0708198888629,-0.152436128933,-0.444865420934,-0.000987523524565,-0.603954087453,-0.0481278183601,0.176125094837,-0.143321536255,0.573760666937,0.819005697552,0.0030185018856,0.0,0.818974099757,-0.573695629992,-0.0116402301277,0.0,-0.00780186366456,0.00915095725002,-0.999927692838,0.0,0.588821049998,0.165522691728,0.304198281484,1.0,-0.112302285714,-0.147597289796,1.957
0.385280185092,0.20763535341,-0.125498548369,-1.86114966753,0.0415827762879,2.06157113808,0.0683910934593,-0.158196697849,-0.44806807856,-0.00365687049805,-0.617150430781,-0.0585923722697,0.160299978555,-0.148632334303,0.573783870731,0.81898972002,0.00294195381036,0.0,0.818956875473,-0.573718795007,-0.0117101354337,0.0,-0.0079027784982,0.00912859589002,-0.999927104758,0.0,0.587001236671,0.163129613644,0.304166165254,1.0,-0.113847428571,-0.14962804898,1.973
0.382504004867,0.200010760778,-0.125577214685,-1.87170678871,0.0405418535866,2.06434635235,0.0657165239556,-0.165806669445,-0.455346412184,0.000626972779581,-0.601457346869,-0.0505474162612,0.175835571633,-0.159993259564,0.573767367638,0.819001878351,0.00277091911417,0.0,0.81896669705,-0.573702771206,-0.0118078929111,0.0,-0.00808115808627,0.0090444482413,-0.999926443715,0.0,0.585022586276,0.160535546905,0.304118622838,1.0,-0.115489142857,-0.151785730612,1.99
0.379621404307,0.192273357209,-0.125639306447,-1.88220453269,0.0395514293695,2.06736029901,0.0630593044512,-0.171746388171,-0.445156987798,-0.00276917905989,-0.619785353441,-0.0624273306055,0.175838636155,-0.16538106545,0.573848429421,0.81894444655,0.00295303521792,0.0,0.818911876598,-0.573783458389,-0.0116888043639,0.0,-0.00787823034089,0.00912605334282,-0.999927321677,0.0,0.583104109843,0.157929737984,0.304170616721,1.0,-0.117130857143,-0.153943412245,2.007
0.376789595228,0.184972387728,-0.125779194383,-1.89225992377,0.0386099626571,2.06991557581,0.060443676191,-0.181365933557,-0.453760817274,-0.00705358835636,-0.626010626623,-0.0647494608998,0.159309021598,-0.163721630569,0.573982851194,0.818850823318,0.00278614202452,0.0,0.818815454501,-0.573917738619,-0.0118502181746,0.0,-0.00810470061919,0.00908333304554,-0.999925900699,0.0,0.581197290374,0.155344725846,0.30411085831,1.0,-0.118676,-0.155974171429,2.023
0.373778441788,0.177052352885,-0.125861385117,-1.90277469253,0.0375644997494,2.07281836062,0.057658960998,-0.176577302105,-0.46431234829,0.00158375473909,-0.612652765498,-0.0569201037654,0.176273853455,-0.157314655524,0.574038804378,0.818810850884,0.00299807361386,0.0,0.818778756267,-0.573973528003,-0.0116826511766,0.0,-0.00784521770585,0.00916123048018,-0.999927259562,0.0,0.579235350777,0.152671362323,0.30422129539,1.0,-0.120317714286,-0.158131853061,2.04
0.370923245606,0.169608000725,-0.125841654622,-1.91291077305,0.0365212963696,2.07540516071,0.0549501436763,-0.177810692071,-0.473609781064,0.000810751003554,-0.639219444679,-0.062337695648,0.154391519885,-0.165600022158,0.573926715893,0.818889857198,0.00287636293775,0.0,0.818855942008,-0.573861600223,-0.0117710207087,0.0,-0.00798868903597,0.00911120555994,-0.999926580695,0.0,0.57713007458,0.150014803409,0.30417996263,1.0,-0.121959428571,-0.160289534694,2.057
0.367787568541,0.161654080264,-0.125871300226,-1.92366132494,0.0354686179992,2.07815371639,0.0519549041903,-0.184103222296,-0.475661183347,-0.00145356514729,-0.617984399954,-0.056317710411,0.163528561658,-0.172564407433,0.573865630447,0.818932913109,0.00280515947856,0.0,0.818897603445,-0.573800251583,-0.0118631048442,0.0,-0.00810564185275,0.00910514181692,-0.999925694721,0.0,0.575266468701,0.147624620532,0.30413887963,1.0,-0.123408,-0.162193371429,2.072
0.364392808625,0.153048935892,-0.125845948126,-1.93494939027,0.034293659762,2.08118633412,0.0488355335656,-0.190179382239,-0.470663943564,0.0014808700413,-0.635508953807,-0.0691944284522,0.154137551194,-0.179954093892,0.573792167511,0.818983425731,0.00307307372688,0.0,0.818952265933,-0.573726627384,-0.0116486074598,0.0,-0.00777706194991,0.00920075755793,-0.999927429051,0.0,0.572965289379,0.144613372425,0.304264104053,1.0,-0.125242857143,-0.164604897959,2.091
0.361254640337,0.145431464779,-0.125875659718,-1.94529307251,0.0332479980483,2.08355579755,0.0459660878093,-0.194411426737,-0.474743502052,-0.00596002882227,-0.645501510005,-0.0620228373963,0.151174171295,-0.178684004906,0.573792942981,0.818983915174,0.0027842723204,0.0,0.818947990779,-0.573727268218,-0.0119145710666,0.0,-0.00816058622394,0.00911684654677,-0.999925141169,0.0,0.570857881475,0.141953855041,0.304157472064,1.0,-0.126788,-0.166635657143,2.107
0.35766912411,0.136685503454,-0.125956690824,-1.9566008925,0.032111840126,2.08656158776,0.0426488938776,-0.197958692647,-0.487409642478,-0.00255022896484,-0.634921382338,-0.0650020275777,0.165566481616,-0.192575670311,0.573804975878,0.818974247788,0.00312698237643,0.0,0.818943253616,-0.573738620246,-0.0116914454221,0.0,-0.00778107197565,0.00926960914843,-0.999926761951,0.0,0.568653539819,0.138975184855,0.304301714686,1.0,-0.128526285714,-0.168920261224,2.125
0.354561429108,0.129397809556,-0.125996151727,-1.96624625551,0.0310604086549,2.08883838202,0.0397694572756,-0.204555058753,-0.491604050815,-0.00129043784751,-0.646291838485,-0.0726529634398,0.146746479417,-0.196211508989,0.57374628572,0.819015755372,0.00302307387953,0.0,0.818983370363,-0.573680244054,-0.0117457887163,0.0,-0.00788586008415,0.00921512730329,-0.999926444615,0.0,0.566692890024,0.136415161639,0.304281971817,1.0,-0.129974857143,-0.170824097959,2.14
0.35116212698,0.121584761015,-0.126126923235,-1.97657019099,0.0299577801387,2.09127733765,0.036804155612,-0.213868364118,-0.494128929783,-0.00654342444259,-0.632496741574,-0.0704138461459,0.16178830025,-0.190351020685,0.573910156715,0.818901262512,0.00293277648257,0.0,0.81886758869,-0.573844278419,-0.0118052200079,0.0,-0.00798450629076,0.00917686795437,-0.99992601364,0.0,0.564593897513,0.133605772559,0.304252003614,1.0,-0.13152,-0.172854857143,2.156
0.347013454826,0.112182818945,-0.126195266347,-1.98872705629,0.0286543777519,2.09431625754,0.0330037263151,-0.218632057178,-0.49607904454,0.00470230972428,-0.642906917565,-0.0705658333222,0.154815759622,-0.200780679589,0.573885493645,0.818917835809,0.00312494463689,0.0,0.818887111623,-0.573819487408,-0.011655092912,0.0,-0.00775155857546,0.00924784368662,-0.999927192713,0.0,0.562140113619,0.130297723296,0.304323229981,1.0,-0.133354857143,-0.175266383673,2.175
0.343476518168,0.104261636289,-0.126216271696,-1.99913871344,0.0274967630355,2.09661489095,0.0298115584169,-0.222023726567,-0.494511652863,-0.000121444721459,-0.645358129432,-0.0821250328448,0.151528294509,-0.206479989036,0.573842081154,0.818948937908,0.00294107074184,0.0,0.818915452989,-0.573776275539,-0.0117903937948,0.0,-0.00796836727515,0.00917448902897,-0.999926164211,0.0,0.559940721931,0.127497403062,0.30426213768,1.0,-0.1349,-0.177297142857,2.191
0.33966602372,0.095690400596,-0.126217919284,-2.0099988365,0.0263505351865,2.09923763785,0.0262889855266,-0.232153009708,-0.503840993439,-0.00265758950444,-0.641680652825,-0.0611502691756,0.148068454192,-0.206901509002,0.573736242989,0.819022089282,0.00320743672356,0.0,0.818992227568,-0.57366973643,-0.0116409444583,0.0,-0.00769432941132,0.00930587665231,-0.99992709632,0.0,0.557687578203,0.124563077607,0.304373570475,1.0,-0.136541714286,-0.17945482449,2.208
0.335478639009,0.0866542871536,-0.126254215204,-2.02181710003,0.0251173139594,2.10174487256,0.0225150595293,-0.23899483025,-0.504824382646,-0.0040159634725,-0.667692403934,-0.0762420606356,0.135265283266,-0.214000089065,0.573723141705,0.819031986714,0.00301799802909,0.0,0.818998362188,-0.573655754876,-0.0118955677639,0.0,-0.00801171281146,0.00929667694262,-0.999924689292,0.0,0.555135793794,0.121339633471,0.304275871435,1.0,-0.13828,-0.181739428571,2.226
0.33162047405,0.0784523041559,-0.126382259437,-2.03205089471,0.0239194016544,2.10410571601,0.019032580411,-0.239578283921,-0.522311169683,-0.00682169982341,-0.632405041318,-0.0736492928782,0.152417676669,-0.212491264116,0.573739593595,0.819019685786,0.00322179096121,0.0,0.818989663993,-0.5736726204,-0.0116791171766,0.0,-0.00771732219948,0.00933956525479,-0.999926605036,0.0,0.552993578905,0.118383350235,0.304400475726,1.0,-0.139825142857,-0.183770187755,2.242
0.327452463081,0.0698040899628,-0.126459427169,-2.04315906832,0.0226912194886,2.1065075442,0.0153592270192,-0.245849895309,-0.514209443453,-0.00287179850998,-0.666449762417,-0.0744513438977,0.135490833361,-0.221493444837,0.573796727847,0.818979865751,0.00316883383719,0.0,0.818948744207,-0.573729430138,-0.011757646737,0.0,-0.00781137310775,0.00934179157488,-0.999925853941,0.0,0.550589295829,0.115246439875,0.30435653375,1.0,-0.141466857143,-0.185927869388,2.259
0.323084002726,0.0610445063597,-0.126613099816,-2.05427923427,0.0214008472417,2.10870132698,0.0114995138956,-0.257800989434,-0.512832994223,-0.0124911839027,-0.635683250868,-0.0763833050305,0.132577926614,-0.230886067807,0.573888152062,0.81891638566,0.00301481690547,0.0,0.81888282967,-0.573820882045,-0.0118850116413,0.0,-0.00800301996384,0.00928962802066,-0.999924824416,0.0,0.548145778724,0.111968813,0.30432883126,1.0,-0.143108571429,-0.18808555102,2.276
0.318942139929,0.0527357028767,-0.126678776039,-2.06458148164,0.0202045738581,2.11105358703,0.00783651564641,-0.259855421917,-0.508421941026,-0.00282827534007,-0.64875178206,-0.0809367367064,0.142463143184,-0.231042600524,0.57390633148,0.818902693426,0.0032631715381,0.0,0.818873137221,-0.573839112268,-0.0116707014062,0.0,-0.00768478131298,0.0093701933498,-0.99992656911,0.0,0.545929517487,0.108962069002,0.304416932665,1.0,-0.144653714286,-0.190116310204,2.292
0.314525417748,0.0438996684344,-0.126670359848,-2.07584522497,0.0189430617753,2.11320652185,0.0039208285818,-0.25882327002,-0.529592367644,0.0017340580885,-0.661330466668,-0.0747767215036,0.126257801881,-0.240777108561,0.573835534807,0.818953089808,0.00305983474439,0.0,0.818919706688,-0.573767624704,-0.0119152734456,0.0,-0.00800256996517,0.00934334616978,-0.999924327515,0.0,0.543215803014,0.105608281151,0.304313512485,1.0,-0.146392,-0.192400914286,2.31
0.309907283395,0.0349050431846,-0.126711935293,-2.08676804913,0.0176404550266,2.11550197752,-0.000222689801222,-0.278185704347,-0.520073710139,-0.00600821779093,-0.63359162107,-0.0839905452657,0.145703183543,-0.242599590266,0.573777533376,0.818992681226,0.00332824182762,0.0,0.818963526831,-0.573709574873,-0.0116966798969,0.0,-0.00767019870126,0.00943718250021,-0.999926051085,0.0,0.540943455174,0.102546967978,0.304447568292,1.0,-0.147937142857,-0.194431673469,2.326
0.305463569813,0.026467902951,-0.126822691992,-2.0972546774,0.0163611913802,2.11748783425,-0.00410713446539,-0.28067582536,-0.529940314295,-0.00660037897818,-0.660216642559,-0.0762743317448,0.122411281534,-0.253455204785,0.573828213186,0.818957497121,0.00324754723188,0.0,0.818927205488,-0.573760409561,-0.0117461241942,0.0,-0.00775641177611,0.00939994321556,-0.999925736814,0.0,0.538551964235,0.0993988258806,0.304423635584,1.0,-0.149482285714,-0.196462432653,2.342
0.300608102333,0.0174274786992,-0.126922606363,-2.10832670086,0.0150357660528,2.11953475005,-0.00839023025937,-0.292251696255,-0.535682215974,-0.00499662237391,-0.636491819721,-0.085164652635,0.124562792618,-0.245357418442,0.573851152729,0.818941397438,0.00325407067915,0.0,0.818910968598,-0.573783054622,-0.01177194288,0.0,-0.00777355040342,0.00942031853363,-0.999925411975,0.0,0.536005257809,0.0960300054932,0.304442023878,1.0,-0.14998,-0.197116571429,2.359
0.295351766603,0.00790908934261,-0.127053864609,-2.11996427703,0.0136113262784,2.12166231323,-0.0129830595521,-0.293749718383,-0.527962015328,-0.00231819129389,-0.657103632672,-0.0678698656179,0.110118972215,-0.249755363716,0.573920447017,0.818892879144,0.00324343712206,0.0,0.818862211103,-0.573852253853,-0.0117905418386,0.0,-0.00779408711046,0.00942294255676,-0.999925227384,0.0,0.533309144975,0.0924242150021,0.304440972617,1.0,-0.14998,-0.197116571429,2.377
0.290659927517,-0.000513745830898,-0.127062599495,-2.13027277007,0.0123957806123,2.12343102092,-0.0171261407136,-0.289908876439,-0.520864678737,0.000111498692042,-0.638269300917,-0.0860130252624,0.111453052102,-0.268830914945,0.573869909208,0.818928546223,0.0031796836253,0.0,0.818896205833,-0.573800940605,-0.0119260863318,0.0,-0.00794225999991,0.00944803484088,-0.999923824671,0.0,0.530861164047,0.0893020321941,0.304402286633,1.0,-0.14998,-0.197116571429,2.393
0.285659844207,-0.00949084943159,-0.12704988677,-2.14085750931,0.0110498255986,2.12544360301,-0.0215405604423,-0.298885225561,-0.521599378581,0.000806122185409,-0.62641191855,-0.0788408477564,0.109927213017,-0.262006224154,0.573764752462,0.819001119311,0.00345286851333,0.0,0.818973408476,-0.573696172252,-0.0116621204659,0.0,-0.007570538022,0.00951930443377,-0.999926032163,0.0,0.528386982034,0.0860379405384,0.304531419612,1.0,-0.14998,-0.197116571429,2.41
0.281129402366,-0.0172953063586,-0.127066189451,-2.1503674171,0.00985211872079,2.12691806375,-0.025496707079,-0.304382039882,-0.521850835481,-0.00138868721078,-0.642525576453,-0.0876914093739,0.0960433649619,-0.269450439925,0.573726712075,0.819028509188,0.00327229120545,0.0,0.81899773658,-0.573657864099,-0.0118367789607,0.0,-0.00781763435585,0.00947125771645,-0.999924587092,0.0,0.52606912185,0.0830871554747,0.30445931491,1.0,-0.14998,-0.197116571429,2.425
0.275910743659,-0.0261745342902,-0.127179924246,-2.16081640514,0.00852123281937,2.12861193581,-0.0300296896176,-0.308001241697,-0.521944816239,-0.0131412783721,-0.603783775462,-0.0754370258806,0.117949545165,-0.267956167408,0.573790408638,0.818983535091,0.00335903338045,0.0,0.818954042216,-0.573721435567,-0.0117787100589,0.0,-0.00771956877534,0.00950958791183,-0.999924985184,0.0,0.523547697324,0.0797023325443,0.304524527926,1.0,-0.14998,-0.197116571429,2.442
0.269950035386,-0.0359765453176,-0.127328615973,-2.17245649433,0.00702561668775,2.13049957275,-0.0351372172772,-0.314518422135,-0.508118097731,-0.00193416843398,-0.619910728734,-0.0746194157289,0.0876326201415,-0.270922528317,0.573933906331,0.818882878026,0.00338380566926,0.0,0.818853735986,-0.573864864407,-0.0117653458264,0.0,-0.00769274117885,0.00952355616158,-0.999925058998,0.0,0.520716107279,0.0758815492579,0.304521579796,1.0,-0.14998,-0.197116571429,2.461
0.265245259225,-0.0436729724868,-0.127332646104,-2.18163886559,0.00593312967861,2.13180453571,-0.0393292336407,-0.314526613183,-0.509543124114,-0.000139487823029,-0.603953112489,-0.0783785488874,0.0904136930741,-0.275583854575,0.57385095726,0.818941324691,0.00330642795903,0.0,0.8189099091,-0.573780650584,-0.0119612998467,0.0,-0.00789859042842,0.00957185427436,-0.999922992972,0.0,0.518407960352,0.072961632997,0.304463937319,1.0,-0.14998,-0.197116571429,2.476
0.259522958191,-0.0529401762157,-0.127339512179,-2.19219623949,0.00450089443325,2.13354396452,-0.0442568419393,-0.323101312666,-0.507920660651,0.000682825230718,-0.584780119322,-0.0833087972376,0.0885412861095,-0.276603775108,0.573837031621,0.818949864662,0.00359544316603,0.0,0.818923680993,-0.573767575699,-0.0116413352773,0.0,-0.00747086507818,0.00962480813933,-0.999925771867,0.0,0.515814426237,0.0694619884802,0.304611424665,1.0,-0.14998,-0.197116571429,2.494
0.25469000458,-0.0605441948726,-0.127363953986,-2.20122077426,0.00334218242299,2.13468516258,-0.0484972411182,-0.32884884039,-0.506185953739,-0.000558932970955,-0.608892407196,-0.0608944493531,0.0701838913033,-0.282966320275,0.573788390536,0.818984742341,0.00340904670638,0.0,0.818955051232,-0.573718196012,-0.0118660241276,0.0,-0.00776241003672,0.00960062774816,-0.999923783564,0.0,0.513488955916,0.066518015584,0.304523069001,1.0,-0.14998,-0.197116571429,2.509
0.249158272728,-0.0691598934565,-0.127452511292,-2.21123415648,0.00202455244188,2.13600801447,-0.0533647301492,-0.3270925396,-0.510580911493,-0.00827807905171,-0.570021484249,-0.0792507541945,0.0816723347032,-0.281972648293,0.573765905697,0.819000678734,0.00336460896993,0.0,0.818969947678,-0.573695307049,-0.0119443029102,0.0,-0.00785228299512,0.00960893241096,-0.999923002071,0.0,0.510915754494,0.0631650508906,0.30449972561,1.0,-0.14998,-0.197116571429,2.526
0.242772639573,-0.0787701246516,-0.127630264976,-2.222126593,0.000567996093038,2.13753434714,-0.0588818901107,-0.333484663225,-0.499901413412,-0.00111259465913,-0.583577364401,-0.0730203103894,0.0692888691424,-0.294801125021,0.573904954219,0.818902464293,0.00355026727786,0.0,0.818874644361,-0.57383429501,-0.011801084416,0.0,-0.00762681882903,0.00968011103821,-0.999924060659,0.0,0.508137880353,0.059330845905,0.30457587551,1.0,-0.14998,-0.197116571429,2.545
0.23745911026,-0.086788520789,-0.127638212918,-2.23143627023,-0.00062893749552,2.13858646287,-0.063532763325,-0.332973753748,-0.499138444752,-0.00139873606955,-0.588876913819,-0.0714356810421,0.0608924751558,-0.287663490662,0.573851969378,0.818940155041,0.00341856763731,0.0,0.818909391888,-0.573780255417,-0.0120155429178,0.0,-0.00787865565641,0.00969482676696,-0.999921965515,0.0,0.505661078227,0.0562338388177,0.304498183151,1.0,-0.14998,-0.197116571429,2.561
0.23169863095,-0.0953395307854,-0.127654563877,-2.24094648816,-0.00193774038674,2.13978308484,-0.0685791171326,-0.346923931083,-0.505945412166,-0.00134087912026,-0.559238258005,-0.0730360224626,0.087308077107,-0.300314682839,0.573786863249,0.818985054864,0.00358641501773,0.0,0.818957150011,-0.573715390837,-0.0118567982349,0.0,-0.00765310640535,0.00974058282547,-0.999923272561,0.0,0.503161994129,0.0529257073705,0.304589020606,1.0,-0.14998,-0.197116571429,2.578
0.225498427044,-0.104283776882,-0.127712557449,-2.25102352815,-0.00338521552044,2.14087692408,-0.0739315426106,-0.345994303679,-0.497390972487,-0.00106681699181,-0.566834614263,-0.0822132223436,0.0620170833292,-0.295461826484,0.573787751811,0.818984683748,0.00352853485945,0.0,0.818956142747,-0.573716630255,-0.011866394917,0.0,-0.00769416469555,0.00969869408948,-0.999923364645,0.0,0.500453665535,0.0493782594165,0.304586570584,1.0,-0.14998,-0.197116571429,2.596
0.220210658028,-0.111701664331,-0.127840467963,-2.25945608998,-0.00453743385937,2.14167311465,-0.0785075376204,-0.3585306562,-0.491538925661,-0.00752948582113,-0.556284794782,-0.0861928109757,0.0457822530111,-0.298103581735,0.573872851281,0.818925600771,0.00339968610731,0.0,0.818894387046,-0.573800955007,-0.0120496389243,0.0,-0.0079171670901,0.00969913125574,-0.999921619587,0.0,0.498145368322,0.0463574989464,0.30452116898,1.0,-0.14998,-0.197116571429,2.611
0.214186983811,-0.120141695392,-0.127930714956,-2.26856017949,-0.00584253319885,2.14276196009,-0.0837250779623,-0.35311280115,-0.492891445674,-0.00133312053764,-0.530835425191,-0.0752873619655,0.061707031399,-0.30860438848,0.573906149112,0.818901000571,0.00369190692242,0.0,0.818874926465,-0.57383489159,-0.0117523998308,0.0,-0.00750565147906,0.00976817260694,-0.999924121121,0.0,0.495551566959,0.0428083263352,0.304661177912,1.0,-0.14998,-0.197116571429,2.629
0.208188350747,-0.128400520162,-0.127932513759,-2.27781747042,-0.0070876167323,2.14355564351,-0.0890488697703,-0.353226492724,-0.486517101406,-0.00158221080228,-0.545366490253,-0.072340294648,0.0407665401315,-0.313219792215,0.573804606332,0.818972596238,0.00359266816567,0.0,0.818944204647,-0.573732386926,-0.0119283179374,0.0,-0.00770788382844,0.00978690698004,-0.999922399478,0.0,0.493106641798,0.039724148909,0.304601049477,1.0,-0.14998,-0.197116571429,2.645
0.202356605096,-0.136217806876,-0.127982051105,-2.28646379202,-0.00836041740414,2.14427424034,-0.0941103461712,-0.368512040865,-0.484804126111,-0.00264847374258,-0.532251953107,-0.0898393577939,0.0465110388783,-0.316375280444,0.573791983841,0.818981842461,0.00349969989683,0.0,0.818952042331,-0.573719857971,-0.0119926574627,0.0,-0.00781407182212,0.00974756476592,-0.999921959586,0.0,0.490669614078,0.0365520162179,0.304570790084,1.0,-0.14998,-0.197116571429,2.661
0.195769003909,-0.145033355568,-0.128094518069,-2.29581245522,-0.00967863487753,2.14521741162,-0.0998896654717,-0.372675500978,-0.482665339612,-0.0126873841094,-0.521217197834,-0.0724600593219,0.0449290526677,-0.322550438901,0.573822686839,0.81895891843,0.00381587405863,0.0,0.818934297227,-0.573750828596,-0.0117196592476,0.0,-0.0074087011993,0.00985014614465,-0.999924039999,0.0,0.488064606306,0.033006164252,0.304706394103,1.0,-0.14998,-0.197116571429,2.679
0.189754675677,-0.152703399293,-0.128235065405,-2.30425833297,-0.010909760156,2.14575198721,-0.105114930496,-0.372546432325,-0.478238082869,-0.00517986422701,-0.529841182337,-0.0798040528808,0.0346110968728,-0.339374649447,0.573903579803,0.818902910372,0.00366761153571,0.0,0.818875443145,-0.573831012188,-0.0119048295602,0.0,-0.007644457514,0.00983573069143,-0.999922407325,0.0,0.485615048259,0.0297778572965,0.304637660003,1.0,-0.14998,-0.197116571429,2.695
0.183456373344,-0.16086945321,-0.12824655129,-2.31310206465,-0.0122179167744,2.14629547201,-0.110669058517,-0.369325363814,-0.472565540961,-6.90868729364e-05,-0.517251316285,-0.075673459093,0.0371568727953,-0.326469479947,0.573793978316,0.818980114602,0.00357620419749,0.0,0.818951051707,-0.573721242237,-0.0119940825336,0.0,-0.00777132039523,0.00981105741511,-0.999921671798,0.0,0.48302206114,0.026496843931,0.304610097035,1.0,-0.14998,-0.197116571429,2.712
0.177776904687,-0.168100454609,-0.128259958758,-2.32057096872,-0.013247424168,2.14689413415,-0.115674282293,-0.385234683621,-0.483410061372,-0.000878786974438,-0.498247093926,-0.0759263205978,0.0378162026823,-0.33657155619,0.573768929167,0.818996292743,0.003877537447,0.0,0.818971952457,-0.573696183179,-0.0117633921947,0.0,-0.00740978882549,0.00992525444854,-0.999923289235,0.0,0.480860074046,0.0235931994354,0.304742098784,1.0,-0.14998,-0.197116571429,2.727
0.171234033959,-0.17610071124,-0.128317200586,-2.32924497858,-0.0144944613259,2.1473294125,-0.121380425651,-0.394977045532,-0.469067926004,-0.00315873072575,-0.510574210347,-0.0729416588281,0.0169323218414,-0.333691187819,0.573787196398,0.818984067296,0.00375468592526,0.0,0.818957056685,-0.573713457826,-0.0119563588296,0.0,-0.0076381005962,0.00993552343571,-0.999921469313,0.0,0.478259814603,0.0202512101567,0.304662731435,1.0,-0.14998,-0.197116571429,2.744
0.163748758908,-0.185090091448,-0.128506872658,-2.33875414526,-0.0159583795939,2.14777930679,-0.127922731493,-0.393599124492,-0.47066726817,-0.00871697535038,-0.492506368739,-0.0713927584939,0.0264793715802,-0.352254997213,0.573876647019,0.818921562831,0.00371683181213,0.0,0.818893848316,-0.573802760388,-0.0120001776073,0.0,-0.00769462399204,0.00993050358802,-0.999921085816,0.0,0.475388677552,0.0164134925515,0.304651579702,1.0,-0.14998,-0.197116571429,2.763
0.157117502834,-0.193103797229,-0.128534206425,-2.34693787596,-0.0171637995089,2.14826064406,-0.133810567468,-0.386219572427,-0.473353368034,0.00769126119148,-0.479852907957,-0.0711630917985,0.0296315825817,-0.346256933781,0.573804651119,0.818970885855,0.0039569404674,0.0,0.818947263686,-0.57373121476,-0.0117736745365,0.0,-0.00737221834189,0.00999650724189,-0.999922857144,0.0,0.472919874731,0.0131324456689,0.304761090854,1.0,-0.14998,-0.197116571429,2.78
0.150716089995,-0.200517370515,-0.128582080767,-2.35476457895,-0.0183695762507,2.14848574066,-0.139488343081,-0.40449807169,-0.45816702662,-0.00344272077986,-0.491531187314,-0.0754466255415,0.00305939929705,-0.352474521031,0.57373298187,0.819021660434,0.00383824898323,0.0,0.818995914676,-0.573659185039,-0.0118986581528,0.0,-0.0075435572104,0.00997035481926,-0.99992184033,0.0,0.470480953577,0.00998181359942,0.304709001321,1.0,-0.14998,-0.197116571429,2.796
0.144257366861,-0.207919276028,-0.128705412437,-2.3625213215,-0.0194894280684,2.14868040719,-0.145161074728,-0.40477392721,-0.459627259702,-0.015041277257,-0.473408558636,-0.0682823409481,0.0124311123904,-0.357916555232,0.573806408354,0.818970374743,0.00380498700827,0.0,0.818943113272,-0.573731300226,-0.012054844106,0.0,-0.00768966810129,0.0100334078804,-0.999920096673,0.0,0.468038761261,0.00681563388015,0.304662075457,1.0,-0.14998,-0.197116571429,2.812
0.137224493458,-0.215794191279,-0.128864772654,-2.37040848334,-0.0206791305127,2.14895225111,-0.151286386581,-0.419274133321,-0.464573995962,-0.00538855873918,-0.462175888083,-0.0676590914594,0.0171010892441,-0.364278286803,0.573966177996,0.818857329081,0.00403088430182,0.0,0.818833697097,-0.573891145283,-0.0118775740704,0.0,-0.00741289249197,0.0101181444941,-0.999921332994,0.0,0.465560176014,0.00339587910901,0.304763114247,1.0,-0.14998,-0.197116571429,2.829
0.129886047839,-0.223994911815,-0.128868360132,-2.37881994401,-0.0220216584904,2.14911689093,-0.157847795794,-0.414417613842,-0.45528514989,-0.000712800317802,-0.472119747995,-0.0743173018923,-4.09453743584e-05,-0.367199178733,0.573806677367,0.818969318489,0.00398739068355,0.0,0.8189452779,-0.573732033643,-0.0118714901655,0.0,-0.00743483558808,0.0100775891235,-0.999921579634,0.0,0.462857068514,-6.9424989029e-05,0.304749425174,1.0,-0.14998,-0.197116571429,2.847
0.122748599456,-0.231665697039,-0.128920037589,-2.38673294266,-0.0232466366863,2.14914561176,-0.164162457357,-0.421849434487,-0.454264492398,-0.00781080926192,-0.459570646526,-0.0768174316724,0.000838129388624,-0.37265612487,0.573780432062,0.818988228111,0.00387877551255,0.0,0.818961928602,-0.573705051819,-0.0120258022436,0.0,-0.0076238641477,0.0100769334938,-0.999920162866,0.0,0.460261346724,-0.00341437726066,0.304685330814,1.0,-0.14998,-0.197116571429,2.864
0.115953838272,-0.238940957069,-0.129071032994,-2.39395403975,-0.0243809237801,2.14917219528,-0.170149930173,-0.428115798788,-0.462644696724,-0.0124317540139,-0.443732906062,-0.0782982250687,0.00169927555838,-0.377065933603,0.573870606068,0.818924547295,0.00398249037112,0.0,0.818899790854,-0.573795088354,-0.0119614389491,0.0,-0.00751052716294,0.0101257737037,-0.999920527186,0.0,0.457729715939,-0.00680679387849,0.304738986472,1.0,-0.14998,-0.197116571429,2.881
0.107789627747,-0.247481758216,-0.129187430943,-2.40233430533,-0.0256841788097,2.14923181682,-0.177417537802,-0.428050384423,-0.447468873943,-0.00407948256952,-0.450862074221,-0.0628066185251,-0.00481888309759,-0.385631593293,0.573894944268,0.818906562827,0.00416907700426,0.0,0.818884897672,-0.573819687615,-0.0117998885883,0.0,-0.00727084772771,0.0101860867135,-0.999921686139,0.0,0.455087803134,-0.010367345803,0.304816335058,1.0,-0.14998,-0.197116571429,2.899
0.100905446538,-0.254535499759,-0.129207650861,-2.40952821179,-0.0267753905373,2.14917137231,-0.183585117402,-0.434129163247,-0.445585339002,-0.00169222409077,-0.445247165778,-0.0672035290267,-0.00828605484811,-0.397812968727,0.573815855726,0.818962370228,0.00409228171594,0.0,0.818938774413,-0.573739585716,-0.0119548503277,0.0,-0.00744281184095,0.0102114074451,-0.999920162668,0.0,0.452640810395,-0.0134622558131,0.304735169156,1.0,-0.14998,-0.197116571429,2.915
0.0934336768211,-0.262035489062,-0.12929608164,-2.41694549672,-0.0279783329198,2.14908849474,-0.190183593331,-0.444103797572,-0.444600940488,-0.00707689216053,-0.433629425742,-0.0706107473213,0.00101799227208,-0.386897268674,0.573855993029,0.818934140972,0.00411326103535,0.0,0.818910931161,-0.573779797057,-0.0119322342992,0.0,-0.00741175066274,0.0102159752766,-0.999920346728,0.0,0.450090603853,-0.0168223678699,0.304733389859,1.0,-0.14998,-0.197116571429,2.932
0.086740387766,-0.268649191457,-0.129452472794,-2.42319622164,-0.0289803026757,2.14900597741,-0.196158826809,-0.447865535856,-0.434116343575,-0.00399059056803,-0.413983332547,-0.0694425252837,-0.00194860329016,-0.402227923334,0.573939272163,0.818874597247,0.00434197575718,0.0,0.818855307605,-0.573863629133,-0.0117161114147,0.0,-0.00710246079478,0.0102799842738,-0.99992193544,0.0,0.447918646371,-0.0198327682895,0.304845889124,1.0,-0.14998,-0.197116571429,2.947
0.0796433965158,-0.275579906134,-0.129481387162,-2.42996932843,-0.0300750058295,2.14884611803,-0.202509010255,-0.436474849893,-0.425918406624,4.78539139132e-05,-0.42756284533,-0.0700174315653,-0.00961710918209,-0.398928510924,0.573884776509,0.818912686466,0.0043614376268,0.0,0.818893767695,-0.573809251861,-0.0116913048968,0.0,-0.00707166079102,0.0102812139338,-0.999922141096,0.0,0.445528226446,-0.0229324666299,0.304843789149,1.0,-0.14998,-0.197116571429,2.963
0.0719581320743,-0.282834629023,-0.129519235083,-2.43715397869,-0.031254870535,2.14853986878,-0.209433899563,-0.459645832067,-0.432444715623,-0.00260721656871,-0.415895335208,-0.0711857175048,-0.0164430402922,-0.399052436034,0.57379280388,0.818977789702,0.00423616480363,0.0,0.818956469995,-0.573716596323,-0.0118454319186,0.0,-0.007270927586,0.0102662558248,-0.999920865671,0.0,0.442933902521,-0.0262561667208,0.304770088558,1.0,-0.14998,-0.197116571429,2.98
0.0646316343579,-0.289701301933,-0.129634299882,-2.44373949601,-0.0322996609799,2.1483027873,-0.216031406137,-0.456237805902,-0.434593103178,-0.015739735165,-0.402589821752,-0.064359931908,-0.0176662592735,-0.413181613013,0.573808934527,0.818966004859,0.00432856134608,0.0,0.818945884278,-0.573732409343,-0.0118113502506,0.0,-0.00718979682249,0.0103225145422,-0.999920873127,0.0,0.440539846958,-0.0294196455785,0.304785195893,1.0,-0.14998,-0.197116571429,2.996
0.0558148790523,-0.297771088046,-0.129781972355,-2.45122205862,-0.0334952131749,2.14801404849,-0.223914891831,-0.464822690502,-0.422369391188,-0.00554049930611,-0.396400482154,-0.0599794212679,-0.0222497025026,-0.416530750251,0.573915597315,0.818889831484,0.00459107308713,0.0,0.818874104741,-0.573839684567,-0.0115742775571,0.0,-0.00684365002759,0.0104023695595,-0.999922474576,0.0,0.437779948292,-0.0331929957779,0.304898577845,1.0,-0.14998,-0.197116571429,3.015
0.0483781499731,-0.304453663584,-0.129804855655,-2.45764824761,-0.0346089188781,2.14759154337,-0.230640704993,-0.472137334967,-0.417102269072,-0.00117899427861,-0.400531629356,-0.0708691227761,-0.0367635923503,-0.418520548138,0.573808023929,0.818965811055,0.00448317965892,0.0,0.818948405754,-0.573732034353,-0.0116536848983,0.0,-0.00697195995022,0.0103586701738,-0.999922041825,0.0,0.435349175621,-0.0363019870224,0.304858511511,1.0,-0.14998,-0.197116571429,3.031
0.0403181580161,-0.311485052254,-0.129895498901,-2.46440310774,-0.0357164083843,2.14710100394,-0.237860271565,-0.475936326186,-0.412152444986,-0.00513565680534,-0.399750947059,-0.0625870455786,-0.0240930560159,-0.417993084024,0.573846914364,0.818938942658,0.00441293255135,0.0,0.818919701476,-0.573769786555,-0.0118110741154,0.0,-0.00714067865984,0.0103917859181,-0.999920507587,0.0,0.432750280985,-0.0396543215967,0.304798969682,1.0,-0.14998,-0.197116571429,3.048
0.0331281629183,-0.317679870912,-0.130053632137,-2.47015087234,-0.036658495085,2.14671343038,-0.244336464497,-0.475940367247,-0.412012177227,-0.0106757788156,-0.384397378043,-0.0720677800982,-0.0294710213762,-0.42878481338,0.573932434451,0.818878362314,0.00453159141567,0.0,0.818860791865,-0.573855091158,-0.0117509488866,0.0,-0.00702225617516,0.0104551945315,-0.999920685267,0.0,0.430368780482,-0.0428474560745,0.30483393675,1.0,-0.14998,-0.197116571429,3.064
0.0250289570945,-0.324631669255,-0.130086907681,-2.47641682479,-0.0377543037644,2.1463078147,-0.251771445535,-0.480109736584,-0.414434577177,-0.00192570596809,-0.368244286492,-0.0669242476291,-0.0247756217231,-0.434524193735,0.573798504541,0.818971344669,0.00468611762738,0.0,0.818957237117,-0.573722933229,-0.0114798328292,0.0,-0.00671325022892,0.010425041569,-0.999923122435,0.0,0.428057286093,-0.0459430997469,0.30493383041,1.0,-0.14998,-0.197116571429,3.08
0.0167304558276,-0.331430723901,-0.130131663397,-2.4828149027,-0.0388159342617,2.14570534152,-0.259267352063,-0.487764884761,-0.399590190878,-0.00150286067612,-0.38081035832,-0.0545057823632,-0.0321976825207,-0.448680088573,0.573789286919,0.818978173909,0.00462079844638,0.0,0.818962449443,-0.573712722709,-0.0116174483029,0.0,-0.00686355788357,0.0104504289947,-0.999921836999,0.0,0.425474539909,-0.0492720654339,0.304882741511,1.0,-0.14998,-0.197116571429,3.097
0.00830806562899,-0.338208775582,-0.130305729048,-2.48908926219,-0.0398312821294,2.14507172655,-0.266888162135,-0.490980257926,-0.403629803359,-0.0102601808602,-0.360584828447,-0.0594720384073,-0.0342140818832,-0.454085025079,0.573899517798,0.818900723839,0.00465777503481,0.0,0.818884591947,-0.573821469717,-0.0117342603344,0.0,-0.00693659651648,0.010548669651,-0.999920301423,0.0,0.422891210939,-0.0526632128067,0.304858928758,1.0,-0.14998,-0.197116571429,3.114
-0.00108090815093,-0.345696061194,-0.130374430965,-2.49588960999,-0.0409774188384,2.1443969701,-0.275529762929,-0.499860624201,-0.392378847577,-0.000665647476784,-0.356065580162,-0.0642309751555,-0.0377417811603,-0.456605273714,0.573800838637,0.818969486038,0.00472497827453,0.0,0.818954358728,-0.573722794261,-0.0116901911069,0.0,-0.00686321420213,0.0105775866651,-0.999920502316,0.0,0.42006040307,-0.0563599942262,0.304879030405,1.0,-0.14998,-0.197116571429,3.133
-0.00914872810345,-0.351909414798,-0.130451755232,-2.50137517793,-0.041996328341,2.14380470696,-0.282841838544,-0.504285562808,-0.385408454684,-0.00349598569985,-0.335947189934,-0.055939433538,-0.0366593909615,-0.459920223176,0.573816387356,0.818958188807,0.00479431842383,0.0,0.818944973796,-0.573739710718,-0.0115161252189,0.0,-0.0066806628092,0.0105346271696,-0.99992219216,0.0,0.417717890311,-0.0595310550441,0.30495021514,1.0,-0.14998,-0.197116571429,3.149
-0.0178203803946,-0.358400311752,-0.13063311199,-2.50726026772,-0.0429958456123,2.1431043341,-0.29072749642,-0.518071025648,-0.375281440606,-0.0129346786004,-0.351553090505,-0.058929706091,-0.0509145412584,-0.462769988495,0.573927335615,0.818880206589,0.00483400369637,0.0,0.818866950633,-0.573849648015,-0.0115864375274,0.0,-0.0067140423025,0.0106083833298,-0.999921188814,0.0,0.415155990941,-0.0629238904348,0.3049327277,1.0,-0.14998,-0.197116571429,3.166
-0.0254216329857,-0.364083343648,-0.130694937048,-2.51245982633,-0.0439274537515,2.14240710168,-0.297792288344,-0.503905425806,-0.369354764412,-0.00230802997894,-0.338640619411,-0.0631110973278,-0.0473504298823,-0.469470869981,0.573795566808,0.818973086604,0.00474107915819,0.0,0.818957915166,-0.573717081696,-0.0117213590567,0.0,-0.00687957196022,0.0106086124154,-0.999920061221,0.0,0.412862562554,-0.0658287124134,0.304879761365,1.0,-0.14998,-0.197116571429,3.181
-0.0342468769928,-0.370477309591,-0.130751365397,-2.51814258993,-0.0449437126689,2.14166156576,-0.305859463807,-0.529169194865,-0.375333170692,-0.000652613470587,-0.330022625005,-0.0595425521363,-0.0454763642769,-0.485234884814,0.573780547718,0.818983555046,0.00475042383705,0.0,0.818968636072,-0.573702237744,-0.0116988221433,0.0,-0.00685594616139,0.0106032088522,-0.999920280805,0.0,0.410308163844,-0.0691751528888,0.304887206264,1.0,-0.14998,-0.197116571429,3.198
-0.0442155535976,-0.377457040332,-0.130931959632,-2.52425987192,-0.0459653359544,2.14077138863,-0.314931685171,-0.529539807802,-0.368850136403,-0.0102350787051,-0.314969488245,-0.0516592268986,-0.0407414406903,-0.477767959963,0.573949399954,0.818864548156,0.00486672030562,0.0,0.818850742988,-0.573870071247,-0.0117195962348,0.0,-0.00680402774551,0.0107117789998,-0.999919478257,0.0,0.407473959808,-0.0729547713624,0.304910622666,1.0,-0.14998,-0.197116571429,3.217
-0.0525724203638,-0.383257783261,-0.131001566039,-2.52922396772,-0.0468541414417,2.14010650506,-0.322731670647,-0.518857739959,-0.361503247571,-0.00241204716867,-0.319760654296,-0.0594179745571,-0.0425844487113,-0.490276245768,0.573857872881,0.818927916897,0.00499555402817,0.0,0.818916768668,-0.573779742691,-0.0115273489498,0.0,-0.00657384672488,0.0107062090385,-0.999921077699,0.0,0.405150063066,-0.07607382242,0.30498061798,1.0,-0.14998,-0.197116571429,3.233
-0.0616758318085,-0.389315249597,-0.131078162718,-2.53465509806,-0.0479046750631,2.13921674193,-0.331110508002,-0.540268721947,-0.35412003372,-0.0014294832217,-0.314711765576,-0.0627857388147,-0.0535887340029,-0.497125318335,0.573815651374,0.818958379274,0.00484955221147,0.0,0.818944658626,-0.573736883854,-0.0116782325062,0.0,-0.00678174996188,0.0106728729586,-0.999920045629,0.0,0.40254182264,-0.0794347742247,0.304913406748,1.0,-0.14998,-0.197116571429,3.25
-0.0697741312835,-0.394661588139,-0.131203103637,-2.53930653103,-0.0487368568806,2.13842330223,-0.338545328234,-0.543082155128,-0.356495918606,-0.0111699005764,-0.302662732555,-0.0554665699785,-0.0472923845746,-0.495216104563,0.573886344664,0.81890873597,0.00486749035116,0.0,0.81889481544,-0.573806826911,-0.0117368452723,0.0,-0.00681853721074,0.0107217842715,-0.999919272188,0.0,0.400257623139,-0.0824122802724,0.304906975173,1.0,-0.14998,-0.197116571429,3.265
-0.0788389873371,-0.400540739132,-0.131270946827,-2.54435546222,-0.0496060310198,2.13761083023,-0.347060041429,-0.53334326618,-0.341026802419,-0.000251681358095,-0.303135549413,-0.0496209852014,-0.0518113770567,-0.496647282048,0.573784914463,0.818979282133,0.00495522692932,0.0,0.818966630764,-0.573705337604,-0.0116871810326,0.0,-0.00672884854499,0.0107643009182,-0.999919422965,0.0,0.397750070983,-0.0856897641968,0.30492607936,1.0,-0.14998,-0.197116571429,3.282
-0.0881880720552,-0.406310450727,-0.131345836757,-2.54931116187,-0.050590491713,2.13668254332,-0.355710309408,-0.557477374391,-0.339827535134,-0.0057239895749,-0.287048807999,-0.0636351452555,-0.0606739679925,-0.517882666849,0.573760358295,0.818996872441,0.00489091839739,0.0,0.818983374329,-0.573680972456,-0.0117098811309,0.0,-0.00678465982618,0.0107244529249,-0.999919474008,0.0,0.395193681869,-0.0890614412521,0.3049223056,1.0,-0.14998,-0.197116571429,3.299
-0.0976456273236,-0.412007347091,-0.131497432866,-2.55406947118,-0.0514776972764,2.13586319097,-0.364408361858,-0.557584719413,-0.335848182498,-0.00518535811131,-0.27682079296,-0.0445040287157,-0.0520128916868,-0.521601143034,0.57389195142,0.818903935556,0.00501191859263,0.0,0.818892725121,-0.573813320557,-0.0115639438178,0.0,-0.00659398040751,0.0107408847534,-0.999920573254,0.0,0.392683893781,-0.0924727064538,0.304976180566,1.0,-0.14998,-0.197116571429,3.316
-0.108078403865,-0.418292411481,-0.131590923252,-2.55941984048,-0.0523902191081,2.13480081738,-0.374307505423,-0.562036674424,-0.329469485497,-0.0102053384396,-0.2873977954,-0.0531416957391,-0.0568419825803,-0.523624158865,0.573754744668,0.818999720061,0.00506936019789,0.0,0.81898857542,-0.573674853897,-0.0116456961498,0.0,-0.00662978505966,0.0108337300906,-0.999919334868,0.0,0.389824966522,-0.0961374858688,0.304966194538,1.0,-0.14998,-0.197116571429,3.335
-0.116579904252,-0.423179912473,-0.131690399199,-2.56356160305,-0.053146084546,2.13389495743,-0.38214882296,-0.568939054976,-0.315618656865,-0.00440583159436,-0.273783245525,-0.0476593759921,-0.0640109479051,-0.525171237848,0.573846791959,0.818935250365,0.00506576447169,0.0,0.818923358796,-0.573765756997,-0.0117531024147,0.0,-0.00671859703551,0.0108931626994,-0.999918096376,0.0,0.387527768684,-0.0991166060885,0.304950923424,1.0,-0.14998,-0.197116571429,3.35
-0.126783766817,-0.428822798785,-0.131812445247,-2.56829895253,-0.0540674440979,2.13295649115,-0.391611946255,-0.552416993448,-0.31364482519,-0.00151634063069,-0.253752081539,-0.0468170643395,-0.0494301298127,-0.525500801791,0.573919049536,0.818884462588,0.00509003083891,0.0,0.818873065544,-0.573838213769,-0.0117198057231,0.0,-0.00667644114872,0.0108945186713,-0.999918363966,0.0,0.384844479493,-0.10268344601,0.304953201005,1.0,-0.14998,-0.197116571429,3.368
-0.136340649237,-0.434001692112,-0.131862134534,-2.5726789877,-0.0548728585196,2.13203857292,-0.400739405215,-0.570560695044,-0.302534092711,-0.00522564580173,-0.256872002137,-0.0478021697095,-0.0630855862033,-0.542425078461,0.573748166456,0.819004188228,0.00509195980356,0.0,0.818992457888,-0.573666770605,-0.0117701795867,0.0,-0.00671886760013,0.0109236059449,-0.999917762444,0.0,0.382319449826,-0.105958222767,0.304928502479,1.0,-0.14998,-0.197116571429,3.385
-0.145672026331,-0.43883683443,-0.132001974401,-2.57668132636,-0.0556272450638,2.13109325057,-0.409388576653,-0.59950267512,-0.306814995852,-0.0137395699873,-0.243882922559,-0.0464749149986,-0.0626651236104,-0.552030253191,0.573888790736,0.818905445437,0.00512583677166,0.0,0.81889367059,-0.573806465553,-0.0118339874581,0.0,-0.00674980844448,0.0109891196153,-0.99991683621,0.0,0.379895617222,-0.109172549262,0.304927598059,1.0,-0.14998,-0.197116571429,3.401
-0.156616283168,-0.444535081942,-0.132082018531,-2.58121140121,-0.0565297723088,2.13008167885,-0.419748086102,-0.565967511433,-0.294507263605,-0.00147432930569,-0.241977517498,-0.0456213055908,-0.0510153570712,-0.559753538464,0.573811988647,0.818958645229,0.00522359936254,0.0,0.818949380489,-0.57373140598,-0.0116160616889,0.0,-0.0065162565952,0.0109435096163,-0.999918885709,0.0,0.377103195586,-0.112895226641,0.305012509044,1.0,-0.14998,-0.197116571429,3.42
-0.166523951635,-0.449486617064,-0.132171413319,-2.58527415999,-0.0573593356171,2.12911355119,-0.429078147068,-0.589407744248,-0.283026180181,-0.0102351101111,-0.237260548146,-0.0552270736556,-0.0613441038972,-0.553207779048,0.57378975055,0.818974323532,0.00520830674683,0.0,0.818964886238,-0.573709262663,-0.0116165375446,0.0,-0.00652571779421,0.0109310809796,-0.999918959954,0.0,0.374539858346,-0.116231556206,0.305012707413,1.0,-0.14998,-0.197116571429,3.437
-0.175485783921,-0.453668283114,-0.13231125321,-2.5887687083,-0.0580204345042,2.12823372016,-0.437409398179,-0.58990400834,-0.280116922682,-0.0102463382955,-0.226390888108,-0.043676388384,-0.0561900909279,-0.556276693486,0.573948432493,0.818863075985,0.00521598782607,0.0,0.818852813861,-0.573866349483,-0.0117570856829,0.0,-0.00663429118488,0.0110192993625,-0.999917277189,0.0,0.372244102297,-0.119243582554,0.304971394408,1.0,-0.14998,-0.197116571429,3.452
-0.185370428421,-0.458277957826,-0.132308204189,-2.59251301376,-0.0586939594369,2.12729531659,-0.446976363284,-0.574479142717,-0.269656746983,6.55525882098e-05,-0.220543896087,-0.0363989606113,-0.0546267511682,-0.565157626055,0.573726049169,0.819018649679,0.0052553672242,0.0,0.819008747797,-0.573643621202,-0.0117649389135,0.0,-0.00662112397444,0.0110542564798,-0.999916978619,0.0,0.369746741144,-0.122487049006,0.304974887577,1.0,-0.14998,-0.197116571429,3.469
-0.195561320088,-0.462765120193,-0.132428912761,-2.59617088157,-0.0594096393344,2.12636549463,-0.456611580696,-0.601408484109,-0.264758780274,-0.00455230159332,-0.217160351872,-0.0406622274832,-0.0587631248717,-0.562422725609,0.573773941226,0.81898487573,0.00529004695335,0.0,0.818975104899,-0.573690851413,-0.0118038748485,0.0,-0.00663247113085,0.0111053863652,-0.99991633686,0.0,0.367195499217,-0.125861145689,0.304961720169,1.0,-0.14998,-0.197116571429,3.486
-0.205282240843,-0.466928836012,-0.132559165991,-2.59956664372,-0.060103229251,2.12546131728,-0.465709315787,-0.603885942425,-0.264784899815,0.000244090222658,-0.206590401681,-0.0392707580635,-0.0541502102129,-0.567374311316,0.573905421942,0.818892713127,0.00529508777697,0.0,0.818882537476,-0.573821504309,-0.0118750962653,0.0,-0.00668612329426,0.0111514517477,-0.999915466867,0.0,0.364756134371,-0.129059796056,0.304939201347,1.0,-0.14998,-0.197116571429,3.502
-0.215418696279,-0.471270490823,-0.132601328318,-2.60293959092,-0.0607786239975,2.12455270366,-0.475455115854,-0.610366499715,-0.261712339027,-0.00406091710279,-0.196222522106,-0.0379623242006,-0.0505273175085,-0.568946180252,0.573788937045,0.818973912524,0.0053603387388,0.0,0.818965274497,-0.573705973746,-0.011750819457,0.0,-0.00654848230885,0.01113263583,-0.999916587421,0.0,0.362257755321,-0.13234741388,0.304991385966,1.0,-0.14998,-0.197116571429,3.519
-0.224636355964,-0.475031682337,-0.132750219313,-2.60579025561,-0.0613975997876,2.12374661247,-0.484161728027,-0.618975121972,-0.239786297473,-0.0140478227723,-0.187543012966,-0.038480466073,-0.055634893306,-0.581176636365,0.573898706146,0.818896397509,0.00545088362271,0.0,0.818889744692,-0.573816821679,-0.0116012110827,0.0,-0.0063725039371,0.0111218068575,-0.999917844928,0.0,0.360016004305,-0.135370172753,0.305059968575,1.0,-0.14998,-0.197116571429,3.534
-0.234977585783,-0.479041743761,-0.132794049501,-2.6089957511,-0.062053812343,2.12286009191,-0.494093159339,-0.596918659911,-0.228333627147,0.00207386784307,-0.183704995739,-0.0372846443833,-0.053112663042,-0.582787642804,0.57381469202,0.818955238026,0.00545566061495,0.0,0.818948606968,-0.573732737677,-0.0116048164042,0.0,-0.00637385679661,0.0111271340434,-0.999917777038,0.0,0.357484482129,-0.138681575073,0.30505328789,1.0,-0.14998,-0.197116571429,3.551
-0.24539890853,-0.482888362582,-0.132855239084,-2.61216086707,-0.0626875165694,2.12193947232,-0.504077847426,-0.615915618314,-0.223522756676,-0.00438113607128,-0.178711338135,-0.0368993363658,-0.051315754566,-0.572842590423,0.573776711374,0.818982029678,0.00542839296519,0.0,0.81897406946,-0.573693165573,-0.0117631725264,0.0,-0.00651972049175,0.0111953630703,-0.999916075024,0.0,0.354913023979,-0.141988508494,0.304994777675,1.0,-0.14998,-0.197116571429,3.568
-0.255450462393,-0.486415603734,-0.132994079668,-2.61495610267,-0.0633249289108,2.12106580324,-0.513603331556,-0.622652124634,-0.215481569479,-0.0072284715099,-0.171159191314,-0.0446784971529,-0.0537405579068,-0.595866543349,0.573884226219,0.818906763404,0.00541799315353,0.0,0.818898244136,-0.573799971318,-0.0118323948548,0.0,-0.00658091056073,0.0112274260085,-0.999915314675,0.0,0.352472411325,-0.145207684865,0.304981157855,1.0,-0.14998,-0.197116571429,3.584
