nelsonifechukwu/NELSON_IML_WORK/CNN-GradCAM/train2dof/data_sample_2022-02-22-07-48-42/robot_state.csv
position_joint1,position_joint2,position_joint3,position_joint4,position_joint5,position_joint6,position_joint7,velocity_joint1,velocity_joint2,velocity_joint3,velocity_joint4,velocity_joint5,velocity_joint6,velocity_joint7,ee_T_00,ee_T_10,ee_T_20,ee_T_30,ee_T_01,ee_T_11,ee_T_21,ee_T_31,ee_T_02,ee_T_12,ee_T_22,ee_T_32,ee_T_03,ee_T_13,ee_T_23,ee_T_33,v_x,v_y,time
0.465081838964,0.547695508545,-0.124030417237,-1.35581672428,0.0795281178028,1.89413555064,0.159139409551,0.000596194627674,0.000206008161441,-0.00119651757674,-0.000675175392722,-2.38830323208e-05,0.000104139083045,0.00167103459716,0.573818797605,0.81896792542,0.0020667727934,0.0,0.818926320373,-0.573759770049,-0.0118387066556,0.0,-0.00850985378776,0.00848597043829,-0.999927782739,0.0,0.661695992288,0.260881643918,0.303287301504,1.0,0.0,0.0,0.0
0.465079054912,0.547697826561,-0.124022613419,-1.35581143456,0.0795290310296,1.89413633828,0.159139926059,-0.000521476727777,0.00106535874786,0.00180077739036,0.00131312091874,-0.000456731483353,0.000340737321183,0.000334129401578,0.573816010541,0.818969864606,0.00207215223149,0.0,0.818928288555,-0.573756920923,-0.0118406418157,0.0,-0.00850838095337,0.00849145741639,-0.999927748692,0.0,0.661696183982,0.2608851178,0.303287988869,1.0,-0.0,-0.0,0.001
0.465076182119,0.547696525174,-0.124027358415,-1.35581381875,0.0795314712849,1.89413706271,0.159140524746,-0.000423955699766,0.000217942915402,0.00509107719376,0.00114105823411,4.96249913564e-06,-0.000410369837906,0.00154377467084,0.573822948302,0.818965003741,0.00207208876358,0.0,0.818923427607,-0.573763858829,-0.0118406469023,0.0,-0.00850834960193,0.00849148043518,-0.999927748763,0.0,0.661697518514,0.260880649508,0.30328800057,1.0,-0.00034,-0.000446857142857,0.018
0.465078623274,0.547679595729,-0.124025796745,-1.35582836606,0.0795314712853,1.89413470376,0.159135069598,5.31124832938e-05,-0.00655664871721,0.000641044474401,-0.00550852500641,-1.17894758814e-05,-0.00058448907937,0.000258627004145,0.573816138581,0.81896977135,0.00207355246555,0.0,0.818928187964,-0.573757017843,-0.0118429023375,0.0,-0.00850942757331,0.00849390258608,-0.999927719018,0.0,0.661693165216,0.260881503846,0.303292812822,1.0,-0.0007,-0.00092,0.036
0.465078083934,0.547619234663,-0.124026177472,-1.35587428335,0.0795300326568,1.89414507333,0.159140523265,-0.00042762071376,-0.00263538125376,0.00624590090163,-0.00573258503516,-0.000118133602686,0.000517515308068,0.00100356300593,0.573823401902,0.818964624235,0.00209632600116,0.0,0.818923320809,-0.573764173114,-0.011832801343,0.0,-0.00848801237146,0.00850683235394,-0.999927791118,0.0,0.661686614061,0.260876744225,0.303314628514,1.0,-0.00104,-0.00136685714286,0.053
0.465080750883,0.547518817965,-0.124028067496,-1.35599810734,0.0795280029909,1.89417883114,0.159133558399,0.000335101500332,-0.00979793776127,7.83542854494e-05,-0.00974563759662,0.000190167831803,-0.00049634499663,0.00143527811122,0.573833315028,0.818957635388,0.00211303200544,0.0,0.818916511146,-0.573773980438,-0.0118285267892,0.0,-0.00847482271146,0.00851816353824,-0.999927806529,0.0,0.661668046841,0.260860810065,0.303334330996,1.0,-0.00136,-0.00178742857143,0.069
0.465065144308,0.547356637367,-0.124021218617,-1.35621838204,0.0795245272678,1.89424501859,0.159133268781,-0.00254598489196,-0.00736989008662,0.00295390976187,-0.0144152748881,0.000149439452101,0.00361515846038,0.00141578160626,0.573842150921,0.818951417273,0.00212341072251,0.0,0.818910270784,-0.573782615879,-0.0118416646407,0.0,-0.00847953513873,0.00853429346924,-0.999927629041,0.0,0.661637141186,0.260839551499,0.303345371346,1.0,-0.00172,-0.00226057142857,0.087
0.465051410287,0.547192507192,-0.124028619391,-1.35640623583,0.0795223859426,1.89434003158,0.159126084124,-0.000114386951194,-0.0181033891839,-0.000209669757422,-0.0066612759929,-6.29423294136e-05,0.00431459765174,0.00161957531104,0.573862734789,0.818936825633,0.00218726868855,0.0,0.818896502931,-0.573802938867,-0.0118089684999,0.0,-0.00841590000784,0.00856803859968,-0.99992787807,0.0,0.661622758424,0.260812153597,0.303380711616,1.0,-0.00204,-0.00268114285714,0.103
0.46503218366,0.54699717132,-0.124028984151,-1.35663484367,0.079520337245,1.89446889833,0.159110431092,-0.00036234010474,-0.00914904836017,-8.18836912758e-05,-0.0143730176947,0.000153515269276,0.00737900433744,0.000302241429097,0.573878383433,0.818925622526,0.00227435702293,0.0,0.818886393338,-0.573818210517,-0.0117678794279,0.0,-0.00833211092829,0.00861593752568,-0.999928168194,0.0,0.661606410849,0.260783082515,0.303421460191,1.0,-0.00238,-0.003128,0.12
0.465010120785,0.546808798407,-0.124026122928,-1.35689513831,0.0795161499131,1.89458278013,0.159089737368,-0.0060124246541,-0.0175594021938,0.000494579693428,-0.0212760912029,-0.00013834302215,0.00626199402927,-0.0068448737027,0.573891048157,0.818916628448,0.00231676468349,0.0,0.818877860241,-0.573830619627,-0.0117565678458,0.0,-0.00829837815805,0.00864430278007,-0.999928203897,0.0,0.661579726949,0.260748776009,0.303440772761,1.0,-0.00268,-0.00352228571429,0.135
0.464977436997,0.546561343368,-0.124024328579,-1.35726477252,0.0795086098716,1.89471714021,0.15902613192,-0.00259080752199,-0.0117878194884,0.000501403966402,-0.0278745119401,-0.000197278991735,0.0130514740085,-0.00125273051793,0.573883133128,0.818922120142,0.00233614098799,0.0,0.818883459774,-0.573822482404,-0.0117637110375,0.0,-0.00829319263227,0.00866418937469,-0.999928074803,0.0,0.661536787814,0.260695464347,0.303451681276,1.0,-0.00302,-0.00396914285714,0.152
0.464943136732,0.546268697599,-0.124028991418,-1.35767894461,0.0794963091733,1.89486415813,0.158930237617,0.000654789488716,-0.0165826216201,0.000409530368868,-0.0266465519879,-0.0015616210427,0.00669874841239,-0.00304193015605,0.573855776764,0.818941207261,0.0023650423806,0.0,0.818902822868,-0.573794916484,-0.0117604173913,0.0,-0.00827420042506,0.00868569056528,-0.999928045605,0.0,0.661489490569,0.260632741694,0.303474681372,1.0,-0.00336,-0.004416,0.169
0.464897707324,0.545979277389,-0.124023704627,-1.35816954573,0.0794799013165,1.89503392127,0.158904503104,-0.00274122580726,-0.0162174358571,0.00167210385214,-0.0274189809939,0.000237296783295,0.00574697013949,-0.00379500472736,0.573891279419,0.818916383216,0.00234597715009,0.0,0.818877590601,-0.573830318617,-0.0117899935765,0.0,-0.00830898605604,0.00868740987379,-0.99992774222,0.0,0.661429912834,0.260560175972,0.303460637953,1.0,-0.0037,-0.00486285714286,0.186
0.464834173191,0.545635549557,-0.124026567792,-1.35877065735,0.0794374162763,1.89523310039,0.158820605127,-0.00379409525595,-0.0168988224689,0.000832107987311,-0.0327378979568,-0.0029438369819,0.0156038721815,-0.00366802651685,0.573898871711,0.818911215792,0.00229185529091,0.0,0.818871746002,-0.573838144835,-0.0118149919136,0.0,-0.00836043636847,0.00865751275608,-0.999927572665,0.0,0.661360255895,0.260456284523,0.303435200069,1.0,-0.00406,-0.005336,0.204
0.464776201677,0.545232481484,-0.124032212264,-1.35945766954,0.0793431756796,1.89544805268,0.15875281541,-0.00394921074103,-0.0232872479704,-0.00051109404037,-0.039974995211,-0.00336070849592,0.0118209254789,-0.00335896985035,0.57390793636,0.818905108097,0.00220259300934,0.0,0.818864910964,-0.573847999992,-0.0118100550152,0.0,-0.00840752265652,0.0085816756544,-0.999927831599,0.0,0.66127758937,0.260337737009,0.303412221814,1.0,-0.00442,-0.00580914285714,0.222
0.46471025968,0.544844433384,-0.124032794103,-1.36010080535,0.0793320051539,1.89565185046,0.158651443256,-0.00455785960896,-0.0292777681318,-0.00239823650437,-0.0348759243184,-0.000229267460399,0.0161671791867,-0.00616447587186,0.57391209178,0.818902270416,0.0021746996002,0.0,0.818861411754,-0.573851960699,-0.0118601198566,0.0,-0.00846448641609,0.00858760911852,-0.999927300077,0.0,0.661198568076,0.260234564351,0.3033984805,1.0,-0.00474,-0.00622971428571,0.238
0.464644314431,0.544476869289,-0.12402971878,-1.36074434764,0.0793114064584,1.89586968599,0.158571260053,-0.00598360171021,-0.0312140826907,0.000164012228217,-0.040984901965,-0.00114525557283,0.0158670199363,-0.00131696040191,0.573928667284,0.818890757308,0.00213526735376,0.0,0.818849168251,-0.573868473074,-0.0119063918763,0.0,-0.00852483577395,0.00858204674931,-0.999926835148,0.0,0.661121327699,0.260132620681,0.303371100708,1.0,-0.00504,-0.006624,0.253
0.464579904074,0.543998906334,-0.12403565503,-1.36152517218,0.0792775475588,1.89615144744,0.158500051646,-0.00294652931365,-0.0255689392019,-0.00078165868739,-0.0479727597744,-0.0061384473011,0.0131472048584,-0.00290894227687,0.573961788966,0.818867576741,0.00212213836869,0.0,0.818825710373,-0.573901537178,-0.0119259615031,0.0,-0.0085480493009,0.00858287290362,-0.999926629881,0.0,0.661030497973,0.260013826208,0.303362292827,1.0,-0.00538,-0.00707085714286,0.27
0.464509701246,0.543521695035,-0.124033598988,-1.36230406986,0.07923877731,1.89640936142,0.158378720283,-0.00579589390542,-0.0241018191043,-0.00166068196524,-0.0459915780336,0.000126738327321,0.0172314373275,-0.00772358859547,0.573951399194,0.818874940475,0.0020904845133,0.0,0.81883252227,-0.573891139447,-0.0119585717409,0.0,-0.00859302962564,0.00857556079598,-0.999926307084,0.0,0.660935172156,0.259893642216,0.303351475746,1.0,-0.0057,-0.00749142857143,0.286
0.464432246376,0.542983432407,-0.124037604502,-1.36316498654,0.0791864153924,1.89671519175,0.158272678684,-0.00417055879078,-0.0360582695462,0.000414560454038,-0.0488701835977,-0.00237970412786,0.0252744799545,-0.00714000477452,0.573971823678,0.818860667376,0.00207363201075,0.0,0.818818018373,-0.573911620299,-0.0119687833532,0.0,-0.00861085020267,0.00856783661975,-0.999926219995,0.0,0.660830336407,0.259748291866,0.303348736661,1.0,-0.00606,-0.00796457142857,0.304
0.464360627591,0.542404349317,-0.124038629571,-1.36407457048,0.0791382938908,1.89703253905,0.158157308232,-0.002902246121,-0.0359127052156,3.35306300568e-05,-0.0509168839505,-0.00164432514143,0.0173929929008,-0.00738744131502,0.573967254577,0.818863886034,0.00206729869969,0.0,0.818821069886,-0.573906994121,-0.0119818408843,0.0,-0.00862522566795,0.00857009705109,-0.999926076727,0.0,0.660726510615,0.259622736827,0.303353258793,1.0,-0.00638,-0.00838514285714,0.32
0.464282005088,0.541841610911,-0.124039055194,-1.36494663353,0.0790832952994,1.8973586204,0.158046497024,-0.00323307135098,-0.0350961180564,-0.00273462447935,-0.0559908705443,-0.00845955093214,0.0158450577137,-0.0104106770034,0.573970596689,0.818861518487,0.00207715626372,0.0,0.818818862979,-0.57391032658,-0.0119730353774,0.0,-0.00861232231429,0.00857315004956,-0.999926161775,0.0,0.66062264745,0.259476557212,0.303363442075,1.0,-0.00672,-0.008832,0.337
0.464193699082,0.54119478232,-0.124042439924,-1.36593200391,0.0790280489195,1.89771686441,0.157906838557,-0.00695867401191,-0.0385283488863,0.000901482918572,-0.0618130060396,-0.00229124846063,0.0199651487267,-0.0187463519108,0.573975215305,0.818858226597,0.0020985353844,0.0,0.818815801625,-0.573914807634,-0.0119676016602,0.0,-0.00859555403168,0.00858758601025,-0.999926182184,0.0,0.660516766326,0.259334239588,0.303383830581,1.0,-0.00704,-0.00925257142857,0.353
0.464103758093,0.540511844527,-0.124044975835,-1.36699423275,0.0789633918805,1.89810582033,0.15778291248,-0.00860768293344,-0.038039114152,-9.93177078618e-06,-0.0555164552386,-0.00501498345834,0.0205427813696,-0.00454389863684,0.573990768606,0.818847306384,0.00210553634911,0.0,0.818804975964,-0.573930333238,-0.0119637296663,0.0,-0.00858820198255,0.00859125943463,-0.999926213802,0.0,0.660394571843,0.259172169794,0.303394757053,1.0,-0.00738,-0.00969942857143,0.37
0.464005850783,0.539786109335,-0.124048158982,-1.36810566104,0.0788991879486,1.89851797226,0.157651418419,-0.00633971608531,-0.039293477155,0.000113418676773,-0.064981408117,-0.00131253651613,0.0255737289717,-0.0120529506331,0.574009883159,0.818833847386,0.00212868819156,0.0,0.818791802909,-0.573949333897,-0.0119537655156,0.0,-0.00856655357095,0.00860469765619,-0.999926283952,0.0,0.660268749157,0.259000843671,0.303414438933,1.0,-0.00772,-0.0101462857143,0.387
0.463913800984,0.539076638898,-0.124048171805,-1.36919716516,0.0788354540327,1.89892351571,0.157507412558,-0.00596921015807,-0.0388832386166,0.000101494789483,-0.0715297075877,-0.00456471264784,0.0208550702479,-0.00247815846563,0.574021959827,0.81882531913,0.00215250763832,0.0,0.818783565763,-0.573961291803,-0.0119438205547,0.0,-0.00854461112287,0.00861861909719,-0.999926351801,0.0,0.660138142399,0.258822193026,0.303431293332,1.0,-0.00806,-0.0105931428571,0.404
0.463791283455,0.538255897204,-0.124056715229,-1.37046157249,0.078762931938,1.89941843707,0.157353394245,-0.0066253265751,-0.0403375607438,-0.00323060983738,-0.0687397102788,-0.00497652510983,0.0245910983514,-0.0040619949601,0.574041503833,0.818811512927,0.00219204851235,0.0,0.818770306164,-0.573980704289,-0.0119198888166,0.0,-0.00850211233889,0.00863746143127,-0.999926551476,0.0,0.660008701847,0.258633709883,0.303452410518,1.0,-0.0084,-0.01104,0.421
0.463686992141,0.537463199271,-0.124060270066,-1.37171273147,0.0786979469252,1.89988869281,0.157202005576,-0.00713164292599,-0.0425445422723,0.000239356282543,-0.0749602822681,-0.00687003948371,0.0318503256448,-0.00366915601925,0.574057143168,0.81880051112,0.00220596226787,0.0,0.818759405835,-0.573996204288,-0.0119222363997,0.0,-0.00849588286129,0.00865036386984,-0.999926492888,0.0,0.659864949809,0.258446093034,0.303457568673,1.0,-0.00874,-0.0114868571429,0.438
0.463573849906,0.536618886957,-0.124066549778,-1.37300982206,0.0786131686056,1.90037189907,0.157039562855,-0.00645587852976,-0.0514113343461,-0.000257584771206,-0.076345446406,-0.000222737837934,0.0331960167498,-0.0131397105452,0.574069914914,0.818791501059,0.00222654103401,0.0,0.818750746224,-0.574008975744,-0.0119020260122,0.0,-0.00846738622919,0.00865574384309,-0.999926688047,0.0,0.659718221059,0.258243979635,0.303478330565,1.0,-0.00908,-0.0119337142857,0.455
0.46346758164,0.535814670287,-0.124074932831,-1.37428528725,0.078544468422,1.90084607889,0.156883470525,-0.00217658594708,-0.0484597682672,0.000151140719586,-0.0850455728518,-0.0103816475546,0.0285633535544,-0.0124479735753,0.574086811608,0.818779643043,0.00223064517172,0.0,0.818738896412,-0.574025807611,-0.0119054021151,0.0,-0.00846761602578,0.00866121706264,-0.999926638708,0.0,0.659571173377,0.258049215677,0.303480252404,1.0,-0.0094,-0.0123542857143,0.471
0.463351078599,0.534917859309,-0.124071315606,-1.37569659635,0.0784704215096,1.90135168411,0.156714103606,-0.0083916298587,-0.0512887901123,0.000601880651873,-0.0826258593835,-0.0071068850709,0.032117401512,-0.0108566101112,0.574098553304,0.818771411813,0.00223006550944,0.0,0.818730499915,-0.574037388884,-0.011924410865,0.0,-0.00848338906844,0.00867177663457,-0.999926413492,0.0,0.659401170852,0.257841045924,0.303485029582,1.0,-0.00974,-0.0128011428571,0.488
0.463228018193,0.534021969593,-0.124079197537,-1.3771780667,0.0783806679109,1.90187271054,0.156542433579,-0.00825317603064,-0.0564768546026,-0.000122423709307,-0.0817660157995,-0.00133355944391,0.0287399560702,-0.0106090660837,0.574122716981,0.818754615646,0.00217534022898,0.0,0.818712969506,-0.574061750417,-0.0119552152482,0.0,-0.00853977246298,0.00864490636018,-0.999926166214,0.0,0.659233844593,0.257621556237,0.3034592569,1.0,-0.01006,-0.0132217142857,0.504
0.463091496111,0.533100995371,-0.124077622016,-1.37865518125,0.078303292547,1.90244309175,0.156346489324,-0.0109591737918,-0.0511463021973,0.000931746808074,-0.0853520591651,-0.00600161400772,0.0278330729279,-0.010417001812,0.57413190513,0.818748136141,0.00218905902434,0.0,0.818706563231,-0.574070774197,-0.0119606201938,0.0,-0.00853622503071,0.00865933736803,-0.999926071637,0.0,0.659056068947,0.257385902878,0.303453126541,1.0,-0.01042,-0.0136948571429,0.522
0.462962740373,0.53214046178,-0.124082968842,-1.38019802176,0.0782106729938,1.9030232436,0.156157480874,-0.0124253287645,-0.0592546307184,9.77889470307e-05,-0.0946341003053,-0.00576920676203,0.0339224072955,-0.00921290086235,0.574139565473,0.81874277808,0.00218394153324,0.0,0.818701144683,-0.57407846086,-0.0119625822187,0.0,-0.00854068843948,0.00865635385181,-0.999926059356,0.0,0.658886722713,0.257165754772,0.303446428772,1.0,-0.01074,-0.0141154285714,0.538
0.462833782271,0.531142381534,-0.124080780305,-1.38180152486,0.0781233929364,1.90359924807,0.155949220016,-0.010367659263,-0.0603972855581,0.000942031454072,-0.0982867881697,-0.00675906131397,0.0276365341355,-0.0044050825188,0.574143339321,0.818740182178,0.00216492555155,0.0,0.818698154915,-0.574082165041,-0.0119894045777,0.0,-0.00857352720729,0.0086562239944,-0.999925779454,0.0,0.658681773302,0.256915817989,0.303436509568,1.0,-0.0111,-0.0145885714286,0.556
0.46268459156,0.530050768557,-0.124080467414,-1.38354277302,0.0780088564051,1.90420910383,0.155725347924,-0.0127468378111,-0.0606410824615,0.000483407055291,-0.096087543088,-0.00668253195181,0.0350476175669,-0.00624903409299,0.574145696424,0.818738630175,0.00212641443514,0.0,0.818696102421,-0.574084684198,-0.0120089196666,0.0,-0.00861159027803,0.00863592302374,-0.999925627908,0.0,0.658470142634,0.256648252965,0.303429651302,1.0,-0.01146,-0.0150617142857,0.574
0.462551790533,0.529068524169,-0.124091789926,-1.3851044275,0.0779183834461,1.9047858108,0.155517319648,-0.00822264618176,-0.0662285848398,-0.00151225900995,-0.104418782944,-0.0080130748164,0.0293121740284,-0.0153214459868,0.574152605224,0.81873379454,0.00212285032431,0.0,0.818691213013,-0.57409159977,-0.0120116489151,0.0,-0.00861579823697,0.00863464466835,-0.999925602699,0.0,0.658287633702,0.256406242835,0.303428524835,1.0,-0.01178,-0.0154822857143,0.59
0.4624302889,0.528113163994,-0.124086606645,-1.38660647608,0.0778191422864,1.90536651922,0.155299925526,-0.00808856324724,-0.0626215825192,-0.000570902146715,-0.100344408831,-0.00360083870014,0.0379314792625,-0.0181130939438,0.574125283698,0.818752890332,0.00214711279174,0.0,0.818710687772,-0.574064243138,-0.0119917213317,0.0,-0.00858584112469,0.00864278100234,-0.999925790081,0.0,0.658112578738,0.256186869156,0.303436412793,1.0,-0.01208,-0.0158765714286,0.605
0.462278239537,0.526961869252,-0.124086418929,-1.38836722017,0.0777066151942,1.90603847558,0.155063529394,-0.00852157884455,-0.0726874186536,0.00106277979684,-0.108321559507,-0.00286454945378,0.0362447614672,-0.00848038315382,0.574121093067,0.818755697708,0.00219655791717,0.0,0.818714203052,-0.574059913008,-0.0119589672806,0.0,-0.00853068099491,0.00866441534856,-0.999926074962,0.0,0.657909550933,0.255920422666,0.303466905423,1.0,-0.01242,-0.0163234285714,0.622
0.462126257302,0.525790928866,-0.124098192702,-1.39018078711,0.0775960185103,1.90670376832,0.154818241154,-0.00834468919567,-0.0731628525574,-0.00112760335469,-0.110681280211,-0.00668896903167,0.036608145944,-0.0119268170123,0.574121041117,0.818755690272,0.00221284776399,0.0,0.818714438881,-0.57405982608,-0.0119469891584,0.0,-0.00851152222572,0.00867087521048,-0.999926182232,0.0,0.657695361608,0.255640951651,0.303485600141,1.0,-0.01276,-0.0167702857143,0.639
0.461963507687,0.524623542263,-0.124103529748,-1.39201827032,0.0774771707255,1.90736496768,0.154570747485,-0.0114405511101,-0.0689400740174,-0.000982088490619,-0.111065832353,-0.00351041376896,0.0412919669421,-0.0171259560725,0.574122185902,0.818754921827,0.00220012288989,0.0,0.818713540248,-0.57406105883,-0.0119493368151,0.0,-0.0085207375048,0.00866181653934,-0.999926182259,0.0,0.657475796573,0.255353703187,0.303489539383,1.0,-0.0131,-0.0172171428571,0.656
0.46182111303,0.523498471903,-0.124108609821,-1.39380421457,0.0773670298531,1.9080145717,0.154323039231,-0.00833470758142,-0.0735758984002,-0.000647796664256,-0.110330370182,-0.00593963795871,0.0449477730352,-0.0197025594149,0.574105745946,0.818766481774,0.00218808053177,0.0,0.8187249351,-0.574044661877,-0.0119563254169,0.0,-0.00853354684477,0.00865579786456,-0.999926125142,0.0,0.657258611593,0.255086196573,0.303486964123,1.0,-0.01342,-0.0176377142857,0.672
0.461656022577,0.522284464413,-0.124109502489,-1.39575125119,0.0772473113925,1.90876634795,0.154066117159,-0.00883332558723,-0.0685238879287,0.000139011585581,-0.119193181441,-0.00482008591251,0.0490413803296,-0.011364058508,0.574103507545,0.818768018549,0.00220030148804,0.0,0.81872665984,-0.574042402988,-0.0119466706964,0.0,-0.00851864955123,0.00866023777462,-0.999926213724,0.0,0.657031023613,0.254793645986,0.303478667255,1.0,-0.01376,-0.0180845714286,0.689
0.461482035688,0.520955539115,-0.124117765933,-1.39786345728,0.0771150000469,1.90958245893,0.153778258396,-0.00691918826118,-0.0695930699149,-0.000320798231876,-0.118850307398,-0.00672206430498,0.0417398243504,-0.0132263767088,0.574093582569,0.81877492023,0.00222156612324,0.0,0.81873392745,-0.574032483546,-0.0119252160593,0.0,-0.00848898014776,0.00866522840005,-0.99992642281,0.0,0.656784302688,0.254475233915,0.303477942087,1.0,-0.01412,-0.0185577142857,0.707
0.461297444684,0.519587033154,-0.124124180815,-1.40003308647,0.0769802415549,1.9103687909,0.153487090022,-0.0108679314636,-0.0736637576446,0.000298055720215,-0.125164878431,-0.0104509885129,0.0371117490949,-0.0250139163589,0.574090045296,0.818777443481,0.0022056380927,0.0,0.818736236565,-0.574029004416,-0.0119341495479,0.0,-0.00850547597525,0.0086572789652,-0.999926351488,0.0,0.656520728668,0.254142318607,0.303474624312,1.0,-0.01448,-0.0190308571429,0.725
0.461129043748,0.518238135052,-0.124129504802,-1.40212036955,0.0768451462774,1.91111183783,0.153205316724,-0.0067172030071,-0.0834977545211,0.000683489322226,-0.125013638499,-0.00141185571013,0.0488237715415,-0.0176105365813,0.574075173442,0.818787872089,0.00220514372463,0.0,0.818746681464,-0.574014159581,-0.0119316005755,0.0,-0.00850382984907,0.00865525641703,-0.999926382997,0.0,0.656262323344,0.253827270089,0.303492483803,1.0,-0.01482,-0.0194777142857,0.742
0.460976612847,0.517122011111,-0.124130807123,-1.40388565176,0.0767316936857,1.91174601063,0.152967155708,-0.0117916737292,-0.0816805708559,6.99959680641e-05,-0.12824030086,-0.00375000535627,0.0448653315348,-0.0105179780089,0.574069256533,0.818792036785,0.00219911401934,0.0,0.818750779822,-0.574008280304,-0.0119332134819,0.0,-0.00850867433415,0.00865118387196,-0.999926377029,0.0,0.656032204189,0.253536206589,0.303499254024,1.0,-0.01512,-0.019872,0.757
0.460799536687,0.515777600724,-0.124141187207,-1.40603139344,0.0765957188016,1.91255460893,0.152664361908,-0.0113620562754,-0.0752876712502,-0.00136935821772,-0.134807552618,-0.00666008335658,0.0593538857812,-0.0158251128867,0.574049977064,0.818805583128,0.00218809775348,0.0,0.818764244818,-0.573989111148,-0.011931412022,0.0,-0.00851372640925,0.00864092936698,-0.999926422694,0.0,0.655788163594,0.253230024591,0.303482419656,1.0,-0.01544,-0.0202925714286,0.773
0.460583812256,0.514217485196,-0.124142323885,-1.40852355993,0.0764536932479,1.9134564844,0.152328630655,-0.0138797190561,-0.086116837404,-0.000531381782361,-0.134721480544,-0.00689464085483,0.0438507298706,-0.0197592779824,0.574045536151,0.818808752254,0.00216715460452,0.0,0.818766978371,-0.573984591629,-0.0119612124115,0.0,-0.0085501966772,0.00864084158195,-0.999926112267,0.0,0.655480045141,0.252850893054,0.303468166656,1.0,-0.01582,-0.020792,0.792
0.460396913649,0.512814219138,-0.124140135016,-1.41079787117,0.0763140854995,1.91424816927,0.152011318547,-0.0139731314572,-0.084385353283,0.000450255291293,-0.133676608603,-0.0120806809139,0.0401306075815,-0.0235888005189,0.574018707828,0.818827734622,0.00210023301501,0.0,0.818784956327,-0.573957912631,-0.012010692006,0.0,-0.00862940851202,0.00861416695227,-0.999925661955,0.0,0.655188397299,0.252509439544,0.303437525931,1.0,-0.01616,-0.0212388571429,0.809
0.46019566746,0.511408422763,-0.124140866106,-1.41310286366,0.076171193542,1.91510078092,0.151694233903,-0.0140136422922,-0.0825789276744,-0.00184548150371,-0.13534524463,-0.011686411571,0.0441181569251,-0.0154212340391,0.574006591749,0.818836337749,0.00205706368011,0.0,0.818792961204,-0.573945946066,-0.0120368010262,0.0,-0.00867569374447,0.00859367784955,-0.99992543774,0.0,0.654905247617,0.252156892402,0.303399019435,1.0,-0.0165,-0.0216857142857,0.826
0.460015195844,0.510112408425,-0.124139378561,-1.41514420406,0.0760540902098,1.91588083718,0.151398112678,-0.0103696888535,-0.0899518515437,0.00132732074063,-0.13413178405,-0.00442888895646,0.0540548877899,-0.0207854316162,0.573986058074,0.818850648881,0.002089704675,0.0,0.818807620162,-0.573925198715,-0.0120288962544,0.0,-0.00865070188521,0.00861565073381,-0.999925465182,0.0,0.654659637896,0.25184834904,0.30340229981,1.0,-0.0168,-0.02208,0.841
0.459824024123,0.508692234545,-0.124147262135,-1.41737498918,0.0758981277356,1.91668876417,0.151088186093,-0.00975608061058,-0.0842911383794,-0.000365352841746,-0.138156071258,-0.00248565569232,0.0452678466657,-0.0242021932955,0.573968097181,0.8188632757,0.00207509765845,0.0,0.818820200168,-0.573907444967,-0.0120196218737,0.0,-0.00865167951658,0.00859817691727,-0.99992560713,0.0,0.654383733188,0.251502271748,0.303404544143,1.0,-0.01712,-0.0225005714286,0.857
0.459611932677,0.507155812529,-0.124149747063,-1.41976423195,0.0757443577028,1.91755295589,0.150749353312,-0.0116304207146,-0.0929663502967,0.000557629119947,-0.140835403583,-0.00887193883631,0.0542976682529,-0.0226904731247,0.573950890685,0.818875344087,0.002071914516,0.0,0.818832214732,-0.573890241906,-0.0120225314637,0.0,-0.00865606972253,0.00859705851378,-0.999925578752,0.0,0.654069035738,0.251110648846,0.30340972728,1.0,-0.01748,-0.0229737142857,0.875
0.459391863071,0.505587100249,-0.124158604735,-1.42220832613,0.075589619045,1.91847757461,0.150418014165,-0.011785857087,-0.098017264428,-0.000297028828867,-0.144117569557,-0.00795292714193,0.0621136169231,-0.020205569904,0.573948128555,0.818877165278,0.00211679365231,0.0,0.818834714299,-0.573887384199,-0.0119886536931,0.0,-0.00860259920642,0.00861433532924,-0.999925891511,0.0,0.653793020102,0.250751901976,0.30343063183,1.0,-0.0178,-0.0233942857143,0.891
0.459157438729,0.503836458,-0.124163180652,-1.42484766131,0.0754241314383,1.91948434758,0.15006256405,-0.0132283981041,-0.0958249432989,-8.52639072329e-05,-0.145705240985,-0.013275905097,0.0539846958097,-0.0209100780682,0.573943610738,0.818880074814,0.00221397062397,0.0,0.818838957398,-0.573882535159,-0.0119308251565,0.0,-0.00849951956439,0.00866067301164,-0.999926372745,0.0,0.653475269446,0.250347448783,0.30348484313,1.0,-0.01816,-0.0238674285714,0.909
0.458954987447,0.502348798827,-0.12416856272,-1.42703125921,0.0752885128015,1.92030447954,0.149760930687,-0.0149571678555,-0.104032131558,-0.00172782599273,-0.142570780343,-0.00779719480482,0.0509953671524,-0.0181562767628,0.573934790647,0.818885946789,0.00232575510716,0.0,0.818846340637,-0.573873328424,-0.0118667708411,0.0,-0.00838300444994,0.0087153564947,-0.999926881226,0.0,0.653193780816,0.249981514901,0.303563522728,1.0,-0.01848,-0.024288,0.925
0.458718646423,0.500635916801,-0.124168540021,-1.42961558526,0.0751252576755,1.9212065081,0.149389258277,-0.0147600365274,-0.103683870431,-0.00106680699242,-0.158702618251,-0.0114690350328,0.0491062567162,-0.0232352427642,0.573918335919,0.818897420227,0.00234643168378,0.0,0.818857990784,-0.573856698737,-0.0118670613542,0.0,-0.00837155156706,0.00873228656231,-0.999926829471,0.0,0.652883016651,0.249602899241,0.303598965851,1.0,-0.0188,-0.0247085714286,0.941
0.458442779193,0.498736654576,-0.124166412031,-1.43253081426,0.0749417878751,1.9222819767,0.148977018385,-0.0169805746667,-0.100398176629,0.00112905219798,-0.154416456274,-0.0181984298652,0.0578455891117,-0.0273492889198,0.573903976792,0.818907340211,0.00239592811633,0.0,0.818868531953,-0.57384212548,-0.0118443785411,0.0,-0.00832472432154,0.00875965473716,-0.999926981041,0.0,0.65252263476,0.249146693013,0.303629281204,1.0,-0.01918,-0.025208,0.96
0.458210056316,0.497169030274,-0.12416892599,-1.43503015622,0.0747897119561,1.92320254834,0.148609490901,-0.0169684264736,-0.101418594182,-0.000412596692302,-0.160240448646,-0.0079740884691,0.0594981355969,-0.0302847101382,0.573881254113,0.818923292887,0.00238609404966,0.0,0.818884289655,-0.573819373231,-0.011857232468,0.0,-0.00834113745791,0.00875874700297,-0.999926852213,0.0,0.652210345009,0.248755563318,0.303612451004,1.0,-0.0195,-0.0256285714286,0.976
0.457930055943,0.495405265472,-0.124164636628,-1.43788195676,0.0746082875591,1.92417219476,0.148191729262,-0.0154988347324,-0.0961658211018,-0.000242052684776,-0.15361811081,-0.0109955735037,0.055215592439,-0.0250431876526,0.573859996079,0.818938476593,0.0022854663901,0.0,0.818897988171,-0.573798332834,-0.0119291704351,0.0,-0.00845802270191,0.00871740536508,-0.999926231627,0.0,0.651838255377,0.248297284978,0.30356800105,1.0,-0.01986,-0.0261017142857,0.994
0.457642695831,0.493685329642,-0.124187602782,-1.44071154853,0.0744313931812,1.92517621066,0.147802320103,-0.0206106988374,-0.111035526166,-0.0047030825106,-0.177093959625,-0.015794090102,0.0616061712183,-0.0265274632723,0.573887520339,0.818919454093,0.00218828887208,0.0,0.818877678066,-0.5738262278,-0.0119814671773,0.0,-0.00855632374704,0.00866812228714,-0.999925823739,0.0,0.651483556211,0.247823433926,0.303506816096,1.0,-0.0247857142857,-0.0325755102041,1.011
0.457364387353,0.491433048344,-0.124253950491,-1.44412041611,0.0742337676882,1.92647715027,0.147299464329,-0.0180941028388,-0.146199294032,-0.00361106398058,-0.230545209709,-0.0131937079344,0.0846649874711,-0.0375977431617,0.573869386587,0.818931847095,0.00230300966006,0.0,0.818891764053,-0.573807834777,-0.0118993451706,0.0,-0.00842342991041,0.00871475334302,-0.999926546754,0.0,0.651068492646,0.247285099288,0.303566354489,1.0,-0.0324748571429,-0.0426812408163,1.027
0.456992330915,0.488886873148,-0.124259505061,-1.44824060694,0.0740176868118,1.92799004537,0.146699963265,-0.0293102578365,-0.181088707643,0.000249163184621,-0.291253218469,-0.0187171506772,0.108045498223,-0.0428813848327,0.573835160241,0.818955924466,0.00226926308739,0.0,0.818914956213,-0.573773289344,-0.0119688690898,0.0,-0.0085000973574,0.0087266594091,-0.999925794127,0.0,0.650538460031,0.246652607202,0.303507335093,1.0,-0.0396834285714,-0.0521553632653,1.042
0.45643600515,0.485242924979,-0.124328497538,-1.4539363918,0.073677267966,1.93014339767,0.145838768241,-0.0385666007949,-0.228115454198,-0.00265996632005,-0.348524455393,-0.0246977745271,0.139674133813,-0.0598154192217,0.573826122118,0.818962044239,0.00234490349352,0.0,0.818922213053,-0.573764104753,-0.0119125129731,0.0,-0.00841063645362,0.00875617326584,-0.999926292596,0.0,0.649842820323,0.245714539792,0.303516338664,1.0,-0.0478531428571,-0.0628927020408,1.059
0.455773726101,0.48092374228,-0.124439350376,-1.4607330003,0.0732661778317,1.93251602781,0.144797650222,-0.044090145198,-0.268893301894,-0.00391913336418,-0.432723902382,-0.0213021532068,0.147827611365,-0.0655509086344,0.573818168284,0.818967900867,0.00224365720932,0.0,0.818926756103,-0.573756565119,-0.0119632363028,0.0,-0.00851035731954,0.00870228080815,-0.99992591932,0.0,0.64897123731,0.244566223958,0.303486760863,1.0,-0.0560228571429,-0.0736300408163,1.076
0.455020762703,0.476216187686,-0.124541165443,-1.46808396168,0.0728212453974,1.93512822704,0.143723161836,-0.0477555791885,-0.304025014829,-0.00499483857018,-0.481682358646,-0.0298680650982,0.172092525856,-0.0611662691408,0.573865410232,0.818934897673,0.002207082503,0.0,0.818893272133,-0.573803947032,-0.0119827428985,0.0,-0.00854681823055,0.0086840138761,-0.999925767145,0.0,0.648034480071,0.243315594274,0.303478203042,1.0,-0.063712,-0.0837357714286,1.092
0.453981802657,0.469859566015,-0.124633681872,-1.47787995285,0.0722491033729,1.93867678123,0.142275059718,-0.0517909521499,-0.358357711346,-0.00709967287893,-0.535026094184,-0.0211988898331,0.192771572388,-0.0768022098375,0.573913614214,0.818900838062,0.0023081901398,0.0,0.818860255878,-0.573851450083,-0.0119641749062,0.0,-0.00847307773161,0.00875665662277,-0.999925761204,0.0,0.646784959467,0.241661995167,0.303520575316,1.0,-0.0728428571429,-0.0957363265306,1.111
0.452904609406,0.463444954532,-0.124687794255,-1.48761951411,0.0716287683608,1.94227804553,0.140674282743,-0.065430624223,-0.388417276432,-0.00349926465244,-0.602598242612,-0.0339607030069,0.21426641627,-0.0931143998001,0.573816459349,0.81896825418,0.00253308641303,0.0,0.818930724221,-0.57375355724,-0.0118351756056,0.0,-0.00823942439779,0.00886581154685,-0.999926751953,0.0,0.64554785325,0.240011901621,0.303623265056,1.0,-0.0810125714286,-0.106473665306,1.128
0.451681069771,0.456427128003,-0.124750035534,-1.49856136192,0.0709224046976,1.94595529261,0.139054715587,-0.0716482634566,-0.417730618824,-0.008496745697,-0.668644824601,-0.0384653892618,0.225880403982,-0.104680907372,0.573852614918,0.818943550254,0.00232050656019,0.0,0.81890276717,-0.57379003473,-0.0120000361167,0.0,-0.00849603221574,0.00878669051905,-0.999925302963,0.0,0.644062883927,0.238124199741,0.303566078243,1.0,-0.0891822857143,-0.117211004082,1.145
0.450431873197,0.449118649066,-0.124871750297,-1.50944737474,0.0701560912736,1.94996311871,0.137298945514,-0.0828670026086,-0.469804627905,-0.00545535787283,-0.691177415317,-0.0498082983819,0.268701226454,-0.108341670544,0.573816589274,0.818967830749,0.00263836593025,0.0,0.81893221445,-0.573753893134,-0.0117151675585,0.0,-0.00808072821728,0.00888317137353,-0.999927892949,0.0,0.642575735447,0.236087306564,0.303753496723,1.0,-0.097352,-0.127948342857,1.162
0.449047009839,0.441413317356,-0.124909063167,-1.5211964375,0.0694161314326,1.95412911527,0.135499243006,-0.0879996823942,-0.497281335295,1.9024897738e-05,-0.77455239878,-0.0414402389592,0.264450974705,-0.117301750291,0.57381381842,0.818969444272,0.00273825505273,0.0,0.818934657433,-0.573750249077,-0.0117228597307,0.0,-0.00802974399781,0.00896936355647,-0.999927534239,0.0,0.640978261834,0.234049953581,0.303796314493,1.0,-0.105041142857,-0.138054073469,1.178
0.447232407217,0.431509164518,-0.12496983761,-1.5361228129,0.0683848054774,1.95939320739,0.133040519655,-0.0984658417578,-0.534597062922,-0.00595850853045,-0.789712188545,-0.0611367818595,0.29772837452,-0.1392412845,0.573713855105,0.819038847728,0.00291980724975,0.0,0.819006532555,-0.573649806973,-0.0116166042225,0.0,-0.0078396542093,0.00905612236146,-0.999928260662,0.0,0.639053740137,0.23155487565,0.30391137238,1.0,-0.113691428571,-0.149423020408,1.196
0.445773050838,0.423852885721,-0.125011976158,-1.54778719331,0.067558354482,1.96343921218,0.131127556779,-0.108370462095,-0.564253203302,-0.00426289216062,-0.816691292063,-0.0568331325332,0.298382211444,-0.140212320796,0.573643550974,0.819088079142,0.0029226588963,0.0,0.819055874847,-0.573579587916,-0.0116050466157,0.0,-0.00782932859426,0.00905115535181,-0.999928386536,0.0,0.637433439741,0.229475683047,0.303921130149,1.0,-0.120419428571,-0.158265534694,1.21
0.443820394781,0.413962451374,-0.125134974674,-1.56270812312,0.0664705908272,1.96860116423,0.128713297473,-0.117626002816,-0.59897511876,-0.00942990045179,-0.893494304665,-0.0677941723243,0.322980269822,-0.142332664671,0.573676922705,0.819064529607,0.0029718003999,0.0,0.819033501916,-0.573613424679,-0.0115112409774,0.0,-0.00772393328113,0.00903791139674,-0.999929326009,0.0,0.635360694503,0.226724126885,0.303978435586,1.0,-0.128589142857,-0.169002873469,1.227
0.441416039024,0.402386138508,-0.125206371,-1.58042740285,0.0652852984403,1.97453262293,0.125717744738,-0.129773358829,-0.614394748397,-0.000974456212801,-0.961922581982,-0.0624084992186,0.301736326487,-0.158521963928,0.573636698706,0.819093281026,0.00280745033183,0.0,0.819059134541,-0.573572618196,-0.0117189027735,0.0,-0.00798875169375,0.00902203424063,-0.999927388736,0.0,0.632800745549,0.223461011651,0.303883425037,1.0,-0.13772,-0.181003428571,1.246
0.439304623729,0.392607187828,-0.125331976408,-1.59485737424,0.0642502775488,1.97957334839,0.123248273599,-0.145562704594,-0.65041400124,-0.00531742023753,-0.987500757652,-0.0774332753649,0.332671067112,-0.17108114869,0.573715727589,0.819036881516,0.00309798881724,0.0,0.819006942696,-0.573651184914,-0.0115192344863,0.0,-0.00765766036898,0.00914621643732,-0.99992885095,0.0,0.630777053179,0.220684364639,0.304035564054,1.0,-0.144928571429,-0.19047755102,1.261
0.436934267877,0.381922235753,-0.125468625402,-1.61099187404,0.0630180827847,1.98486879199,0.12037730525,-0.151768317343,-0.687013390276,-0.0102719193603,-1.0127145239,-0.0807996602155,0.341764204364,-0.182905246207,0.57367370668,0.819067028185,0.0029031887782,0.0,0.819034802502,-0.573610070611,-0.0115855981513,0.0,-0.00782423376824,0.00902433942965,-0.999928668788,0.0,0.628398235872,0.217553649752,0.303982698515,1.0,-0.152617714286,-0.200583281633,1.277
0.433847833639,0.368574904523,-0.125601855785,-1.63093538578,0.0615300782504,1.9915036584,0.116850432909,-0.168756198103,-0.706826402343,-0.0089335248022,-1.07389856435,-0.0874159756856,0.35461929639,-0.18069814866,0.573724064349,0.819031809158,0.00288798815702,0.0,0.818999382198,-0.573660466947,-0.0115942883403,0.0,-0.00783951725557,0.00901735635828,-0.999928612079,0.0,0.625438047953,0.213639256591,0.303976957671,1.0,-0.161748571429,-0.212583836735,1.296
0.431022984769,0.35684331452,-0.125769520145,-1.64817604871,0.0601549451003,1.99724132818,0.113726575302,-0.187749479448,-0.748219753413,-0.0137042829911,-1.10026492187,-0.0879864532152,0.356139046736,-0.207767789813,0.573818330423,0.81896539554,0.00299190217719,0.0,0.818935139825,-0.573755353172,-0.0114358370008,0.0,-0.00764908215088,0.00901244024,-0.999930131291,0.0,0.622872826083,0.2101348821,0.304063460077,1.0,-0.169437714286,-0.222689567347,1.312
0.427577987427,0.343162172391,-0.125937210373,-1.66825234044,0.0586871285729,2.00374836126,0.109917278477,-0.1958463299,-0.767566414796,-0.0115253912769,-1.12101163383,-0.0886391619496,0.370183758294,-0.21094248578,0.573908614638,0.818901787776,0.00308397838742,0.0,0.818872133126,-0.573844646146,-0.0114672830408,0.0,-0.00762100082449,0.00910673181705,-0.999929491405,0.0,0.619801478795,0.206008191206,0.304117297272,1.0,-0.178088,-0.234058514286,1.33
0.424787247075,0.332280099401,-0.126013022922,-1.68439244002,0.0574206192889,2.00889835891,0.106855261201,-0.198571534905,-0.804426240469,0.000683484660904,-1.16527919788,-0.0910538555847,0.363575954474,-0.22245412674,0.573899657988,0.818908513858,0.00296232910899,0.0,0.818876967221,-0.573835698575,-0.0115693775598,0.0,-0.00777452127373,0.00906561944266,-0.999928683138,0.0,0.617254217573,0.202714022514,0.304041760263,1.0,-0.184816,-0.242901028571,1.344
0.421220395084,0.318505378697,-0.126087387495,-1.70432463067,0.0557299378605,2.01528850677,0.102926252129,-0.222487051463,-0.795227644544,-0.00234547096422,-1.1939445398,-0.0958613368511,0.36719673467,-0.224645869825,0.573775753334,0.818994952225,0.0030659447234,0.0,0.81896537798,-0.573712230973,-0.0114338358639,0.0,-0.00760543029786,0.00907153502071,-0.999929929886,0.0,0.614082063586,0.198596844654,0.304124094817,1.0,-0.192985714286,-0.253638367347,1.361
0.417397924109,0.304292131548,-0.126167696344,-1.72481342255,0.0540511372815,2.02170578936,0.0987081137546,-0.227228881921,-0.864360164267,0.000114064445534,-1.21994917744,-0.103133431466,0.379447519796,-0.257688141991,0.573616795233,0.819105994267,0.00314472307857,0.0,0.819077258337,-0.573552842505,-0.0114161565666,0.0,-0.00754752272779,0.0091244459749,-0.999929887235,0.0,0.610743372764,0.194300133465,0.304178500564,1.0,-0.201155428571,-0.264375706122,1.378
0.41324275252,0.289681547672,-0.126322627269,-1.7457991288,0.052320560481,2.02810407431,0.0944129548444,-0.24574776563,-0.869940411747,-0.00748173418732,-1.23676859541,-0.0979207565509,0.392574852485,-0.260211554795,0.573686046721,0.819057556925,0.00312812129475,0.0,0.819028258601,-0.573621715435,-0.011471098282,0.0,-0.00760127777903,0.00914300479283,-0.999929310521,0.0,0.607267506691,0.18973631658,0.304198694308,1.0,-0.209325142857,-0.275113044898,1.395
0.408838014057,0.274787371146,-0.126462508081,-1.76723982337,0.0505101283058,2.03450459205,0.0898271822748,-0.263011823839,-0.901391838127,-0.00311054792953,-1.25940851982,-0.108032152852,0.37572125467,-0.277495819148,0.573656388935,0.819078914144,0.00297098310045,0.0,0.819047000337,-0.573591874286,-0.011624108247,0.0,-0.00781708069885,0.00910179399581,-0.999928022707,0.0,0.603628534867,0.185015731347,0.304127665656,1.0,-0.217494857143,-0.285850383673,1.412
0.404073575816,0.259395362742,-0.126674637105,-1.78906523347,0.0485818866472,2.0410181683,0.0850421194103,-0.286107146099,-0.882405036044,-0.0171908390876,-1.29859774903,-0.110878616118,0.366454182378,-0.287436918834,0.573742259247,0.819018797975,0.00296233331696,0.0,0.818986964801,-0.573677986393,-0.0116045816648,0.0,-0.00780509538611,0.00908432617542,-0.99992827518,0.0,0.599905744353,0.18003749348,0.304139055674,1.0,-0.225664571429,-0.296587722449,1.429
0.398677658675,0.242630212052,-0.126855645921,-1.81258185182,0.0464473342407,2.04787192216,0.0797254699857,-0.30650812235,-0.936548335189,-0.00868067834541,-1.32059142001,-0.114958088542,0.382606650611,-0.305074709929,0.573810743341,0.818970787105,0.00297112693762,0.0,0.818939177087,-0.573746559988,-0.0115868907034,0.0,-0.00778480102122,0.00908202947403,-0.999928454247,0.0,0.595801049588,0.174586843916,0.304175601446,1.0,-0.234314857143,-0.307956669388,1.447
0.393413410971,0.22638041449,-0.12697697876,-1.83505151927,0.044462976851,2.05441483285,0.0744187386917,-0.311249233486,-0.964885640569,-0.0134013304045,-1.35466062903,-0.13164897378,0.379513369277,-0.322306455911,0.573712956605,0.81903833297,0.00322481800682,0.0,0.819009586863,-0.573647479509,-0.0115157622288,0.0,-0.00758208795594,0.00924807691344,-0.999928489951,0.0,0.591790062302,0.169413428456,0.304278739652,1.0,-0.242484571429,-0.318694008163,1.464
0.3881156837,0.210764012159,-0.127128036548,-1.85654520527,0.0424014631033,2.06041241012,0.0691780081483,-0.33291455273,-0.983075474024,-0.0111524454602,-1.34997843835,-0.119529396703,0.362782636764,-0.336321040378,0.573620234046,0.819103186457,0.00324714182402,0.0,0.81907492452,-0.573554940111,-0.011478048512,0.0,-0.00753943703361,0.00924387129143,-0.999928851335,0.0,0.587864318848,0.164310958755,0.3043305599,1.0,-0.250173714286,-0.328799738775,1.48
0.381695433712,0.192876884148,-0.127333310652,-1.88107257918,0.0400316122536,2.06708262823,0.0629795745809,-0.363595950776,-1.00344221631,-0.0125167888134,-1.3647597736,-0.12642115882,0.377473889511,-0.356997062208,0.573609689878,0.819110745347,0.00320272318487,0.0,0.819081779543,-0.573544375201,-0.011516726801,0.0,-0.00759671706625,0.00922957599231,-0.999928549856,0.0,0.583303965759,0.15831285217,0.304331848164,1.0,-0.258824,-0.340168685714,1.498
0.375129401156,0.175557005508,-0.127634616443,-1.90449733307,0.0377784531048,2.07336561331,0.0568179528536,-0.389675066454,-1.03675225687,-0.0193725719845,-1.39354007701,-0.137480381431,0.385120937446,-0.366549283383,0.573785245371,0.81898736742,0.00330622184412,0.0,0.818959618317,-0.573719442001,-0.0114844389486,0.0,-0.00750891123909,0.0092974428042,-0.999928584355,0.0,0.579173344123,0.152699629335,0.304388927045,1.0,-0.266513142857,-0.350274416326,1.514
0.369100770745,0.160097260264,-0.127795459234,-1.925352271,0.0356426056442,2.07866941183,0.0511602824386,-0.402960736782,-1.07045562265,-0.0137747828961,-1.37524362599,-0.144885082536,0.368005408766,-0.389270264782,0.57377894412,0.818992054366,0.00323806604458,0.0,0.818963325216,-0.573713228756,-0.0115303947369,0.0,-0.00758572639664,0.00926793348903,-0.99992827851,0.0,0.574590504335,0.146678149692,0.304388898443,1.0,-0.274682857143,-0.361011755102,1.531
0.361533587188,0.141202962333,-0.128009251941,-1.95061204389,0.0330049913592,2.08504682623,0.0441029535652,-0.430049541964,-1.05734847726,-0.00971481978135,-1.38880574173,-0.132195105141,0.348367341953,-0.398461691371,0.573760021803,0.819005831716,0.00310352981271,0.0,0.818975049744,-0.573694364976,-0.0116357377899,0.0,-0.00774940874127,0.00921801212605,-0.999927484829,0.0,0.569852901783,0.140524337596,0.304322519234,1.0,-0.282852571429,-0.371749093878,1.548
0.353921278581,0.122947638082,-0.128260793291,-1.97466441794,0.0304848366231,2.09092392959,0.0369843698709,-0.452244917805,-1.0577869122,-0.0103480027701,-1.41078374502,-0.149191053362,0.334447611621,-0.41885717066,0.57372143016,0.81903277387,0.00312774731745,0.0,0.819001943599,-0.573655266682,-0.0116704022816,0.0,-0.007764342719,0.00925736925264,-0.999927005384,0.0,0.564999811391,0.134158968274,0.304331897598,1.0,-0.291022285714,-0.382486432653,1.565
0.346243253505,0.105343748426,-0.128604107308,-1.99749026269,0.0279375356539,2.09637699787,0.0300218234036,-0.488110762731,-1.08568584917,-0.016742129353,-1.43870411655,-0.163130345764,0.325177245328,-0.44814591937,0.573855040657,0.818938839946,0.00321179727942,0.0,0.818909806675,-0.57378944053,-0.0115392100845,0.0,-0.00760715841783,0.0092521842946,-0.99992826154,0.0,0.560338328242,0.127878398,0.30439991064,1.0,-0.298711428571,-0.392592163265,1.581
0.337831221432,0.0864988302032,-0.128832228417,-2.02181798542,0.0253082340588,2.10190692213,0.0222316823052,-0.506221914518,-1.10973752939,-0.0146684284868,-1.45012125547,-0.146008886236,0.32250493313,-0.472072519466,0.573748098053,0.819013630249,0.00324659009484,0.0,0.818984211854,-0.573681384428,-0.0116308553236,0.0,-0.00766346828668,0.00933226682571,-0.999927087367,0.0,0.555196435109,0.121247373016,0.3043928514,1.0,-0.306881142857,-0.403329502041,1.598
0.329968622842,0.0695420919751,-0.129053387719,-2.04325776851,0.0228591561493,2.10657653264,0.0150191019714,-0.527721171317,-1.12755690477,-0.0216840374102,-1.44339397498,-0.16058927967,0.31400780072,-0.485160456255,0.573642943865,0.819086855742,0.00335299965473,0.0,0.819058758779,-0.57357583382,-0.0115870370124,0.0,-0.00756773584343,0.0093933066081,-0.999927244936,0.0,0.550266401889,0.114819308008,0.304468423045,1.0,-0.30998,-0.407402285714,1.614
0.320577232524,0.0504643656376,-0.129428905706,-2.06733723119,0.0200163071189,2.11157003139,0.00669834558002,-0.558755400594,-1.11687678464,-0.0151754348956,-1.41167143138,-0.162100381952,0.268021520729,-0.491564318934,0.573823553717,0.818960605712,0.00328669939408,0.0,0.818931551505,-0.573756509701,-0.0116330746562,0.0,-0.00764141181478,0.00936709441958,-0.999926930514,0.0,0.545306918201,0.108179608909,0.30446373573,1.0,-0.30998,-0.407402285714,1.63
0.309801506001,0.0293114470313,-0.129662991275,-2.09357584281,0.0169242137775,2.11673776798,-0.00285063843,-0.570691548594,-1.11319350955,-0.00990236452092,-1.36899512183,-0.160186224827,0.256173753859,-0.501001597717,0.573854064723,0.818938975199,0.00334876116382,0.0,0.818910017508,-0.573785941945,-0.0116971343858,0.0,-0.00765791460652,0.00945496421355,-0.999925977258,0.0,0.539394048954,0.100458597332,0.304499099652,1.0,-0.30998,-0.407402285714,1.649
0.299812750193,0.0105215657546,-0.129902478596,-2.11643363872,0.0140388235394,2.12107080846,-0.0116572848104,-0.596746807093,-1.10684577331,-0.016454280177,-1.34152393987,-0.168826781145,0.236472227186,-0.520556906198,0.573860853489,0.818933670156,0.00348017517374,0.0,0.818907072715,-0.573793134028,-0.011549567132,0.0,-0.00746157243863,0.00947796699612,-0.999927243892,0.0,0.534151814736,0.0935050977495,0.304599071879,1.0,-0.30998,-0.407402285714,1.666
0.290740562572,-0.00584143274587,-0.130114667071,-2.13613775399,0.0116347188403,2.12454760768,-0.0196649101885,-0.605915946157,-1.11218532355,-0.00705523228165,-1.29876612108,-0.154907110909,0.247444825421,-0.542867850761,0.573899570526,0.818905968866,0.00361164885634,0.0,0.81888052404,-0.573830739078,-0.0115636126758,0.0,-0.00739717872796,0.00959404597162,-0.999926615322,0.0,0.5295219121,0.0873807888474,0.304664056696,1.0,-0.30998,-0.407402285714,1.681
0.279053131007,-0.0262948881679,-0.130325890797,-2.16059072409,0.00842269726614,2.12861687242,-0.0300012140854,-0.62503381363,-1.09332311001,-0.0104698898087,-1.25957181262,-0.166446336107,0.20547974014,-0.552943492007,0.573772145283,0.818995294525,0.00360274124734,0.0,0.818969911164,-0.573703587869,-0.0115423037145,0.0,-0.00738632906013,0.00957337336017,-0.99992689366,0.0,0.523630812947,0.0797027433858,0.304685309044,1.0,-0.30998,-0.407402285714,1.7
0.268761485964,-0.0433162767043,-0.130630043447,-2.1808094125,0.00578494736791,2.13178880921,-0.038932501172,-0.644940378513,-1.04630252428,-0.0189216124069,-1.25824739283,-0.154337026397,0.181903715341,-0.562208323326,0.573931015062,0.81888406183,0.0035819173537,0.0,0.818857918108,-0.573861865762,-0.0116196332743,0.0,-0.00745975034037,0.0096021341777,-0.999926072839,0.0,0.518666173889,0.0730958884357,0.304644850965,1.0,-0.30998,-0.407402285714,1.716
0.258354845902,-0.0602919641296,-0.130785924423,-2.20042423943,0.00318601085917,2.13469411663,-0.0480944826467,-0.656740558163,-1.03905859512,-0.015381081144,-1.22491511433,-0.163149692302,0.173164149985,-0.573435630871,0.573848455813,0.818940976815,0.00379119454129,0.0,0.818917698794,-0.573778889223,-0.0115037292012,0.0,-0.00724570733864,0.00970626042323,-0.999926641426,0.0,0.513744283417,0.0666623662252,0.304742443633,1.0,-0.30998,-0.407402285714,1.732
0.246242340255,-0.0791141527485,-0.131095057284,-2.22210878045,0.000199015769572,2.13754966006,-0.0587120012714,-0.677504495437,-1.03562253502,-0.0252888715947,-1.19872185986,-0.163786439207,0.138997755633,-0.604714988563,0.573866438327,0.818928432842,0.0037788551852,0.0,0.818904698865,-0.573796509654,-0.0115501769699,0.0,-0.00729061477616,0.00972296838451,-0.999926152684,0.0,0.50815947514,0.0593019507705,0.304741457512,1.0,-0.30998,-0.407402285714,1.75
0.235224583534,-0.0956328799686,-0.131286167704,-2.24096982471,-0.00240913293793,2.13977752222,-0.0683980087876,-0.688056137814,-1.037243826,-0.00906937572981,-1.15943150865,-0.163716193388,0.142915671134,-0.599143263539,0.573796980391,0.818977378874,0.00371821026707,0.0,0.818952081675,-0.573726221781,-0.0116814922692,0.0,-0.00743378631512,0.00974802870864,-0.999924854555,0.0,0.503169665943,0.0528306432439,0.304702005105,1.0,-0.30998,-0.407402285714,1.766
0.22323101154,-0.11298165798,-0.131535679898,-2.26064680461,-0.00526806764899,2.14184159161,-0.0789004571504,-0.718236269008,-1.02677830553,-0.0186964675287,-1.14174370252,-0.167555968686,0.116139776826,-0.618814429341,0.573750434706,0.81901087957,0.0035163505127,0.0,0.818982201561,-0.573679388553,-0.0118684277842,0.0,-0.00770326197823,0.00968953063829,-0.99992338344,0.0,0.497525453847,0.0455241201968,0.304610693556,1.0,-0.30998,-0.407402285714,1.784
0.212260205648,-0.128263666298,-0.131833857359,-2.27748750953,-0.00771004974257,2.14350904842,-0.0884658432298,-0.728516149067,-1.01429471083,-0.0117561282418,-1.11523180604,-0.168760466352,0.104882852935,-0.649877091332,0.573840757916,0.81894719294,0.00360924247118,0.0,0.818919688293,-0.573769330164,-0.0118341366697,0.0,-0.00762080709555,0.00974677733093,-0.999923458886,0.0,0.493204951177,0.0397632087901,0.304646526926,1.0,-0.30998,-0.407402285714,1.798
0.199657856774,-0.145428022635,-0.132080438899,-2.29611822005,-0.0104318169414,2.14513437105,-0.0996080818126,-0.754838673187,-1.01058070276,-0.0191893760966,-1.08023870285,-0.159743770641,0.101135725534,-0.674091271607,0.573754677969,0.819006792899,0.00376690792314,0.0,0.818981341528,-0.573682733599,-0.0117656406683,0.0,-0.00747527351777,0.00983580804683,-0.999923685671,0.0,0.48795610011,0.0328946383236,0.304714508,1.0,-0.30998,-0.407402285714,1.815
0.185811185998,-0.163231336594,-0.132483501576,-2.31545694207,-0.013395453638,2.14643026017,-0.111657865659,-0.764774323024,-0.992723716025,-0.014379629145,-1.0523748306,-0.162141065231,0.0586471967237,-0.668863015204,0.573910036664,0.818898609432,0.00361720719766,0.0,0.818870288407,-0.573837396348,-0.0119515780432,0.0,-0.00771159035177,0.00982134318545,-0.999922033257,0.0,0.482337433193,0.0254728436978,0.304643650524,1.0,-0.30998,-0.407402285714,1.833
0.173334447905,-0.178949519972,-0.132700899821,-2.33210845211,-0.0159142222653,2.14741456342,-0.122738863879,-0.787112757134,-0.977583522202,-0.0145932613835,-1.03924080745,-0.171509570847,0.0564250702828,-0.695996077813,0.57379440346,0.818979221505,0.00371001371626,0.0,0.818951842569,-0.573721102128,-0.0119466910376,0.0,-0.0076557259638,0.00989345750586,-0.999921751618,0.0,0.477392925885,0.0190327344447,0.304675517389,1.0,-0.30998,-0.407402285714,1.849
0.159584416139,-0.195586863398,-0.133093090783,-2.34934738427,-0.0186573979755,2.14826300904,-0.13479709586,-0.806498080802,-0.981893973922,-0.0145000638749,-1.00478026196,-0.163282367243,0.0493965983549,-0.717783292215,0.573915291144,0.818893611913,0.00390357021392,0.0,0.818869525161,-0.573842323703,-0.0117658485026,0.0,-0.0073950867536,0.00994930661143,-0.999923159043,0.0,0.472164822285,0.0120305564009,0.304778883144,1.0,-0.30998,-0.407402285714,1.866
0.144838738825,-0.212796054591,-0.133363913658,-2.36726307721,-0.0213789198347,2.14871532301,-0.147982003025,-0.82757671756,-0.953892406171,-0.0166428085814,-0.973531740812,-0.143985897991,0.0217464358214,-0.73788782848,0.573790563202,0.818981166394,0.00387112045698,0.0,0.81895481141,-0.573715268358,-0.0120230870896,0.0,-0.00762590779881,0.0100692004997,-0.999920225184,0.0,0.46652694344,0.00479466022092,0.304719167245,1.0,-0.30998,-0.407402285714,1.884
0.131326040788,-0.227882022644,-0.133692128599,-2.38260426232,-0.0239562586469,2.14901952717,-0.159899570205,-0.847192502078,-0.920776409178,-0.0108733542947,-0.96147078198,-0.150392768026,0.00883254540113,-0.752599764353,0.573830356087,0.818953152413,0.00389916483142,0.0,0.818927678482,-0.573755636645,-0.0119446111909,0.0,-0.00754505445455,0.0100475079421,-0.999921056753,0.0,0.461600206003,-0.00173361640775,0.304743667431,1.0,-0.30998,-0.407402285714,1.9
0.115764771367,-0.244748813729,-0.134040659961,-2.39938037273,-0.0267101316398,2.14915269929,-0.173783373261,-0.876668362639,-0.940789021767,-0.0283239812008,-0.904939483455,-0.156107381782,0.0132665991298,-0.774278209887,0.573806752593,0.818968622584,0.00411737820289,0.0,0.818946623687,-0.573732152832,-0.0117724788783,0.0,-0.00727915869736,0.0101272358335,-0.999922223447,0.0,0.456069213694,-0.00904456995128,0.304836774669,1.0,-0.30998,-0.407402285714,1.918
0.101622739679,-0.259445660664,-0.134334002861,-2.41405851056,-0.0291446687115,2.14905636797,-0.186489799057,-0.882089918452,-0.936437889976,-0.0128463004586,-0.922582518815,-0.159023870314,-0.0117017087268,-0.802343472394,0.573712074579,0.819034856107,0.00413604470398,0.0,0.819012674458,-0.573636835434,-0.0118223099293,0.0,-0.00731043706517,0.0101702707998,-0.999921558474,0.0,0.451081373238,-0.0155204345215,0.304797826686,1.0,-0.30998,-0.407402285714,1.934
0.0870800835908,-0.273965296261,-0.134763956626,-2.42807296085,-0.0315731504067,2.14884429056,-0.19945311322,-0.917370684758,-0.893985055335,-0.0322614635277,-0.85379861305,-0.156089961604,-0.0257451922628,-0.821706332651,0.573838029102,0.818945376248,0.00437424060547,0.0,0.818927435702,-0.57376365899,-0.0115700293036,0.0,-0.00696557581507,0.0102217052539,-0.999923495821,0.0,0.446197407407,-0.0220992367028,0.304898596018,1.0,-0.30998,-0.407402285714,1.95
0.0704474537238,-0.289924853256,-0.135093299046,-2.44357393667,-0.0341714114832,2.14821281816,-0.214463793256,-0.92422622593,-0.890401407107,-0.0182283522685,-0.835288820808,-0.142004091859,-0.0388672294701,-0.833001274465,0.573771395275,0.818991952235,0.00439488784995,0.0,0.818973253925,-0.573695471299,-0.0117073681304,0.0,-0.00706704908686,0.0103168471816,-0.999921806684,0.0,0.440589949356,-0.0293631321477,0.304855484895,1.0,-0.30998,-0.407402285714,1.968
0.0542250379665,-0.304714577997,-0.135515736891,-2.45748381061,-0.0367270348099,2.14755783229,-0.229038138275,-0.95205187323,-0.852503726321,-0.0166523113122,-0.790260887276,-0.152019430407,-0.0478194822557,-0.854889945193,0.573841180663,0.818942228874,0.00454665185328,0.0,0.818926852349,-0.573766813475,-0.0114543073734,0.0,-0.0067718284434,0.0102965267978,-0.999924059054,0.0,0.435404152618,-0.0363582641386,0.304939768362,1.0,-0.30998,-0.407402285714,1.985
0.0388001525543,-0.318345641636,-0.135851858508,-2.47044045709,-0.0390014414944,2.14659768876,-0.243059867359,-0.975007300725,-0.864951855516,-0.0306473941769,-0.780171829789,-0.146573933994,-0.0683386825843,-0.889592746335,0.573779816392,0.818985579015,0.00448225024703,0.0,0.818968095195,-0.573703735478,-0.0116631836477,0.0,-0.00698062990153,0.0103631188411,-0.99992193524,0.0,0.430391489146,-0.0428108170562,0.304863906367,1.0,-0.30998,-0.407402285714,2.001
0.0219767538915,-0.332566049303,-0.136237742111,-2.48348775325,-0.0413342503433,2.14560853137,-0.258387025159,-0.985861237458,-0.812930525151,-0.0175312035855,-0.761604768912,-0.135167165964,-0.0717100337773,-0.905963088682,0.573781367854,0.818983256412,0.00470260792182,0.0,0.818969309555,-0.573705671024,-0.0114812866039,0.0,-0.00670519775313,0.0104392408829,-0.999923028324,0.0,0.425196390946,-0.0497222189158,0.304933989861,1.0,-0.30998,-0.407402285714,2.018
0.00473856504178,-0.346420410975,-0.136674438714,-2.49629064012,-0.0437613899927,2.14426630377,-0.274069638342,-1.02115304554,-0.788781068233,-0.024703407467,-0.751404678592,-0.13995322933,-0.0913499697003,-0.939621003103,0.573816357487,0.818959332045,0.00459861252894,0.0,0.818943140615,-0.573739584718,-0.0116519641251,0.0,-0.00690421164175,0.0104522910378,-0.999921537659,0.0,0.419871568936,-0.0566735548504,0.304864720931,1.0,-0.30998,-0.407402285714,2.035
-0.0127499478278,-0.360045306881,-0.137066618212,-2.50833144718,-0.0460183286462,2.14292977237,-0.290191075146,-1.04658570701,-0.806245540065,-0.0339598717578,-0.711227572513,-0.124049422131,-0.0858748481364,-0.94689137592,0.573746751361,0.819006720034,0.00483784488984,0.0,0.818994794943,-0.57367112065,-0.011389384971,0.0,-0.00655277709011,0.0104969945103,-0.999923434178,0.0,0.414690037208,-0.0635643911925,0.304984966642,1.0,-0.30998,-0.407402285714,2.052
-0.0285408880953,-0.371680256694,-0.137450797281,-2.51882568028,-0.0480555751715,2.14153291739,-0.304738638645,-1.04975934181,-0.775302117209,-0.018110963702,-0.688753663445,-0.135341495267,-0.0887344461173,-0.968608563098,0.573715494182,0.819029031656,0.00476696357072,0.0,0.819015372434,-0.573638771781,-0.0115380295801,0.0,-0.0067155953624,0.0105239654056,-0.999922070429,0.0,0.409991808911,-0.0696719738641,0.304921856698,1.0,-0.30998,-0.407402285714,2.067
-0.0457373516497,-0.383826316427,-0.137893207623,-2.52933698191,-0.0501210120894,2.1399647379,-0.320526046333,-1.08314720072,-0.754738520406,-0.0277671583747,-0.636722012177,-0.13702013292,-0.0861724867576,-0.988987439265,0.573834336048,0.818944966068,0.00490349111569,0.0,0.818933534487,-0.573757942698,-0.0114208661909,0.0,-0.00653976981141,0.0105695219745,-0.999922755325,0.0,0.405072750828,-0.0762280033871,0.305000562178,1.0,-0.30998,-0.407402285714,2.083
-0.0676054373935,-0.398435579492,-0.13835176546,-2.54206912907,-0.0526022537695,2.13794425597,-0.340862939314,-1.11629960219,-0.711977062144,-0.0337412244687,-0.627470642221,-0.110595308649,-0.102345121501,-1.03008469113,0.573766593786,0.818992065297,0.00496384302569,0.0,0.818981032718,-0.573689426177,-0.0114567553048,0.0,-0.00653541325859,0.0106390015882,-0.999922046971,0.0,0.398877213465,-0.0843395655674,0.304983067918,1.0,-0.30998,-0.407402285714,2.103
-0.0865061617717,-0.410405352721,-0.138659460855,-2.55232796363,-0.0546080218352,2.13600437901,-0.358532512575,-1.11190290367,-0.69641672867,-0.0113972557547,-0.579888759266,-0.115238402381,-0.101955351287,-1.04653494792,0.573644173413,0.819077764705,0.00497238144114,0.0,0.81906603514,-0.573565691833,-0.0115747196119,0.0,-0.00662873568915,0.0107126854688,-0.999920645968,0.0,0.393606907361,-0.0911697874222,0.304973886013,1.0,-0.30998,-0.407402285714,2.12
-0.10474316569,-0.421317783085,-0.139057159041,-2.56143097196,-0.0565516667137,2.13435736592,-0.375539086647,-1.13607828453,-0.666701300345,-0.0130772302823,-0.564659315991,-0.125233096536,-0.108689427942,-1.06573612697,0.573657480562,0.819067741056,0.00508698901476,0.0,0.819058902786,-0.573580996586,-0.0113181722786,0.0,-0.00635267188105,0.0106595030633,-0.999923006313,0.0,0.388706585711,-0.0977225261044,0.305046985592,1.0,-0.30998,-0.407402285714,2.136
-0.125560928287,-0.433010391265,-0.13950540462,-2.57139685724,-0.0586127902951,2.13211619767,-0.395054197074,-1.16291629016,-0.629974152933,-0.0200665527767,-0.536816052715,-0.114136049708,-0.116142454388,-1.09324289911,0.573662936868,0.819064554413,0.00498372035541,0.0,0.819052226223,-0.573583215344,-0.0116830088205,0.0,-0.00671068926946,0.0107842440335,-0.999919330111,0.0,0.383041367488,-0.105021497293,0.30494630937,1.0,-0.30998,-0.407402285714,2.154
-0.143101018076,-0.442448679436,-0.139824611332,-2.57906883874,-0.0601785765673,2.13040848866,-0.411691346754,-1.19099163161,-0.631113443042,-0.0218961922432,-0.493648482244,-0.105559201908,-0.111653345192,-1.11243585157,0.573564608413,0.819132423478,0.00514389783126,0.0,0.81912266695,-0.573485217515,-0.0115545957068,0.0,-0.0065149200494,0.0108409991948,-0.999920011077,0.0,0.37844594153,-0.111069615869,0.305012460465,1.0,-0.30998,-0.407402285714,2.169
-0.163473210307,-0.452575189802,-0.140276390398,-2.58728774214,-0.0620304410982,2.12848622066,-0.430881300981,-1.20161108137,-0.57830232649,-0.0229098756534,-0.487230738019,-0.105994224011,-0.122876339257,-1.14878776097,0.573631092318,0.819085476107,0.00520573312342,0.0,0.819077090839,-0.573552468413,-0.0114469271882,0.0,-0.00639037375755,0.0108304186082,-0.999920929452,0.0,0.373203531124,-0.118046111948,0.305047707154,1.0,-0.30998,-0.407402285714,2.186
-0.18283804289,-0.461652632843,-0.140637771163,-2.59469369001,-0.0637212511267,2.1264969603,-0.449298303218,-1.20227382797,-0.555979913518,-0.0155874984352,-0.459341677125,-0.11359029815,-0.122708293751,-1.16190561216,0.573543683149,0.81914715627,0.00513096443216,0.0,0.819136862332,-0.573463721992,-0.0116149571599,0.0,-0.00657206369966,0.010864856597,-0.999919378185,0.0,0.368203051671,-0.1245302758,0.305012902838,1.0,-0.30998,-0.407402285714,2.202
-0.202531256206,-0.470155744363,-0.141073064329,-2.60155839854,-0.0651769479804,2.12475131416,-0.468035823698,-1.23826629719,-0.518007493542,-0.0338977684607,-0.40986303976,-0.0864717382401,-0.104687759723,-1.15888473832,0.573641370917,0.819077774786,0.00528425257451,0.0,0.81906900809,-0.57356014114,-0.0116392174728,0.0,-0.00650271289281,0.0110051160648,-0.999918297735,0.0,0.363261970389,-0.131062350194,0.304997970061,1.0,-0.305124571429,-0.401020865306,2.218
-0.223431418276,-0.478518160746,-0.141253227393,-2.60806217439,-0.066564108925,2.12292632797,-0.487814446388,-1.24409576774,-0.480254037326,-0.0206994097155,-0.371679171918,-0.0795305230383,-0.116126520667,-1.14145821351,0.57373046631,0.819014509799,0.0054158717708,0.0,0.819008182834,-0.573650081226,-0.0114859767825,0.0,-0.00630048766677,0.011025710392,-0.999919365532,0.0,0.35817410437,-0.137837826592,0.30507070693,1.0,-0.296954857143,-0.390283526531,2.235
-0.245296787417,-0.486520115255,-0.141344598409,-2.61447863658,-0.0678917378841,2.12100678226,-0.508664074304,-1.21070443892,-0.420995229532,0.000835196344577,-0.350395162611,-0.0732253767224,-0.110033138329,-1.13523139588,0.573711029409,0.81902799265,0.00543588914652,0.0,0.819020875417,-0.573628757465,-0.011644790333,0.0,-0.00641935050683,0.0111330656827,-0.999917419984,0.0,0.353134161114,-0.144395124183,0.305028974701,1.0,-0.288785142857,-0.379546187755,2.252
-0.265842369427,-0.493308109799,-0.141370681257,-2.61986078476,-0.0689953874788,2.11934626549,-0.528153551701,-1.20046675105,-0.396552705136,0.000805535520358,-0.29843245555,-0.049399499226,-0.090369175631,-1.12789815264,0.573798251532,0.818966704185,0.00546359559172,0.0,0.818959039216,-0.573714301031,-0.0117787852088,0.0,-0.00651201535224,0.0112333236307,-0.999915699495,0.0,0.347934473216,-0.151201381899,0.304987675732,1.0,-0.280134857143,-0.368177240816,2.27
-0.284816283073,-0.499072273605,-0.141296601751,-2.62434934321,-0.0699102865744,2.11796086341,-0.546266578987,-1.16633765463,-0.342805842441,0.0197440302954,-0.273562264206,-0.0617639221,-0.0931265020972,-1.12447257007,0.573798419647,0.818966263423,0.00551179524033,0.0,0.818959309113,-0.573714448668,-0.0117528000395,0.0,-0.00646307459984,0.0112578908604,-0.99991574073,0.0,0.343485360504,-0.157064092998,0.304991129644,1.0,-0.272445714286,-0.358071510204,2.286
-0.303434985807,-0.504223577505,-0.141173697781,-2.62830312023,-0.0706206248151,2.11663789813,-0.564034251467,-1.1707262058,-0.307613619816,0.00435989486921,-0.235164662706,-0.0385426564716,-0.081472728835,-1.09729695591,0.573872701478,0.818913440912,0.00562545048067,0.0,0.818907734579,-0.573787920041,-0.0117597603669,0.0,-0.00640253356436,0.0113555489891,-0.999915025925,0.0,0.339173018806,-0.162745146483,0.305006176806,1.0,-0.264756571429,-0.347965779592,2.302
-0.322836592267,-0.509096183235,-0.140977432076,-2.63195101574,-0.0712793359272,2.11544497981,-0.582618313292,-1.12245540496,-0.279421163106,0.0255633091349,-0.20757361254,-0.0337773238092,-0.0628982821653,-1.08554507983,0.573905666056,0.818889453683,0.00575291374191,0.0,0.818886217401,-0.573821918231,-0.0115981037089,0.0,-0.00619653611367,0.0113674180652,-0.999916188861,0.0,0.334759961534,-0.168618940859,0.305061984993,1.0,-0.256586857143,-0.337228440816,2.319
-0.341869807011,-0.513386608457,-0.140731361808,-2.6352412557,-0.0718737612755,2.11422782368,-0.600873479744,-1.09907787743,-0.23600776175,0.01951583002,-0.18507923304,-0.024074139541,-0.0724805672771,-1.05992825659,0.573919381938,0.818879568825,0.00579151947345,0.0,0.818876312791,-0.573834547398,-0.011672337521,0.0,-0.00623498480334,0.0114417391366,-0.999915102181,0.0,0.330408064513,-0.174298419685,0.305057320844,1.0,-0.248417142857,-0.326491102041,2.336
-0.361464976343,-0.517197952036,-0.140486225198,-2.63831228111,-0.0723421130605,2.11312695149,-0.619750983218,-1.08031992311,-0.203314213039,0.0224465716242,-0.159859925435,-0.029443062753,-0.056605727723,-1.04815940426,0.57395222476,0.818855967344,0.00587327334303,0.0,0.818852252855,-0.573864301779,-0.0118952947942,0.0,-0.00637019386533,0.0116368980662,-0.999911997745,0.0,0.325941346369,-0.180089901838,0.304980315106,1.0,-0.239766857143,-0.315122155102,2.354
-0.380496237721,-0.520394342619,-0.140137815897,-2.64082108343,-0.0727184638169,2.1122365297,-0.638093693178,-1.05613672283,-0.162609948736,0.00674959685794,-0.127928382258,-0.0150453189124,-0.046289048816,-1.01897271312,0.573959842668,0.818850184072,0.00593480848436,0.0,0.818846809965,-0.573870832821,-0.0119547458913,0.0,-0.00638345528736,0.0117214687407,-0.999910925367,0.0,0.32168594517,-0.185676840746,0.304949302435,1.0,-0.231116571429,-0.303753208163,2.372
-0.395939259206,-0.522656141439,-0.139809243724,-2.64253990031,-0.0729978154621,2.11156921386,-0.653007306555,-1.01359209609,-0.145607867378,0.0211561629145,-0.112037776917,-0.00247943777257,-0.0436976524194,-0.987521200598,0.573939176268,0.81886454662,0.00595173380079,0.0,0.81886135746,-0.5738500377,-0.0119565208704,0.0,-0.00637549112372,0.0117361865167,-0.999910803541,0.0,0.318263692319,-0.190189454863,0.304950128726,1.0,-0.223908,-0.294279085714,2.387
-0.414002981011,-0.5249770391,-0.139450048006,-2.64425022767,-0.073258912095,2.11086213771,-0.670431132128,-0.989081718785,-0.114034600052,0.0264486584545,-0.0914559250754,-0.0220924929249,-0.0362108951024,-0.958434438982,0.573995547841,0.818824634147,0.00600636947008,0.0,0.818822343153,-0.573906525817,-0.0119170835132,0.0,-0.00631102841933,0.0117587287951,-0.999910947644,0.0,0.314270352225,-0.195453977329,0.304972371523,1.0,-0.215257714286,-0.282910138776,2.405
-0.430438441211,-0.526681166303,-0.139038973646,-2.64553546521,-0.0733944608115,2.11034218304,-0.68634655367,-0.956068930305,-0.0985416807621,0.0186055893117,-0.0708115322963,-0.00693325310777,-0.0319278772867,-0.925969496318,0.573996592253,0.818823539923,0.00605553060027,0.0,0.818821986714,-0.573907558774,-0.0118918020848,0.0,-0.00626209325997,0.011784482357,-0.999910952117,0.0,0.310669652165,-0.200203746494,0.304978181456,1.0,-0.207088,-0.2721728,2.422
-0.44453105286,-0.527909039921,-0.138699427392,-2.64645208057,-0.0734996592,2.10996817206,-0.700009720682,-0.912141218773,-0.0757680227758,0.0316352388536,-0.0606289765935,-0.0057247209718,-0.0234212677325,-0.903235296119,0.574009087368,0.818814531491,0.00608913281364,0.0,0.818813656477,-0.573920375261,-0.0118467602443,0.0,-0.00620574152945,0.0117862400616,-0.999911282723,0.0,0.307581578942,-0.204270578062,0.304987308215,1.0,-0.199879428572,-0.262698677551,2.437
-0.460854008887,-0.528976708846,-0.138262675137,-2.64726952962,-0.0735241083947,2.10960093339,-0.715771286397,-0.910899843757,-0.0484080930969,0.0194769702732,-0.0360357720431,-0.000264027800817,-0.0108038869573,-0.86980348531,0.57411291377,0.818741281084,0.0061501051031,0.0,0.818741216568,-0.574023976,-0.0118339414995,0.0,-0.00615874721441,0.0118295909261,-0.999911061351,0.0,0.303826828858,-0.20921556588,0.304988519374,1.0,-0.190748571429,-0.250698122449,2.456
-0.47644897532,-0.529682695305,-0.137726688603,-2.64779010297,-0.0735144506081,2.10931223189,-0.730961730175,-0.854566250178,-0.037440058127,0.0283964914485,-0.024142366389,-0.00084347205413,-0.0118402709415,-0.83485152764,0.574028021648,0.818800903473,0.00613658985912,0.0,0.818800769354,-0.573939357826,-0.0118178062346,0.0,-0.00615451847252,0.0118086237835,-0.999911335223,0.0,0.300649777721,-0.213400533891,0.304996198204,1.0,-0.182578857143,-0.239960783674,2.473
-0.489039064134,-0.530020883081,-0.137375291737,-2.64806135553,-0.0735198841021,2.10912834769,-0.743115650345,-0.841924562616,-0.0178042204269,0.0212348928082,-0.0110538377851,-0.000660121399451,-0.0154498822522,-0.803662906873,0.574119164418,0.818737037824,0.00613146352379,0.0,0.818736721907,-0.574030280888,-0.011839076237,0.0,-0.00617356334029,0.0118173224227,-0.999911115053,0.0,0.297906779214,-0.217006771792,0.304989742034,1.0,-0.175370285714,-0.230486661225,2.488
-0.503330615921,-0.53020142598,-0.136782838295,-2.64822246175,-0.0734726748181,2.10897570834,-0.75716878821,-0.780666535772,-0.014537143125,0.0351185574197,-0.00967981180298,-0.00108805138046,-0.00705410378523,-0.769010665135,0.573907486122,0.818885989119,0.00605649221032,0.0,0.818884670626,-0.573818886029,-0.0118544991928,0.0,-0.00623227367421,0.0117631809375,-0.999911389244,0.0,0.294823309486,-0.221041710802,0.304984792214,1.0,-0.16672,-0.219117714286,2.506
-0.514968349233,-0.530216954203,-0.136391695838,-2.64826589949,-0.0734474358149,2.10889690187,-0.768354839303,-0.771421154664,-0.00264989621089,0.0202745865938,-0.00375077237302,0.00544967981597,-0.00332684528157,-0.7416237461,0.574010031745,0.818814421555,0.00601443351211,0.0,0.818812497644,-0.573921464646,-0.0118740482565,0.0,-0.00627095019956,0.0117407421883,-0.999911411154,0.0,0.292281312002,-0.224342068258,0.304974149721,1.0,-0.159511428572,-0.209643591837,2.521
-0.526616674424,-0.530082099334,-0.135825877406,-2.64820804269,-0.0732988832707,2.10889202707,-0.77978029489,-0.720747709334,0.00878816638323,0.0282434151074,0.00567937529056,0.0127985871629,-0.00251846331268,-0.697149027651,0.57386049841,0.818919495212,0.0059779283587,0.0,0.818917196164,-0.573772289606,-0.0118630690423,0.0,-0.00628504987696,0.0117034003704,-0.999911760391,0.0,0.289777528377,-0.227591160017,0.304965603671,1.0,-0.151822285714,-0.199537861225,2.537
-0.538542696044,-0.529822193024,-0.135352269419,-2.64806408208,-0.0731292390935,2.10888530963,-0.791291014692,-0.698029841871,0.0132782851748,0.0220613768736,0.0132393167723,0.0165081419889,-0.000351482653542,-0.662184640584,0.573947528679,0.818858379018,0.00599469226847,0.0,0.818856065029,-0.573858802872,-0.0118981524853,0.0,-0.00630291627935,0.0117379313284,-0.999911243168,0.0,0.28717588089,-0.230929493404,0.304947983095,1.0,-0.143652571429,-0.188800522449,2.554
-0.549778712641,-0.529428829255,-0.13477185392,-2.64779634489,-0.0729091505598,2.10891855794,-0.802237961225,-0.636180150198,0.0258040518953,0.0415145275354,0.0140325068915,0.017980475596,0.00368045912608,-0.625167605447,0.573884228195,0.818902850773,0.00598001058147,0.0,0.81890032122,-0.573795527471,-0.0119039262567,0.0,-0.00631697744251,0.0117287339328,-0.999911262361,0.0,0.284756719122,-0.234043395297,0.304944041374,1.0,-0.135482857143,-0.178063183674,2.571
-0.560386547025,-0.528878527565,-0.134223677226,-2.64744041797,-0.0726513102984,2.10896632651,-0.812617135028,-0.616862907171,0.0338809316842,0.029311985365,0.0222497431744,0.0136379556573,0.0114288521493,-0.598987751703,0.573815351803,0.8189510118,0.00599409784772,0.0,0.818948225175,-0.573725792409,-0.0119693988787,0.0,-0.00636350530208,0.011777307372,-0.999910396401,0.0,0.282470023271,-0.2369783869,0.304923202147,1.0,-0.127313142857,-0.167325844898,2.588
-0.570534806638,-0.52823857824,-0.133733134573,-2.64697553614,-0.0723764962531,2.10908807243,-0.822307920018,-0.570910435693,0.0443865072076,0.0347558605587,0.0276208047082,0.0178278832632,0.00902007605022,-0.564377530722,0.573987470055,0.818830113131,0.00603133071221,0.0,0.818827919887,-0.573897926092,-0.0119480099469,0.0,-0.00632214387009,0.0117968571089,-0.999910428318,0.0,0.280290344227,-0.239807966328,0.30492384135,1.0,-0.119143428572,-0.156588506123,2.605
-0.580821198523,-0.527352473508,-0.133072847891,-2.64639658929,-0.0719953531,2.10922231814,-0.832495723072,-0.53732250623,0.0357928625633,0.0302326526217,0.0308952970205,0.0159296366568,0.00286845574242,-0.518521892106,0.57379782788,0.818962786337,0.00606252561947,0.0,0.818960372066,-0.573707025434,-0.0120376432285,0.0,-0.00638039114192,0.0118723703542,-0.99990916459,0.0,0.278116058344,-0.242631245276,0.304891584656,1.0,-0.110012571429,-0.144587951021,2.624
-0.588617978229,-0.526671268496,-0.132612944221,-2.64593011993,-0.0717475988326,2.10933251738,-0.839905983041,-0.510688606641,0.0439956908217,0.0317613974379,0.032008982208,0.01866877442,0.0161754282493,-0.481910533162,0.573921733198,0.818875927983,0.00606676474759,0.0,0.818873282249,-0.573830353861,-0.0120838532163,0.0,-0.00641400624368,0.011903326719,-0.99990858149,0.0,0.276445334977,-0.244779382754,0.304875644001,1.0,-0.102804,-0.135113828572,2.639
-0.597258122111,-0.525777819785,-0.132044460567,-2.64528367702,-0.0713906938979,2.10949541445,-0.848262741189,-0.45444991912,0.0505869940258,0.0339654444715,0.0320811388855,0.0233609726908,0.0145485793021,-0.447726961834,0.573940665323,0.818862426773,0.00609800036956,0.0,0.818860054629,-0.573848898063,-0.0120995878534,0.0,-0.00640869046728,0.0119380842636,-0.999908201202,0.0,0.274628288152,-0.247159558148,0.304870907862,1.0,-0.0941537142858,-0.123744881633,2.657
-0.603726318154,-0.525005916038,-0.131486960965,-2.64475874247,-0.0710581040094,2.10961958283,-0.854667694994,-0.426635677907,0.0482738968998,0.0362480080478,0.0350179097693,0.0256622385132,0.007385614386,-0.410229849993,0.573769786131,0.81898209252,0.0061083185417,0.0,0.818979392829,-0.573677150475,-0.0121666776848,0.0,-0.00646021275325,0.0119836897868,-0.999907324121,0.0,0.273295417633,-0.248904858908,0.304851561307,1.0,-0.0869451428572,-0.114270759184,2.672
-0.610741956731,-0.524238457067,-0.130920126725,-2.64417823944,-0.0707429775881,2.1097702833,-0.861309935943,-0.401533405073,0.044451411951,0.0333540487703,0.0328547448804,0.0205157878517,0.0147816329849,-0.380546425051,0.573841263026,0.81893210741,0.00609550677451,0.0,0.818929384192,-0.573748935762,-0.0121478113699,0.0,-0.0064510664438,0.0119629353523,-0.999907631694,0.0,0.271832424504,-0.250809037509,0.304861322262,1.0,-0.0787754285715,-0.103533420408,2.689
-0.617790148027,-0.523346642288,-0.130310985394,-2.64348158743,-0.0703384604351,2.10994443105,-0.868023293805,-0.356218908678,0.0441324815104,0.0265991338139,0.0344977098625,0.0261133069058,0.0157638433821,-0.33816935302,0.57389522553,0.818894079408,0.00612402846802,0.0,0.818891951286,-0.573803176055,-0.0121092596528,0.0,-0.00640233731534,0.0119645942769,-0.999907925041,0.0,0.270393102842,-0.252724976709,0.304881097931,1.0,-0.0696445714287,-0.0915328653062,2.708
-0.623058020364,-0.522633118814,-0.129779192346,-2.64295525301,-0.0699904355184,2.1100968697,-0.873083401783,-0.315554094099,0.0382572078683,0.0355143795597,0.0332063852788,0.0208541788593,0.00819443871842,-0.306885723292,0.573866288109,0.818914203595,0.00614470699439,0.0,0.818912400293,-0.573774257385,-0.0120966569989,0.0,-0.00638057238568,0.0119740709423,-0.999907950724,0.0,0.269332753611,-0.254133564905,0.304884800277,1.0,-0.0619554285715,-0.081427134694,2.724
-0.628290313544,-0.521968456841,-0.129122161132,-2.64245792762,-0.0696048932104,2.1102190969,-0.878127979644,-0.281341997832,0.0354965809346,0.0321270113636,0.0281703534201,0.0157235110655,0.00296918550676,-0.271514817666,0.573746343885,0.818998271991,0.00614086763336,0.0,0.818996436257,-0.573654388587,-0.0120924255177,0.0,-0.0063810627908,0.0119675640494,-0.999908025495,0.0,0.268293798305,-0.255485917993,0.304893549304,1.0,-0.0533051428572,-0.0700581877552,2.742
-0.632266396537,-0.521473153707,-0.128616218824,-2.64205785516,-0.0693080615486,2.11034720048,-0.881794422438,-0.254706845074,0.0332333727383,0.0304792110637,0.0285195518161,0.0199759105275,0.014943296416,-0.228573330457,0.573789667374,0.81896800246,0.00612988277772,0.0,0.818966478276,-0.573698604723,-0.0120235311347,0.0,-0.0063303039572,0.0119193759261,-0.999908923717,0.0,0.26751265092,-0.256519502662,0.30491686842,1.0,-0.0460965714287,-0.0605840653062,2.757
-0.636127918483,-0.520905044628,-0.128088069052,-2.64165271331,-0.0689401890523,2.11046998277,-0.885335943411,-0.210577891654,0.0334420299992,0.02757205248,0.02451822733,0.0267159188582,0.001775066555,-0.194327675794,0.573856428901,0.818920936029,0.00616817993957,0.0,0.818919878733,-0.573765128584,-0.0120231584437,0.0,-0.00630705104088,0.0119510420313,-0.999908692682,0.0,0.266766867253,-0.257507306032,0.304915727158,1.0,-0.037926857143,-0.0498467265307,2.774
-0.63953575158,-0.520394811989,-0.127543408829,-2.6412975541,-0.068592155884,2.11053742619,-0.888445454226,-0.178439568937,0.0285341299024,0.0337110960872,0.015571446965,0.0180704258447,0.000994670366068,-0.156681648503,0.573882466924,0.818902541614,0.00618776186245,0.0,0.818901400969,-0.573790435293,-0.0120738874726,0.0,-0.00633698057242,0.0119963901538,-0.999907960415,0.0,0.266117523144,-0.2583511663,0.304908657378,1.0,-0.0292765714287,-0.038477779592,2.792
-0.642182080913,-0.520063701714,-0.12700756115,-2.64107640813,-0.0682633469643,2.11061261746,-0.890781758121,-0.141093414503,0.0158776156663,0.0382170949565,0.0111450409449,0.0247120843896,0.00711583779794,-0.111167960458,0.573908766061,0.818884023137,0.0061993379407,0.0,0.818883006797,-0.573816627726,-0.0120766645251,0.0,-0.00633222635606,0.0120076673135,-0.999907855172,0.0,0.2656336202,-0.258964900357,0.304906880052,1.0,-0.021106857143,-0.0277404408165,2.809
-0.644106094843,-0.519772918196,-0.126544993257,-2.64088842955,-0.0679829759285,2.11066571385,-0.892380071221,-0.116698489327,0.022988602858,0.0253072436414,0.0121170100134,0.0126205335488,0.000410039388888,-0.0972190287194,0.573980007399,0.818834090471,0.00619921683636,0.0,0.818832862954,-0.573887457345,-0.012110976434,0.0,-0.00635935002246,0.012027812386,-0.999907440915,0.0,0.265321749566,-0.259369250988,0.304897315294,1.0,-0.0197268965517,-0.0259267783251,2.824
-0.645805267904,-0.519521286065,-0.126163465348,-2.64071476687,-0.0677762295653,2.11070510384,-0.894041475667,-0.0978533573776,0.0177001463579,0.0202614738642,0.0118786075645,0.0160462617409,0.00470410597576,-0.0917643914051,0.573839494282,0.81893263992,0.00618974776906,0.0,0.818931175596,-0.573746802712,-0.0121277745763,0.0,-0.00638060530444,0.0120286050347,-0.999907295971,0.0,0.26502302106,-0.259763509458,0.304897325166,1.0,-0.0193868965517,-0.0254799211823,2.841
-0.647207355264,-0.519301372909,-0.125936876367,-2.64054681045,-0.0676495554587,2.11074787123,-0.895392363496,-0.0866811784854,0.0165041737084,0.0126228645701,0.0113643452238,0.00778477641627,0.00117215777009,-0.0848174700779,0.573779448555,0.81897479482,0.00617873506882,0.0,0.818973268778,-0.573686973294,-0.0121156345825,0.0,-0.00637786231955,0.012012152257,-0.999907511258,0.0,0.264742602476,-0.260142058669,0.304904514806,1.0,-0.0190668965517,-0.0250593497537,2.857
-0.648868368241,-0.519010809132,-0.125747451017,-2.64033045137,-0.0675798241407,2.11083112429,-0.897024483095,-0.0883922380697,0.0166197046952,0.00269417418703,0.0103382996536,0.00262151786284,-4.30337375825e-05,-0.071652784293,0.573709943648,0.819023825165,0.00613361830528,0.0,0.819021871502,-0.57361798395,-0.0120966685828,0.0,-0.00638922902032,0.0119637769342,-0.999908018667,0.0,0.264414004188,-0.260595242628,0.30490750186,1.0,-0.0186868965517,-0.0245599211823,2.876
-0.650313716359,-0.51876255445,-0.125660444569,-2.64013974921,-0.0675451204927,2.11087742585,-0.8984436569,-0.0855675844173,0.012824624965,0.00280283221815,0.0114855051615,0.00143933484349,0.00105789554412,-0.0836392860876,0.573694509785,0.819034787432,0.00611337225215,0.0,0.819032567225,-0.57360263715,-0.012100222294,0.0,-0.00640397984523,0.0119491121248,-0.999908099658,0.0,0.264104681918,-0.261005900085,0.304908774872,1.0,-0.0183468965517,-0.0241130640394,2.893
-0.651641160482,-0.518566707287,-0.125629134298,-2.63995956812,-0.0675026482899,2.11091138386,-0.899822523746,-0.0808830463627,0.0135248318699,0.0013631081923,0.0128484752995,0.00503892810971,0.00369248745867,-0.0866177113906,0.573657598782,0.819060533594,0.00612768885247,0.0,0.819058657263,-0.573565965688,-0.0120725253759,0.0,-0.00637361801398,0.0119446624937,-0.999908346816,0.0,0.263810892888,-0.261392902011,0.304922179997,1.0,-0.0180268965517,-0.0236924926108,2.909
-0.652880927777,-0.518371085385,-0.125610128379,-2.63978922706,-0.0674764659048,2.11096144518,-0.901021938706,-0.0815916033103,0.0124792109448,0.000995198972846,0.0145190790976,0.00179713913433,0.00570117127623,-0.0786269988636,0.573697159649,0.819032794215,0.0061317136953,0.0,0.819031172708,-0.573605880741,-0.0120407065074,0.0,-0.00634466861498,0.0119300134718,-0.999908705812,0.0,0.263535638317,-0.261760540638,0.304932257467,1.0,-0.0177268965517,-0.0232982068966,2.924
-0.654222686687,-0.518131810312,-0.125627159223,-2.63959768655,-0.0674464100563,2.11103113121,-0.902382995466,-0.0749605077183,0.0132850994783,-0.00130258590949,0.0132203092038,0.000209859966021,0.00554060356459,-0.0744863178032,0.573716267174,0.819019234447,0.00615510256835,0.0,0.819018088594,-0.573625207095,-0.01200996426,0.0,-0.00630579115454,0.0119316819266,-0.999908931835,0.0,0.263232555893,-0.262169684508,0.304936695165,1.0,-0.0173868965517,-0.0228513497537,2.941
-0.655578771723,-0.517894700876,-0.125632877157,-2.63942782824,-0.067422618111,2.11105326508,-0.903648577101,-0.078280364154,0.0158984849291,0.0017679996768,0.00834648399817,0.000684524371232,-6.50471530635e-05,-0.0693610251486,0.573813616831,0.818950881889,0.00617519985035,0.0,0.818949752763,-0.573721986222,-0.0120470691935,0.0,-0.00632323175854,0.0119701811999,-0.999908361552,0.0,0.262914626954,-0.262568154719,0.304928269677,1.0,-0.0170468965517,-0.0224044926108,2.958
-0.656822150629,-0.517704587906,-0.12562717131,-2.63925582436,-0.0673982967881,2.11107714687,-0.904833290725,-0.0781996148277,0.0131710573802,0.000463111997224,0.0117583516963,0.000508459553916,0.00217363359284,-0.0851319291711,0.573876870913,0.818906472491,0.00618653739277,0.0,0.818905568354,-0.57378532445,-0.0120340543878,0.0,-0.00630514205689,0.0119724859037,-0.999908448192,0.0,0.262630108878,-0.262935721349,0.304938542474,1.0,-0.0167268965517,-0.0219839211823,2.974
-0.65811608625,-0.517462065795,-0.125617299022,-2.63904801274,-0.0673670488238,2.11114194228,-0.90623253361,-0.0715626364238,0.0145174456937,0.00343665473934,0.0122893262366,0.00497560336013,0.00502553646138,-0.0794059218927,0.57380772108,0.818954854274,0.00619619163319,0.0,0.818954300121,-0.573716574874,-0.0119955378676,0.0,-0.00626906682421,0.0119577602533,-0.999908851231,0.0,0.262346725709,-0.263328806621,0.304949347734,1.0,-0.0163668965517,-0.0215107783251,2.992
-0.659465355509,-0.517204300993,-0.125562197079,-2.63885922238,-0.0673324299184,2.11120142806,-0.907599307682,-0.0708238480702,0.0146739781889,0.00219824599502,0.00438716292473,0.000642170182462,0.0038912833618,-0.073982671953,0.573778994437,0.818975026137,0.00619023489202,0.0,0.818974387146,-0.573687865746,-0.0119971994604,0.0,-0.00627426489705,0.0119536150136,-0.999908868192,0.0,0.262052974908,-0.263720014696,0.304946493495,1.0,-0.0159868965517,-0.0210113497537,3.011
-0.660515503056,-0.517021671913,-0.125511297151,-2.63871096303,-0.0673104240456,2.11120303663,-0.908663170187,-0.0682475480924,0.0103328843695,0.000617878812281,0.00959139449165,0.00133474975827,-0.000366862933208,-0.0765953282244,0.573748762109,0.81899626927,0.00618189308061,0.0,0.818995356773,-0.573657361885,-0.0120242937671,0.0,-0.00630168458678,0.0119620957006,-0.999908594341,0.0,0.261818972655,-0.264017338054,0.304947865556,1.0,-0.0156868965517,-0.0206170640394,3.026
-0.661808990116,-0.516757609899,-0.125465338303,-2.63851272457,-0.0672825459319,2.11124372297,-0.910001159954,-0.0649658184042,0.0175603419565,0.00473946550036,0.00970766147343,0.00510536239497,0.00041309316832,-0.0675290866658,0.573701995758,0.81902907652,0.00617566025833,0.0,0.819027970555,-0.573610419443,-0.012042302829,0.0,-0.00632069478709,0.0119669620559,-0.999908416124,0.0,0.261535396779,-0.26439570296,0.304945120402,1.0,-0.0153068965517,-0.020117635468,3.045
-0.662930723475,-0.516536371998,-0.125451478252,-2.63833464579,-0.0672582033172,2.11131530985,-0.91110842455,-0.0647808343891,0.00992050546929,0.000455441759409,0.00693336408404,0.000917478910291,0.00156976458544,-0.0667214030094,0.573723641508,0.819013906167,0.00617669659274,0.0,0.819013032862,-0.573632471721,-0.0120077595933,0.0,-0.00629148948592,0.0119481606088,-0.999908825153,0.0,0.261290542533,-0.264736096251,0.304950867719,1.0,-0.0149668965517,-0.0196707783251,3.062
-0.663990209185,-0.516322777153,-0.125441474552,-2.63818781048,-0.0672330776894,2.11134288141,-0.912209841763,-0.0678375376488,0.01361478865,7.06040724399e-05,0.00641409876582,0.00138744365044,0.000181323492175,-0.0679438961564,0.573700717523,0.819029860951,0.00619035415266,0.0,0.819028946082,-0.57360907743,-0.0120398783959,0.0,-0.00631029808677,0.011977596718,-0.999908354458,0.0,0.261047201958,-0.265046513565,0.304941380757,1.0,-0.0146468965517,-0.0192502068966,3.078
-0.664909281409,-0.516154689377,-0.125431342823,-2.6380526346,-0.067213779277,2.1113646537,-0.913123397833,-0.0679028806632,0.012985944481,0.00160986600585,0.00633760012274,-0.000201213363913,0.00593839939499,-0.0570829220945,0.573713317474,0.819020984606,0.00619701778984,0.0,0.819020115112,-0.573621567184,-0.0120455636443,0.0,-0.00631094784494,0.0119864132784,-0.999908244707,0.0,0.260837721375,-0.265317570773,0.304942879564,1.0,-0.0143668965517,-0.0188822068966,3.092
-0.666011389812,-0.515952897636,-0.125423851746,-2.63788679176,-0.0671930832809,2.11141722011,-0.914181393443,-0.0629892610708,0.00939941574779,-0.000396512255059,0.00883998990301,-0.000101935230712,0.00272250253111,-0.062442473372,0.573761551849,0.818987166229,0.00620081234198,0.0,0.818986489459,-0.573670047392,-0.0120230491321,0.0,-0.0062896237228,0.0119769754536,-0.999908492159,0.0,0.26058986634,-0.265648398504,0.304948428462,1.0,-0.0140268965517,-0.0184353497537,3.109
-0.667074842982,-0.515748774924,-0.125408897249,-2.63770809615,-0.067169878116,2.11145900597,-0.915276883172,-0.0638821205174,0.0140423096472,0.00362312904016,0.00938219278436,-0.00020884409261,0.00256465354571,-0.0645509504101,0.573743796333,0.818999589388,0.00620287464159,0.0,0.818999076281,-0.573652547635,-0.0120006059716,0.0,-0.00627031724537,0.0119656522061,-0.999908748981,0.0,0.260354941057,-0.265968846851,0.304958201094,1.0,-0.0136868965517,-0.0179884926108,3.126
-0.668042651031,-0.515567138035,-0.125384316389,-2.6375546742,-0.0671457867556,2.11152202024,-0.916236886724,-0.0574086147607,0.00820305943174,0.00098967483881,0.0114689100313,0.000158432230738,0.00867962730083,-0.0567640812495,0.573750910689,0.818994631688,0.00619940739225,0.0,0.818994328369,-0.57366016226,-0.0119605700907,0.0,-0.00623940977359,0.0119398973554,-0.999909250191,0.0,0.260145440041,-0.266258890247,0.304966819858,1.0,-0.0133668965517,-0.0175679211823,3.142
-0.669050318852,-0.515365505646,-0.125351734731,-2.63739381211,-0.0671233757106,2.11154491463,-0.917202718708,-0.0582542521334,0.0116835402184,0.00338295638844,0.00888099730615,0.001498616326,-0.000202821081687,-0.0610797325398,0.573779959395,0.818974308122,0.00619578354101,0.0,0.818973885025,-0.573689081148,-0.0119733337167,0.0,-0.00625151969103,0.0119444738193,-0.999909119894,0.0,0.259921630139,-0.266553423822,0.304968190024,1.0,-0.0130268965517,-0.0171210640394,3.159
-0.670043841615,-0.515172079571,-0.125310995238,-2.63723343554,-0.0671009661522,2.11158033653,-0.918213505026,-0.0560759487532,0.00977182240346,0.000828716028414,0.00842160690501,0.00217332042226,9.40733696976e-05,-0.0633515539044,0.573754727614,0.818992054082,0.00618666250967,0.0,0.818991565493,-0.573663994639,-0.0119659436299,0.0,-0.00625106757612,0.0119325708809,-0.999909264837,0.0,0.259705113656,-0.26684415889,0.30497361851,1.0,-0.0126868965517,-0.0166742068966,3.176
-0.671063603355,-0.514959676344,-0.125290320135,-2.63708098733,-0.0670759322687,2.11163634421,-0.919274186649,-0.0573692891698,0.00816510122825,0.000253117340683,0.00919673773985,-0.000122865738222,0.00379143266275,-0.0589220290832,0.573725206038,0.819012710218,0.00618994016611,0.0,0.819012271301,-0.573634479001,-0.0119637310763,0.0,-0.00624780500046,0.0119337607933,-0.999909271027,0.0,0.259478021287,-0.267146138307,0.304969709746,1.0,-0.0123268965517,-0.0162010640394,3.194
-0.672068427072,-0.514765322861,-0.125277871123,-2.63691051113,-0.0670548650032,2.11164942329,-0.920221449986,-0.0545207567932,0.00994611374351,0.000539072718719,0.00688081670372,0.00459019676322,0.000105955456844,-0.0465198900764,0.57378126647,0.818973404438,0.0061941886455,0.0,0.818972988203,-0.573690447425,-0.0119692116432,0.0,-0.00624903946577,0.0119408124974,-0.999909179127,0.0,0.259250155117,-0.267445078474,0.30497678458,1.0,-0.0119668965517,-0.0157279211823,3.212
-0.672930943097,-0.51459713727,-0.12525414185,-2.6367707573,-0.0670382933653,2.11169052605,-0.921084252863,-0.0507763667567,0.00675395350387,0.00205674064464,0.0083453352415,0.00057548797055,0.00297973552923,-0.0557529226692,0.573778442899,0.818975430025,0.00618792217524,0.0,0.818975043657,-0.573687863588,-0.0119524031237,0.0,-0.00623890875359,0.0119260146995,-0.999909418993,0.0,0.259060208594,-0.267701434163,0.304982213828,1.0,-0.0116468965517,-0.0153073497537,3.228
-0.673727757747,-0.514441955198,-0.12523933914,-2.63664729189,-0.0670238158191,2.11173059766,-0.921896727453,-0.0576537142109,0.00954330885114,0.00164006804755,0.0016777999051,0.0034599305531,0.00173233569714,-0.0492049031888,0.573767666634,0.818982996168,0.00618575902485,0.0,0.818982660475,-0.573677249307,-0.0119399485191,0.0,-0.00623010553881,0.0119170152242,-0.999909581179,0.0,0.258881904485,-0.267938583323,0.304984740387,1.0,-0.0113468965517,-0.0149130640394,3.243
-0.674581873621,-0.514269163782,-0.125217048789,-2.63649513402,-0.0670097650824,2.11176062886,-0.92273253622,-0.0481717437545,0.00931401884214,0.000954233577175,0.00937841295951,0.00010079190969,0.000586670322767,-0.0507965903247,0.573780610077,0.818973991142,0.00617739701894,0.0,0.818973638231,-0.573690399641,-0.0119269502821,0.0,-0.00622406854274,0.0119028072865,-0.999909788006,0.0,0.258694143006,-0.26819464726,0.304993105005,1.0,-0.0110068965517,-0.0144662068966,3.26
-0.675493295013,-0.5140524218,-0.125206438204,-2.63632542939,-0.0669876408071,2.11180671383,-0.923609056068,-0.0431375195805,0.00905509407746,0.00138740666279,0.00742968653065,-0.000489717745234,0.000848538766884,-0.0453593967962,0.573819896394,0.818946448517,0.0061796331712,0.0,0.818946150302,-0.57372971747,-0.0119231328946,0.0,-0.00621908788257,0.0119027468429,-0.999909819716,0.0,0.258494306327,-0.268473256446,0.304994286537,1.0,-0.0106268965517,-0.0139667783251,3.279
-0.676202036179,-0.513901888528,-0.125190831855,-2.63621587088,-0.0669680114667,2.11184163948,-0.924324931474,-0.0508608948423,0.0116520547668,0.00289232334287,0.0107149207509,0.00514610822892,0.00439021394666,-0.0469727009985,0.573817063089,0.818948407986,0.00618304676286,0.0,0.818948139311,-0.573726842286,-0.0119248673376,0.0,-0.00621859095372,0.0119065162324,-0.999909777929,0.0,0.258335842394,-0.26868229478,0.304991771287,1.0,-0.0103268965517,-0.0135724926108,3.294
-0.676942030191,-0.513743200564,-0.125176224594,-2.63610450262,-0.066948791833,2.11186566399,-0.925103081661,-0.0522559330977,0.00980700038861,0.00209493019585,0.00602931529081,0.000171718316131,0.00531550715519,-0.0455924906477,0.573789488907,0.818967682162,0.00618909494124,0.0,0.818967367235,-0.57369900983,-0.0119433841627,0.0,-0.00623068796542,0.0119218846174,-0.999909519504,0.0,0.258167090325,-0.268898322164,0.304986102597,1.0,-0.0100068965517,-0.0131519211823,3.31
-0.677802942625,-0.513554759435,-0.125164472984,-2.63597554235,-0.0669257807055,2.11190803858,-0.925926619496,-0.0470039297561,0.00569322192736,-0.000484226012225,0.00707721607153,-3.24683520397e-06,0.00204642303258,-0.0405521683294,0.57382835384,0.818940393867,0.00619665428689,0.0,0.818940099065,-0.573737685341,-0.0119553111265,0.0,-0.00623555316901,0.0119352149688,-0.99990933015,0.0,0.257971424797,-0.269152437749,0.304978917141,1.0,-0.00962689655173,-0.0126524926108,3.329
-0.678487103254,-0.513402909749,-0.125152333802,-2.63585744533,-0.0669047527038,2.11194122025,-0.926595839794,-0.0420029322873,0.00703145140369,0.00353739578117,0.00829489567654,2.31639148139e-05,0.000413100400556,-0.0377471315964,0.573847053395,0.818927255921,0.00620126765822,0.0,0.818927040736,-0.573756399185,-0.0119517047534,0.0,-0.00622967971598,0.0119370661535,-0.999909344662,0.0,0.257819997153,-0.269357414848,0.304979541062,1.0,-0.00930689655173,-0.0122319211823,3.345
-0.679149582795,-0.513252995409,-0.125131189962,-2.63575604851,-0.0668826300059,2.11195856825,-0.927258122688,-0.0456117697932,0.00984590666659,0.000755184183169,0.00751284594267,0.00276129473676,1.98898359739e-05,-0.0402761474531,0.5738469765,0.818927263713,0.00620735135526,0.0,0.818926954264,-0.573755964647,-0.0119784603943,0.0,-0.00624810322479,0.0119574008368,-0.999908986744,0.0,0.25767028196,-0.269548033027,0.304972149855,1.0,-0.00898689655173,-0.0118113497537,3.361
-0.679808920402,-0.513107709866,-0.125098250881,-2.63566709112,-0.0668590237363,2.11198486994,-0.927948746751,-0.0406089990395,0.00718087457276,0.00157361448895,0.00640743039595,0.00116117857342,-0.000512227780037,-0.035512922557,0.573812754923,0.818951223446,0.00620989572021,0.0,0.818950780803,-0.57372142156,-0.0120039979501,0.0,-0.00626805928668,0.0119738766168,-0.999908664685,0.0,0.257522797982,-0.269733197148,0.304961855963,1.0,-0.00864689655173,-0.0113644926108,3.378
-0.680418235396,-0.512962097983,-0.125052116348,-2.63558971354,-0.0668387625035,2.11200879939,-0.928587172611,-0.0367526003199,0.0105798955697,0.00183820363473,0.000876960377838,0.00266460886598,7.74057048613e-05,-0.0375270410648,0.573768964509,0.818981941406,0.00620499145962,0.0,0.818981178851,-0.573677173554,-0.0120447553982,0.0,-0.00630489658612,0.0119929089536,-0.999908204994,0.0,0.257388420517,-0.269899515307,0.304946281372,1.0,-0.00832689655173,-0.0109439211823,3.394
-0.681050682559,-0.512820054914,-0.125019301138,-2.63551185438,-0.0668195841943,2.11203422739,-0.929207125792,-0.0360825373142,0.00830303953634,-0.00122217292487,0.00396579466138,-1.04925850839e-05,0.000918459578358,-0.0402410049216,0.573768262514,0.818982433263,0.00620498505445,0.0,0.81898144911,-0.573676050985,-0.0120797947875,0.0,-0.00633361034755,0.0120130018058,-0.999907782332,0.0,0.257244987417,-0.270075074471,0.304932053671,1.0,-0.00798689655173,-0.0104970640394,3.411
-0.681690473059,-0.512675244824,-0.125002988235,-2.63542362887,-0.0667918238779,2.11205105846,-0.929826222319,-0.0329048935591,0.00506351879332,-0.0011662935293,0.00698023427171,0.00502134978235,2.67252054644e-05,-0.0349307987998,0.573790181189,0.818966963733,0.0062199023352,0.0,0.818965942425,-0.573697459554,-0.0121143283216,0.0,-0.00635301483008,0.0120452027279,-0.999907271848,0.0,0.257097422911,-0.27025656088,0.304920388841,1.0,-0.00762689655173,-0.0100239211823,3.429
-0.682356094653,-0.512528994183,-0.124985191795,-2.6353302419,-0.066767078344,2.11207665171,-0.930445513909,-0.0346486900411,0.00415713039264,0.00101171162944,0.00580846965648,0.000354344050887,-0.000307118910653,-0.0361582549688,0.573830983125,0.818938302202,0.00622951790725,0.0,0.818937257505,-0.573737927397,-0.0121369616173,0.0,-0.00636543460232,0.0120663812428,-0.999906937513,0.0,0.256945264052,-0.270447196532,0.30491130928,1.0,-0.00724689655173,-0.00952449261084,3.448
-0.682836930745,-0.512420955519,-0.124985495773,-2.63524965692,-0.0667479135303,2.11209595464,-0.930924036115,-0.0316588550965,0.00180331253665,0.00176345913613,0.00646573954586,0.000249718015287,-0.000232412926196,-0.0305075332381,0.573845471285,0.818928054471,0.00624208202171,0.0,0.818927136222,-0.573752284568,-0.0121411866612,0.0,-0.00636147202905,0.0120792078978,-0.999906807863,0.0,0.256835373219,-0.270591078668,0.304909583556,1.0,-0.00696689655173,-0.00915649261084,3.462
-0.683424484677,-0.512296229716,-0.124983333694,-2.6351486615,-0.0667239713703,2.1121173052,-0.931530017549,-0.0280695015217,0.00285793710798,0.00400054201863,0.00469196033848,-0.000164599141979,0.00480115004712,-0.0302337042702,0.573844270487,0.818928787818,0.00625624592114,0.0,0.818928056458,-0.573751023884,-0.0121386918412,0.0,-0.00635131897488,0.012089366835,-0.999906749631,0.0,0.256701986077,-0.270766716302,0.304911183803,1.0,-0.00658689655173,-0.00865706403942,3.481
-0.683848853115,-0.512204693963,-0.124961773688,-2.63507990377,-0.066703690359,2.11213515601,-0.931969552885,-0.0281324044815,0.00768301300202,0.000973069414166,-0.000213315621049,0.000957949153264,-5.01902595078e-05,-0.0287554727186,0.573828735505,0.818939646634,0.0062597428399,0.0,0.818938945118,-0.57373544639,-0.01214037173,0.0,-0.00635091765691,0.0120930741856,-0.999906707349,0.0,0.256609812312,-0.270888202076,0.304910576202,1.0,-0.00628689655173,-0.00826277832513,3.496
-0.684287091268,-0.512128888499,-0.124924572809,-2.63500711822,-0.0666838070486,2.11215546073,-0.932402915002,-0.0266776615673,0.00333972468206,0.00536985518198,0.00503156437305,2.36876789611e-05,0.00307428770316,-0.0218640271018,0.573818412564,0.818946931648,0.00625295513863,0.0,0.818946272194,-0.573725405113,-0.0121206306967,0.0,-0.0063387961401,0.0120761078691,-0.999906989316,0.0,0.256518956507,-0.271011625673,0.304918192218,1.0,-0.00596689655173,-0.00784220689656,3.512
-0.684733170684,-0.512052973673,-0.124876107028,-2.634939009,-0.0666609515073,2.11218598088,-0.932857702879,-0.0287417059733,0.00588564930956,0.00375581327807,0.00422072314349,0.000258892845836,0.00241470398977,-0.0232291727293,0.573789989209,0.818966924272,0.00624276643258,0.0,0.818966298434,-0.57369735072,-0.0120954002784,0.0,-0.00632439596453,0.0120530669714,-0.999907358505,0.0,0.256429287303,-0.271134590977,0.304924779036,1.0,-0.00562689655173,-0.0073953497537,3.529
-0.685196586518,-0.511965911671,-0.12482841996,-2.63486230831,-0.0666449791236,2.11221255987,-0.933295058418,-0.0269957788008,0.00660130952268,0.000203126108936,0.00335299846074,-0.000352105740953,-0.000184400430591,-0.0254393937088,0.573788098329,0.818968370729,0.00622678586504,0.0,0.818967664207,-0.573695774142,-0.0120776908349,0.0,-0.00631908771003,0.0120298031428,-0.999907672221,0.0,0.256335096594,-0.271264311588,0.304930780831,1.0,-0.00526689655173,-0.00692220689656,3.547
-0.685590213166,-0.511899494755,-0.124810875574,-2.63480226025,-0.0666250899656,2.11223436803,-0.933696844095,-0.0202005415235,0.00546280899396,-0.000378636299363,0.000420106709443,0.00011460966674,0.00032353746926,-0.0252386551163,0.573780462518,0.81897369159,0.00623058716802,0.0,0.818973147196,-0.573688337836,-0.0120591087556,0.0,-0.00630179894787,0.0120221960458,-0.999907872822,0.0,0.256249315284,-0.271377409156,0.304935748887,1.0,-0.00492689655173,-0.0064753497537,3.564
