nelsonifechukwu/NELSON_IML_WORK/CNN-GradCAM/train2dof/data_sample_2022-02-22-09-14-12/robot_state.csv
position_joint1,position_joint2,position_joint3,position_joint4,position_joint5,position_joint6,position_joint7,velocity_joint1,velocity_joint2,velocity_joint3,velocity_joint4,velocity_joint5,velocity_joint6,velocity_joint7,ee_T_00,ee_T_10,ee_T_20,ee_T_30,ee_T_01,ee_T_11,ee_T_21,ee_T_31,ee_T_02,ee_T_12,ee_T_22,ee_T_32,ee_T_03,ee_T_13,ee_T_23,ee_T_33,v_x,v_y,time
0.465074473836,0.547801205491,-0.123984925387,-1.35583953059,0.0795396189441,1.89410194524,0.159149627915,-0.00178417627793,0.00128831704707,0.00196168269032,0.00247159875411,0.000110959249244,0.000356969376446,0.00071105392234,0.573805661791,0.818977426767,0.00194521014914,0.0,0.818933825355,-0.573746727054,-0.011951141615,0.0,-0.00867182420978,0.00845079381608,-0.999926689087,0.0,0.661672070739,0.2608985506,0.303197165569,1.0,0.0,0.0,0.0
0.465076561251,0.547797262077,-0.123979661974,-1.35584545601,0.0795389068673,1.89410324926,0.159146946636,-0.00114383143878,0.000165912771318,0.00175368782755,-0.000147624819428,-8.73237614802e-05,-0.00013688157437,-0.00110899079326,0.573798215893,0.818982642187,0.00194579925695,0.0,0.818939022968,-0.57373925476,-0.0119537069263,0.0,-0.00867366406177,0.00845266939009,-0.999926657276,0.0,0.661669363044,0.260902299274,0.303197076667,1.0,-0.00012,-0.000157714285714,0.007
0.465079610787,0.547796715933,-0.123987082676,-1.35584481831,0.0795389068673,1.89410345585,0.159150776913,0.000625385839091,-0.00137638546415,-0.000230420307495,0.000511133385495,-0.000395196180205,-0.000151995650395,0.00103511350613,0.573804005599,0.818978587434,0.00194509215609,0.0,0.818934998507,-0.573745085228,-0.0119495731491,0.0,-0.00867062440962,0.00844977966455,-0.999926708062,0.0,0.661670473924,0.260900119739,0.303198030662,1.0,-0.00044,-0.000578285714286,0.023
0.465081125996,0.547776519171,-0.12398519858,-1.35586365373,0.0795396189421,1.89410880374,0.159143270354,0.00054589221965,-0.00181866629332,-0.000275356593236,-0.00340569832223,-2.55828977563e-05,0.000347147725409,-0.000300459784105,0.573796519763,0.818983814246,0.0019526425658,0.0,0.81894029469,-0.573737540278,-0.0119488706546,0.0,-0.00866579416529,0.00845548086919,-0.999926701741,0.0,0.661666889862,0.260900722287,0.30320377704,1.0,-0.00082,-0.00107771428571,0.042
0.465077674682,0.5477211782,-0.123985334236,-1.35592567878,0.079540097863,1.89411749646,0.159147700488,-0.000602169333934,-0.00638905367973,0.000425357450348,-0.0100542786752,0.000157159464479,0.000570955061787,0.00198930692026,0.573806545098,0.81897677859,0.00195750703883,0.0,0.818933266846,-0.573747489681,-0.0119528004579,0.0,-0.0086661181142,0.00846182568553,-0.999926645261,0.0,0.661656773022,0.260892393093,0.30321422055,1.0,-0.00114,-0.00149828571429,0.058
0.465080006303,0.547604318697,-0.123980325948,-1.35608005161,0.0795368794708,1.8941556974,0.15915045917,-0.00106458378052,-0.00673855578853,0.00103675389244,-0.01258477622,0.00039975061913,0.0122555089414,0.00148092575054,0.57381102948,0.818973621947,0.00196364551272,0.0,0.818930084268,-0.573751844198,-0.011961825177,0.0,-0.00866994097928,0.00847207871827,-0.999926525304,0.0,0.661630511122,0.260882117249,0.303226675054,1.0,-0.00144,-0.00189257142857,0.073
0.46506554923,0.547467176306,-0.123988038824,-1.35628837955,0.0795313664975,1.89421680249,0.159147502993,-0.00227305159711,-0.0103469638383,-0.000749553080145,-0.0131547668286,-0.000322016102928,0.00696872324465,0.00179305255854,0.573835931491,0.818956188754,0.00195743013942,0.0,0.818912523895,-0.573776724268,-0.0119706222937,0.0,-0.0086804544829,0.00847230036826,-0.999926432212,0.0,0.661604405311,0.26084841371,0.303230220275,1.0,-0.00178,-0.00233942857143,0.09
0.465045944615,0.547287431073,-0.123980028178,-1.35651137417,0.0795305291003,1.89435222469,0.159129301514,-0.00150666254395,-0.0088292876592,0.00090619486038,-0.0109006573117,0.000178325122381,0.00937373892249,-0.00259675672696,0.573844058756,0.818950283756,0.00204349376021,0.0,0.818907661364,-0.573784412819,-0.0119346833263,0.0,-0.00860155303584,0.00852224389571,-0.999926689635,0.0,0.661588359758,0.260825048171,0.303262899705,1.0,-0.00214,-0.00281257142857,0.108
0.465035309984,0.547090984796,-0.123980353604,-1.3567430909,0.0795277750095,1.89446707454,0.159126336433,0.000911086725947,-0.0112484016685,-0.000606439097497,-0.0160470929115,2.89539424487e-05,0.00670439909857,0.000236766899163,0.573862928674,0.818936874148,0.00211711047514,0.0,0.818895157523,-0.573802925757,-0.011902532463,0.0,-0.00853278282738,0.00856427854276,-0.999926919705,0.0,0.66156632322,0.260800265022,0.303301735657,1.0,-0.00246,-0.00323314285714,0.124
0.464997817665,0.546868178674,-0.123985285017,-1.35707047007,0.0795210926048,1.89458555867,0.159106881706,-0.00458356643074,-0.0119605485879,-0.00121557769204,-0.0196338964799,-0.0011675972459,0.00970011944812,-0.0017003278684,0.573897664949,0.818912485442,0.00213500685957,0.0,0.818870907779,-0.573837490547,-0.0119045258972,0.0,-0.00852378202107,0.00858043981996,-0.999926857921,0.0,0.661532024503,0.260743635418,0.30331416078,1.0,-0.0028,-0.00368,0.141
0.464964726338,0.546600277555,-0.123985127175,-1.35746527546,0.0795167443899,1.89473634434,0.15906749349,-0.00148716072225,-0.0215455333995,0.00276247401541,-0.0220393266081,-0.000227523732043,0.0116857991038,-0.00865008712369,0.573913351846,0.818901410284,0.00216603545596,0.0,0.818860068366,-0.573852880022,-0.0119082923721,0.0,-0.00850889555559,0.00860817366562,-0.999926746338,0.0,0.661487420581,0.260688024995,0.303329059514,1.0,-0.00314,-0.00412685714286,0.158
0.464929643719,0.546342839299,-0.123983601913,-1.35787582913,0.0795074167992,1.89488978247,0.158942118757,-0.00283841241018,-0.0106909382941,0.000652582658758,-0.0298004820747,-0.000404250110733,0.0112967855478,-0.00284895816552,0.573858871075,0.81893956402,0.00217565441442,0.0,0.81889819308,-0.573798210946,-0.0119209642061,0.0,-0.00851432654622,0.00862275654498,-0.999926574461,0.0,0.661439908938,0.260629252077,0.303329214011,1.0,-0.00346,-0.00454742857143,0.174
0.464879480133,0.546036741648,-0.123980355552,-1.35838129945,0.0794900993304,1.89506197443,0.158915839498,-0.00156155019985,-0.0174091726807,0.00103948167635,-0.0328507647363,0.000621657747404,0.0109894757997,-0.00355013379185,0.573899772808,0.818910942722,0.00215999117362,0.0,0.81886920957,-0.573839011496,-0.0119479456159,0.0,-0.00854498072531,0.00862583961363,-0.999926286381,0.0,0.661379576802,0.260550848341,0.303320187639,1.0,-0.0038,-0.00499428571429,0.191
0.464809801492,0.54568463351,-0.123985967407,-1.35899102828,0.0794389681906,1.89526400332,0.158847849392,-0.00232246761766,-0.0170512593601,-0.000160351910658,-0.0369657876048,-0.00212327769256,0.00670126325961,-0.00680112337883,0.573925497871,0.81889306257,0.0021028242867,0.0,0.818850699212,-0.573865084349,-0.0119642913454,0.0,-0.0085909031462,0.00858867636322,-0.999926212788,0.0,0.661311420057,0.260439185409,0.303296914228,1.0,-0.00416,-0.00546742857143,0.209
0.464757738985,0.545321926181,-0.123986046161,-1.35962615951,0.079341314489,1.89546362851,0.158746507215,-0.00637993717317,-0.0235160343373,0.000214493500928,-0.0475253740858,-0.0016801741507,0.0130536333725,-0.00336448571062,0.573894553392,0.818914986753,0.0020082230621,0.0,0.818871865964,-0.573835009623,-0.0119580836523,0.0,-0.00864043157061,0.00850732023545,-0.99992648152,0.0,0.661233899929,0.260331806539,0.303268549877,1.0,-0.00448,-0.005888,0.225
0.464682182614,0.544897703629,-0.123987029711,-1.36033576248,0.0793309186035,1.89570269351,0.158686735725,-0.0026259922925,-0.0278001872981,-0.00113158291729,-0.0436008601041,-0.00020673557311,0.0136311927847,-0.00428438596218,0.573944910956,0.818879748484,0.00198585284435,0.0,0.818836005752,-0.573885130976,-0.0120082900305,0.0,-0.00869386148398,0.00851834876798,-0.99992592451,0.0,0.661150114666,0.260217153253,0.303251869999,1.0,-0.00482,-0.00633485714286,0.242
0.464610419545,0.544453955697,-0.123994533038,-1.36106309907,0.0793089120107,1.8959687225,0.158564310331,-0.00633634808218,-0.0294147412411,-0.00193152095101,-0.0469843189076,-0.00026252303838,0.0212011972043,-0.010344050921,0.573943423778,0.818880803416,0.00198065654894,0.0,0.818836814965,-0.573883491997,-0.0120314160758,0.0,-0.00871579737178,0.00852735081347,-0.999925656819,0.0,0.661069215772,0.26009934236,0.303243063024,1.0,-0.00516,-0.00678171428571,0.259
0.46454807507,0.543987058708,-0.123994570598,-1.36180911631,0.0792780447457,1.89623398241,0.158497647436,-0.003077863167,-0.0304237961894,0.00012561862464,-0.0509759794443,-0.00245075831679,0.0233176198304,-0.00226864632496,0.57397323495,0.818859919289,0.00197611850306,0.0,0.818815721104,-0.573913171801,-0.0120512658152,0.0,-0.00873434627808,0.00853534525412,-0.999925426758,0.0,0.660980715106,0.259988688257,0.303241370417,1.0,-0.00548,-0.00720228571429,0.275
0.464462731572,0.543472974722,-0.123995706363,-1.36264657402,0.0792361351394,1.89651871659,0.158378658839,-0.00415022534517,-0.0300003236559,-0.000396390346853,-0.0499576579989,-0.00294649932463,0.0188262574527,-0.00995669839864,0.573981833678,0.818853959634,0.00194789633568,0.0,0.818809271241,-0.573921773425,-0.0120798269647,0.0,-0.00877384294601,0.00852872101511,-0.999925137497,0.0,0.660883027915,0.259851499336,0.303231201385,1.0,-0.00582,-0.00764914285714,0.292
0.464388216209,0.542884383335,-0.124007343739,-1.36358038354,0.0791788121627,1.89684900263,0.158252249475,0.000391276788537,-0.0331726969256,-0.00158997560538,-0.0512012083436,-0.00318156098716,0.0171783955499,-0.00656175483734,0.573984094392,0.818852412982,0.00193184870382,0.0,0.818807550734,-0.573924138767,-0.0120840681721,0.0,-0.00878650294517,0.00851803923052,-0.999925117383,0.0,0.660774521383,0.259705530605,0.303232088529,1.0,-0.00618,-0.00812228571429,0.31
0.464321451544,0.542356125562,-0.124001995832,-1.36439263294,0.0791379784692,1.89714454464,0.158161814263,-0.00448130606558,-0.0361693071166,0.000751609035096,-0.0579328305609,-0.00530638387022,0.0130758027471,-0.0040900735051,0.573995193454,0.818844595883,0.0019474563289,0.0,0.818799822436,-0.573935056362,-0.0120892000841,0.0,-0.00878163177314,0.00853388394098,-0.999925025074,0.0,0.660678552691,0.25958848379,0.303244536328,1.0,-0.00648,-0.00851657142857,0.325
0.464236550101,0.541707150507,-0.124002719225,-1.36540163686,0.0790764530259,1.89751617286,0.158012742497,-0.00368093845856,-0.0387729483239,0.000863422142604,-0.0593649668645,-0.00127311753627,0.0193772274134,-0.00787492102339,0.57398276931,0.818853282582,0.00195679385574,0.0,0.818808627485,-0.573922589407,-0.0120846938426,0.0,-0.00877271192726,0.00853881012788,-0.999925061316,0.0,0.660562682457,0.259435987049,0.303255404518,1.0,-0.00684,-0.00898971428571,0.343
0.464157454553,0.541055959484,-0.124007472715,-1.36641387848,0.0790172885036,1.89789873368,0.157885899871,-0.00565388014219,-0.041422890488,0.000480336523185,-0.0579407025388,0.000200495281887,0.0242402786328,-0.0111908516343,0.573987426913,0.818849975689,0.00197432575018,0.0,0.818805559159,-0.573927179335,-0.0120746019331,0.0,-0.00875433683856,0.00854742315878,-0.999925148771,0.0,0.660447413645,0.259285765103,0.303267290448,1.0,-0.00718,-0.00943657142857,0.36
0.46406256399,0.540391432669,-0.124003043716,-1.36742602793,0.0789537584201,1.89826391439,0.157765929589,-0.00703368433526,-0.0430223308807,0.000753629856569,-0.0614194067035,0.000146504994673,0.0200905709954,-0.00536011605774,0.5740028088,0.81883915687,0.00198936367887,0.0,0.818794917547,-0.573942475247,-0.0120691759708,0.0,-0.00874110185534,0.00855678652123,-0.999925184473,0.0,0.660331104694,0.259128749365,0.303286727835,1.0,-0.0075,-0.00985714285714,0.376
0.463966188252,0.539601866933,-0.124013322116,-1.36864400037,0.0788918010252,1.89872550222,0.157613121,-0.0015844306985,-0.0437104037035,0.000600764078334,-0.0634332046364,-0.00345789781476,0.026648273522,-0.00439869044598,0.574007817367,0.818835562073,0.00202355796517,0.0,0.818791732963,-0.57394729994,-0.0120557797011,0.0,-0.00871045322059,0.00857714946262,-0.999925277464,0.0,0.660201373468,0.258958652467,0.303306632222,1.0,-0.00784,-0.010304,0.393
0.463859204865,0.538849067138,-0.124014122166,-1.3698073126,0.0788194701904,1.89917168625,0.15745348997,-0.00463106567696,-0.0429088841379,0.000148389127712,-0.0716385362865,-0.0064844346281,0.0270387707585,-0.0131720112911,0.5740172494,0.818828886621,0.00204907956741,0.0,0.818785415919,-0.573956646364,-0.0120398369632,0.0,-0.00868265062701,0.0085889959275,-0.999925417582,0.0,0.660064824155,0.258765509601,0.303322147555,1.0,-0.0082,-0.0107771428571,0.411
0.463762993155,0.538158800521,-0.124021126104,-1.37087991321,0.0787597551572,1.89957951458,0.157330510184,-0.00680835424453,-0.0500216089498,-0.00198173957205,-0.0685136021867,-0.00102953463488,0.0258661829831,-0.00402281466181,0.574043563826,0.818810383999,0.0020709388229,0.0,0.818767195933,-0.573982861817,-0.0120291357277,0.0,-0.00866106460446,0.00860103031231,-0.999925501344,0.0,0.65994583939,0.258597691038,0.303334754384,1.0,-0.0085,-0.0111714285714,0.426
0.463644784411,0.537354677011,-0.124023704284,-1.372152255,0.078685289694,1.90004774251,0.157166891087,-0.00414282558999,-0.0428064311714,1.07290779508e-06,-0.0774408236274,-0.00354583900209,0.0257809835397,-0.000905383568147,0.574058409253,0.818799975968,0.00207099537422,0.0,0.818756761484,-0.573997678159,-0.0120323685996,0.0,-0.0086635233836,0.00860308947961,-0.999925462329,0.0,0.659800883383,0.258397434903,0.303337661946,1.0,-0.00884,-0.0116182857143,0.443
0.463536796503,0.536515523433,-0.124032533103,-1.3734609156,0.0786127913902,1.90054375115,0.15700684352,-0.00525025614678,-0.0558487097036,-0.000178306832894,-0.0760153363114,-0.000873695708058,0.0305466531782,-0.0187809964928,0.574074703993,0.818788492977,0.00209401648745,0.0,0.818745568477,-0.574013862969,-0.012021901691,0.0,-0.00864156665213,0.00861610226076,-0.999925540282,0.0,0.659652364885,0.258198658684,0.303350483874,1.0,-0.00918,-0.0120651428571,0.46
0.463413518759,0.535657638051,-0.124033704252,-1.37482027462,0.0785367052676,1.90104404556,0.156847626224,-0.00535237982246,-0.0469612589792,-0.000780900189885,-0.0797180395287,-0.000416950813232,0.030331955349,-0.0134432731876,0.574100442298,0.81877044356,0.00209518662096,0.0,0.81872746601,-0.57403952495,-0.0120294263044,0.0,-0.00864678525582,0.00862165178842,-0.999925447334,0.0,0.659495508112,0.257988198175,0.303352358738,1.0,-0.00952,-0.012512,0.477
0.463286228985,0.534751908434,-0.124036463109,-1.37625908765,0.0784523251087,1.90155988428,0.156678205655,-0.00563182401071,-0.051339921765,-0.000210213002253,-0.0839093872234,-0.00879246613212,0.0289228464371,-0.00283990222459,0.574124132616,0.818753868533,0.00208086798353,0.0,0.818710652086,-0.574063221229,-0.012042968706,0.0,-0.00866584428345,0.00861795366847,-0.99992531422,0.0,0.659326067294,0.257765106301,0.303351396576,1.0,-0.00986,-0.0129588571429,0.494
0.46315535157,0.533854616948,-0.124039436206,-1.37774866596,0.0783731062649,1.90209657734,0.156491084224,-0.0082770809671,-0.0498758239258,5.27260257152e-05,-0.0878290588818,-0.00168233328274,0.0317158256409,-0.014825488183,0.574140549436,0.818742466095,0.00203730364375,0.0,0.81869854615,-0.574079689476,-0.0120808759433,0.0,-0.00872171943935,0.00860422394093,-0.999924946654,0.0,0.659149066384,0.257535650384,0.303321988756,1.0,-0.0102,-0.0134057142857,0.511
0.463031113521,0.532971537458,-0.124048033965,-1.37915546604,0.0782924064597,1.90264021752,0.156311902593,-0.00626928076195,-0.0545987629261,-0.00115452715786,-0.0902440131307,-0.00813237713183,0.0355948093932,-0.0132321283991,0.574157098999,0.818730822174,0.00205265486963,0.0,0.818687121265,-0.574096189021,-0.0120710449971,0.0,-0.00870468284905,0.00861132407825,-0.999925033987,0.0,0.658991647089,0.25731719098,0.303322542905,1.0,-0.01052,-0.0138262857143,0.527
0.462903017262,0.531937367112,-0.124043306924,-1.38081433931,0.0782017622125,1.90325187028,0.156095767455,-0.00634773037357,-0.0646580080693,0.00211146800768,-0.0946784489692,-0.011958705718,0.0382701376134,-0.00729595654291,0.574147959508,0.818737245854,0.00204688657336,0.0,0.818693326728,-0.574086934364,-0.0120903045292,0.0,-0.00872385975523,0.00861756196824,-0.999924813122,0.0,0.658791136924,0.257079025319,0.303314915148,1.0,-0.01088,-0.0142994285714,0.545
0.462769932888,0.530926909046,-0.124043493809,-1.38243975805,0.0781037421924,1.90382469289,0.155892120878,-0.00713919957404,-0.0624539368167,0.00149414866463,-0.0999597245588,-0.00298448365102,0.0340324939694,-0.0175899801035,0.574152380652,0.81873423441,0.00201099418347,0.0,0.81868977278,-0.574091438975,-0.0121170351805,0.0,-0.00876630575581,0.00860357061185,-0.999924562383,0.0,0.658592392796,0.25683459507,0.303303039323,1.0,-0.01122,-0.0147462857143,0.562
0.462624781427,0.529903088898,-0.124048206663,-1.38407466422,0.0779995675682,1.9044126494,0.155687375118,-0.00962425995676,-0.0561040340993,-0.00592989143303,-0.0929306618375,-0.00826981572307,0.0402627544219,-0.0148228008439,0.57416769224,0.818723555618,0.00198684785517,0.0,0.818678798016,-0.574106873983,-0.0121272348451,0.0,-0.00878835902414,0.00858982203888,-0.999924487,0.0,0.658398815473,0.256578697683,0.303297278802,1.0,-0.01156,-0.0151931428571,0.579
0.462482498007,0.528831447926,-0.124041184381,-1.38574148752,0.0778963422057,1.9050429213,0.155453504528,-0.0107972336511,-0.0675355400433,0.00121253950067,-0.100790106845,-0.00508765808493,0.0409838903405,-0.00676197549284,0.574150492646,0.818735544981,0.00201645230543,0.0,0.818691158736,-0.57408953128,-0.0121137766281,0.0,-0.0087605240177,0.00860614818829,-0.999924590873,0.0,0.658203554633,0.256331394279,0.303313043629,1.0,-0.0119,-0.01564,0.596
0.462355827017,0.527789830016,-0.124044228486,-1.38736132698,0.0777946049486,1.90567168657,0.155226071481,-0.00900210385362,-0.0660390360553,0.00034976247209,-0.099696183034,-0.012027841047,0.0435118191306,-0.0136153637282,0.574130651373,0.818749361798,0.00205538554266,0.0,0.818705555402,-0.574069593342,-0.0120856300704,0.0,-0.00871533536166,0.00862165222038,-0.999924852198,0.0,0.65801594498,0.256093852484,0.303329975596,1.0,-0.01222,-0.0160605714286,0.612
0.462224403786,0.526757125274,-0.124050023098,-1.38892743798,0.0777028448444,1.90626793962,0.155010501835,-0.00516796855937,-0.0670454163195,-4.35190007256e-05,-0.105573308511,-0.0058502848273,0.0361509896465,-0.0144135460331,0.57412353909,0.818754215246,0.00210802746882,0.0,0.81871109285,-0.574062252511,-0.012059170287,0.0,-0.00866352430746,0.00864948552583,-0.999925062066,0.0,0.65782099527,0.25584288743,0.30336371335,1.0,-0.01254,-0.0164811428571,0.628
0.462059778355,0.52552908666,-0.124055604455,-1.39087462305,0.0775710548276,1.90697605409,0.154746766891,-0.0111765691263,-0.0703329862112,-0.00145141143836,-0.10913493408,-0.00539804528456,0.0418635161421,-0.0148433021552,0.574118014208,0.818758134499,0.00209041988191,0.0,0.818714897522,-0.574056918392,-0.0120547883752,0.0,-0.00867010297269,0.00863249526537,-0.999925151869,0.0,0.657602344942,0.255557499494,0.303361949518,1.0,-0.01288,-0.016928,0.645
0.461893531899,0.524265477885,-0.124061638721,-1.39285145383,0.0774544461395,1.90767927049,0.154482337827,-0.00590414419519,-0.0686101554423,-0.000598614198355,-0.113514961273,-0.00341842447664,0.0384510991616,-0.0201018050096,0.574116615434,0.818759134058,0.00208306981588,0.0,0.818715728277,-0.57405547876,-0.0120669167038,0.0,-0.00868426782979,0.00863342561828,-0.999925020916,0.0,0.657361642875,0.255255500046,0.303370839195,1.0,-0.01324,-0.0174011428571,0.663
0.461761161622,0.523209313344,-0.124065006273,-1.39453410349,0.0773507089024,1.90831387637,0.154242373048,-0.00951417908737,-0.0751561678315,-0.000230886637942,-0.111871040218,-0.0056337596408,0.0357141127374,-0.0161954191945,0.574095864943,0.818773685931,0.00208230224641,0.0,0.818730286268,-0.574034750244,-0.0120652708697,0.0,-0.00868357963759,0.00863163221567,-0.999925042376,0.0,0.657145318851,0.254988392947,0.303362937853,1.0,-0.01356,-0.0178217142857,0.679
0.46158597478,0.521902234881,-0.124071282716,-1.39660973582,0.0772190847905,1.90913505338,0.153968782482,-0.0116758325399,-0.0734167798495,-0.00276254986637,-0.112682775931,-0.00852450615105,0.0509501514333,-0.0150578010841,0.574093198764,0.818775448644,0.00212384814288,0.0,0.818732720001,-0.574032036201,-0.0120291943578,0.0,-0.00863021829153,0.00864490907559,-0.999925389656,0.0,0.656923042098,0.254693384669,0.303369562465,1.0,-0.0139,-0.0182685714286,0.696
0.461408684671,0.520652675427,-0.124076839516,-1.39862078376,0.0770919431868,1.90987710125,0.153703207359,-0.0130304864936,-0.0775252618009,-0.00128733618713,-0.121273544516,-0.00656435511097,0.0428890991637,-0.0135877786128,0.574097934992,0.81877218449,0.00210186677348,0.0,0.818729198179,-0.574036893967,-0.0120370808491,0.0,-0.00864924443224,0.00863148913982,-0.999925341196,0.0,0.656682949721,0.254381212315,0.30335464346,1.0,-0.01424,-0.0187154285714,0.713
0.461254451835,0.51940015187,-0.124077534145,-1.400560757,0.0769731480465,1.91057489381,0.153436125783,-0.00995371850541,-0.075801641955,-0.000612915525027,-0.120172480232,-0.00774947058033,0.0450282768767,-0.0226823663456,0.574077100247,0.818786769445,0.0021109370881,0.0,0.81874385282,-0.574015974808,-0.0120379000146,0.0,-0.00864492809516,0.00863916582876,-0.999925312227,0.0,0.656442780582,0.254093897906,0.303371244967,1.0,-0.01456,-0.019136,0.729
0.461078629055,0.518059318219,-0.124081530145,-1.40266357403,0.0768342463863,1.91132936987,0.153151779119,-0.0101733271073,-0.0799138182412,-0.00104478695661,-0.124962278068,-0.00612124783188,0.0467254385941,-0.0207743062801,0.574065008194,0.818795280473,0.00209808079447,0.0,0.81875224281,-0.574003985469,-0.0120389559701,0.0,-0.00865330019509,0.00862911785092,-0.999925326572,0.0,0.656184374373,0.253772983109,0.303376969884,1.0,-0.0149,-0.0195828571429,0.746
0.460896658414,0.516700602937,-0.124087128892,-1.40480400002,0.076699044594,1.91211453199,0.152852821229,-0.013870913607,-0.0777588792275,-0.000516235027982,-0.127443896463,-0.0103367241873,0.0565491865973,-0.0202324495891,0.574049966282,0.818805829734,0.00209673714507,0.0,0.818762796677,-0.573988973245,-0.012036954401,0.0,-0.00865259102394,0.00862670972774,-0.999925353488,0.0,0.655924607336,0.253445581713,0.303379662773,1.0,-0.01524,-0.0200297142857,0.763
0.460715895905,0.515324015713,-0.124087247934,-1.40697735367,0.0765712260355,1.91293561737,0.152562078517,-0.0128718566352,-0.0778887507518,-0.000477015088326,-0.13208072528,-0.00411201129032,0.0461643359928,-0.0195940718295,0.574035734172,0.818815768234,0.00211198621893,0.0,0.818772881095,-0.573974625328,-0.0120351802732,0.0,-0.00864253527815,0.00863802689413,-0.999925342751,0.0,0.655645041002,0.253102744691,0.303379034403,1.0,-0.0156,-0.0205028571429,0.781
0.460525458644,0.513927440898,-0.124090897402,-1.4092268788,0.0764335938279,1.91372217912,0.152251927127,-0.00862106865026,-0.0824197624705,-0.00330796391999,-0.131006023636,-0.0142070751437,0.0500232865454,-0.0191713652322,0.57402599234,0.818822726774,0.00206134352503,0.0,0.818779078528,-0.573965001433,-0.0120724727001,0.0,-0.00870224352106,0.00861786399422,-0.999924998876,0.0,0.655377705912,0.252777737361,0.303358320885,1.0,-0.01592,-0.0209234285714,0.797
0.46032213983,0.512523540056,-0.124091272961,-1.4114976299,0.076299854355,1.91451709542,0.151925598206,-0.00987287386383,-0.0843387082492,0.000780526442669,-0.129342454894,-0.00832344873055,0.0467307102608,-0.0141244942167,0.574008400294,0.818835203328,0.00200326811721,0.0,0.818790629301,-0.573947499659,-0.0121210521565,0.0,-0.00877554243651,0.0085980084589,-0.999924529205,0.0,0.655091708064,0.252425638045,0.303330112599,1.0,-0.01626,-0.0213702857143,0.814
0.46014312568,0.511248867431,-0.12409401579,-1.41353591164,0.0761634914054,1.91529769596,0.151640945359,-0.012730365168,-0.0893716977619,-0.000139577416927,-0.135344277166,-0.00839103956654,0.0462224092709,-0.0276205351443,0.57399377924,0.818845440291,0.00200828507394,0.0,0.81880105118,-0.573932975488,-0.0121047567279,0.0,-0.00875947247135,0.00859260642495,-0.999924716545,0.0,0.654848570447,0.252112586684,0.303320415198,1.0,-0.01656,-0.0217645714286,0.829
0.459944703612,0.509773743573,-0.124103075007,-1.41587857018,0.0760184156818,1.91617448098,0.15131387055,-0.0105619949385,-0.0857573016624,0.000697743622768,-0.141878105878,-0.00989859714563,0.0489349875974,-0.018716053371,0.573979977147,0.818855122487,0.00200527097054,0.0,0.818810695505,-0.573919189811,-0.0121060065575,0.0,-0.0087623706945,0.00859070808303,-0.999924707463,0.0,0.654543334776,0.251733278073,0.30331020108,1.0,-0.01692,-0.0222377142857,0.847
0.459733789894,0.508276561332,-0.124105731578,-1.41825875118,0.0758771934565,1.91701624192,0.15098685745,-0.00807355689893,-0.0824710302611,0.00034422194491,-0.139350141251,-0.00242583421488,0.0494883437139,-0.0128766125667,0.573970259902,0.818861997484,0.00197907198554,0.0,0.818817115571,-0.573909478961,-0.0121321106066,0.0,-0.00879888555877,0.00858413396391,-0.999924443274,0.0,0.654263127332,0.251386867325,0.303302057401,1.0,-0.01724,-0.0226582857143,0.863
0.459523194097,0.506746465675,-0.124109957791,-1.4206642277,0.0757201848832,1.91789945622,0.150655264496,-0.011277099883,-0.0829393447421,0.000991540971341,-0.141860972911,-0.00837672480945,0.0599765098104,-0.0158482156056,0.573956276917,0.818871798399,0.00197910972496,0.0,0.818826968468,-0.573895547821,-0.0121261206127,0.0,-0.00879410524771,0.00858057665936,-0.99992451586,0.0,0.653966206798,0.251015958101,0.303303860225,1.0,-0.01758,-0.0231051428571,0.88
0.459299180248,0.505134552893,-0.124113192199,-1.42312506472,0.075567221814,1.91884479275,0.150322884572,-0.0149251121615,-0.0909869273624,0.000381670741871,-0.140586010633,-0.0085536475662,0.0536587510751,-0.0190864820844,0.57395575582,0.818871968744,0.00205817109447,0.0,0.818828228348,-0.573894737308,-0.012079315009,0.0,-0.00871040660521,0.00861844689849,-0.999924922777,0.0,0.653672511565,0.250636240981,0.303341246365,1.0,-0.01792,-0.023552,0.897
0.459071059185,0.503466129193,-0.124117098446,-1.42559891362,0.0754164892451,1.91978150321,0.149972716813,-0.0126319771142,-0.0958056405211,0.000813842449724,-0.141761241587,-0.00921432516085,0.0566237201328,-0.02044937351,0.573945195155,0.818879080518,0.00217056434647,0.0,0.818836829284,-0.573883722232,-0.0120194536365,0.0,-0.00859699311444,0.0086760127304,-0.999925406474,0.0,0.65337546138,0.250252524953,0.303410501455,1.0,-0.01826,-0.0239988571429,0.914
0.458860668922,0.501865781504,-0.124126953164,-1.42797026199,0.0752600471692,1.92064451068,0.149643148484,-0.0133857335789,-0.097277084696,0.00502946881021,-0.155432646912,-0.0138530009787,0.0529086898193,-0.0159485473202,0.573933584048,0.818887023063,0.00224309205857,0.0,0.818845817758,-0.573871914134,-0.0119707898449,0.0,-0.00851564087904,0.00870735251408,-0.999925830186,0.0,0.653082698865,0.249882432486,0.30347415375,1.0,-0.01858,-0.0244194285714,0.93
0.458566207979,0.499739657078,-0.124129071041,-1.43117176173,0.075053295419,1.92179150828,0.149194393745,-0.013276693747,-0.0975652217997,-0.0016775213528,-0.149108472277,-0.0146438671424,0.0640928892654,-0.0173826896952,0.573915841037,0.81889929658,0.00230138412631,0.0,0.818858853573,-0.573853939562,-0.011940723426,0.0,-0.00845775450484,0.0087376473217,-0.99992605722,0.0,0.652681188471,0.249381728324,0.303533250789,1.0,-0.019,-0.0249714285714,0.951
0.458380869569,0.498469429481,-0.124125710506,-1.43318795647,0.0749380885847,1.92254470198,0.148908116469,-0.0138799607491,-0.0927250875131,-0.000314058924215,-0.153058161796,-0.00301306231411,0.0582209073251,-0.0238705543566,0.573902465706,0.81890864014,0.00231211217463,0.0,0.818868212257,-0.573840393843,-0.0119499058772,0.0,-0.00845926067778,0.00875156410558,-0.999925922774,0.0,0.652429896193,0.249072830328,0.303524703432,1.0,-0.01926,-0.0253131428571,0.964
0.458076667295,0.496476326927,-0.124129711298,-1.43633135464,0.0747451043504,1.92367449568,0.148430272792,-0.00989913418725,-0.0958826816118,-0.00182436055092,-0.158429967776,-0.00611603230979,0.0628416258325,-0.0251653395346,0.573870181232,0.81893131223,0.00229517837239,0.0,0.818890557229,-0.573808072176,-0.0119707345942,0.0,-0.00848638090152,0.00874931597879,-0.999925712645,0.0,0.652034707772,0.24857113314,0.303515883021,1.0,-0.01966,-0.0258388571429,0.984
0.457852612678,0.495116391349,-0.12413089532,-1.43857807646,0.0746012669568,1.92444082159,0.148107878176,-0.018249932082,-0.0967381881142,-0.00161095181656,-0.157634749133,-0.0106858477741,0.0509649428226,-0.0229267161678,0.573864705312,0.818935436723,0.0021902916999,0.0,0.818893194102,-0.573802908526,-0.0120376792117,0.0,-0.00860145193908,0.0087017817359,-0.999925144208,0.0,0.651742806064,0.24820483596,0.303460514073,1.0,-0.01994,-0.0262068571429,0.998
0.457502476036,0.492720605243,-0.124185929654,-1.44226879403,0.074382868481,1.92577455527,0.147591845238,-0.020178567492,-0.147214524107,-0.0059693240274,-0.217465122446,-0.00314549478331,0.0852917855493,-0.0284216593034,0.573894974825,0.81891415049,0.00221785930361,0.0,0.818872326454,-0.573833118584,-0.0120171495988,0.0,-0.00856849770433,0.00871289312432,-0.999925330382,0.0,0.651287173088,0.247593759575,0.303489086948,1.0,-0.0312097142857,-0.0410184816327,1.018
0.457266978279,0.490721595298,-0.12423619772,-1.44536600633,0.0742048775116,1.92697859576,0.147127114105,-0.0185161429145,-0.175905838352,-0.00340166017928,-0.281609778215,-0.016725947119,0.112468558498,-0.0431548694395,0.573851066276,0.818944688827,0.00230158149204,0.0,0.81890409966,-0.573789018669,-0.0119576133379,0.0,-0.00847216486386,0.00874683208724,-0.999925854927,0.0,0.650905861931,0.247122956605,0.303511558645,1.0,-0.0391365714286,-0.0514366367347,1.03
0.456706099545,0.486888202292,-0.124269799413,-1.45150266345,0.0738817586086,1.92927402857,0.146210515267,-0.0355622192854,-0.235015949573,-0.00542492029225,-0.375284196751,-0.020698629759,0.137312482544,-0.049864513831,0.573803449177,0.818978014746,0.00231516242412,0.0,0.818937137628,-0.573740872083,-0.01200513292,0.0,-0.00850380034187,0.00878472829932,-0.999925254171,0.0,0.650130991287,0.246164979203,0.303455396888,1.0,-0.0510268571429,-0.0670638693878,1.048
0.456048141263,0.482545486023,-0.124395523891,-1.45835903043,0.0734661357391,1.93175319418,0.145147831163,-0.0452294658041,-0.285515907596,-0.0128961757276,-0.460265508624,-0.0268148986186,0.154254117042,-0.0651939506279,0.573788517368,0.818988615862,0.00226524307208,0.0,0.81894730239,-0.5737263686,-0.0120048649555,0.0,-0.00853238232657,0.00874353670732,-0.999925371724,0.0,0.649272183507,0.245009891028,0.303425118555,1.0,-0.061596,-0.0809547428571,1.064
0.455170955531,0.476964282662,-0.124530569094,-1.46714730471,0.0729371982099,1.93480994828,0.143857517691,-0.0578044026682,-0.344354873252,-0.0057141716356,-0.540384884049,-0.0301468730194,0.191062109881,-0.0842942814234,0.573832749824,0.818957998004,0.00212594348864,0.0,0.818914771868,-0.573771086321,-0.0120865139269,0.0,-0.00867870943552,0.00867677110417,-0.999924693987,0.0,0.648137615635,0.243516970276,0.303378844397,1.0,-0.0728257142857,-0.0957137959184,1.081
0.454128787375,0.4704644219,-0.124665902192,-1.47724083051,0.0723496957721,1.93840359357,0.14239138174,-0.0671171886691,-0.400957494135,-0.0041575078764,-0.615660365372,-0.0299407432681,0.210600541232,-0.0920444795956,0.573911689087,0.8189025864,0.00216194754186,0.0,0.818859615732,-0.573849645551,-0.0120938383113,0.0,-0.00866320943569,0.00871129442558,-0.999924528228,0.0,0.646764083774,0.241704296955,0.30340121249,1.0,-0.084716,-0.111341028571,1.099
0.452841933054,0.462580976139,-0.124740733326,-1.48924476024,0.0716047961731,1.94287198474,0.140424613227,-0.0763878522679,-0.452300116353,-0.00110851101382,-0.70981203816,-0.045654937616,0.246750270069,-0.114924011262,0.573774612204,0.818997917602,0.00241914340675,0.0,0.818958331982,-0.573711550431,-0.0119605301048,0.0,-0.00840792061313,0.00884399644617,-0.999925542527,0.0,0.64531046933,0.239795765672,0.303498850324,1.0,-0.0959457142857,-0.126100081633,1.116
0.451475355431,0.454821037976,-0.124836618432,-1.50140895104,0.0708176708699,1.94698339462,0.138617406325,-0.0914811841512,-0.496964602906,-0.00698205356403,-0.797595786164,-0.0555547341738,0.2569934147,-0.120447273625,0.573832181617,0.818958309605,0.00215902099614,0.0,0.818914908273,-0.573769766772,-0.0121397960504,0.0,-0.00870337344589,0.00873442829781,-0.999923977637,0.0,0.643666023229,0.237678558171,0.303407261074,1.0,-0.106514857143,-0.139990955102,1.132
0.449862756691,0.445526980621,-0.124986108164,-1.51529409184,0.0698579972004,1.95203007778,0.136428388824,-0.101390474311,-0.557685952653,-0.00716908295975,-0.853245945692,-0.0579994699103,0.302484755155,-0.121047064872,0.573836819239,0.818954127573,0.00248771350182,0.0,0.818915950734,-0.573774026915,-0.0118650146646,0.0,-0.00828967694153,0.00884598085542,-0.999926512239,0.0,0.641863492829,0.23522854992,0.303613944512,1.0,-0.117744571429,-0.154750008163,1.149
0.448062320101,0.43554965144,-0.125071478983,-1.53052689877,0.068864414558,1.95725805468,0.133989335433,-0.109702533089,-0.612314492079,-0.00671765466931,-0.893963597007,-0.0570772849012,0.321219914533,-0.14992173165,0.573779088491,0.818994643859,0.00246532776817,0.0,0.818955656708,-0.573715838933,-0.0119379816264,0.0,-0.00836290643358,0.00886892909175,-0.999925699186,0.0,0.639765739705,0.232561135134,0.303639521348,1.0,-0.128974285714,-0.169509061224,1.166
0.446040326259,0.424718579965,-0.125185497861,-1.54675301728,0.0677366619223,1.96302880799,0.13130235987,-0.115777403193,-0.635447814488,-0.00811875359625,-0.983095177419,-0.0669166767065,0.333301975691,-0.162539174069,0.573707240444,0.819044098382,0.00274118021466,0.0,0.819009169766,-0.573643473733,-0.0117427332551,0.0,-0.008045511132,0.00898211575639,-0.99992729303,0.0,0.637564026686,0.229653348028,0.303795471622,1.0,-0.140204,-0.184268114286,1.183
0.443908869177,0.413820911217,-0.12531861192,-1.56305928544,0.0665440707463,1.96876157371,0.128606418686,-0.136586474765,-0.699651628533,-0.00988210537643,-1.03581743797,-0.0826399675289,0.372880508572,-0.171335741768,0.573694210062,0.819052519698,0.00294452361535,0.0,0.819021028277,-0.573630667497,-0.0115394734915,0.0,-0.00776251524475,0.00903192978111,-0.999929081286,0.0,0.635320095809,0.226654235541,0.303926782655,1.0,-0.150773142857,-0.198158987755,1.199
0.441410412237,0.401673260311,-0.125427579749,-1.58157947564,0.0653099726903,1.97498280877,0.125489174085,-0.15088053513,-0.727901649044,-0.0103854591537,-1.10994925283,-0.0750493203739,0.365792435888,-0.187167740835,0.573679033548,0.81906355777,0.00282872794293,0.0,0.819029651066,-0.573614831649,-0.0117133465332,0.0,-0.00797152845872,0.00903668736306,-0.999927393872,0.0,0.632651442348,0.223235260372,0.303861140149,1.0,-0.162002857143,-0.212918040816,1.216
0.438781320782,0.389444835581,-0.125558053024,-1.59971936313,0.0639884364211,1.98125007706,0.122379716263,-0.168601206753,-0.749014653019,-0.00763507062454,-1.15076099139,-0.0915739747129,0.398949242913,-0.202612445852,0.573722929539,0.819031908288,0.00307899795725,0.0,0.819001674479,-0.573658386911,-0.0115351301818,0.0,-0.00768149457627,0.00913984913364,-0.999928726359,0.0,0.630071555772,0.219770918973,0.303996530924,1.0,-0.172572,-0.226808914286,1.232
0.435792725339,0.375831324378,-0.125698932249,-1.62009570335,0.0624520943618,1.9880069405,0.118727817864,-0.18147241896,-0.812705522493,-0.00673267373442,-1.22242810455,-0.0893133090925,0.408239165401,-0.214925429808,0.573617060267,0.819106306042,0.00301238670719,0.0,0.819075353748,-0.573552913194,-0.0115484869413,0.0,-0.00773182416883,0.00909195588592,-0.99992877508,0.0,0.627050142586,0.21585462401,0.303998376823,1.0,-0.183801714286,-0.241567967347,1.249
0.432228098657,0.360669614877,-0.125885767605,-1.64253756034,0.0607600846069,1.99545400824,0.114722371312,-0.204353605154,-0.869775920431,-0.0144281641088,-1.26112020879,-0.100270944998,0.429055555251,-0.227010705857,0.57372327207,0.819031614556,0.00309327398874,0.0,0.819001898447,-0.573659082021,-0.0114845485776,0.0,-0.00763187058432,0.00912252569428,-0.999929264536,0.0,0.623704485569,0.211381446299,0.304058084548,1.0,-0.195692,-0.2571952,1.267
0.4287125621,0.346698134373,-0.126080303184,-1.66337090683,0.0591799407404,2.0020932815,0.110778944751,-0.227762240042,-0.902580903699,-0.0126405644275,-1.3011390136,-0.0956731766252,0.420858013109,-0.2571221476,0.573782343467,0.818991049834,0.00286871379074,0.0,0.818957995939,-0.573718370585,-0.0116524264576,0.0,-0.00789755122823,0.00903548661799,-0.99992799174,0.0,0.62050414377,0.20709768268,0.303970598943,1.0,-0.206261142857,-0.271086073469,1.283
0.42476570318,0.331165503898,-0.126224992874,-1.68617480532,0.0574330675282,2.00946793992,0.106444240725,-0.235862588272,-0.924872672464,-0.00609677661299,-1.35892053965,-0.100551516388,0.428449195424,-0.264196014354,0.573814414901,0.818968370185,0.00292793271207,0.0,0.818935673817,-0.573749764459,-0.0116754800756,0.0,-0.00788209993958,0.00909752247221,-0.999927551168,0.0,0.616943098128,0.202429124764,0.303980265579,1.0,-0.217490857143,-0.285845126531,1.3
0.420305821803,0.314009580359,-0.12638033602,-1.71106376678,0.0553382287362,2.01738018396,0.101538068598,-0.248306483797,-0.942549341682,-0.00399295886232,-1.39558967501,-0.110334499847,0.431698788325,-0.285918905294,0.573711475441,0.819040331678,0.00297067893322,0.0,0.819008822697,-0.573647431101,-0.0115723825267,0.0,-0.00777427536318,0.00907239558117,-0.999928623593,0.0,0.612960789434,0.197252530342,0.304037486558,1.0,-0.229381142857,-0.301472359184,1.318
0.416290868471,0.299163599356,-0.126506257173,-1.7323830882,0.0535417430662,2.02408549381,0.097107907154,-0.268383438065,-0.994318415725,-0.01305984656,-1.44305541544,-0.135579120409,0.441312385731,-0.293396783985,0.573547135536,0.819154964721,0.00309418686252,0.0,0.819125353329,-0.573483076632,-0.0114701025013,0.0,-0.00762147434524,0.00911334680115,-0.999929427529,0.0,0.609483143628,0.192740322992,0.304114608131,1.0,-0.239289714286,-0.314495053061,1.333
0.411329423353,0.281894936442,-0.126676083413,-1.75708476165,0.0515369553867,2.03164142474,0.091951829885,-0.301067623856,-1.023242544,-0.00944839707187,-1.47558248476,-0.123359295963,0.447061157331,-0.31615540989,0.573588323328,0.819125780878,0.00318391960756,0.0,0.819096616754,-0.573523124249,-0.0115197775226,0.0,-0.00761024175879,0.00921572508413,-0.999928574765,0.0,0.605364704707,0.187359551428,0.304155559342,1.0,-0.250519428571,-0.329254106122,1.35
0.405626521025,0.262936540437,-0.126903952437,-1.78397155063,0.0491984025456,2.03967334777,0.0860711627411,-0.332549583258,-1.05951429225,-0.0173626002604,-1.50701848705,-0.130495742479,0.448784272459,-0.324123752846,0.573576529684,0.81913398304,0.00319833163513,0.0,0.819104951871,-0.573511222604,-0.0115196470548,0.0,-0.00760200165093,0.00922734611593,-0.999928530273,0.0,0.600783437875,0.181329901323,0.304194571014,1.0,-0.262409714286,-0.344881338775,1.368
0.400458372704,0.246747067573,-0.127098403709,-1.80679154659,0.0471595062913,2.04636632223,0.0809952032115,-0.347719224254,-1.07620307394,-0.0039505704499,-1.50579776017,-0.130408266706,0.437768217396,-0.339636805311,0.57369584185,0.819050475998,0.00318523341231,0.0,0.819021234656,-0.573630510386,-0.0115326336495,0.0,-0.0076188086978,0.00922517538552,-0.999928422385,0.0,0.596822691171,0.176060987945,0.304201629957,1.0,-0.272318285714,-0.357904032653,1.383
0.39394124906,0.226707195879,-0.12729945019,-1.83468114589,0.0446844687648,2.05439245822,0.0744302294381,-0.367144520513,-1.11127448927,-0.00515850284364,-1.54640559066,-0.133976716263,0.432061241928,-0.372821777825,0.573623692273,0.819100531731,0.00330537181173,0.0,0.819072208564,-0.573557217374,-0.0115577877734,0.0,-0.00757131602337,0.00933733885973,-0.999927742028,0.0,0.591845768762,0.169600515086,0.304254454416,1.0,-0.284208571429,-0.373531265306,1.401
0.386070802122,0.203785794833,-0.127579122983,-1.8663707237,0.0416064125468,2.06316808424,0.0666607928253,-0.413913890885,-1.13786594205,-0.0179805796343,-1.59588851164,-0.165761769269,0.432838976951,-0.405337616152,0.573520181659,0.819173502297,0.00318139365509,0.0,0.819143871407,-0.573454474747,-0.0115771425961,0.0,-0.00765945148778,0.00924592205257,-0.999927920266,0.0,0.586033042083,0.162017131922,0.304241525287,1.0,-0.29742,-0.390894857143,1.421
0.380589444762,0.18847100809,-0.12776854605,-1.88713533117,0.0396254145511,2.06879453304,0.0613411157201,-0.426050360456,-1.18876696829,-0.017251758362,-1.60622717585,-0.150510244912,0.419432078785,-0.420755017333,0.57349827678,0.819188392073,0.00329419568427,0.0,0.819159979697,-0.573431921978,-0.0115544546041,0.0,-0.00757642399547,0.00932511261175,-0.999927817432,0.0,0.582148999135,0.156929036402,0.304319858105,1.0,-0.306007428571,-0.402181191837,1.434
0.37285618495,0.168099617792,-0.128135650579,-1.9146641333,0.0369474755666,2.07606799426,0.0540609115677,-0.456025613541,-1.199182497,-0.0179688903133,-1.60059657332,-0.161836396151,0.409757628935,-0.432515883219,0.573675846104,0.81906384977,0.00334372512952,0.0,0.819035693054,-0.573608835682,-0.0115837831397,0.0,-0.00757001348115,0.00938414749652,-0.999927313694,0.0,0.576918163458,0.14992666032,0.304346485662,1.0,-0.317237142857,-0.416940244898,1.451
0.364744880587,0.147252485165,-0.128407982247,-1.94254363577,0.0340228550301,2.08318480266,0.0463328550339,-0.485471069297,-1.23809539786,-0.0130574260023,-1.62463057259,-0.170106613384,0.408281733056,-0.451769459023,0.573534618784,0.819163042778,0.00327067316022,0.0,0.819134216108,-0.573468198326,-0.0115805185954,0.0,-0.00761085233752,0.00932112807376,-0.999927593128,0.0,0.571115104616,0.142384922887,0.304340575127,1.0,-0.329127428571,-0.432567477551,1.469
0.356558038633,0.127203135976,-0.128710705725,-1.96901172344,0.0312531259934,2.08969978086,0.0386273585172,-0.522140933885,-1.25122564835,-0.0208015770411,-1.66129175606,-0.17210322044,0.406695005765,-0.493932208745,0.573503058681,0.819184896826,0.0033306752606,0.0,0.819156533073,-0.573436065876,-0.0115930831801,0.0,-0.00758709540573,0.00937719360263,-0.999927249465,0.0,0.566133790738,0.13586912465,0.304376972702,1.0,-0.339036,-0.445590171429,1.484
0.34715856753,0.105409367552,-0.129162767004,-1.99734696377,0.0281038138194,2.09639835663,0.0300227891592,-0.572828422682,-1.28248781451,-0.0233531117844,-1.65812520367,-0.183063845736,0.375435576679,-0.528135040817,0.573624240119,0.819100129453,0.00330998178767,0.0,0.819071893306,-0.573557784515,-0.0115519833764,0.0,-0.00756391088681,0.00933779051717,-0.999927793853,0.0,0.559984998914,0.127644702588,0.304420547318,1.0,-0.350926285714,-0.461217404082,1.502
0.336622446228,0.0819519393069,-0.129552866777,-2.02752252855,0.0248053557437,2.10315866045,0.0202887446932,-0.609668056416,-1.30939875206,-0.0258461088354,-1.66338689016,-0.183946425664,0.350407032118,-0.561723605527,0.573585595396,0.819126963898,0.00336580911419,0.0,0.81909859922,-0.57351791417,-0.0116376021372,0.0,-0.00760246825407,0.00943227208197,-0.999926614667,0.0,0.553951920924,0.119777743904,0.304448016951,1.0,-0.35998,-0.473116571429,1.519
0.326675830858,0.061142517234,-0.129937218857,-2.05414537899,0.0216667684253,2.10891750275,0.0112902100142,-0.635698467971,-1.28858091311,-0.0303889255802,-1.65243727987,-0.19622395902,0.33494745641,-0.5692208845,0.573605292292,0.819113728254,0.00322734292823,0.0,0.819083592101,-0.573538093281,-0.0116992140207,0.0,-0.0077321315722,0.00935437481722,-0.999926352195,0.0,0.548196884641,0.112165556818,0.30436880383,1.0,-0.35998,-0.473116571429,1.535
0.315576262914,0.0390525963777,-0.130361675983,-2.08173861314,0.0183936418975,2.11440794961,0.00152502759938,-0.650496819903,-1.28340858174,-0.0195369302065,-1.5608987675,-0.185402177332,0.29805911708,-0.579196125781,0.573847007666,0.818944571948,0.00318539958382,0.0,0.818913243794,-0.573779140702,-0.01180439473,0.0,-0.00783958008945,0.0093826631444,-0.999925250514,0.0,0.542063680006,0.103987472699,0.304393801631,1.0,-0.35998,-0.473116571429,1.552
0.304135725431,0.0172079160097,-0.130707478799,-2.10854944133,0.0150969976561,2.11962751028,-0.00858630573938,-0.680742053351,-1.29648100237,-0.0184801908728,-1.52194512877,-0.189380891249,0.296828894217,-0.609735397201,0.573936835761,0.81888076258,0.00339884293635,0.0,0.818852622459,-0.573868746142,-0.0116529735989,0.0,-0.00759205234331,0.00947140460021,-0.999926323904,0.0,0.535634063234,0.0954145102837,0.304507912432,1.0,-0.35998,-0.473116571429,1.57
0.292963038307,-0.00309514212033,-0.131107715226,-2.13313673336,0.0119886574911,2.12403533832,-0.0183624614783,-0.69610857852,-1.23865105152,-0.0149746762114,-1.49243158686,-0.192110967821,0.261253292271,-0.623795983837,0.574110891084,0.818758751856,0.00339674824925,0.0,0.818730238141,-0.574042352487,-0.0117013506133,0.0,-0.00763085278493,0.00949907621716,-0.999925766063,0.0,0.530246517404,0.0882054456891,0.304525249226,1.0,-0.35998,-0.473116571429,1.585
0.280889490342,-0.0244688710465,-0.131346166229,-2.15867546165,0.00868585267368,2.12834139831,-0.0291168269869,-0.721377535204,-1.2423054141,-0.0193535489395,-1.45656811777,-0.186608887254,0.233762795585,-0.633231098414,0.573946363743,0.818873742113,0.00348036287212,0.0,0.818846176588,-0.573877402805,-0.0116795778361,0.0,-0.00756694369015,0.00955351699484,-0.99992573308,0.0,0.524109408466,0.0802387977349,0.304572559484,1.0,-0.35998,-0.473116571429,1.602
0.267504554798,-0.0467763486235,-0.131750424947,-2.18500075566,0.00521327459369,2.13241137366,-0.0407561361435,-0.749119409986,-1.23272904219,-0.0186088651221,-1.43959247236,-0.186002115121,0.205794929484,-0.660115526947,0.574117566731,0.818753553715,0.00351919738776,0.0,0.818725989404,-0.574047818065,-0.0117304625267,0.0,-0.00758431632026,0.00961610810553,-0.999925001493,0.0,0.517627284289,0.0716466650459,0.304583266701,1.0,-0.35998,-0.473116571429,1.62
0.255413504332,-0.0664626780184,-0.131953141843,-2.20782655014,0.00209934429606,2.13567902005,-0.0514870127636,-0.764266144841,-1.21599891254,-0.0157850986767,-1.42393933599,-0.201290316836,0.193255457191,-0.687812279678,0.573911708897,0.818897515821,0.00359942698603,0.0,0.81887099516,-0.573841729327,-0.0116922996106,0.0,-0.00750943827907,0.00965799995496,-0.999925162887,0.0,0.511839678883,0.0641908337265,0.304620532993,1.0,-0.35998,-0.473116571429,1.636
0.241209539721,-0.088233947296,-0.132355187572,-2.23273545432,-0.00135657832411,2.13887707431,-0.0639357810639,-0.803722508541,-1.18732117304,-0.0201598029192,-1.39734089666,-0.192084529232,0.170578490245,-0.708250344817,0.573963999211,0.81886059701,0.00366021513326,0.0,0.818834449671,-0.573893277261,-0.0117216571747,0.0,-0.00749797469296,0.00972510671213,-0.999924598495,0.0,0.505369456406,0.0556446855979,0.304634854179,1.0,-0.35998,-0.473116571429,1.654
0.228367631439,-0.107383718126,-0.132570273069,-2.25415830643,-0.00443273463481,2.14126790896,-0.0752940442438,-0.807990812243,-1.17441794943,-0.0154749959621,-1.34812241263,-0.198820504521,0.148491956027,-0.722922885984,0.573753237762,0.819008059875,0.0037103797276,0.0,0.818982656344,-0.573682504369,-0.0116850198398,0.0,-0.00744168876986,0.00974324219935,-0.999924842426,0.0,0.499261744529,0.047741144808,0.304690126442,1.0,-0.35998,-0.473116571429,1.671
0.214944481789,-0.126294131599,-0.132968220253,-2.27519994931,-0.00752656608225,2.14338353649,-0.0869874215816,-0.848552195059,-1.17935049092,-0.0189132716709,-1.31216732066,-0.1854198243,0.116802552996,-0.734935701045,0.57388655859,0.818914504701,0.00374149190755,0.0,0.818889165801,-0.573815260464,-0.0117186984533,0.0,-0.0074498304185,0.00978925918712,-0.999924332353,0.0,0.493862829801,0.0405951534618,0.304696099794,1.0,-0.35998,-0.473116571429,1.686
0.199498141942,-0.147260874874,-0.133302777418,-2.2981845176,-0.0109983810174,2.14535779024,-0.100682421042,-0.872078284646,-1.15104797756,-0.0182644538961,-1.27046837146,-0.202167202556,0.11183073848,-0.782033250996,0.573710668205,0.819037884317,0.00370946660342,0.0,0.819011907817,-0.573639210801,-0.0117599994484,0.0,-0.00750413405071,0.00978512285539,-0.999923966781,0.0,0.487374187508,0.0321410322776,0.30467399585,1.0,-0.35998,-0.473116571429,1.704
0.185235807672,-0.165643243393,-0.133750238473,-2.31804189812,-0.0139936092823,2.14663905149,-0.113129203875,-0.908360056667,-1.16046162176,-0.0176024857004,-1.21725434276,-0.176599517829,0.0787051409019,-0.778263525698,0.573873980625,0.818923529819,0.00369507388612,0.0,0.818896122918,-0.573800936365,-0.011931982144,0.0,-0.0076512913904,0.00987352586494,-0.99992198257,0.0,0.4812295774,0.0240568308316,0.304649628799,1.0,-0.35998,-0.473116571429,1.721
0.169757414992,-0.184977944276,-0.13414250738,-2.33863089413,-0.0171983457209,2.1477217022,-0.12684014678,-0.923135797199,-1.13865273261,-0.0290032724517,-1.2196292539,-0.198019193472,0.0503684426307,-0.806712579704,0.573821379891,0.818960860527,0.00358884479096,0.0,0.818930931756,-0.573747292926,-0.0121210467892,0.0,-0.00786772440348,0.00989452230309,-0.999920095478,0.0,0.475411889607,0.0165058802787,0.304582819577,1.0,-0.35998,-0.473116571429,1.737
0.153706638662,-0.204083364121,-0.134606646669,-2.35845149807,-0.0203622865918,2.14854854044,-0.141030110942,-0.949354910818,-1.1195358867,-0.0265133529762,-1.15546550657,-0.179299519488,0.0380335577193,-0.850331889631,0.573875080133,0.818922604521,0.00372922341814,0.0,0.818894524054,-0.573800466993,-0.0120635589244,0.0,-0.0077394399635,0.00997700856883,-0.999920277007,0.0,0.469317094397,0.00842170802083,0.304631540283,1.0,-0.35998,-0.473116571429,1.754
0.137230435286,-0.222954187493,-0.135118884445,-2.37763029793,-0.0235092417488,2.14898481678,-0.155587050023,-0.979295968183,-1.09853288364,-0.030711464752,-1.12708774516,-0.18510150422,0.014767468072,-0.862523623103,0.57398947861,0.818841701047,0.00388509620933,0.0,0.818815794867,-0.57391445477,-0.0119849732278,0.0,-0.00758422901202,0.010060620373,-0.999920628544,0.0,0.463219892073,0.000339403066752,0.304710711548,1.0,-0.35998,-0.473116571429,1.771
0.121412039442,-0.240350470852,-0.135472305734,-2.39517225625,-0.0264346022081,2.1490931038,-0.169744586984,-1.00653796095,-1.08873319572,-0.0223791982966,-1.06178176227,-0.17300629369,0.0071971697111,-0.891838983384,0.573864016479,0.81892948153,0.00391685745785,0.0,0.81890373619,-0.573788559363,-0.0120044533207,0.0,-0.00758349874188,0.0100966473964,-0.999920270951,0.0,0.457458298494,-0.0071492967397,0.304720820683,1.0,-0.35998,-0.473116571429,1.787
0.102984255881,-0.259568302398,-0.13598158946,-2.41425420457,-0.029676116879,2.14904212197,-0.186224643038,-1.02981742345,-1.06066893707,-0.0192806256411,-1.04893992504,-0.182239382853,-0.0131307476101,-0.924441904732,0.573872614695,0.818922793371,0.00405308548044,0.0,0.818898986513,-0.573796885369,-0.011930261089,0.0,-0.00744445824077,0.0101657134388,-0.999920616005,0.0,0.451006866097,-0.0156753472175,0.304736323217,1.0,-0.35998,-0.473116571429,1.805
0.0862088940425,-0.276389824947,-0.136499673042,-2.43051992575,-0.0325483379904,2.14878596202,-0.201251264447,-1.05250472383,-1.04222040484,-0.0403961977433,-1.0062083459,-0.178375010998,-0.0302689369469,-0.946115976142,0.57393223181,0.818879786858,0.00429358417659,0.0,0.818860362492,-0.573857454641,-0.0116651358247,0.0,-0.007088575128,0.0102110399276,-0.999922740399,0.0,0.445326058155,-0.023258892124,0.304830095033,1.0,-0.35998,-0.473116571429,1.821
0.0690395179116,-0.292782894097,-0.136884265522,-2.4463794456,-0.035293093011,2.14806246901,-0.216818999386,-1.0905968439,-1.01303480919,-0.0176282609397,-0.977769408202,-0.171451344165,-0.0370948468231,-0.972343831496,0.573803440183,0.818970059864,0.00428951993681,0.0,0.818949573052,-0.573727248616,-0.0118062650749,0.0,-0.00720810192224,0.0102875741042,-0.99992110143,0.0,0.439548185962,-0.0307503908843,0.30479141758,1.0,-0.35998,-0.473116571429,1.837
0.050217365507,-0.309869004909,-0.137452547372,-2.46255185799,-0.038263836004,2.14715811676,-0.233778457732,-1.10701109738,-0.981044873936,-0.0269248988571,-0.937358761646,-0.163216914051,-0.0623540662331,-0.989311198944,0.573886831138,0.818911216216,0.00436713909424,0.0,0.818891926577,-0.573810641981,-0.0117518780199,0.0,-0.00711797087782,0.010320661688,-0.999921406128,0.0,0.433450437551,-0.0388353557735,0.304804683104,1.0,-0.35998,-0.473116571429,1.854
0.0297978966766,-0.327684788681,-0.138050892183,-2.47899514365,-0.0412248039054,2.14592985866,-0.252307508001,-1.14017220044,-0.999380302216,-0.0228742317418,-0.907416516395,-0.164775493363,-0.0652939789636,-1.04017924009,0.573975105765,0.818847945487,0.00462244905495,0.0,0.818832173478,-0.573898401505,-0.0116294165071,0.0,-0.00687003995992,0.0104602069675,-0.999921690244,0.0,0.426994795545,-0.0473536868282,0.304883768924,1.0,-0.35998,-0.473116571429,1.872
0.0124008173144,-0.342024597365,-0.138475612405,-2.49221423103,-0.0437232182356,2.14468254108,-0.268224082806,-1.18513987046,-0.96154128521,-0.0440308071959,-0.891813604434,-0.162923352328,-0.0901734778321,-1.06183321583,0.573932298728,0.818878018496,0.00461022800961,0.0,0.818861635546,-0.573854952884,-0.011698794047,0.0,-0.00693441661978,0.0104896565663,-0.99992093736,0.0,0.421213136017,-0.0549050521639,0.304849318849,1.0,-0.35998,-0.473116571429,1.888
-0.00899887395594,-0.358775299074,-0.139010032648,-2.50720856987,-0.0466395324769,2.14294636035,-0.287858095147,-1.19366851047,-0.91638776949,-0.0201064110074,-0.810045849533,-0.157313534584,-0.106788786654,-1.10050714701,0.57384202412,0.818940661907,0.0047191663221,0.0,0.818926294976,-0.573765283367,-0.0115702160772,0.0,-0.00676775691091,0.0105043278457,-0.999921925234,0.0,0.415159806759,-0.0629031369608,0.304925290636,1.0,-0.35998,-0.473116571429,1.905
-0.0309320963644,-0.375004188841,-0.13960745412,-2.52175699821,-0.0495178450732,2.14103704347,-0.308118078277,-1.23165943541,-0.902722996869,-0.0260736073953,-0.817074102089,-0.150621850479,-0.109603786155,-1.142893721,0.573772027904,0.818989825865,0.00469808751644,0.0,0.818974492353,-0.573694292698,-0.0116784546305,0.0,-0.00686940178667,0.0105485875279,-0.999920766171,0.0,0.40863782301,-0.0713976336897,0.304872955921,1.0,-0.35998,-0.473116571429,1.923
-0.0509032294364,-0.38900999742,-0.140111725155,-2.53380205094,-0.0520026113044,2.1392307059,-0.326539467072,-1.25066509583,-0.884309750186,-0.0191495233385,-0.760903064814,-0.156608603978,-0.115205099608,-1.16688672458,0.5737867749,0.818978692515,0.0048358099625,0.0,0.818966384314,-0.573710572802,-0.0114449517609,0.0,-0.00659894337563,0.0105275304476,-0.999922809545,0.0,0.402942210473,-0.078966190958,0.304977986795,1.0,-0.35998,-0.473116571429,1.939
-0.0713238792606,-0.402417335222,-0.140668264735,-2.54550149255,-0.0542616277318,2.13724258633,-0.345524159429,-1.28787089745,-0.8210112352,-0.0321453467711,-0.729314331307,-0.148608676193,-0.135255755778,-1.15760183805,0.573849453678,0.818934317429,0.00491275388498,0.0,0.818921412641,-0.57377047515,-0.0116579871674,0.0,-0.00672846217644,0.0107132951826,-0.999919973349,0.0,0.396783773314,-0.0869821009857,0.304925905026,1.0,-0.35998,-0.473116571429,1.956
-0.09471420264,-0.417000926408,-0.141233450278,-2.55767148915,-0.056821720685,2.13499466589,-0.367457923134,-1.32161354012,-0.81780945248,-0.0485656348439,-0.673774795395,-0.135730186838,-0.119264357807,-1.23372668651,0.573750192681,0.819002671932,0.00510751096944,0.0,0.818993538027,-0.573672698973,-0.0114002642083,0.0,-0.0064069305977,0.0107241287382,-0.999921969107,0.0,0.390748656038,-0.0950051945146,0.305037756606,1.0,-0.35998,-0.473116571429,1.973
-0.115975803705,-0.429219407336,-0.141707380036,-2.56804578043,-0.0590703904296,2.13278917062,-0.387437231969,-1.34418705078,-0.772768096063,-0.0285586538838,-0.64192249291,-0.132875478576,-0.146843596758,-1.24865372457,0.573651846458,0.819072152799,0.00501143346533,0.0,0.81906067976,-0.573572841124,-0.0115993834735,0.0,-0.00662643744144,0.0107588829899,-0.999920165195,0.0,0.384964810021,-0.102534713458,0.304976481672,1.0,-0.35998,-0.473116571429,1.989
-0.136244769109,-0.440174745324,-0.142233344,-2.57722905052,-0.061011901161,2.13072318734,-0.40651052663,-1.34255257314,-0.725141128531,-0.0347211443303,-0.577823884615,-0.125454736398,-0.13916588787,-1.28390854233,0.57371165855,0.819029918951,0.00506671571276,0.0,0.819018016957,-0.573630607136,-0.0117542059764,0.0,-0.00672075255304,0.0108934661942,-0.999918078584,0.0,0.379198837394,-0.110063893955,0.304944608579,1.0,-0.35998,-0.473116571429,2.005
-0.162466149952,-0.453376884603,-0.142848765042,-2.58795358022,-0.0634733219633,2.12824480847,-0.431303797897,-1.38828748769,-0.683474872249,-0.0358487194078,-0.56778514892,-0.131620414957,-0.139927964581,-1.33903995632,0.573685919821,0.819047491136,0.00513999652562,0.0,0.81903715675,-0.573605645163,-0.0116381528118,0.0,-0.00658399560103,0.0108867021436,-0.999919062084,0.0,0.372761993524,-0.118592539972,0.304970596319,1.0,-0.35998,-0.473116571429,2.023
-0.184906956904,-0.463801077311,-0.143262296187,-2.59646812324,-0.0653943170649,2.12595888679,-0.452699046501,-1.40221104975,-0.646540220543,-0.00857048399791,-0.525541270731,-0.113355622145,-0.130705056372,-1.33907835859,0.573548663861,0.819143893077,0.00509504837894,0.0,0.819131595724,-0.573466308488,-0.0118561721258,0.0,-0.00679020313916,0.0109738180702,-0.999916730762,0.0,0.366973777472,-0.126077294856,0.304920340677,1.0,-0.354306857143,-0.465660440816,2.039
-0.210252789361,-0.474433644042,-0.143569951416,-2.60495592094,-0.0672289600563,2.12369561809,-0.476704273161,-1.39948668069,-0.579016840569,0.00327568477298,-0.443441448577,-0.106290991798,-0.12168268515,-1.32630489615,0.573604642458,0.819103961989,0.00521157424539,0.0,0.819093131155,-0.573521789861,-0.0118298753225,0.0,-0.00670107537375,0.0110546489078,-0.999916441672,0.0,0.360692431853,-0.134370258827,0.3049327353,1.0,-0.342416571429,-0.450033208163,2.057
-0.232622903468,-0.483035882652,-0.143799035934,-2.61165865208,-0.0686304951912,2.12177519691,-0.497881169521,-1.37701246521,-0.525025799745,0.00159560927079,-0.404668432707,-0.0860325609395,-0.128245118828,-1.32575228613,0.573709070408,0.819029638643,0.00539448400386,0.0,0.819021358584,-0.573625859797,-0.0117530445734,0.0,-0.0065318020825,0.0111612407829,-0.999916377637,0.0,0.354926364636,-0.14199263458,0.304985762321,1.0,-0.331186857143,-0.435274155102,2.074
-0.254718226644,-0.490712904431,-0.143832834526,-2.61776305051,-0.0698147919234,2.11987760126,-0.518823254966,-1.38690155134,-0.455572579469,-0.00519897680258,-0.363718314181,-0.0775053879592,-0.117018594041,-1.29827705847,0.573869526378,0.818916601307,0.00548759505428,0.0,0.818908222076,-0.573783711571,-0.0119299225798,0.0,-0.00662104647076,0.0113402740654,-0.999913776247,0.0,0.349929085563,-0.148500564371,0.304945375148,1.0,-0.321278285714,-0.422251461225,2.089
-0.27773170611,-0.498006533229,-0.143716774198,-2.62332837921,-0.0709035758707,2.1181861096,-0.540707021074,-1.35180105602,-0.415213680684,-0.000297183374191,-0.311719871939,-0.0549750189165,-0.0975872980026,-1.26006702565,0.573917471081,0.818881969338,0.00563946649947,0.0,0.818876522494,-0.573832769722,-0.0117447947302,0.0,-0.00638161282281,0.0113587882976,-0.999915122871,0.0,0.344548115897,-0.155628230622,0.305011143841,1.0,-0.310048571429,-0.407492408163,2.106
-0.301479576384,-0.504587307451,-0.14346475547,-2.62839820954,-0.0718055835652,2.1164912954,-0.563380831735,-1.30937618949,-0.350314867165,0.0127272805392,-0.270606043276,-0.0455120485467,-0.0902265357616,-1.25736619986,0.573930111584,0.818872321338,0.00575284845498,0.0,0.818868050739,-0.573844475994,-0.0117634923065,0.0,-0.00633167984944,0.0114624669406,-0.999914257165,0.0,0.339066217029,-0.162854592624,0.305024269177,1.0,-0.298158285714,-0.39186517551,2.124
-0.322118325134,-0.50969063186,-0.143238245925,-2.63221176126,-0.0724860234804,2.11525217657,-0.583086890403,-1.27760256435,-0.310501523491,0.0169029829372,-0.223413346797,-0.0344731236891,-0.0759485415676,-1.25420165871,0.574013034469,0.818813153931,0.00589933143375,0.0,0.818811750619,-0.573928664977,-0.0115737404219,0.0,-0.00609105275528,0.0114741406713,-0.999915618026,0.0,0.334394372118,-0.169101416396,0.305086447356,1.0,-0.287589142857,-0.377974302041,2.14
-0.343481225045,-0.514299998227,-0.142853866093,-2.63584929606,-0.0731504388227,2.11391431756,-0.603571484313,-1.23871652051,-0.25541032267,0.0201694293702,-0.204873966478,-0.0363097030546,-0.0733406967193,-1.20016839748,0.573957240431,0.818852547448,0.00585991425996,0.0,0.818849543739,-0.573870989148,-0.011758377149,0.0,-0.00626566292308,0.0115474161421,-0.9999136956,0.0,0.329527486833,-0.175438729186,0.305034170612,1.0,-0.276359428572,-0.36321524898,2.157
-0.364184785099,-0.518140910429,-0.142408847674,-2.63898735724,-0.0736230916538,2.11280603697,-0.623443988087,-1.20673133885,-0.210477155532,0.0358665551649,-0.173996777647,-0.0292603342591,-0.0614843809216,-1.15499640174,0.573932654654,0.818869776673,0.00586034763854,0.0,0.818865266392,-0.573843646037,-0.0119955117272,0.0,-0.00645996312753,0.0116836759667,-0.999910876325,0.0,0.324851110306,-0.181501975792,0.304941160016,1.0,-0.265129714286,-0.348456195918,2.174
-0.383017985195,-0.521124478694,-0.141988685783,-2.64137947765,-0.0739311140224,2.1119481609,-0.641547911948,-1.17894531022,-0.174759361812,0.0173302091057,-0.137723989447,-0.0167891656747,-0.049435790333,-1.12793934412,0.573957305708,0.818852089524,0.00591722976662,0.0,0.818847457835,-0.573866495299,-0.0121174779466,0.0,-0.00652684789033,0.0118004507413,-0.999909070675,0.0,0.320658582422,-0.186996625923,0.304888859797,1.0,-0.254560571429,-0.334565322449,2.19
-0.402305567484,-0.523799552283,-0.141380532064,-2.64343508686,-0.0741680520704,2.11114235859,-0.660187772465,-1.10819686423,-0.14860277011,0.0417495255864,-0.112357219168,-0.0105749774941,-0.0464272210756,-1.08824116726,0.573832329799,0.818939628701,0.00592357330017,0.0,0.818934900649,-0.573741194245,-0.0121415578081,0.0,-0.00654473083016,0.0118184668586,-0.999908741006,0.0,0.316417979386,-0.192554277896,0.304883316828,1.0,-0.243330857143,-0.319806269388,2.207
-0.422096908212,-0.526027409879,-0.140845248585,-2.64511725408,-0.0743338982735,2.11045606345,-0.67919769718,-1.07155218793,-0.109766431532,0.0276057280948,-0.0786316319745,0.00325252206242,-0.0390263137196,-1.03866836357,0.573921714717,0.818876551802,0.00598374345393,0.0,0.818872626303,-0.573830331766,-0.0121292678025,0.0,-0.00649884462555,0.0118614022615,-0.999908531894,0.0,0.312088689351,-0.198270633085,0.304890111805,1.0,-0.231440571429,-0.304179036735,2.225
-0.438973816813,-0.527590315235,-0.140358548307,-2.64629680268,-0.0744033763033,2.10998341695,-0.695379858641,-1.04619948254,-0.0980399578914,0.0274157738611,-0.0622346566278,-0.00601341415296,-0.0257500875764,-0.99409723073,0.574046299259,0.818788767756,0.00604541187601,0.0,0.818785846388,-0.573954990871,-0.0120893800476,0.0,-0.00642897805176,0.0118899904755,-0.999908644011,0.0,0.30840744892,-0.203115533389,0.304897998495,1.0,-0.220871428572,-0.290288163265,2.241
-0.455983924157,-0.528804925413,-0.139724277933,-2.64720733265,-0.0744103381819,2.10957467248,-0.711892767817,-0.991508694797,-0.0636777011832,0.0403142351771,-0.0462098384005,-0.000916567705467,-0.0241364182273,-0.95750207169,0.573948103076,0.818857573616,0.00604946354199,0.0,0.818854920643,-0.573857197277,-0.0120533386891,0.0,-0.00639856267185,0.0118718524349,-0.999909054622,0.0,0.304728840501,-0.207949812903,0.304909706422,1.0,-0.209641714286,-0.275529110204,2.258
-0.472389631736,-0.529605159667,-0.139127016359,-2.64780008547,-0.0744000578008,2.10926113918,-0.727626304391,-0.943030328484,-0.0372016175272,0.0445580015376,-0.0279727184247,0.000409826315567,-0.0161060094246,-0.913002515562,0.574046041736,0.818789058767,0.00603043222361,0.0,0.81878635901,-0.573955568945,-0.0120270560666,0.0,-0.00638654471937,0.0118419475666,-0.999909486066,0.0,0.301189090535,-0.212618073093,0.304921377905,1.0,-0.198412,-0.260770057143,2.275
-0.486984708313,-0.530036708816,-0.138503819439,-2.64813227177,-0.0743618454692,2.10906473144,-0.741705673216,-0.900451783393,-0.0227661051772,0.0314104510448,-0.0166238759796,-0.000299639972977,-0.00961394116066,-0.864861539307,0.57402541622,0.818804014518,0.00596273792383,0.0,0.818800668742,-0.573935663674,-0.0120027385494,0.0,-0.00640578589307,0.0117723974463,-0.999910184249,0.0,0.298057652595,-0.216744028672,0.304927507749,1.0,-0.187842857143,-0.246879183674,2.291
-0.501615650678,-0.530207193429,-0.137769400686,-2.64827993765,-0.0742284176811,2.10891606169,-0.755985788431,-0.832929580601,-0.00344862904139,0.0437557551761,-0.00768029529919,0.0166532997217,-0.017903237139,-0.823830883679,0.573843058305,0.818932325704,0.00589383185521,0.0,0.818928130429,-0.573753712535,-0.0120058921702,0.0,-0.00645052948176,0.0117163481589,-0.999910554927,0.0,0.294939250072,-0.220840466989,0.304929265218,1.0,-0.176613142857,-0.232120130612,2.308
-0.515582131771,-0.530224909622,-0.137106666771,-2.64832666884,-0.0740619304182,2.10882862266,-0.769378939812,-0.809123713136,0.00243000381889,0.0368860730213,0.00122785300742,0.00276865728873,-0.006985916965,-0.775048284502,0.573913639771,0.818883079167,0.00586375645589,0.0,0.818878493686,-0.573824404963,-0.01201298251,0.0,-0.00647258616594,0.0116963437616,-0.999910646593,0.0,0.291935941586,-0.22473985184,0.304924475858,1.0,-0.165383428572,-0.217361077551,2.325
-0.528539337272,-0.530042790495,-0.13631177177,-2.64824263955,-0.073746817974,2.10881637026,-0.781978083879,-0.741986283414,0.00908835204189,0.0407804514502,0.00713865600383,0.0129196140426,0.00190215317994,-0.722101591152,0.573785751118,0.818972688529,0.00586465343797,0.0,0.818968075112,-0.57369646698,-0.0120167642179,0.0,-0.00647699544378,0.0116982372474,-0.999910595891,0.0,0.289189679271,-0.228295342388,0.30491612153,1.0,-0.154153714286,-0.20260202449,2.342
-0.540834859527,-0.52973188863,-0.135662257648,-2.64804961758,-0.0734058173269,2.10881602492,-0.793719684137,-0.70931119775,0.0188963298508,0.0373216734846,0.0147292875081,0.0170245009458,-0.00129016460277,-0.661770757223,0.57393794637,0.818865511225,0.00593760424649,0.0,0.818861616293,-0.573847909648,-0.0120406334947,0.0,-0.00645250194758,0.0117728793355,-0.999909878204,0.0,0.286553888957,-0.231684103028,0.304907467353,1.0,-0.142924,-0.187842971429,2.359
-0.552112964532,-0.529265766272,-0.134864071885,-2.64775328911,-0.0730106733148,2.10888231711,-0.80465857381,-0.643360330892,0.0272743762323,0.0476647516686,0.0206377609504,0.0294717591212,0.00869787247428,-0.619976773064,0.573838410669,0.81893512265,0.00595736782941,0.0,0.818931391511,-0.573748140719,-0.0120496440241,0.0,-0.00644997217298,0.0117934511627,-0.999909652103,0.0,0.284184175463,-0.23474332219,0.304898541076,1.0,-0.131694285714,-0.173083918367,2.376
-0.56206734118,-0.528726280306,-0.134183842234,-2.64740958809,-0.0726491300031,2.10897643029,-0.814187885227,-0.61355124497,0.0321797775002,0.0358188475564,0.0227210304906,0.0203287788258,0.00639209710434,-0.590074046766,0.573880630774,0.818905336511,0.00598484392201,0.0,0.818901801964,-0.573789940601,-0.0120701991068,0.0,-0.00645043141357,0.0118280806764,-0.999909240102,0.0,0.282085069645,-0.237449723615,0.30488349225,1.0,-0.121125142857,-0.159193044898,2.392
-0.571872456337,-0.52809021078,-0.133478148604,-2.64692456097,-0.0722607609564,2.10909789161,-0.823454874416,-0.544899670336,0.043716240278,0.0516924076764,0.0270420112731,0.0186794843779,0.00905704415643,-0.534714193067,0.574016229047,0.81881014555,0.0060051007636,0.0,0.818807186022,-0.573925998207,-0.0120202996076,0.0,-0.00639598296363,0.0118170942265,-0.999909719768,0.0,0.280040384079,-0.24012284056,0.304900196895,1.0,-0.109895428572,-0.144433991837,2.409
-0.580574066154,-0.527347373157,-0.132665696033,-2.64643235243,-0.07180792163,2.10923014433,-0.831930579672,-0.506708256254,0.0449656925113,0.0477001283101,0.0239086990432,0.0244206808159,0.00728251035357,-0.486726251877,0.573848779045,0.818927450913,0.00601297197576,0.0,0.818924306898,-0.573758020216,-0.012060709331,0.0,-0.0064269787915,0.0118454202927,-0.999909185857,0.0,0.278266184493,-0.242441591236,0.304884550722,1.0,-0.0986657142858,-0.129674938776,2.426
-0.588206311148,-0.526690977554,-0.13194650822,-2.64597399491,-0.0714312464588,2.10934720253,-0.839082313534,-0.457197919585,0.0427493850367,0.040496690019,0.0286875735203,0.0300620551005,0.0215648166177,-0.439880372409,0.573920783517,0.818877123805,0.00599476924703,0.0,0.818873669238,-0.573829952215,-0.0120766995009,0.0,-0.00644947897424,0.011840255491,-0.999909102154,0.0,0.276700496135,-0.244471811023,0.304881139951,1.0,-0.0880965714287,-0.115784065306,2.442
-0.59582869271,-0.525921077457,-0.131167736479,-2.64543378546,-0.0709603614502,2.10947765962,-0.846265530555,-0.397418395122,0.0418789574589,0.0454857904994,0.0317837425187,0.0315668313545,0.0132345890346,-0.379529962723,0.573961196375,0.8188486292,0.00601784135939,0.0,0.818845255642,-0.573869853871,-0.0121072305785,0.0,-0.00646065580872,0.0118769900628,-0.999908594339,0.0,0.275162012456,-0.246485794485,0.304875825446,1.0,-0.0762062857144,-0.100156832653,2.46
-0.602296277271,-0.525191395822,-0.130294412638,-2.64498154214,-0.0704598759654,2.10960386509,-0.852449633453,-0.348382154616,0.0336455558134,0.0453937173672,0.0254781542314,0.0307585780313,0.0143605566607,-0.327459823677,0.573814998484,0.818951084474,0.00601794442093,0.0,0.81894713525,-0.573722629254,-0.0121934920831,0.0,-0.00653336845671,0.011925416586,-0.999907545494,0.0,0.273897100467,-0.24812783386,0.304846943519,1.0,-0.0643160000001,-0.0845296000001,2.478
-0.607153813357,-0.524728554132,-0.129621552152,-2.64463058091,-0.0700695495842,2.10968456349,-0.856909280252,-0.307451438674,0.0335749603199,0.0464332691695,0.02546821719,0.0301077701386,0.00981063982722,-0.282991216835,0.573850728616,0.81892602482,0.00602113283164,0.0,0.818922227969,-0.573758539995,-0.0121765849596,0.0,-0.00651717140996,0.0119186111347,-0.999907732336,0.0,0.272947860092,-0.249353761907,0.304860609806,1.0,-0.0544074285715,-0.0715069061226,2.493
-0.612047470374,-0.524192924031,-0.12880768812,-2.64424219197,-0.0695461368496,2.10984283258,-0.861339779819,-0.246994248448,0.0334204963006,0.043990647137,0.0191118646578,0.0329365641508,0.00446466145832,-0.225235021856,0.573898771059,0.818892094122,0.00605686900301,0.0,0.818889157987,-0.573807140502,-0.012110298947,0.0,-0.00644167740443,0.0119102193494,-0.999908321531,0.0,0.272044939862,-0.250558916863,0.30487459185,1.0,-0.0425171428573,-0.0558796734695,2.511
-0.615805383927,-0.523765866619,-0.128053000686,-2.64392668096,-0.0690799059276,2.10991452182,-0.864703909896,-0.209360481879,0.0215415973417,0.0502947850943,0.0164230395064,0.0237721389336,0.00082585819713,-0.180213239829,0.573924417296,0.818873922673,0.00608349393119,0.0,0.818871413772,-0.573832814057,-0.012093639659,0.0,-0.00641238116336,0.0119226639186,-0.999908361528,0.0,0.271342488273,-0.251489945192,0.304890774157,1.0,-0.030626857143,-0.0402524408165,2.529
-0.618438567672,-0.523514645565,-0.127394300713,-2.64372673468,-0.0686698433767,2.10996586726,-0.866892491262,-0.162713562107,0.0167003316257,0.0515527609137,0.0107524981045,0.0280707494072,0.00268869540211,-0.140467703795,0.573986745312,0.818830148673,0.00609513990101,0.0,0.818827952199,-0.573895377845,-0.0120675965763,0.0,-0.00638346218359,0.0119177408595,-0.999908605255,0.0,0.270937101539,-0.252020672895,0.304905494411,1.0,-0.021378857143,-0.0280979265308,2.543
-0.620684163067,-0.523314120569,-0.12672040056,-2.64356436925,-0.0682854854635,2.11003530864,-0.868801800391,-0.119588234738,0.0147404984365,0.0363578038375,0.0088343941435,0.0200172218896,0.00178912267993,-0.102342882164,0.573957698469,0.818850589298,0.00608437955625,0.0,0.818848671178,-0.57386716548,-0.012003207758,0.0,-0.00633733010972,0.0118717481816,-0.999909445821,0.0,0.270590701914,-0.25248510228,0.304928115512,1.0,-0.0196823529412,-0.0258682352941,2.56
-0.622447723426,-0.523144688235,-0.126205362926,-2.64338005631,-0.068034994234,2.1100481268,-0.870496766303,-0.0976011498801,0.0156649104305,0.0225271254801,0.0112677118454,0.00607905357003,-8.03030889714e-05,-0.0957979637789,0.573765638185,0.818985515401,0.00603861760735,0.0,0.81898335652,-0.573675997676,-0.0119523359842,0.0,-0.00632470183594,0.0118035942564,-0.999910332635,0.0,0.270317046022,-0.252866345887,0.304963300478,1.0,-0.0193423529412,-0.0254213781513,2.577
-0.624060136384,-0.52292058851,-0.125907217254,-2.64316607111,-0.0678623349532,2.11013185924,-0.871969463955,-0.0961258821593,0.0149624819314,0.0140783510806,0.0149194210549,0.0165291537932,0.00718872769232,-0.0816050176941,0.573753702456,0.818993988968,0.00602344193647,0.0,0.818992219932,-0.573665223444,-0.0118617875164,0.0,-0.00625941402307,0.0117391226029,-0.999911502452,0.0,0.270045807912,-0.253279006188,0.304992676544,1.0,-0.0190023529412,-0.0249745210084,2.594
-0.625599178269,-0.522682697028,-0.125760512098,-2.64300395563,-0.0677599787551,2.11019039361,-0.87350877529,-0.0884827883664,0.0142298797238,0.00631538030393,0.0103655745561,0.00620703461914,0.000513985156566,-0.0902065794279,0.573707518846,0.81902625068,0.00603576151944,0.0,0.819024539988,-0.573618810081,-0.01187478502,0.0,-0.00626365490663,0.0117563165981,-0.999911273887,0.0,0.269715624119,-0.253719583942,0.304986089149,1.0,-0.0186423529412,-0.0245013781513,2.612
-0.627101682911,-0.522466291937,-0.125696612713,-2.64285973736,-0.0677363951861,2.11018522557,-0.874911792855,-0.08421178573,0.0161107472548,0.000795381807445,0.0114868284898,-7.50040246423e-05,-0.000231289887665,-0.0864071018311,0.573756071727,0.818992322289,0.00602437454744,0.0,0.818990109257,-0.573666735558,-0.0119341675402,0.0,-0.00631812995149,0.0117814310851,-0.999910635565,0.0,0.269400077753,-0.254116209323,0.304974746818,1.0,-0.0183223529412,-0.0240808067227,2.628
-0.628443763744,-0.52225975281,-0.125646335537,-2.6427080984,-0.0677026270059,2.11019404892,-0.876246319067,-0.0815884931635,0.0113489015709,0.00422227843495,0.0100050744068,6.69376360386e-05,-0.00066484461793,-0.0853307634354,0.573749145821,0.818997150824,0.0060275628138,0.0,0.818994737481,-0.573659347818,-0.0119716139408,0.0,-0.00634707215641,0.0118054727889,-0.999910168709,0.0,0.269104729583,-0.254498849425,0.304969778059,1.0,-0.0180023529412,-0.0236602352941,2.644
-0.629810887048,-0.522022622908,-0.125609896237,-2.64254481013,-0.0676618901219,2.11024404954,-0.877611674728,-0.0807070301628,0.018541137562,0.00101849879246,0.01180812523,0.00364069103687,0.00315979872007,-0.0720336801072,0.573750909434,0.81899582845,0.00603935483328,0.0,0.818993461479,-0.573660863237,-0.0119862815688,0.0,-0.00635229539776,0.011823559711,-0.999909921832,0.0,0.268808797732,-0.254898303885,0.30496204298,1.0,-0.0176623529412,-0.0232133781513,2.661
-0.631165123636,-0.521818310302,-0.125592392183,-2.64240842281,-0.0676317631311,2.11028649424,-0.878932535363,-0.0777908979054,0.0147059583582,0.0019447457342,0.0114956646418,0.00208752956487,0.000797667380583,-0.0795810183164,0.573787556217,0.81897001948,0.00605759233533,0.0,0.818967811123,-0.573697279956,-0.0119959250131,0.0,-0.00634920093759,0.0118443136731,-0.999909695863,0.0,0.268484758907,-0.255319062086,0.304956502877,1.0,-0.0173023529412,-0.0227402352941,2.679
-0.632408436366,-0.521634307452,-0.125599502763,-2.64226766324,-0.0676035138015,2.11031224989,-0.880247930839,-0.079952140176,0.0138585497464,-0.00115541200015,0.00580262006425,7.17446210259e-06,0.00625068894438,-0.0857714905071,0.573751525672,0.818995087717,0.00608111705934,0.0,0.818993052647,-0.573660910168,-0.0120119424887,0.0,-0.00634934498966,0.0118724915354,-0.999909360774,0.0,0.268220058467,-0.255660308564,0.304951427145,1.0,-0.0170023529412,-0.0223459495798,2.694
-0.63378256101,-0.521432972216,-0.125595655372,-2.64211115885,-0.0675746292501,2.11034574984,-0.881547255302,-0.0750972220967,0.00675941406464,-7.60759388144e-05,0.0067421415655,-0.00030496255256,0.00129621370692,-0.0700440879009,0.573830637472,0.818939518479,0.00610012075823,0.0,0.818937699344,-0.573739866324,-0.0120148776185,0.0,-0.00633969768193,0.0118903526686,-0.999909209752,0.0,0.26790920512,-0.256065659194,0.304951529493,1.0,-0.0166423529412,-0.0218728067227,2.712
-0.635039598642,-0.521248258489,-0.125564415385,-2.64196489869,-0.0675513528582,2.11036823447,-0.882848100569,-0.0679420505876,0.00865372406651,0.00318066388917,0.0114531778645,0.00690529511333,0.000449275563764,-0.0772254453527,0.573790264042,0.818967786694,0.00610279846845,0.0,0.818965943213,-0.573699379019,-0.0120230308657,0.0,-0.00634542545493,0.0118969112114,-0.999909095408,0.0,0.267629367387,-0.256429995288,0.304952780444,1.0,-0.0163023529412,-0.0214259495798,2.729
-0.636169205328,-0.521070124956,-0.125534667439,-2.64182113317,-0.0675240083499,2.11040473865,-0.883975985416,-0.0695107878073,0.0139216850913,-0.0010160295349,0.0104695501581,0.00046147547703,-0.000743108340361,-0.0666485757506,0.573789804221,0.818968081919,0.00610641230753,0.0,0.818966339641,-0.573699005593,-0.0120138427907,0.0,-0.00633583310259,0.0118945956465,-0.999909183783,0.0,0.267383615527,-0.256761284766,0.304956469926,1.0,-0.0159823529412,-0.0210053781513,2.745
-0.637347192934,-0.520889559743,-0.125454313128,-2.64168497053,-0.0674914394641,2.11045386124,-0.885165255276,-0.0696475911193,0.00873451011831,0.00684722403879,0.00701787964742,0.00468646408738,0.00157754003493,-0.07455955061,0.573744707703,0.818999799239,0.00608983827292,0.0,0.818997930588,-0.573654155987,-0.0120019129167,0.0,-0.00633622522671,0.0118738275694,-0.999909428133,0.0,0.267136545523,-0.257093350112,0.304958081222,1.0,-0.0156423529412,-0.0205585210084,2.762
-0.638559773187,-0.520694988924,-0.125387393823,-2.64151780571,-0.067470305106,2.11048264128,-0.886469393619,-0.0681174239147,0.00992296683806,0.00404558321671,0.01085877308,0.000426972821736,0.00390183358689,-0.0718934973011,0.573640016895,0.819073277953,0.00606986505118,0.0,0.819071212894,-0.573549689554,-0.011993695076,0.0,-0.00634246803711,0.0118519433622,-0.999909648187,0.0,0.266879903922,-0.257443363973,0.304966556539,1.0,-0.0152823529412,-0.0200853781513,2.78
-0.63956805486,-0.5205157833,-0.12536167885,-2.64137488629,-0.0674442017034,2.11051730098,-0.887479963364,-0.0694881851699,0.0103658008088,0.000519062363423,0.00762911143787,0.00361058101922,0.00632743753798,-0.0665873220842,0.573638544657,0.819074283189,0.00607335194926,0.0,0.819072288558,-0.573548249918,-0.011989079801,0.0,-0.00633670856373,0.0118521407595,-0.999909682363,0.0,0.266662705212,-0.257742122782,0.304969181567,1.0,-0.0149823529412,-0.019691092437,2.795
-0.640691460108,-0.52032257087,-0.125348944924,-2.64123858431,-0.0674220272028,2.11055874528,-0.888596486219,-0.066710784082,0.00973549899952,0.000340961899404,0.00853000581532,-8.47571106164e-05,0.00585004394088,-0.0704258837604,0.573651861672,0.819064893303,0.00608186325527,0.0,0.819062946054,-0.573561410012,-0.0119977600589,0.0,-0.00633874403882,0.0118641946516,-0.999909526512,0.0,0.266411558989,-0.258073656559,0.304963906221,1.0,-0.0146423529412,-0.0192442352941,2.812
-0.641857001963,-0.520132151183,-0.125339592792,-2.64111629489,-0.0673954006025,2.11057787974,-0.88982342058,-0.0666094407137,0.0118738030389,-7.91405383112e-05,0.00526663831926,-6.25639956053e-05,0.00434087568285,-0.067020867692,0.573612899417,0.819092035033,0.00610136626565,0.0,0.819090056072,-0.573521838978,-0.0120385696814,0.0,-0.00636155221782,0.0119032764714,-0.999908917183,0.0,0.26614204666,-0.258409830828,0.304951298621,1.0,-0.0142823529412,-0.018771092437,2.83
-0.642870014527,-0.519974432049,-0.125335435034,-2.64101025793,-0.0673680797696,2.11060343262,-0.890802304854,-0.0632772341023,0.0109013751552,0.00135697404766,0.00466284303326,0.00343866817308,0.00596728547824,-0.0625347228341,0.573655234258,0.819062234396,0.00612170700656,0.0,0.819060380696,-0.573563816036,-0.0120577198666,0.0,-0.00636495588942,0.0119312514995,-0.999908562107,0.0,0.26590851412,-0.258703540661,0.304943752395,1.0,-0.0139623529412,-0.0183505210084,2.846
-0.643947527795,-0.519811918477,-0.125305340061,-2.64087484886,-0.0673460095005,2.11063605808,-0.89184839686,-0.0624178309694,0.0101386139839,0.000689584801919,0.00841263907395,0.000514309322696,-0.000609714980258,-0.0640170888304,0.573676101852,0.819047625208,0.00612084198441,0.0,0.819045837703,-0.573584828209,-0.0120460570727,0.0,-0.00635559470531,0.011924014789,-0.999908707977,0.0,0.265670905105,-0.259017422621,0.304948994704,1.0,-0.0136223529412,-0.0179036638656,2.863
-0.645108816265,-0.519629483211,-0.125253173818,-2.6407110544,-0.0673177432133,2.11069163713,-0.893038477704,-0.0582000294879,0.00534825990915,0.00179462511883,0.0123647690517,0.000970400235205,0.000637182991352,-0.0542141176811,0.573636034481,0.819075767379,0.00611016685199,0.0,0.819074125157,-0.573545348468,-0.0120024018149,0.0,-0.00632654050608,0.011889918668,-0.999909298246,0.0,0.265426293974,-0.259357973824,0.304962279817,1.0,-0.0132423529412,-0.0174042352941,2.882
-0.645943086284,-0.519484951337,-0.125216617543,-2.64059736647,-0.0673011271062,2.11072362044,-0.893837885347,-0.0563756955755,0.0116439264055,0.002649001445,0.00980682091688,0.00452024614108,0.000820889221271,-0.059282263772,0.573651705207,0.81906486045,0.00610101548024,0.0,0.81906314531,-0.573561141145,-0.0119970106368,0.0,-0.00632714625922,0.0118794512543,-0.999909418827,0.0,0.265247293732,-0.259600709101,0.304964347511,1.0,-0.0129623529412,-0.0170362352941,2.896
-0.646983508558,-0.519315108307,-0.125190263313,-2.64045973708,-0.0672863091751,2.11073653858,-0.894868461699,-0.056978686461,0.0110447156601,0.000283819135943,0.00889773767053,-7.09260155801e-05,0.00213226553055,-0.0631985147035,0.57365459509,0.819062860969,0.00609772197699,0.0,0.819061019595,-0.573563887885,-0.0120108116148,0.0,-0.00634029866979,0.0118846924704,-0.999909273233,0.0,0.265014050965,-0.25990341053,0.304966100094,1.0,-0.0126023529412,-0.016563092437,2.914
-0.647892954342,-0.519162362257,-0.125170613957,-2.64036051282,-0.0672746962956,2.1107648244,-0.895766952656,-0.0535341586481,0.00989380790738,-0.000439403459309,0.00725888432603,0.000417775188227,0.000939417223301,-0.0550413269113,0.573659904353,0.819059149794,0.00609673505319,0.0,0.819057168,-0.573568961301,-0.0120311712151,0.0,-0.00635746527557,0.0118956041025,-0.999909034482,0.0,0.26480678524,-0.260165622439,0.304957838898,1.0,-0.0122823529412,-0.0161425210084,2.93
-0.648776371495,-0.519017720834,-0.125167015012,-2.64026091953,-0.0672663357115,2.11079774301,-0.896659605509,-0.0555892421041,0.00788064123743,0.000876955479615,0.0109808265318,-0.000228727787174,-8.9558845481e-05,-0.050905546463,0.573658646022,0.819060006418,0.00610005177344,0.0,0.81905801728,-0.573567594553,-0.0120385094285,0.0,-0.00636159206778,0.0119025204901,-0.999908925929,0.0,0.264603257317,-0.260425504599,0.304952736538,1.0,-0.0119623529412,-0.0157219495798,2.946
-0.64969092765,-0.518863078772,-0.125170958729,-2.64014979343,-0.0672563488859,2.11084335366,-0.897531151167,-0.050007418746,0.00985017348711,0.00106778432789,0.0108015390256,0.000423184373291,-0.000260484998174,-0.054609026598,0.573701004676,0.819030331755,0.0061008031993,0.0,0.819028356708,-0.573609949141,-0.0120384407537,0.0,-0.00636048917062,0.0119034255519,-0.999908922171,0.0,0.264383489637,-0.260712513717,0.304948091575,1.0,-0.0116023529412,-0.0152488067227,2.964
-0.650634986622,-0.518699691774,-0.125152103011,-2.64002499313,-0.067246405461,2.1108702775,-0.898477959307,-0.0520774894683,0.00664498932023,-0.00161547215758,0.00732668465994,0.000914842378791,0.00210389260843,-0.0504979514067,0.573701960215,0.819029661055,0.00610098835471,0.0,0.819027686984,-0.573610901006,-0.0120386503256,0.0,-0.00636054072865,0.0119037048538,-0.999908918518,0.0,0.264182315766,-0.260976920436,0.30494937509,1.0,-0.0112623529412,-0.0148019495798,2.981
-0.651458747658,-0.518552605285,-0.12513080898,-2.63991859313,-0.0672401721835,2.1109032847,-0.89932952477,-0.0492197071545,0.0102133356788,0.00101839610379,0.0083309691728,-0.000265355393498,0.00529700354538,-0.0490502181475,0.573672351612,0.819050464236,0.00609236661808,0.0,0.819048360086,-0.573581302151,-0.0120424484238,0.0,-0.00636902801757,0.0118985916788,-0.999908925352,0.0,0.26399878304,-0.261218648161,0.304946868848,1.0,-0.0109423529412,-0.0143813781513,2.997
-0.652360373571,-0.518413485591,-0.125123975038,-2.63980072008,-0.0672286010757,2.11093060963,-0.900185089194,-0.0472374931852,0.0056075287124,0.00127585132807,0.00415239824934,-0.000313082813259,0.000743355244307,-0.0495246895841,0.573724834785,0.819013670026,0.00609665175262,0.0,0.81901171588,-0.573633932215,-0.0120277995902,0.0,-0.00635380829696,0.0118941055441,-0.999909075553,0.0,0.263804642513,-0.261474116887,0.304953073428,1.0,-0.0106023529412,-0.0139345210084,3.014
-0.653144039157,-0.518273817455,-0.125133597553,-2.6396967435,-0.0672188352399,2.11094071668,-0.900938602199,-0.0540457838854,0.0106136380079,-0.00063696672607,0.00572297680225,0.000340477510056,0.000371075784411,-0.0515027500123,0.573757439583,0.818990764868,0.00610528344794,0.0,0.818988756919,-0.573666182229,-0.0120529791937,0.0,-0.00636900662485,0.0119158744007,-0.99990871968,0.0,0.263609952011,-0.261719240445,0.304948111463,1.0,-0.0102623529412,-0.0134876638656,3.031
-0.653935152229,-0.518142523579,-0.12513395429,-2.63959603073,-0.0672057834107,2.11097728386,-0.901725717719,-0.0435536074344,0.0067158846519,-7.76081355244e-05,0.00561660922272,0.000723808934515,0.00311012869792,-0.0451683496594,0.573771800993,0.818980652184,0.00611217098752,0.0,0.818978795268,-0.57368062593,-0.012042393251,0.0,-0.00635617537669,0.011915553507,-0.999908805151,0.0,0.263429788014,-0.261955307779,0.304948617807,1.0,-0.00992235294118,-0.0130408067227,3.048
-0.65465833899,-0.518009386089,-0.125127233308,-2.63950361082,-0.0671905962356,2.11099597832,-0.902461453043,-0.0495226007012,0.013653125074,-0.000748571897677,0.00796098447213,0.00604204876092,0.00457678966256,-0.0388073425646,0.573780182107,0.818974687582,0.0061245915961,0.0,0.818972853589,-0.573688691482,-0.0120622241845,0.0,-0.00636516989369,0.0119371692732,-0.999908490114,0.0,0.263252109327,-0.262181405612,0.304941442939,1.0,-0.00958235294118,-0.0125939495798,3.065
-0.655440562798,-0.517845055075,-0.125109225966,-2.63941241725,-0.0671783862563,2.11103193208,-0.90319079654,-0.0424307064563,0.00778515424971,-0.000704718817583,0.00327104552749,-0.000578965751485,0.00122821567169,-0.0376591100588,0.573808857991,0.818954634123,0.00611952947703,0.0,0.818952546027,-0.573717031018,-0.0120930796847,0.0,-0.00639292844946,0.011950950582,-0.999908148405,0.0,0.263086942546,-0.262393406909,0.304927692768,1.0,-0.00924235294118,-0.012147092437,3.082
-0.656064878795,-0.517706658535,-0.125063727772,-2.63933143548,-0.0671592354289,2.11105604375,-0.903785954,-0.0430004484609,0.00889249854542,0.00508318714215,0.00530568851983,0.00352432311732,0.000742697495958,-0.0392331297907,0.573813008458,0.818951786718,0.00611140390966,0.0,0.818949410164,-0.573720875703,-0.0121230060698,0.0,-0.00642204112264,0.0119614995075,-0.999907835712,0.0,0.262953990135,-0.262567708623,0.304916623669,1.0,-0.00894235294118,-0.0117528067227,3.097
-0.656811922302,-0.517561283837,-0.125017179378,-2.63924141465,-0.0671400561249,2.11109166976,-0.904530621805,-0.0394596983127,0.00380646985619,0.00238709471391,0.0041903573456,0.000980037508032,0.00107938029064,-0.0359309261989,0.573794929051,0.818964522638,0.00610220923913,0.0,0.818961933248,-0.573702667983,-0.0121386795437,0.0,-0.0064404181749,0.0119628201645,-0.999907701714,0.0,0.262792628854,-0.262777807133,0.304908089937,1.0,-0.00856235294118,-0.0112533781513,3.116
-0.657405359349,-0.517445717757,-0.12498145267,-2.63917723534,-0.0671280629337,2.11110454901,-0.905174406199,-0.0408625652058,0.00722620241266,0.00257678868706,0.00155559784238,0.000304266754154,2.74040982429e-05,-0.04525508922,0.573736961561,0.819005176725,0.00609642008696,0.0,0.819002285084,-0.573644318335,-0.0121737410246,0.0,-0.00647330480537,0.0119777377769,-0.999907310766,0.0,0.262659664799,-0.262941156696,0.304896597992,1.0,-0.00824235294118,-0.0108328067227,3.132
-0.657983824948,-0.517343494513,-0.124963938618,-2.63910663844,-0.0671142855802,2.11113147566,-0.905780536733,-0.0351768487756,0.00643829186093,0.00175259977993,0.00361567599989,8.62029509177e-06,0.00308024683309,-0.0389888944275,0.57371147898,0.819023019954,0.00609742346027,0.0,0.819020130307,-0.573618816134,-0.0121748441075,0.0,-0.00647400540634,0.011978991009,-0.999907291217,0.0,0.262530657597,-0.263108160666,0.30489370595,1.0,-0.00792235294118,-0.0104122352941,3.148
-0.658603718042,-0.517255977685,-0.124955415589,-2.63903652811,-0.0670994387684,2.11114870937,-0.906379061108,-0.038910118712,0.00407679425241,-0.000537815076438,0.00267469329965,0.000444589083515,0.000272727114384,-0.0342449783337,0.573732908493,0.819007957825,0.00610423080389,0.0,0.819005176455,-0.573640246504,-0.0121710900018,0.0,-0.00646671160801,0.0119825821947,-0.999907295385,0.0,0.262387448725,-0.263286571213,0.304894973204,1.0,-0.00758235294118,-0.00996537815127,3.165
-0.659180452782,-0.517191369779,-0.1249487568,-2.63896316791,-0.0670827883258,2.11117869565,-0.906900044518,-0.0355437814686,0.00339408771479,0.000742508108039,0.00352470799024,0.00328127924474,0.00347593189884,-0.0327808148089,0.573784617783,0.818971693472,0.00610938525204,0.0,0.818969252098,-0.57369242831,-0.0121288382986,0.0,-0.006428390947,0.0119629698422,-0.999907777319,0.0,0.262258492985,-0.263456852764,0.304907205247,1.0,-0.00726235294118,-0.0095448067227,3.181
-0.659745072178,-0.51713021187,-0.124959244362,-2.63888341723,-0.0670761423,2.11119945575,-0.907428261707,-0.0339933861145,0.00628408551124,0.00456092601775,0.00291219273412,-0.000668763918045,-4.55553904534e-05,-0.0347074505335,0.573828667286,0.818940791328,0.00611455649788,0.0,0.818938687758,-0.573736950035,-0.0120865528314,0.0,-0.00639014717444,0.0119432873232,-0.999908257745,0.0,0.262128016289,-0.263629024943,0.304922414279,1.0,-0.00694235294118,-0.00912423529412,3.197
-0.660360568846,-0.517060065151,-0.124956460274,-2.63876971234,-0.0670533945405,2.11122187856,-0.908018037493,-0.0330911641109,0.00844381555229,0.00139619049722,0.00196971028316,0.00109296281721,0.000800497539147,-0.0308288881108,0.573863022411,0.818916659264,0.00612238441615,0.0,0.818915098801,-0.573772091632,-0.0120164354679,0.0,-0.00632772770575,0.0119097303145,-0.999909054957,0.0,0.261996169152,-0.263818843524,0.30495019792,1.0,-0.00656235294118,-0.0086248067227,3.216
-0.660832646312,-0.517011216028,-0.124951914948,-2.63868722872,-0.0670398614953,2.11123140829,-0.90851390579,-0.0284979312258,0.00676417945547,-0.000966243660638,0.00601075150122,0.00498945010846,0.000292016164448,-0.0328669782874,0.573850115585,0.818925678149,0.00612579887597,0.0,0.818924448769,-0.573759713837,-0.0119701665882,0.0,-0.00628806124533,0.0118858767879,-0.999909589022,0.0,0.261892965863,-0.263962031278,0.304970586339,1.0,-0.00624235294118,-0.00820423529412,3.232
-0.661308977119,-0.516938598109,-0.124931050897,-2.63861315075,-0.0670227364179,2.11124195382,-0.908988822163,-0.0224902617557,0.00356973315803,5.28831620539e-05,0.00503203093481,0.00189457624444,-0.000257875848608,-0.0311512416431,0.573847521345,0.818927492337,0.00612629095883,0.0,0.818926363335,-0.573757295853,-0.0119550738566,0.0,-0.00627545534191,0.0118775993563,-0.999909766576,0.0,0.261790222165,-0.264099954987,0.304978862949,1.0,-0.00590235294118,-0.00775737815127,3.249
-0.661739525521,-0.516836004681,-0.124879814706,-2.63855556097,-0.0669985335491,2.11126322765,-0.90943939392,-0.0176896342181,0.00455218625568,0.00962188082878,-0.00154241756563,6.02817516685e-06,0.000106781576348,-0.0236874645671,0.573808199138,0.818955090228,0.00612026907559,0.0,0.818953755673,-0.573717766479,-0.0119757002432,0.0,-0.00629637479362,0.0118842011428,-0.999909556624,0.0,0.261704142428,-0.264215306061,0.304970226091,1.0,-0.00556235294118,-0.00731052100841,3.266
-0.662121157259,-0.516742494516,-0.12484213668,-2.6385169521,-0.0669769532127,2.11127870312,-0.909826719418,-0.028192444687,0.00660474657868,0.00178780607717,0.00166826957174,0.000127408255395,0.00191279340511,-0.0209804730688,0.573788204867,0.818969091632,0.00612125876677,0.0,0.818967537305,-0.573697333761,-0.0120120346596,0.0,-0.00632585707241,0.0119057052433,-0.999909114727,0.0,0.261622694456,-0.264315440572,0.304955497463,1.0,-0.00524235294118,-0.00688994957984,3.282
-0.662524240543,-0.51664095503,-0.12480038557,-2.63850418048,-0.0669470274405,2.11129685191,-0.910232708362,-0.0229197150577,0.00781584366054,0.00366134964337,-0.00199531678647,0.00528880810717,-7.27075602973e-05,-0.0189375055814,0.573770010275,0.818981760504,0.00613173477165,0.0,0.818979908182,-0.573678281929,-0.0120783168717,0.0,-0.00637440087342,0.0119521736922,-0.99990825207,0.0,0.261531578381,-0.264412982593,0.304926396387,1.0,-0.00488235294118,-0.0064168067227,3.3
-0.662884283076,-0.516555749068,-0.124751774028,-2.63848889554,-0.0669268632018,2.11131049934,-0.910590076415,-0.0207652295885,0.00380956286962,-0.00120175078131,0.000614319804484,0.00330193965804,0.00110403545412,-0.0149787063993,0.573747385774,0.818997628233,0.00612936924672,0.0,0.818995403143,-0.57365503303,-0.0121317604369,0.0,-0.00641986310871,0.0119807217388,-0.999907619565,0.0,0.261452669541,-0.264499025503,0.304904231083,1.0,-0.00454235294118,-0.00596994957984,3.317
-0.663205034316,-0.516494071783,-0.124725767883,-2.63847238037,-0.0669014582027,2.1113148349,-0.910914043627,-0.0192708432291,0.00180429178533,-0.000584599293011,0.00254774696927,0.000189385566234,0.00108882548718,-0.0242977039779,0.573738179759,0.819003983111,0.00614195695406,0.0,0.819001669657,-0.573645301513,-0.0121688147685,0.0,-0.00644312706654,0.0120122179079,-0.999907092051,0.0,0.261378939098,-0.264578540665,0.304889979624,1.0,-0.00422235294118,-0.00554937815127,3.333
-0.663547708327,-0.516449061756,-0.124715087905,-2.63844890416,-0.0668754509991,2.11132341188,-0.911259399096,-0.0213640492172,0.000380616087092,-0.00139005296482,-0.000781637580984,-9.60538158812e-05,0.000471493849052,-0.0162773064267,0.573740790499,0.819002015854,0.00616037700854,0.0,0.8189998678,-0.573647688404,-0.0121775626888,0.0,-0.00643968634363,0.012032344059,-0.999906872232,0.0,0.26129865002,-0.264669717871,0.304885039371,1.0,-0.00386235294118,-0.00507623529412,3.351
-0.66383880024,-0.516407263149,-0.124689583274,-2.63839571706,-0.0668566137119,2.11132643918,-0.911557982705,-0.016628029198,0.000404015020127,0.00520025351617,0.0015292134605,-0.000460040821435,-0.00025174999628,-0.0151668390313,0.573727222299,0.819011518753,0.0061606366585,0.0,0.819009480399,-0.573634320718,-0.012160757097,0.0,-0.00642597123425,0.0120228086952,-0.999907075165,0.0,0.261240552792,-0.264751888116,0.30489464938,1.0,-0.00352235294118,-0.00462937815127,3.368
-0.664100709893,-0.51636963008,-0.124675700083,-2.63833596805,-0.0668296681845,2.11133520089,-0.911821223453,-0.0152172646891,0.00295529239739,8.81539515706e-05,0.00238325465329,0.0036367023201,0.00463648077103,-0.0116117908443,0.573730691112,0.819009010498,0.0061710371506,0.0,0.819007315795,-0.573638132128,-0.0121267037372,0.0,-0.00639206047103,0.0120118179532,-0.999907424611,0.0,0.261190792772,-0.264830719174,0.304908997472,1.0,-0.00320235294118,-0.0042088067227,3.384
-0.664369430677,-0.516347851971,-0.124646834375,-2.63828797491,-0.0668109352707,2.11134904768,-0.912080683933,-0.0156621466354,-0.000230099444747,0.001076721829,0.00215838945609,0.00412981687088,0.000164093639795,-0.0176851797319,0.573728063881,0.819010877861,0.00616745990659,0.0,0.819009408213,-0.573636032554,-0.0120846313649,0.0,-0.00635968975476,0.0119847305872,-0.999907956053,0.0,0.261140267108,-0.26490684802,0.304924634934,1.0,-0.00284235294118,-0.00373566386555,3.402
-0.664557331259,-0.516334054313,-0.124626245364,-2.63827107382,-0.0667966619058,2.11135296154,-0.912263719458,-0.0179897500818,0.00179670539907,0.000906670174775,-9.63588536789e-05,0.000860868797527,0.000882469605872,-0.0181311331695,0.573724354967,0.819013463692,0.00616909320144,0.0,0.819012069388,-0.573632419202,-0.0120757914219,0.0,-0.0063515661892,0.0119809681042,-0.999908052778,0.0,0.2611004826,-0.264954744627,0.304928048191,1.0,-0.00256235294118,-0.00336766386555,3.416
-0.664771517148,-0.516329680219,-0.124596525342,-2.63825616217,-0.0667784894729,2.11135528845,-0.912473868405,-0.0156293617654,-0.00162053637781,0.0060058407986,0.000314339373387,0.000481302548389,0.000212073452948,-0.0112125973938,0.573715009806,0.819020004202,0.00616985744231,0.0,0.819018713522,-0.573623249502,-0.0120607393584,0.0,-0.00633893516911,0.0119728864194,-0.999908229735,0.0,0.26105561474,-0.265006554076,0.304934115655,1.0,-0.00222235294118,-0.0029208067227,3.433
-0.664976146424,-0.51631050065,-0.124565887248,-2.63824608573,-0.0667604996969,2.11135959629,-0.912661009161,-0.0149681076385,0.00290679331797,0.00610141738483,0.00071101097239,-0.000194298385574,0.000125459378259,-0.00795491375263,0.573715799854,0.81901944173,0.0061710589017,0.0,0.819018148316,-0.573623999427,-0.0120634535347,0.0,-0.0063404575649,0.0119754336927,-0.999908189578,0.0,0.261012345661,-0.265054451032,0.304932714457,1.0,-0.00186235294118,-0.00244766386555,3.451
-0.665155896085,-0.516302739507,-0.124539259008,-2.63824101588,-0.0667470636109,2.11136563905,-0.912823798758,-0.00827350732862,0.00470828525687,0.00224304906071,-0.00102570257003,-5.02155196479e-05,0.000142888698492,-0.00757315385033,0.573716775209,0.819018765937,0.00617007186793,0.0,0.819017492203,-0.573625040331,-0.0120585020575,0.0,-0.00633695375612,0.0119717921964,-0.999908255396,0.0,0.260973749969,-0.265096313457,0.304933302586,1.0,-0.00152235294118,-0.0020008067227,3.468
-0.665318683916,-0.516296750393,-0.124522089997,-2.63823227683,-0.0667306575845,2.11136850234,-0.912945761774,-0.00516696748238,0.00124749415888,0.0020274271314,-0.00169250041549,0.00163288769277,2.60264640629e-05,-0.00278802437955,0.573745445194,0.818998641335,0.00617547667022,0.0,0.81899748299,-0.5736537658,-0.0120510057832,0.0,-0.00632729373569,0.0119721400281,-0.999908312405,0.0,0.260938187232,-0.265136021751,0.304935719935,1.0,-0.00118235294118,-0.00155394957984,3.485
-0.665446482085,-0.516261988777,-0.124491486883,-2.63822583989,-0.0667115920099,2.11137503161,-0.913025023386,-0.00700782597505,0.00064301712618,0.00552201487619,0.000176288360389,0.000239667839617,0.00229506784349,-0.00414378605163,0.573772053761,0.818979985258,0.00617745674471,0.0,0.818978725614,-0.573680119735,-0.0120712101042,0.0,-0.00634231745746,0.0119855594243,-0.99990805646,0.0,0.260914538263,-0.265162854846,0.304927104917,1.0,-0.000862352941182,-0.00113337815127,3.501
-0.665536627954,-0.516241070774,-0.124477196977,-2.63821610166,-0.0666968781367,2.11138340075,-0.91309284455,-0.00630379733364,-0.0012843296495,-0.000169499124964,-0.000934190984515,-0.000374854763632,-3.8811686572e-06,-0.00151749502247,0.573787007881,0.818969472889,0.00618214884151,0.0,0.818968262296,-0.573695027292,-0.0120726100523,0.0,-0.0063405531179,0.0119903213441,-0.999908010559,0.0,0.260898192091,-0.265185181442,0.304924868787,1.0,-0.000542352941182,-0.000712806722696,3.517
-0.665578890335,-0.51621184349,-0.124464459971,-2.63820904342,-0.0666846070282,2.11138409622,-0.91312815561,-0.000991780381553,0.000787538883023,0.00721738536665,-0.000687114359945,-7.62502551731e-05,5.05723008601e-05,-0.00513200605414,0.573789355824,0.818967791116,0.00618701538277,0.0,0.818966509909,-0.573697099988,-0.0120929737819,0.0,-0.00635440558552,0.012006009184,-0.99990773438,0.0,0.26089198848,-0.265193658166,0.304917656685,1.0,-0.000182352941182,-0.000239663865554,3.535
-0.665576950175,-0.516195469674,-0.124440197957,-2.63820902947,-0.0666699704071,2.11138413715,-0.913140329727,0.000291487507397,-0.000123767485318,0.000619183326127,-0.000410097002047,0.000282697580717,-8.05813533284e-05,-0.00222025200401,0.573766889891,0.818983520059,0.00618844391784,0.0,0.818982156032,-0.573674440991,-0.0121082928702,0.0,-0.0063664627857,0.0120157940256,-0.999907540148,0.0,0.260898870583,-0.2651861751,0.304912202787,1.0,0.0,0.0,3.554
-0.66557515983,-0.516181303992,-0.124404104967,-2.63820906602,-0.0666601230918,2.11138495149,-0.913145565199,-0.000250976341551,0.00286443635368,-4.58176648891e-05,-0.00063357234867,0.00047141420794,-0.000134880156751,0.000681748923422,0.573739765839,0.819002588053,0.0061797054566,0.0,0.819001031382,-0.573647213274,-0.0121215593217,0.0,-0.00638274052923,0.0120160370954,-0.999907433454,0.0,0.260908062309,-0.265176789217,0.304907880705,1.0,0.0,0.0,3.572
