nelsonifechukwu/NELSON_IML_WORK/CNN-GradCAM/train2dof/data_sample_2022-07-06-09-08-33/robot_state.csv
position_joint1,position_joint2,position_joint3,position_joint4,position_joint5,position_joint6,position_joint7,velocity_joint1,velocity_joint2,velocity_joint3,velocity_joint4,velocity_joint5,velocity_joint6,velocity_joint7,ee_T_00,ee_T_10,ee_T_20,ee_T_30,ee_T_01,ee_T_11,ee_T_21,ee_T_31,ee_T_02,ee_T_12,ee_T_22,ee_T_32,ee_T_03,ee_T_13,ee_T_23,ee_T_33,v_x,v_y,w_z,time
0.4650995837305482,0.5472793138236348,-0.12398285828155971,-1.3555653446294775,0.07945440446668199,1.8941816867192587,0.15913380751010986,0.0004469863771185015,-0.002019866798474368,0.0004093357924860008,0.0002877867016057065,-0.0001482144742334935,-0.00017258657493252047,-0.0007084068503206907,0.5737325474703496,0.8190266760543607,0.0026485440786371264,0.0,0.8189933551691266,-0.5736722199425985,-0.011437445350947248,0.0,-0.007848327791762366,0.00873134276443309,-0.9999310813273098,0.0,0.6617623778488214,0.2609474863360476,0.303704134435295,1.0,5e-324,6.91600868191397e-310,6.91579648233497e-310,0.0
0.4650939417486143,0.5472765297638743,-0.12398035263178635,-1.3555632287379498,0.07945379411511949,1.8941814408832125,0.15913887814282301,-0.00027760873850349397,0.0007063003144552539,0.0010685918763525641,-0.00020355568328939957,-0.0003143216997477086,0.00018481180607381046,0.001105027129743602,0.5737392838637083,0.819021943485664,0.002652761152714506,0.0,0.8189886731002844,-0.5736789376380691,-0.011435766047808134,0.0,-0.007844461164012217,0.0087338977138115,-0.999931089355547,0.0,0.661763817423698,0.2609453750159571,0.3037070090325999,1.0,-0.00018,-0.00023657142857142863,-9e-05,0.010000000000000002
0.4650939111751486,0.5472736867608297,-0.1239828582855693,-1.355566405544762,0.0794551165254477,1.8941809746610563,0.15913909074583524,-0.0002017281784670195,-0.0015367864736464925,9.315768698722007e-05,-0.0023796894725006497,0.00016404964414246475,0.004906610077396427,0.001952802685940256,0.5737417494559569,0.8190202175269218,0.0026523790415931827,0.0,0.8189869393931901,-0.5736814010146015,-0.011436351450849796,0.0,-0.00784513357151806,0.008733944237680022,-0.999931083673919,0.0,0.6617635803619973,0.2609437472765559,0.3037075554258339,1.0,-0.0004600000000000003,-0.000604571428571429,-0.00023000000000000014,0.024000000000000014
0.46508822101113934,0.5472588658444482,-0.12398380410177784,-1.3555758236154694,0.07945572689506741,1.8941830969798712,0.1591342880693516,-0.00044560252296382147,-0.0002530383200731298,0.0002673524384141783,0.0011243717235884442,0.00032626236648433183,-0.00012795607616312087,0.0012008715558078599,0.5737437969592759,0.81901875995486,0.002659547699272899,0.0,0.81898556768643,-0.573683417938849,-0.011433407389905916,0.0,-0.007838587645351724,0.008738145986732948,-0.9999310983004981,0.0,0.6617639021528462,0.26093875389843296,0.30371378875425176,1.0,-0.0007800000000000005,-0.001025142857142858,-0.00039000000000000026,0.04000000000000003
0.4650904239786692,0.5471901366385279,-0.1239858109095654,-1.3556458637822908,0.07945252372455967,1.894192647786124,0.15913029933755773,0.00044647516688841964,-0.00432438335748172,-0.000643203753750879,-0.010726803149467886,8.462018093127708e-05,0.0005820580371966935,-0.0007499111224637988,0.5737430432141193,0.8190192608156874,0.0026678975869808648,0.0,0.8189861580394944,-0.573682617274059,-0.01143129382450632,0.0,-0.007832074139692946,0.00874376484611969,-0.9999311002219033,0.0,0.6617516282018066,0.26093176545799357,0.30373002447230973,1.0,-0.001120000000000001,-0.0014720000000000015,-0.0005600000000000005,0.057000000000000044
0.4650897433761219,0.5470687893157118,-0.1239837753269894,-1.3558086409314014,0.07944955397345388,1.894228269921015,0.1591341123881182,2.1804989689880235e-06,-0.001141891079758422,-0.0002391614552632448,-0.005600302589336617,-7.150936940509944e-05,0.005495500328527739,0.00035392081337187997,0.573753434751698,0.8190119796410293,0.0026683733470806324,0.0,0.8189787878706828,-0.5736928998251705,-0.011443277907251442,0.0,-0.00784150582238391,0.008751129659846174,-0.9999309618749257,0.0,0.6617244973315459,0.26091669792073235,0.30374151541992755,1.0,-0.001460000000000001,-0.0019188571428571445,-0.0007300000000000005,0.07400000000000005
0.4650744750052566,0.5469066174673112,-0.1239866722965377,-1.3560176833229036,0.07944888660813176,1.8942875807411867,0.15913293035599504,-0.00034493255919588436,-0.010545233201499804,-0.0010852791422779468,-0.014025372940395608,0.000592701494220399,0.008742165300954327,0.00104002653807334,0.5737783433267211,0.818994471936132,0.002685994882314186,0.0,0.8189614025411044,-0.5737176314636452,-0.01144759349646893,0.0,-0.007834664010135384,0.008768276184007634,-0.999930865296501,0.0,0.6616973648426303,0.26088614966845974,0.3037621237528031,1.0,-0.0018000000000000013,-0.002365714285714288,-0.0009000000000000006,0.09100000000000007
0.4650463398422517,0.5467316599891717,-0.12398086601791204,-1.3562325669733735,0.07944529800448184,1.8944117202157635,0.15913184933802965,-0.0006972451878645414,-0.00945949639169698,0.000336736058584044,-0.010802314258383069,-0.0008714106351756339,0.0037190832649936483,-0.0013605864335117825,0.5738077139322416,0.8189736378639492,0.002763117252744772,0.0,0.8189415192955068,-0.5737467046383617,-0.011412878330903603,0.0,-0.007761666502998865,0.00881179871982836,-0.9999310519912948,0.0,0.66168367459441,0.26085553923008253,0.3037943519927528,1.0,-0.0021400000000000017,-0.002812571428571431,-0.0010700000000000009,0.10800000000000008
0.4650227847272104,0.5465188971403353,-0.12398359987852688,-1.3564835092859333,0.07943860607560735,1.8945315367101714,0.1591238628703987,-0.0033088602617125395,-0.013282970879475152,0.0004004829099245606,-0.017352205585325353,-0.00036592333671740855,0.001920241751555178,0.0009389841713161961,0.5738346882500567,0.8189544866768326,0.002836584928090532,0.0,0.818923297891774,-0.5737734291673124,-0.011376776909654718,0.0,-0.007689653482426395,0.008851505134207016,-0.9999312576803364,0.0,0.6616627761350006,0.26081843153893797,0.3038360840157547,1.0,-0.002480000000000002,-0.003259428571428575,-0.001240000000000001,0.12500000000000008
0.46499093543307635,0.5462979912965265,-0.12398916046633247,-1.356784682405995,0.07942569616653747,1.894659421997178,0.15911428110671727,-0.0017141452582341984,-0.011939877843224051,-0.0006933357712210073,-0.018996814292431854,-0.00037904297276237944,0.010920982776845408,-0.0017795788245404264,0.5738702766650174,0.8189294034806229,0.0028782940251783004,0.0,0.8188987590975383,-0.5738088952841411,-0.011354335846440973,0.0,-0.007646955994353277,0.008873118094100282,-0.9999313935662328,0.0,0.6616353358129626,0.26076788329317313,0.3038604391038769,1.0,-0.002800000000000002,-0.0036800000000000036,-0.001400000000000001,0.1410000000000001
0.46495233496504745,0.546042012630487,-0.12398673776732852,-1.3571949140396564,0.07941192568199891,1.8947944662560852,0.15910768231156283,-0.0012345346530202213,-0.013562534987365036,-0.0006079651880831226,-0.02431515758418149,-0.002600565774290546,0.0034989352124028014,0.0013980809424793761,0.573914003745618,0.8188987945799993,0.0028683516708609058,0.0,0.8188679026691074,-0.5738525084635178,-0.011375561948059696,0.0,-0.007669570828461925,0.008877566339964352,-0.9999311808815579,0.0,0.6615851961824618,0.26070534912178467,0.3038580487704959,1.0,-0.003140000000000002,-0.0041268571428571465,-0.001570000000000001,0.1580000000000001
0.4649136632406643,0.5457534012762454,-0.12398995372182442,-1.3576537356588991,0.07938464601483768,1.8949513599229995,0.15909675226623127,0.0005250782307350387,-0.013736775293525278,-0.0010512631383774215,-0.028314563499524163,-0.0024452194496125566,0.007757546925338499,0.0019589077507465866,0.5739573291539134,0.8188684718999514,0.0028560357058484177,0.0,0.8188374174017251,-0.573895861403391,-0.011382927046277705,0.0,-0.007682200910700265,0.008872114122509225,-0.9999311323187037,0.0,0.6615311636524873,0.2606334616981576,0.3038576797777467,1.0,-0.0034800000000000026,-0.00457371428571429,-0.0017400000000000013,0.17500000000000013
0.46486254524349113,0.5454353197244651,-0.12398705389625966,-1.3581687787354562,0.07934001857253556,1.895124148534948,0.15906538864333408,0.0003464127172825123,-0.01910045722776148,-0.001522967334167728,-0.029570114946080167,-0.00239222130258354,0.006057702911445874,-0.00586989701806175,0.5739883482355598,0.8188468251372821,0.00282841892496624,0.0,0.8188154883852993,-0.5739270458545448,-0.011388104242029226,0.0,-0.007701955171377062,0.008852762809938158,-0.999931151868552,0.0,0.6614709468038691,0.2605488668290736,0.3038525387186015,1.0,-0.003820000000000003,-0.005020571428571433,-0.0019100000000000015,0.19200000000000014
0.4648163074612851,0.5451198921100442,-0.12399494538535359,-1.3586821852381614,0.07930518436529824,1.8952934510884738,0.15896695647412776,-0.002107801102891067,-0.021765553759228583,-0.0013739317663183303,-0.029822316654420603,-0.0036316000778194375,0.01859060694909827,-0.0022904965949130576,0.5739704715788516,0.8188594518110368,0.0028005064697537154,0.0,0.8188277898528782,-0.5739092969254866,-0.011398086170607315,0.0,-0.00772634265030514,0.00883546752766616,-0.9999311166989543,0.0,0.66141094927113,0.2604627639110564,0.3038463468607204,1.0,-0.004120000000000003,-0.0054148571428571475,-0.0020600000000000015,0.20700000000000016
0.4647556656977336,0.5447648082401733,-0.12399310294983854,-1.3592856397044393,0.07928600740537227,1.8955015298664284,0.15892341925890896,-0.001833989449342945,-0.02035782693118696,-0.0002798224345826557,-0.03875615514086272,-0.0008634745005383098,0.018686693326339775,0.0008453058486285591,0.5740117717635302,0.8188305875078874,0.0027752008196452503,0.0,0.8187984271247639,-0.5739504746446926,-0.011433953574901609,0.0,-0.007769792688190946,0.008835724130941733,-0.9999307777544726,0.0,0.6613396402345191,0.26036777551861967,0.303828414627583,1.0,-0.004440000000000004,-0.005835428571428577,-0.002220000000000002,0.22300000000000017
0.4647049106982702,0.5443836086894377,-0.1239965823313648,-1.3599615352985517,0.07924805044720365,1.8957132000938437,0.15891520629303785,-0.005176717299348058,-0.026282680532455804,0.0021220180862580973,-0.03878089006668914,-0.0004063801983910411,0.01558295736612563,0.0001571964159503787,0.5741085449956556,0.8187630796455343,0.0026729896259190438,0.0,0.818729499587534,-0.5740474515021219,-0.01150116647446442,0.0,-0.007882459361266803,0.00879154267367857,-0.9999302853758529,0.0,0.6611977008389721,0.2601967447983097,0.30378250463160533,1.0,-0.004960000000000004,-0.00651885714285715,-0.002480000000000002,0.2490000000000002
0.4646271133559834,0.5438311346038017,-0.12399925916826318,-1.3608828051795567,0.07920424011499148,1.8960246955545883,0.1588471247785967,-0.003441829392306873,-0.01971324032897602,-0.0007737044588809097,-0.0422599166400467,-0.004444143069246299,0.015497463557494926,-0.0017416048373254441,0.5741260012109707,0.8187508807183601,0.0026602551791618714,0.0,0.8187170473202631,-0.5740648485971369,-0.01151924188237233,0.0,-0.0079043826336046,0.008791661811043572,-0.9999301112666732,0.0,0.6611408857580786,0.2601241498017597,0.303774395268245,1.0,-0.005180000000000003,-0.006808000000000005,-0.0025900000000000016,0.2600000000000002
0.4645733643781373,0.5434296087806728,-0.1239995200554217,-1.3615318955269375,0.07917301347213287,1.8962584090392414,0.15880080193133575,-0.007041883854706824,-0.02862354087677376,0.0019462122698146265,-0.048494145638078245,-0.0008843170944135142,0.014687417966733233,-0.0049694920380163364,0.5741601103849194,0.8187269886468342,0.002651905969638624,0.0,0.8186929708175523,-0.5740988962216051,-0.011533594074407065,0.0,-0.007920560950103739,0.00879339572362521,-0.9999299680007011,0.0,0.6610645359816758,0.26002749591500796,0.3037697764648775,1.0,-0.005460000000000004,-0.007176000000000006,-0.002730000000000002,0.2740000000000002
0.4645118205676429,0.5429435387150195,-0.12400050510322469,-1.3623165609895787,0.07912808126905724,1.8965319892577426,0.15875808219486376,-0.005623615054357738,-0.02796222646614778,-5.32150204289371e-06,-0.04859847295174311,-0.001522360798660582,0.013451720504207669,-0.003875612470932644,0.5742078634305237,0.8186935659409869,0.0026308862751170696,0.0,0.8186592359914069,-0.5741466689594705,-0.011550097398651926,0.0,-0.007945628812974781,0.008786125257799551,-0.9999298330311585,0.0,0.6609700357708279,0.25991077763526077,0.3037638550122518,1.0,-0.005780000000000004,-0.007596571428571435,-0.002890000000000002,0.2900000000000002
0.46444186674283744,0.5423932185963811,-0.12400239052980952,-1.363203065624231,0.07907609473965597,1.8968287443284348,0.15868164222297418,-0.0032946296831641397,-0.03747455589222176,0.000845659185326877,-0.048479860678192155,-0.004251269797444402,0.01702838208121329,-0.0015428677262821233,0.5742391728435172,0.8186717116786738,0.0025976470721737113,0.0,0.8186369012022401,-0.5741780312203691,-0.011574081177486125,0.0,-0.007984014683997953,0.008772989458597433,-0.9999296426076612,0.0,0.6608610660891316,0.25977717028601777,0.30375687633712145,1.0,-0.006120000000000005,-0.00804342857142858,-0.0030600000000000024,0.3070000000000002
0.4643395252102735,0.5415925340119719,-0.12401149914388941,-1.36446521032914,0.07899940561347235,1.897288214761466,0.15860500664386915,-0.005378347396612453,-0.03336952034512226,-0.00047712102060709454,-0.05614697949528546,-0.00565944731605869,0.025737472785411584,-0.01143694594995706,0.5743082328639982,0.8186232632399202,0.0025987397453300677,0.0,0.8185885158533103,-0.5742471327280603,-0.01156802350812612,0.0,-0.007977687901209507,0.008771078520341077,-0.9999297098683193,0.0,0.660723537589616,0.2595931736656861,0.3037662935259978,1.0,-0.006560000000000005,-0.008621714285714293,-0.0032800000000000025,0.32900000000000024
0.464224150091521,0.5407724900499252,-0.12401132133378376,-1.3657303390712965,0.07892027028975161,1.8977441060579914,0.15850824739164335,-0.010141699661256711,-0.03359653410594774,-0.0018600927666482968,-0.05757341952398847,-0.004903361863395312,0.026973773731515382,-0.0018937623403501246,0.5743803237723561,0.8185726814695001,0.002599176062465529,0.0,0.8185379279228291,-0.5743192001956358,-0.011569949855320527,0.0,-0.007978241766051442,0.008773244644551967,-0.9999296864463665,0.0,0.6605708442876422,0.25938632611643725,0.30377940732616676,1.0,-0.007020000000000005,-0.009226285714285723,-0.0035100000000000027,0.35200000000000026
0.4641713279019553,0.5404585306459577,-0.12401220181927086,-1.3662216771010098,0.0788951535032671,1.8979307728388968,0.1584916552449087,0.00017701384797774201,-0.04080124700438223,0.0005525637773844615,-0.06322684953561836,-0.0019484194709784549,0.01917906451386574,-0.00011113228420684359,0.5744238446235529,0.8185420891115455,0.002615718259208811,0.0,0.818507513686224,-0.5743626199743136,-0.011566231739269437,0.0,-0.00796523005389721,0.008785073492214579,-0.999929686324956,0.0,0.6605084872804744,0.25930394142302815,0.3037888914906938,1.0,-0.007200000000000005,-0.009462857142857151,-0.0036000000000000025,0.36100000000000027
0.4640838698979005,0.5398020261351407,-0.12401268280332188,-1.3672205032649116,0.07884603967778107,1.8983063660786994,0.15838690548118023,-0.007468269402441536,-0.03652619187769508,-0.0012534844591500906,-0.06067500247167128,-0.0030865258611136414,0.019460731249082458,-0.0046881429552907295,0.5744595384098969,0.8185169538576865,0.0026423244748359402,0.0,0.8184826438977806,-0.5743981323990784,-0.011562613707905366,0.0,-0.007946602104005107,0.008805119981499673,-0.9999296582145725,0.0,0.6604052857736005,0.25915487283575916,0.3038047596865908,1.0,-0.007500000000000006,-0.009857142857142866,-0.003750000000000003,0.3760000000000003
0.4639869743936604,0.5391015260372961,-0.12401587855424269,-1.3682939144270185,0.07877431495302151,1.8986928356161945,0.1583277171928034,-0.00413560442898512,-0.041724926466357046,0.0007787864308437158,-0.0733528275602403,-0.009450883157187851,0.022168769674351774,0.0014327870366710304,0.5745327406877424,0.8184655527030998,0.0026487388412460323,0.0,0.8184313840466838,-0.5744713686563455,-0.01155262319749774,0.0,-0.007933952256333254,0.00880534079370661,-0.9999297567204912,0.0,0.660282567672661,0.25898543459782836,0.30382233661885893,1.0,-0.007820000000000006,-0.010277714285714295,-0.003910000000000003,0.3920000000000003
0.46388773225662516,0.5383567487747534,-0.12403006510215372,-1.3694663497798019,0.07870836193923673,1.8991508278246148,0.1582312321814406,-0.005709687890309603,-0.04307487803281373,-0.001519811328252387,-0.07252065498933846,-0.007813496986735778,0.027998701903387716,-0.0018041827158262955,0.574596360552756,0.818420823195972,0.002669363213093673,0.0,0.8183869704886251,-0.5745349665193984,-0.011536276791604457,0.0,-0.007908038898392866,0.008813444417998736,-0.9999298906014724,0.0,0.6601482644011337,0.25878819916586787,0.3038302717851064,1.0,-0.008180000000000007,-0.010750857142857154,-0.004090000000000003,0.4100000000000003
0.4637786060674384,0.5376009772107885,-0.1240368251936735,-1.3706655286225204,0.07864014739805925,1.8996134703581753,0.15813993186994252,-0.007273853919962188,-0.0484727436228958,-0.0005503506386609312,-0.06946486102432138,-0.0007149564899095721,0.03129583855114417,-0.004676292124522481,0.5746596441448164,0.8183763343135915,0.0026862107159038046,0.0,0.818342715078838,-0.5745982039192556,-0.011526128203776105,0.0,-0.007889370590359102,0.008822011553536097,-0.9999299625192941,0.0,0.6600231534422838,0.2586146605965083,0.30383380357074863,1.0,-0.008500000000000006,-0.01117142857142858,-0.004250000000000003,0.4260000000000003
0.46368982984317153,0.5368203774443361,-0.12404641080525163,-1.3718770209815776,0.0785723685712373,1.9000583475819668,0.15805239437804644,-0.008959423029035019,-0.047157707547109864,-0.0029445032225996755,-0.07823642066779182,-0.00049375105384996,0.024336828200549422,-0.007160855677328209,0.5747092966616464,0.8183414507542334,0.002690949523938858,0.0,0.8183078934927693,-0.5746478354055989,-0.011524044962350679,0.0,-0.007884407153199935,0.008825170923327089,-0.9999299737891734,0.0,0.6598701230048464,0.25842877840252493,0.30384360063584254,1.0,-0.008840000000000008,-0.011618285714285727,-0.004420000000000004,0.44300000000000034
0.463571391931782,0.5359363659608327,-0.12405563116487926,-1.373280709963754,0.07848468086712189,1.9005804067570418,0.15795191004933892,-0.008599965314139117,-0.04367237852590066,-0.001561502538728489,-0.07533090618971602,-0.006678057853373625,0.02746752783874335,-0.004673272468065528,0.574790895981517,0.8182841286335495,0.0026939978481402543,0.0,0.8182506603832106,-0.5747294700556188,-0.011516941140578175,0.0,-0.007875961826820377,0.008824368331906252,-0.9999300474277414,0.0,0.6597201845449835,0.2582188818836998,0.3038485348935306,1.0,-0.009180000000000008,-0.01206514285714287,-0.004590000000000004,0.46000000000000035
0.4634707583686796,0.5350957797168696,-0.12405490483477583,-1.3745783396638593,0.0784138497906711,1.901039414080261,0.1578626060181382,-0.008007483592173107,-0.05303010141014223,0.0004393212441390652,-0.07555082993404579,-0.002486692007040348,0.033448982727494435,-0.006973609025843897,0.5748517836486835,0.818241336476744,0.0026998181211526128,0.0,0.8182078442611944,-0.5747902197856094,-0.011527086772833112,0.0,-0.007880261554902124,0.008835548868137075,-0.9999299148210463,0.0,0.6595624322838717,0.2580296029829644,0.30386380157011766,1.0,-0.009500000000000007,-0.012485714285714296,-0.004750000000000003,0.47600000000000037
0.4633472750158108,0.5341957434309996,-0.12406277017990627,-1.3760167260823135,0.07835186048573203,1.9015716283885649,0.15774720736169262,-0.0069882628611205614,-0.05369802199395934,-0.0007618848267698348,-0.08342869033283787,-0.006029890609505993,0.03493090630781328,-0.011207935993926546,0.5749262662005861,0.8181889884647278,0.002704531184278827,0.0,0.818155375099543,-0.5748644732296626,-0.011548442116457568,0.0,-0.007894221267246093,0.00885239986811985,-0.9999296556694168,0.0,0.6593952220611354,0.25781073674947186,0.30386051758790655,1.0,-0.009840000000000008,-0.012932571428571443,-0.004920000000000004,0.4930000000000004
0.46322077076531615,0.5332820424403766,-0.12406024520572592,-1.3774812742236908,0.07825119497277329,1.9021092863035123,0.15763971484208492,-0.0033512991584739435,-0.050953460897775055,0.0002131478551073884,-0.08669936742169773,-0.003971697542789031,0.03319127334560732,-0.0026425121899559443,0.5749981011946084,0.818138572600591,0.00268450123313426,0.0,0.8181047843409828,-0.5749364599693043,-0.011548841394995242,0.0,-0.007905287179605591,0.008836935313904962,-0.9999297050337418,0.0,0.6592347445040548,0.25759926618436135,0.3038552635850933,1.0,-0.010160000000000008,-0.013353142857142869,-0.005080000000000004,0.5090000000000003
0.4630606948199755,0.532074212171605,-0.12406275378476166,-1.3794240637659025,0.07814635010731012,1.902848814072958,0.15750482581945013,-0.00843965954382812,-0.05510838388874315,-0.0004931459132035357,-0.08555511358049027,-0.007526503100688514,0.036991401408374175,-0.0035600747156997177,0.5750943633797624,0.8180709089254896,0.002684786743276767,0.0,0.8180370344561328,-0.5750326086185074,-0.011560976810732662,0.0,-0.007914011252292463,0.00884507787979194,-0.9999295640309867,0.0,0.6589873580247653,0.25728659793847264,0.30383886086988554,1.0,-0.010640000000000007,-0.013984000000000012,-0.0053200000000000035,0.5330000000000004
0.462970605731557,0.5313947937912463,-0.12405986526007332,-1.3805100896440918,0.07807965205932708,1.903246714177002,0.15742956437527583,-0.008723018737251481,-0.05439942566414261,0.00033610869349121937,-0.09325521314162116,-0.006461306819969946,0.035331982534467815,-0.0024937208914401114,0.5751451742884244,0.8180351930945515,0.002682955964227022,0.0,0.818001270690081,-0.5750833921593381,-0.011565470726695934,0.0,-0.007918191111936035,0.008846656390325919,-0.9999295169761848,0.0,0.6588684974650294,0.2571371396470375,0.3038416310850002,1.0,-0.010860000000000007,-0.014273142857142868,-0.005430000000000003,0.5440000000000004
0.46285293437540664,0.5305003092692744,-0.12406568408643857,-1.3819505348034167,0.07798771766609446,1.9037647289222792,0.15731186729807994,-0.006717732279749757,-0.06013595045983307,-0.0006521875626275626,-0.09383625723748713,-0.011541312841026876,0.03630391022455513,-0.005283130824557326,0.5752029077536136,0.8179946941317814,0.002653711598750736,0.0,0.8179604246155121,-0.5751412515310917,-0.011577195310982337,0.0,-0.00794397827340132,0.008830037478213718,-0.9999294593356696,0.0,0.6586960280694556,0.25691727690230515,0.30383135924968097,1.0,-0.011160000000000008,-0.014667428571428585,-0.005580000000000004,0.5590000000000004
0.46270880879151294,0.5294832953230731,-0.12406370397526832,-1.3836023329556975,0.07788142471419086,1.9043600177660638,0.15721591487633774,-0.009219308166678188,-0.065600599320101,-0.0034239574607312258,-0.09849818338960889,-0.009143657436169572,0.0445353037449216,-0.0023689446028810875,0.5753020382841668,0.8179251034887366,0.0026147141776916953,0.0,0.8178903364947782,-0.5752405101182972,-0.011597408697990828,0.0,-0.007981875867961064,0.008810731955291348,-0.9999293278327427,0.0,0.6584982649544234,0.25666399339746687,0.3038130545957315,1.0,-0.011500000000000008,-0.015114285714285728,-0.005750000000000004,0.5760000000000004
0.46257840453353405,0.5284771547280296,-0.12407134568248873,-1.3851737461489595,0.07778758658817535,1.9049348901084393,0.1570901345980655,-0.010059716687321973,-0.06480957628355384,-0.000390833340702183,-0.09855869603047109,-0.004609779338647351,0.037904461752304164,-0.006692091227097564,0.5753796263066888,0.8178705142433274,0.0026181030803109195,0.0,0.8178358233530922,-0.5753181124323181,-0.011592344408815384,0.0,-0.007974948103069701,0.008811346928004865,-0.9999293776902786,0.0,0.658300405158341,0.25640934819212235,0.3038239834345781,1.0,-0.011840000000000009,-0.01556114285714287,-0.005920000000000004,0.5930000000000004
0.4624321077229891,0.5273725812533165,-0.1240723351226896,-1.3869115236584981,0.07767674828318936,1.9055943693620976,0.1569805005918246,-0.006388716992164748,-0.06411714969106205,-0.00022206228357281532,-0.09764315425837253,-0.011555764938809372,0.03644562840111071,-0.010907890730386277,0.5754660849263404,0.8178096223937692,0.0026369529610705397,0.0,0.8177752070193205,-0.5754045311142417,-0.011579432581758843,0.0,-0.007952609817469591,0.008820175302839378,-0.9999294777656665,0.0,0.658110217787313,0.256162356460049,0.3038312604351922,1.0,-0.01216000000000001,-0.0159817142857143,-0.006080000000000005,0.6090000000000004
0.4622853891807038,0.526228270208315,-0.12407618714908146,-1.3886756881407574,0.07756928491626996,1.906271937429719,0.15684374034590062,-0.010371557262003929,-0.06950724303330319,0.0027763212621184754,-0.10584212001139559,-0.005762018231994068,0.03524706367948374,-0.007363275899447786,0.5755433565411481,0.8177550947783719,0.0026826491706820254,0.0,0.8177213140950108,-0.5754816882502533,-0.01155101140917699,0.0,-0.007902235098483368,0.008841937517685389,-0.9999296849385868,0.0,0.6579064997904569,0.2558977586022741,0.30385563798067206,1.0,-0.01250000000000001,-0.016428571428571445,-0.006250000000000005,0.6260000000000004
0.46212819677757255,0.5250667005341482,-0.12408511734158321,-1.3904984782663812,0.07745863710488801,1.9069324264651812,0.1567124998453682,-0.010187904498919527,-0.06779646337521751,-0.0030078004421670627,-0.1099599039261953,-0.0020739052156356903,0.04858705067351217,-0.0025882388523614883,0.5756391654609079,0.8176876687406645,0.00267852163241287,0.0,0.8176538428270148,-0.5755775079776617,-0.011553030842539919,0.0,-0.007905226250379038,0.008840650748503681,-0.9999296726731703,0.0,0.6576895269413601,0.25561496952656043,0.30386263610054237,1.0,-0.01284000000000001,-0.016875428571428586,-0.006420000000000005,0.6430000000000005
0.4619134095425397,0.5234029793299609,-0.12409158788799325,-1.393156534203074,0.07729087069229636,1.9078856994189912,0.1565113508779302,-0.006157676039826315,-0.06904689064199572,-0.001773746209914098,-0.10898710384252992,-0.010664169014487862,0.03790331240463228,-0.005089703453678899,0.5757465093067452,0.8176121889141909,0.00264810521913599,0.0,0.8175779823300039,-0.5756849543124404,-0.011568192974328748,0.0,-0.007933974001015198,0.008825549165185298,-0.9999295783896404,0.0,0.6573780241339802,0.2552340650123496,0.303857061536437,1.0,-0.01330000000000001,-0.017480000000000016,-0.006650000000000005,0.6660000000000005
0.4618108802269642,0.5226200478347511,-0.12409121423608602,-1.3944000858927414,0.07721876768480646,1.908359482563453,0.15642142389789992,-0.003795218799039701,-0.07516866077742951,-0.0012420625344025634,-0.11592854211895695,-0.0031217328935001618,0.041183776029173086,-0.008926152204688887,0.5758070201769792,0.8175696038386354,0.0026391845810023844,0.0,0.8175352487665095,-0.5757454508750529,-0.011577552512144325,0.0,-0.00794610949147423,0.008824232329747661,-0.9999294936482971,0.0,0.6572295917938664,0.25504582960183153,0.30384457294002526,1.0,-0.01352000000000001,-0.017769142857142872,-0.006760000000000005,0.6770000000000005
0.4616422537379614,0.5213301314243779,-0.12409227966805922,-1.3964851273171184,0.07708639620139018,1.9091835355428077,0.1562760944255235,-0.008077731754936309,-0.07143985926523987,0.0007186575178957099,-0.11529662043924509,-0.004667182774568045,0.048109209395154624,-0.010621151927084356,0.5759055375713432,0.8175001330455568,0.0026629244014123622,0.0,0.8174661934199582,-0.5758439968963859,-0.01155252158998246,0.0,-0.007910911215635197,0.008830181838734352,-0.9999297202165927,0.0,0.6569748523149846,0.2547223598367064,0.30383485260300147,1.0,-0.01390000000000001,-0.018268571428571443,-0.006950000000000005,0.6960000000000005
0.4614884667077656,0.5201346919069835,-0.12410097344215308,-1.3983844873739595,0.07696199315427092,1.9098856773429773,0.15612951036531478,-0.0059342474877251035,-0.07199527296288948,0.00012744711693187452,-0.11715848483618636,-0.017004038293220742,0.04071923982517783,-0.007529192562360725,0.5759852413261937,0.8174440131588763,0.002652173886728922,0.0,0.8174100259349912,-0.5759238284367962,-0.011547304484974054,0.0,-0.007911977110916568,0.008819160282144217,-0.9999298090516724,0.0,0.6567463692526752,0.25443406957586284,0.30383151119076257,1.0,-0.01422000000000001,-0.018689142857142873,-0.007110000000000005,0.7120000000000005
0.46132889863400206,0.5188867966603464,-0.1241032286841542,-1.4003285614417769,0.07683954982727353,1.9105877676599445,0.15599121997054954,-0.01059690767259882,-0.07920263302595451,-0.00027841295147071544,-0.12072049321124592,-0.0021404458373593355,0.044740183695324724,-0.010942053983322006,0.5760743873319041,0.8173811882988696,0.0026533330939365937,0.0,0.8173472208011137,-0.576012964692142,-0.011546950093987898,0.0,-0.007910057820422034,0.008820766458222884,-0.99992981006887,0.0,0.6565079543330655,0.2541414774681981,0.3038431548860751,1.0,-0.014540000000000011,-0.019109714285714303,-0.007270000000000006,0.7280000000000005
0.4611611331866514,0.5175281374900064,-0.12411023385073534,-1.40243016421303,0.07670356167187634,1.9113441580816501,0.15583226806959027,-0.010329730673395633,-0.07754701522545959,-0.000809993244720585,-0.12546332887582629,-0.00571078986155252,0.03763263873103823,-0.008057711443132541,0.5761610392127275,0.8173200954693297,0.0026580700751220087,0.0,0.8172862402363811,-0.5760996469136342,-0.011538858153006069,0.0,-0.007899779510707805,0.008820814430757176,-0.9999298909005871,0.0,0.6562492505098702,0.25382504316537763,0.30386201833389015,1.0,-0.014880000000000011,-0.019556571428571447,-0.007440000000000006,0.7450000000000006
0.46098075894729607,0.51626248120212,-0.12411416690469614,-1.4044305584055459,0.07657251406524461,1.9120900955461888,0.15567885501287307,-0.01318209140274951,-0.08776158557962604,-0.0009515258914084764,-0.12839792367423059,-0.001379749554159983,0.04342725951395004,-0.011179275104834303,0.5762684317608356,0.8172443633792067,0.002663077548692475,0.0,0.8172106716256228,-0.5762071198313042,-0.01152476195500464,0.0,-0.0078842142983519,0.008817821660777117,-0.9999300401458375,0.0,0.6559962271017121,0.25349232634302016,0.3038667535618193,1.0,-0.015220000000000011,-0.02000342857142859,-0.007610000000000006,0.7620000000000006
0.4607917201435775,0.5148214793316227,-0.12412018927982567,-1.4067274165416042,0.0764268605822054,1.9129638425708124,0.15550276544581296,-0.0065601537465574365,-0.07621060641029735,0.0009420252022136054,-0.13173150188533578,-0.004619121927949848,0.055055488275774576,-0.006885528830846748,0.5763529950155738,0.8171847188881396,0.0026659432661559927,0.0,0.8171511227177223,-0.5762917286081304,-0.011516643618151447,0.0,-0.00787501574286581,0.008816300315990691,-0.9999301260467093,0.0,0.6557362477237815,0.2531675987094643,0.303855486016302,1.0,-0.015560000000000011,-0.020450285714285733,-0.007780000000000006,0.7790000000000006
0.46060649656202407,0.5134991418382929,-0.12411814914692498,-1.4088458722679533,0.07631142744355073,1.9137124976383253,0.1553447499308975,-0.010301331732739248,-0.07658419119564891,0.0017706887304811448,-0.1271186908535734,-0.007169727301112842,0.047575542663148784,-0.0011486150310834318,0.5764538941445027,0.8171136555686933,0.0026322442921823917,0.0,0.8170794277176524,-0.5763925081004129,-0.011559944096641796,0.0,-0.007928734942189819,0.008814697160706625,-0.9999297156681473,0.0,0.6554699689308042,0.2528454686814903,0.303838753519971,1.0,-0.015880000000000012,-0.020870857142857163,-0.007940000000000006,0.7950000000000006
0.46040977400518174,0.5120932744052069,-0.12412663123667014,-1.4111395147037225,0.07616691253791633,1.9145114404442432,0.15517741914470515,-0.012778851412530833,-0.0818779610489777,0.0006648203979049106,-0.13573073792099788,-0.010376416130071025,0.04796013218341336,-0.0067707302208022,0.5765648468775726,0.8170356293260269,0.0025504231164074414,0.0,0.8170003180269063,-0.5765036976912644,-0.01160662713458882,0.0,-0.008012853820241417,0.00877583865591594,-0.999929386921667,0.0,0.6551803025101912,0.2524888052940129,0.30380143557184097,1.0,-0.016220000000000012,-0.021317714285714304,-0.008110000000000006,0.8120000000000006
0.46021683916222444,0.5106526405789004,-0.12413154108044354,-1.4134406221956837,0.07603134873899464,1.9153815556907274,0.1549886693248806,-0.015774885994201307,-0.08637031337304972,-0.0009959976768126168,-0.138606756612127,-0.006822193104806652,0.04707515974486224,-0.009915871716018846,0.5766555489357688,0.8169715958496915,0.0025566301265457798,0.0,0.8169363385763369,-0.5765943381526384,-0.011607533115087328,0.0,-0.008009040596044126,0.008782321521848976,-0.9999293605537432,0.0,0.6549008391585327,0.252142518681219,0.3037905169936042,1.0,-0.016560000000000012,-0.02176457142857145,-0.008280000000000006,0.8290000000000006
0.4600212567020763,0.5091889611182872,-0.12413261794708301,-1.4157912349328914,0.07588639830989799,1.9162637008870322,0.15480219098801248,-0.008301652478575783,-0.08733786363483328,-0.0011076977721740954,-0.14239431760589594,-0.008633873708026162,0.04582797049560679,-0.010078313116499545,0.5767471040047791,0.8169069916603143,0.002547920682342362,0.0,0.8168716199535151,-0.5766859099491589,-0.011613125412170298,0.0,-0.00801764775161945,0.008779329574511163,-0.9999293178503934,0.0,0.6546119525921837,0.25179055732687783,0.30377261136232514,1.0,-0.016900000000000012,-0.02221142857142859,-0.008450000000000006,0.8460000000000006
0.45982387982169387,0.507759507559457,-0.12413268219500734,-1.418034781305248,0.07573643458430607,1.9170613863317716,0.15463696390779338,-0.011235694724596205,-0.08463442431694772,-0.003946392648542109,-0.13566090026778593,-0.004682050143470279,0.05195720344194516,-0.011050811246366825,0.5768545296284623,0.8168312522350777,0.0025107609222488813,0.0,0.8167954647192318,-0.576793522404243,-0.011625326997906561,0.0,-0.008047894719995563,0.008757069272161438,-0.9999292700628073,0.0,0.6543134047497882,0.2514205654872242,0.3037641822166953,1.0,-0.017240000000000012,-0.022658285714285735,-0.008620000000000006,0.8630000000000007
0.4596015848091723,0.5062102588848987,-0.12413875321582336,-1.4204427635867993,0.07558064367962883,1.9179371232222613,0.15443937168791377,-0.020081439486801824,-0.09607481737023948,-0.00029758147678727085,-0.1487822791792743,-0.015272444374945508,0.04939417980593427,-0.008142174913479213,0.5769556530004495,0.8167597582281596,0.0025335175371836473,0.0,0.8167242846899577,-0.5768945751958872,-0.011612011386576884,0.0,-0.008022805553146162,0.008768969740337612,-0.9999293673858917,0.0,0.6540353015187093,0.2510638656166326,0.30378696760703716,1.0,-0.017560000000000013,-0.023078857142857165,-0.008780000000000007,0.8790000000000007
0.4593889389767178,0.5046001048918031,-0.12414476439671553,-1.4229003233420756,0.07542722449924293,1.9188950910390927,0.15424766797817735,-0.013207782531755483,-0.09532949369802952,0.0010250035896577372,-0.14268013508861108,-0.011304568667440888,0.05572346671496522,-0.02062389391242566,0.577062408988455,0.8166840581662066,0.0026214825625319876,0.0,0.8166498141213839,-0.5770011193785808,-0.011555787839093492,0.0,-0.00792498191518598,0.00880941362411175,-0.9999297919820388,0.0,0.6537427539805201,0.25069104907751133,0.30382563993845135,1.0,-0.017900000000000013,-0.023525714285714306,-0.008950000000000007,0.8960000000000007
0.4591567432643921,0.5029300412739597,-0.12415431259504428,-1.4253728374824433,0.07527990539646114,1.919842973710912,0.1540399435544798,-0.009834148128163155,-0.09808805295096677,-0.0016635652649787892,-0.14612575145608322,-0.008501910757265703,0.05401891527964182,-0.012713126570863601,0.577176408115566,0.8166030911692717,0.0027445052034935262,0.0,0.8165704705262616,-0.5771147395372138,-0.01148873250718483,0.0,-0.007797990208787131,0.008872278086522467,-0.9999302345815226,0.0,0.6534504777865472,0.2503027785486836,0.3038975979505394,1.0,-0.018240000000000013,-0.02397257142857145,-0.009120000000000007,0.9130000000000007
0.4589415123227474,0.5013333561738784,-0.12415472911539087,-1.4277504438270965,0.07512181435192934,1.9207141636895722,0.1538588778079358,-0.014471180520351122,-0.09771151350413874,-9.815422701715067e-05,-0.14936699700788636,-0.011368933515631542,0.05764339707849022,-0.01746901948408586,0.5772945339625543,0.8165193564851498,0.002812195448893106,0.0,0.8164877081659044,-0.5772327499693055,-0.011442101121331087,0.0,-0.007719554357354108,0.008901756837776387,-0.9999305811933771,0.0,0.65313757126294,0.2499093881751791,0.30395671058803964,1.0,-0.018580000000000013,-0.024419428571428592,-0.009290000000000007,0.9300000000000007
0.4586947557294907,0.4995074257784616,-0.12415292265397977,-1.430497195762099,0.07494416379635654,1.9216870114312308,0.15364879398077824,-0.012057086911057729,-0.10392193143993854,-0.00011034070711822627,-0.14971611859704964,-0.006257875120349236,0.05686581759372655,-0.012788879995231414,0.5774031825075716,0.8164423765667908,0.0028561297776625296,0.0,0.8164112538233939,-0.5773412015339858,-0.011425784131326486,0.0,-0.007679680810399936,0.008929232528332207,-0.9999306432493733,0.0,0.6528082305336421,0.24951004705074573,0.30400657875194703,1.0,-0.018920000000000017,-0.02486628571428574,-0.009460000000000008,0.9470000000000007
0.4584597473088743,0.49795060349561204,-0.12415793428713813,-1.4329623326905447,0.07478763632107874,1.9226197924488777,0.1534508092242998,-0.017027312447772804,-0.10123928712792998,-0.0006153201932746631,-0.15885398856034477,-0.014152216271047622,0.06281329005130405,-0.011128270936702198,0.5775199624540436,0.816359728126686,0.002869522819491206,0.0,0.8163288329117652,-0.5774579896521338,-0.011412871901478557,0.0,-0.007660127605224942,0.008933807569763363,-0.9999307523660718,0.0,0.652508645857019,0.24911985580228116,0.3039998469884472,1.0,-0.019240000000000014,-0.025286857142857166,-0.009620000000000007,0.9630000000000007
0.45819488754821835,0.49627741464336245,-0.12415293503649028,-1.4356378494532323,0.07462938733375583,1.9235747926144902,0.15323380766123945,-0.015722516423937086,-0.09992697979880345,0.0006424502411230534,-0.16359104681168954,-0.00847785236069673,0.05461086022383924,-0.015257635948452922,0.5776479881610603,0.8162692739641407,0.0028321470199838767,0.0,0.8162377383985622,-0.5775859303264487,-0.011454012578115708,0.0,-0.007713898776211092,0.008928264497282304,-0.9999303885064884,0.0,0.6521698435138554,0.2486940599584027,0.3039751521198288,1.0,-0.019580000000000014,-0.025733714285714308,-0.009790000000000007,0.9800000000000008
0.45792361711264273,0.49461650755910697,-0.12415862357919127,-1.4383652684795802,0.07446112359251068,1.924519354789302,0.153019513722627,-0.01639685769885632,-0.09830784542877986,-0.00018569337158019208,-0.15768568132535693,-0.0038687625393908575,0.056048667101502504,-0.00955540095034216,0.5777903054743794,0.816168906297981,0.002725104289599863,0.0,0.8161358775339858,-0.5777284431127662,-0.011524856681921467,0.0,-0.007832010205240603,0.008883176872242021,-0.999929871933428,0.0,0.651819312360557,0.2482494196597069,0.3039160591469547,1.0,-0.019920000000000018,-0.026180571428571456,-0.009960000000000009,0.9970000000000008
0.45763316391697584,0.49280467796802235,-0.12419771515289074,-1.4412577497260595,0.07427758531131273,1.9255597535507218,0.1528294834517275,-0.015856414824668506,-0.12161751135180157,-0.007952196432309586,-0.18668453247276523,-0.014282805474910976,0.0672107333377608,-0.01034177408056828,0.577995666112094,0.8160236473904807,0.002676519452889543,0.0,0.8159901168446451,-0.5779340790471785,-0.01153587400072316,0.0,-0.007866845634005748,0.008851869024242273,-0.9999298761185949,0.0,0.6514635591998814,0.24775924199314273,0.3038920730668163,1.0,-0.02580399999999977,-0.03391382857142828,-0.03612805084799892,1.0139999999999993
0.4573806519359288,0.4904959882990952,-0.1243056759351296,-1.4448267457274864,0.07410010146934336,1.926913170770314,0.15285463291237084,-0.01706618100186165,-0.14989369269072628,-0.0011931580433945568,-0.2426148895962595,-0.011118711419780674,0.09536550205892427,0.005674198257310471,0.5784309958545945,0.8157148886329134,0.0027477988398170424,0.0,0.8156824058975102,-0.5783692673358686,-0.011486958336673184,0.0,-0.007780990346734851,0.008885915000005767,-0.9999302459191025,0.0,0.6510230447220299,0.2472017875093485,0.303920115194646,1.0,-0.03297199999999899,-0.04333462857142725,-0.0682979595839954,1.0299999999999976
0.4570168485579179,0.48748333107902003,-0.1244479786241226,-1.4496959521735864,0.07387557229528854,1.9287080090171116,0.15329485781762484,-0.023779793513797713,-0.19199120025704824,-0.006564208015386515,-0.30834035722454595,-0.00926492541250178,0.11338460586511175,0.042983951828757944,0.5793717212868215,0.8150471899847138,0.002689530140355202,0.0,0.8150138962267026,-0.5793099953245895,-0.011533654043797088,0.0,-0.007842551619039129,0.008874448295421208,-0.9999298668164456,0.0,0.6504073506954319,0.2464294052506103,0.30385681032910383,1.0,-0.04058799999999825,-0.05334422857142628,-0.10247848761599208,1.046999999999996
0.45651637278425977,0.48376988174713503,-0.1246233245542183,-1.4555282012357538,0.07357243275348899,1.9309134947228594,0.15431533030509667,-0.023800564594957857,-0.22911683200357166,-0.009653700644604692,-0.356658179590833,-0.018052840297032087,0.13664552359287302,0.0742376958185228,0.5809437446170529,0.8139272985852225,0.0027322352181144895,0.0,0.8138949070651607,-0.5808820819883805,-0.011481897902618044,0.0,-0.007758473035176794,0.008894260333857887,-0.9999303466888462,0.0,0.6496972220446013,0.24545922734601056,0.30385571654768706,1.0,-0.048203999999997416,-0.06335382857142519,-0.13665901564798832,1.063999999999994
0.45589685473157276,0.4794053223380731,-0.12478346731471111,-1.4624342975608564,0.07320491473853481,1.9333544990952394,0.15575858237213913,-0.03664710815441122,-0.269204540874506,-0.00995769422024678,-0.431211547401727,-0.01982983958979612,0.14955911398847638,0.08764257127647561,0.5829750573482985,0.8124739762134379,0.0026205699537939194,0.0,0.8124401956507709,-0.5829135570732338,-0.01155250502599731,0.0,-0.007858695244608416,0.008864049306441121,-0.9999298323077203,0.0,0.6488100661289198,0.24430855701274853,0.30381142519827115,1.0,-0.05581999999999658,-0.07336342857142408,-0.17083954367998458,1.0809999999999922
0.4551575045937069,0.4743530281629832,-0.12495548021911713,-1.470277670348659,0.07277221690038395,1.9362446906592352,0.15760532152414994,-0.04470955938184964,-0.3072600125894531,-0.0070188841089057485,-0.4834361157621806,-0.03058206516187778,0.1815392161101064,0.11686583561865357,0.5853054675309168,0.8107966596189516,0.0026520426793635223,0.0,0.8107635288101636,-0.5852438444079197,-0.011527785352711952,0.0,-0.007794748276637287,0.008897626583624696,-0.9999300346226642,0.0,0.6478825424831743,0.24307467383743603,0.3038273335322512,1.0,-0.06298799999999578,-0.08278422857142306,-0.20300945241598103,1.0969999999999904
0.4543071119906645,0.468711581206692,-0.1251034052811217,-1.4789615768926587,0.07231187012614301,1.9394438166072527,0.15994284769735975,-0.05973427782745136,-0.34407204952553005,-0.007551475963477719,-0.5246689282400544,-0.030427510015526155,0.1974478730773671,0.1543262917037949,0.5884390077043598,0.808524940863759,0.0027750881736953543,0.0,0.8084934815269762,-0.5883766919616468,-0.011485015710351463,0.0,-0.007653271797688488,0.00900204526443027,-0.9999301928694062,0.0,0.6467219423918686,0.24154325731020027,0.30387788766513585,1.0,-0.0710519999999949,-0.0933826285714219,-0.23920059974397706,1.1149999999999884
0.4529806468549863,0.4600746619160557,-0.12530552620819202,-1.4922401307684425,0.07152390430469419,1.944241586730937,0.1637889389956622,-0.06121538359030147,-0.39504905582109634,-0.006688543361805946,-0.6066193601461272,-0.0360390428081542,0.21767437012193858,0.17418632383080415,0.5933813814198187,0.8049045628993314,0.002815618822292155,0.0,0.8048740678065228,-0.5933188239344227,-0.011456659149289792,0.0,-0.007551102958686939,0.00906456132824722,-0.9999304048642754,0.0,0.6449090632574027,0.23920414518396413,0.3039264254807238,1.0,-0.08180399999999372,-0.10751382857142035,-0.28745546284797174,1.1389999999999858
0.45217894582118623,0.4551764923508927,-0.12543053857060601,-1.4999305429613643,0.07104545331405258,1.946857284171185,0.16605102339853825,-0.07096088874453946,-0.4082910488246514,-0.010335311910402458,-0.6622192214217159,-0.038833198384860386,0.21904779920708564,0.19199266675303475,0.595942253409045,0.8030109872106233,0.0026328543404301697,0.0,0.8029783411595695,-0.595880161924814,-0.011548296596982633,0.0,-0.007704691719435053,0.008996416116723444,-0.9999298486506758,0.0,0.643956142621611,0.23797651097072506,0.303871224967979,1.0,-0.08673199999999318,-0.11399062857141964,-0.30957227510396934,1.1499999999999846
0.45109970243675435,0.44846539500761556,-0.1255687062978017,-1.5098643021025921,0.07039595670759688,1.9506218948943592,0.1692225378685424,-0.07048624026480317,-0.4625676208333098,-0.007354828364007962,-0.6734307521408814,-0.04702163711519242,0.2551665903666176,0.22007340398833208,0.5997218479995774,0.8001908321566203,0.003013978380069414,0.0,0.8001640099921146,-0.599659292108332,-0.01127108702306563,0.0,-0.007211799211956915,0.009171370742369886,-0.9999319356390374,0.0,0.6426930268272397,0.23626717024694788,0.30407805213235894,1.0,-0.09345199999999244,-0.12282262857141867,-0.339731564543966,1.164999999999983
0.4498465768588655,0.4409921007086114,-0.12570261298811697,-1.5213047934237336,0.06968325842325543,1.9547402940680123,0.17303144058869754,-0.08119065843736374,-0.48135424821547496,-0.005760700707157805,-0.7517375019377968,-0.05049797727080045,0.25972442121025435,0.24600621940545778,0.6041743812762201,0.7968341192529868,0.0030741348412268365,0.0,0.7968084319068935,-0.6041115463023851,-0.0112387440324557,0.0,-0.0070984310169297515,0.009239835679908187,-0.999932116552772,0.0,0.6411614819768005,0.23429880276833964,0.30410943644374994,1.0,-0.10061999999999165,-0.13224342857141763,-0.3719014732799625,1.1809999999999812
0.4483947162110182,0.4324786268353628,-0.12585621359066496,-1.5342647463040655,0.06882612133522163,1.9593486085636973,0.177467497823959,-0.08409118977536341,-0.5271605006419503,-0.009895934773641766,-0.7717270782768063,-0.049019590920604234,0.29211242625393535,0.2738180866697713,0.6092924463600753,0.7929273409992732,0.003113455569865196,0.0,0.7929028188439162,-0.6092296954471426,-0.011182350198500833,0.0,-0.006970115816731126,0.009282167916686956,-0.9999326271525835,0.0,0.6393987486057269,0.2320414139382342,0.3041559829796562,1.0,-0.10823599999999081,-0.14225302857141653,-0.40608200131195876,1.1979999999999793
0.44685097871325086,0.42402213812908573,-0.1259777544924084,-1.5471748720390082,0.06798079616936009,1.9639082568099053,0.18201035233489835,-0.0998146480780838,-0.5387141164361018,-0.011903935855646072,-0.8277749907038002,-0.06043524736644073,0.2825205051543673,0.31040606875892357,0.6148740462852267,0.788606937818112,0.0031227761978355776,0.0,0.7885830391869217,-0.614811185433435,-0.011168861797907551,0.0,-0.006888056781764629,0.00933019122596307,-0.9999327488413698,0.0,0.6375092642143186,0.22960059183548498,0.3041750534946448,1.0,-0.11585199999998998,-0.15226262857141545,-0.440262529343955,1.2149999999999774
0.4449350504946671,0.4138776552031021,-0.12617835205005332,-1.562480390635772,0.06689702691529242,1.969337629007046,0.187595072042086,-0.10912019930485799,-0.5804283946973066,-0.007501141085671407,-0.8436045834641808,-0.06222286932555193,0.3171795920962847,0.3123935918370346,0.6208813471364398,0.7838857453992079,0.0031996623534712556,0.0,0.7838639174592883,-0.6208189952781618,-0.011039968677501445,0.0,-0.006667791284080071,0.009362790754505593,-0.999933937172191,0.0,0.6355196601244385,0.226952348137404,0.3042364825740677,1.0,-0.12346799999998914,-0.16227222857141435,-0.4744430573759512,1.2319999999999756
0.4430505767162482,0.4044966319676968,-0.1263055904146616,-1.5769127955171827,0.06591613256081875,1.9742977829182193,0.1929532278987152,-0.11790055092519242,-0.603666606142239,-0.0028415893569702522,-0.9444559073102268,-0.06380637094867597,0.3018223264464461,0.3301319747760811,0.6269383632197679,0.7790506715574604,0.0030144270428203905,0.0,0.7790269135478359,-0.626876134684592,-0.011141213230428694,0.0,-0.00679002800531836,0.009333353478227488,-0.9999333897978091,0.0,0.6334644473788611,0.22430093163095405,0.30414171222723774,1.0,-0.13063599999998837,-0.1716930285714133,-0.5066129661119477,1.2479999999999738
0.44085842890050975,0.393871763021813,-0.12652151759368327,-1.592671594109298,0.06485271716385124,1.9798486933839967,0.199063297180882,-0.1321263561565161,-0.6385704066259198,-0.014093660125457342,-0.9380846443456083,-0.06252294425408629,0.3227083789528811,0.36490548318278915,0.6338539267731789,0.7734334588029463,0.0032605550971114604,0.0,0.7734135044607762,-0.6337911980203352,-0.01100069683508403,0.0,-0.006441919908112381,0.009494775034145461,-0.9999341732908964,0.0,0.6312602309608791,0.22130000862951768,0.30428146626963964,1.0,-0.13825199999998752,-0.18170262857141223,-0.540793494143944,1.264999999999972
0.43863240512383483,0.3836659223977971,-0.12666487448385236,-1.6082917509506673,0.06368611691519463,1.9850695286027455,0.20520888237050497,-0.14531643453552592,-0.6638810220841713,-0.013318767905619738,-0.9702562848573002,-0.07230711169182961,0.32590133835035945,0.4028957130032661,0.6410979245617427,0.767440777971333,0.0029749505187906776,0.0,0.7674181744056474,-0.6410360784222757,-0.011083260084539437,0.0,-0.00659882217544705,0.009388666894584938,-0.9999341520719449,0.0,0.6288287603684358,0.21812213269277017,0.30417958133382983,1.0,-0.1458679999999867,-0.19171222857141113,-0.5749740221759403,1.28199999999997
0.4361087194811965,0.372140688710362,-0.12683339334710217,-1.6253649115301072,0.062432436366886015,1.9909455245527636,0.21202890288975978,-0.15519095927136367,-0.6818711009314131,-0.0034304467783007734,-1.0251502358422453,-0.07209412703640919,0.33918342896506826,0.4057566333675476,0.6481953492071062,0.7614552578182405,0.0030702619501938805,0.0,0.7614346979583122,-0.648133513343301,-0.010995295703678347,0.0,-0.006382608945169399,0.009465085751210967,-0.9999348351041559,0.0,0.6264753612249898,0.21500633886680545,0.3042356063289914,1.0,-0.1530359999999859,-0.20113302857141008,-0.6071439309119367,1.2979999999999683
0.4335435845540053,0.36091729055680566,-0.12702828983158895,-1.6419748864183727,0.06116813012859445,1.9966032677993781,0.218938493995638,-0.16309963105056408,-0.7239261621055866,-0.010812451733834185,-1.045114004476747,-0.07915192671461013,0.3628013002324692,0.43992381486652316,0.6557381833439283,0.7549690889949642,0.0031395012544805693,0.0,0.7549504868219828,-0.6556767587529541,-0.010885650172588322,0.0,-0.006159949985403812,0.009508487536988824,-0.999935819780918,0.0,0.624019566765308,0.21171309715649217,0.3042893740556107,1.0,-0.1602039999999851,-0.21055382857140906,-0.6393138396479332,1.3139999999999665
0.4305880771306509,0.3487094166947029,-0.12720202455257448,-1.660331034559754,0.059794713969027836,2.0025692690333323,0.22666239915365283,-0.18289948639038833,-0.7379929046032826,-0.012701506215090447,-1.092713322343232,-0.08050329899048636,0.352758514039663,0.46411491690493123,0.6641086164370801,0.7476179153996928,0.002818696268385691,0.0,0.7475959692358086,-0.6640474867495959,-0.011043053251941696,0.0,-0.006384359197630862,0.009441214557769764,-0.9999350496033779,0.0,0.6211989695367409,0.2080272493147324,0.3041582256217903,1.0,-0.1678199999999843,-0.22056342857140795,-0.6734943676799294,1.3309999999999647
0.4275916510463799,0.33663924670714884,-0.12738787827884027,-1.6778487726343974,0.05844528367692309,2.0084883892006173,0.23427043928312602,-0.19785440794545095,-0.7362154317702215,-0.0045476845482129895,-1.1209720863400332,-0.08188671183543765,0.3722974502768487,0.4981840483080434,0.672826368047594,0.7397811860877753,0.0030367864028159244,0.0,0.7397629103923867,-0.6727649957882705,-0.010901548101181437,0.0,-0.006021832531921345,0.009581535436849475,-0.9999359638054978,0.0,0.6183648875530784,0.20419376613643986,0.304268820460531,1.0,-0.17543599999998344,-0.23057302857140685,-0.7076748957119257,1.3479999999999628
0.424286917098558,0.32348162985211126,-0.12751696702635387,-1.6971019171146597,0.05688910769197627,2.0147936640015893,0.24276078146759425,-0.19607476880186936,-0.7712095410474825,-0.004976661403860482,-1.1476784235364739,-0.09094184705136459,0.36903214847950033,0.4987782861972202,0.6812197173566475,0.7320594766026854,0.0030604414615422767,0.0,0.7320424933044382,-0.681158596804908,-0.010839783051271906,0.0,-0.0058508325421099405,0.009624832452364576,-0.9999365631672983,0.0,0.6155137850133046,0.20049906767828482,0.3043018741587451,1.0,-0.18260399999998267,-0.23999382857140583,-0.7398448044479221,1.363999999999961
0.4205415717774796,0.30907541649697906,-0.12764934015507087,-1.7179780071481499,0.05515469621152753,2.0215289791248665,0.25210059791157247,-0.20949643217463623,-0.8491121604158306,-0.007045175815251365,-1.1622143469724282,-0.09425101612718853,0.3796160893255737,0.5236305473153473,0.6903934680068685,0.7234143721180825,0.0030417836310059313,0.0,0.7233982404525615,-0.6903326854135375,-0.010794260561984721,0.0,-0.00570899048024559,0.00965289375858265,-0.999937112557476,0.0,0.612350683306167,0.19641218868200408,0.30432657741876823,1.0,-0.19021999999998182,-0.25000342857140473,-0.7740253324799184,1.3809999999999591
0.41674298488053774,0.29517249067232293,-0.12776746292225383,-1.7382647647297498,0.053429433699466546,2.0278423989811714,0.2614414037925817,-0.23528782884935243,-0.8570084942515871,-0.004480813324812587,-1.1943074683575525,-0.1018776157517704,0.3714092451966692,0.5636359863514491,0.7005087139490045,0.713624891509275,0.002793349440301748,0.0,0.7136068676344651,-0.7004485293220711,-0.010855557870660029,0.0,-0.005790310281796163,0.009597951017776427,-0.9999371738479877,0.0,0.6088083204455748,0.1918879231018028,0.30425129469250933,1.0,-0.19828399999998092,-0.26060182857140357,-0.8102164798079144,1.3989999999999572
0.41262659923442974,0.2807174358917629,-0.12794627750942808,-1.7588326439743789,0.0517120782256014,2.034364238231233,0.27110823787830585,-0.2400786191461403,-0.8445480809628464,-0.005512137702600878,-1.2392396589464367,-0.10709193220646204,0.36628881248194334,0.5750895007163922,0.711015364500893,0.7031567596785565,0.0029102685826948053,0.0,0.7031411057065144,-0.7109548586028663,-0.010794507677849494,0.0,-0.005521267753889392,0.009721577450803834,-0.9999375013140861,0.0,0.6052036415835174,0.1871348112954396,0.3043220080478474,1.0,-0.20634799999998005,-0.2712002285714024,-0.8464076271359104,1.4169999999999552
0.4079768215297766,0.26501548121047297,-0.12812003447254489,-1.7810777403895963,0.049762595604180795,2.0412124210600315,0.28176328477533935,-0.26390774702237685,-0.8728992103920966,-0.007450823713016394,-1.2420237967409589,-0.10911926666249873,0.37188471087634806,0.5907393679564987,0.7212042936523366,0.6927020784128165,0.002990699116750916,0.0,0.6926885316877713,-0.7211439370815697,-0.010712935169272655,0.0,-0.005264249275088062,0.009798026463972168,-0.999938141265239,0.0,0.6016656313115082,0.18246401325644737,0.3044041220398687,1.0,-0.2139639999999792,-0.2812098285714013,-0.8805881551679067,1.4339999999999533
0.40349055280911666,0.2507712985723245,-0.12831752490083453,-1.8011982285307353,0.047926804974072645,2.047301505502324,0.2915209336278774,-0.2913902336782094,-0.9017711483185074,-0.005904900755026709,-1.2734153977350435,-0.10905331882528954,0.3769123734627262,0.6129799039224992,0.7310461257137032,0.6823075955903746,0.0029417647551659718,0.0,0.6822947520939285,-0.7309864446685226,-0.010650628017449613,0.0,-0.005116712747259611,0.009793439556978298,-0.9999389520327258,0.0,0.5982250974437157,0.17783360637295295,0.30441906426964643,1.0,-0.22113199999997862,-0.29063062857140054,-0.912758063903904,1.449999999999952
0.39843809048988854,0.23524197014093795,-0.12850613274195657,-1.8229380556218915,0.04592816484268135,2.053770186372573,0.30231221949076703,-0.29909921395282213,-0.9451571882422252,-0.011176558616455869,-1.2682914312690634,-0.12046331353014,0.4052824651193269,0.6457707003460551,0.7417609704186305,0.6706436087762246,0.0029256917852318307,0.0,0.6706317830199797,-0.7417016290557961,-0.010604336878349515,0.0,-0.004941835535201222,0.00982813433406883,-0.9999394911878691,0.0,0.594431076345741,0.17276663883915527,0.30444829428508374,1.0,-0.22874799999997777,-0.30064022857139944,-0.9469385919359004,1.4669999999999501
0.39323379759615107,0.2194958630783123,-0.12860277645840296,-1.8450026286182937,0.043894810893220976,2.060210909901447,0.313475493205744,-0.3101262665535326,-0.9282200939106486,-0.001121416145004789,-1.2945512157075734,-0.12298018908743392,0.37540312435940626,0.6604789355090964,0.7525369697678195,0.6585294478046875,0.002796856794657243,0.0,0.6585170530896811,-0.7524775407101758,-0.010657786733480019,0.0,-0.0049139890993740165,0.009862346307904044,-0.9999392915754606,0.0,0.5904563438228431,0.16768320087181968,0.3043885364010971,1.0,-0.23636399999997695,-0.31064982857139833,-0.9811191199678966,1.4839999999999482
0.38796834410773445,0.20418963090071224,-0.12875334839832822,-1.8660643600880398,0.04182676662057611,2.0662389454528434,0.3242138476726844,-0.3418578145871768,-0.9467832325222864,-0.006943725510187751,-1.3311230207673619,-0.12621075077571065,0.3542679618572911,0.6727827285719153,0.763499325338853,0.6457878721113545,0.0027479705627520617,0.0,0.6457762520228515,-0.7634404673983511,-0.010603393943172886,0.0,-0.0047497227277767395,0.009870448289313744,-0.9999400053926122,0.0,0.5863727025888154,0.1623381532900968,0.30441553216513906,1.0,-0.2439799999999761,-0.32065942857139723,-1.0152996479998926,1.5009999999999464
0.3820311130130183,0.18760293578830006,-0.12891715386968783,-1.8885789338737116,0.039601250320917485,2.072602078621221,0.33590199577312846,-0.36373617052336554,-0.975096018401343,-0.010402347472050797,-1.344364495002868,-0.13817503517520122,0.3713319569199852,0.6972493931113692,0.7739490669702366,0.6332259614120868,0.002910400461634246,0.0,0.6332174805434573,-0.7738905401817773,-0.010478599742414559,0.0,-0.00438307439850788,0.00995301056778057,-0.9999408613710388,0.0,0.5824587067731055,0.15716240452863034,0.3045183493170631,1.0,-0.25114799999997534,-0.33008022857139624,-1.0474695567358892,1.5169999999999446
0.37560822379618447,0.17079548419498433,-0.12914221605054085,-1.9113713182879895,0.037401176130768626,2.0788800726669296,0.3480524914472766,-0.3886639075227165,-0.9820753028251868,-0.007865908342873847,-1.3531679697363157,-0.13133238499451344,0.3621935403287867,0.7167700843286007,0.7854169735134364,0.6189445230167651,0.002932924436706482,0.0,0.618937256134354,-0.7853580016239586,-0.010499007348683115,0.0,-0.004194988187576298,0.010061588496759824,-0.9999405814902345,0.0,0.5781795185340493,0.15139991338364106,0.3045299636645668,1.0,-0.25876399999997446,-0.34008982857139514,-1.0816500847678854,1.5339999999999427
0.36968974570439583,0.15564519491452583,-0.12926874633132407,-1.9316712105158718,0.03522889231830984,2.0843255455914327,0.35894504444872366,-0.4033682067006954,-1.026434190171031,-0.007839476456305804,-1.3572653715907155,-0.14210499982801506,0.36900773068760817,0.7278795800524829,0.7954331737193037,0.6060183463809039,0.0029286341183506494,0.0,0.6060124328356482,-0.7953751957166537,-0.010391159151993875,0.0,-0.003967946546473311,0.010040454699706283,-0.9999417206365717,0.0,0.5742772458736056,0.14622856636029544,0.3045650060994318,1.0,-0.26548399999997374,-0.34892182857139414,-1.111809374207882,1.548999999999941
0.36185413265281857,0.1361538174289182,-0.1294138839245916,-1.9576536095203967,0.03246016118614823,2.0911297565673705,0.37298777852568626,-0.4340363340689667,-1.0443855910314441,-0.009978475425572363,-1.3768937642268777,-0.14042180186089848,0.3703956041579353,0.741731578354871,0.8081061925639558,0.5890134119394436,0.0028860000780669345,0.0,0.5890085228763232,-0.8080488630324835,-0.010331593883371909,0.0,-0.0037534905485483994,0.010049097115471403,-0.999942461822612,0.0,0.5691605413420098,0.13956228531793188,0.3045572948718356,1.0,-0.2739959999999729,-0.36010902857139304,-1.1500111408318783,1.5679999999999392
0.35436649697695044,0.11834092942787025,-0.12957540736361797,-1.9810519787177605,0.029943593361292695,2.0970626769847445,0.38599479391973124,-0.4513064549236202,-1.0560640834478494,-0.020488035923152167,-1.35672876923992,-0.1541099941273595,0.3729307020395194,0.7669024218670074,0.8196322193897327,0.5728658217733756,0.002919260759894485,0.0,0.5728625518551251,-0.819575100890071,-0.010290655191592932,0.0,-0.0035026786485214956,0.010107082314757751,-0.9999427874280448,0.0,0.56446259984809,0.13338642379088705,0.3045892264716775,1.0,-0.28161199999997205,-0.37011862857139194,-1.1841916688638745,1.5849999999999373
0.3463016283567399,0.10026390201543738,-0.12977798143192062,-2.0045703482755926,0.027302191836471604,2.1027194178174358,0.39917763910472287,-0.4862883419405089,-1.0592993716485466,-0.011889311191749526,-1.3638376877407725,-0.15526908249832716,0.34713461368811516,0.7777947728272744,0.8312052652563052,0.5559412384820572,0.0028094957625932346,0.0,0.5559381458166154,-0.8311488150508954,-0.010255348199082203,0.0,-0.0033663267171135103,0.010086399479495245,-0.999943464596861,0.0,0.5596420715566268,0.126928794638669,0.3045994939845503,1.0,-0.28922799999997123,-0.3801282285713909,-1.2183721968958707,1.6019999999999355
0.3385235637937953,0.08296780184689381,-0.1298342139098737,-2.026961350261116,0.02486062664247685,2.1079774144196604,0.41167107306317363,-0.49827784244529366,-1.0775264349927092,-0.004832808803088978,-1.3888873257673613,-0.1471553534729902,0.2933577082023133,0.7662400057830647,0.8425094658800488,0.5386568689959825,0.002706342027173502,0.0,0.5386536161881247,-0.8424524191362219,-0.01034167105414944,0.0,-0.0032907111187984173,0.010170932497685692,-0.9999428600437428,0.0,0.5546190075926319,0.12052710975712409,0.30456702250226414,1.0,-0.29684399999997035,-0.3901378285713898,-1.2525527249278672,1.6189999999999336
0.3297286455035166,0.06430810801971447,-0.12993185364431445,-2.0506982166086236,0.02204187104965784,2.1134513747584567,0.42533859195335105,-0.5321385649871188,-1.0818064373403413,-0.004815006425022154,-1.3996080253877647,-0.1576520926231741,0.29607118352745887,0.7941202210063816,0.8538370726512259,0.5205147472912515,0.0027199485138841746,0.0,0.5205131524980744,-0.8537809289477705,-0.010243551279056256,0.0,-0.003009737283277969,0.010162288468800268,-0.9999438331099215,0.0,0.5495277355912475,0.11389851197057192,0.30457991443841104,1.0,-0.29998,-0.3942594285714287,-1.2666270600000002,1.6359999999999317
0.3204264511752664,0.045752783040949895,-0.13008800050068375,-2.0740969020088285,0.019223676938894534,2.1185959894657582,0.4388134619634295,-0.5524001778719787,-1.0755869489889727,-0.010677466115455586,-1.4026457846888793,-0.1645641856036512,0.2912991706756216,0.7834280907287126,0.8642970039148083,0.5029553107311515,0.002718700502928156,0.0,0.5029551147438138,-0.8642418091962294,-0.010148630029398996,0.0,-0.0027547457660108687,0.010139010059016032,-0.9999448044021169,0.0,0.544744329885501,0.10747968096026135,0.3045787045883248,1.0,-0.29998,-0.3942594285714287,-1.2666270600000002,1.65199999999993
0.3109407948021359,0.02724616020819067,-0.13007741164489123,-2.0969125689343797,0.01648836848166015,2.1232677012290635,0.4520409877768065,-0.5714433453182615,-1.0746537204989755,-0.0029523209896221893,-1.3573583989950602,-0.16587650989115355,0.272940832015197,0.768054167461578,0.8748744668933612,0.48432187468317806,0.0027813274955560408,0.0,0.48432351232253085,-0.8748191710184994,-0.010143980051296547,0.0,-0.002479840565814795,0.010221968245686386,-0.9999446793477889,0.0,0.539622070342937,0.10082887688257151,0.3046673354196477,1.0,-0.29998,-0.3942594285714287,-1.2666270600000002,1.668999999999928
0.30112453194488037,0.008998327276108291,-0.1300965739459223,-2.1192441669276176,0.013634427045878883,2.127782930125483,0.46518288020998005,-0.5731628112771633,-1.056655625868802,-0.0036727303472376058,-1.306527959700147,-0.16353340408509265,0.24582650911457643,0.7683132035437307,0.885117372155944,0.46533825958114966,0.0028789892239050262,0.0,0.4653423913743948,-0.885063328246259,-0.010005532710585385,0.0,-0.002107909977030531,0.010195982854271937,-0.9999457978556459,0.0,0.5345419963412805,0.09412035384580297,0.30472031943871786,1.0,-0.29998,-0.3942594285714287,-1.2666270600000002,1.6859999999999262
0.2915430178481706,-0.008082323510123019,-0.13017786910378656,-2.1397277012456577,0.011068585939231197,2.131736852716825,0.47729019658540495,-0.6022904088348048,-1.0479998266439343,-0.0005075597507778265,-1.2575871125410634,-0.16376228806078186,0.25770600390939324,0.7442231435274163,0.8944473212227855,0.4471407082751967,0.0031501526545383543,0.0,0.4471488543573357,-0.8943936317240203,-0.009933804892781945,0.0,-0.001624363356476588,0.010294050518797768,-0.9999456955093126,0.0,0.5298045970712956,0.08774694129890652,0.30484579702620807,1.0,-0.29998,-0.3942594285714287,-1.2666270600000002,1.7019999999999245
0.2812340933039795,-0.025979437870053936,-0.1301736398362562,-2.161131481318439,0.008297012517706757,2.1355052240724497,0.4898399189279815,-0.6168999676639899,-1.0485505594992566,-0.00496977317590779,-1.2283003375065302,-0.16234663966739624,0.22381641771768357,0.738686785250876,0.9037964945891905,0.42792860986632447,0.0031221991247708204,0.0,0.4279376594600479,-0.90374336972519,-0.009900918887822754,0.0,-0.0014152469459808859,0.010284720382586321,-0.9999461093492656,0.0,0.5246885006575213,0.08108376785489668,0.30487482052351034,1.0,-0.29998,-0.3942594285714287,-1.2666270600000002,1.7189999999999226
0.270498306570149,-0.04363866198703073,-0.13026678334047312,-2.182174579632176,0.005609486708089917,2.138992455025926,0.5023225789888719,-0.6368044299768651,-1.021610934637057,-0.009613992284394735,-1.2390445171330404,-0.14123177070527332,0.18008790767277935,0.7234486874896323,0.9123869117142493,0.4092945580143858,0.002972375069068021,0.0,0.4093031018254632,-0.9123337665746998,-0.009940628998400803,0.0,-0.0013568733338661931,0.01028650017491032,-0.9999461719557245,0.0,0.5198603160883698,0.07469875151129725,0.30481712016629153,1.0,-0.29998,-0.3942594285714287,-1.2666270600000002,1.7349999999999208
0.25961714162514204,-0.061227015157935875,-0.13025860693430635,-2.2026316598681244,0.0028752092202294446,2.142253928946918,0.5144827518019317,-0.6413640866559822,-1.0092157929641592,-0.0002033859666074113,-1.2236852557390578,-0.15470691634418862,0.1832658207737237,0.7110068926698305,0.9214584567802637,0.3884399199003231,0.003080252777585521,0.0,0.38845082287325,-0.9214057886507553,-0.009903421185801276,0.0,-0.001008740813763509,0.01032231666540663,-0.9999462146638836,0.0,0.5144713566027574,0.06765176062698505,0.304880977767842,1.0,-0.29998,-0.3942594285714287,-1.2666270600000002,1.7529999999999188
0.24770924076144193,-0.07961483305705912,-0.13031055380716428,-2.223830963327523,-2.9749879543983465e-05,2.1453317331857638,0.5270096915820635,-0.669803819113779,-1.0154354209038785,-0.0067472977827472665,-1.1721919028915033,-0.1625456666368564,0.16611925864571367,0.6751728407719697,0.9300562861921989,0.36737810074829713,0.0030630876835352253,0.0,0.36739006029586896,-0.9300044055548119,-0.009853737648593215,0.0,-0.0007713772337257785,0.010290076727172193,-0.9999467582317133,0.0,0.5090721665493279,0.06053977896889776,0.30489657747659815,1.0,-0.29998,-0.3942594285714287,-1.2666270600000002,1.7709999999999169
0.23753867108633328,-0.09469515918100023,-0.13035523661477963,-2.2411178747320415,-0.0023676168350329593,2.1476569896750535,0.5373249764120034,-0.6811451182706865,-1.0042652140302062,0.007853163376110039,-1.1254233644491156,-0.15598852524867854,0.16239839856020807,0.6731543386295885,0.9373319106892981,0.34839714523601295,0.0030108630248513804,0.0,0.3484096161455113,-0.937280262286733,-0.009858813633436294,0.0,-0.0006127718374176472,0.010290192369003984,-0.9999468668142744,0.0,0.5042780602043294,0.05424463466935632,0.3048754085654822,1.0,-0.29998,-0.3942594285714287,-1.2666270600000002,1.786999999999915
0.22513714773147406,-0.11263800307340892,-0.13035248449632963,-2.261566242184336,-0.005295387248600703,2.1501082289671745,0.5493938488677881,-0.6927045659569655,-0.983012757484874,-0.002790639623437308,-1.1368351125303802,-0.15779781127738118,0.1227648086463897,0.6534849129068088,0.9445656402022056,0.32828269064688553,0.0026406954097376867,0.0,0.32829249082656947,-0.9445147384597113,-0.009833422622785115,0.0,-0.0007339808340011134,0.01015542913212731,-0.9999481629220975,0.0,0.4990945283681142,0.04759436835009097,0.3047457217602931,1.0,-0.29998,-0.3942594285714287,-1.2666270600000002,1.8039999999999135
0.21363228553522703,-0.12854336777797576,-0.1304674216699213,-2.279191135410844,-0.00776986890313529,2.1520899068194494,0.5598389303228728,-0.7218840277044184,-0.96849969672685,-0.0010321824588806986,-1.0728751182915384,-0.1500108700355926,0.12399517969540567,0.6414474205603317,0.9514679561863779,0.3077046877293626,0.0027019254431568662,0.0,0.30771621623822815,-0.9514173089754998,-0.009827580936055373,0.0,-0.00045334281713715896,0.01018225066128875,-0.9999480567768312,0.0,0.49401060447199596,0.040824628875263703,0.3047795609674775,1.0,-0.29998,-0.3942594285714287,-1.2666270600000002,1.8209999999999116
0.2013357171422808,-0.14533835807991627,-0.1304801510797806,-2.2974649944457415,-0.010398619349187559,2.153929725210915,0.5706283021968115,-0.7298054142487103,-0.9881384507821434,-0.00016034556625932968,-1.079529127645161,-0.1573030158309986,0.10082907808568593,0.6231075567928906,0.9574582798138063,0.2885246079141683,0.002817790831595103,0.0,0.2885383399020596,-0.9574082880635135,-0.009784848239176566,0.0,-0.00012539561976365743,0.010181820683660355,-0.9999481560578549,0.0,0.4892178858052583,0.03459681088348935,0.30484360147063,1.0,-0.29998,-0.3942594285714287,-1.2666270600000002,1.8369999999999098
0.18925923862870156,-0.1607861734953534,-0.13062308373120085,-2.3144098004308287,-0.012919049723777923,2.1553694000228694,0.5806302504488229,-0.7651515115667824,-0.9575533216937069,-0.0023136197511271477,-1.032890377826224,-0.1582692262946518,0.07003172298734364,0.6161596025944266,0.9631746385657374,0.2688287029740594,0.0025477406175937194,0.0,0.26884072122903574,-0.9631251758367612,-0.009762642043417152,0.0,-0.0001706885541092329,0.010088259877017433,-0.9999490976435108,0.0,0.4843752295106131,0.028192027623001274,0.30474488323327875,1.0,-0.29998,-0.3942594285714287,-1.2666270600000002,1.8529999999999083
0.1763981581996934,-0.17718779155645997,-0.13063016396178137,-2.331835245565405,-0.015433684283412852,2.156704467906508,0.5908667404535713,-0.7725844039520715,-0.9489761867371042,-0.0035037749462939736,-1.00526799674352,-0.15431802963642421,0.0641036116034471,0.5899554994160894,0.9686934238347045,0.24820704201926747,0.0026574071293850696,0.0,0.24822122201305374,-0.9686441968080022,-0.009766874307319406,0.0,0.0001498778984552751,0.010120926617162636,-0.9999487708783013,0.0,0.4792902135973888,0.02161412286347336,0.3047981748222675,1.0,-0.29998,-0.3942594285714287,-1.2666270600000002,1.8699999999999064
0.16298191023583422,-0.1934802448464033,-0.13079519238425205,-2.3488177952403224,-0.018047424652067427,2.157824995194996,0.6007884813697495,-0.7896869690914397,-0.9460506292016609,-0.009195696191844157,-0.9789455091315371,-0.16668119498685638,0.07546663921381204,0.5752584222485613,0.9738409729573925,0.22717005355652048,0.002876292359113141,0.0,0.22718746446239985,-0.9737930474376404,-0.00968006479666503,0.0,0.0006019042519355144,0.01008049536876757,-0.9999490093621735,0.0,0.47422961763145766,0.014836682725193107,0.3048943236940874,1.0,-0.29998,-0.3942594285714287,-1.2666270600000002,1.8869999999999045
0.14945746413139163,-0.2094433412941602,-0.13083963046951605,-2.36552543549796,-0.020498373544374743,2.158558144312395,0.6103487683809876,-0.7941961265986602,-0.941978383675882,-0.0031241034513204338,-0.9675165455655176,-0.14709557861532913,0.03864834307023433,0.5630950408899776,0.9784678239991236,0.2063352861951504,0.0026858835406055113,0.0,0.2063518418157408,-0.9784195199770835,-0.009742033066721235,0.0,0.0006178075982798403,0.010086697111804746,-0.9999489371238643,0.0,0.46907523871167794,0.008235136304621448,0.3048445242871719,1.0,-0.29998,-0.3942594285714287,-1.2666270600000002,1.9039999999999027
0.1353992863278692,-0.22522219243943775,-0.13100441405512317,-2.381579171656167,-0.02306630689336505,2.159188762189588,0.619700097793474,-0.8249909788230321,-0.9127108932664597,-0.006354355678061477,-0.9275773852526844,-0.15300076949997615,0.032649995881308715,0.550327595186541,0.9827144939542442,0.18505371921355096,0.0028445173042311567,0.0,0.1850728146422148,-0.982667752785085,-0.009637832636455908,0.0,0.0010117181312823131,0.009997873135982197,-0.9999495082048793,0.0,0.4640328176232932,0.0014661058033059416,0.30491415758599283,1.0,-0.29998,-0.3942594285714287,-1.2666270600000002,1.9209999999999008
0.12120583622493802,-0.24084076031992646,-0.13108081976360098,-2.3973287952829647,-0.025534174691050297,2.1595169966388665,0.6286564852772505,-0.8436379397898862,-0.9152023158302875,-0.0054391824445041825,-0.913542094613894,-0.14505405091523332,0.022734401487519013,0.5200983419954024,0.9864466884186256,0.1639983797517054,0.002865178519801839,0.0,0.1640186270427897,-0.9864007851051858,-0.00959833465135438,0.0,0.001252127117589319,0.00993837942281352,-0.9999498291375071,0.0,0.45893139664669785,-0.005161042946501693,0.3049436092326139,1.0,-0.29998,-0.3942594285714287,-1.2666270600000002,1.937999999999899
0.10650387784815266,-0.2562191848208825,-0.13127302099328722,-2.4127394431030322,-0.02789616710115463,2.15967913215572,0.6372338320536315,-0.8625920652565113,-0.9080536375794229,-0.0019009039300299617,-0.884689568989,-0.14029682264476573,0.0022437353416895098,0.4850918781213745,0.9897675979559852,0.1425931197819006,0.0028374510589202996,0.0,0.14261415381063108,-0.9897216065214611,-0.00964839979808866,0.0,0.001432518772773561,0.009954525829489441,-0.999949426373892,0.0,0.4538070826230599,-0.011905569967929241,0.30492427292766233,1.0,-0.29998,-0.3942594285714287,-1.2666270600000002,1.954999999999897
0.09252375249761931,-0.27052336111455677,-0.13138532252618154,-2.426697352229926,-0.030148953054144088,2.1597322419403673,0.644984479867616,-0.8728900331774088,-0.8797702561213334,-0.014601147525662751,-0.8770165338965125,-0.14719617387977324,0.0022997838921887666,0.4730671475988319,0.9924347022161568,0.12265640959135693,0.0030844650255232127,0.0,0.12268069744111681,-0.9923902201128254,-0.00958354845487732,0.0,0.001885545583584669,0.009889640783785243,-0.9999493185772066,0.0,0.44906164097811546,-0.018158242693191183,0.30500109559511507,1.0,-0.29998,-0.3942594285714287,-1.2666270600000002,1.9709999999998953
0.07723015326708917,-0.2853765726516639,-0.13154266761683436,-2.441286558851495,-0.032500473203565604,2.15957025099033,0.6529669809756744,-0.8980519950109545,-0.867310567166186,-0.00032094437526905117,-0.8406336321630515,-0.13551163161971808,-0.01490113712967413,0.46583762748857477,0.9948523134220291,0.10119490396443748,0.003035258090068022,0.0,0.10121961318619799,-0.9948085000098124,-0.009559556259154037,0.0,0.0020521616806069565,0.009817763331871732,-0.9999496988126932,0.0,0.4439463364770873,-0.024860671999764408,0.3049483438877573,1.0,-0.29998,-0.3942594285714287,-1.2666270600000002,1.9879999999998934
0.06254436227442074,-0.2992476521062591,-0.1317734442410017,-2.4544032442785984,-0.034579876415161186,2.159318402605614,0.6601185235805835,-0.9361342831152724,-0.8530348761931102,-0.021997546542991683,-0.8068670638777555,-0.13711168181640618,-0.01745430363047404,0.4362317546912454,0.9967090084617738,0.08087194072581194,0.003410066802419235,0.0,0.08090129481699809,-0.996666297326588,-0.0095926623755223,0.0,0.0026229719309052713,0.009837161220380381,-0.9999481737957091,0.0,0.4392263484326844,-0.031188292462769066,0.3050553747441384,1.0,-0.29998,-0.3942594285714287,-1.2666270600000002,2.0039999999998916
0.04666155734612456,-0.31359080333656214,-0.1319276921158324,-2.4681740277192667,-0.03686272932012298,2.158684419226038,0.6673787452913937,-0.9286410681305095,-0.861149444233527,-0.019805113530758024,-0.7703389558587556,-0.12991575723369275,-0.04240662561631586,0.42344375822547464,0.9982164123330295,0.05945099979942359,0.003212424790164433,0.0,0.059479262071411465,-0.9981740622394492,-0.009565864155673738,0.0,0.0026379097023730425,0.009740062780711597,-0.999949085008547,0.0,0.43408035690057534,-0.037851136793855836,0.30497537145839876,1.0,-0.29998,-0.3942594285714287,-1.2666270600000002,2.0209999999998898
0.03032462650205008,-0.32775424448082,-0.13217576401246378,-2.481216389004228,-0.03908390492181974,2.1580256850378756,0.6742175038792192,-0.9549281749265444,-0.819682654291389,-0.010090935303853407,-0.744034537536188,-0.13169790759478622,-0.03825045988876856,0.3977461786852348,0.9992678314000465,0.03784151702534416,0.003545083846278123,0.0,0.03787376170599699,-0.999227560302099,-0.009518813379859561,0.0,0.003182200411426861,0.009646295385493761,-0.9999484099621726,0.0,0.4290611581910708,-0.044611070762654234,0.3050794229367907,1.0,-0.29998,-0.3942594285714287,-1.2666270600000002,2.037999999999888
0.013798624428376885,-0.341568273469241,-0.13233243793911803,-2.4940829747187894,-0.04114959760894022,2.157050811654978,0.680699599881091,-0.9852091599967296,-0.8130880240599635,-0.018366817769826897,-0.7343827114898184,-0.11956834490042456,-0.06636371847673395,0.36827268369778593,0.9998500666804084,0.016400546599410648,0.003407804517753457,0.0,0.01643253469680589,-0.99980944527321,-0.009580806183374938,0.0,0.0032500872604754316,0.009635554081552061,-0.9999482951784759,0.0,0.42392579076728526,-0.05123670727665248,0.30502534611154847,1.0,-0.29998,-0.3942594285714287,-1.2666270600000002,2.054999999999886
-0.002159124099164272,-0.3543456684641311,-0.13253353626727493,-2.5055258831329628,-0.04318977422754632,2.156115126935794,0.6864575898406202,-0.9986255697496934,-0.7859605154424161,-0.01460143918731076,-0.6795350921325983,-0.12182115003904745,-0.05399870581592881,0.352334964126488,0.9999761160331275,-0.003854620829553901,0.0036954245722663043,0.0,-0.0038194057340849574,-0.999938052801039,-0.009489446849691522,0.0,0.003731845720147231,0.009475288306917996,-0.9999481447750286,0.0,0.41920067694486485,-0.057566422057976754,0.30512494226160425,1.0,-0.29998,-0.3942594285714287,-1.2666270600000002,2.0709999999998843
-0.019431161500041896,-0.36755406104524724,-0.1327922322870159,-2.5174883097948477,-0.045281151955221026,2.1549309202165827,0.6922047756452238,-1.0228580671092609,-0.7891676613195828,-0.01828742398919601,-0.7049890495398512,-0.1215439460242114,-0.07293908830906125,0.3211255786808369,0.9996612626123428,-0.02539246343567303,0.0036509908481064117,0.0,-0.025356965247344543,-0.999624060981805,-0.009460862587402695,0.0,0.003889927798676307,0.009365260101748998,-0.9999485788604069,0.0,0.41408078652860536,-0.06428102052656066,0.30509257088645386,1.0,-0.29998,-0.3942594285714287,-1.2666270600000002,2.0879999999998824
-0.03689465145295618,-0.3804155155577524,-0.13292223420222243,-2.5288191597376506,-0.04716755180208604,2.153574970314736,0.6976193138135095,-1.0394149544281115,-0.747373467823021,-0.006336742761338673,-0.6474396611225534,-0.11633329045810391,-0.0795114877686221,0.30571989650490244,0.9988885798621865,-0.04678028559142178,0.003735880364394419,0.0,-0.04674309341886779,-0.9988522338112468,-0.009489211196192313,0.0,0.004175580849892613,0.009304217225915727,-0.999947996681017,0.0,0.4090327455455573,-0.07087751142435848,0.3051367492568994,1.0,-0.29998,-0.3942594285714287,-1.2666270600000002,2.1049999999998805
-0.05486835493762775,-0.3929166638277858,-0.1331666477460807,-2.5398037782785927,-0.049176833220329515,2.1521738691809085,0.7026216940196693,-1.0504796477199794,-0.7375946775431966,-0.005853952084884246,-0.6390281339634021,-0.10914042528568076,-0.08706573979683703,0.2854869927711365,0.9976492734943565,-0.0682829444832539,0.003756792526635555,0.0,-0.06824512785122688,-0.997614543336259,-0.009411288422184897,0.0,0.004390545877330065,0.009132958108492559,-0.9999486547733777,0.0,0.4039379030673276,-0.0776027417139904,0.30513268746571065,1.0,-0.29998,-0.3942594285714287,-1.2666270600000002,2.1219999999998786
-0.0731382037351423,-0.40507326568154245,-0.13347004424922268,-2.550391212712906,-0.05104610053784443,2.1505365232612417,0.70727034552038,-1.0857581418983806,-0.7045895701179713,-0.011572579690642069,-0.5953975402923966,-0.1106987682575393,-0.10275199663388684,0.25872594065938503,0.9959409888693289,-0.08982920599877409,0.0036065691205557074,0.0,-0.08979188798815607,-0.995906165345065,-0.009437880080757254,0.0,0.004439687174606299,0.00907590570927426,-0.9999489572539932,0.0,0.3987922761316446,-0.08431077123826591,0.3050987159385309,1.0,-0.29998,-0.3942594285714287,-1.2666270600000002,2.1389999999998768
-0.0905622864877886,-0.41622025392029244,-0.13365788405222148,-2.5597271143289917,-0.052676937345050356,2.1491433372410658,0.7112011646132048,-1.0897243613981538,-0.6901562386904552,-0.01310352545506821,-0.5762801337677061,-0.09327051216562199,-0.09634617096273342,0.23713293763746082,0.9939298737462569,-0.10985671017703769,0.003956792266034078,0.0,-0.10981553163843694,-0.9938974388625351,-0.009443353994716751,0.0,0.00497015719314664,0.008951686745141907,-0.9999475810470728,0.0,0.39408146415255857,-0.09057767087732448,0.3052076461586568,1.0,-0.29998,-0.3942594285714287,-1.2666270600000002,2.154999999999875
-0.10950662004500757,-0.42754913823887647,-0.13391516237296122,-2.5694373908695747,-0.05442175174306374,2.147380830784893,0.7151173982456729,-1.1349964770449052,-0.6743086723833416,-0.01808676388211354,-0.5573119032130173,-0.09746976069904051,-0.10193607574345188,0.21589977438240657,0.9913261387995351,-0.13129820472814946,0.0037436438369473648,0.0,-0.1312582092688226,-0.9912934984755082,-0.00944612518115569,0.0,0.004951404403974846,0.008872977648589464,-0.9999483755984986,0.0,0.3889282960789082,-0.0972779869523173,0.3051451941735281,1.0,-0.29998,-0.3942594285714287,-1.2666270600000002,2.171999999999873
-0.1287298025848104,-0.4384947662757177,-0.13420564956227518,-2.578528534318149,-0.0561013557008403,2.14563965715476,0.71858922726052,-1.1363996578832967,-0.6429068343087632,-0.014630231113709867,-0.5093500838529221,-0.09974030218644406,-0.08924916427840607,0.19733458897879305,0.9882708315812536,-0.15260119199460365,0.003792960417911754,0.0,-0.1525601078986043,-0.9882393759570519,-0.009439077666323082,0.0,0.005188867241410933,0.008749879146333073,-0.9999482562971325,0.0,0.38384048572904206,-0.10399046870912634,0.3051746642929894,1.0,-0.29998,-0.3942594285714287,-1.2666270600000002,2.1889999999998713
-0.1482558691686006,-0.4489893850178656,-0.13448295102981062,-2.5870662640121522,-0.057726385054534674,2.144012085366632,0.7217309658093412,-1.1479202368929826,-0.6068654496160764,-0.023350349635181754,-0.49198545772139096,-0.09277216700552456,-0.10336614986584776,0.18208676796669004,0.9847549074666826,-0.17384480200897978,0.004062503655670056,0.0,-0.1738009736896764,-0.9847262010372684,-0.009395607294783177,0.0,0.005633939752262507,0.00854646784718395,-0.9999476069325857,0.0,0.3788088806562512,-0.1107127665680483,0.305253040842571,1.0,-0.29998,-0.3942594285714287,-1.2666270600000002,2.2059999999998694
-0.16804022975794555,-0.4589650485274417,-0.13467556934189254,-2.5953174450942216,-0.05919278778913767,2.142081886488054,0.7245446947819449,-1.184081116571798,-0.5723731161441239,-0.011711986553840925,-0.46699214801467437,-0.08700972439056566,-0.09808242989148969,0.15599590963469967,0.9807953784491273,-0.19495297205239104,0.003809357161098666,0.0,-0.19491053247821,-0.9807659603132453,-0.009421375754471394,0.0,0.005572920334423526,0.008498121581123105,-0.9999483609109715,0.0,0.37367037471158443,-0.11734184294634434,0.3052018500081176,1.0,-0.29998,-0.3942594285714287,-1.2666270600000002,2.2229999999998675
-0.1881064751307884,-0.4684226595035477,-0.1349901516747732,-2.6030700663991446,-0.06059943400439057,2.140316873621245,0.7269632652329246,-1.1932204810054043,-0.5546957320980092,-0.014318973547785266,-0.43434086472053285,-0.07821129184044194,-0.09970800987113405,0.12740029421525587,0.9763720053476879,-0.21602020181786896,0.0037049265997679,0.0,-0.2159777137466931,-0.9763424637806428,-0.009474570423190793,0.0,0.00566408483068398,0.008450686449182607,-0.9999482506817882,0.0,0.3685592706653751,-0.1240170291489456,0.3051594073006326,1.0,-0.29998,-0.3942594285714287,-1.2666270600000002,2.2399999999998657
-0.20857240351938083,-0.47744486502670047,-0.135270403740121,-2.6101389839532105,-0.06204418978019283,2.1387167557770463,0.7290377537073346,-1.2238813232259713,-0.5084593209398338,-0.009144819157277287,-0.41543764305840414,-0.09071321496444767,-0.1015765269061345,0.1266736170823686,0.9714854147375016,-0.23702475212163476,0.004012821350429015,0.0,-0.2369795917196978,-0.9714593212731369,-0.009391864623689997,0.0,0.006124515005760667,0.008173260094419238,-0.999947842707495,0.0,0.36352754528329584,-0.13077395320066448,0.30524993690813607,1.0,-0.2972920000000609,-0.3907266285715087,-1.2545633442242734,2.256999999999864
-0.22781043262704095,-0.4852023141869785,-0.13548690470913852,-2.6164893204677893,-0.06314746954361708,2.1370084520289048,0.7306328518711477,-1.1978344347799,-0.4687646413709318,-0.019464304733299412,-0.3810679315543684,-0.07284677465362299,-0.10916365882530461,0.09164449403133507,0.9665464042604472,-0.25642781550804183,0.003683849370215937,0.0,-0.25638435737841153,-0.9665185946078513,-0.009466491965417725,0.0,0.005988096060669523,0.008205480397597914,-0.9999484050674879,0.0,0.3587405063035469,-0.13696260129779533,0.30515480688234287,1.0,-0.29012400000006167,-0.38130582857150974,-1.222393435488277,2.272999999999862
-0.24798768811188404,-0.4928120474741336,-0.13560052801044925,-2.6226332004391395,-0.06425786623453697,2.1353758689030373,0.731918879040541,-1.186836924094594,-0.4356911688580143,-0.00965842342600811,-0.35017384269400276,-0.06715259540774562,-0.09681223367135387,0.06698749288743139,0.9610694069443855,-0.27625014207537446,0.0034929844132248217,0.0,-0.276207736148024,-0.9610414314363431,-0.009455181435416439,0.0,0.005969012877347246,0.008122452679893949,-0.9999491970333958,0.0,0.35380849105335066,-0.14335260725723933,0.30508878102611836,1.0,-0.28250800000006254,-0.37129622857151084,-1.1882129074562808,2.28999999999986
-0.2669271079312435,-0.4993950923096676,-0.13570686153265607,-2.627723769465718,-0.06510687567646842,2.133977484928918,0.7327115305238598,-1.1926105757750072,-0.3993657485836902,-0.004676254015444171,-0.3042654224527452,-0.039783332353750735,-0.08455479514476395,0.041146286006340606,0.9552958751788225,-0.2955973997338189,0.003565815213976703,0.0,-0.2955534089436295,-0.9552686343003698,-0.009527102650574475,0.0,0.006222618004809166,0.008047467961040833,-0.9999482573036377,0.0,0.34903663324172707,-0.1496695659675898,0.30512159824063656,1.0,-0.27489200000006336,-0.36128662857151195,-1.1540323794242844,2.3069999999998583
-0.2867261106515907,-0.5056877662948561,-0.13570859503297358,-2.6324497402312517,-0.06593449954490352,2.1326734645227474,0.7332315718768644,-1.1427612849334994,-0.35834024233945033,0.009155787680534384,-0.27140896679441023,-0.04854107190427917,-0.0707881923020802,0.0198426779942606,0.9496937243580852,-0.3131260906007648,0.0038246831449174983,0.0,-0.3130797390206023,-0.9496691867407719,-0.009500508992702918,0.0,0.006607168179838974,0.007825293628881597,-0.9999475536788243,0.0,0.3447199610000872,-0.15547376631143645,0.30520883124944875,1.0,-0.26772400000006413,-0.351865828571513,-1.121862470688288,2.3229999999998565
-0.3061070498376455,-0.5113465570158975,-0.13570866766473144,-2.636792234062992,-0.06653684650132415,2.1314207925543895,0.7335029126567466,-1.1481650781965953,-0.3212150568949376,-0.0032372551092617716,-0.24552194185199105,-0.027108963456333044,-0.08153204889635039,0.01501036716822612,0.9435612447027071,-0.3311462142814955,0.0038870507225595746,0.0,-0.33109816315057267,-0.9435371554632651,-0.009611946723495756,0.0,0.006850668447862862,0.007782614899578655,-0.999946248178942,0.0,0.34021283534139907,-0.16141010410048898,0.30522846015785304,1.0,-0.260108000000065,-0.3418562285715141,-1.0876819426562918,2.3399999999998546
-0.3250365982896551,-0.5162978696514057,-0.1355663435424374,-2.640756979279551,-0.0671722988437932,2.13012024916609,0.7335612648865926,-1.1172985958514874,-0.2812000609553135,0.015063023543448507,-0.22273523757185654,-0.04091253388194979,-0.07241480431045678,0.0027119423912525097,0.9384727310408594,-0.345306903775808,0.0035808097804592427,0.0,-0.34526098052357224,-0.9384474144508475,-0.009594401473206532,0.0,0.006673543232794288,0.00776791981392036,-0.9999475602462786,0.0,0.336556668543896,-0.16609525151573964,0.3051499579563505,1.0,-0.2538360000000657,-0.333613028571515,-1.0595332725122948,2.353999999999853
-0.3436295289817613,-0.5206531457419551,-0.13545909523155789,-2.64414262913409,-0.06766127944262239,2.1291319612939232,0.7334874917857016,-1.087110463696981,-0.24053037260598004,0.0081890584451599,-0.18169760919071506,-0.015787909966330362,-0.05720961789266446,-0.013184230766960708,0.930965333059554,-0.3650638819158987,0.003557760955521692,0.0,-0.3650177109308341,-0.9309409486803848,-0.009579544774573172,0.0,0.006809342262443618,0.007619725034914593,-0.9999477849609674,0.0,0.3315419320490535,-0.1726866275808457,0.3051302572105951,1.0,-0.24487600000006665,-0.32183702857151625,-1.0193208865922994,2.373999999999851
-0.3608009607760175,-0.5243128787267645,-0.13533157822717268,-2.6468596402325097,-0.06803514167083567,2.1282640650176385,0.7331590252962776,-1.0679559304831239,-0.220962057354855,0.011077773049547528,-0.16028870100571022,-0.020850575409132963,-0.054901105934664365,-0.03099908952595031,0.9248743493908467,-0.3802301154263384,0.003639239335368145,0.0,-0.3801828766179272,-0.9248512214187976,-0.00958881994224177,0.0,0.007011848057594916,0.007485021236138756,-0.9999474028387252,0.0,0.3276688146222892,-0.17781814347095276,0.3051674948755128,1.0,-0.23770800000006745,-0.3124162285715173,-0.9871509778563028,2.389999999999849
-0.3784683120891404,-0.5276209981759205,-0.13510832122271757,-2.649414602093399,-0.0683700982998525,2.1274423279527257,0.7325414040791165,-1.033946699006094,-0.17777088342250044,0.012795662826643564,-0.14220338350157444,-0.018983926556487934,-0.045546487253390874,-0.04043792716070631,0.9184753581715659,-0.39543764525957703,0.0035821843033180594,0.0,-0.39539070483824806,-0.9184528703480791,-0.009553134464460905,0.0,0.007067872531420938,0.007358097888542969,-0.9999479504320923,0.0,0.3236902725309252,-0.18303021928825858,0.30515190316015645,1.0,-0.2300920000000683,-0.3024066285715184,-0.9529704498243066,2.4069999999998473
-0.39475342809445335,-0.5302287347580011,-0.13495619169614623,-2.6514872698502576,-0.06860907334054502,2.1267803516513495,0.7318481444379261,-1.012293199439225,-0.1525858438161746,0.010897673626386795,-0.1202933117444595,-0.0151381448839573,-0.039314494454837944,-0.04796892751864867,0.9123642139278698,-0.4093412573987539,0.0034674250093088815,0.0,-0.40929475213361405,-0.9123415583158438,-0.009562099503211291,0.0,0.007077774039435547,0.007305059182046575,-0.9999482692744626,0.0,0.3200331650244092,-0.18782542965962884,0.30510866126496183,1.0,-0.22292400000006907,-0.29298582857151945,-0.9208005410883101,2.4229999999998455
-0.4106781719945767,-0.532489441199807,-0.13483246004326463,-2.6532244192346273,-0.06877697786403196,2.1262464140058275,0.7309567113747191,-0.9991633537307566,-0.1320294290840449,0.007971764882458706,-0.10103178323724313,-0.0070533131933103,-0.029797601686661065,-0.05322063174189332,0.9062421558062269,-0.4227219545053656,0.003471472317969147,0.0,-0.4226748337276719,-0.9062199573150997,-0.009597958028256606,0.0,0.007203323759079672,0.007230909407490244,-0.9999479116813849,0.0,0.3164840792933806,-0.19251140074442852,0.305100213093206,1.0,-0.21575600000006986,-0.28356502857152044,-0.8886306323523137,2.4389999999998437
-0.4269897339338432,-0.5345132459544166,-0.13458618844876813,-2.65473789643419,-0.06891045706325828,2.1257669209143644,0.7298912020572929,-0.9468621955149428,-0.11221142998918958,0.011943383018376897,-0.08156223416806692,-0.008845894062268336,-0.03825625157592424,-0.060801576476912984,0.8998623215338166,-0.4361377749480556,0.00352000686607354,0.0,-0.43609019023683143,-0.8998413799399919,-0.009569943996895779,0.0,0.0073414032617116765,0.007076727807073885,-0.9999480105093933,0.0,0.3128790256217776,-0.19726635712375265,0.3051137438624023,1.0,-0.2081400000000707,-0.27355542857152154,-0.8544501043203174,2.455999999999842
-0.4429067784759878,-0.536163043216649,-0.13438843920401472,-2.65595765659032,-0.06898012775929997,2.125362272825296,0.7287908187559315,-0.9083241527758755,-0.08949835549504324,0.0203267175509513,-0.07083756777086292,-0.0026885437281131573,-0.02070433903078419,-0.06151201287625906,0.8934335837961295,-0.4491597479894104,0.0035635701904686763,0.0,-0.44911148841289805,-0.8934135931208794,-0.009579640055851157,0.0,0.007486674903211976,0.006958465806300523,-0.999947763361925,0.0,0.30936326409830545,-0.2019028309356874,0.3051290454196314,1.0,-0.20052400000007134,-0.2635458285715224,-0.8202695762883203,2.4729999999998404
-0.4572468634386609,-0.537346423608162,-0.13416426602508752,-2.656868773863592,-0.06898723726102973,2.1250531159180723,0.7275598004649445,-0.8819597580311078,-0.06289706358144724,0.016389597151524264,-0.05719578321037481,-5.6129174758465434e-05,-0.014645103097389736,-0.07632106429505975,0.8875895370546464,-0.4606006721390119,0.003547032198487947,0.0,-0.46055224559711616,-0.887570017716383,-0.00958329941101316,0.0,0.007562459182048342,0.006872574961823058,-0.9999477870991635,0.0,0.3062020678990141,-0.20605135941502173,0.3051234381349649,1.0,-0.19335600000007214,-0.2541250285715234,-0.7880996675523237,2.4889999999998387
-0.47296965541086583,-0.5383282989778173,-0.13389740698224087,-2.65764297963157,-0.06896954442780252,2.1247658994637577,0.7261780484602257,-0.8530314267176048,-0.044974015927586375,0.016760711254291592,-0.03844429091586018,0.003002086472220415,-0.010726809354398091,-0.06740196475494617,0.8810236304011512,-0.47303903665222247,0.003489896720686534,0.0,-0.47299085270774616,-0.881004469532794,-0.009566860469744023,0.0,0.00760025939807174,0.006778071415694142,-0.9999481455580412,0.0,0.3027392010970937,-0.21058578001976921,0.3051094905993259,1.0,-0.185292000000073,-0.24352662857152457,-0.7519085202243277,2.5069999999998367
-0.4871716558366687,-0.5389453185608686,-0.13366765398596803,-2.6581383746313234,-0.06893560737574943,2.1245771873409236,0.7248127347984047,-0.8391339426411143,-0.030912711776942662,0.007405071732289666,-0.02258156319062612,0.004421505668048258,-0.007522316149195407,-0.08492600303265299,0.8749833011828315,-0.484120969455409,0.0034433248405068124,0.0,-0.48407303718246875,-0.8749645489614035,-0.009543565105146907,0.0,0.00763317411902148,0.006683768070451651,-0.9999485296240247,0.0,0.2996125726427049,-0.21468198113765347,0.3050973909642889,1.0,-0.17767600000007383,-0.23351702857152568,-0.7177279921923315,2.523999999999835
-0.5007507635640481,-0.5392825759056353,-0.13331020313840306,-2.6584115984224597,-0.0688403143872435,2.1244445867552475,0.7233395054107633,-0.7866031972168103,-0.017412612993790558,0.017633475867082922,-0.011168090032724802,0.010260654211221966,-0.007887373512712643,-0.08956983298444611,0.869195736923098,-0.4944370207767101,0.003398573431930574,0.0,-0.49438967832872804,-0.8691776498136035,-0.009476598953545072,0.0,0.007639692509725515,0.006556926026307031,-0.999949319625471,0.0,0.29665520213152397,-0.2185617915416564,0.3050929739142355,1.0,-0.17006000000007468,-0.22350742857152678,-0.6835474641603353,2.540999999999833
-0.5139057455421796,-0.5394450817230843,-0.1330306142131745,-2.658582266138393,-0.06872523435647866,2.1244340587656776,0.7218957693607343,-0.7813526259238838,-0.008493522157913432,0.014878910327254889,-0.006449484698344813,0.013212075526394786,-0.0007418663668319932,-0.09189700252878905,0.8634423583158978,-0.5044169537008667,0.003402585226947023,0.0,-0.5043696159325014,-0.8634250461131314,-0.00944601343670009,0.0,0.007702754930739852,0.006440051505323036,-0.9999495953812301,0.0,0.2937724896685372,-0.22232804718126503,0.30508050300645956,1.0,-0.16244400000007553,-0.21349782857152788,-0.6493669361283391,2.557999999999831
-0.5270617813449029,-0.5393988646784118,-0.13264277854437376,-2.658599886886201,-0.06853360356726608,2.1244409223732217,0.7202740311574397,-0.7194285676967503,0.009932558989672779,0.018709321930040886,0.00013064622028437778,0.010232168122492353,0.001342855610355412,-0.08992057628193555,0.8576871972140285,-0.5141420420767391,0.003373307799915918,0.0,-0.5140950151977439,-0.8576704541199658,-0.009405018856520873,0.0,0.007728850837630918,0.006332485458098058,-0.999950081000373,0.0,0.29090468560672944,-0.22605682347814493,0.3050662039264804,1.0,-0.1543800000000762,-0.20289942857152876,-0.6131757888003421,2.5759999999998295
-0.5390300101469768,-0.5392171397326325,-0.13237801386668013,-2.658502770098468,-0.0683406793619846,2.1244421073989295,0.718809305002554,-0.6947878129333165,0.007095012804793218,0.009635889967330256,0.00893920028028939,0.016762710829116102,-0.0010965903172659116,-0.08952127083626449,0.852302361154259,-0.523020502912727,0.00331445395225942,0.0,-0.5229735875331921,-0.8522855802122692,-0.009416124792445527,0.0,0.0077498368425965025,0.006292134662487903,-0.9999501732938008,0.0,0.28826374933815613,-0.22945913856331082,0.30505129890293037,1.0,-0.14676400000007703,-0.19288982857152986,-0.5789952607683458,2.5929999999998277
-0.5509621006147266,-0.5388739792435056,-0.1319979370433985,-2.658259593186815,-0.0680882993988778,2.1245451017099066,0.717139028635813,-0.6503203270006588,0.025904596708075666,0.02357982178060775,0.017733695055979572,0.023528467784436062,0.0033439059090460627,-0.09691781233338986,0.8469842434491026,-0.5315893529131368,0.00334635914869252,0.0,-0.531542241416749,-0.8469683194603081,-0.009394590009582508,0.0,0.007828474930958174,0.00617845742375045,-0.999950269585502,0.0,0.28566812166163563,-0.2328316278387798,0.3050562179942335,1.0,-0.13870000000007793,-0.18229142857153102,-0.5428041134403498,2.6109999999998257
-0.5610499900387403,-0.5384269373677036,-0.13168590930526983,-2.657957439861767,-0.06785901012611074,2.1246671332351013,0.7157392427126915,-0.6329579851612903,0.02781037619076254,0.015907097556993568,0.018780023126284934,0.01592776789457546,0.010095723970202915,-0.08252926160470196,0.8424018418679933,-0.5388215626495138,0.003347736930669093,0.0,-0.5387744151005625,-0.8423864155726676,-0.009381012359432553,0.0,0.007874931468883961,0.006099024508561979,-0.9999503924467474,0.0,0.2834684007001095,-0.23568540617707837,0.3050500513776959,1.0,-0.13153200000007872,-0.17287062857153207,-0.5106342047043534,2.626999999999824
-0.5713341568369134,-0.5378793324235067,-0.13140954337624466,-2.657534682644434,-0.06758190563144707,2.1248112638205856,0.714195639815338,-0.5746175605660351,0.03699539648006912,0.022222392731887645,0.028608157035864886,0.018396013685662002,0.005751647395306082,-0.08530810929169538,0.8376939538622112,-0.5461117712940515,0.0033940857351364,0.0,-0.5460639731420514,-0.8376791248472186,-0.00941105375199544,0.0,0.007982795696065303,0.006030310987978793,-0.9999499539088259,0.0,0.28122107384365663,-0.2386069332088276,0.30506334969290627,1.0,-0.12391600000007955,-0.16286102857153317,-0.47645367667235716,2.643999999999822
-0.5807628793210543,-0.537176754861847,-0.13103510746777422,-2.657041966689185,-0.06725728019314181,2.1249647145132813,0.7126660182406154,-0.5578662781135109,0.04392445325551456,0.016395219564326532,0.02872589719220382,0.0159978251502698,0.009414500822788923,-0.08882756102568323,0.8334187950478844,-0.5526142613749366,0.003367059128411209,0.0,-0.5525664191797388,-0.8334040532792707,-0.009422487663669292,0.0,0.008013276066217545,0.005992469882870943,-0.9999499376025729,0.0,0.2791885310262981,-0.2412567641475863,0.3050551841528642,1.0,-0.1163000000000804,-0.15285142857153425,-0.4422731486403608,2.66099999999982
