nelsonifechukwu/NELSON_IML_WORK/CNN-GradCAM/train2dof/data_sample_2022-02-22-16-20-18/robot_state.csv
position_joint1,position_joint2,position_joint3,position_joint4,position_joint5,position_joint6,position_joint7,velocity_joint1,velocity_joint2,velocity_joint3,velocity_joint4,velocity_joint5,velocity_joint6,velocity_joint7,ee_T_00,ee_T_10,ee_T_20,ee_T_30,ee_T_01,ee_T_11,ee_T_21,ee_T_31,ee_T_02,ee_T_12,ee_T_22,ee_T_32,ee_T_03,ee_T_13,ee_T_23,ee_T_33,v_x,v_y,time
0.465063929619,0.547736592289,-0.123987702897,-1.35582554803,0.0795739119943,1.89411084374,0.159176478868,-0.000177523571613,1.83500797625e-05,-0.00125998393032,-0.000268430617905,0.000299742263576,0.000207956446806,0.00183308092683,0.573846497018,0.818948587139,0.00203872104814,0.0,0.818905942861,-0.57378691043,-0.0119325214382,0.0,-0.00860249574609,0.00851712039103,-0.999926725179,0.0,0.661680237932,0.260898656498,0.303250521759,1.0,0.0,0.0,0.0
0.465066944057,0.547735155566,-0.123987170368,-1.35582554802,0.0795695953377,1.89411013095,0.159175725059,0.000448410465998,-8.94365974573e-05,-5.03646453379e-06,-0.00046597213341,2.98228068074e-05,-5.02500568303e-05,-4.8316803203e-05,0.573841887675,0.818951820807,0.00203716645781,0.0,0.818909191691,-0.573782343147,-0.011929180956,0.0,-0.0086006999112,0.0085138819741,-0.999926768206,0.0,0.661679467393,0.260900230228,0.303251451968,1.0,-0.00012,-0.000157714285714,0.007
0.465063766984,0.547731481834,-0.123988108972,-1.35582561975,0.0795689186408,1.89410931715,0.159176376542,-2.95088227843e-05,0.000357643693423,-0.00031429716247,-0.00202090710624,-0.000409257781235,-0.000329043955045,-0.00758312799997,0.573845491081,0.818949291145,0.00203906842159,0.0,0.818906697192,-0.573785948532,-0.0119270056235,0.0,-0.00859778952656,0.00851422911093,-0.999926790279,0.0,0.661680468664,0.260897460201,0.303253979461,1.0,-0.00046,-0.000604571428571,0.024
0.465065873836,0.547715437794,-0.123985363939,-1.35584185044,0.079569944836,1.89411643747,0.159172097655,0.00122644391649,-0.00156756636326,0.000697391879456,-0.000129238859888,-0.000274720040875,0.00473918042321,-0.00166383475,0.57383952296,0.818953453516,0.00204689165897,0.0,0.818910930891,-0.57377991856,-0.0119264087644,0.0,-0.00859287375571,0.00852023071072,-0.999926781414,0.0,0.661677355344,0.260899378268,0.303258149679,1.0,-0.00082,-0.00107771428571,0.042
0.46506276751,0.547646074092,-0.123988856597,-1.35592001242,0.0795709116807,1.89412516702,0.159169712675,0.000221435004588,-0.00556032418092,-0.000403904171928,-0.00407527290533,9.45987507861e-05,0.000514537350196,0.000926471475486,0.573851316807,0.818945151358,0.00206207848273,0.0,0.818902772462,-0.57379159466,-0.011924850201,0.0,-0.00858276019658,0.00853189704256,-0.999926768799,0.0,0.661665192573,0.260889883086,0.303278427011,1.0,-0.00114,-0.00149828571429,0.058
0.46506518175,0.547499439459,-0.123982869986,-1.356104206,0.0795700285535,1.89415558033,0.159168216245,0.000398746092137,-0.00932721733703,0.000114933422236,-0.0109194421266,-0.00034643747545,0.000391685192921,-0.00152617159723,0.573849404184,0.818946513299,0.00205342985113,0.0,0.818903843448,-0.573789540998,-0.0119500932604,0.0,-0.00860841637614,0.00853927990236,-0.999926485231,0.0,0.661630325365,0.260874728181,0.303289606745,1.0,-0.00148,-0.00194514285714,0.075
0.465044048698,0.547349500089,-0.123983654444,-1.35630705893,0.0795652171302,1.8942202424,0.159161688743,-0.00418907472897,-0.0113544768942,0.000547800580268,-0.0109422862085,0.000305195398204,0.00643272203376,-0.00105826101848,0.573871896659,0.818930715301,0.00206800917741,0.0,0.818888160857,-0.573811896096,-0.0119513517477,0.0,-0.00860084636124,0.00855217778292,-0.999926440143,0.0,0.661606634756,0.260841794952,0.3033048995,1.0,-0.00182,-0.002392,0.092
0.465029062184,0.547184952444,-0.123983920751,-1.35650487925,0.0795619492041,1.8943407744,0.159150992008,-0.00196647656818,-0.0109318294407,0.00079629965491,-0.0133010422177,0.000196397147138,0.00371909088234,0.000118904443225,0.573886070519,0.81892058232,0.00214588397283,0.0,0.818879037645,-0.573825743992,-0.0119115129228,0.0,-0.00852338373333,0.00859323619417,-0.999926751428,0.0,0.661593819801,0.260818075224,0.30333776932,1.0,-0.00214,-0.00281257142857,0.108
0.465001246974,0.54698607844,-0.123983199916,-1.35674929079,0.0795601527501,1.89445761239,0.159132952299,-0.00268174849919,-0.0115178917295,-0.000404994846839,-0.0163655513837,-8.91450504039e-05,0.0142303191584,-0.000330142071377,0.573906886817,0.818905813519,0.00221376375111,0.0,0.818865076971,-0.573846207767,-0.0118853880884,0.0,-0.00846281640351,0.00863404613302,-0.999926914322,0.0,0.661573514294,0.260781343254,0.303372419011,1.0,-0.00248,-0.00325942857143,0.125
0.464963014011,0.546754888196,-0.123985337517,-1.35710665299,0.0795529979099,1.89460568642,0.159100694179,-0.00434911469188,-0.0107617671104,0.000391318469216,-0.0221605639339,0.000501426740906,0.0144837151374,-0.00373115145271,0.573931494781,0.818888498815,0.00223890807595,0.0,0.818847994405,-0.573870615167,-0.0118838549068,0.0,-0.00844687117837,0.00865401061459,-0.99992687656,0.0,0.661538036287,0.26072432594,0.303378983095,1.0,-0.00284,-0.00373257142857,0.143
0.46493275195,0.546491454096,-0.12398073085,-1.35747692663,0.0795454569371,1.89473821148,0.158981180326,-0.00168718571449,-0.0208141726882,0.00174009199366,-0.022031138429,0.000188179646381,0.00603818039762,-0.00464417382829,0.573873836552,0.818928816213,0.0022716951907,0.0,0.818888573549,-0.573812664454,-0.0118860054101,0.0,-0.00843042718162,0.00868149990597,-0.999926777048,0.0,0.66149371688,0.260674259122,0.303400648322,1.0,-0.00316,-0.00415314285714,0.159
0.464889492344,0.546219192285,-0.123981073104,-1.35792411915,0.0795349263449,1.89489868507,0.158936789549,-0.00170181974069,-0.0129785069641,0.00139715927784,-0.0299296656486,0.000641706492481,0.00375270685687,0.000343168403093,0.573895379945,0.818913729782,0.00226780822507,0.0,0.818873281349,-0.573834060913,-0.0119065750692,0.0,-0.00844927487043,0.00869034330197,-0.999926541146,0.0,0.661442212971,0.260605123518,0.303394523567,1.0,-0.0035,-0.0046,0.176
0.464838041717,0.545887100923,-0.123989263078,-1.35847567655,0.0795141980448,1.895088214,0.158899728296,-0.00197972529484,-0.0185968068666,-0.00130321853918,-0.0325070421387,8.4620727988e-05,0.0150291102517,-0.00807009116252,0.573938188049,0.818883786745,0.00224655427781,0.0,0.81884296553,-0.57387685041,-0.0119291771045,0.0,-0.00847952748403,0.00868635269853,-0.999926319731,0.0,0.661378587013,0.260514743832,0.303383832684,1.0,-0.00386,-0.00507314285714,0.194
0.464778423362,0.545568500727,-0.12398673773,-1.35903330134,0.0794810681459,1.8952758515,0.15879856201,-0.00656704755535,-0.0215109102101,0.000645451323357,-0.0346407312702,-0.00315755072247,0.0150923414519,-0.0035813800016,0.573924729154,0.818893336704,0.00220346749437,0.0,0.818851895933,-0.573863508927,-0.0119579492616,0.0,-0.00852795957247,0.00866744320172,-0.999926071934,0.0,0.661313139194,0.260422132371,0.303360138417,1.0,-0.00418,-0.00549371428571,0.21
0.464719826237,0.545196283481,-0.123988842337,-1.35966768438,0.0794291867097,1.89547392719,0.158721346916,-0.000997433942658,-0.0209923882482,-0.000223743641543,-0.0384442498463,-0.00328469659909,0.0105170454029,-0.00177951493831,0.573932428384,0.818888106131,0.00214107180746,0.0,0.818845920518,-0.573871533607,-0.0119819976726,0.0,-0.00858338047674,0.0086302310949,-0.999925919601,0.0,0.661235333407,0.260316783415,0.303338866326,1.0,-0.0045,-0.00591428571429,0.226
0.464649253187,0.544777196274,-0.123988880386,-1.3603666422,0.0793928605504,1.89571276093,0.158665382031,-0.00588562342185,-0.0255212749566,0.00194949044832,-0.041778424492,6.86649483632e-05,0.0111218912534,-0.00770528710101,0.573973705034,0.818859259277,0.00210863170277,0.0,0.818816562161,-0.573912851869,-0.0120092835958,0.0,-0.00862390827257,0.00861976151912,-0.999925661196,0.0,0.661153747157,0.260202956733,0.303323504218,1.0,-0.00484,-0.00636114285714,0.243
0.464584737246,0.544332481315,-0.123995892438,-1.36111169126,0.0793640552507,1.89598124443,0.158543767316,-0.000843053374063,-0.0279130622378,-0.00209796306023,-0.0470522387299,-0.00174612275599,0.0147020506844,-0.0114904447536,0.573965784573,0.818864863741,0.00208805451293,0.0,0.81882176217,-0.573904883682,-0.0120354968507,0.0,-0.00865726748555,0.00861787378919,-0.999925389202,0.0,0.661067663903,0.260087196236,0.303307122728,1.0,-0.00518,-0.006808,0.26
0.464513982672,0.543825883244,-0.123993209481,-1.36191547404,0.0793268203958,1.89626573303,0.158453117331,-0.00367767422585,-0.0287298090514,0.000995478093114,-0.0475333558684,-8.33797585371e-05,0.0167799955059,-0.00321904857869,0.573982449576,0.818853193026,0.00208392679195,0.0,0.818809895818,-0.573921423112,-0.0120541073921,0.0,-0.00867470111185,0.00862535203251,-0.999925173632,0.0,0.660972660521,0.259966498742,0.303307580551,1.0,-0.00552,-0.00725485714286,0.277
0.464441942347,0.543309190985,-0.124001314781,-1.36276051668,0.0792799866363,1.8965500803,0.158331638102,-0.0016925311067,-0.0283482713672,-0.000431168607694,-0.0486998218324,-0.00683389806563,0.010912571063,-0.00254015317969,0.573982096602,0.818853533475,0.00204704574479,0.0,0.818809702198,-0.573921176579,-0.0120789719343,0.0,-0.00871623376129,0.00860942031034,-0.999924949759,0.0,0.660871617005,0.259832375657,0.303295812743,1.0,-0.00586,-0.00770171428571,0.294
0.464367659596,0.542778295363,-0.124004529909,-1.36359052403,0.0792313166135,1.89685011453,0.158254458304,-0.00341893628368,-0.0339935139139,9.54785869564e-05,-0.0572134812719,-0.000406611394341,0.0149301700358,-0.0140156290176,0.574015158136,0.818830356835,0.00204740243806,0.0,0.818786519236,-0.573954221525,-0.0120803316227,0.0,-0.00871679480616,0.00861084476792,-0.999924932603,0.0,0.660776987763,0.259702354202,0.303302382006,1.0,-0.00618,-0.00812228571429,0.31
0.464294880782,0.542194954122,-0.124004186139,-1.36451271874,0.0791779947427,1.89718581719,0.158108665626,-0.00527003355776,-0.0350791884513,0.000392092397955,-0.057559937645,-0.000810001538211,0.0218232102703,-0.00984159259709,0.57399217289,0.81884647276,0.00204607210466,0.0,0.818802574099,-0.573931201809,-0.0120858239065,0.0,-0.00872229758548,0.00861266325181,-0.999924868956,0.0,0.660668528358,0.259566807798,0.303305074009,1.0,-0.00652,-0.00856914285714,0.327
0.464207522022,0.541523057906,-0.124005216158,-1.36551672449,0.0791138066503,1.89755872858,0.157973449948,-0.00234055457172,-0.0447506795217,0.00107206690406,-0.0559288566744,-0.000656042328724,0.0228036372999,-0.00544174508486,0.57399230935,0.818846294126,0.00207901523803,0.0,0.818802863463,-0.573931233749,-0.0120646845335,0.0,-0.00868607767344,0.00862750587328,-0.99992505629,0.0,0.660555510219,0.259413065084,0.303334612184,1.0,-0.00688,-0.00904228571429,0.345
0.464125015338,0.540903729325,-0.124008412453,-1.36648397344,0.0790608427703,1.89791355908,0.157875588637,-0.00352392721537,-0.0392221391155,-0.000535553272545,-0.0618370606097,-0.00318384428712,0.0200266813789,-0.000683540841585,0.574021492646,0.818825817404,0.00208653669395,0.0,0.818782441434,-0.57396033785,-0.0120661126942,0.0,-0.00868262245133,0.00863479387413,-0.99992502339,0.0,0.660444416637,0.259265536939,0.303342912974,1.0,-0.0072,-0.00946285714286,0.361
0.464040726063,0.540195502755,-0.124014092597,-1.36755680671,0.0789983617769,1.89830724607,0.157719507635,-0.00288589569173,-0.0440248487851,-0.00046783902032,-0.0667778503297,-0.00249517140991,0.0245525282599,-0.00403396753585,0.57400940708,0.818834225069,0.00211171499731,0.0,0.818791174225,-0.573948142704,-0.0120536052298,0.0,-0.00865805629145,0.00864810289622,-0.999925121385,0.0,0.660320418236,0.259105133086,0.3033671357,1.0,-0.00754,-0.00990971428571,0.378
0.46393957262,0.53945591489,-0.124011953028,-1.36870701129,0.0789306430838,1.89874221474,0.157578862113,-0.00718660812682,-0.0431360928724,-0.000642142121068,-0.068192878799,-0.00481670505653,0.0261916048048,-0.00422686869813,0.574021202346,0.818825900949,0.00213309465096,0.0,0.81878310829,-0.573959824768,-0.0120452493579,0.0,-0.00863881784961,0.00866093713747,-0.999925176698,0.0,0.660190255167,0.258931316123,0.303379903949,1.0,-0.00788,-0.0103565714286,0.395
0.463843297235,0.538742303812,-0.124017210025,-1.3698062276,0.0788640598252,1.89917673669,0.157439041572,-0.0105285909159,-0.042552669358,-0.00114793184451,-0.0671758855628,-0.00299025435309,0.026775790259,-0.00849026096817,0.57403237752,0.818817964376,0.00217202080344,0.0,0.818775742654,-0.573970898008,-0.0120182520903,0.0,-0.00859424944684,0.00867743083487,-0.999925417754,0.0,0.660071259748,0.258762304696,0.303398672033,1.0,-0.0082,-0.0107771428571,0.411
0.463727669879,0.537957706067,-0.124017727107,-1.37102560982,0.0787939958129,1.89964156678,0.157295982283,-0.00947830556845,-0.0455647109597,1.43168919352e-05,-0.0694187232997,-0.0048956132429,0.0201344290898,-0.00568456965008,0.574051494875,0.818804489222,0.00219921861437,0.0,0.818762601374,-0.573989878345,-0.0120070416968,0.0,-0.0085692554034,0.00869346556489,-0.999925492984,0.0,0.659926577988,0.258562994961,0.303414198077,1.0,-0.00856,-0.0112502857143,0.429
0.463616385213,0.53709745185,-0.124023691473,-1.37236158522,0.0787105649454,1.90013546853,0.157128193029,-0.00844454914187,-0.0462220257069,0.000154922645015,-0.0764007193405,-0.00786746255337,0.0283126025166,-0.00489865545641,0.574068170518,0.818792767504,0.00221051611767,0.0,0.818751072606,-0.574006551333,-0.0119961257973,0.0,-0.00855365499193,0.00869662386909,-0.999925599092,0.0,0.659782583521,0.258367270647,0.30342726935,1.0,-0.0089,-0.0116971428571,0.446
0.463498481144,0.536307546071,-0.12402260734,-1.37360879047,0.078648089315,1.90060910268,0.156969281306,-0.00883236570636,-0.048523454399,0.00124027168079,-0.0803215767684,-0.00230548360785,0.0286011703669,-0.00670079605952,0.574085874927,0.81878029997,0.00223058100742,0.0,0.818738751353,-0.574024053016,-0.0119996038873,0.0,-0.00854479663373,0.00871523400048,-0.999925512799,0.0,0.659642253184,0.258174456376,0.303432282869,1.0,-0.00922,-0.0121177142857,0.462
0.463385637564,0.535421997034,-0.124029817416,-1.37499692095,0.0785635718578,1.90110829929,0.156804237374,-0.00488750589519,-0.0548734428774,0.00130803897935,-0.0782744526911,-0.00724188795434,0.0295602248027,-0.0113815904383,0.574101753393,0.818769180468,0.0022254814994,0.0,0.818727570804,-0.574039956105,-0.0120016874091,0.0,-0.00854926106173,0.00871242058821,-0.999925499156,0.0,0.659478339455,0.2579628915,0.303440023478,1.0,-0.00956,-0.0125645714286,0.479
0.463270597588,0.534593029664,-0.124037199786,-1.37635418508,0.0784931567061,1.90159276682,0.15663428604,-0.00802891952531,-0.0490688654263,0.000399313657091,-0.085561984162,-0.00803803915567,0.033491169195,-0.0125589289474,0.574116320174,0.818759059552,0.00219093896968,0.0,0.818716853927,-0.574054517369,-0.0120362404995,0.0,-0.00859722806234,0.00870412834613,-0.999925160109,0.0,0.659306055107,0.257743792144,0.303418090586,1.0,-0.0099,-0.0130114285714,0.496
0.463136305797,0.533627296646,-0.124041816952,-1.37792119822,0.0784056123698,1.90216038581,0.156441886588,-0.00896367049584,-0.056028333157,3.1728726814e-06,-0.0848222310394,-0.00562375954841,0.0291468842352,-0.00606406604264,0.574135606931,0.818745604374,0.00216496493465,0.0,0.818702999727,-0.574073850571,-0.0120565015282,0.0,-0.00862852399978,0.00869469750853,-0.99992497259,0.0,0.659131304092,0.257513790122,0.303405816623,1.0,-0.01024,-0.0134582857143,0.513
0.463015016006,0.532746954269,-0.124040004903,-1.37934581823,0.0783286552228,1.90271257448,0.156258215927,-0.00553449048016,-0.0582968274451,-0.00526501237096,-0.0930492335973,-0.00502899667042,0.0343793077473,-0.0138414345191,0.57414076536,0.818741960966,0.00217481178143,0.0,0.818699407684,-0.574078888796,-0.0120605223072,0.0,-0.00862610823257,0.00870512222596,-0.999924902732,0.0,0.658967981949,0.257302350684,0.303396329069,1.0,-0.01056,-0.0138788571429,0.529
0.462885954569,0.531765925669,-0.124046039372,-1.38090124361,0.0782330609157,1.90328595508,0.156058571803,-0.00101622293225,-0.0621179730377,-0.000871477706288,-0.0943465757252,-0.005674728353,0.0333038926571,-0.00411029298401,0.574146470116,0.818737970997,0.00217085301033,0.0,0.81869538424,-0.574084627962,-0.01206045865,0.0,-0.00862826822253,0.00870190463994,-0.999924912102,0.0,0.658785492682,0.257065489568,0.303397433323,1.0,-0.0109,-0.0143257142857,0.546
0.462769096411,0.530891446827,-0.124045703606,-1.38233102159,0.0781452425381,1.90379339447,0.155878776428,-0.0110731381089,-0.0621325925677,0.000346675814453,-0.101085511258,-0.00058193652968,0.0354345334365,-0.0120219602545,0.574148933576,0.818736353945,0.00212877953432,0.0,0.818693166004,-0.574087218536,-0.0120876942792,0.0,-0.00867469663478,0.00868312121344,-0.999924673685,0.0,0.658610925735,0.256850699696,0.303377142136,1.0,-0.0112,-0.01472,0.561
0.462621798741,0.529801329342,-0.124044634117,-1.38407114416,0.0780458949855,1.90441266251,0.155639766906,-0.0113813504279,-0.060096922862,-0.00061318229501,-0.100561397233,-0.00393821029811,0.0390151093159,-0.0152028538147,0.574140907909,0.818742040258,0.00210624798952,0.0,0.818698430511,-0.574079163815,-0.0121136474061,0.0,-0.00870896698221,0.00867948955017,-0.99992440732,0.0,0.658399745995,0.256588028097,0.30337053294,1.0,-0.01156,-0.0151931428571,0.579
0.462495784467,0.528802961321,-0.124044339846,-1.38564193255,0.0779404509205,1.90500431445,0.155435152697,-0.0112388703367,-0.0640533517088,0.00115946360503,-0.099165758539,-0.00185696543006,0.0455838168398,-0.0133795079104,0.57412967469,0.818749877653,0.00212164663318,0.0,0.81870657751,-0.574067973738,-0.0120933192995,0.0,-0.0086836014994,0.00868030665187,-0.99992462083,0.0,0.658203011395,0.256338831479,0.303381612619,1.0,-0.0119,-0.01564,0.596
0.462348482925,0.527692904852,-0.124044344119,-1.38736206971,0.0778339206649,1.90567103527,0.155192292079,-0.0117400793689,-0.0649793052513,-0.000343850079395,-0.106985763226,-0.00570590823451,0.0378374749363,-0.0150399299394,0.574119711042,0.818756759955,0.00216155577137,0.0,0.818714006733,-0.57405786638,-0.012070133726,0.0,-0.0086418118692,0.00869956516695,-0.9999248155,0.0,0.658017961681,0.256096419023,0.303397797108,1.0,-0.01222,-0.0160605714286,0.612
0.462205385693,0.526528913261,-0.124052466684,-1.38915201874,0.0777187256793,1.90634622627,0.154946211143,-0.0127025968538,-0.0695417803792,-0.000750178678964,-0.106615583763,-0.0105862625068,0.0431321656976,-0.017902778095,0.574106866294,0.818765671136,0.00219744055842,0.0,0.818723487062,-0.574044973288,-0.012040235746,0.0,-0.00859686751093,0.00871164593639,-0.999925097742,0.0,0.657808583251,0.255827538861,0.303423768334,1.0,-0.01256,-0.0165074285714,0.629
0.462047064174,0.525347346406,-0.124055584507,-1.39098800644,0.0776100625176,1.90700985543,0.154707279321,-0.00983740107116,-0.0719599825148,2.31115473709e-05,-0.109016319673,-0.00841797098387,0.0423732201427,-0.0206664984633,0.574114569541,0.818760262551,0.00220009303187,0.0,0.818718079048,-0.574052629897,-0.0120429252979,0.0,-0.00859746501563,0.00871544261346,-0.99992505952,0.0,0.657576677606,0.255528526696,0.303435403101,1.0,-0.01292,-0.0169805714286,0.647
0.461896830177,0.524250842338,-0.124064489763,-1.39273273409,0.0774899245361,1.90764172628,0.15445232429,-0.00956279476363,-0.0670686477737,-0.000989481078343,-0.109391801074,-0.0101531498431,0.0398557058182,-0.0236809616037,0.574094585081,0.818774322712,0.00218237238806,0.0,0.818732004787,-0.574032820549,-0.0120404389887,0.0,-0.00860581458935,0.00869929643431,-0.999925128296,0.0,0.657380335038,0.255273445914,0.303434448892,1.0,-0.01322,-0.0173748571429,0.662
0.4617306447,0.522986778506,-0.124065594937,-1.39477870987,0.0773672991474,1.90840443384,0.154194149819,-0.0068832083053,-0.0711228313541,0.000433714406679,-0.117644570539,-0.00969939658132,0.0446308490053,-0.00870767250683,0.574096916891,0.818772735133,0.00216451403886,0.0,0.818730143546,-0.574035186483,-0.0120541955265,0.0,-0.00862730552352,0.00869259673655,-0.999925001368,0.0,0.657133795146,0.254969233671,0.303415419121,1.0,-0.01358,-0.017848,0.68
0.461580155572,0.521808354766,-0.124068689133,-1.39661902431,0.0772576178814,1.90912655251,0.153943699382,-0.00344489938118,-0.0741884112805,-0.0008346301424,-0.114426801081,-0.00503261052132,0.0436696917266,-0.0231504334709,0.574086490016,0.818779913506,0.00221407349196,0.0,0.81873800266,-0.574024587007,-0.0120251158968,0.0,-0.00857515583036,0.00871637050291,-0.999925243,0.0,0.656920430954,0.254696815088,0.303430264286,1.0,-0.0139,-0.0182685714286,0.696
0.461422870218,0.52063607025,-0.124071641627,-1.39850180938,0.0771326882164,1.90984079067,0.153673626109,-0.00937479537819,-0.0761217738845,-1.47470447438e-05,-0.115402226667,-0.0134102769167,0.0470563634074,-0.023395438407,0.574063180634,0.818796270336,0.00220889685263,0.0,0.818754388782,-0.574001400577,-0.0120162342896,0.0,-0.00857110295295,0.00870678930066,-0.999925361222,0.0,0.656697236212,0.254411967293,0.303419587544,1.0,-0.01422,-0.0186891428571,0.712
0.461236010421,0.519243071796,-0.124073941521,-1.40068588137,0.0770023851616,1.91061493933,0.153383368567,-0.0123684034094,-0.072263506898,-0.000399754985027,-0.121352058964,-0.0109099026705,0.0381046890152,-0.0150576243876,0.57406109209,0.818797768676,0.0021962378783,0.0,0.818755623911,-0.573999265727,-0.0120340416888,0.0,-0.00859297299482,0.00870662485796,-0.99992517495,0.0,0.65642762504,0.25407849261,0.30342530035,1.0,-0.01458,-0.0191622857143,0.73
0.461059548621,0.517873155848,-0.124084021708,-1.40279229617,0.0768625056942,1.91137378342,0.153099728422,-0.00953350610316,-0.0814948903225,-0.00117075481528,-0.126365828736,-0.00841686464783,0.0457962904044,-0.0251471895386,0.57405431714,0.818802488259,0.00220750861489,0.0,0.818760585196,-0.573992540546,-0.0120172554804,0.0,-0.00857283026478,0.00870614605433,-0.999925352015,0.0,0.656171560915,0.253753704272,0.303450209487,1.0,-0.01492,-0.0196091428571,0.747
0.460889336648,0.516610852947,-0.124086560191,-1.40480468294,0.0767323589676,1.91210610227,0.152814534843,-0.00833590814798,-0.0786192806828,-0.00020361994684,-0.129501144907,-0.00705423905865,0.0467365278486,-0.0219716572724,0.574033304121,0.818817274306,0.00218722615306,0.0,0.818775127374,-0.573971635937,-0.0120249256034,0.0,-0.00859097643599,0.00869372152907,-0.999925304375,0.0,0.655925059341,0.25344697402,0.303441492752,1.0,-0.01524,-0.0200297142857,0.763
0.460699524533,0.515224477207,-0.124093768746,-1.40697109007,0.0765953837264,1.91292901286,0.152522412627,-0.0111441664256,-0.0779155103353,-0.00044007152193,-0.128871020034,-0.0125514270108,0.0469024079084,-0.0144456679543,0.574037672164,0.818814157704,0.00220748293932,0.0,0.818772323024,-0.573975967596,-0.0120091037258,0.0,-0.00856634692469,0.00870127140823,-0.999925450009,0.0,0.655653578753,0.253090582874,0.303445007164,1.0,-0.0156,-0.0205028571429,0.781
0.460503557151,0.513740478312,-0.124099996065,-1.40935817313,0.0764528295596,1.91376852992,0.152193008132,-0.0130424713151,-0.0855959161967,-0.000856120769632,-0.134098300503,-0.00289805872962,0.0467359234779,-0.0197191831919,0.574014327109,0.818830638348,0.00216445788962,0.0,0.818788154483,-0.573952716782,-0.0120409251443,0.0,-0.00861734784671,0.00868406322047,-0.999925161381,0.0,0.655367242318,0.25275115233,0.303431065619,1.0,-0.01594,-0.0209497142857,0.798
0.460337312221,0.512510784373,-0.124097902374,-1.41136248986,0.0763310756322,1.9144748978,0.151915798441,-0.0112447374844,-0.0811033656099,0.000973031289805,-0.130760812399,-0.00635506899069,0.0540316008608,-0.0194557262391,0.573994149547,0.818844932501,0.00210706050499,0.0,0.818801578516,-0.57393266514,-0.0120837827982,0.0,-0.00868560068324,0.00866145185787,-0.999924766966,0.0,0.655111809721,0.25245003899,0.303399826589,1.0,-0.01624,-0.021344,0.813
0.460123292467,0.510978475012,-0.124101090527,-1.41379697255,0.0761838129971,1.91539383771,0.151570582869,-0.0130048913917,-0.0880190562012,0.0011987822799,-0.131413769047,-0.0108427657377,0.0481838347133,-0.0153950065345,0.573976798287,0.818857062666,0.00211963477774,0.0,0.818813854553,-0.573915243796,-0.0120793804056,0.0,-0.00867496226748,0.00866903731896,-0.999924793583,0.0,0.65481816243,0.252077774648,0.303393945928,1.0,-0.0166,-0.0218171428571,0.831
0.459921968836,0.509486417607,-0.124106685225,-1.41615853312,0.0760299621618,1.91627701492,0.151245423375,-0.0118476916461,-0.0875321998236,0.000284679734493,-0.141969758706,-0.00233675136935,0.0498698923323,-0.0196662259299,0.573960983697,0.818868137819,0.00212343109243,0.0,0.818825059674,-0.573899495356,-0.0120680479565,0.0,-0.00866367072738,0.00866547410461,-0.999924922366,0.0,0.654530403155,0.251717165437,0.303391021224,1.0,-0.01694,-0.022264,0.848
0.45971312982,0.507988660383,-0.124112750619,-1.41852508016,0.0758750067215,1.91711598036,0.15091298871,-0.0104206403056,-0.0896893374685,9.22634677638e-05,-0.138056743077,-0.00828301370827,0.043992393337,-0.0185193612983,0.573944913192,0.818879482682,0.00209197612762,0.0,0.818836008626,-0.573883576587,-0.012082152232,0.0,-0.0086934432029,0.00864764169035,-0.999924818343,0.0,0.654233839725,0.251347814081,0.303385375193,1.0,-0.01728,-0.0227108571429,0.865
0.459507936498,0.506549367573,-0.12411597723,-1.42079934025,0.0757324606937,1.91795619815,0.150601316987,-0.0129294539847,-0.0941020918931,-0.00164808633024,-0.143929595926,-0.00713940228056,0.060385905352,-0.0212284031476,0.573939327801,0.818883394369,0.00209316296052,0.0,0.818839933852,-0.57387798485,-0.012081727324,0.0,-0.00869247309624,0.00864831038594,-0.999924820994,0.0,0.653954918296,0.250994796357,0.303382309639,1.0,-0.0176,-0.0231314285714,0.881
0.459261467958,0.50474747506,-0.124116389849,-1.42355745641,0.0755586006862,1.91902766692,0.150218775211,-0.0150845492,-0.0964090142664,-0.00121185908948,-0.146188741688,-0.0070479768774,0.0586592442878,-0.0229109582541,0.573923831494,0.818894010678,0.00218673734184,0.0,0.818851859528,-0.573862181516,-0.0120239625082,0.0,-0.00859163043671,0.00869161991173,-0.999925317026,0.0,0.653626115824,0.250574447947,0.303421707081,1.0,-0.01798,-0.0236308571429,0.9
0.45906651542,0.503294250949,-0.12411497557,-1.42573756068,0.0754247764805,1.91984178452,0.149917162811,-0.0121768475438,-0.0939508714968,0.00232991689311,-0.145166064031,-0.0120173575957,0.0561684542114,-0.00984310608941,0.573911406135,0.818902514097,0.00226212632081,0.0,0.818861331097,-0.57384942984,-0.0119874604058,0.0,-0.00851860557408,0.00873227615102,-0.999925587588,0.0,0.653358932869,0.250241977953,0.303469590347,1.0,-0.01828,-0.0240251428571,0.915
0.458818940598,0.501480789888,-0.124131675105,-1.42842220388,0.075250846931,1.92081643427,0.149542196851,-0.0174080797996,-0.101377844478,-0.000371929951425,-0.148215214931,-0.00427766324581,0.0513015152074,-0.0243147135253,0.573909239609,0.818903801344,0.0023442986655,0.0,0.81886379848,-0.573847043557,-0.0119330231637,0.0,-0.00842689141568,0.00876830237714,-0.999926049453,0.0,0.653030347402,0.249813988948,0.303542675224,1.0,-0.01864,-0.0244982857143,0.933
0.45858005146,0.499769580441,-0.124129588836,-1.43102667318,0.075086357182,1.92174033822,0.149177639898,-0.01014133042,-0.0967134994183,-0.00151142895995,-0.15698111008,-0.0127022341849,0.056645054561,-0.0126076437042,0.573892969093,0.8189151268,0.00237108084419,0.0,0.818875406255,-0.573830598955,-0.0119272643748,0.0,-0.00840698033733,0.00878676212719,-0.999926055013,0.0,0.652700094053,0.24940906013,0.303576942032,1.0,-0.01898,-0.0249451428571,0.95
0.458348237601,0.498207542145,-0.124132371235,-1.43349493551,0.074928222457,1.92266062086,0.148810332348,-0.0127224319407,-0.0941845883943,0.000169604928125,-0.15533927788,-0.0112321801507,0.0553428812038,-0.0253598990302,0.573866859465,0.818933403482,0.0023780602758,0.0,0.818893800492,-0.573804492828,-0.0119203367001,0.0,-0.00839758191347,0.00878823420365,-0.99992612105,0.0,0.65239593607,0.249020915783,0.303571330552,1.0,-0.0193,-0.0253657142857,0.966
0.458081647553,0.49652217003,-0.124132371341,-1.43616342621,0.0747681188812,1.92361579159,0.148421102509,-0.0124503352938,-0.0932408236715,-0.00108879762169,-0.153448523909,-0.0113632200733,0.0574212556798,-0.0229127743106,0.573858347915,0.818939427699,0.00235736929598,0.0,0.818899411148,-0.573795914481,-0.0119477967844,0.0,-0.00843203533275,0.00878696042848,-0.999925842304,0.0,0.652060571976,0.248591808722,0.303558759865,1.0,-0.01964,-0.0258125714286,0.983
0.457813960274,0.49484741685,-0.124129839287,-1.43890745363,0.0746001213751,1.92455408624,0.148035456207,-0.0186047263107,-0.101874081617,0.000157229574953,-0.164775392412,-0.0105738452268,0.0563781023491,-0.0150007207314,0.573852757809,0.818943651499,0.00224831600795,0.0,0.818901988668,-0.573790539478,-0.0120289925937,0.0,-0.00856116949249,0.00874418937638,-0.999925119961,0.0,0.65170207482,0.24815220721,0.303500763897,1.0,-0.01998,-0.0262594285714,1.0
0.457500448254,0.492664880454,-0.124198586057,-1.44221146674,0.0744083704659,1.92574598929,0.147558409935,-0.0180268117486,-0.172520072739,-0.00705564822242,-0.239932114813,-0.0114162631847,0.0914343622163,-0.0315936143569,0.573889893948,0.818917494697,0.0022963894392,0.0,0.818876608251,-0.573827625651,-0.0119876353259,0.0,-0.00849931622714,0.00876021102227,-0.999925507389,0.0,0.651334745126,0.24763240749,0.303546636825,1.0,-0.0343885714286,-0.0451964081633,1.016
0.457129899956,0.489454763954,-0.124263097554,-1.44716274754,0.0741548908305,1.92769140605,0.146797025486,-0.0299772946051,-0.228137801994,-0.00512297119046,-0.362294865725,-0.0143672356183,0.143302150683,-0.0512666297603,0.573785147936,0.818990269004,0.00250802409825,0.0,0.818952013143,-0.573721917046,-0.0118957543148,0.0,-0.00830375850575,0.00887972949593,-0.999926096268,0.0,0.650640104217,0.246809704114,0.303606977366,1.0,-0.0516788571429,-0.0679207836735,1.034
0.456416868155,0.484397633011,-0.124335766696,-1.45512489576,0.0737115259132,1.93074053553,0.145583387239,-0.0449140084743,-0.31242271406,-0.00923651396582,-0.491061853265,-0.0318074562366,0.179631586312,-0.0771751562583,0.57370906898,0.819043231397,0.00261460775223,0.0,0.819006267797,-0.573645337593,-0.0118535593242,0.0,-0.00820887803209,0.008942046783,-0.999926324346,0.0,0.64969792577,0.245613398483,0.303589374929,1.0,-0.0680085714286,-0.0893826938775,1.051
0.455591990757,0.479025465792,-0.12449377135,-1.46375500918,0.0732019073597,1.93368508735,0.144270339724,-0.0599889300074,-0.387166478554,-0.019159916295,-0.613715055298,-0.0416318727446,0.201839960521,-0.0884961292355,0.573708160621,0.81904470854,0.00233639712459,0.0,0.819003921426,-0.573645315158,-0.01201565595,0.0,-0.00850125983621,0.00880716784604,-0.999925078381,0.0,0.6485708519,0.244151812913,0.303467198887,1.0,-0.0824171428571,-0.108319673469,1.066
0.45435029023,0.471109826964,-0.124667935999,-1.47624067379,0.0724694027903,1.93800204799,0.142468759541,-0.0711661581204,-0.461815047267,-0.00538268138697,-0.733991687753,-0.0362151956319,0.252341312424,-0.0969370123419,0.573780098524,0.818994897767,0.00212199668577,0.0,0.818950825797,-0.573717666273,-0.0121791311267,0.0,-0.00875738787245,0.00872612200085,-0.999923578556,0.0,0.646931579765,0.242047037774,0.30338059617,1.0,-0.0997074285714,-0.13104404898,1.084
0.452944980543,0.462231924568,-0.124790568825,-1.48974864598,0.0716523075502,1.94303035483,0.140274737774,-0.0894316896286,-0.541357585832,-0.00433211129112,-0.809205099278,-0.0569288469596,0.307039770789,-0.142690637235,0.573635927044,0.819094969544,0.00244968846516,0.0,0.819055309963,-0.573572262918,-0.0120002222356,0.0,-0.00842441050616,0.00889036011897,-0.999924992589,0.0,0.645093461473,0.23965361244,0.303508378513,1.0,-0.116997714286,-0.15376842449,1.102
0.451447017433,0.453471328076,-0.124925065481,-1.50345411667,0.0707729589312,1.94778402992,0.138169312509,-0.109644782234,-0.603788579585,-0.00915317239023,-0.935347710913,-0.0597868280218,0.320526680036,-0.148929492378,0.573638426115,0.819093716904,0.00227726039873,0.0,0.819051511869,-0.57357517291,-0.0121197701125,0.0,-0.0086212135076,0.00881772919334,-0.999923958274,0.0,0.643373755108,0.237431138896,0.30343298629,1.0,-0.130445714286,-0.171442938775,1.116
0.449472376338,0.442180815294,-0.125101893154,-1.52057248092,0.0696063729399,1.95391574304,0.135501454787,-0.123983086105,-0.685320408275,-0.00355327149996,-1.04836202543,-0.0624459783279,0.364410567823,-0.167050227544,0.573653864782,0.819082327731,0.00247602914376,0.0,0.81904345128,-0.573590558711,-0.0119349392464,0.0,-0.0083556317511,0.0088746703449,-0.999925709063,0.0,0.641112663777,0.234419710872,0.303559112407,1.0,-0.146775428571,-0.19290484898,1.133
0.447190866222,0.429691977248,-0.12525674063,-1.53954255259,0.0683453439792,1.96045324583,0.132416402823,-0.141746107423,-0.752086569796,-0.0110056243391,-1.14758977277,-0.0682119654393,0.391460913275,-0.18828818708,0.573594691284,0.819123677909,0.00250545810512,0.0,0.819084944737,-0.573531021102,-0.011948558108,0.0,-0.00835054969173,0.00890598398061,-0.999925473107,0.0,0.638504566293,0.23104686917,0.303624011939,1.0,-0.163105142857,-0.214366759184,1.15
0.444722437403,0.416913221285,-0.125429481001,-1.55875806384,0.066986169358,1.96708108368,0.129218558447,-0.160516412587,-0.827125933007,-0.0133806829536,-1.20884604672,-0.0898478501821,0.432616364868,-0.196609462705,0.573562338232,0.81914600325,0.00261082778399,0.0,0.81910907475,-0.573498731917,-0.0118437769905,0.0,-0.00820463412638,0.00893186912078,-0.999926450142,0.0,0.635844859878,0.227523926612,0.303738277095,1.0,-0.178474285714,-0.234566204082,1.166
0.441574529051,0.40143316004,-0.12562198816,-1.58200998135,0.0653813272951,1.97515298271,0.12530419503,-0.187858730954,-0.851886416313,-0.00855867495692,-1.32744327812,-0.0867306102361,0.44066723903,-0.236357516531,0.57357828509,0.819134178338,0.00280992040452,0.0,0.819099986373,-0.573514115905,-0.0117268103987,0.0,-0.00799445610197,0.00902802338054,-0.999927289089,0.0,0.632772248898,0.223445065248,0.303819655463,1.0,-0.194804,-0.256028114286,1.183
0.437996689122,0.384713667814,-0.125824800302,-1.6068462318,0.0635925248929,1.98364612291,0.120982626607,-0.202523225519,-0.947022380985,-0.00956357566729,-1.42228158271,-0.102724257904,0.475481972948,-0.258720600495,0.573590417216,0.819124658882,0.00309408966168,0.0,0.819094331319,-0.57352549985,-0.0115639233432,0.0,-0.00769790365252,0.00916748342001,-0.999928347196,0.0,0.629010872482,0.218456510103,0.303991070415,1.0,-0.213054857143,-0.280014955102,1.202
0.434940008691,0.370869173297,-0.126007905972,-1.62722755443,0.0620784867126,1.99045546264,0.117287296654,-0.226533869744,-1.01239731409,-0.0174041811003,-1.50624186487,-0.115549006995,0.492441408275,-0.267060023998,0.573534388647,0.819163189379,0.00327431024127,0.0,0.819135440888,-0.57346922435,-0.0114422509345,0.0,-0.00749549892644,0.00924480594873,-0.999929173021,0.0,0.62600098083,0.21448832619,0.304132001858,1.0,-0.226502857143,-0.297689469388,1.216
0.430533055524,0.352316979481,-0.126252941402,-1.65476478353,0.0599271308507,1.99947209469,0.112283883423,-0.259732583872,-1.04397203791,-0.0167622737643,-1.57155435695,-0.123612229335,0.502616554062,-0.30149743289,0.573586131762,0.81912726368,0.003197224962,0.0,0.819098980714,-0.573521754359,-0.0114194558253,0.0,-0.00752045432568,0.00916906173402,-0.999929683065,0.0,0.621834331352,0.208965743134,0.304129142847,1.0,-0.243793142857,-0.320413844898,1.234
0.425879005158,0.333765674136,-0.126505231681,-1.68196667661,0.0578698448701,2.00828970758,0.107093724657,-0.286920737227,-1.09649508781,-0.0118456944977,-1.67683239963,-0.124315691693,0.527725956033,-0.311585470649,0.57365109115,0.819081355284,0.00330241566301,0.0,0.819054090582,-0.573585978319,-0.0114135480242,0.0,-0.00745454858853,0.0092524294735,-0.999929408636,0.0,0.617628634311,0.203374400335,0.304178316206,1.0,-0.260122857143,-0.341875755102,1.251
0.421189114864,0.315499711685,-0.126688421841,-1.70852543751,0.0557040452362,2.01671853209,0.101882223246,-0.299136019532,-1.15146524289,-0.0153007958022,-1.69439598094,-0.138369336241,0.53176137099,-0.329284029001,0.573552115608,0.819150523772,0.00333721257236,0.0,0.819123846489,-0.573487087824,-0.0113767795567,0.0,-0.00740558919366,0.00925894464574,-0.999929712126,0.0,0.613379639537,0.19788305404,0.30422137746,1.0,-0.275492,-0.3620752,1.267
0.415672553343,0.295319375029,-0.126907864912,-1.73778569328,0.0532463593801,2.02572765918,0.0958322579288,-0.338076691705,-1.20665682266,-0.0188494486113,-1.7666491689,-0.153019638587,0.516891697128,-0.359888829154,0.573394287994,0.819261595905,0.00318980766877,0.0,0.819232931586,-0.573329610286,-0.0114589997331,0.0,-0.00755925276024,0.00918389729926,-0.999929254362,0.0,0.608564922275,0.191648737903,0.304179814156,1.0,-0.291821714286,-0.383537110204,1.284
0.409615147399,0.274274888111,-0.127162129233,-1.7677537368,0.0507758966268,2.03481841125,0.0894792591972,-0.371248922465,-1.24720131757,-0.0174282523423,-1.76729355494,-0.151784993456,0.518094100841,-0.38238233204,0.573401119856,0.819256367347,0.0033026066206,0.0,0.819228474526,-0.573335258701,-0.0114949797075,0.0,-0.00752397935661,0.00929700261687,-0.999928475181,0.0,0.603527867191,0.18508124672,0.304250500477,1.0,-0.308151428571,-0.404999020408,1.301
0.40330460013,0.253651613802,-0.127508559106,-1.79671835838,0.0482224512559,2.04351249054,0.0830608900288,-0.41172143739,-1.30805502406,-0.0211860026017,-1.80117690311,-0.150838443083,0.550120521649,-0.402747655847,0.573497170582,0.819188311866,0.00350027687482,0.0,0.819163446461,-0.573431324541,-0.0113362655943,0.0,-0.00727950802354,0.00936879548998,-0.99992961474,0.0,0.598590843849,0.178458434421,0.304375168787,1.0,-0.323520571429,-0.425198465306,1.317
0.395617198014,0.229706889999,-0.127862894543,-1.83013684985,0.0451916893886,2.05334172156,0.0753071495627,-0.432143957275,-1.35090897997,-0.0189081251969,-1.88344350549,-0.164084944158,0.563079650154,-0.445612530596,0.57349508355,0.819188928722,0.00369257426095,0.0,0.819166872086,-0.57342917168,-0.0111967693749,0.0,-0.0070549755397,0.00944630856616,-0.999930494872,0.0,0.592718764732,0.17069400748,0.304448239205,1.0,-0.340810857143,-0.447922840816,1.335
0.387755960881,0.206353600448,-0.128138991113,-1.86233239093,0.0421875006052,2.06234397522,0.0674613361617,-0.479382646841,-1.38481696312,-0.0174117828615,-1.90705814731,-0.187870743106,0.515907398103,-0.466998168188,0.573375950173,0.819272019126,0.00375836945445,0.0,0.819250483844,-0.573309453589,-0.0112099085155,0.0,-0.00702939098294,0.00950672097428,-0.999930102517,0.0,0.586833221682,0.163076179492,0.304499463669,1.0,-0.357140571429,-0.46938475102,1.352
0.379661001895,0.183703533511,-0.128521234605,-1.89334348393,0.0391692616352,2.0706169922,0.0595242929956,-0.521782597024,-1.43153564648,-0.0271225234784,-1.94830374423,-0.186575277808,0.505904271862,-0.504533979814,0.573331365021,0.819303912488,0.00360440939786,0.0,0.819280012064,-0.573264766783,-0.0113364853073,0.0,-0.0072218848969,0.00945276516573,-0.999929242301,0.0,0.580997356453,0.15545887209,0.304464500021,1.0,-0.372509714286,-0.489584195918,1.368
0.370219319288,0.158923648288,-0.129027470352,-1.92658809569,0.0358421240196,2.0792730639,0.0505470428869,-0.56407496893,-1.48556178505,-0.0235949416174,-1.93032400834,-0.196554998623,0.498525052405,-0.538969068681,0.573465849502,0.81920946076,0.00367773823692,0.0,0.8191864459,-0.573398957039,-0.0113114907191,0.0,-0.00715780675306,0.00949968984809,-0.999929258345,0.0,0.574625062974,0.146933981688,0.304541638087,1.0,-0.388839428571,-0.511046106122,1.385
0.359470015273,0.131935954855,-0.129507397442,-1.96239619016,0.0320901734512,2.08833576978,0.0403798613635,-0.609851125675,-1.50380589987,-0.0317547172917,-2.00325273374,-0.209012221671,0.500395149868,-0.587882258491,0.573438866254,0.819227942114,0.00376728405158,0.0,0.819206253346,-0.573371976001,-0.011244488307,0.0,-0.00705187968557,0.00953439284614,-0.999929680701,0.0,0.567534457936,0.137624791496,0.304575335832,1.0,-0.406129714286,-0.533770481633,1.403
0.349036073642,0.107321193539,-0.130086615976,-1.9945409472,0.0285684561801,2.09598710789,0.030712285182,-0.678754113919,-1.53812648333,-0.0394937467673,-2.0437225843,-0.23893642996,0.467540086736,-0.628877292653,0.573563500623,0.819140730037,0.0037579315938,0.0,0.819119101266,-0.573496860794,-0.0112247718288,0.0,-0.00703964135311,0.00951649619558,-0.999929937421,0.0,0.560976847405,0.128895285814,0.304605320287,1.0,-0.421498857143,-0.553969926531,1.419
0.337143990242,0.0806484671861,-0.130598797051,-2.02881431894,0.0247376840579,2.1036422493,0.0196599021259,-0.725797524915,-1.58602721318,-0.0297156819234,-2.00657736901,-0.224270277442,0.428583651555,-0.67119530341,0.573482503668,0.819197483989,0.00374794797289,0.0,0.819175138469,-0.573415108217,-0.0113116349195,0.0,-0.00711746990677,0.00955743452414,-0.999928996013,0.0,0.553727532044,0.119413798339,0.304635956779,1.0,-0.42998,-0.565116571429,1.436
0.323669843966,0.052558926031,-0.131224500198,-2.06442589531,0.0205328142338,2.11125211066,0.00751382122519,-0.767249342935,-1.57718135092,-0.0414767663506,-1.95880126317,-0.23105761376,0.412389393099,-0.677164260411,0.573626415355,0.819096868019,0.00371528060362,0.0,0.819074119827,-0.573559111608,-0.011326015302,0.0,-0.00714630820723,0.00954017542623,-0.999928955142,0.0,0.546000885386,0.109121598091,0.304620033365,1.0,-0.42998,-0.565116571429,1.454
0.311942777969,0.0293319517026,-0.131638005048,-2.09325236056,0.0170636825337,2.11687332477,-0.00284633175627,-0.789716597182,-1.57735105049,-0.0248179830724,-1.91878210957,-0.238741071971,0.362600275057,-0.697266670565,0.573779259639,0.818989846173,0.00370674719314,0.0,0.818966322927,-0.573711073318,-0.011424235856,0.0,-0.00722987045305,0.00959087536424,-0.99992786944,0.0,0.53951090103,0.100590564922,0.304651773016,1.0,-0.42998,-0.565116571429,1.469
0.297271001365,0.00180503962076,-0.132173172288,-2.12668713763,0.012823098998,2.1230703785,-0.0158107436536,-0.83771367579,-1.52743362523,-0.0385738837041,-1.85008730127,-0.226456217981,0.330862603096,-0.731976467149,0.573897110822,0.818906573912,0.00385697997574,0.0,0.818885301817,-0.573828920947,-0.0113127739658,0.0,-0.00705099406565,0.00965097831712,-0.999928568499,0.0,0.531797365766,0.0903267427371,0.304767930698,1.0,-0.42998,-0.565116571429,1.487
0.282923912569,-0.0237615074732,-0.132570424884,-2.15718105394,0.00884640927012,2.12829442711,-0.0285648136604,-0.852093452618,-1.51266922191,-0.0329515898211,-1.77917005287,-0.240380956179,0.287526635217,-0.768331465042,0.573805613113,0.818969815244,0.00403819019011,0.0,0.818951115715,-0.573737314749,-0.0111942232989,0.0,-0.00685100249384,0.00973057586876,-0.999929187322,0.0,0.524523665899,0.0807537410603,0.304875353567,1.0,-0.42998,-0.565116571429,1.504
0.268783330892,-0.0474225998449,-0.133095473774,-2.18503156616,0.0051368886378,2.13257970195,-0.0408978371187,-0.898775414216,-1.47724562571,-0.0443832004984,-1.72263068161,-0.23434136814,0.241816160376,-0.787620074527,0.574019405058,0.818819648726,0.00410516479972,0.0,0.818801433705,-0.573950375899,-0.0112216339988,0.0,-0.00683246507526,0.00980293923236,-0.999928607353,0.0,0.517674966453,0.0716129532888,0.304914280073,1.0,-0.42998,-0.565116571429,1.52
0.253338492696,-0.0722630579367,-0.133502109088,-2.21378035588,0.00115003231148,2.13656989316,-0.0545186223826,-0.914395284882,-1.46031365305,-0.0265103294929,-1.67601263346,-0.231298055404,0.212131539541,-0.810246477423,0.573933906996,0.818879395193,0.0041416698489,0.0,0.818861501438,-0.573864587493,-0.0112260227161,0.0,-0.00681613226447,0.00983463841566,-0.999928407551,0.0,0.510361133885,0.0620552604153,0.304945345698,1.0,-0.42998,-0.565116571429,1.537
0.236289865754,-0.0981734471778,-0.134049391788,-2.24327634039,-0.00302543656668,2.14018746594,-0.0695182567858,-0.944611010533,-1.42218188544,-0.0230366107549,-1.62063741433,-0.234990301221,0.19946110717,-0.843412579476,0.573961974102,0.818859521478,0.00418130011748,0.0,0.818841617502,-0.5738918,-0.0112851336119,0.0,-0.00684145697773,0.0099012507471,-0.999927577228,0.0,0.502614369846,0.0518660869399,0.304945665326,1.0,-0.42998,-0.565116571429,1.555
0.221617983037,-0.119337497976,-0.134444049453,-2.26703070349,-0.0065741871741,2.14267717139,-0.0823820959333,-0.995573807195,-1.39289079373,-0.0356508717397,-1.53206481497,-0.217827904739,0.162248379638,-0.86707806663,0.573927349929,0.818884141737,0.00411172913878,0.0,0.818865131927,-0.573857059984,-0.0113453656743,0.0,-0.0069311286836,0.00987855747197,-0.999927184128,0.0,0.495739017781,0.0428673592946,0.304912974738,1.0,-0.42998,-0.565116571429,1.571
0.203365778782,-0.144410393841,-0.134973612178,-2.29471917685,-0.0107601579113,2.14514655403,-0.0985013680702,-1.02901705359,-1.40174679058,-0.0227728076046,-1.51447680086,-0.229834752275,0.138555431408,-0.904847796707,0.573842147603,0.818944505818,0.00397906089707,0.0,0.81892308473,-0.573771256992,-0.0115009932814,0.0,-0.00713574187184,0.0098584893148,-0.999925942946,0.0,0.488396556973,0.0332930495892,0.30482786283,1.0,-0.42998,-0.565116571429,1.588
0.186538365853,-0.166300115657,-0.135518375424,-2.31854727367,-0.0144351105719,2.14675864004,-0.113364488506,-1.0571506413,-1.37380176459,-0.0305030086001,-1.45589661598,-0.21925585353,0.0953882185284,-0.933117655548,0.573846595545,0.818942222975,0.00380356565409,0.0,0.818916987574,-0.57377417194,-0.0117861774287,0.0,-0.00746995443004,0.00987845251028,-0.999923305037,0.0,0.481461507401,0.0242527712495,0.304707770594,1.0,-0.42998,-0.565116571429,1.604
0.169193788345,-0.187933236905,-0.136005270741,-2.34164700003,-0.0181288426846,2.1478776402,-0.128769582691,-1.10318899746,-1.31711239506,-0.0391835800494,-1.39956435395,-0.231807741429,0.054785551925,-0.977786415129,0.573721102835,0.819031055242,0.00360189016879,0.0,0.81900172698,-0.573647523076,-0.0120597418349,0.0,-0.00781123809784,0.00986907266431,-0.999920789845,0.0,0.474500798506,0.0152695448809,0.304600844779,1.0,-0.42998,-0.565116571429,1.62
0.150064481056,-0.210677392165,-0.136652673185,-2.36533773434,-0.0219308470834,2.14868742313,-0.145802410266,-1.12847588817,-1.32273222134,-0.0382923426601,-1.38169660744,-0.218672295145,0.0324157695347,-1.01937231231,0.573724734623,0.819028372611,0.00363326879058,0.0,0.818998006671,-0.573649205119,-0.0122311666267,0.0,-0.00793360349012,0.00999315512339,-0.99991859408,0.0,0.467133095404,0.00565882232742,0.304562154575,1.0,-0.42998,-0.565116571429,1.637
0.130213018165,-0.233044735278,-0.137350051806,-2.38802481461,-0.0258800962375,2.14905464719,-0.16334909589,-1.18138047994,-1.31168431962,-0.0391634147463,-1.33430161555,-0.234778297597,0.0268244391155,-1.05396867501,0.573826969337,0.818956596964,0.00366721321119,0.0,0.81892715829,-0.573751900555,-0.0121578339663,0.0,-0.00785281897294,0.00997986565581,-0.999919364507,0.0,0.459816532242,-0.00401295385718,0.304599453679,1.0,-0.42998,-0.565116571429,1.654
0.110923239098,-0.253656429664,-0.13806068605,-2.40843080519,-0.0292853419919,2.14901371624,-0.180572299036,-1.22456935819,-1.24895355527,-0.0451649976928,-1.27145019697,-0.214408811993,-0.0269622044353,-1.10033487834,0.573989352944,0.818841430039,0.00396005798168,0.0,0.818815322258,-0.573912480412,-0.0121111421768,0.0,-0.0076445254614,0.010194419088,-0.999918814229,0.0,0.452981665028,-0.0130929546637,0.304683401114,1.0,-0.42998,-0.565116571429,1.67
0.0898216033909,-0.27523032392,-0.138744497981,-2.42930049977,-0.0330646513205,2.14876767152,-0.199507852503,-1.25823878605,-1.26520124985,-0.0536930855748,-1.22054608367,-0.213810825603,-0.0316804337666,-1.12521505609,0.573973883931,0.818850654596,0.00428169757458,0.0,0.818830859869,-0.573898826895,-0.0117006972044,0.0,-0.00712399950897,0.0102220775325,-0.999922375868,0.0,0.445750824026,-0.0227031736119,0.304828429723,1.0,-0.42998,-0.565116571429,1.687
0.0667606609186,-0.297279634771,-0.139443003862,-2.45035776508,-0.0368939094849,2.14786353304,-0.220357985187,-1.30367656949,-1.22730118385,-0.0419313813023,-1.14261468182,-0.219467116652,-0.0325451231792,-1.16622486048,0.573919843912,0.8188876938,0.00443898734374,0.0,0.818870228914,-0.573844732723,-0.011598182026,0.0,-0.00695045284349,0.0102915795451,-0.999922884324,0.0,0.438069523742,-0.0328357596672,0.304888525559,1.0,-0.42998,-0.565116571429,1.705
0.0456003842007,-0.316381900173,-0.140158689318,-2.46836132759,-0.040242651418,2.14667133828,-0.239526494202,-1.32693368234,-1.17048199074,-0.0456517571742,-1.11103100594,-0.196724559356,-0.0924869526028,-1.22285302318,0.573968719731,0.8188530713,0.00450591770306,0.0,0.818835942326,-0.573892606644,-0.0116499997773,0.0,-0.00695385912568,0.0103765426061,-0.99992198256,0.0,0.431183612352,-0.041874501314,0.304884943975,1.0,-0.42998,-0.565116571429,1.721
0.0210880760287,-0.337237237919,-0.140942920179,-2.487557408,-0.0439597980318,2.1450857423,-0.261924315555,-1.37566812263,-1.1499869385,-0.0457709268856,-1.05371103469,-0.208253985471,-0.0942368820552,-1.27856298643,0.573914312863,0.818890428281,0.00464487483682,0.0,0.818875650157,-0.573838628615,-0.0115171519864,0.0,-0.00676600718291,0.0104136337651,-0.999922885716,0.0,0.42349550057,-0.0520255589462,0.304930373491,1.0,-0.42998,-0.565116571429,1.739
-0.00141742318459,-0.355194168704,-0.141644667666,-2.50377963918,-0.0471929108768,2.1432465534,-0.282507877037,-1.4088121151,-1.11760304144,-0.0379928087638,-0.986831359709,-0.203254448325,-0.110282368571,-1.29862602584,0.573927176586,0.818881223496,0.0046781067146,0.0,0.818866715272,-0.573851147191,-0.0115286767819,0.0,-0.00675621012161,0.0104475679424,-0.999922597979,0.0,0.4166195295,-0.061068805453,0.304954818994,1.0,-0.42998,-0.565116571429,1.755
-0.0245144399969,-0.372498294082,-0.142442532399,-2.51938317472,-0.0503790647235,2.14121913365,-0.303825307349,-1.4494723197,-1.07333589148,-0.0431568812332,-0.974344519549,-0.205912977656,-0.138467933625,-1.34149755006,0.573909024419,0.818894314706,0.0046130178777,0.0,0.818877746656,-0.573831338932,-0.0117293389458,0.0,-0.00695812871824,0.0105092734925,-0.999920566653,0.0,0.409675869713,-0.0701234397946,0.304869450257,1.0,-0.42998,-0.565116571429,1.771
-0.0497247966076,-0.390277662622,-0.143254951047,-2.5348367857,-0.0535279110875,2.13891812751,-0.327097593747,-1.48815390201,-1.02415956339,-0.0405814619947,-0.905657965426,-0.188619814663,-0.143251743382,-1.37446197179,0.573997017009,0.818831533863,0.00480525924718,0.0,0.818817443983,-0.573918680763,-0.0116656847867,0.0,-0.00679453333538,0.0106309030412,-0.999920405941,0.0,0.401957022933,-0.0802827815555,0.304921998897,1.0,-0.42998,-0.565116571429,1.789
-0.0771454664714,-0.408199748752,-0.14411748147,-2.55031838439,-0.0568479130872,2.13611141602,-0.352648843679,-1.52368020594,-0.965192699512,-0.0418690383006,-0.844817032361,-0.189122442917,-0.170749605836,-1.43148864353,0.57399587644,0.818832456361,0.00478425958233,0.0,0.818816776019,-0.573915564842,-0.0118641747421,0.0,-0.00696914448389,0.0107276259262,-0.999918171186,0.0,0.394591894918,-0.0898779431611,0.30488108746,1.0,-0.42998,-0.565116571429,1.806
-0.100570412196,-0.422488794353,-0.144857622899,-2.56211901035,-0.0594226114461,2.133948921,-0.374606204523,-1.57992397293,-0.919916111673,-0.0456620103211,-0.765879095083,-0.165520308214,-0.152039561225,-1.4844253133,0.574030601707,0.818806231989,0.00509604378208,0.0,0.818796402747,-0.573952180406,-0.0114931439071,0.0,-0.00648589728969,0.0107702459901,-0.999920964346,0.0,0.388246744995,-0.0983722170317,0.305023954172,1.0,-0.42998,-0.565116571429,1.821
-0.129286735789,-0.438491280548,-0.145653374167,-2.57563841907,-0.0624912116404,2.1309275059,-0.401675647505,-1.58852255635,-0.866777208578,-0.0356027851804,-0.73813477156,-0.181657434945,-0.162930746758,-1.52352484317,0.573926634908,0.818879864335,0.00497317124308,0.0,0.81886647702,-0.57384542886,-0.0118263895666,0.0,-0.00683069221107,0.0108600522722,-0.999917697067,0.0,0.380449643631,-0.108471048753,0.304919315856,1.0,-0.42998,-0.565116571429,1.839
-0.157087461644,-0.452757853815,-0.146394558942,-2.58708937225,-0.0651797138008,2.128285777,-0.428014404688,-1.63178526067,-0.790571192034,-0.0244609792525,-0.678858148554,-0.166448428046,-0.157720478573,-1.56899443751,0.573879923403,0.818911393132,0.00516823128896,0.0,0.818902134199,-0.573800710183,-0.0115233024435,0.0,-0.00647115346324,0.0108454763652,-0.999920246727,0.0,0.37324358833,-0.118059613807,0.30503495363,1.0,-0.428691428572,-0.563423020408,1.856
-0.181900969544,-0.464218220372,-0.146892796351,-2.59652134199,-0.0672735612695,2.12581365786,-0.45165537408,-1.63630701539,-0.719712630461,-0.0134772983641,-0.614340300494,-0.160375401924,-0.156614387649,-1.58503285147,0.573695950074,0.819040410914,0.00514869498195,0.0,0.819028942126,-0.573613594471,-0.01182299028,0.0,-0.0067302749604,0.0109999436288,-0.999916848863,0.0,0.366433810005,-0.126876294449,0.30494718773,1.0,-0.413322285714,-0.54322357551,1.872
-0.211647934833,-0.476567924687,-0.147178962205,-2.60631339651,-0.0694474253365,2.12309844491,-0.479741284444,-1.63435818872,-0.656934634617,0.00311229373452,-0.510655167181,-0.112111136232,-0.16520079122,-1.55318911756,0.573841183996,0.818937880111,0.00527171420472,0.0,0.818928011313,-0.573758379923,-0.0117890057725,0.0,-0.00662990084054,0.0110823848307,-0.999916609104,0.0,0.359499999554,-0.136042818036,0.304981317884,1.0,-0.396992571429,-0.521761665306,1.889
-0.239317007192,-0.486831048797,-0.147297268823,-2.61440893267,-0.0711210611634,2.12073067014,-0.50586365703,-1.6242393052,-0.580075618029,0.0154344072499,-0.457048444339,-0.0933174770344,-0.149220143248,-1.53071834836,0.573999029691,0.818826303973,0.00541707817828,0.0,0.818817816857,-0.573914831863,-0.0118277414002,0.0,-0.00657605087254,0.0112249283295,-0.999915374689,0.0,0.352796925711,-0.144839797942,0.304985771078,1.0,-0.380662857143,-0.500299755102,1.906
-0.264857783745,-0.495241878971,-0.147161782918,-2.62103857165,-0.0723365678338,2.11865578099,-0.530066361651,-1.59889377472,-0.510014452359,0.021871442817,-0.391537575589,-0.0755028587182,-0.136941663883,-1.49089762266,0.574081107874,0.818767810089,0.00555892494118,0.0,0.818760046045,-0.573994442661,-0.0119630136773,0.0,-0.00660426563975,0.0114193856447,-0.999912986868,0.0,0.346728363849,-0.152748445566,0.304962624713,1.0,-0.365293714286,-0.480100310204,1.922
-0.291186621295,-0.502898205911,-0.146873697624,-2.62698817094,-0.0734310427654,2.11678428282,-0.55513256989,-1.5396741843,-0.423314260201,0.0329400292951,-0.325241176061,-0.0629691030294,-0.120984770829,-1.45422943958,0.574080968952,0.818767072559,0.00568057050795,0.0,0.818760836309,-0.573993738466,-0.0119426977622,0.0,-0.00651780127063,0.0115073257147,-0.999912546037,0.0,0.340616409673,-0.160779283016,0.30496770068,1.0,-0.348964,-0.4586384,1.939
-0.318200322397,-0.509721663526,-0.146495398511,-2.63210844525,-0.0743123528351,2.11516558451,-0.580921357744,-1.48684109993,-0.359830866905,0.0256882044271,-0.266620987889,-0.0503001717781,-0.0852726257005,-1.4159358533,0.574124364808,0.818735194451,0.00588574573314,0.0,0.818733024369,-0.574038912636,-0.0116751226454,0.0,-0.00618030571863,0.0115220486127,-0.999914519455,0.0,0.334507252022,-0.168936383708,0.305047774047,1.0,-0.331673714286,-0.43591402449,1.957
-0.341486756139,-0.514762760858,-0.145926876761,-2.63600994684,-0.0748823857418,2.11371397155,-0.603138643903,-1.43691051737,-0.295492844269,0.0565562557911,-0.22788574496,-0.0389461763221,-0.0902255839131,-1.3628764876,0.574112809358,0.818742985726,0.00592894224435,0.0,0.818740547269,-0.574025660558,-0.0117984821008,0.0,-0.00625667993449,0.0116281490008,-0.999912816253,0.0,0.329251929147,-0.175792208881,0.305030143479,1.0,-0.316304571429,-0.415714579592,1.973
-0.365251668061,-0.519109912717,-0.145250425406,-2.6394837685,-0.075305897596,2.11247293207,-0.625908077658,-1.35885531353,-0.236761950292,0.0613859860656,-0.184500548003,-0.0365406883421,-0.0757078718518,-1.31712075987,0.574054676648,0.818783474216,0.0059663615255,0.0,0.818780386363,-0.573965291246,-0.0119695552242,0.0,-0.00637611234056,0.0117565452988,-0.999910560417,0.0,0.32394202214,-0.182700569147,0.304965263261,1.0,-0.299974857143,-0.394252669388,1.99
-0.388003289899,-0.522537094972,-0.144516641492,-2.64218864587,-0.0755859146598,2.11147826421,-0.647677070562,-1.31359988587,-0.188387011423,0.0527617879387,-0.142982552888,-0.0244872798341,-0.0525138678896,-1.24569706443,0.574054363847,0.818783492031,0.00599394930488,0.0,0.818780211471,-0.573963847744,-0.0120504642083,0.0,-0.00642653468959,0.0118255763236,-0.999909423596,0.0,0.318939386135,-0.189269444729,0.304929638309,1.0,-0.283645142857,-0.372790759184,2.007
-0.408453226046,-0.525088403757,-0.143721745783,-2.64415112228,-0.0756623294001,2.11070992667,-0.667339445435,-1.27050774859,-0.140932923172,0.0364901298345,-0.110630778517,-0.00651081281547,-0.0389951743578,-1.20978121852,0.57398400011,0.818832427746,0.00604729615762,0.0,0.818829725354,-0.573893056741,-0.0120576615212,0.0,-0.00640282625363,0.0118728392327,-0.999909015613,0.0,0.314504150386,-0.195108137548,0.304928583155,1.0,-0.268276,-0.352591314286,2.023
-0.429144377922,-0.527097726967,-0.142821200665,-2.64575748566,-0.0757236792392,2.1100952048,-0.687227755601,-1.19211450998,-0.109575914723,0.060243567776,-0.0872336371016,-0.00407613005671,-0.0324190205602,-1.14700438891,0.573881199791,0.818904825708,0.00600015503314,0.0,0.818901390716,-0.573790260794,-0.012082872282,0.0,-0.0064520161202,0.011847896652,-0.999908995276,0.0,0.310045276288,-0.200976105221,0.304905349679,1.0,-0.251946285714,-0.331129404082,2.04
-0.449864158986,-0.528620804236,-0.141926925701,-2.64698189259,-0.0756797451701,2.10958430903,-0.707107922315,-1.12048946153,-0.0710804248799,0.0508962766807,-0.0538062163573,0.0114426112284,-0.0231607201772,-1.08152359348,0.573882026219,0.818904319268,0.00599022270392,0.0,0.818900537812,-0.573790732213,-0.0121182382814,0.0,-0.00648666828761,0.011860064076,-0.999908626833,0.0,0.305587446209,-0.206829318286,0.30488575692,1.0,-0.234656,-0.308405028572,2.058
-0.467286117076,-0.529524308286,-0.141076424834,-2.64771877525,-0.07565261503,2.10922841115,-0.72370960497,-1.06238850998,-0.0472632760179,0.0599908540861,-0.0385766488903,0.00338821221725,-0.0216882985226,-1.01515413567,0.573920972191,0.818877818513,0.00588072507992,0.0,0.818872520531,-0.573829984158,-0.0121528310352,0.0,-0.00657727402029,0.011790555776,-0.999908856977,0.0,0.301852267398,-0.211719404824,0.304873038289,1.0,-0.219286857143,-0.288205583674,2.074
-0.484601424305,-0.530081460729,-0.140123440981,-2.64815820282,-0.0754272181506,2.10898798779,-0.740265064629,-1.00200185935,-0.0289186201485,0.0496017865322,-0.0152363773539,0.0162316055863,-0.0161077464868,-0.950946438652,0.573940735496,0.818864168008,0.00585263969364,0.0,0.818858704574,-0.57385022383,-0.0121280441402,0.0,-0.00657280872314,0.0117534898229,-0.99990932272,0.0,0.298185057166,-0.216537669669,0.304881660857,1.0,-0.202957142857,-0.26674367347,2.091
-0.50066410262,-0.530295370624,-0.139058528416,-2.64830394015,-0.0750937358455,2.10885276777,-0.755700448172,-0.913651933524,-0.00919569784001,0.0704810840133,-0.00284056471657,0.023921467525,-0.00783045285331,-0.877672061133,0.573836666665,0.818937409496,0.00580914969107,0.0,0.818931909719,-0.573747306631,-0.0120541394554,0.0,-0.006538727641,0.0116746300277,-0.999910470019,0.0,0.294832901279,-0.220958185741,0.304910431935,1.0,-0.186627428572,-0.245281763265,2.108
-0.514741791094,-0.530311871061,-0.138114273022,-2.64832733254,-0.0746813022834,2.10880145909,-0.769103607383,-0.86436153967,-0.00193129221323,0.0542991068404,-3.07141821543e-05,0.0255904493363,-0.0011515990719,-0.801393450429,0.573897469309,0.81889452694,0.0058476807175,0.0,0.818889872865,-0.573808557144,-0.0119942806204,0.0,-0.00646672602402,0.0116723185419,-0.999910965254,0.0,0.291886625064,-0.224803192362,0.304926676055,1.0,-0.171258285714,-0.225082318368,2.124
-0.528376715121,-0.530095511269,-0.136964681132,-2.6482369724,-0.0741736411364,2.10879770498,-0.782181747129,-0.774832506011,0.0161837067269,0.0644933680169,0.00572434265947,0.0367881932035,-0.00221635683061,-0.744916137838,0.573764667671,0.81898766208,0.0058362996748,0.0,0.818982818655,-0.57367575403,-0.0120007869414,0.0,-0.00648047759281,0.0116656812899,-0.99991095368,0.0,0.289069284164,-0.228450487845,0.304919015239,1.0,-0.154928571429,-0.203620408163,2.141
-0.540936103584,-0.529770347232,-0.135922832995,-2.6480438965,-0.0736389082856,2.10880925306,-0.79404770127,-0.716035790602,0.0207893972341,0.0554616471115,0.012373171374,0.039180868207,-0.00165482115545,-0.681895498756,0.573836974494,0.818936711921,0.00587668888336,0.0,0.818932278046,-0.573747672066,-0.012011647415,0.0,-0.00646516694703,0.0117055629943,-0.999910586708,0.0,0.286463067639,-0.231801149415,0.304916606867,1.0,-0.138598857143,-0.182158497959,2.158
-0.552733126966,-0.529201325876,-0.134686273974,-2.64774047706,-0.0730026446188,2.10888476285,-0.80531200958,-0.626867948,0.0353294677121,0.0693313703633,0.0165485379421,0.0407583299951,0.00306460465608,-0.59186891111,0.573690139787,0.819039571962,0.00587792244049,0.0,0.81903463037,-0.573599916739,-0.0120895273624,0.0,-0.00653035122314,0.0117500909015,-0.999909640856,0.0,0.284075979171,-0.234879576743,0.304885612514,1.0,-0.121308571429,-0.159434122449,2.176
-0.562207274059,-0.528676104862,-0.133706374768,-2.64745345403,-0.0724721193137,2.10899902639,-0.814126232244,-0.574308554204,0.0264752819395,0.0561478132542,0.0149734193096,0.0301587097523,0.00248630749704,-0.526218740065,0.573782173183,0.818974983334,0.00589417608921,0.0,0.818970003756,-0.573691412463,-0.0121261335738,0.0,-0.00654968793736,0.0117851395887,-0.999909101905,0.0,0.282152221377,-0.237351019486,0.304859454872,1.0,-0.105939428572,-0.139234677551,2.192
-0.571157949378,-0.528106368583,-0.132693580272,-2.64706060352,-0.0718815361918,2.10907648784,-0.822319288218,-0.494024561866,0.0305986199015,0.067487452097,0.0239886043937,0.0350739896378,0.00490668013468,-0.463408363006,0.573961785323,0.818848849931,0.00593100804017,0.0,0.81884422855,-0.573870608281,-0.0121408905676,0.0,-0.00653804896443,0.0118252066007,-0.999908705035,0.0,0.280362793767,-0.239665914898,0.304862572119,1.0,-0.0896097142858,-0.117772767347,2.209
-0.578185665422,-0.52753500371,-0.131643827527,-2.64673771473,-0.0712873984163,2.10919308242,-0.82889617446,-0.42232067471,0.0326298185625,0.0630317035163,0.0163091133856,0.0392006033366,0.00516649488165,-0.398840531528,0.57386174309,0.818918913403,0.00593801226509,0.0,0.818913994925,-0.573769854673,-0.012197117901,0.0,-0.00658152481854,0.0118624090734,-0.999907979157,0.0,0.279016445441,-0.241410405319,0.304837244644,1.0,-0.0742405714287,-0.0975733224491,2.225
-0.584711634877,-0.52706038024,-0.130578281499,-2.64641329947,-0.0706910616124,2.10926518523,-0.834698864081,-0.354342584636,0.0279115868081,0.0648023327454,0.0183522290867,0.0344467469274,0.00388413373808,-0.311501725954,0.573973873531,0.818840340801,0.00593596507353,0.0,0.818835361497,-0.573881909401,-0.0122045780249,0.0,-0.00658718468246,0.0118659154862,-0.999907900283,0.0,0.277779949085,-0.243000164127,0.304844255322,1.0,-0.057910857143,-0.0761114122451,2.242
-0.589912816796,-0.526607261791,-0.129478702593,-2.64607900461,-0.0700275914462,2.10941168346,-0.839241663424,-0.280259605037,0.0244524562088,0.0612468304347,0.0158920083202,0.037930518107,0.00562600536439,-0.247579976006,0.574037413483,0.8187956587,0.00595517555019,0.0,0.818791524039,-0.573946427704,-0.0121113660805,0.0,-0.00649890735834,0.0118286522615,-0.999908919447,0.0,0.276886105567,-0.24421453359,0.304870552784,1.0,-0.0415811428573,-0.054649502041,2.259
-0.593632088202,-0.526241774343,-0.128436497633,-2.64588397293,-0.0694073789381,2.10946657788,-0.842444234238,-0.210854106394,0.01919126453,0.0683510783002,0.0150226486176,0.0370804709838,0.000404261104508,-0.179704213587,0.573999610949,0.818822051295,0.00597007919875,0.0,0.818817698842,-0.573907818817,-0.0121712146334,0.0,-0.00653990971531,0.0118749076046,-0.999908103853,0.0,0.276288334497,-0.244989271501,0.304856068041,1.0,-0.0262120000001,-0.034450057143,2.275
-0.596594621335,-0.525997382815,-0.127313401746,-2.64575536023,-0.0687603554622,2.10946472413,-0.844779117074,-0.144818732931,0.0110270956502,0.0512178136478,0.00382565639019,0.0336919467832,0.00169531268235,-0.113484316112,0.574002986312,0.818819692699,0.00596904134154,0.0,0.818814901322,-0.573910427709,-0.0122362265794,0.0,-0.00659369516729,0.0119113999262,-0.999907316573,0.0,0.275870562779,-0.24551079785,0.304852601463,1.0,-0.0197497560976,-0.0259568222997,2.293
-0.5987440198,-0.525845704292,-0.12650578028,-2.64558369609,-0.0683814669616,2.10952328669,-0.84663120347,-0.107679001907,0.0099490272838,0.0425097236908,0.0087489230959,0.0123988462967,0.00229939742301,-0.10794327164,0.573846023847,0.81893030122,0.00588638772679,0.0,0.818925250975,-0.573755338976,-0.0121239932926,0.0,-0.00655148522998,0.0117780436544,-0.99990917374,0.0,0.275587181869,-0.245927437083,0.304899792492,1.0,-0.0193897560976,-0.0254836794425,2.311
-0.600284886758,-0.525674380461,-0.126085215121,-2.64539945016,-0.0682027442499,2.109640234,-0.84808528326,-0.0957551100556,0.0146566731341,0.0215619556646,0.00720679838411,0.0131276462068,0.00815983043773,-0.0897408922539,0.573705489778,0.819029250161,0.00581766963212,0.0,0.819024345805,-0.573616989558,-0.0119756908238,0.0,-0.00647145153046,0.0116355566546,-0.99991136314,0.0,0.275369021791,-0.246295529162,0.304940975341,1.0,-0.0190897560976,-0.0250893937282,2.326
-0.601864031804,-0.525438487821,-0.125882613441,-2.64523224166,-0.068041160372,2.10967990126,-0.849586223904,-0.0912063446796,0.0130850191946,0.00802810492986,0.00927180154068,0.00227255249915,-0.00126372447379,-0.0878956782421,0.573704162233,0.819029949552,0.00585003201867,0.0,0.819025343464,-0.57361531092,-0.0119878581513,0.0,-0.00646287135195,0.0116690332661,-0.99991102852,0.0,0.275076397079,-0.246709667331,0.304938897888,1.0,-0.0187497560976,-0.0246425365854,2.343
-0.603565907699,-0.525253457735,-0.125771782843,-2.64512249048,-0.0679836491857,2.10967116642,-0.851195456077,-0.0980704162751,0.00958484909191,0.0113694461953,0.00361436024643,0.0016235949254,-0.000378384816924,-0.089661180883,0.573732258686,0.81901026329,0.00585071540695,0.0,0.819005201784,-0.573642562796,-0.0120597056852,0.0,-0.00652092889628,0.011711034008,-0.999910160549,0.0,0.274704504656,-0.247169187107,0.304922923258,1.0,-0.0183897560976,-0.0241693937282,2.361
-0.604884656989,-0.525125869462,-0.125731519087,-2.64501550803,-0.0679414545735,2.1096831987,-0.852407866159,-0.0864608228376,0.0043126549686,0.00809904562238,0.0061465573428,0.00448882679447,-0.000420455488838,-0.0843609379038,0.573814505979,0.818952514339,0.00586846554307,0.0,0.818947670859,-0.573724695735,-0.0120595521985,0.0,-0.0065094423136,0.0117261379396,-0.99991005838,0.0,0.274414929282,-0.247543574325,0.304926810409,1.0,-0.0180897560976,-0.0237751080139,2.376
-0.606255131812,-0.524967253121,-0.125685590008,-2.64485804246,-0.0678962123535,2.10971667578,-0.853841046777,-0.0803445018599,0.0126130719206,0.000737218960602,0.00847672856204,0.000598088401593,-0.000388863183224,-0.0825935503282,0.573758112189,0.818991929201,0.00588179420969,0.0,0.818987509192,-0.573668709615,-0.0120174164558,0.0,-0.00646809032345,0.0117124316691,-0.99991048737,0.0,0.274128371516,-0.247944997964,0.304944234162,1.0,-0.0177497560976,-0.0233282508711,2.393
-0.607600294924,-0.524830187269,-0.12567694924,-2.64472815729,-0.0678673946027,2.10975476869,-0.855152139516,-0.0746816979767,0.00442595339843,0.000415407775619,0.00884633537319,-0.000254653433574,0.0021009403004,-0.078877868318,0.573798934932,0.818963190952,0.00590093540613,0.0,0.818959252333,-0.57370986796,-0.0119782020345,0.0,-0.00642440537704,0.0117059305935,-0.999910845128,0.0,0.273833052062,-0.248343458924,0.304956507676,1.0,-0.0174097560976,-0.0228813937282,2.41
-0.608825155808,-0.524723932345,-0.125685530549,-2.64462228568,-0.0678479720645,2.10975490705,-0.856337199333,-0.0814829002357,0.00766259813383,-0.00078108015001,0.0101861501788,0.00509790458886,0.000901645867103,-0.0749298345358,0.57385136183,0.818926286369,0.00592443416801,0.0,0.818922674012,-0.573762226581,-0.0119711419393,0.0,-0.00640438957679,0.0117215352513,-0.999910790724,0.0,0.273551452823,-0.248703023892,0.304965498488,1.0,-0.0171297560976,-0.0225133937282,2.425
-0.610216496345,-0.524585235943,-0.12568962718,-2.64450222276,-0.0678279662563,2.10976014635,-0.857688213058,-0.0721763663807,0.0107698072687,-0.000247604819875,0.00832366580379,0.000637320570781,-0.000707129519754,-0.0793108130101,0.573902116103,0.818890560692,0.00594622930404,0.0,0.818887176619,-0.573812780723,-0.0119762911252,0.0,-0.00639537251347,0.0117427358302,-0.999910599687,0.0,0.273232377799,-0.249110363076,0.304969584202,1.0,-0.0167497560976,-0.0220139651568,2.443
-0.611546553683,-0.524430501469,-0.125679272797,-2.64439734025,-0.0677974311904,2.10979579525,-0.859010401065,-0.0768735868033,0.00467223854288,0.00241977668977,0.00259864807966,0.000138887802415,0.00311646069877,-0.0702287163914,0.573919905135,0.818877928912,0.00596883011378,0.0,0.818874777754,-0.573830361455,-0.0119817165869,0.0,-0.00638659028346,0.0117644965828,-0.999910400028,0.0,0.272932878582,-0.249496281678,0.304963830582,1.0,-0.0163897560976,-0.0215408222997,2.461
-0.612710325298,-0.524276737536,-0.125632484372,-2.64431113772,-0.0677767389772,2.10983179733,-0.860228078306,-0.0711848379296,0.0121473570766,0.00499078645671,0.00303105025831,0.00146158621725,0.000529210376251,-0.0763312226659,0.573856267167,0.818922549946,0.00596562852499,0.0,0.818919201555,-0.573766463523,-0.0120055638121,0.0,-0.00640887273972,0.0117750624893,-0.999910133089,0.0,0.272676754243,-0.249824788678,0.304950826082,1.0,-0.0160697560976,-0.0211202508711,2.477
-0.613896443656,-0.524087460657,-0.12551083054,-2.64420510213,-0.0677521951472,2.10983980764,-0.861430904995,-0.0669153919493,0.00889987207382,0.00765000384017,0.011243010585,0.00115350027768,0.000650275093085,-0.0639787637043,0.573772885726,0.818981244916,0.00592815175355,0.0,0.818977010145,-0.573682528098,-0.0120731400569,0.0,-0.00648692308227,0.0117824872584,-0.99990954232,0.0,0.272429926992,-0.250142501783,0.30493319754,1.0,-0.0157297560976,-0.0206733937282,2.494
-0.615082296388,-0.523895792873,-0.125430092577,-2.64409521978,-0.0677245306346,2.10987744141,-0.862693692203,-0.0684726484089,0.0068652892116,0.00593785066467,0.00628273746858,0.00034273012422,0.00622094909633,-0.0659043394703,0.573670606436,0.819053008204,0.00591201859611,0.0,0.819048337084,-0.573579928898,-0.0121092355931,0.0,-0.00652721630271,0.0117891685041,-0.999909201354,0.0,0.272180220973,-0.250473648187,0.304917985723,1.0,-0.0153697560976,-0.0202002508711,2.512
-0.616078275765,-0.52373994216,-0.125363589854,-2.64401290098,-0.067700200915,2.10989848491,-0.863759405988,-0.0682864648675,0.0104860975375,0.00955993499317,0.0028855523615,4.09085164466e-05,0.00302834022056,-0.0659600401432,0.573581401112,0.819115552248,0.00590214066023,0.0,0.819110456352,-0.573490251395,-0.0121547830572,0.0,-0.00657147822668,0.0118064899373,-0.999908707067,0.0,0.27196603776,-0.250747939835,0.304901618533,1.0,-0.0150697560976,-0.0198059651568,2.527
-0.617208457871,-0.523583917144,-0.125341842934,-2.64391734922,-0.0676775024361,2.10992061992,-0.864837257001,-0.0664283442969,0.00972543051729,-0.000632546582047,0.00410160084345,0.00658177447666,0.00119944459393,-0.0637046124017,0.573623766996,0.819085813598,0.00591192027646,0.0,0.819080631071,-0.573532180968,-0.0121862258186,0.0,-0.00659101505689,0.0118328759699,-0.999908266576,0.0,0.271711699933,-0.251072141502,0.304890223122,1.0,-0.0147297560976,-0.0193591080139,2.544
-0.618413148848,-0.523441491151,-0.125346723658,-2.64381607269,-0.0676485817616,2.10994436059,-0.866046017175,-0.066993941466,0.00581521871467,0.000829204948193,0.00941949597462,0.000306503396659,0.00544860806211,-0.062416439432,0.573641630598,0.819073092076,0.00594107599923,0.0,0.819068195881,-0.573549742502,-0.0121955021823,0.0,-0.00658163178916,0.0118622225427,-0.999907980666,0.0,0.271435133268,-0.251423483568,0.304885921169,1.0,-0.0143697560976,-0.0188859651568,2.562
-0.619421292627,-0.523348715829,-0.125355477126,-2.64373400411,-0.0676282838117,2.10995553076,-0.86704501924,-0.0695814639885,0.00313486548736,-0.00121941275094,0.0094751731596,0.00194333462931,0.000133502187258,-0.0637426557057,0.573668984412,0.819053735803,0.00596834071167,0.0,0.819049276464,-0.573577116245,-0.0121787250979,0.0,-0.00655185277809,0.0118751506334,-0.999908022781,0.0,0.27118666155,-0.25173714304,0.304893853473,1.0,-0.0140497560976,-0.0184653937282,2.578
-0.620587327443,-0.523260966269,-0.125352022213,-2.64362383263,-0.0676017303482,2.10997908121,-0.868148039854,-0.0631774252182,0.000789121456354,0.00172899537705,0.0125674797152,0.0030997657245,-0.000669177656107,-0.0558560950013,0.573734294098,0.819007864705,0.00598533441872,0.0,0.819003898722,-0.573642831579,-0.0121351785085,0.0,-0.00650548770494,0.0118646087299,-0.999908450654,0.0,0.270937798601,-0.252059093142,0.304909909875,1.0,-0.0137097560976,-0.0180185365854,2.595
-0.621518122245,-0.523147116581,-0.125338191993,-2.64349381185,-0.0675778725366,2.11001030438,-0.869069299861,-0.0569356073203,0.00938811501067,0.00091431741095,0.012076318868,0.000398888074874,0.00293243382185,-0.0595308931387,0.573749094002,0.818997440721,0.00599300633551,0.0,0.818993912135,-0.573658212252,-0.0120819825637,0.0,-0.00645729982108,0.01184049022,-0.999909048899,0.0,0.270741248137,-0.252340467772,0.304930225084,1.0,-0.0134097560976,-0.0176242508711,2.61
-0.622499852236,-0.522995924222,-0.125294002938,-2.64334476688,-0.0675510979893,2.11006577545,-0.870125288301,-0.0536674511089,0.00988070514017,0.00632525837436,0.011891349122,0.00088097877212,0.0015208547932,-0.0618941021098,0.573676074333,0.819048643837,0.00598562176218,0.0,0.819045404167,-0.573585946206,-0.0120222763725,0.0,-0.00641368411994,0.0117996154885,-0.999909812798,0.0,0.270545764239,-0.252635842025,0.304948267001,1.0,-0.0130697560976,-0.0171773937282,2.627
-0.623558375396,-0.522806363575,-0.125223701071,-2.64320188713,-0.0675256544694,2.11009626454,-0.871178945358,-0.0538913209473,0.0109658596307,0.00577209021636,0.0101682435003,0.00206341722063,0.000984692493536,-0.0553309418567,0.573648710925,0.81906794266,0.00596729945342,0.0,0.819064419933,-0.573558583215,-0.012032228476,0.0,-0.00643274065354,0.0117901020162,-0.999909802603,0.0,0.270329563965,-0.252940579693,0.304947898321,1.0,-0.0126897560976,-0.0166779651568,2.646
-0.624450191406,-0.522663098132,-0.12516336006,-2.64311299956,-0.0675018639026,2.11010493172,-0.87208038954,-0.052540005848,0.0137539597741,0.00489910155639,0.00250709019234,0.00237482041523,0.00392053670228,-0.0673243177769,0.573613081196,0.819092958839,0.00595858727306,0.0,0.819089071999,-0.573522539187,-0.0120721198457,0.0,-0.00647092884647,0.0118055668749,-0.999909373729,0.0,0.270137789372,-0.253186754743,0.30493787901,1.0,-0.0123697560976,-0.0162573937282,2.662
-0.62537629228,-0.52254378281,-0.125136431443,-2.64306460218,-0.0674813439603,2.11011945585,-0.873063735937,-0.0535760272297,0.00793829175579,0.000237757845869,0.00177449658499,0.000149591069736,0.000219866554343,-0.0641987061593,0.573558698537,0.819130964989,0.00596895546078,0.0,0.819126871903,-0.573467501284,-0.0121218644992,0.0,-0.00650651786199,0.0118421606394,-0.999908710061,0.0,0.269921709859,-0.25344085491,0.304917953131,1.0,-0.0120297560976,-0.0158105365854,2.679
-0.626279634971,-0.522412714366,-0.125125536323,-2.6430195222,-0.0674588034648,2.11013401269,-0.873934281942,-0.0511515109502,0.00493842007886,0.000466144588228,0.0046806753052,0.00507400041363,-0.000275479033749,-0.0551946050949,0.57359018654,0.819108774444,0.00598835828221,0.0,0.819104489925,-0.573498089218,-0.0121870073647,0.0,-0.00654829870926,0.0118956680124,-0.999907802183,0.0,0.269706904735,-0.253690966723,0.304891824766,1.0,-0.0116897560976,-0.0153636794425,2.696
-0.627118799293,-0.522314286816,-0.12512482336,-2.64295597323,-0.0674441600185,2.11014390413,-0.874764949992,-0.0522438247592,0.00271390920009,0.000333287491749,0.00237382929652,-3.2486185451e-05,0.000824402991639,-0.0469082081299,0.573606317888,0.819097368206,0.00600336388987,0.0,0.819093135892,-0.573513888992,-0.012206587122,0.0,-0.00655549702851,0.0119193191313,-0.999907473364,0.0,0.269509652415,-0.253931219578,0.30488542798,1.0,-0.0113697560976,-0.0149431080139,2.712
-0.627998340996,-0.522205715464,-0.125124210336,-2.64286695741,-0.0674298197564,2.11014825875,-0.875657864018,-0.0540430400709,0.00763100036794,-0.00017465547562,0.00493564928453,0.000359478082389,-0.000133153734563,-0.0499700828247,0.573605716181,0.819097693593,0.00601644551504,0.0,0.819093553974,-0.573513086402,-0.0122162378173,0.0,-0.00655590820563,0.0119355653781,-0.999907276875,0.0,0.269306736858,-0.254187724159,0.304886400453,1.0,-0.0110297560976,-0.0144962508711,2.729
-0.62875895025,-0.522094551053,-0.125106333952,-2.64277672871,-0.0674222066131,2.11016344897,-0.876426631316,-0.0491463716752,0.0117110320684,0.00215372586412,0.00683953523592,0.000286718724466,-7.06829040427e-05,-0.056287545113,0.573594353114,0.819105678959,0.00601262616131,0.0,0.81910148168,-0.573501728801,-0.012217883344,0.0,-0.00655961242666,0.0119332896434,-0.999907279743,0.0,0.269138888766,-0.254410670743,0.304888296762,1.0,-0.0107297560976,-0.0141019651568,2.744
-0.62965060828,-0.521953725921,-0.125096024268,-2.64265390121,-0.0674100205467,2.11019361839,-0.877243109585,-0.0493076846453,0.00745122220763,0.00185635176312,0.00690501127965,0.000323900108674,0.00280854208939,-0.0418011986219,0.573660208585,0.81905956233,0.0060120996705,0.0,0.819055474832,-0.573567785134,-0.0122013075108,0.0,-0.0065453769164,0.0119238773336,-0.999907485316,0.0,0.268945666801,-0.25467972827,0.304895208823,1.0,-0.0103697560976,-0.0136288222997,2.762
-0.630522436463,-0.521829626078,-0.125093858809,-2.64253681286,-0.0674022245762,2.11026574942,-0.878057540168,-0.0475999352762,0.00738730133652,-0.000999348707893,0.00423378952909,0.00161460437982,0.00324883743427,-0.0513538797684,0.573715017197,0.819021199508,0.00600838587077,0.0,0.819017524486,-0.573623440448,-0.0121321908535,0.0,-0.00649009548523,0.0118816221643,-0.999908348658,0.0,0.268760909506,-0.254950158876,0.304909036398,1.0,-0.0100097560976,-0.0131556794425,2.78
-0.631265818022,-0.521713276286,-0.125092902032,-2.64243254428,-0.0673947095833,2.11029047063,-0.878788011189,-0.0496240250495,0.00890701137021,0.000144246941474,-0.00029946522565,0.000246132245831,0.000250565446868,-0.0480872446255,0.573733517627,0.819008229323,0.00600982147431,0.0,0.819004680076,-0.573642126901,-0.0121157401286,0.0,-0.00647552877084,0.0118735067183,-0.9999085395,0.0,0.268597930193,-0.25517664601,0.304915807304,1.0,-0.00968975609756,-0.0127351080139,2.796
-0.632050750319,-0.52160073001,-0.125084635904,-2.64231443501,-0.0673870083248,2.11031070168,-0.879609453523,-0.0474893891448,0.00626807970264,0.000401217048048,0.00424396854501,0.000183309103693,0.00112646142427,-0.0438626398765,0.573707070457,0.819026773208,0.00600741025588,0.0,0.819023386096,-0.573616050908,-0.012085779665,0.0,-0.00645275440911,0.0118541349641,-0.999908916574,0.0,0.268428328909,-0.255415485698,0.304930051257,1.0,-0.00932975609756,-0.0122619651568,2.814
-0.632777573372,-0.521491129748,-0.12506226757,-2.64225730022,-0.067376605316,2.11033736444,-0.880305068578,-0.0414073402706,0.00206096224623,-0.000514340539108,0.00648810310709,0.0024171433708,0.00349869000433,-0.0374561110283,0.573724392896,0.819014649813,0.00600593779548,0.0,0.819011106691,-0.573633124973,-0.01210751632,0.0,-0.0064711529627,0.0118655356591,-0.99990866245,0.0,0.268263464199,-0.255620767855,0.304918549814,1.0,-0.00898975609756,-0.0118151080139,2.831
-0.63343022193,-0.521415503445,-0.125039911346,-2.64223342795,-0.067371893699,2.11034828589,-0.880932987841,-0.0399142161066,0.0066280783529,0.00141136362002,0.00113607900066,-0.000262178097208,-0.00023632528765,-0.0316146887802,0.573732289042,0.819009133126,0.00600393769362,0.0,0.819005325698,-0.573640592071,-0.0121447317285,0.0,-0.00650266902822,0.0118853105097,-0.999908223133,0.0,0.268107384266,-0.255796641488,0.304903068807,1.0,-0.00866975609757,-0.0113945365854,2.847
-0.634099788692,-0.521328900038,-0.125020844704,-2.64219969572,-0.0673597257199,2.11035521161,-0.881593756212,-0.040159711765,0.00434751914971,0.000375054085532,0.000814872434796,-0.000148203670418,0.000991077332976,-0.0320641071054,0.573733159805,0.819008480929,0.00600969276193,0.0,0.819004470964,-0.573640930346,-0.0121863232381,0.0,-0.00653342212489,0.0119138923583,-0.999907682521,0.0,0.267948223812,-0.255978672141,0.30488761872,1.0,-0.00832975609757,-0.0109476794425,2.864
-0.634672546514,-0.521266777189,-0.125006877718,-2.64215702449,-0.0673510452062,2.11036544377,-0.882172216608,-0.0364662461989,0.00273441636369,-0.000199983509901,0.00535331597251,0.00154727067791,0.00124200176855,-0.0354391971682,0.573724573626,0.819014478654,0.00601201080346,0.0,0.819010458111,-0.573632261165,-0.01219202022,0.0,-0.00653688358817,0.0119189908022,-0.999907599137,0.0,0.267815511464,-0.256139287916,0.304885385221,1.0,-0.00802975609757,-0.0105533937282,2.879
-0.635299359818,-0.521194292167,-0.124998697867,-2.64210916195,-0.0673435470723,2.11038151788,-0.882803249634,-0.0382496460418,0.00827998632466,-0.00217107081369,0.00676562077649,0.00252595565894,-0.00109461914866,-0.0425861662088,0.573721084805,0.819016894352,0.0060158554938,0.0,0.819012887761,-0.573628689797,-0.0121968366336,0.0,-0.00653867384542,0.0119248751158,-0.999907517272,0.0,0.267669419661,-0.256317650735,0.304882061616,1.0,-0.00768975609757,-0.0101065365854,2.896
-0.635956043156,-0.521085331055,-0.124977509565,-2.64202538256,-0.0673355365177,2.11040221245,-0.883431283696,-0.0348899589108,0.00284259649703,-0.000444608362184,0.00620261387667,0.000660659120585,0.00565268453858,-0.0371077220081,0.573737357658,0.819005542962,0.00600931985486,0.0,0.819001451827,-0.573644989911,-0.0121981291947,0.0,-0.00654324517448,0.0119203936027,-0.999907540805,0.0,0.267526667643,-0.256510120489,0.304882350544,1.0,-0.00730975609757,-0.00960710801394,2.915
-0.636481590297,-0.520994770146,-0.124966138246,-2.64193499368,-0.0673279900034,2.11042553144,-0.883928543473,-0.0288998329678,0.00279960679201,3.03116849103e-05,0.00525920272115,-0.000476019821675,-0.000834681061546,-0.0277952906363,0.573760304999,0.818989505619,0.00600408154811,0.0,0.818985521552,-0.573668275575,-0.0121725916591,0.0,-0.00652499934333,0.0119016349044,-0.999907883492,0.0,0.267417672773,-0.256672004561,0.304892394757,1.0,-0.00698975609757,-0.00918653658537,2.931
-0.637046556857,-0.520899185322,-0.124940873093,-2.64183391518,-0.0673208620734,2.1104539474,-0.884459325334,-0.0323378512222,0.00534730664707,0.00289722706115,0.00239923297637,0.0001465528145,0.000994459936278,-0.0358151763721,0.573778573653,0.818976808788,0.00599015745129,0.0,0.818972896695,-0.573687064417,-0.0121364534303,0.0,-0.006503123262,0.0118696420654,-0.999908406298,0.0,0.267304593182,-0.256844688723,0.304906209599,1.0,-0.00664975609757,-0.00873967944251,2.948
-0.637512146884,-0.52083454731,-0.124926712209,-2.6417674945,-0.0673100156928,2.11047739712,-0.884908364936,-0.0304139184575,0.00466492728071,0.00334334771981,0.00772268451693,0.00161007045607,0.00116760538802,-0.0293801881269,0.573790097506,0.818968749222,0.00598821358372,0.0,0.818964995869,-0.573698930622,-0.0121086517065,0.0,-0.00648130039862,0.0118521899476,-0.999908755006,0.0,0.267206728732,-0.256983882574,0.3049149682,1.0,-0.00634975609757,-0.00834539372823,2.963
-0.638008673878,-0.520743699388,-0.12491025718,-2.64169900389,-0.0672994472576,2.11048960715,-0.885410986565,-0.0288787050342,0.00626823732875,0.00118697149087,0.00338571905915,0.00154675485957,0.00137926546738,-0.0328566421622,0.57378155973,0.818974739329,0.00598706569195,0.0,0.818970924276,-0.573690314156,-0.0121159207274,0.0,-0.00648803633655,0.0118553528682,-0.999908673826,0.0,0.267099399269,-0.257129358038,0.304914123578,1.0,-0.00600975609757,-0.00789853658537,2.98
-0.638536284464,-0.520675463426,-0.124893285164,-2.64165110138,-0.0672913993526,2.11050110889,-0.885922805484,-0.026375586371,0.00106707426402,0.00204675228855,0.00207316775045,-0.000483838116318,-0.000898165878369,-0.0273785494032,0.573792158798,0.818967309328,0.00598762521322,0.0,0.818963568981,-0.573701031836,-0.0121056042395,0.0,-0.00647911211175,0.0118499758532,-0.99990879543,0.0,0.266987125528,-0.257272804339,0.30491716759,1.0,-0.00564975609757,-0.00742539372823,2.998
-0.638948408187,-0.520624226614,-0.124880861798,-2.64161371473,-0.0672781470164,2.1105099166,-0.886308521524,-0.0227691805392,0.00311933291221,0.000357643243097,0.00494940021961,0.00170382256723,0.000936521381024,-0.0262703468239,0.573808889676,0.818955561708,0.00599107482544,0.0,0.81895174443,-0.573717521435,-0.0121240585019,0.0,-0.00649200553228,0.0118635221362,-0.999908551172,0.0,0.266886223921,-0.257394054227,0.304911386754,1.0,-0.00532975609757,-0.00700482229966,3.014
-0.639402641269,-0.520562281979,-0.124867983979,-2.64159776628,-0.0672701150692,2.11051734394,-0.886734914237,-0.026842293647,0.00210180676455,0.00348848072462,-0.00172509301664,0.00108143166452,0.000287263121558,-0.0251363726492,0.573827022044,0.818942824613,0.00599547235268,0.0,0.818938829255,-0.57373520097,-0.0121597700695,0.0,-0.00651846841294,0.0118877586333,-0.999908091158,0.0,0.266776254575,-0.257515639368,0.304896797016,1.0,-0.00496975609757,-0.00653167944251,3.032
-0.639760633729,-0.52052686164,-0.124865197581,-2.64158114295,-0.0672651021177,2.11051968542,-0.887068630658,-0.0232132812275,0.00369913846835,-6.10443150597e-05,0.00107868888816,0.000323250550737,-0.000491947335641,-0.0243299917125,0.573848006005,0.818928081167,0.00600089833131,0.0,0.818924059706,-0.573755979848,-0.0121740266297,0.0,-0.00652672662557,0.0119005500523,-0.999907885131,0.0,0.266688527787,-0.257613954025,0.304891593415,1.0,-0.00466975609757,-0.00613739372823,3.047
-0.640160554667,-0.520513712655,-0.124867656772,-2.64155439841,-0.0672479441605,2.11052529295,-0.887448572205,-0.0196904561607,-0.00247716471792,-0.000848885664855,0.00464785104827,0.00154476380941,-0.000246772599564,-0.0229541940893,0.573874726556,0.818909235278,0.00601743277428,0.0,0.818905561037,-0.573782862013,-0.0121513893807,0.0,-0.00649831029872,0.0119013135573,-0.999908061123,0.0,0.266593278068,-0.257726728149,0.304899341264,1.0,-0.00430975609757,-0.00566425087109,3.065
-0.640513511326,-0.520503134159,-0.124858058119,-2.6415086219,-0.0672367561561,2.11053455197,-0.887787293188,-0.0166235035855,-0.00190625589066,0.00281023781237,0.000807942491373,0.000457825797908,0.00155424000501,-0.0134517230532,0.573886518655,0.818900957441,0.00601934462119,0.0,0.818897610042,-0.573795197328,-0.0121046557919,0.0,-0.00645876753404,0.011876154349,-0.999908616464,0.0,0.266517214481,-0.257830296921,0.304917274677,1.0,-0.00394975609757,-0.00519110801394,3.083
-0.640783312891,-0.520486726762,-0.124839575735,-2.64146456163,-0.0672234611031,2.11054759621,-0.888063741521,-0.0172094851603,-0.000679223203036,0.0025958692956,0.00370148402417,0.00180332065604,0.00141484203427,-0.0211457299312,0.573875757981,0.818908509307,0.0060178639324,0.0,0.818905417908,-0.57378495224,-0.012062006644,0.0,-0.00642484380921,0.0118503827407,-0.999909140778,0.0,0.266464733516,-0.257909507945,0.30493281897,1.0,-0.00364975609757,-0.00479682229966,3.098
-0.641087182234,-0.520437498171,-0.124805555054,-2.64137447334,-0.0672075452534,2.11054857386,-0.888352597151,-0.0197961065697,-0.000115200300282,0.00296776275206,0.00360131917968,0.00119275509679,0.000154111471973,-0.0158612761793,0.573875137175,0.818909024892,0.00600689470867,0.0,0.818906081883,-0.573784915445,-0.0120186007582,0.0,-0.00639559819004,0.0118164862729,-0.999909729414,0.0,0.266415031307,-0.25800357863,0.304956545824,1.0,-0.00328975609757,-0.00432367944251,3.116
-0.641348013782,-0.520384881977,-0.124757465375,-2.64131831925,-0.0671825864059,2.11056322595,-0.888616286486,-0.0145302941406,0.00283274821601,0.00101918122062,0.00203557372494,0.00087114983985,-2.20687654714e-05,-0.0139542671764,0.57385219899,0.818925152218,0.00599964002879,0.0,0.818922251896,-0.573762265549,-0.0119981199601,0.0,-0.00638331805793,0.0117986134057,-0.999910018938,0.0,0.266374478428,-0.25807536832,0.304965110297,1.0,-0.00294975609757,-0.00387682229966,3.133
-0.641553046719,-0.520351225616,-0.124705467549,-2.64129407957,-0.0671641605997,2.11057562603,-0.888840213898,-0.0142621105867,0.00140448856865,0.0068301057698,0.000267935069166,0.00050735301334,8.17761216499e-05,-0.0152339940448,0.57380900305,0.818955501187,0.00598848857549,0.0,0.818952495174,-0.573719197408,-0.0119933346054,0.0,-0.00638641945185,0.0117863979591,-0.999910143198,0.0,0.266341244161,-0.258123985074,0.304966041019,1.0,-0.00262975609757,-0.00345625087109,3.149
-0.641738544525,-0.52031287121,-0.124662475604,-2.64129244796,-0.0671441199778,2.11058435406,-0.889051299514,-0.00459497486902,0.000975940643608,0.00264311027235,0.000799866142772,0.000406029387114,-0.000149236650581,-0.0105202467511,0.573766373645,0.81898538149,0.00598667532714,0.0,0.818982184879,-0.57367627649,-0.0120190492554,0.0,-0.00640913542511,0.0117993339193,-0.999909845287,0.0,0.26630531474,-0.25816286964,0.304954444426,1.0,-0.00228975609757,-0.00300939372823,3.166
-0.641905087046,-0.520282562896,-0.124620405501,-2.64129776303,-0.0671234207716,2.11059018209,-0.88921219779,-0.0120877143556,8.66995641367e-05,0.00195992289918,0.000623859831424,0.00294267059182,0.00152415784247,-0.00954748229005,0.573749897922,0.818996926577,0.00598630040022,0.0,0.818993546147,-0.573659476694,-0.0120467036706,0.0,-0.0064322391672,0.0118147638652,-0.999909514733,0.0,0.266272241589,-0.258194801731,0.304942381663,1.0,-0.00198975609757,-0.00261510801394,3.181
-0.64207631972,-0.520263846603,-0.124582349852,-2.64129495346,-0.0670988441497,2.11059622979,-0.889386701193,-0.0117840889065,9.38689535877e-05,-0.000164478449025,0.001095902275,0.00109219505829,0.000760000688392,-0.00785955435078,0.573730939576,0.819010181451,0.00598987101579,0.0,0.819006793863,-0.573640408639,-0.0120540484234,0.0,-0.00643648025145,0.0118217531893,-0.999909404833,0.0,0.266239609547,-0.258230757566,0.304938201294,1.0,-0.00164975609757,-0.00216825087109,3.198
-0.642263174819,-0.520255931067,-0.124562288453,-2.64129169955,-0.0670782308397,2.1106042282,-0.889554277612,-0.0115085078221,0.00170091328001,0.00308005273505,9.57190280588e-05,0.00014576330558,-0.000423230001668,-0.00328938801544,0.573741481909,0.819002734246,0.00599834438031,0.0,0.818999484845,-0.573650964139,-0.0120483221802,0.0,-0.006426776507,0.0118254908569,-0.999909423053,0.0,0.266199360799,-0.258275793836,0.30493793606,1.0,-0.00126975609757,-0.00166882229966,3.217
-0.642399414201,-0.520261241763,-0.124549608468,-2.64128257916,-0.0670534247863,2.11061053562,-0.889643884518,-0.0081737435287,-0.000415038880966,0.001464009733,0.00135597547402,0.00023809412207,0.00013285494134,-0.00838575234857,0.573781654655,0.818974489842,0.00601204382151,0.0,0.818971554845,-0.573691321705,-0.0120252507618,0.0,-0.00639943945079,0.0118237888006,-0.999909618512,0.0,0.266172345172,-0.25831002653,0.304944886679,1.0,-0.000949756097566,-0.00124825087109,3.233
-0.642512954709,-0.520256269127,-0.124539187124,-2.64127919266,-0.0670404085197,2.11061247424,-0.889709333153,-0.00707730497786,-0.000605339687439,-0.00460269641325,0.000185185417283,0.00156160845349,-0.000214697571496,-0.00317577994839,0.573819382409,0.818948011184,0.00601816003365,0.0,0.818945163289,-0.573729029809,-0.0120235927062,0.0,-0.00639402732157,0.0118281413209,-0.999909601658,0.0,0.26614740031,-0.258337675228,0.304945015304,1.0,-0.000609756097566,-0.000801393728229,3.25
-0.642569812127,-0.520244891943,-0.124537816243,-2.6412791716,-0.067018082504,2.1106090141,-0.889750922749,-0.00300926670505,0.000115264794628,5.8964965865e-05,0.000986210791484,0.00343049164954,-0.000363186312643,-0.00134701723044,0.573840491602,0.818933076924,0.00603760046517,0.0,0.818930380741,-0.573749865001,-0.0120362291106,0.0,-0.00639291677173,0.0118514782552,-0.999909332429,0.0,0.266134186217,-0.258349559944,0.304940590795,1.0,-0.000249756097566,-0.000328250871087,3.268
-0.642572149747,-0.520229283034,-0.124529973438,-2.64127599871,-0.0669982083562,2.11060681418,-0.889772581251,0.00338971052549,0.00148323452668,0.000847231563671,0.000707405360371,0.000240086595502,-0.000343275058965,0.000755974463595,0.573827807254,0.818941865477,0.00605107364295,0.0,0.81893924501,-0.573736941168,-0.0120491585904,0.0,-0.00639595907282,0.0118698324649,-0.999909095261,0.0,0.266137072045,-0.258346669188,0.304936300067,1.0,0.0,0.0,3.283
-0.642558353337,-0.520225633233,-0.124497626418,-2.64128093128,-0.0669854338271,2.1106073822,-0.889785561922,0.00189966845045,0.00125090849984,0.00267810923227,-0.00153700926637,0.000164724117447,0.000257662007111,0.000400425372561,0.573788186625,0.818969658163,0.00604671799486,0.0,0.818966934977,-0.57369726209,-0.0120564417084,0.0,-0.00640499770236,0.0118701344648,-0.999909033819,0.0,0.26614761612,-0.258333346534,0.304933533768,1.0,0.0,0.0,3.3
-0.642560590157,-0.520230687535,-0.12446136508,-2.64128417867,-0.066969876613,2.11060422882,-0.889793210033,0.00029771282315,-0.000880378413034,0.00126257249181,-0.0044829935303,0.00265523834804,-0.000103731593966,-0.000897473958893,0.573764513119,0.818986274299,0.00604259023838,0.0,0.81898349646,-0.573673609492,-0.012056914979,0.0,-0.00640809670119,0.0118668401072,-0.999909053066,0.0,0.266155102258,-0.258323204402,0.3049345113,1.0,0.0,0.0,3.318
-0.642555170492,-0.520222934053,-0.124442447039,-2.64129095188,-0.0669622755808,2.11060072325,-0.889790453477,0.000352368465936,0.00022891555468,0.00114812218853,-0.00030715294975,0.000908843029522,-0.000448846103842,0.000518062208398,0.573751890694,0.818995127822,0.00604114467098,0.0,0.818992218579,-0.573660787597,-0.0120745013007,0.0,-0.00642351359878,0.0118756470703,-0.999908849586,0.0,0.266158956736,-0.25831448628,0.304928731881,1.0,0.0,0.0,3.334
-0.642560420476,-0.52022398285,-0.124435968284,-2.64128093127,-0.0669522605665,2.11060737777,-0.889795578721,-0.00155659411928,-0.000745197347697,0.000565386087217,0.00088503253498,3.69945759841e-05,0.000505426835731,0.000362154140223,0.57375212354,0.818994941042,0.00604435125829,0.0,0.818992187702,-0.573661217885,-0.0120561386676,0.0,-0.00640663002062,0.0118677401133,-0.999909051782,0.0,0.266163292875,-0.258316930937,0.30493439769,1.0,0.0,0.0,3.351
-0.64255774238,-0.520227231884,-0.124432741731,-2.64127313307,-0.0669462685573,2.11060435948,-0.889799794392,-0.000439532900993,-0.000718587684129,7.98339844573e-05,0.00171376092149,-0.000133389811559,-5.21180927219e-05,-0.000891263994257,0.57374709135,0.818998446778,0.00604700293968,0.0,0.818995778416,-0.573656268947,-0.0120476942449,0.0,-0.00639826491553,0.0118650278487,-0.999909137532,0.0,0.266166611272,-0.258316517199,0.304938958607,1.0,0.0,0.0,3.368
-0.642553349198,-0.520229973539,-0.124421576705,-2.64128343661,-0.0669406241961,2.11060656818,-0.889803242119,-0.00464973253622,-0.00168417628241,0.000901120505064,-0.000171857502325,-0.000243924226598,-0.000892436966521,-0.00114280434373,0.573734672203,0.819007143966,0.00604739171017,0.0,0.819004447389,-0.573643789039,-0.0120526078735,0.0,-0.0064022465205,0.0118680682303,-0.999909075964,0.0,0.266168682425,-0.258310048327,0.304935739852,1.0,0.0,0.0,3.384
-0.642545138844,-0.520221239899,-0.124418488263,-2.64129097935,-0.066934523769,2.11060177416,-0.889798009399,0.00099099259335,-0.000456948515981,0.000177118435735,-0.000841691920139,-5.36001092556e-05,-0.000440093777163,0.0012295164752,0.573732343256,0.819008735627,0.00605278202065,0.0,0.819005971383,-0.573641182016,-0.0120731121164,0.0,-0.00641598278427,0.0118842283315,-0.999908795982,0.0,0.266169302972,-0.258303828066,0.304928766987,1.0,0.0,0.0,3.402
-0.642554115449,-0.520215810788,-0.124412812617,-2.64128093127,-0.0669284011525,2.1106011626,-0.889799637064,-0.000518951483665,0.00284338841149,0.000474185449075,0.000918237676281,0.000420796467669,0.00170322292933,0.000958829758164,0.57373743959,0.819005156468,0.00605400631413,0.0,0.819002435215,-0.573646322123,-0.0120687666407,0.0,-0.00641164709882,0.0118827779658,-0.99990884103,0.0,0.266170860827,-0.25830672613,0.304931420751,1.0,0.0,0.0,3.417
-0.642549113037,-0.520215801473,-0.124401132125,-2.64128343704,-0.0669276329623,2.11060341322,-0.889803750023,0.000207761355543,0.000562451327439,0.00096640606291,-0.00177569589857,0.000122800968598,0.00282915017778,-0.000592210036437,0.573721904745,0.819016075732,0.00604901722489,0.0,0.819013291296,-0.573630815295,-0.0120691062405,0.0,-0.0064150128571,0.0118787648303,-0.999908867125,0.0,0.266174519334,-0.258302423904,0.30493074582,1.0,0.0,0.0,3.434
-0.642538887921,-0.520213295783,-0.124396891633,-2.6412915107,-0.0669247714285,2.1106056368,-0.889805458848,0.00188500494006,0.00114486184726,-0.00494969625343,-0.00154047756293,7.32704664965e-05,0.000928825991647,0.00101557293866,0.573709983349,0.819024416915,0.00605032261234,0.0,0.819021594791,-0.573618789532,-0.0120771877025,0.0,-0.00642105650805,0.0118843768417,-0.999908761648,0.0,0.266176756617,-0.258296690106,0.304926446654,1.0,0.0,0.0,3.45
-0.642546601076,-0.520216148604,-0.12439286525,-2.64127313591,-0.0669214006686,2.11060738214,-0.889801606395,5.91107654241e-05,-0.000356818605587,-0.00111902551416,0.00241567544053,5.05995871545e-05,0.000447859552078,0.0018273692178,0.573718871025,0.819018206091,0.00604830738801,0.0,0.819015508198,-0.573627962716,-0.0120542367005,0.0,-0.00640328435646,0.0118696291472,-0.999909050791,0.0,0.266180532037,-0.258302481589,0.304936091367,1.0,0.0,0.0,3.467
-0.642546681997,-0.52021615838,-0.124389048393,-2.64126787519,-0.066920570116,2.11061018712,-0.889811412824,0.000249657876679,-0.000379021383138,-0.000203869495424,-0.000561590614452,0.000246175750119,-0.000365820245595,-0.000367484363702,0.573710824296,0.819023843575,0.00604819335392,0.0,0.819021168916,-0.573619963981,-0.0120502568765,0.0,-0.00640020647303,0.0118671896763,-0.999909099452,0.0,0.266181127991,-0.258301611491,0.304937091507,1.0,0.0,0.0,3.484
-0.642546673172,-0.520215695509,-0.124386667976,-2.64127460841,-0.0669159038221,2.1106117678,-0.889810610138,0.000699894709477,0.0014806958884,0.000968069999664,0.000684692095953,0.000237133550947,0.000143172268128,-0.000444885087015,0.573709438104,0.81902480305,0.00604975377335,0.0,0.819022139748,-0.573618554808,-0.0120513519465,0.0,-0.00640022836225,0.0118690851507,-0.999909076814,0.0,0.266182685851,-0.258300804827,0.304935779025,1.0,0.0,0.0,3.5
-0.642549457267,-0.52021822765,-0.124389373079,-2.64127532618,-0.0669204116526,2.11060987809,-0.889806849488,-0.00212597672954,0.000155820630887,0.000643129556461,0.000830204749147,-3.67262775351e-05,-3.62197861155e-05,0.00146404354003,0.573714749659,0.819021099394,0.00604745174659,0.0,0.819018406625,-0.573623876012,-0.0120517791349,0.0,-0.00640182194075,0.0118674862288,-0.999909085591,0.0,0.266180572518,-0.258302197829,0.304936156655,1.0,0.0,0.0,3.519
-0.642555283417,-0.520215712044,-0.124394622123,-2.64127783183,-0.066916603955,2.11060930028,-0.889806745081,-0.000249590368331,0.000778028228628,-0.000745931544294,-0.000720817266943,0.000110828068202,-1.39805394569e-05,-5.34646650032e-05,0.573724848507,0.819013978497,0.00605377012907,0.0,0.819011328856,-0.573633873172,-0.0120569339819,0.0,-0.00640227312618,0.0118756975842,-0.999908985211,0.0,0.266177543643,-0.258303753255,0.304933922412,1.0,0.0,0.0,3.536
-0.642554819668,-0.52021476832,-0.124397967834,-2.64127790836,-0.0669172260079,2.1106053276,-0.889807457139,-0.000125547466208,8.81585065113e-05,-0.00162105787652,-0.00299653526015,0.000143333256018,-0.000509156380123,-0.000523202429371,0.57372599561,0.819013163127,0.00605536842754,0.0,0.819010500792,-0.573634951039,-0.0120619003371,0.0,-0.00640540750094,0.0118798648324,-0.999908915635,0.0,0.266176214277,-0.258303840974,0.304933122409,1.0,0.0,0.0,3.553
-0.642555130761,-0.520218627516,-0.124394384386,-2.64127310082,-0.0669186369975,2.11060762798,-0.889810650849,0.000681342425359,-0.000947091692631,-0.000373185818963,-0.000793136334811,-0.000383044996205,0.000480458401821,-0.0010671695034,0.573720694226,0.819016906077,0.00605140300551,0.0,0.819014264809,-0.573629802581,-0.0120511630813,0.0,-0.00639896438996,0.0118704155751,-0.99990906911,0.0,0.266178349191,-0.258304888585,0.304937006306,1.0,0.0,0.0,3.567
