nelsonifechukwu/NELSON_IML_WORK/CNN-GradCAM/train2dof/data_sample_2022-02-21-16-34-41/robot_state.csv
position_joint1,position_joint2,position_joint3,position_joint4,position_joint5,position_joint6,position_joint7,velocity_joint1,velocity_joint2,velocity_joint3,velocity_joint4,velocity_joint5,velocity_joint6,velocity_joint7,ee_T_00,ee_T_10,ee_T_20,ee_T_30,ee_T_01,ee_T_11,ee_T_21,ee_T_31,ee_T_02,ee_T_12,ee_T_22,ee_T_32,ee_T_03,ee_T_13,ee_T_23,ee_T_33,v_x,v_y,time
0.465088621353,0.547826422516,-0.123888705313,-1.35586002584,0.0795205599599,1.89409954198,0.159149572564,-0.000354911515133,0.00180728104387,-0.000122738254318,0.00029846569444,-0.000161359615326,0.000433445639816,-0.00165190062693,0.573722893243,0.819035476641,0.00191746513603,0.0,0.818991161358,-0.573663744555,-0.0120055279764,0.0,-0.00873314123851,0.00845839609448,-0.999926091159,0.0,0.661641492536,0.260957567656,0.30316611922,1.0,0.0,0.0,0.0
0.46508625892,0.547817209883,-0.123892312642,-1.35585760298,0.0795218823883,1.89409954198,0.159154617281,-0.00107976076317,-0.000986229332729,-3.9561325689e-05,0.0002041373196,0.000416492503709,0.00023602567575,5.42921465278e-06,0.573731682857,0.819029296379,0.00192734550549,0.0,0.818985120894,-0.57367250133,-0.0119991613635,0.0,-0.00872216750034,0.00846292927136,-0.999926148584,0.0,0.661643665029,0.260954542746,0.303173920365,1.0,-0.00028,-0.000368,0.015
0.465082519344,0.547807104696,-0.123889088792,-1.35586394223,0.0795211703115,1.8940976789,0.15916050036,-0.000748171450964,-0.00603752102291,0.000660377002815,-0.00057897505763,9.3726351533e-05,0.000171150385958,0.000592596600604,0.573737437497,0.819025259328,0.00192984432105,0.0,0.818981098334,-0.573678226998,-0.0119999725332,0.0,-0.00872133886029,0.00846550250008,-0.99992613403,0.0,0.661642383344,0.26095307302,0.303177792133,1.0,-0.00062,-0.000814857142857,0.032
0.465090317682,0.547796781318,-0.123887354439,-1.35587949815,0.0795211703115,1.89410186388,0.159160441351,0.00184803985096,0.00320739343169,0.00147873269035,0.000645287503583,-6.7561376392e-05,0.000407061907693,0.00130766827019,0.573730650049,0.819030013745,0.00192994299221,0.0,0.818985833787,-0.573671420313,-0.0120021861891,0.0,-0.00872316552993,0.00846678106668,-0.999926107271,0.0,0.661637491153,0.260957809533,0.303178007796,1.0,-0.00088,-0.00115657142857,0.045
0.465083363483,0.547674823774,-0.123887238314,-1.35601329908,0.0795185176541,1.89412305935,0.159151296776,-0.000853645695913,-0.00611052437749,0.00203552339279,-0.0116003680203,-6.81518131678e-05,0.00422225637204,-1.01720971181e-05,0.57373530491,0.819026722197,0.00194296890333,0.0,0.818982625632,-0.573675934789,-0.0120053178897,0.0,-0.00871820951082,0.0084792957467,-0.999926044449,0.0,0.661616208102,0.260940007699,0.303202553083,1.0,-0.00128,-0.00168228571429,0.065
0.465077891414,0.547540608962,-0.123886992737,-1.35619818113,0.079518295804,1.89415317342,0.159154848944,0.000132838426557,-0.00905495250308,-0.00478771828948,-0.011861486284,0.000143494394568,-0.000655727067132,0.00208259261077,0.573752522628,0.819014683944,0.00193317450689,0.0,0.818970306096,-0.573693043304,-0.012028162748,0.0,-0.00874236146294,0.00848456459105,-0.999925788886,0.0,0.661584753377,0.260918351836,0.303212241146,1.0,-0.00162,-0.00212914285714,0.082
0.465058907538,0.547392538441,-0.123887367524,-1.35639651108,0.0795110374402,1.89425520133,0.159142863623,-0.000217966590238,-0.00259743710896,0.00110312753715,-0.0134549069176,-0.00231290827207,0.0103524624599,-0.000546262923719,0.573767865056,0.8190038265,0.00197891593782,0.0,0.818960047844,-0.573708190146,-0.0120041449464,0.0,-0.00869628779432,0.00850840952209,-0.999925988034,0.0,0.66156899024,0.260889742315,0.303231591661,1.0,-0.00194,-0.00254971428571,0.098
0.465038626331,0.547192219322,-0.123887001522,-1.35661096828,0.0795090815518,1.89438085279,0.159136692539,-0.000889110503411,-0.0146492938045,0.000617269544045,-0.015840127876,-0.000276911482495,0.0084344151551,-0.00144894196103,0.573790864813,0.818987463796,0.00207954403635,0.0,0.818944970721,-0.573730738016,-0.0119550026473,0.0,-0.00859806450246,0.00856286829954,-0.999926372576,0.0,0.661555492245,0.26086195037,0.303282306418,1.0,-0.00228,-0.00299657142857,0.115
0.465009453807,0.546956741802,-0.123890220744,-1.35693132453,0.0795072772206,1.8945229077,0.159117553789,-0.00354570869219,-0.00933664036572,-2.08373397696e-05,-0.0216395926303,-1.70529348883e-05,0.00652225614852,-0.000715861020622,0.573818893814,0.818967678886,0.0021365729626,0.0,0.818925825418,-0.573758424844,-0.0119377253104,0.0,-0.00855089908234,0.00859995268496,-0.999926458765,0.0,0.661525018214,0.260815219016,0.303309054606,1.0,-0.00266,-0.003496,0.134
0.464983580126,0.54674597108,-0.123888054874,-1.35725079722,0.0794997278456,1.89464320296,0.159092962677,0.000272105050658,-0.0169815329135,4.4161591612e-05,-0.0184579757612,-0.000652223983862,0.00237974464739,0.00188830441728,0.573834309771,0.81895683381,0.00215318030438,0.0,0.818915083891,-0.573773657216,-0.0119424687918,0.0,-0.00854509281123,0.00861643605879,-0.999926366498,0.0,0.661487955825,0.260771150285,0.303316634755,1.0,-0.00296,-0.00389028571429,0.149
0.464934491967,0.546445051009,-0.123892531343,-1.35768944484,0.0794867204922,1.89481162271,0.158952375765,-0.00354543389553,-0.0172694999098,-0.000987279220392,-0.0271759635802,-3.57569484288e-05,0.0116896018003,-0.00687080613508,0.573783602449,0.818992272635,0.00218673863921,0.0,0.818950864239,-0.57372272247,-0.0119359367227,0.0,-0.00852102235323,0.00863964260971,-0.999926371666,0.0,0.661443388425,0.260697305841,0.303335710433,1.0,-0.00332,-0.00436342857143,0.167
0.464900613448,0.546165940714,-0.123890562832,-1.35814900797,0.0794734306478,1.89496419258,0.158929274087,-0.000688836466145,-0.0162340629195,-8.65110498481e-05,-0.0259905234543,-0.00234885525352,0.0077350306387,0.000830934569121,0.57381313485,0.81897162319,0.00217107894677,0.0,0.818929843475,-0.573752145943,-0.0119638368684,0.0,-0.00855254635799,0.00864313448746,-0.999926072356,0.0,0.661384811378,0.260633353097,0.303327778035,1.0,-0.00364,-0.004784,0.183
0.464844476745,0.545836950775,-0.123890563824,-1.35870203547,0.0794459090067,1.89514531378,0.15888854304,-0.00473244951992,-0.0166903784815,-0.000813488625027,-0.0329774189037,-0.000204434782537,0.00559717297481,-0.00660465756921,0.57384924206,0.818946412105,0.00213737892811,0.0,0.818904101067,-0.573788295502,-0.0119921683005,0.0,-0.00859470566578,0.00863217125572,-0.999925805575,0.0,0.661318790266,0.260542732863,0.303313177335,1.0,-0.00398,-0.00523085714286,0.2
0.464786602151,0.545504685634,-0.123890572593,-1.35927358606,0.0793743946482,1.89534453218,0.158781682008,-0.000694508515658,-0.0191213306291,-0.000663481887409,-0.03613680544,-0.00402781344338,0.0172112681413,-0.0127890864319,0.573822032086,0.818965619323,0.00208248919185,0.0,0.818922896811,-0.573761622422,-0.0119848494002,0.0,-0.00862049320536,0.00858273396288,-0.99992600915,0.0,0.661255071933,0.260442912158,0.303293546464,1.0,-0.0043,-0.00565142857143,0.216
0.464720865366,0.545076941107,-0.123891253987,-1.36000773918,0.0793399414591,1.89556982393,0.15871396804,-0.00730016329057,-0.0284002032037,0.00106203032376,-0.0441241681078,-0.000474244169864,0.0100549993708,-0.00940283213286,0.573852465421,0.818944454507,0.00201872830607,0.0,0.818900736799,-0.573792160024,-0.012036912636,0.0,-0.00869939986777,0.00856071490974,-0.999925514527,0.0,0.66116175348,0.260327227392,0.303266442179,1.0,-0.00466,-0.00612457142857,0.234
0.464665518521,0.544697046113,-0.123895900042,-1.36063863793,0.0793168221272,1.89579264919,0.158617113074,-0.000488240469821,-0.0291162871844,-0.00125824070897,-0.043882901014,0.000141749541853,0.0180675704023,-0.00797720870035,0.573850742571,0.818945704058,0.00200148890052,0.0,0.818901622244,-0.573790374924,-0.0120617424738,0.0,-0.00872964518842,0.00856082720526,-0.999925249972,0.0,0.661087913512,0.260229423843,0.303254514066,1.0,-0.00496,-0.00651885714286,0.249
0.46458876683,0.544179822169,-0.123897675357,-1.36149203705,0.0792766407147,1.89610115162,0.158530720735,-0.000979749820324,-0.0313055200484,-0.0053432427926,-0.0450561821723,-0.00813324422791,0.0142261103009,-0.00401029985695,0.573880972901,0.818924566383,0.00198252798475,0.0,0.818880121972,-0.573820571177,-0.0120849010979,0.0,-0.00875917569204,0.00855891234301,-0.999925008118,0.0,0.660989379721,0.260097582814,0.303241150578,1.0,-0.00534,-0.00701828571429,0.268
0.464519516018,0.543670372001,-0.123892050378,-1.36232248456,0.0792387226064,1.89638495141,0.158426471633,-0.00714972499627,-0.0296265995532,0.000793250479555,-0.0502491701738,-0.00486091192499,0.0138547422517,-0.0116232965438,0.57388440612,0.818922217307,0.00195890640077,0.0,0.818877277004,-0.573823925022,-0.0121183819196,0.0,-0.00880011426161,0.00855881913422,-0.999924649463,0.0,0.660887094335,0.259976305224,0.303230766832,1.0,-0.00568,-0.00746514285714,0.285
0.46443976738,0.543163750095,-0.123900153692,-1.36312374727,0.0791927651748,1.89666694549,0.158317011879,-0.00600597027497,-0.028115291651,-0.000160470576231,-0.0528966699969,-0.00437579489772,0.0113391920798,-0.00527451649192,0.573898005778,0.8189127137,0.00194761508162,0.0,0.818867616134,-0.573837563461,-0.0121253828623,0.0,-0.00881218515333,0.00855373664896,-0.999924586647,0.0,0.660797308718,0.259842150802,0.303232492739,1.0,-0.006,-0.00788571428571,0.301
0.464374320039,0.542624322664,-0.123902357369,-1.36396609714,0.0791437388977,1.89697277504,0.158204705612,-0.00588081098083,-0.0345659047889,-0.000300572010872,-0.0553020489994,-0.00248415927708,0.0179530523645,-0.00415614340829,0.573894901539,0.818914882345,0.00195047776589,0.0,0.818869800485,-0.57383442586,-0.012126353642,0.0,-0.00881136982325,0.00855660460956,-0.999924569295,0.0,0.660698662487,0.259717547803,0.303239677561,1.0,-0.00632,-0.00830628571429,0.317
0.464294218038,0.542024500039,-0.123903578884,-1.3648965602,0.0790875033008,1.89732578748,0.158080719284,0.000465814987487,-0.0319167662376,-0.00111845172523,-0.055243884515,0.000131081894029,0.020400007388,-0.0023760253091,0.573896559696,0.818913676971,0.00196858859216,0.0,0.818868844919,-0.573836016567,-0.0121156020555,0.0,-0.00879215446825,0.00856528311314,-0.999924664135,0.0,0.660594558136,0.259576208764,0.303251619502,1.0,-0.00666,-0.00875314285714,0.334
0.46421807972,0.54141692932,-0.123905503775,-1.36580771263,0.0790370518164,1.89766570294,0.157960909651,-0.00520554437284,-0.0401042868863,-0.000213347752205,-0.0593812991726,-0.000917031134752,0.0189790744521,-0.010423976318,0.573899222338,0.818911730516,0.00200178029435,0.0,0.81886730181,-0.573838503532,-0.0121020986337,0.0,-0.00876202062257,0.00858474270591,-0.999924761763,0.0,0.66049116401,0.259439531417,0.303277041291,1.0,-0.00698,-0.00917371428571,0.35
0.464128291601,0.540692981532,-0.123898741162,-1.36692379689,0.0789721732291,1.89807637378,0.157823353869,-0.00555343497242,-0.0438573279594,-0.000895683858584,-0.0647639375449,-0.0032706046879,0.0205005611264,-0.0175694331805,0.573899865758,0.818911233827,0.00202041994322,0.0,0.818866980605,-0.573838998706,-0.0121003528708,0.0,-0.00874988760446,0.00859901162428,-0.999924745401,0.0,0.660359821138,0.259278551026,0.303292942311,1.0,-0.00734,-0.00964685714286,0.368
0.464034918223,0.539967811399,-0.123902244299,-1.36804023854,0.0789033672898,1.89848677457,0.157694580073,-0.00628136310703,-0.0433195188833,0.000981496215192,-0.0645497104586,-0.000593870233558,0.0177411130158,-0.010536225715,0.573916710726,0.818899392748,0.002034847988,0.0,0.818855348632,-0.573855799041,-0.0120907743683,0.0,-0.0087335866186,0.00860550929695,-0.999924832012,0.0,0.660231657282,0.25910858256,0.303309725617,1.0,-0.00768,-0.0100937142857,0.385
0.463941246148,0.539257555761,-0.123909732691,-1.36912703948,0.0788412676637,1.89890052668,0.157549238524,-0.00789188238472,-0.0506368943166,5.58923426192e-05,-0.0688337597259,-0.00259947580843,0.0230824865783,-0.0135644552936,0.573923199042,0.818894766958,0.00206619231523,0.0,0.81885114901,-0.573862167619,-0.0120729135741,0.0,-0.00870090366641,0.0086209951125,-0.999924983546,0.0,0.660111027896,0.25894074876,0.303330393879,1.0,-0.008,-0.0105142857143,0.401
0.463830756452,0.538495838148,-0.123909630888,-1.37032297741,0.0787790903585,1.89936819108,0.157412568424,-0.0061275642831,-0.0515928316304,-0.000858512588429,-0.0767063675372,-0.00459492520256,0.0286459337556,-0.0156735866515,0.573951287798,0.818874998345,0.00209838556888,0.0,0.818831737705,-0.573890052013,-0.0120640138145,0.0,-0.00867484370673,0.00864254736239,-0.99992502392,0.0,0.659979651989,0.258757587865,0.303339795929,1.0,-0.00834,-0.0109611428571,0.418
0.463737197313,0.537809225097,-0.12391603766,-1.37139209307,0.0787144044382,1.89977846105,0.157282261775,-0.00567834360316,-0.0450868236954,-0.000358024833618,-0.072530951546,-0.00639853060587,0.0258661855514,-0.00453439887707,0.573967438677,0.818863623955,0.0021193403709,0.0,0.818820684009,-0.573906158573,-0.0120480493172,0.0,-0.00864957336562,0.00865071429287,-0.999925172212,0.0,0.659861230813,0.258591609397,0.303351612408,1.0,-0.00864,-0.0113554285714,0.433
0.463621322501,0.536940734892,-0.123919310914,-1.37275795496,0.078637663207,1.90029273047,0.157111274904,-0.00775386249903,-0.0439304557263,-0.00102447333493,-0.075689435436,-0.000570531194982,0.032993023961,-0.00648064693662,0.573969803909,0.818861937485,0.00213036134819,0.0,0.818819078763,-0.573908414018,-0.0120497085108,0.0,-0.00864458178962,0.00866071609327,-0.999925128798,0.0,0.659711195794,0.258402203031,0.303355038546,1.0,-0.00898,-0.0118022857143,0.45
0.463505264516,0.536089295104,-0.123917870713,-1.37408634148,0.0785627089795,1.90078421664,0.156953081151,-0.00754120719432,-0.0486700483455,6.00156736661e-05,-0.083272378244,-0.00721712495492,0.0207882285007,-0.00413602849626,0.573996799274,0.818842963375,0.00215003636188,0.0,0.818800321695,-0.573935282685,-0.0120445581689,0.0,-0.00862878610731,0.00867415530677,-0.999925148739,0.0,0.659551115065,0.258184002448,0.303370705245,1.0,-0.00934,-0.0122754285714,0.468
0.463394047482,0.535190867331,-0.123920668792,-1.37550723876,0.0784772474766,1.90129486092,0.156771754413,-0.00542153144197,-0.056335299745,0.00103423114803,-0.0860253790897,-0.00124151302565,0.0285242190397,-0.00858142687121,0.574009521559,0.818834047229,0.00214922299052,0.0,0.818791375274,-0.573947987026,-0.0120473593213,0.0,-0.00863141196379,0.0086752312333,-0.999925116742,0.0,0.659375145187,0.257956877438,0.30337966599,1.0,-0.0097,-0.0127485714286,0.486
0.463272391403,0.53435205037,-0.123925715663,-1.37688878822,0.0784013381932,1.90180025682,0.156611925521,-0.00654391125144,-0.0554266914377,0.000238076365402,-0.0898516206058,-0.00161359239167,0.0314396275927,-0.0164152307749,0.574024065251,0.81882395701,0.00210875309538,0.0,0.818780669545,-0.573962614055,-0.0120780689235,0.0,-0.00867963385979,0.00865987522461,-0.999924832433,0.0,0.659219208466,0.257758875596,0.303350951133,1.0,-0.01,-0.0131428571429,0.501
0.463151602036,0.533493574516,-0.123929861217,-1.37827803861,0.0783224156635,1.9023061568,0.156433565889,-0.00517654436492,-0.0518793527802,-0.000110954554865,-0.0889405414525,-0.00298378225625,0.0339190924227,-0.00782233790757,0.574034686537,0.818816563251,0.00208837238822,0.0,0.818772949011,-0.573973261422,-0.0120954553881,0.0,-0.00870545690813,0.00865328036363,-0.999924665042,0.0,0.659055912784,0.25754476931,0.303339194268,1.0,-0.01032,-0.0135634285714,0.517
0.463003472416,0.532428638145,-0.123932036231,-1.37998730106,0.0782345843343,1.90295371774,0.156215619048,-0.0097738340914,-0.0585491791636,-0.00128695421864,-0.0969063735839,-0.00306113309087,0.0282981690414,-0.0156993794224,0.57404902141,0.818806491185,0.00209712006495,0.0,0.818762858468,-0.573987424568,-0.0121064004583,0.0,-0.00870924641505,0.00866687821909,-0.999924514275,0.0,0.658858484683,0.257286693152,0.303332746621,1.0,-0.0107,-0.0140628571429,0.536
0.462879444653,0.531513066696,-0.123927104404,-1.38146364458,0.0781483495595,1.90348815821,0.156030302956,-0.00618413611048,-0.0585358650865,0.000331394048206,-0.0954523788815,-0.000428611778651,0.0302831997558,-0.0144909677747,0.57405264516,0.818804002582,0.00207673811399,0.0,0.818760007793,-0.573991041454,-0.0121276902153,0.0,-0.00873834045761,0.00866244954116,-0.999924298822,0.0,0.658680475776,0.257066942715,0.303321582688,1.0,-0.01102,-0.0144834285714,0.552
0.462745533213,0.530493453217,-0.123927331826,-1.38310721267,0.0780409085609,1.90406037908,0.155823325157,-0.00646516973625,-0.0589195408327,0.00066697669205,-0.0902038441096,-0.00234199452533,0.0366358028189,-0.0116419517131,0.574053286513,0.818803674374,0.00202829395978,0.0,0.818759035191,-0.573991884786,-0.0121534108085,0.0,-0.0087872023342,0.00863755572228,-0.999924085972,0.0,0.658478184555,0.256818379767,0.303307360843,1.0,-0.01136,-0.0149302857143,0.569
0.462594063299,0.529371135292,-0.123930293252,-1.38484589028,0.0779344206622,1.90471468684,0.155595512081,-0.00634457969263,-0.0678880790143,0.000156772545094,-0.0953052054861,-0.00889649169337,0.0340701723141,-0.0108564906401,0.574058671697,0.818799823479,0.00205849982964,0.0,0.818755604588,-0.573997161213,-0.012135311102,0.0,-0.00875498609025,0.00865195542138,-0.999924244073,0.0,0.658277365906,0.25655245719,0.303327167371,1.0,-0.01172,-0.0154034285714,0.587
0.462470044199,0.528402404008,-0.123938227715,-1.38633981244,0.0778387895681,1.90528527583,0.155390912995,-0.0111522292175,-0.0660098772433,-7.73453379598e-05,-0.100255969711,-0.00438456094,0.039766402441,-0.0105042361672,0.574053585003,0.818803305701,0.00209165476422,0.0,0.818759618842,-0.573992028437,-0.0121072187359,0.0,-0.00871300531528,0.00866292156537,-0.999924515815,0.0,0.658106072034,0.256324850979,0.303347951392,1.0,-0.01202,-0.0157977142857,0.602
0.462318896633,0.527215952004,-0.123936003974,-1.38819594504,0.077726181727,1.90599432499,0.155132239126,-0.0061915554154,-0.0622832083474,-0.000304559056365,-0.107350979853,-0.00412830501154,0.0373772112039,-0.0184586431701,0.574034166417,0.818816835513,0.00212428045984,0.0,0.818773574722,-0.573972471327,-0.0120905912461,0.0,-0.00868086829187,0.00867988428792,-0.999924648228,0.0,0.657888425114,0.256051832925,0.303361050671,1.0,-0.01238,-0.0162708571429,0.62
0.462168399091,0.526034748211,-0.123944139078,-1.39000017105,0.0776102084451,1.90667513052,0.154884697326,-0.00985552012756,-0.065302771624,-0.00112409979957,-0.11057276814,-0.0129732686103,0.0408562639133,-0.0187810829824,0.57402655323,0.818822059019,0.00216766044273,0.0,0.81877946842,-0.573964778113,-0.0120566363573,0.0,-0.00862824518239,0.0086958326985,-0.999924965124,0.0,0.657678969847,0.255776894979,0.30339269798,1.0,-0.01272,-0.0167177142857,0.637
0.462019907857,0.524933920698,-0.123945200601,-1.39173498756,0.0774929928822,1.90729675966,0.154654449802,-0.00870427429164,-0.0650942527036,-0.00145498850022,-0.111189625555,-0.0092318586479,0.0437389704688,-0.00751580067441,0.574021952662,0.818825329598,0.00215043521675,0.0,0.818782569975,-0.57396030739,-0.0120588369117,0.0,-0.00863998299718,0.00868294315775,-0.999924975782,0.0,0.657469256503,0.2555104226,0.303395195803,1.0,-0.01304,-0.0171382857143,0.653
0.46186353458,0.523743776851,-0.123953944518,-1.39361945488,0.0773812589361,1.90797140132,0.154386129329,-0.00594892353699,-0.0699695817495,-0.000361621775618,-0.107730386511,-0.0119287581998,0.0403681338235,-0.0164950397036,0.57400743451,0.818835551795,0.00213334113459,0.0,0.818792520938,-0.573945815701,-0.0120729116766,0.0,-0.00866147383702,0.00867687188082,-0.999924842558,0.0,0.65724020203,0.255222210582,0.303393858248,1.0,-0.01338,-0.0175851428571,0.67
0.461691187786,0.522453458125,-0.123951968258,-1.39567448246,0.0772556162092,1.90876347515,0.154123900504,-0.0131366074228,-0.0747049036033,0.0003277114259,-0.119460394696,-0.00673716176073,0.0479536345977,-0.0111528974861,0.574008881282,0.818834483737,0.00215391605574,0.0,0.818791735058,-0.573947188221,-0.0120609549746,0.0,-0.00863985812016,0.00868687118578,-0.999924942744,0.0,0.656998834718,0.2549165399,0.303391262294,1.0,-0.01374,-0.0180582857143,0.688
0.461551380811,0.521359767978,-0.123960432402,-1.39742805434,0.0771539635174,1.90944830638,0.153870173146,-0.0104655307158,-0.0733331383299,-0.000570454256227,-0.11983074259,-0.000998857781454,0.0442578312416,-0.0131101703355,0.573988210238,0.818848922713,0.00217328784503,0.0,0.818806445813,-0.573926456805,-0.0120487914143,0.0,-0.00861899841955,0.00869553373154,-0.999925047471,0.0,0.656794046874,0.254655991164,0.303384710858,1.0,-0.01404,-0.0184525714286,0.703
0.461378691801,0.520082285486,-0.123965189846,-1.39945522372,0.077024998414,1.91018417467,0.153602904933,-0.00819695397949,-0.0727933562092,-0.00170990051943,-0.120885590675,-0.0111695890963,0.0442551917396,-0.0292745601236,0.573983648201,0.818852166445,0.00215592365042,0.0,0.818809435269,-0.573921941086,-0.0120607278389,0.0,-0.00863878755692,0.00868811846481,-0.999924941157,0.0,0.656530232465,0.254330722775,0.303381015326,1.0,-0.0144,-0.0189257142857,0.721
0.461199996292,0.518647232263,-0.123959430672,-1.40166536163,0.0768837825704,1.91096897688,0.153316922869,-0.00871444541002,-0.0814351220919,0.000682508629847,-0.124266587874,-0.00678012930788,0.0438913836114,-0.0114261418355,0.57397435927,0.818858656015,0.00216408660999,0.0,0.818816031881,-0.573912619193,-0.0120564657371,0.0,-0.00863071088319,0.00869225836005,-0.999924974923,0.0,0.656271942603,0.25401814922,0.303404271821,1.0,-0.01474,-0.0193725714286,0.738
0.461041447132,0.51748208245,-0.12396699425,-1.4035369313,0.0767616505573,1.91163740172,0.153045978875,-0.0119041124757,-0.0772674554687,-0.000470719368696,-0.126124034823,-0.00529977788856,0.0498314979547,-0.0191016978221,0.573953748102,0.818873204168,0.00212542625165,0.0,0.818830108303,-0.573892208375,-0.0120720256592,0.0,-0.00866585961173,0.00866931429329,-0.999924870111,0.0,0.656041641792,0.253728532869,0.303389275799,1.0,-0.01504,-0.0197668571429,0.753
0.460857341342,0.516119277463,-0.123969746776,-1.40569318322,0.0766268196283,1.91244480441,0.152759867544,-0.0120138880922,-0.0876150924437,0.000110609522033,-0.127839254266,-0.0111996376153,0.048412116109,-0.0157211356229,0.573952181792,0.818874255296,0.00214334568823,0.0,0.818831435982,-0.573890608557,-0.0120580163744,0.0,-0.00864411964366,0.00867593067241,-0.999925000899,0.0,0.655769678095,0.253384648414,0.303392982055,1.0,-0.0154,-0.02024,0.771
0.460661533916,0.51467018594,-0.123975783528,-1.40803282596,0.0764818206303,1.9133240266,0.152440687582,-0.00989965551639,-0.0887936919192,-0.00660083606406,-0.131308741072,-0.0100133474489,0.0501635098688,-0.0200874371357,0.573937374351,0.818884698139,0.00211857955694,0.0,0.818841556406,-0.573875909522,-0.0120703303652,0.0,-0.0086685739643,0.00866256148026,-0.999924905107,0.0,0.655499347224,0.253046840733,0.303367836713,1.0,-0.01574,-0.0206868571429,0.788
0.460485363381,0.513361241971,-0.123976875304,-1.41016724383,0.0763567767701,1.9140448756,0.15214882837,-0.0128280906852,-0.0792979974791,-0.000909363745329,-0.136072185835,-0.00667242214779,0.044918312734,-0.0263175841508,0.573921450851,0.818896074501,0.00203330279498,0.0,0.818851615479,-0.573860156679,-0.012136692514,0.0,-0.00877202728533,0.0086306476213,-0.999924278863,0.0,0.655221817526,0.25272342064,0.303331836402,1.0,-0.01606,-0.0211074285714,0.804
0.460291163962,0.51192137671,-0.123980757241,-1.4124489497,0.0762210532918,1.91487122642,0.151824792901,-0.008674255965,-0.0807543015623,-0.000745760266439,-0.137077252507,-0.00279763365656,0.0549519561587,-0.0213332558764,0.573900698643,0.81891064824,0.00202118722887,0.0,0.818865943097,-0.573839374418,-0.0121526336516,0.0,-0.00879225356455,0.00862965247688,-0.999924109808,0.0,0.654938707959,0.252376245186,0.303326227105,1.0,-0.0164,-0.0215542857143,0.821
0.460084531842,0.510456116591,-0.123986083578,-1.4147734345,0.076068695851,1.91576571394,0.151494530596,-0.0114635771714,-0.0892156148029,0.000143378946305,-0.131417372588,-0.00916700380061,0.0504295191355,-0.020167138741,0.573883636548,0.818922554092,0.00204181369405,0.0,0.818878247617,-0.573822350476,-0.0121273482374,0.0,-0.00875988931476,0.00863184971774,-0.999924374895,0.0,0.654663139524,0.252017313837,0.303323501195,1.0,-0.01674,-0.0220011428571,0.838
0.459886769377,0.509049912053,-0.123989551863,-1.41700155465,0.0759402657328,1.91657821653,0.151186156364,-0.0173522888829,-0.0835213031386,0.000405054154538,-0.139980159658,-0.00994124864304,0.0476719368985,-0.0210734296139,0.573876851951,0.818927320591,0.00203697954344,0.0,0.818882833509,-0.573815472379,-0.0121431274436,0.0,-0.0087756574006,0.00863687361706,-0.999924193252,0.0,0.654387776281,0.251674330602,0.303317693667,1.0,-0.01706,-0.0224217142857,0.854
0.459660449412,0.507339106101,-0.123996022299,-1.41966434379,0.0757639721971,1.91753317228,0.150810451593,-0.0048625638819,-0.091681543453,-0.000278583396786,-0.13649328676,-0.00717149798778,0.0561226154662,-0.0164253710907,0.573849241475,0.818946681116,0.00203185857048,0.0,0.818902184974,-0.573787944959,-0.0121388864922,0.0,-0.00877541380557,0.00862995038213,-0.999924255166,0.0,0.654054384909,0.251265430396,0.303329924596,1.0,-0.01744,-0.0229211428571,0.873
0.459450448509,0.505863222798,-0.12399886521,-1.42196134592,0.0756189168071,1.91839510207,0.150501784167,-0.0111628895373,-0.0999531564373,0.00126761639944,-0.140047210236,-0.00948434474329,0.0523509657415,-0.0174780534756,0.57385002901,0.818946052298,0.00206265176026,0.0,0.818901994093,-0.573788632276,-0.0121192591498,0.0,-0.00874166160916,0.00864391327639,-0.999924430202,0.0,0.653776155255,0.250908380858,0.303343241563,1.0,-0.01776,-0.0233417142857,0.889
0.459245786565,0.504303871332,-0.124008772382,-1.4243050146,0.0754716934886,1.91930257641,0.150171162831,-0.0144056477797,-0.103131897772,0.000837304275589,-0.1517931213,-0.00596942569514,0.0563577456881,-0.0231422216276,0.573835058151,0.818956284567,0.00216261539428,0.0,0.81891365259,-0.573773353572,-0.0120546768653,0.0,-0.00863156847444,0.00868855875335,-0.999924999674,0.0,0.653497488603,0.250549026215,0.303396243046,1.0,-0.01808,-0.0237622857143,0.905
0.459012516038,0.502650296693,-0.124017712418,-1.42676866489,0.0753142608939,1.92023220469,0.149839064414,-0.00829673003668,-0.0957718463336,-0.0013428857457,-0.144169276599,-0.00605854755398,0.0631542747188,-0.0200338367426,0.573844368395,0.818949499335,0.00225949162641,0.0,0.818908240361,-0.573782368854,-0.0119930797431,0.0,-0.00852543433429,0.00873264571265,-0.999925526161,0.0,0.653203387502,0.250158527851,0.303459215091,1.0,-0.01842,-0.0242091428571,0.922
0.458760593655,0.500827529142,-0.124024692976,-1.42948722547,0.0751388890178,1.92118997186,0.149455008875,-0.0109599617384,-0.0980906952915,3.0054896554e-05,-0.151432083676,-0.00937403295285,0.0590970944927,-0.0247140172903,0.573832216836,0.818957872959,0.00231000895614,0.0,0.818917280533,-0.573770020667,-0.0119665337682,0.0,-0.00847483632183,0.0087586574837,-0.999925728776,0.0,0.652862007348,0.249728218938,0.30352063889,1.0,-0.01878,-0.0246822857143,0.94
0.458543652274,0.49932211566,-0.124026919822,-1.43178938502,0.0749975212492,1.92202854802,0.149129283147,-0.0180553347224,-0.0939802609199,-0.00085634033085,-0.152449443306,-0.0107117112441,0.0560294328367,-0.0240965413543,0.573823711577,0.818963729169,0.00234632467682,0.0,0.818923567767,-0.573761325978,-0.0119531530482,0.0,-0.00844313099435,0.00878063227702,-0.999925804265,0.0,0.652576091127,0.249366179119,0.303547796227,1.0,-0.01908,-0.0250765714286,0.955
0.458295376599,0.497662102865,-0.124025101732,-1.43443267499,0.0748340604262,1.9230125028,0.148740094921,-0.0122819313291,-0.0935221438077,0.00176068665524,-0.154071945039,-0.0058475659824,0.0524150328255,-0.0278505333011,0.573797171856,0.818982326245,0.00234558519612,0.0,0.818942104884,-0.573734740316,-0.0119592434699,0.0,-0.00844882798986,0.008783247663,-0.999925733175,0.0,0.652247960055,0.248954021393,0.303532437347,1.0,-0.01942,-0.0255234285714,0.972
0.458008793889,0.495875078231,-0.124025795646,-1.43728388121,0.0746594607754,1.92399700327,0.148323387992,-0.0162971586501,-0.102738651787,-0.00049193388558,-0.160757755133,-0.00617927806514,0.0513690323459,-0.0273146242242,0.573787707454,0.818989153662,0.00227593070427,0.0,0.818947811122,-0.573725341846,-0.0120192214337,0.0,-0.00853801725163,0.00876051864748,-0.999925174988,0.0,0.651861942828,0.248462156711,0.303505130222,1.0,-0.0198,-0.0260228571429,0.991
0.457748593187,0.494314667596,-0.124030808702,-1.43987042836,0.074501207584,1.92490028207,0.14796485097,-0.0246316669326,-0.101103244787,0.000628603546123,-0.163311824923,-0.0141011331478,0.056652488489,-0.0230582435361,0.573798248043,0.818982043165,0.00217495230265,0.0,0.818939255944,-0.573736177115,-0.0120847443173,0.0,-0.00864950630238,0.00871552673866,-0.999924609975,0.0,0.651550869193,0.248068189201,0.303440450555,1.0,-0.0216257142857,-0.0284223673469,1.006
0.457460769251,0.49225583898,-0.124082906887,-1.44303075539,0.0743051676875,1.92607944697,0.147514736714,-0.0206664428568,-0.12730444337,0.000106693758675,-0.195183790958,-0.0146773963177,0.0729923489484,-0.0269565449309,0.573808487132,0.818974724714,0.00222873852283,0.0,0.818932856383,-0.573746407109,-0.0120326209085,0.0,-0.00857584678788,0.00872977527958,-0.999925120134,0.0,0.651166428517,0.247551013471,0.303473079204,1.0,-0.0272211428571,-0.0357763591837,1.023
0.45710476944,0.489831516568,-0.124089597664,-1.44696557885,0.0740829674798,1.92752279765,0.146922044779,-0.0190353922889,-0.147064582116,-0.00166287809316,-0.250722019639,-0.0185000269549,0.0924523104208,-0.0354394245808,0.573756410123,0.819011341105,0.00217988191145,0.0,0.81896854443,-0.573694249085,-0.0120904384585,0.0,-0.00865178707391,0.00872238921585,-0.999924530406,0.0,0.650661904225,0.246942988094,0.303412066599,1.0,-0.0328165714286,-0.0431303510204,1.04
0.456669504464,0.487028147933,-0.12411097669,-1.4513693183,0.0738252993578,1.92914063461,0.14628955753,-0.0267661601821,-0.185603583361,-0.00422480392481,-0.279932071882,-0.0126861082499,0.102902787636,-0.0419510645384,0.573759533758,0.819009104512,0.0021979645832,0.0,0.818966397135,-0.573697146648,-0.0120983963018,0.0,-0.00864789721021,0.00874179766379,-0.999924394566,0.0,0.650109625787,0.246230646737,0.303405214981,1.0,-0.0380828571429,-0.050051755102,1.056
0.456139624558,0.483587505677,-0.12417516003,-1.45668311995,0.0734996909658,1.93109854464,0.145473914614,-0.0307697294765,-0.209106463819,-0.00235762531675,-0.32996408409,-0.0139055908747,0.111824260585,-0.0527048519896,0.573745803447,0.819018556,0.00225939270416,0.0,0.818976796539,-0.573683306159,-0.0120506375881,0.0,-0.00857368498983,0.00876456168896,-0.999924834367,0.0,0.64945185451,0.245344853355,0.303436224677,1.0,-0.0436782857143,-0.0574057469388,1.073
0.455517381908,0.479678719548,-0.124251458964,-1.46284707696,0.0731351097314,1.93324295573,0.144556763271,-0.0352020839912,-0.242563534983,-0.00364328064115,-0.379184108068,-0.0246867839277,0.125358460844,-0.0597349983678,0.57376194288,0.819007506976,0.00216409818198,0.0,0.818964305728,-0.573699649377,-0.0121212684991,0.0,-0.00868603475967,0.00872720975516,-0.999924191432,0.0,0.648656570864,0.244304766372,0.303401001273,1.0,-0.0492737142857,-0.0647597387755,1.09
0.454846512047,0.475534196345,-0.124320574822,-1.46919902424,0.0727428825133,1.93556392086,0.143655296156,-0.0490774433045,-0.269469085992,-0.00115172169576,-0.412204803747,-0.0233619694476,0.1513655726,-0.0478745126358,0.573824681902,0.818963319004,0.00225021491201,0.0,0.818921366547,-0.573762138235,-0.0120644536981,0.0,-0.00858942229612,0.00876579914518,-0.999924688459,0.0,0.647861335357,0.243226361613,0.303450598795,1.0,-0.05454,-0.0716811428571,1.106
0.454042685439,0.470746173716,-0.124362776542,-1.47660016168,0.0723040163542,1.93821261502,0.14255017253,-0.0491168462871,-0.296704124709,-0.000121891616196,-0.45074092321,-0.0254421415517,0.159130417932,-0.0661767612837,0.573844746435,0.818949149423,0.00229009827572,0.0,0.818907398334,-0.57378170515,-0.0120819985961,0.0,-0.00858069118488,0.00880873943723,-0.999924386065,0.0,0.646909367396,0.241977946047,0.303469101607,1.0,-0.0601354285714,-0.0790351346939,1.123
0.453112069221,0.465120743391,-0.124403961881,-1.48507538419,0.0717660371461,1.94136597952,0.141175221738,-0.0553809191273,-0.314578921402,-0.000793262537228,-0.484971197466,-0.0252212185362,0.166186730162,-0.0754952208065,0.573766296558,0.819003374654,0.00254089373791,0.0,0.818965050566,-0.573702408179,-0.0119389992094,0.0,-0.00832052398197,0.00893127048416,-0.999925497869,0.0,0.645837890924,0.24055180431,0.303591646176,1.0,-0.06606,-0.0868217142857,1.141
0.452244294262,0.460091020844,-0.124439187924,-1.49289533355,0.071259271743,1.94403604987,0.140009667729,-0.0640957379211,-0.346581727065,-0.00629761715501,-0.529152931426,-0.0296404911057,0.181112274977,-0.072314747306,0.573774722206,0.818997794094,0.00243481588062,0.0,0.818957808312,-0.573710961056,-0.0120244862266,0.0,-0.00845130984978,0.00889352894959,-0.99992473742,0.0,0.644787699495,0.239214283514,0.303567096256,1.0,-0.0709971428571,-0.0933105306122,1.156
0.451110394679,0.453639975539,-0.124500176958,-1.50285994431,0.0705892685803,1.94749903218,0.138466295033,-0.0646246230379,-0.377217803381,0.000836527000012,-0.554399718444,-0.0438901284064,0.205805869,-0.0920441434271,0.573759073419,0.819008946936,0.00237010745342,0.0,0.81896812252,-0.573695586685,-0.0120554972796,0.0,-0.00851400386675,0.00885816394718,-0.999924519486,0.0,0.6434584526,0.237485612226,0.30356149521,1.0,-0.0769217142857,-0.101097110204,1.174
0.449947949012,0.446984752473,-0.124544337941,-1.51268273927,0.069921965204,1.95122114652,0.136925288977,-0.0741354019609,-0.392895534053,-0.000874761987374,-0.593311295902,-0.0387708072313,0.221168133765,-0.0904377887928,0.573744435025,0.819017803476,0.00281207538398,0.0,0.818983378469,-0.5736799418,-0.0117599773899,0.0,-0.00801855399021,0.00905043883096,-0.999926893502,0.0,0.642207985248,0.235787641456,0.303774170235,1.0,-0.0825171428571,-0.108451102041,1.191
0.448773095297,0.440523375888,-0.124579025651,-1.52273138583,0.0692421295871,1.95461835616,0.135356140542,-0.0809279879215,-0.404481059036,-0.00218720199566,-0.647238867953,-0.0472300153335,0.209120500536,-0.102931736448,0.573691100547,0.819055759651,0.00263261004087,0.0,0.819018672651,-0.57362691319,-0.0118880281819,0.0,-0.00822698037679,0.00897638557554,-0.9999258679,0.0,0.640719747749,0.233932642504,0.303712450849,1.0,-0.0881125714286,-0.115805093878,1.208
0.447347540467,0.432678545718,-0.124611770886,-1.53457159807,0.0684426322865,1.95878469419,0.133421843868,-0.0812835942901,-0.449067361691,-0.00242682673074,-0.663200150739,-0.046023524914,0.251056853601,-0.105629081054,0.573612675381,0.819110219497,0.00277378083434,0.0,0.819074904384,-0.573547897434,-0.0118261260726,0.0,-0.00809616043385,0.00905572443834,-0.999926220299,0.0,0.639194013615,0.231975395386,0.303790518437,1.0,-0.093708,-0.123159085714,1.225
0.445848352587,0.425008555424,-0.124646613695,-1.54634213737,0.0675960358474,1.96287184134,0.131509434882,-0.0908557353228,-0.468272607422,-0.0032650735837,-0.707168220185,-0.0514643944252,0.236614778009,-0.110059399349,0.573568903487,0.819141036002,0.00272451655223,0.0,0.819105237156,-0.573504488,-0.0118304525759,0.0,-0.00812844320675,0.00901741910161,-0.999926304566,0.0,0.637566841708,0.229862163948,0.303765077919,1.0,-0.0993034285714,-0.130513077551,1.242
0.444421529903,0.417895372458,-0.124755538052,-1.55722546409,0.0668127780398,1.96652872,0.129737753991,-0.095771859978,-0.483795780978,-0.0123515054523,-0.729516030714,-0.0580862211641,0.261431803233,-0.104747861711,0.573605603007,0.819115782613,0.00258723292448,0.0,0.819078387558,-0.573541907307,-0.011875289448,0.0,-0.00824350921687,0.0089310510871,-0.999926137713,0.0,0.636041742384,0.227834495928,0.303734779311,1.0,-0.104240571429,-0.137001893878,1.257
0.442585403246,0.408915574829,-0.124835129709,-1.57072197244,0.0658872924431,1.971278819,0.127466810533,-0.105888894329,-0.505031589078,-0.00200358237866,-0.747239479651,-0.0533169520086,0.255574108874,-0.125525144984,0.573606969544,0.819114240364,0.00276633782438,0.0,0.819079224813,-0.573542662911,-0.0117806706692,0.0,-0.00806325758655,0.00902349837281,-0.999926777496,0.0,0.63416916822,0.225339854976,0.303803647512,1.0,-0.110165142857,-0.144788473469,1.275
0.440549524785,0.399553908689,-0.124942977568,-1.5849072467,0.064919568654,1.97601010573,0.125100895937,-0.114968771934,-0.545544524525,-0.00843756252439,-0.799414919238,-0.0429659028668,0.279827241857,-0.131619410501,0.573715870174,0.819038245758,0.00268313189611,0.0,0.819001672119,-0.573651329342,-0.0118810905462,0.0,-0.00819204310183,0.00901403325881,-0.999925816065,0.0,0.632139174205,0.222629074081,0.303781696652,1.0,-0.116089714286,-0.152575053061,1.293
0.438894976418,0.391965953164,-0.125040740746,-1.59620160329,0.0640476680981,1.979959795,0.123155322236,-0.121134915969,-0.54266243925,-0.00581168197113,-0.810862998858,-0.0618203540313,0.286748500261,-0.147345823271,0.573733572584,0.819025405909,0.00281408342979,0.0,0.81899136871,-0.573669482382,-0.0117136613835,0.0,-0.00797958611656,0.00902540460046,-0.999927431506,0.0,0.630432733316,0.22029503548,0.303846732127,1.0,-0.121026857143,-0.159063869388,1.308
0.436633197698,0.38190063313,-0.125109313069,-1.6113183488,0.0629085063789,1.98490167125,0.120456353382,-0.132707104547,-0.57072722202,-0.00807382474902,-0.850093380121,-0.0682398262106,0.287414597615,-0.154191227051,0.573688974571,0.819057060109,0.00269065840815,0.0,0.819021324993,-0.573625226064,-0.0117862687321,0.0,-0.00811035322913,0.00896553165172,-0.999926918036,0.0,0.628313646124,0.217526483179,0.30383676411,1.0,-0.126622285714,-0.166417861224,1.325
0.434228744706,0.37145923214,-0.125187742693,-1.62688276699,0.0617647819022,1.99016924826,0.117698635242,-0.137107118317,-0.592314085008,-0.00481206780044,-0.892091182797,-0.0712110543064,0.294782167345,-0.149106232964,0.573708249062,0.819043249721,0.00278333362132,0.0,0.819008703882,-0.57364414742,-0.0117423165458,0.0,-0.00802097648938,0.00901641192095,-0.999927181475,0.0,0.626020582837,0.214496707738,0.303859893326,1.0,-0.132546857143,-0.174204440816,1.343
0.432076307607,0.362447008707,-0.12530235911,-1.64016585358,0.0607245689391,1.99454554138,0.115355577908,-0.145353246841,-0.616621237854,-0.00620793855664,-0.877610085884,-0.0726831610672,0.303208251735,-0.157723728949,0.573813871449,0.818969145004,0.00281555778109,0.0,0.818935444654,-0.57375012542,-0.0116738156611,0.0,-0.00794522117098,0.00900453078758,-0.999927893343,0.0,0.624040709734,0.21181579971,0.303915047387,1.0,-0.137484,-0.180693257143,1.358
0.42949932516,0.352022977855,-0.12540203721,-1.65583576469,0.0595375723324,1.99956120046,0.112443313525,-0.152741619533,-0.617613854338,-0.00535822808049,-0.935404803432,-0.0657429400547,0.292029084251,-0.171977502288,0.573805341345,0.818975937189,0.0025673821456,0.0,0.818938462471,-0.573741888824,-0.0118653526871,0.0,-0.00824458238917,0.00891110230201,-0.999926306843,0.0,0.62147527233,0.208472293079,0.30379293453,1.0,-0.143408571429,-0.188479836735,1.376
0.426584247608,0.340484429214,-0.125521171935,-1.67258821402,0.0582746903704,2.00505668184,0.109279863631,-0.163311438903,-0.641721218366,-0.00461059646502,-0.943009993237,-0.0733374834001,0.305484681266,-0.180153522195,0.57389809554,0.818910139839,0.00281170865741,0.0,0.818875880622,-0.573833776135,-0.0117403749144,0.0,-0.00800101271094,0.00904039326278,-0.999927124887,0.0,0.619067281369,0.205210872976,0.303923922023,1.0,-0.149004,-0.195833828571,1.393
0.424078020392,0.330750828338,-0.125548435279,-1.68702379033,0.057107542628,2.00957384568,0.106494330781,-0.169754181811,-0.653774432088,0.00141916473831,-0.953029649118,-0.083989447019,0.300596283092,-0.189167625253,0.573792615594,0.818984617165,0.00264159761013,0.0,0.818947901179,-0.573728658504,-0.0118536267409,0.0,-0.00819253543691,0.00896502691504,-0.999926252608,0.0,0.616610409897,0.202083356583,0.303856016701,1.0,-0.154270285714,-0.202755232653,1.409
0.420898997474,0.31861611268,-0.125559804091,-1.70456213266,0.0556532144924,2.01518740322,0.103049570099,-0.185032129098,-0.668287454992,-8.14248259796e-05,-0.981955973608,-0.071832000965,0.311216111203,-0.19213996364,0.57371043856,0.819041846325,0.00274473251421,0.0,0.819006585733,-0.573646236718,-0.011787897482,0.0,-0.00808043141373,0.00901096732837,-0.999926751865,0.0,0.613956665475,0.198667665976,0.30392140585,1.0,-0.159865714286,-0.21010922449,1.426
0.417745807678,0.306832003109,-0.125640880929,-1.721506934,0.0542392661994,2.02053555836,0.0995801453892,-0.188791847343,-0.709215255394,-0.00777876565095,-1.00260590479,-0.0876143778675,0.324570822273,-0.210668390721,0.573590829336,0.819125265025,0.00284738475712,0.0,0.819091579073,-0.573526549459,-0.0117059411682,0.0,-0.00795573457961,0.00904686355994,-0.99992742764,0.0,0.611212141244,0.195107820592,0.303993653338,1.0,-0.165461142857,-0.217463216327,1.443
0.414560372974,0.295587753043,-0.125706735556,-1.7379095367,0.0528693850191,2.02546771272,0.0962503456006,-0.201922657118,-0.706037559826,-0.00015149217246,-1.0336442831,-0.0799934750564,0.303581273565,-0.214762926646,0.57357279355,0.819138635937,0.0026253603134,0.0,0.819101554156,-0.57350875789,-0.0118783628235,0.0,-0.00822451713548,0.00896371503968,-0.999926001827,0.0,0.608473116343,0.191595224857,0.30390404771,1.0,-0.170727428571,-0.224384620408,1.459
0.410976835595,0.283277043673,-0.125832401397,-1.75536542388,0.0514404608702,2.0308907317,0.0925531977548,-0.218728622315,-0.711745433386,-0.00633657990142,-1.04441287307,-0.0888591924739,0.311749288724,-0.222777047855,0.573615663195,0.819107917331,0.002835066847,0.0,0.819073456471,-0.573550726292,-0.0117891549969,0.0,-0.00803069016308,0.00908474687328,-0.999926484993,0.0,0.605592296626,0.187751066009,0.30400555729,1.0,-0.176322857143,-0.231738612245,1.476
0.407210551127,0.270676143983,-0.12596598089,-1.77325574241,0.0498778049691,2.03625714785,0.0886514500084,-0.225368532989,-0.75864974276,-0.0104700517245,-1.05829816809,-0.0950107273524,0.32748498678,-0.233278478525,0.573583520985,0.81913040317,0.00284147113338,0.0,0.81909614632,-0.573518702066,-0.0117706569718,0.0,-0.00801222041462,0.00907906772564,-0.999926684739,0.0,0.602561234066,0.183757196985,0.304040645541,1.0,-0.181918285714,-0.239092604082,1.493
0.403413727554,0.258680921846,-0.126139644153,-1.79037727125,0.0483621414297,2.04126313246,0.0849196906809,-0.243194007318,-0.750659311008,-0.0153999633487,-1.0835732101,-0.0997287815123,0.312901043821,-0.241726008061,0.573714351913,0.819039306421,0.00268399853912,0.0,0.819002926347,-0.573650008684,-0.0118583756732,0.0,-0.00817295735616,0.0090016962825,-0.999926083384,0.0,0.599617706629,0.179812146808,0.303983807513,1.0,-0.187184571429,-0.246014008163,1.509
0.399158887269,0.245600692738,-0.126280908372,-1.80871869139,0.0466786357854,2.04667314318,0.0807831727892,-0.254812275522,-0.753344353668,-0.0038517688751,-1.0791335487,-0.0973121745222,0.308678245272,-0.246420846714,0.573807617929,0.818973816325,0.00272996015871,0.0,0.818938475636,-0.573743581761,-0.0117822922972,0.0,-0.00808324739569,0.00899661170035,-0.99992685837,0.0,0.596443473162,0.175531975887,0.304025351557,1.0,-0.19278,-0.253368,1.526
0.394553502673,0.231403739273,-0.126397899804,-1.82836607088,0.0449934298461,2.05242687476,0.0761973031436,-0.257949775053,-0.801645254301,-0.00200355399704,-1.09479026762,-0.0944032527803,0.316672849147,-0.248663121142,0.573803836233,0.818975566562,0.00298760760926,0.0,0.818942996776,-0.573738231478,-0.0117284557117,0.0,-0.00789136588854,0.0091766898889,-0.999926754671,0.0,0.592963647063,0.170997851929,0.304127674906,1.0,-0.198704571429,-0.261154579592,1.544
0.390200392813,0.218660677806,-0.126470733609,-1.84616580181,0.0432515466667,2.0573856306,0.0718923018856,-0.279295904143,-0.800127770338,-0.00968186241086,-1.09572477102,-0.105624472768,0.322221676141,-0.270019686781,0.57368524431,0.819059239313,0.00281954939252,0.0,0.819024708683,-0.573620503203,-0.0117809919954,0.0,-0.00803213364424,0.00906803647873,-0.99992662508,0.0,0.589723012257,0.166797276104,0.304077143509,1.0,-0.203970857143,-0.268075983673,1.56
0.385344226277,0.204835006031,-0.126623259439,-1.86524564541,0.0414802810689,2.06271036471,0.0671964220636,-0.285236106344,-0.802152129861,-0.0125030098654,-1.13916166919,-0.100438607236,0.302759795403,-0.289991173283,0.573711454846,0.819040796884,0.00284368069204,0.0,0.819006290925,-0.573646296392,-0.0118054632462,0.0,-0.00803804388489,0.00910209711383,-0.999926268121,0.0,0.586225570267,0.162199807402,0.304075665056,1.0,-0.209566285714,-0.27542997551,1.577
0.380225368067,0.190695547754,-0.12679439704,-1.88443319984,0.0396309183523,2.06796333622,0.0622944406761,-0.307858499942,-0.816706992879,-0.00775928432038,-1.14723255458,-0.11334568255,0.31177337093,-0.295911225947,0.573736610094,0.819022760905,0.00296078688326,0.0,0.818989899638,-0.573671173272,-0.0117335479829,0.0,-0.00791167710336,0.00915699689705,-0.999926774706,0.0,0.582662284635,0.157465696858,0.304152943914,1.0,-0.215161714286,-0.282783967347,1.594
0.375064733671,0.177183499792,-0.12701137262,-1.90265202358,0.0379112351682,2.07281335679,0.0574838054315,-0.322776260274,-0.863272361391,-0.00839858677803,-1.13431645065,-0.110987822172,0.305051302914,-0.302864927582,0.573904766861,0.818904542751,0.00306844211159,0.0,0.818872662513,-0.573838447807,-0.0117364947332,0.0,-0.00785042993959,0.00924847169705,-0.999926415553,0.0,0.57923642864,0.152812734555,0.304214208126,1.0,-0.220428,-0.289705371429,1.61
0.369466597734,0.162701702349,-0.127115336005,-1.92234312507,0.0358770063665,2.07780487192,0.0521916391396,-0.329721602563,-0.844888268644,-0.00768104509257,-1.14386031785,-0.113906773525,0.287795541081,-0.322567393368,0.573816454454,0.818967318058,0.00282054113171,0.0,0.818931908394,-0.573750687266,-0.011892231799,0.0,-0.00812121812799,0.00913396527527,-0.999925305458,0.0,0.575389889336,0.147866252346,0.304126275365,1.0,-0.226023428571,-0.297059363265,1.627
0.363659713597,0.147884901209,-0.127242995665,-1.9420205871,0.0338545157038,2.08292288578,0.0466861625644,-0.350452298712,-0.84720240782,-0.00726500989356,-1.16252938107,-0.124619753944,0.286834664918,-0.329574606452,0.573714270685,0.819038490735,0.00293823197852,0.0,0.819004756336,-0.573648247806,-0.0118170973394,0.0,-0.00799329983944,0.00918624021093,-0.999925857326,0.0,0.571292244235,0.142554765083,0.304176150652,1.0,-0.231948,-0.304845942857,1.645
0.357144948681,0.131887153438,-0.12739524488,-1.96301209803,0.0317264845767,2.08812401794,0.0406093205629,-0.37105227689,-0.889702933463,-0.0057198282552,-1.17417910596,-0.126340532912,0.289666529823,-0.347715571239,0.573676893915,0.819063941503,0.00313496718763,0.0,0.81903241762,-0.573609774598,-0.0117674243092,0.0,-0.00784017606182,0.00931851859227,-0.999925845676,0.0,0.567334548629,0.137391324025,0.304281384909,1.0,-0.237543428571,-0.312199934694,1.662
0.350567571206,0.116607329242,-0.127628761447,-1.98292405171,0.0295245894495,2.0929659906,0.034658079168,-0.391067085858,-0.903203987077,-0.013195219419,-1.17457417778,-0.134877627167,0.290142483128,-0.359186714204,0.57377453348,0.818995264496,0.0032075481065,0.0,0.818965423184,-0.573708044332,-0.0116388315236,0.0,-0.00769209984758,0.00930511527244,-0.999927120559,0.0,0.563316949674,0.131973495355,0.304349781577,1.0,-0.243138857143,-0.319553926531,1.679
0.34371157757,0.101183170804,-0.127781291584,-2.00299596555,0.0273249962431,2.09762175366,0.028395716363,-0.400229446341,-0.91032411764,-0.00596613021588,-1.16055285557,-0.132026929453,0.274976884815,-0.37363357534,0.573742835832,0.819017628493,0.00316693069561,0.0,0.818987053536,-0.573676236054,-0.0116845722307,0.0,-0.00775322703066,0.0092977938576,-0.999926716565,0.0,0.559150849076,0.126501383474,0.304341420763,1.0,-0.248734285714,-0.326907918367,1.696
0.337106826908,0.086460169045,-0.127920919154,-2.02204086454,0.0252939983921,2.10193557925,0.0222940743267,-0.415599297103,-0.904805790796,-0.0105656714335,-1.20441536341,-0.123990454998,0.266290271878,-0.39018795054,0.573645769295,0.819085596242,0.00317242806381,0.0,0.819054197924,-0.573578093144,-0.0117957123518,0.0,-0.0078422138322,0.00936513131751,-0.999925394216,0.0,0.555107691678,0.121334283857,0.304309373772,1.0,-0.254000571429,-0.333829322449,1.712
0.329688255604,0.070488969198,-0.128095356451,-2.04220874116,0.0229519229828,2.10641038106,0.0155162258656,-0.441977594665,-0.943322509449,-0.00772034744328,-1.20453303281,-0.129981581822,0.262601559035,-0.402722007014,0.573532380154,0.819164407087,0.00332114086392,0.0,0.81913555835,-0.573464968106,-0.0116453554579,0.0,-0.00763504975775,0.00939963398151,-0.99992667376,0.0,0.550789261424,0.11566873824,0.304409428699,1.0,-0.259596,-0.341183314286,1.729
0.322288480143,0.0553890016051,-0.128363804099,-2.06119309695,0.0207348545493,2.11038598261,0.00892245121948,-0.465368537778,-0.957157282256,-0.0115618947958,-1.17741659407,-0.140694376758,0.254877923748,-0.416977209386,0.57363326787,0.819093655708,0.003347248447,0.0,0.81906519996,-0.573565825097,-0.0116270975135,0.0,-0.00760396089009,0.00941148586132,-0.999926799177,0.0,0.546652014663,0.110121694603,0.304450073311,1.0,-0.25998,-0.341688,1.745
0.314746021723,0.0405574395728,-0.128495840808,-2.08000619815,0.0185759303572,2.11407663308,0.00228513660705,-0.469409256594,-0.9332872852,-0.00852148078651,-1.16661045901,-0.135752656306,0.224453905667,-0.409404779004,0.573690710272,0.819054277977,0.00313138563548,0.0,0.819021641683,-0.573622339088,-0.0119041780524,0.0,-0.00795408834762,0.00939416983285,-0.999924238156,0.0,0.54242104764,0.104662270513,0.304327940532,1.0,-0.25998,-0.341688,1.761
0.306034107196,0.0238040892556,-0.128701984174,-2.1006371405,0.0160407004014,2.11811011466,-0.00542723421931,-0.488827904491,-0.920342365738,-0.00926696754849,-1.14403098975,-0.139329169793,0.212072682518,-0.43473009763,0.573695220104,0.819050879878,0.00319335264332,0.0,0.819019401288,-0.573627042202,-0.0118314694695,0.0,-0.0078589333566,0.00940325629334,-0.999924905149,0.0,0.537752070595,0.0984857689399,0.304381562179,1.0,-0.25998,-0.341688,1.779
0.297546069689,0.00808853731787,-0.128934758878,-2.1196969834,0.013679090116,2.12164131277,-0.0128749884447,-0.512339970272,-0.921335365467,-0.0196272683184,-1.11926526307,-0.149551543772,0.202305719927,-0.43597096624,0.57378094903,0.818990379613,0.0033056820104,0.0,0.818960564259,-0.573712614449,-0.0117548760779,0.0,-0.00773076779388,0.009452129139,-0.999925443463,0.0,0.533360139882,0.0926132429808,0.304465842996,1.0,-0.25998,-0.341688,1.796
0.289386867869,-0.00654041217888,-0.129065915766,-2.13726779209,0.0115689613961,2.12477244899,-0.0200564547608,-0.508003742264,-0.914653540354,-0.00464109607958,-1.08361834667,-0.143919655096,0.20230934669,-0.442787440131,0.573802054292,0.818974836302,0.00348810772006,0.0,0.818946932777,-0.573732534971,-0.0117322849873,0.0,-0.00760735175756,0.00958876895932,-0.999925089049,0.0,0.52923102431,0.0871614435082,0.304540667234,1.0,-0.25998,-0.341688,1.812
0.280619582068,-0.0218557453084,-0.129199091825,-2.15578461111,0.00916521396047,2.12780698225,-0.0278055320863,-0.518979064833,-0.894481788526,-0.00913339741448,-1.0810220431,-0.140421399164,0.159597856305,-0.460274646609,0.573696338081,0.819049589849,0.00332083463275,0.0,0.819019072071,-0.573626864293,-0.0118628431376,0.0,-0.0078114872444,0.00952567996553,-0.999924118165,0.0,0.524756196959,0.0813938820407,0.304471487655,1.0,-0.25998,-0.341688,1.829
0.271502001225,-0.0372110795738,-0.12944450433,-2.17376271778,0.00676535673013,2.13074445043,-0.0356732746953,-0.544834426884,-0.900023657018,-0.0196120682894,-1.05512957964,-0.143752279736,0.161538046459,-0.46130839299,0.573837862511,0.818949671765,0.00350564783408,0.0,0.818922478714,-0.57376889131,-0.0116610515348,0.0,-0.00753852779579,0.00956259081064,-0.99992586098,0.0,0.520398490253,0.0755116368034,0.304587154213,1.0,-0.25998,-0.341688,1.846
0.262223886787,-0.0523875684978,-0.129581889437,-2.19143734892,0.0045317705265,2.13340992943,-0.0438003091749,-0.547628873149,-0.895888280419,-0.00808078918042,-1.02721359643,-0.132756620626,0.166631650986,-0.472951836002,0.573849285603,0.818940878652,0.00368532046366,0.0,0.818915522967,-0.573779105977,-0.0116469175719,0.0,-0.00742371995863,0.00970172825124,-0.999925379641,0.0,0.5159999826,0.0697324491043,0.304651760636,1.0,-0.25998,-0.341688,1.863
0.25280759358,-0.0672586862597,-0.129738531454,-2.20893815008,0.00214915485628,2.13577422645,-0.0521213365217,-0.555524124023,-0.87368732455,-0.0065274638408,-1.02136917546,-0.141244900078,0.128074202575,-0.490668873335,0.573732421711,0.819023710876,0.00346643937073,0.0,0.818994740419,-0.573662000766,-0.0118436035075,0.0,-0.00771177602549,0.00963424042373,-0.999923852062,0.0,0.51152142358,0.0639550515409,0.304540780965,1.0,-0.25998,-0.341688,1.88
0.243593098282,-0.0813077916397,-0.129988594427,-2.22492863488,-4.88014904345e-05,2.13789864396,-0.060117223369,-0.579189360633,-0.879746474187,-0.0130306427392,-1.00280711104,-0.136274091012,0.123476452725,-0.504815599972,0.573851927698,0.818939411472,0.0035989326657,0.0,0.818912455235,-0.573781407175,-0.0117488017341,0.0,-0.00755670161825,0.00968946986104,-0.999924502367,0.0,0.507406583482,0.0584056927053,0.3046088954,1.0,-0.25998,-0.341688,1.896
0.234349798075,-0.0951770973831,-0.130087202113,-2.24070541368,-0.0021571834917,2.13973363904,-0.0682579454245,-0.583738950372,-0.873454243719,-0.012068768285,-0.957115353858,-0.138029640406,0.119907115875,-0.522635407623,0.573766058419,0.818999559073,0.00360268590694,0.0,0.818971692602,-0.573694311242,-0.0118722730431,0.0,-0.00765669339257,0.00976259304369,-0.99992303045,0.0,0.503220698152,0.0530246696575,0.304597321346,1.0,-0.25998,-0.341688,1.912
0.22364966726,-0.110635535231,-0.130290312526,-2.25821817184,-0.00469690117379,2.14160731661,-0.0775661783269,-0.603878872569,-0.853419164457,-0.0112866487475,-0.980445679484,-0.150304382292,0.0998865561399,-0.524459980416,0.573763602969,0.819001976762,0.00344047508266,0.0,0.818971613598,-0.573691960891,-0.0119907060293,0.0,-0.00784679011927,0.00969766883371,-0.999922188525,0.0,0.498489524034,0.0468697224647,0.304529672578,1.0,-0.25998,-0.341688,1.93
0.213214516763,-0.125197638822,-0.130529475346,-2.27425265722,-0.00696574124108,2.143230108,-0.0866402166121,-0.611135747477,-0.83932466096,-0.00524332349096,-0.946481927781,-0.125348388445,0.09214619158,-0.538348560818,0.573870015065,0.818926779587,0.00358920396939,0.0,0.818898323223,-0.573797773596,-0.0119330691951,0.0,-0.00771298117868,0.009787412149,-0.999922355228,0.0,0.494100597303,0.0410108947989,0.304593842335,1.0,-0.25998,-0.341688,1.947
0.203321020948,-0.138723189326,-0.130696380647,-2.28915446562,-0.00911050100076,2.14447921797,-0.0953985658418,-0.623600896817,-0.864351189324,-0.0164969342351,-0.917412827179,-0.127279675943,0.0748631472226,-0.545571678031,0.573775170471,0.818993456965,0.00353809284568,0.0,0.818963507817,-0.573702091072,-0.0120594553645,0.0,-0.0078469548523,0.00981717399646,-0.999921021078,0.0,0.489902312943,0.0355887867774,0.304567083911,1.0,-0.25998,-0.341688,1.963
0.19179553936,-0.153826995977,-0.130987796137,-2.30541093331,-0.0115597146265,2.14585134293,-0.105438052925,-0.653867677999,-0.815817418889,-0.0183432802361,-0.890096347401,-0.133530748281,0.0534641690236,-0.56413403616,0.573885140005,0.818915711124,0.00369473371909,0.0,0.818888520315,-0.573812380069,-0.0119033893498,0.0,-0.00762793546651,0.00985694306843,-0.99992232462,0.0,0.485283921091,0.0293683741074,0.304639144725,1.0,-0.25998,-0.341688,1.981
0.180858788587,-0.168028219207,-0.1311080744,-2.32048657474,-0.0137576957786,2.14681392153,-0.115122542449,-0.636692143322,-0.825614069257,-0.0134597074174,-0.877362865178,-0.113592725505,0.058984075853,-0.580096674095,0.573767721738,0.818997386404,0.00382484721954,0.0,0.818971617602,-0.573694166647,-0.0118844275677,0.0,-0.00753916773107,0.00995153384203,-0.999922060925,0.0,0.480865988035,0.023672124206,0.304708392962,1.0,-0.25998,-0.341688,1.998
0.170932313916,-0.180281769633,-0.131294693133,-2.33360545529,-0.0157961088986,2.14752139736,-0.12387174911,-0.671805904226,-0.805859569788,-0.0110158870483,-0.885350973486,-0.145302138059,0.0398556448413,-0.591261100556,0.573726328763,0.819026871795,0.00371885242807,0.0,0.818999269869,-0.573652568619,-0.011986382827,0.0,-0.0076839883238,0.00992283188307,-0.999921243764,0.0,0.476942219994,0.018555903712,0.304654459119,1.0,-0.25998,-0.341688,2.013
0.158658091875,-0.195007043205,-0.131548302886,-2.34886759064,-0.0182126455689,2.14827912764,-0.134627855921,-0.677262378658,-0.807687480266,-0.00637502667028,-0.841951484842,-0.13202277788,0.0367919033032,-0.595572536123,0.57378278696,0.818986607204,0.00387266198659,0.0,0.818961924409,-0.573709681776,-0.0118031481518,0.0,-0.00744497992211,0.00994419741115,-0.999922839629,0.0,0.472313975729,0.0123543303404,0.304745120518,1.0,-0.25998,-0.341688,2.031
0.147000969984,-0.208655944551,-0.131749209676,-2.36318713977,-0.0203407907368,2.14869536142,-0.145074185054,-0.697001270049,-0.796965469233,-0.0147808000107,-0.850143288621,-0.13305319477,0.0130654051991,-0.606349569302,0.573669807078,0.819066004541,0.00381831822154,0.0,0.819038902121,-0.573594650373,-0.0120499285136,0.0,-0.00767966775472,0.0100402246352,-0.999920105105,0.0,0.467828613159,0.0066214290903,0.304664601945,1.0,-0.25998,-0.341688,2.048
0.135580761762,-0.221430451824,-0.132057090188,-2.37609946062,-0.022445122051,2.14902494417,-0.155002493329,-0.710452545679,-0.800044681496,-0.0198293402981,-0.818842585005,-0.139886182985,0.018917070945,-0.623740982374,0.573891592161,0.818909902404,0.00396977228362,0.0,0.81888553169,-0.573816860244,-0.011893014325,0.0,-0.00746152859004,0.0100762840134,-0.999921393956,0.0,0.463727715923,0.00105363672384,0.304749489118,1.0,-0.25998,-0.341688,2.064
0.123506201743,-0.234812112164,-0.132219234058,-2.38978298256,-0.0246335106362,2.14913615444,-0.165875282007,-0.723222081405,-0.791317447963,-0.0143568435521,-0.798058659989,-0.127418176125,0.00131431733965,-0.641855950503,0.573682853033,0.81905651543,0.00389301532198,0.0,0.819030336341,-0.57360734864,-0.012027661487,0.0,-0.0076184189874,0.0100887550455,-0.999920085164,0.0,0.459255111317,-0.00464133421518,0.304692946193,1.0,-0.25998,-0.341688,2.081
0.110876170153,-0.248109266368,-0.132538277485,-2.40283754764,-0.0267318037557,2.14921740501,-0.177012915307,-0.752045589334,-0.766955523978,-0.013302059711,-0.776858157458,-0.120969255663,0.000458498991739,-0.652240867516,0.573871287633,0.818923017903,0.00419319451301,0.0,0.818901614208,-0.573795881343,-0.0117974447501,0.0,-0.00725530100412,0.0102042250279,-0.999921614127,0.0,0.454919379537,-0.0105397992993,0.304820141055,1.0,-0.25998,-0.341688,2.098
0.098997769678,-0.260354093371,-0.132697643186,-2.41511021042,-0.0287163251903,2.14911281884,-0.187695519515,-0.749115517587,-0.757993813119,-0.0156349919432,-0.767494512626,-0.11285767383,-0.0168638319575,-0.669026053034,0.573744417773,0.81901201595,0.00417225424449,0.0,0.818989718928,-0.573668232987,-0.0118888878083,0.0,-0.00734379364206,0.0102384134657,-0.999920618642,0.0,0.450731860705,-0.0159185843542,0.304759940789,1.0,-0.25998,-0.341688,2.114
0.085198513418,-0.274030329163,-0.133053416664,-2.42823636799,-0.0309744840012,2.14890111629,-0.199973283611,-0.769215792577,-0.759747751728,-0.0191116607592,-0.729494597037,-0.122797714073,-0.0177486620616,-0.684451882918,0.573870803554,0.818922138688,0.00442475943056,0.0,0.818904583103,-0.57379588123,-0.0115895365743,0.0,-0.00695215319164,0.0102745502605,-0.999923047631,0.0,0.446151334337,-0.0221353511461,0.304887215237,1.0,-0.25998,-0.341688,2.132
0.0720867854731,-0.286665246582,-0.133221194496,-2.44062332889,-0.0330384499582,2.14843136515,-0.211885703615,-0.773443421876,-0.733541572716,-0.0142923686653,-0.728636324151,-0.118874597319,-0.030641632373,-0.702150787688,0.573676363828,0.819058732484,0.00435536765451,0.0,0.819039402076,-0.573600408518,-0.0117378062656,0.0,-0.0071158490583,0.0103011180658,-0.999921622758,0.0,0.441690630543,-0.0278371364263,0.304812798695,1.0,-0.25998,-0.341688,2.149
0.0593071845576,-0.298454816316,-0.133508011142,-2.45170393286,-0.0349658591076,2.14793730308,-0.223345059095,-0.811396363557,-0.740510177194,-0.0186515019893,-0.683182626835,-0.123951473402,-0.024725146634,-0.720350283603,0.573758635724,0.819000078686,0.00454378113588,0.0,0.818984108754,-0.573683446417,-0.0115360225513,0.0,-0.0068414430744,0.0103403761889,-0.999923132684,0.0,0.437599807938,-0.0333590980169,0.304905901039,1.0,-0.25998,-0.341688,2.165
0.0448749854933,-0.311437501015,-0.133716221145,-2.46408599988,-0.0370815070301,2.1471382832,-0.236442057339,-0.8013969861,-0.71226570462,-0.0173722362303,-0.677345732847,-0.118216527626,-0.0568598837105,-0.724457324878,0.573648468884,0.819077444323,0.00450790956996,0.0,0.819060224348,-0.573572226533,-0.0116617640787,0.0,-0.00696641031383,0.0103822024215,-0.999921836445,0.0,0.432892176873,-0.0394138437913,0.304855384903,1.0,-0.25998,-0.341688,2.183
0.0307614316567,-0.323500124157,-0.134045039374,-2.47528566715,-0.0391127442665,2.1462927101,-0.249137211274,-0.826903151872,-0.708337187613,-0.0166318412615,-0.641620424553,-0.12739316439,-0.043489301625,-0.750179611618,0.573760794045,0.818998429517,0.00456843163491,0.0,0.818982302078,-0.573684810913,-0.0115962714527,0.0,-0.00687662066559,0.0103951507127,-0.999922323448,0.0,0.42849459974,-0.0452946484022,0.304886394161,1.0,-0.25998,-0.341688,2.2
0.01749434792,-0.334617983304,-0.134208033974,-2.48558880345,-0.0408296867164,2.14546660957,-0.261342786536,-0.843753183907,-0.698201759342,-0.0121310739704,-0.651194230847,-0.111005158021,-0.0678774161104,-0.770176971543,0.57361181231,0.819102091024,0.0046904328414,0.0,0.819087239531,-0.573535021163,-0.0115939828318,0.0,-0.00680665913113,0.0104925212058,-0.999921785136,0.0,0.424367447193,-0.0506398760659,0.304881297588,1.0,-0.25998,-0.341688,2.216
0.00201636839345,-0.346890475467,-0.134559518408,-2.49687986238,-0.0429807429329,2.14421331221,-0.275358429083,-0.858576440069,-0.679839957182,-0.0088439031512,-0.611506719167,-0.109949872078,-0.0745325791736,-0.797291952051,0.573690252548,0.819047871732,0.00456342445211,0.0,0.819030711719,-0.573612840908,-0.0117366481083,0.0,-0.00699537247275,0.0104709869932,-0.999920708454,0.0,0.419637209055,-0.0568621481434,0.304833890298,1.0,-0.25998,-0.341688,2.234
-0.0126672819424,-0.358308797299,-0.13479850646,-2.50695554448,-0.0448386159022,2.14312751787,-0.288929735965,-0.878487150022,-0.655956467465,-0.0199171523353,-0.601065669433,-0.110006879227,-0.0698991334336,-0.819746831281,0.573558107158,0.819139242758,0.00476923354385,0.0,0.819126130149,-0.573482216645,-0.0114576175235,0.0,-0.00665044155923,0.0104784149779,-0.999922984258,0.0,0.415315637335,-0.0626212532966,0.304949644525,1.0,-0.25998,-0.341688,2.251
-0.0250649718838,-0.367487992896,-0.135073366705,-2.51524303682,-0.0463469713892,2.14200696344,-0.300270815818,-0.877043862843,-0.648546855022,-0.00756861650621,-0.590438038918,-0.107912562425,-0.0789039023651,-0.808630429981,0.573625715186,0.819092021378,0.00474829377087,0.0,0.819077577845,-0.573548217117,-0.0116237264247,0.0,-0.00679765702245,0.0105570926009,-0.99992116672,0.0,0.411626528789,-0.0674203109952,0.304904764765,1.0,-0.25998,-0.341688,2.265
-0.0411617263772,-0.379042378531,-0.135368944914,-2.52545418084,-0.0482746046114,2.14051118084,-0.315082951167,-0.909699570043,-0.642310943337,-0.0298936171082,-0.541081744186,-0.106473103066,-0.088049654941,-0.822237482233,0.573618236288,0.819097229864,0.00475330706937,0.0,0.819082410872,-0.573540040907,-0.0116864270793,0.0,-0.00684623992801,0.0105971019308,-0.999920412048,0.0,0.406935433542,-0.0735389179324,0.30490371382,1.0,-0.25998,-0.341688,2.283
-0.0566502659023,-0.38964744168,-0.135634729273,-2.53461685169,-0.0500714675026,2.13921846687,-0.329427630545,-0.909639449045,-0.6154264454,-0.0201135035305,-0.537785903976,-0.105271329829,-0.0854920201871,-0.845076856837,0.573563355077,0.819134989453,0.00486761412262,0.0,0.819122857734,-0.573486725771,-0.0114658712511,0.0,-0.006600711325,0.0105637809597,-0.999922415561,0.0,0.402588030314,-0.0793421768876,0.304967318133,1.0,-0.25998,-0.341688,2.3
-0.0715321433632,-0.39935430247,-0.135958004293,-2.54311357546,-0.0517735493223,2.13771277597,-0.343217496814,-0.936511069527,-0.592672002268,-0.0212790527272,-0.529232527002,-0.0973790714001,-0.0957821236009,-0.85913321007,0.573571130651,0.819130094286,0.00477426635536,0.0,0.819115779331,-0.573493237871,-0.0116444436291,0.0,-0.00680043566665,0.0105897974909,-0.999920801996,0.0,0.39837058468,-0.0848425395955,0.304914991259,1.0,-0.25998,-0.341688,2.316
-0.0874107871534,-0.409403459408,-0.136186050592,-2.55170529496,-0.053293578669,2.1361410795,-0.358067947216,-0.934970385478,-0.586411196536,-0.0105361166043,-0.482688944483,-0.0957995564272,-0.0804137732944,-0.883236856118,0.573521585653,0.819163971878,0.00491170722758,0.0,0.819150624981,-0.573441985535,-0.0117170696102,0.0,-0.00678175270544,0.0107436272353,-0.999919287895,0.0,0.393970246817,-0.090555743681,0.304923637572,1.0,-0.25998,-0.341688,2.333
-0.103741446189,-0.419169609366,-0.136535105434,-2.55982833219,-0.0550489100929,2.13467710523,-0.373234466103,-0.948751244352,-0.5670731637,-0.00948178643226,-0.475819623309,-0.0989147048055,-0.0973020769418,-0.901667021503,0.57358163947,0.819121411943,0.00499622460844,0.0,0.819110804893,-0.573504423424,-0.0114417009971,0.0,-0.00650691064058,0.0106554163264,-0.999922058071,0.0,0.38960655533,-0.096447599018,0.305006568601,1.0,-0.25998,-0.341688,2.35
-0.11922326364,-0.427992452886,-0.136799755981,-2.56739708735,-0.05651349062,2.13299773961,-0.387772925136,-0.974801330142,-0.539220648267,-0.0245840522644,-0.463191474708,-0.0886872441172,-0.1086364486,-0.912035546227,0.573545560779,0.819147080074,0.00492928175602,0.0,0.819133628705,-0.57346537198,-0.0117606277699,0.0,-0.00680704255841,0.0107832039112,-0.999918690037,0.0,0.385378066242,-0.101872163065,0.304922044301,1.0,-0.25998,-0.341688,2.366
-0.136826392493,-0.437594052477,-0.137106273692,-2.57544035265,-0.0581452104203,2.13126133965,-0.404330924261,-0.974787244094,-0.522299265719,-0.0176629415494,-0.435510140404,-0.0847565727096,-0.106157636415,-0.919528125685,0.573519133535,0.819165439121,0.0049531525609,0.0,0.819151755243,-0.573438009427,-0.0118320804469,0.0,-0.00685223735691,0.0108435169114,-0.999917729108,0.0,0.380696368283,-0.107975195056,0.304897427158,1.0,-0.25998,-0.341688,2.384
-0.1539186326,-0.446357972115,-0.137447604183,-2.58240197777,-0.0596195107758,2.1297106022,-0.420339000942,-1.00724749124,-0.512991886599,-0.016318235784,-0.40607075723,-0.0889153259404,-0.0792628317677,-0.939338451297,0.573663570175,0.819063025014,0.00515909006837,0.0,0.819053674843,-0.573584466756,-0.0115188594854,0.0,-0.0064756226448,0.010833730319,-0.999920345127,0.0,0.376354981472,-0.113878766295,0.3050234935,1.0,-0.25998,-0.341688,2.401
-0.170002785474,-0.454197877774,-0.137674033037,-2.58893502974,-0.0609583841023,2.12806608928,-0.435576495001,-1.01514997236,-0.481772798702,-0.01361140481,-0.412596589604,-0.0871250958852,-0.111828704932,-0.957121060544,0.573605619097,0.819103888256,0.00511477132229,0.0,0.819092595315,-0.573524402263,-0.0117399834093,0.0,-0.00668294856079,0.0109238020856,-0.999918001011,0.0,0.372160363414,-0.11927851746,0.304957347227,1.0,-0.25998,-0.341688,2.417
-0.187316235638,-0.462196661955,-0.137981126447,-2.59545990942,-0.0624041904633,2.1263711946,-0.452101580153,-1.01674702798,-0.461040662217,-0.0155401321725,-0.388129606297,-0.0715048027477,-0.09284113264,-0.970498457921,0.573506722336,0.819173283964,0.00509089150433,0.0,0.819161070232,-0.573424611473,-0.0118365060388,0.0,-0.00677703751852,0.010958786906,-0.99991698493,0.0,0.367724862969,-0.125061687395,0.30493054137,1.0,-0.25998,-0.341688,2.434
-0.205039429722,-0.469794038619,-0.138297470154,-2.60159316118,-0.0637725215325,2.1247843539,-0.468820958728,-1.05304022845,-0.442635706987,-0.0119761852618,-0.346402611974,-0.0854771291879,-0.0923052996,-0.986061641706,0.57364002709,0.81907974168,0.00512279124166,0.0,0.819067816401,-0.573557576573,-0.0118475902129,0.0,-0.00676603566839,0.0109923770442,-0.999916690734,0.0,0.363290071857,-0.130925919886,0.304917217372,1.0,-0.25998,-0.341688,2.451
-0.221698666175,-0.476646776969,-0.138495427187,-2.60682308344,-0.0649020586342,2.12333140709,-0.484779973533,-1.04999072677,-0.417242664049,-0.0185824475863,-0.323803467998,-0.0656220930204,-0.0940425930106,-1.00585183886,0.573584279255,0.819117764407,0.00528294680019,0.0,0.819109264404,-0.573503544446,-0.0115950151296,0.0,-0.00646801868558,0.0109782404286,-0.99991881819,0.0,0.359228996293,-0.136356857144,0.305027408392,1.0,-0.257456571429,-0.338371493878,2.467
-0.239479353365,-0.483364311571,-0.138667147202,-2.61219204938,-0.0660281675821,2.12177260413,-0.501789152437,-1.03994804707,-0.388420020487,-0.00419654181713,-0.306868622652,-0.0623582978311,-0.0957624060478,-1.00485349593,0.57356009466,0.819134427773,0.0053248428074,0.0,0.819125758681,-0.573478021372,-0.0116917650368,0.0,-0.0065235725448,0.0110678588563,-0.999917469345,0.0,0.354867226138,-0.142048985519,0.305000535499,1.0,-0.251861142857,-0.331017502041,2.484
-0.258311177283,-0.489852513287,-0.13879468576,-2.61744989097,-0.0670992659772,2.12010832957,-0.519655333734,-1.04123201221,-0.351375757668,-0.00401455374612,-0.279577979937,-0.0653829660462,-0.0893755009568,-0.98601349999,0.573690015118,0.819043450928,0.00532343380556,0.0,0.819032738461,-0.573604525226,-0.0119987028848,0.0,-0.00677404371815,0.0112438190855,-0.99991384072,0.0,0.350280420775,-0.147985124672,0.304916057955,1.0,-0.245936571429,-0.323230922449,2.502
-0.27480948316,-0.495175085206,-0.138810608045,-2.62158676093,-0.0678735971949,2.11891398871,-0.535443239748,-1.03370220435,-0.320076777547,-0.00499416570965,-0.254087391797,-0.050037087493,-0.0746901305521,-0.980407938194,0.573717618972,0.819023153667,0.00546940035828,0.0,0.819014637961,-0.573632072567,-0.0119170059225,0.0,-0.00662300782315,0.0113167330996,-0.999914029964,0.0,0.346391180693,-0.153129491949,0.304934260215,1.0,-0.240670285714,-0.316309518367,2.518
-0.292107018072,-0.500328357129,-0.138777071542,-2.62552443638,-0.0686857382015,2.11762809052,-0.551980425043,-0.997655178097,-0.289423435056,-0.00156305619204,-0.221742499718,-0.0392190044208,-0.0824472352103,-0.970853745308,0.573743304256,0.819004743643,0.00553151098194,0.0,0.818997255139,-0.573657900605,-0.0118682791434,0.0,-0.00654710799235,0.0113398563299,-0.999914267843,0.0,0.342345924025,-0.158474927804,0.304964458309,1.0,-0.235074857143,-0.308955526531,2.535
-0.309238057274,-0.50495605004,-0.138764163281,-2.62905567102,-0.0693723502903,2.11646296655,-0.568337688941,-0.997523687473,-0.258998949753,0.00240051359801,-0.203333870714,-0.0459494641964,-0.0586003038784,-0.963425954791,0.573870882383,0.818914584148,0.00564456597227,0.0,0.818908630951,-0.573785155657,-0.0118319991286,0.0,-0.00645075267798,0.0114126433017,-0.999914065989,0.0,0.338383641442,-0.163736045237,0.304985663654,1.0,-0.229479428571,-0.301601534694,2.552
-0.325018988023,-0.508911280963,-0.138674125187,-2.63203586884,-0.0699445329273,2.11549271313,-0.583550553323,-0.984410281474,-0.242844235793,0.0032613068847,-0.177100264291,-0.0288811027569,-0.065931881949,-0.937511331776,0.573854543053,0.818925364425,0.00574089018961,0.0,0.818921210191,-0.573769456387,-0.0117221720475,0.0,-0.00630575797795,0.0114283784573,-0.999914811163,0.0,0.334771597763,-0.168528849282,0.305020133525,1.0,-0.224213142857,-0.294680130612,2.568
-0.341619391442,-0.512691046826,-0.138571176502,-2.63495949301,-0.0705368875876,2.11443019559,-0.599495072055,-0.96713559233,-0.210424584449,0.0136297966811,-0.164543973313,-0.0245758434188,-0.0591789828082,-0.928663556659,0.573895495322,0.818896509254,0.00576320066432,0.0,0.818892082614,-0.573809303612,-0.0118062280649,0.0,-0.00636122326327,0.011495201816,-0.999913693863,0.0,0.330946549092,-0.173519787158,0.305003104229,1.0,-0.218617714286,-0.287326138776,2.585
-0.3578848856,-0.515951899091,-0.138477288753,-2.63756317913,-0.0709713233576,2.11348595008,-0.615172836034,-0.961166692191,-0.18227891229,0.00594953842189,-0.152240612679,-0.0245364778701,-0.0573765301567,-0.920713588185,0.573973540703,0.8188411693,0.00585328397485,0.0,0.818836633757,-0.573884672951,-0.0119873379473,0.0,-0.00645674017422,0.0116735229031,-0.999911015726,0.0,0.32721840488,-0.178369684781,0.304945813986,1.0,-0.213022285714,-0.279972146939,2.602
-0.372842029203,-0.51859446828,-0.138279127376,-2.63969073099,-0.0713241568128,2.11274937032,-0.629595220304,-0.926441133694,-0.158343612929,0.00915198540157,-0.125521386261,-0.0297614490281,-0.0534231109367,-0.891458387167,0.573996530589,0.818824760439,0.00589418900044,0.0,0.81881998668,-0.57390609635,-0.0120983009895,0.0,-0.00652380301247,0.0117708891789,-0.99990943898,0.0,0.323841136234,-0.18278721501,0.304894692317,1.0,-0.207756,-0.273050742857,2.618
-0.388541329895,-0.521098201031,-0.138123737877,-2.64161639103,-0.071689227453,2.11202317022,-0.64471020597,-0.901072795738,-0.139669468833,0.0169897476657,-0.104908027093,-0.0173063647517,-0.0428041035546,-0.889234033815,0.574069900056,0.818772937471,0.00594757225355,0.0,0.818768647764,-0.57397883862,-0.0121219287351,0.0,-0.00651145194918,0.011828747849,-0.999908836704,0.0,0.320119577462,-0.187693469672,0.304885902203,1.0,-0.201831428571,-0.265264163265,2.636
-0.40455921811,-0.523379766569,-0.137855914555,-2.64332396852,-0.071943941667,2.11133753056,-0.660393614878,-0.887752515355,-0.121986141051,0.00897860997261,-0.0888711010537,-0.0188013332545,-0.0286621310993,-0.858579735693,0.573971418379,0.818841394947,0.00602724693542,0.0,0.818837998174,-0.573879764704,-0.0121282855705,0.0,-0.00647235183461,0.0118968571379,-0.99990828252,0.0,0.316749362503,-0.192118117898,0.304891554268,1.0,-0.196236,-0.257910171429,2.653
-0.418666293259,-0.525117307622,-0.137645232968,-2.644568735,-0.0721581346094,2.11081108993,-0.673997662294,-0.861504919435,-0.0991261516825,0.0235096701658,-0.0737220011776,-0.0137220642086,-0.0397007673026,-0.847192579272,0.574069255108,0.818772339251,0.00609046128671,0.0,0.818770143512,-0.573978005547,-0.0120601883258,0.0,-0.00637888059833,0.0119103005006,-0.999908723146,0.0,0.31362923622,-0.19625220627,0.304922890133,1.0,-0.190969714286,-0.250988767347,2.669
-0.433223163025,-0.526632481582,-0.137439747931,-2.64568982767,-0.0723314049054,2.11037335563,-0.688126808037,-0.85993933255,-0.0822282748206,0.00946680050137,-0.0679494791162,-0.0124905431429,-0.0252304050077,-0.832492353771,0.574134320366,0.818726104779,0.00617206872688,0.0,0.818725266611,-0.574043264234,-0.0120006458677,0.0,-0.00628232852134,0.0119434412214,-0.999908939134,0.0,0.310411931375,-0.200505205399,0.304935700797,1.0,-0.185374285714,-0.24363477551,2.686
-0.448195821797,-0.527911922949,-0.137121786494,-2.64665078118,-0.0724592749868,2.10995436864,-0.702722762988,-0.81341659651,-0.0653241579549,0.0172469948514,-0.047872479702,-0.00423757783906,-0.0202095871952,-0.803989184646,0.574107202004,0.818744826376,0.00621102178294,0.0,0.818744538616,-0.574016069174,-0.0119866474681,0.0,-0.00624889960142,0.0119670912069,-0.999908865838,0.0,0.307115481062,-0.204833276178,0.304939041859,1.0,-0.179449714286,-0.235848195918,2.704
-0.460414546397,-0.52872839674,-0.13689870155,-2.64727677254,-0.0725316794083,2.10966701964,-0.714538048369,-0.820814034902,-0.0531350701331,0.0114871698444,-0.0310015932236,-0.000744056304963,-0.0152144458535,-0.785940043151,0.574212531172,0.818670572387,0.00626177719886,0.0,0.818670856105,-0.574120987792,-0.0119944838687,0.0,-0.00622463310705,0.0120139487482,-0.999908455299,0.0,0.304423456658,-0.208368082818,0.304933942067,1.0,-0.174512571429,-0.229359379592,2.719
-0.473777987418,-0.529389118485,-0.136541078704,-2.64778144898,-0.072579380787,2.10939916523,-0.727624432177,-0.769196250984,-0.0367692983985,0.0242009298256,-0.0251267085496,-0.0024766916475,-0.00679137626475,-0.769083063174,0.574137219609,0.818723371163,0.00626430136112,0.0,0.818723639245,-0.574045588036,-0.0120005124046,0.0,-0.00622922534502,0.0120189038347,-0.999908367153,0.0,0.301505604534,-0.212203426534,0.304932109679,1.0,-0.168917142857,-0.222005387755,2.736
-0.487579974082,-0.529823765559,-0.136253933228,-2.64813641296,-0.072599745487,2.10917808557,-0.74104460928,-0.760311428645,-0.0231302284638,0.01536725691,-0.0154125973713,-0.00105595858344,-0.00841187599274,-0.732857547384,0.574218066207,0.818666355952,0.00630531314889,0.0,0.818666879665,-0.574125700539,-0.0120402251365,0.0,-0.00623700499026,0.0120758983339,-0.999907631958,0.0,0.298476235004,-0.216178622506,0.304917899961,1.0,-0.162992571429,-0.214218808163,2.754
-0.500078136979,-0.530031568179,-0.135857429654,-2.64830624107,-0.0725976013288,2.10903200511,-0.753373035863,-0.720983914762,-0.0158182323678,0.0186119881791,-0.0106399113066,0.000666489976215,-0.00772485410826,-0.723873069781,0.57406859134,0.818771408061,0.00627540277034,0.0,0.818771503866,-0.57397631574,-0.0120482499457,0.0,-0.00626295059202,0.0120548749318,-0.999907723463,0.0,0.295758846671,-0.219743389525,0.304914278653,1.0,-0.157397142857,-0.206864816327,2.771
-0.512320946719,-0.530092767495,-0.135559963022,-2.64840085086,-0.0726020728168,2.10894264101,-0.765251098925,-0.724607229441,-0.00142647471366,0.0128964813004,-0.00432123059907,-0.00126221757435,-0.00623068885303,-0.693008838619,0.574150486122,0.818714019775,0.00627056698582,0.0,0.818713862988,-0.574057849799,-0.0120806678399,0.0,-0.00629106505034,0.0120701538209,-0.999907362653,0.0,0.293062783806,-0.223245543092,0.304893622111,1.0,-0.151801714286,-0.19951082449,2.788
-0.524062701162,-0.530034120364,-0.135178238966,-2.64836410547,-0.072580065049,2.10888300396,-0.776767058788,-0.676310710455,0.00622777801719,0.0236095640437,0.0107607549855,0.0043182433751,-0.000593078368389,-0.670388070582,0.574077844885,0.818765273917,0.00622905617461,0.0,0.818764660591,-0.573985569429,-0.0120724295852,0.0,-0.00630921923278,0.012030877055,-0.999907721617,0.0,0.290492563032,-0.226578157866,0.304893665708,1.0,-0.146206285714,-0.192156832653,2.805
-0.534692011781,-0.52983548384,-0.13485089021,-2.64824943353,-0.0725603564294,2.10887933537,-0.787204683978,-0.664645668673,0.0116543633891,0.0147448089916,0.00737503718218,0.00110337616128,-0.00150055372416,-0.651462150126,0.57401931927,0.818806626832,0.0061867488705,0.0,0.818805441196,-0.573927202592,-0.0120814938464,0.0,-0.00634178585014,0.0120009855681,-0.999907874805,0.0,0.288155468379,-0.229596801753,0.304881410894,1.0,-0.14094,-0.185235428572,2.821
-0.54572696876,-0.529520278043,-0.134516042616,-2.64800849414,-0.0725266465606,2.10889979137,-0.797900398665,-0.630197169529,0.0263665332405,0.0223586739676,0.020991269862,0.000877608342385,0.000899297726856,-0.613057314593,0.574089242721,0.818757936992,0.00614238597307,0.0,0.818756381792,-0.573997697933,-0.0120572361347,0.0,-0.00634636456234,0.0119512773759,-0.999908441121,0.0,0.285728226611,-0.232734858608,0.304886238103,1.0,-0.135344571429,-0.177881436735,2.838
-0.555444751188,-0.529050838089,-0.134093320437,-2.6476917522,-0.0724271973083,2.10892033723,-0.807619835248,-0.604865772624,0.0309276878511,0.0293998547403,0.0171717936242,0.00554589944109,0.00419571404852,-0.603011270636,0.573850553812,0.818925673503,0.00608523364961,0.0,0.818923032289,-0.573758670651,-0.0121161850218,0.0,-0.0064309232251,0.011936447291,-0.999908078001,0.0,0.283614925088,-0.23546196241,0.304871454771,1.0,-0.130078285714,-0.170960032653,2.854
-0.565080213574,-0.528511475446,-0.133790376682,-2.64732618048,-0.0723181400165,2.10901256862,-0.816947504366,-0.59537952747,0.0309343259561,0.0142010027278,0.024434227356,0.00601083015617,0.00449930908783,-0.564989038026,0.573995861266,0.818823784862,0.00609159220616,0.0,0.818821117936,-0.573903717703,-0.0121345181101,0.0,-0.00644016862576,0.0119533176523,-0.999907816964,0.0,0.281359924536,-0.238365751084,0.30485463409,1.0,-0.124482857143,-0.163606040816,2.871
-0.574714431457,-0.527788765062,-0.133401008783,-2.6468104179,-0.0721248970733,2.10913387971,-0.826488297091,-0.547986206314,0.0453318579108,0.0255014207889,0.0323201461035,0.0132496535521,0.0112815346369,-0.556771721769,0.573870072855,0.818911908413,0.00609693713724,0.0,0.818909204413,-0.573777734148,-0.012147988489,0.0,-0.00644996984295,0.0119644353321,-0.999907620821,0.0,0.279410309122,-0.240912999977,0.304847040712,1.0,-0.119216571429,-0.156684636735,2.887
-0.584488648555,-0.526958745915,-0.133010357729,-2.64621841533,-0.0719217807755,2.10927003399,-0.836063723956,-0.537366579138,0.0410489149261,0.0177358889133,0.0354783890435,0.0123727722074,0.00866038640043,-0.524247470621,0.573877353055,0.818906724278,0.00610798528937,0.0,0.818903940379,-0.573784547882,-0.0121809665395,0.0,-0.00647053240746,0.0119924649487,-0.999907152187,0.0,0.277285056405,-0.243671033676,0.304834291144,1.0,-0.113292,-0.148898057143,2.905
-0.592930024597,-0.52617102093,-0.132708148525,-2.64561028736,-0.0717277479778,2.1093967038,-0.844221040713,-0.517187690411,0.0541076662785,0.0163622304703,0.0433091242661,0.00455905917862,0.0113241061563,-0.511293532126,0.57401627204,0.818809107688,0.00614096919726,0.0,0.818806768245,-0.573923314213,-0.0121759016097,0.0,-0.00644541783246,0.0120176641703,-0.999907011845,0.0,0.275556926994,-0.245923094865,0.304840414327,1.0,-0.108354857143,-0.142409240816,2.92
-0.601196577971,-0.525219383913,-0.132272076962,-2.64491633495,-0.0714771101506,2.10955635969,-0.852434936926,-0.470655484027,0.0598844622167,0.0266445360098,0.0440716693405,0.0169338189611,0.0134296242138,-0.467989921354,0.573894321529,0.818894584018,0.00614124448935,0.0,0.818891994781,-0.573800916965,-0.012212922423,0.0,-0.00647736901738,0.0120381745503,-0.999906558656,0.0,0.273683099571,-0.248389750067,0.304832800834,1.0,-0.102430285714,-0.134622661225,2.938
-0.609158135031,-0.524292341893,-0.131883779543,-2.6442328585,-0.0712333612695,2.10971624384,-0.860248223114,-0.465847381908,0.0532049189365,0.0197957636022,0.0381954051235,0.0194898380083,0.00447963816944,-0.439407079772,0.573883417497,0.818902095072,0.0061586288705,0.0,0.818899543736,-0.573789583484,-0.0122392015624,0.0,-0.00648907564184,0.0120674055271,-0.999906130405,0.0,0.271965519961,-0.250625430634,0.304827295312,1.0,-0.0968348571429,-0.127268669388,2.955
-0.615914258859,-0.523490561677,-0.131553530245,-2.64357863368,-0.0710120702949,2.10988195845,-0.866776566988,-0.445650246574,0.051814994716,0.019236447821,0.0416354892122,0.0184766939206,0.00988636704578,-0.419972909737,0.573966764336,0.818843564589,0.00617390231905,0.0,0.818841633392,-0.573873627716,-0.0121731564384,0.0,-0.00642499479042,0.0120426673307,-0.999906842464,0.0,0.27051725855,-0.252534112046,0.304853168043,1.0,-0.0918977142858,-0.120779853061,2.97
-0.623477916051,-0.522438814245,-0.131151369522,-2.64276691375,-0.0707300620325,2.11007780678,-0.87419103182,-0.400709333719,0.0627905261719,0.0262435596463,0.0464880618634,0.0182560015479,0.0124250914208,-0.406547034966,0.573969428684,0.818841530667,0.00619592546297,0.0,0.818839936921,-0.57387628565,-0.0121619641423,0.0,-0.00640314992382,0.0120542989083,-0.999906842435,0.0,0.268906804904,-0.254669234131,0.304863036666,1.0,-0.0859731428572,-0.112993273469,2.988
-0.630063313941,-0.521508502174,-0.130715029231,-2.64206541118,-0.07044463042,2.11026058388,-0.880757026188,-0.381488050154,0.0530179205153,0.0196300017176,0.0380547056655,0.0132467248613,0.00747719963212,-0.368334782765,0.573841633398,0.818931001894,0.00620812506591,0.0,0.818929594776,-0.573748514459,-0.0121535121189,0.0,-0.00639110837053,0.0120584407527,-0.999906869534,0.0,0.267431404972,-0.256604978722,0.304867588318,1.0,-0.0800485714286,-0.105206693878,3.006
-0.636104028484,-0.520660713781,-0.130353911088,-2.64138448644,-0.0702218167599,2.11043221105,-0.88652353981,-0.366731021215,0.0553688296316,0.0261680250298,0.0445911412912,0.0148481344573,0.0105628531113,-0.354862739655,0.57394922653,0.818855692255,0.00619576691275,0.0,0.81885442963,-0.57385671711,-0.0121094262695,0.0,-0.00636051262974,0.0120238585191,-0.999907481073,0.0,0.266146484816,-0.258292159357,0.304890086243,1.0,-0.0747822857144,-0.098285289796,3.022
-0.642329488743,-0.519654620367,-0.129975961078,-2.6406118581,-0.0699116122698,2.11064021562,-0.892597743603,-0.336432254906,0.051494516661,0.0223133607374,0.0374622661904,0.0205405686015,0.0139081379964,-0.333905839722,0.573968032498,0.81884214851,0.00624342821839,0.0,0.818841604334,-0.573875491833,-0.0120869262678,0.0,-0.0063144558073,0.0120501200699,-0.999907456845,0.0,0.264907356155,-0.259938049281,0.304896676339,1.0,-0.0691868571429,-0.0909312979593,3.039
-0.647763128379,-0.518754438703,-0.129641456352,-2.63995914701,-0.0696318407352,2.11082053023,-0.897856119066,-0.304310790542,0.0540858024099,0.0211971405275,0.0401848184279,0.018365551524,0.0127293140691,-0.309287862385,0.574029384067,0.818798758354,0.00629336527241,0.0,0.818798677277,-0.573936246908,-0.0121102219375,0.0,-0.00630396561182,0.0121048554564,-0.999906861909,0.0,0.263746650569,-0.261450711322,0.304885716891,1.0,-0.0635914285715,-0.0835773061225,3.056
-0.652414205687,-0.517962741038,-0.129217050908,-2.63939624611,-0.0693839481226,2.11098517205,-0.902496165476,-0.286244202797,0.0515990769801,0.0291963429305,0.0352917780028,0.00980455602479,0.00515507750186,-0.286891657158,0.573873826804,0.818907922836,0.00627628294171,0.0,0.818907442322,-0.573780462705,-0.0121378922636,0.0,-0.00633872965102,0.012105546563,-0.999906633766,0.0,0.262779621963,-0.262712788585,0.304874476747,1.0,-0.0583251428572,-0.0766559020409,3.072
-0.657042022149,-0.5171801326,-0.128786612003,-2.63881015213,-0.0691303978267,2.11115250643,-0.9068726376,-0.26958873193,0.0470286580852,0.0218400026635,0.0399324358724,0.00784001089428,0.00791384927353,-0.249240793274,0.573913990843,0.818879943459,0.00625429586463,0.0,0.818879235249,-0.573820830401,-0.0121325832434,0.0,-0.00634640602175,0.0120848049531,-0.99990683597,0.0,0.261820602463,-0.263969902721,0.304877263737,1.0,-0.0527297142858,-0.0693019102042,3.089
-0.661255085743,-0.516391182603,-0.128398496165,-2.6382445241,-0.0688587403218,2.11132402252,-0.910946091541,-0.237017586506,0.0482524881851,0.0260703041518,0.0333409966612,0.0123660381538,0.0102381045859,-0.225125173323,0.57389924351,0.818890170751,0.00626844859822,0.0,0.818889527887,-0.573805794787,-0.0121489871061,0.0,-0.00635193629027,0.0121056944949,-0.999906548166,0.0,0.260953887252,-0.265117812498,0.304867526862,1.0,-0.0471342857144,-0.0619479183674,3.106
-0.664783506217,-0.515722024229,-0.12806160211,-2.63776891149,-0.0686288343734,2.11146352517,-0.914311166499,-0.213128846266,0.0360426791341,0.0195075545589,0.026816515274,0.0150702656234,0.0139819574845,-0.20346589531,0.573917477169,0.818877325492,0.00627710891743,0.0,0.818876632051,-0.573823673088,-0.0121737663132,0.0,-0.00636699008866,0.0121271485446,-0.999906192453,0.0,0.260226735953,-0.266073986874,0.304856888279,1.0,-0.0418680000001,-0.0550265142858,3.122
-0.668418827788,-0.515105776909,-0.127687419945,-2.63732003342,-0.0683733981527,2.11159758048,-0.91768439917,-0.192041628552,0.0294275363318,0.0147379958599,0.0270487395083,0.0218227988581,0.00223257551748,-0.168950564339,0.573999295948,0.818819863258,0.00629179516467,0.0,0.818819345179,-0.573905375036,-0.0121756875162,0.0,-0.00635892215238,0.0121409134089,-0.999906076755,0.0,0.259472668733,-0.267038517283,0.304853921367,1.0,-0.0359434285715,-0.047239934694,3.14
-0.671389483899,-0.514579732359,-0.127310699396,-2.63691849205,-0.068133694943,2.11171646616,-0.920480637382,-0.166055422094,0.0301911204936,0.0230607113976,0.022552294202,0.0135665942201,0.00641020858173,-0.157827426072,0.573997997024,0.818820787329,0.006290035819,0.0,0.818820381261,-0.573904342372,-0.0121546674406,0.0,-0.00634273761057,0.0121273977828,-0.999906343566,0.0,0.258881397847,-0.267816898584,0.304861375602,1.0,-0.0303480000001,-0.0398859428572,3.157
-0.673729652998,-0.514140989938,-0.12693264363,-2.63659043157,-0.0679072191644,2.11180935927,-0.922714552009,-0.140998324506,0.0249178095308,0.0213013435458,0.0154395432713,0.017647821871,0.00506097793812,-0.127733386837,0.573930312934,0.818868302339,0.00628062259832,0.0,0.818867805988,-0.573836778352,-0.0121496924802,0.0,-0.00634506797956,0.012116309731,-0.999906463201,0.0,0.258437770673,-0.268410573534,0.304865400827,1.0,-0.0250817142858,-0.0329645387756,3.173
-0.675960565767,-0.513762045623,-0.126497660603,-2.63628874874,-0.067652453471,2.11189722081,-0.924678018853,-0.113838798465,0.0204359995785,0.0214952570432,0.0121022274156,0.00901808806459,0.00167944644973,-0.103994878046,0.573964588003,0.818844394137,0.00626552556964,0.0,0.818843930628,-0.573871553265,-0.0121162918116,0.0,-0.00632587252966,0.0120850426972,-0.999906963212,0.0,0.258032353838,-0.268953734452,0.30488039552,1.0,-0.01993,-0.0261937142857,3.191
-0.677750845861,-0.513451388888,-0.126187110351,-2.63604886431,-0.0674500795233,2.11194813058,-0.926321742357,-0.103489499904,0.015869519254,0.0111069609513,0.0157081018816,0.00776174527277,-0.000478659650659,-0.094919448416,0.57396273138,0.818845622576,0.00627505191829,0.0,0.818845274244,-0.573869636821,-0.0121162570571,0.0,-0.00632040397519,0.0120928094276,-0.999906903893,0.0,0.25769368562,-0.269394066282,0.304886350866,1.0,-0.01959,-0.0257468571429,3.208
-0.679171578851,-0.513185029606,-0.126003573539,-2.63583658522,-0.0673179032583,2.1120274883,-0.92766619076,-0.0904510573036,0.0170314280661,0.0130390490177,0.0123000458328,0.00611781090085,0.00470781618952,-0.0946665918192,0.57396212487,0.818845994059,0.00628204814814,0.0,0.818845977966,-0.573869461284,-0.0120769481106,0.0,-0.00628420598469,0.0120759731589,-0.99990733552,0.0,0.25741798978,-0.269770507242,0.304895475796,1.0,-0.01929,-0.0253525714286,3.223
-0.680697626173,-0.512858349567,-0.125856252429,-2.6355907471,-0.0672446669845,2.11210800545,-0.929193935169,-0.0900086374896,0.0231043614396,0.00834668478924,0.00806801199671,0.0042451188954,0.00206622782622,-0.0908591276151,0.573900050334,0.818889689928,0.00625738419137,0.0,0.81888942324,-0.573807645372,-0.0120683685624,0.0,-0.00629224884624,0.0120503750639,-0.999907593763,0.0,0.25710596375,-0.270195230122,0.304896709165,1.0,-0.01895,-0.0249057142857,3.24
-0.682162837613,-0.512544762808,-0.125754126365,-2.63536365011,-0.0671872475123,2.11215111403,-0.930589642366,-0.0835961323045,0.0144912155601,0.00795057609992,0.011333466189,0.00871071260833,0.00196030255516,-0.0830075898607,0.573920756552,0.81887525104,0.00624782631672,0.0,0.818874650398,-0.573827989458,-0.0121034025057,0.0,-0.00632612094889,0.0120628127603,-0.999907230068,0.0,0.256788392923,-0.270604997452,0.304889970337,1.0,-0.01861,-0.0244588571429,3.257
-0.683493357961,-0.512257210555,-0.125689800396,-2.63514819975,-0.0671338204967,2.11220116703,-0.93196801776,-0.0804537694175,0.0206534693604,0.00835575080665,0.0104929395171,0.000680579186782,0.00466946822107,-0.0934494982293,0.573869866049,0.818910880054,0.00625254116722,0.0,0.818910248654,-0.573776913032,-0.0121163369845,0.0,-0.00633475837719,0.0120737031805,-0.999907043943,0.0,0.256496781461,-0.270986681276,0.304887241377,1.0,-0.01829,-0.0240382857143,3.273
-0.684923992022,-0.511936571132,-0.125656131697,-2.63489288392,-0.0670907310286,2.11227606774,-0.933402697571,-0.0788145591615,0.0214360648406,0.0023313733857,0.0137207502441,0.00493926919442,0.00405959297124,-0.0838929260759,0.573874209464,0.818907811346,0.00625580763916,0.0,0.818907333393,-0.57378145237,-0.0120983937781,0.0,-0.00631812442014,0.0120661152273,-0.999907240781,0.0,0.256181400405,-0.271414835155,0.304891733211,1.0,-0.01793,-0.0235651428571,3.291
-0.686263922255,-0.511649594184,-0.12564671115,-2.63466490555,-0.0670534129273,2.11232312023,-0.93476184772,-0.0761377661483,0.0160805758041,-0.00124551930272,0.0183728213953,0.00537279717855,9.07619283593e-05,-0.0803347844242,0.573879521813,0.8189039666,0.00627174864475,0.0,0.81890366177,-0.573786625897,-0.0121015528997,0.0,-0.00631148569387,0.0120810239193,-0.99990710269,0.0,0.255874357572,-0.27181442697,0.304893291083,1.0,-0.01759,-0.0231182857143,3.308
-0.687513556962,-0.511384171107,-0.125642861316,-2.63446780456,-0.0670176662389,2.1123612157,-0.935994631994,-0.0787256144692,0.018596207606,0.00275302050654,0.0162347453229,0.00564398107583,0.00541013775751,-0.0702372879811,0.573916149436,0.818878134278,0.00629297374145,0.0,0.818877954146,-0.573822858529,-0.0121231243716,0.0,-0.0063164308969,0.0121110674969,-0.999906708021,0.0,0.255582167243,-0.27218281979,0.304887887518,1.0,-0.01727,-0.0226977142857,3.324
-0.688784213165,-0.51111160329,-0.125633911939,-2.63426145783,-0.0669797313204,2.11242188781,-0.937256756774,-0.0745286016188,0.0201321829896,0.00204978427422,0.0110123197242,0.0027300305039,0.00570130824644,-0.0763877322438,0.573943700297,0.818858698088,0.00630938637582,0.0,0.818858738841,-0.573850342036,-0.0121201348969,0.0,-0.00630415572704,0.0121230046468,-0.999906640831,0.0,0.255290425993,-0.272560616827,0.304886061655,1.0,-0.01693,-0.0222508571429,3.341
-0.69004161852,-0.510857957435,-0.125612293498,-2.63404780117,-0.0669503950974,2.112482873,-0.9385774932,-0.0761632321557,0.0100094382578,-0.0004473875724,0.00747578005807,0.00026117015195,0.00499981382491,-0.0785977469935,0.573899940742,0.818889361419,0.00631020381055,0.0,0.818889584168,-0.573806918238,-0.0120919983837,0.0,-0.00628129116707,0.0121071904312,-0.999906976334,0.0,0.255005925488,-0.272935216763,0.304894861152,1.0,-0.01659,-0.021804,3.358
-0.691200281874,-0.510617929466,-0.125580123493,-2.63384703954,-0.0669104747633,2.11252594294,-0.939747662244,-0.0761801245537,0.0140459895661,0.00349137570589,0.00952439691884,0.00101287399243,0.000422820966133,-0.0679961995307,0.573894979596,0.818892785963,0.0063169924957,0.0,0.818893161566,-0.573802051915,-0.0120806481802,0.0,-0.00626817307032,0.0121061983791,-0.999907070666,0.0,0.254746031804,-0.27327529441,0.304901557586,1.0,-0.01627,-0.0213834285714,3.374
-0.692406496351,-0.510355072018,-0.125541688102,-2.63365062829,-0.0668827433578,2.1125742113,-0.940968902599,-0.0709913566407,0.0154574699894,0.000529125834646,0.00504813508563,-0.000490155631597,-0.0022286872713,-0.0669087238856,0.573877357304,0.818905166755,0.00631296579724,0.0,0.818905416096,-0.573784309182,-0.0120926806981,0.0,-0.00628059890574,0.0121096706734,-0.999906950648,0.0,0.254472334034,-0.273626288327,0.30489838455,1.0,-0.01593,-0.0209365714286,3.391
-0.693639746157,-0.510080627767,-0.125508601594,-2.63343939276,-0.0668405631941,2.11262855656,-0.942268577645,-0.0648147993023,0.0104605423768,0.00205632128201,0.00877001087802,-0.000407291879338,0.00269121041032,-0.0725620208095,0.573828349596,0.8189394399,0.00632185717408,0.0,0.818939788343,-0.573735239769,-0.0120931641029,0.0,-0.00627661763985,0.0121168540616,-0.999906888624,0.0,0.254194800645,-0.273988257947,0.304898027486,1.0,-0.01557,-0.0204634285714,3.409
-0.694583607858,-0.509855956207,-0.125494432721,-2.63326682482,-0.0668210825553,2.11268459644,-0.943166208443,-0.0651197158198,0.0129200318079,0.000394987829719,0.00863027679229,0.00032259757429,-0.000492629458385,-0.0683448090843,0.573873356844,0.81890792338,0.00631903723123,0.0,0.818908293967,-0.57378036357,-0.0120850053348,0.0,-0.00627088787681,0.0121102077365,-0.999907005093,0.0,0.253982542599,-0.274273478463,0.304898227537,1.0,-0.01529,-0.0200954285714,3.423
-0.695862574185,-0.50955507749,-0.12547593697,-2.63303568788,-0.0667740166608,2.11274642087,-0.944468275669,-0.0638317701644,0.0145046272291,0.00101328511328,0.0116114432663,0.00196366788027,0.000231391432211,-0.0706782433765,0.573873330849,0.818907807529,0.00633638773438,0.0,0.818908396576,-0.573780244757,-0.012083693312,0.0,-0.00625985721348,0.0121236638676,-0.999906911148,0.0,0.253693562899,-0.274655120429,0.304897360557,1.0,-0.01491,-0.019596,3.442
-0.69706986645,-0.509268177787,-0.125452533356,-2.63283492539,-0.0667511587315,2.1127888751,-0.945670608385,-0.0658836870473,0.0155870273464,0.00061405241791,0.00823997633877,0.00170806611619,0.00343002730808,-0.0682773402535,0.573880988792,0.818902431418,0.00633761957875,0.0,0.81890279994,-0.573787437903,-0.0121213553978,0.0,-0.0062898820066,0.012146343694,-0.999906447484,0.0,0.253413350794,-0.275008877015,0.304886308912,1.0,-0.01455,-0.0191228571429,3.46
-0.698045667945,-0.509044620638,-0.125432305203,-2.63265012662,-0.0667274226719,2.11283682278,-0.946620125209,-0.0676251061889,0.0158515993015,0.00293240733404,0.0111077063338,7.35095771587e-05,0.000877887043507,-0.0593062087189,0.573907700652,0.818883732331,0.00633489995864,0.0,0.818884158052,-0.573814335271,-0.0121074865067,0.0,-0.0062796882344,0.0121363626233,-0.99990663275,0.0,0.253194465171,-0.275302016245,0.304891874169,1.0,-0.01425,-0.0187285714286,3.475
-0.699174830658,-0.508783136726,-0.125415673738,-2.63243954699,-0.0666903840176,2.11290498706,-0.947760364332,-0.060722608769,0.0116550983721,-0.00204308485877,0.00965537650451,-0.000647512298222,0.00566813962009,-0.0654412807368,0.573913403882,0.818879677283,0.00634238736396,0.0,0.818880347538,-0.573820287824,-0.0120830707624,0.0,-0.00625531097797,0.0121285261511,-0.999906880633,0.0,0.252941249805,-0.275642473798,0.304896705471,1.0,-0.01389,-0.0182554285714,3.493
-0.70021914398,-0.508541040855,-0.125359352901,-2.63224423193,-0.0666706562191,2.11295369944,-0.948813060187,-0.0612336465059,0.0132619645407,0.00202315184641,0.0139107204562,-0.00021683760346,8.45872589552e-05,-0.0547756130336,0.573884821721,0.818899885715,0.00631945207489,0.0,0.818900305925,-0.573791909497,-0.0120780981058,0.0,-0.00626482330271,0.0121066715065,-0.99990708593,0.0,0.252712761077,-0.275947964336,0.304901042187,1.0,-0.01355,-0.0178085714286,3.51
-0.701153868101,-0.508308645716,-0.125334379519,-2.63206868127,-0.066648229001,2.11298343686,-0.94972663447,-0.0573037952404,0.0135040075053,-0.00125048605574,0.00948491813485,-0.000386138668822,0.00237796637386,-0.0558496130257,0.573902999963,0.818887153808,0.00631845407897,0.0,0.818887422095,-0.573809820062,-0.0121007122402,0.0,-0.00628364778696,0.0121189709564,-0.999906818815,0.0,0.25250022111,-0.276223982271,0.304897635894,1.0,-0.01323,-0.017388,3.526
-0.702118369577,-0.50804250551,-0.12531405094,-2.63188257721,-0.0666249668942,2.11302924434,-0.95071894766,-0.0574332461875,0.014806392076,0.00122295149006,0.0109664544662,0.000400215871254,0.00451147846472,-0.0657115783497,0.573885373705,0.818899496719,0.00631973285048,0.0,0.818899594418,-0.573791831112,-0.0121299510553,0.0,-0.00630712116158,0.0121366618308,-0.999906456456,0.0,0.252282140687,-0.276512858807,0.304887739988,1.0,-0.01289,-0.0169411428572,3.543
-0.703078301039,-0.507807042257,-0.12529957028,-2.63169202993,-0.0665970420989,2.1130995172,-0.951713288702,-0.0547088663177,0.010076625997,-0.000963535831442,0.00680164753441,-0.000151897713435,0.00541294321706,-0.0584072530074,0.573868533712,0.818911295153,0.00632009390669,0.0,0.818911588496,-0.573775361057,-0.0120992633015,0.0,-0.00628203016592,0.0121192179629,-0.999906825986,0.0,0.25206938903,-0.276806586798,0.304893180637,1.0,-0.01255,-0.0164942857143,3.56
-0.703993184327,-0.507593455422,-0.125295538062,-2.63151727473,-0.0665772771422,2.11313788844,-0.952571038381,-0.0581915817336,0.00838546348382,4.18790930696e-05,0.011080911692,-0.000233978980195,0.000575572548273,-0.052477450268,0.57392982706,0.818868313509,0.00632342018366,0.0,0.818868679479,-0.573836682453,-0.0120952279705,0.0,-0.00627590930043,0.0121200961823,-0.999906853777,0.0,0.251857840422,-0.277083191079,0.304896589061,1.0,-0.01223,-0.0160737142857,3.576
-0.704930807983,-0.507369118224,-0.125294882838,-2.63133642232,-0.0665516192965,2.11315876951,-0.953480443918,-0.0487412597815,0.00924554462383,-0.000561616756035,0.00817528684842,-0.000217879599071,0.00426630678872,-0.0555066530484,0.573972715488,0.818838149917,0.00633664087115,0.0,0.818838576625,-0.573879285939,-0.0121118744136,0.0,-0.00628131883332,0.0121408051865,-0.999906568577,0.0,0.251637922377,-0.277364347533,0.304897191982,1.0,-0.01189,-0.0156268571429,3.593
