nelsonifechukwu/NELSON_IML_WORK/CNN-GradCAM/train2dof/data_sample_2022-02-22-15-17-44/robot_state.csv
position_joint1,position_joint2,position_joint3,position_joint4,position_joint5,position_joint6,position_joint7,velocity_joint1,velocity_joint2,velocity_joint3,velocity_joint4,velocity_joint5,velocity_joint6,velocity_joint7,ee_T_00,ee_T_10,ee_T_20,ee_T_30,ee_T_01,ee_T_11,ee_T_21,ee_T_31,ee_T_02,ee_T_12,ee_T_22,ee_T_32,ee_T_03,ee_T_13,ee_T_23,ee_T_33,v_x,v_y,time
0.465060548972,0.547780684934,-0.12397579256,-1.35585046196,0.0795940567062,1.89410313898,0.15916448434,0.000401292389778,-0.00162626149214,0.000737050366227,-0.000156383565806,0.000245099879478,8.87289455626e-05,2.77238528087e-05,0.573837845963,0.818954775206,0.00198736219053,0.0,0.81891117093,-0.573778189325,-0.0119929346709,0.0,-0.00868153318464,0.00850963673368,-0.999926105802,0.0,0.661668827422,0.260902501574,0.303206402494,1.0,0.0,0.0,0.0
0.465055285504,0.547783631855,-0.123981055967,-1.35585046491,0.0795934464087,1.89410339254,0.159162975201,-0.00177087590355,0.000584452531787,-0.00198568598962,-0.000970812616711,-0.000129760465566,-1.55234756726e-05,-0.000259450665606,0.573844443432,0.818950162073,0.00198335165322,0.0,0.818906538337,-0.573784835156,-0.0119913016647,0.0,-0.00868242850404,0.0085054852234,-0.99992613335,0.0,0.66167141528,0.26089585145,0.303204508564,1.0,-0.00018,-0.000236571428571,0.01
0.465057389339,0.54777923225,-0.123978169956,-1.35585367337,0.0795934464087,1.89410232954,0.159164618683,-0.00710148045631,0.000853815770595,-0.000698066132238,-0.00194394072767,-1.16057759652e-06,7.64041017178e-05,-0.000874343076133,0.573844945869,0.818949821972,0.00197840668977,0.0,0.818906115396,-0.573785340548,-0.0119960010436,0.0,-0.00868910945508,0.0085041376375,-0.999926086778,0.0,0.661669858378,0.260893975709,0.303201717349,1.0,-0.0005,-0.000657142857143,0.026
0.465056710055,0.547776728456,-0.123976382759,-1.35585828705,0.0795929914339,1.89410416777,0.159160976065,0.00091847971007,0.00077891751166,0.00181394946963,-0.00121131287788,-8.18891284897e-06,0.00127104039654,-0.00193971938902,0.573838674392,0.818954201564,0.00198454385399,0.0,0.818910566115,-0.573779035074,-0.0119937698586,0.0,-0.00868382575127,0.00850781672943,-0.999926101382,0.0,0.661668539801,0.260898639635,0.303205587908,1.0,-0.00076,-0.000998857142857,0.039
0.465059448575,0.547703512194,-0.123979050226,-1.35592885999,0.0795903355168,1.89411599973,0.159158964016,0.000609904527317,-0.00350148325768,-0.00166771195116,-0.00372943709171,-3.3362271933e-05,9.95507186376e-05,-0.00176658981475,0.573839749949,0.818953414306,0.00199836830796,0.0,0.818909941367,-0.573780034507,-0.011988612627,0.0,-0.00867165836331,0.00851619010908,-0.999926135696,0.0,0.661656706695,0.260891868934,0.303224976475,1.0,-0.00114,-0.00149828571429,0.058
0.465054116441,0.547605270985,-0.123976465687,-1.3560575907,0.0795915372633,1.89413659917,0.159162752837,-0.00232264624771,-0.0096455581438,0.00011142056145,-0.00989692226946,0.00031311482561,0.00305348006816,0.00431233026179,0.573852729769,0.818944323038,0.00199679771497,0.0,0.818900698741,-0.57379289088,-0.0120046190306,0.0,-0.00868553349542,0.00852422656236,-0.999925946793,0.0,0.661634627492,0.260877438308,0.303235005918,1.0,-0.0014,-0.00184,0.071
0.465043523954,0.547426729994,-0.123976543634,-1.356309171,0.079584948762,1.89420216805,0.159155604457,-0.00110737540523,-0.00422610024493,0.00133751911062,-0.01560031236,0.00058492805436,0.0105233318792,0.0010149326281,0.5738677339,0.818933810147,0.00199636880319,0.0,0.818890065222,-0.573807782087,-0.0120182027582,0.0,-0.00869674806006,0.00853182962601,-0.999925784474,0.0,0.661597887679,0.260846249867,0.303247422472,1.0,-0.00182,-0.002392,0.092
0.465025407897,0.547295010737,-0.123979333161,-1.35646621723,0.0795843570674,1.89431220091,0.159141260692,-0.00163828609478,-0.0101656767773,-0.0011264094565,-0.0145063915726,-3.82873294906e-05,0.0131019487761,-0.000359449449167,0.57388172414,0.818923820192,0.00207130898963,0.0,0.818881065259,-0.573821466509,-0.0119779979703,0.0,-0.00862067226876,0.00857027484321,-0.99992611447,0.0,0.661592710178,0.260823129743,0.303275624212,1.0,-0.00208,-0.00273371428571,0.105
0.465004839156,0.547038630804,-0.123974910009,-1.35676501877,0.0795842376904,1.89446253411,0.159136335856,-0.0022813428219,-0.0145085057891,0.000797465466396,-0.0150734791291,0.000230947487966,0.0110589172225,-0.00205391614074,0.573908305844,0.818904925976,0.00217384365461,0.0,0.818863392506,-0.573847506206,-0.0119386320637,0.0,-0.00852931406202,0.00863192728291,-0.999926367606,0.0,0.661565303045,0.260790187581,0.30332791044,1.0,-0.0025,-0.00328571428571,0.126
0.464990943663,0.546874417129,-0.123978833426,-1.35699554118,0.0795750308354,1.89455687912,0.15911931465,-0.000200077886353,-0.0153347928058,-0.000100650715697,-0.0206140179451,6.01298778135e-05,0.0116071936333,-0.000216634706491,0.573918989316,0.818897370988,0.0021991797671,0.0,0.818856160646,-0.573858078284,-0.0119264857248,0.0,-0.00850471447237,0.00864581499268,-0.999926457153,0.0,0.661540620146,0.260758434511,0.30334280214,1.0,-0.00274,-0.00360114285714,0.138
0.464947362834,0.546547983917,-0.123974287892,-1.35747510796,0.0795674650958,1.8947284499,0.159003810908,-0.00451759548615,-0.0180667904657,0.000786958287223,-0.0241127120105,-0.00289127944421,0.00733834842184,-0.00830593702741,0.573881686026,0.818923432878,0.00222899700135,0.0,0.818882384789,-0.573820428423,-0.011937449797,0.0,-0.00849697694644,0.00867613723904,-0.999926260294,0.0,0.66148416766,0.260690020581,0.30336046236,1.0,-0.00316,-0.00415314285714,0.159
0.464916501651,0.546317744783,-0.123979661946,-1.35783824376,0.0795576782895,1.89486030389,0.158953752563,-0.00498511805808,-0.0135058096142,-0.000940472277838,-0.0282033971016,-0.000737957718674,0.00578874881469,0.000762448390344,0.573887441763,0.818919387439,0.00223337532064,0.0,0.818878308593,-0.573826075991,-0.0119455903553,0.0,-0.00850107021187,0.00868445409705,-0.999926153304,0.0,0.661443026295,0.260633777954,0.303362275028,1.0,-0.00344,-0.00452114285714,0.173
0.464852213395,0.54593537922,-0.123977153301,-1.35846835648,0.0795417650408,1.89508459443,0.158906086927,-0.00589016154008,-0.0208988288437,8.06808950356e-06,-0.0319720846254,0.000291519764931,0.0163037730583,-0.00127628585039,0.573930315169,0.818889362711,0.00222527984168,0.0,0.818847950754,-0.573868744758,-0.0119768208039,0.0,-0.00853083685098,0.0086961938056,-0.999925797765,0.0,0.661370251429,0.260535575696,0.30335247388,1.0,-0.00386,-0.00507314285714,0.194
0.464811096672,0.545685679606,-0.123977156333,-1.3588789608,0.0795210198292,1.8952192173,0.158838065504,-0.000140673391433,-0.0224084613408,-0.000166031835225,-0.0328009549625,-0.00453262476101,0.011666765094,-0.00705801745085,0.573925647368,0.81889268783,0.00220545063416,0.0,0.818850948837,-0.573864089615,-0.0119948798013,0.0,-0.00855705519014,0.00869027181411,-0.999925625225,0.0,0.661321257782,0.260468693175,0.303345482138,1.0,-0.0041,-0.00538857142857,0.206
0.464726808739,0.545254449465,-0.123979741016,-1.35965937749,0.0794271073214,1.8954712251,0.158756034576,-0.00385673247281,-0.0181846623696,-0.000753834193601,-0.0418095801589,-0.0031287936128,0.0184296675552,0.000165101323966,0.573947831825,0.81887742877,0.00209520779356,0.0,0.818834615319,-0.573887097051,-0.0120091421516,0.0,-0.00863176891677,0.00860841550632,-0.999925691113,0.0,0.661231371353,0.260326364415,0.303301112144,1.0,-0.0045,-0.00591428571429,0.226
0.464670651173,0.544925360043,-0.123989931618,-1.36018767297,0.0794100625272,1.89565443788,0.158692444676,-0.00707623747606,-0.0233396351639,-0.0030251126385,-0.038932674929,-0.000703974417688,0.0184757804547,-0.00623645138525,0.573973782117,0.818859260102,0.00208722060561,0.0,0.818816237186,-0.573912972884,-0.0120256466534,0.0,-0.00864959566956,0.00861162181493,-0.999925509458,0.0,0.661173062095,0.260234615292,0.30329882389,1.0,-0.00476,-0.006256,0.239
0.464576116403,0.54438998913,-0.123983566915,-1.36109556232,0.0793795482137,1.89597636488,0.158557815059,-0.00380420645938,-0.0238883709319,9.17875716389e-05,-0.0430437568363,-9.49235163545e-05,0.0166255603754,-0.00856207236037,0.57397904108,0.818855647344,0.00205818258591,0.0,0.818811954097,-0.573918066066,-0.0120741116393,0.0,-0.00870589394862,0.00861571740494,-0.999924985598,0.0,0.661067424515,0.260091964677,0.303273308234,1.0,-0.00518,-0.006808,0.26
0.464542617173,0.544132596114,-0.123986045712,-1.36151711267,0.0793612314035,1.89612285856,0.158518931988,6.70458354848e-05,-0.0269692475991,-0.000166921927276,-0.0419473639595,0.000100338131776,0.014622668663,-0.00360015956637,0.573994961869,0.818844517599,0.00204613015385,0.0,0.818800595652,-0.57393396644,-0.012088574258,0.0,-0.00872448713514,0.00861431916138,-0.99992483559,0.0,0.661016738444,0.260028699559,0.303267585176,1.0,-0.00536,-0.00704457142857,0.269
0.464435566612,0.543401691151,-0.123994905589,-1.36270639995,0.0793046876694,1.89653748857,0.15837383132,-0.00703695643896,-0.0374421055709,-5.61998059489e-05,-0.0500146840051,-0.00580916108838,0.00956310097262,-0.00430849952231,0.574021110648,0.818826265137,0.00201468467383,0.0,0.818781784472,-0.573960103481,-0.0121217131988,0.0,-0.00876939735979,0.0086078721139,-0.999924498254,0.0,0.6608779273,0.25984021691,0.30325488367,1.0,-0.00584,-0.00767542857143,0.293
0.464372212361,0.542988731429,-0.123992439696,-1.36337087151,0.0792684763689,1.8967825272,0.158274491029,-0.00451137925178,-0.0354076595067,-0.000996619409222,-0.0467835699904,-0.000481097639577,0.0209252818026,-0.00595277218085,0.574017281829,0.818828957083,0.00201149329781,0.0,0.818784375872,-0.573956231453,-0.0121300084436,0.0,-0.00877806205536,0.00860997952856,-0.999924404082,0.0,0.660802533622,0.259737092451,0.303251892904,1.0,-0.0061,-0.00801714285714,0.306
0.464287399084,0.542253560959,-0.123998006256,-1.36451398128,0.0792011644975,1.89718711419,0.158116775523,-0.00383266901566,-0.0387207022039,-9.10870894846e-06,-0.0562613044338,-0.0117334618678,0.0237580248631,-0.00997612732453,0.57400698722,0.818836180538,0.00200872233687,0.0,0.818791537676,-0.573945925429,-0.0121342248954,0.0,-0.00878321347065,0.008610020495,-0.999924358493,0.0,0.660666172037,0.259568351969,0.303262993505,1.0,-0.00652,-0.00856914285714,0.327
0.464233023583,0.541821497795,-0.124000962737,-1.36517662952,0.0791679641374,1.8974398878,0.158042045366,-0.00271752939301,-0.0396291784498,-0.000104956304324,-0.0597640555593,-0.00285948190138,0.0278058784233,-0.0103430888683,0.57402040176,0.818826723887,0.0020301509818,0.0,0.818782323001,-0.573959206527,-0.0121278062859,0.0,-0.0087655168057,0.00862402601282,-0.999924393087,0.0,0.660591785166,0.259469510286,0.303275124376,1.0,-0.00676,-0.00888457142857,0.339
0.464131769315,0.54096527073,-0.123997314435,-1.36648492284,0.0790903745315,1.89792517177,0.157866514134,-0.00242152547557,-0.0407277739329,-0.000343903414516,-0.0607404076209,-0.00440049140828,0.0242183209453,-0.006993281309,0.574008907493,0.818834706671,0.00206013826893,0.0,0.818790660649,-0.573947545934,-0.0121167426185,0.0,-0.00873936634395,0.00864210655438,-0.999924465882,0.0,0.660438944377,0.259281062446,0.303299673405,1.0,-0.0072,-0.00946285714286,0.361
0.464069044177,0.540469898719,-0.123999260515,-1.36724241209,0.0790417305975,1.89819753189,0.157778767033,-0.00514328062626,-0.0388609800427,0.000237541698759,-0.0635817900082,-0.00834948421792,0.0315375317899,-0.000204879052397,0.574018709725,0.818827817884,0.00206698979049,0.0,0.818783882606,-0.573957338047,-0.0121109284232,0.0,-0.0087305692259,0.00864448386612,-0.999924522181,0.0,0.660350784641,0.259165708215,0.303312924985,1.0,-0.00744,-0.00977828571429,0.373
0.463948748829,0.539560549679,-0.12400165384,-1.36864929485,0.0789629974234,1.89872501255,0.157602022747,-0.00848742006957,-0.0429023569665,0.00109305731031,-0.0759260131618,-0.00923217718476,0.0269813353379,-0.0100723871732,0.574031070399,0.818819082197,0.00209469506047,0.0,0.818775465507,-0.573969533826,-0.0121019926036,0.0,-0.00870721897,0.00866217146506,-0.999924572717,0.0,0.660190870673,0.258952875873,0.303331690902,1.0,-0.00786,-0.0103302857143,0.394
0.463868269749,0.538976945776,-0.12400277604,-1.36953537856,0.0789067211308,1.89906219584,0.157490372517,-0.0079732886068,-0.0450604684144,0.00091960182439,-0.0717759398854,-0.00516658127237,0.0308999594913,-0.00729696889143,0.574040318918,0.818812527782,0.00212214660339,0.0,0.818769311804,-0.573978704876,-0.0120833480071,0.0,-0.00867609680856,0.00867404445985,-0.999924740316,0.0,0.660092759172,0.258815350144,0.303351501874,1.0,-0.00812,-0.010672,0.407
0.463751614799,0.538058730675,-0.124005639367,-1.37094802136,0.0788255832655,1.89961651731,0.157317810627,-0.00620154453024,-0.0465116631439,0.00236515883624,-0.0680823731732,-0.00684111230386,0.0317578965992,-0.0138732389577,0.574053061313,0.818803460564,0.00217316975008,0.0,0.818760927805,-0.573991245279,-0.0120557183223,0.0,-0.00862404951051,0.00870009599391,-0.999924964235,0.0,0.659935838017,0.258605537962,0.303375824478,1.0,-0.00852,-0.0111977142857,0.427
0.463662257577,0.537450973013,-0.124014122854,-1.37191985311,0.0787716839071,1.89997517446,0.157199323755,-0.00356422728557,-0.0425123893351,-0.00165724231487,-0.0751128218612,-0.00456921623349,0.0274073342319,-0.00277953666961,0.574073047761,0.818789445615,0.00217404796464,0.0,0.818746928559,-0.574011229726,-0.0120549585041,0.0,-0.0086227108587,0.00870058937595,-0.999924971486,0.0,0.65981835207,0.258438958809,0.30337900831,1.0,-0.0088,-0.0115657142857,0.441
0.463511076018,0.536409025613,-0.124012308058,-1.37353764051,0.0786815941204,1.90058004174,0.15700636383,-0.00930173976958,-0.0554996142286,0.000674971417246,-0.0830202131001,-0.000724866790019,0.020322866847,-0.0131868905597,0.574103892953,0.818767757504,0.0021968769972,0.0,0.818725440434,-0.574041875417,-0.0120550966195,0.0,-0.00860939079159,0.00871968486727,-0.999924919924,0.0,0.6596428215,0.258199286998,0.303391739424,1.0,-0.0092,-0.0120914285714,0.461
0.463421815679,0.535744248789,-0.124020393463,-1.37458040535,0.0786248539922,1.90095316377,0.156870139261,-0.00501240034873,-0.0544697562106,-0.00082089060865,-0.0798950657211,-0.00645008277368,0.0339311239469,-0.00326612773418,0.574113187546,0.818761246993,0.0021943585844,0.0,0.818718850012,-0.574051131834,-0.0120619060315,0.0,-0.00861631308517,0.00872162997477,-0.999924843335,0.0,0.65952074619,0.258036799525,0.30339720818,1.0,-0.00946,-0.0124331428571,0.474
0.463259189137,0.534649806677,-0.124021198959,-1.37634025081,0.0785329360321,1.90159634654,0.156661662575,-0.00694782428078,-0.0526974452972,0.000449773859495,-0.0810728924784,-0.00415833650982,0.0256170762324,-0.00794297473982,0.574148215928,0.818736717496,0.00218185034534,0.0,0.818693994181,-0.574086044084,-0.0120873810502,0.0,-0.00864397927401,0.00872638404907,-0.999924563077,0.0,0.659316195892,0.257763317304,0.303387595753,1.0,-0.00988,-0.0129851428571,0.495
0.463160594191,0.533949002768,-0.124025112668,-1.37747874566,0.0784640843725,1.90200781208,0.156513563094,-0.00616707335023,-0.0550396951871,0.00115484064421,-0.0866724487371,-0.00616401162149,0.0330725379434,-0.014293956128,0.574154346523,0.818732481948,0.00215783974968,0.0,0.818689428904,-0.57409226051,-0.0121013356563,0.0,-0.00866912438454,0.00871480284508,-0.999924446393,0.0,0.659182049221,0.257586880584,0.303375836433,1.0,-0.01014,-0.0133268571429,0.508
0.463005032136,0.532862939514,-0.124035663083,-1.37924133577,0.0783673556115,1.90268333192,0.156294105448,-0.00782304815212,-0.0511519106979,-0.000537570016445,-0.0953352944342,-0.00337710297718,0.0383341011103,-0.00836811112979,0.574180204506,0.818714349963,0.00215703947235,0.0,0.818671256482,-0.574118088465,-0.0121054205961,0.0,-0.00867265315121,0.00871676691339,-0.999924398673,0.0,0.658982870265,0.257313418545,0.303361697778,1.0,-0.01054,-0.0138525714286,0.528
0.462903406354,0.532136929058,-0.124031468671,-1.38042191595,0.0782995814777,1.90312105732,0.156142851528,-0.00940160847995,-0.0553303025866,0.000950313935123,-0.0888646180839,-1.46641216926e-05,0.0301994586868,-0.0170412708266,0.574182965475,0.818712446638,0.00214447648742,0.0,0.818669114692,-0.574120828691,-0.0121202976169,0.0,-0.00869201724612,0.00871505288733,-0.999924245475,0.0,0.658843105424,0.257137014649,0.303349420173,1.0,-0.0108,-0.0141942857143,0.541
0.462748252621,0.530875352306,-0.124036453749,-1.38242946908,0.0781852106164,1.90382530696,0.155890058446,-0.0032078308069,-0.0649016910411,-0.000968415918093,-0.104253572982,-0.00607057506385,0.0295869495352,-0.0107653274023,0.574185037038,0.818711078214,0.00211200205242,0.0,0.818667189848,-0.574122909546,-0.0121517036741,0.0,-0.00873635385571,0.00870652083689,-0.999923933415,0.0,0.658595765915,0.256839463326,0.30334420418,1.0,-0.01122,-0.0147462857143,0.562
0.462647306145,0.530079405182,-0.124034092429,-1.38368446604,0.078102707775,1.9042869373,0.155730311551,-0.0031739470593,-0.0643844351002,0.00015911898629,-0.0972575598248,-0.0067467733529,0.0354525993441,-0.00849687758824,0.574181290358,0.818713709267,0.00211067819183,0.0,0.818669829511,-0.574119194979,-0.0121493664592,0.0,-0.00873524019515,0.00870405504607,-0.999923964612,0.0,0.658445627347,0.256653819008,0.303347550436,1.0,-0.01148,-0.015088,0.575
0.46247835865,0.528787290233,-0.124037522459,-1.38573222318,0.0779760629647,1.90505340697,0.155452114385,-0.0058928989659,-0.0653525526051,-0.000442821340296,-0.10178755381,-0.00566780927094,0.0400140075986,-0.0137207801981,0.574171457026,0.818720591,0.00211629634198,0.0,0.818676807743,-0.574109361311,-0.0121438304943,0.0,-0.00872758657116,0.00870537118766,-0.999924019986,0.0,0.658204840419,0.256346003983,0.30334945136,1.0,-0.0119,-0.01564,0.596
0.462382463747,0.528004960811,-0.124035651458,-1.38694863001,0.0778961673487,1.90552314254,0.155277732537,-0.0101871814304,-0.0653877117516,0.00155884582626,-0.0960552968788,-0.0120119017656,0.0382413855682,-0.0119836423031,0.574150379404,0.818735303485,0.00214279232823,0.0,0.818691929214,-0.574088233753,-0.0121231929418,0.0,-0.00869570160862,0.00871499040282,-0.999924213986,0.0,0.658062963115,0.256168803785,0.30336192212,1.0,-0.01214,-0.0159554285714,0.608
0.462199214221,0.526507155345,-0.12404000198,-1.38923918069,0.0777578082103,1.9063883469,0.154961651721,-0.0120507003161,-0.0675428305707,0.000967220292311,-0.104119749821,-0.00646488333775,0.0345047568838,-0.0110385076629,0.574131334879,0.818748497537,0.00220340474632,0.0,0.818705939963,-0.574068956195,-0.0120898429936,0.0,-0.0086338007511,0.00874526662384,-0.999924486047,0.0,0.657793713754,0.255829792371,0.303400950364,1.0,-0.01258,-0.0165337142857,0.63
0.462084180218,0.525604712022,-0.124046043159,-1.3906452001,0.0776695299996,1.90689329496,0.154772304999,-0.00819238372998,-0.0667158249971,-0.000257795130157,-0.109063119489,-0.00742600392938,0.0322499078337,-0.0108594067264,0.574126688868,0.818751759491,0.00220189924988,0.0,0.818709196466,-0.574064331594,-0.0120889087816,0.0,-0.00863394974444,0.00874344867486,-0.999924500658,0.0,0.657623916575,0.25561556437,0.303410569552,1.0,-0.01284,-0.0168754285714,0.643
0.461895909506,0.524224435645,-0.124047105996,-1.39284185539,0.0775331489815,1.90768084115,0.154476375187,-0.00885607501314,-0.0720578178079,0.000421497317217,-0.108622595649,-0.00814432900764,0.0358144416774,-0.00940639224583,0.574120598999,0.818756100835,0.00217532802931,0.0,0.818713145478,-0.574058310536,-0.0121073707833,0.0,-0.00866438537678,0.00873222874218,-0.999924335441,0.0,0.657357088707,0.255279936539,0.303404037773,1.0,-0.01324,-0.0174011428571,0.663
0.461780383973,0.523307201732,-0.124049893521,-1.39430016947,0.0774433717716,1.90822681277,0.154274216747,-0.00783627500835,-0.0726749375842,-0.00261138732449,-0.110197159651,-0.0101226613477,0.0492876213735,-0.014763613119,0.574105795008,0.818766476417,0.00217718499633,0.0,0.818723554175,-0.574043509405,-0.0121052901851,0.0,-0.00866177364093,0.00873239800954,-0.99992435659,0.0,0.657182149368,0.255063845986,0.303402173818,1.0,-0.0135,-0.0177428571429,0.676
0.461582555186,0.521779747224,-0.124053081881,-1.39672845718,0.0772982053576,1.90918569291,0.153945173561,-0.00500203412094,-0.0732423680687,-0.000332659471504,-0.118506094538,-0.0102870665589,0.0481270435629,-0.0142416977793,0.574091993436,0.818776029859,0.00222326395267,0.0,0.818733758321,-0.574029562514,-0.0120764749147,0.0,-0.00861187475651,0.00875343733997,-0.999924603632,0.0,0.656900817813,0.254705360688,0.303403032254,1.0,-0.01392,-0.0182948571429,0.697
0.461452338533,0.520834703553,-0.124053083119,-1.39826748144,0.0772019135913,1.90975893479,0.153735907918,-0.00672408044801,-0.074417481302,-0.00100266044429,-0.116495067417,-0.00585694897258,0.0441392614014,-0.0176008537199,0.574083580703,0.81878198447,0.00220253872268,0.0,0.818739437934,-0.57402123451,-0.0120872662335,0.0,-0.00863269804302,0.00874257471772,-0.999924519107,0.0,0.656715484125,0.254472889001,0.303384077004,1.0,-0.01418,-0.0186365714286,0.71
0.461250123889,0.519287463009,-0.124061954537,-1.40068386551,0.0770495475635,1.91062131621,0.153412332173,-0.009836321993,-0.0785032791469,-0.000349415653874,-0.119425942304,-0.00747493948433,0.0503025119102,-0.0192774011342,0.574077858031,0.818786023507,0.00219260800579,0.0,0.818743352891,-0.574015560623,-0.0120915325859,0.0,-0.00864195315478,0.00873683256854,-0.99992448935,0.0,0.656419329518,0.254102375153,0.303395401503,1.0,-0.01458,-0.0191622857143,0.73
0.461110265903,0.518256666267,-0.124059977753,-1.40228930989,0.0769506099965,1.91119992933,0.153197008675,-0.0141052362421,-0.0776134388778,0.00101241197585,-0.124863228959,-0.00157264531856,0.0434112105284,-0.0243312208019,0.57407313154,0.818789327711,0.00219621765518,0.0,0.818746658593,-0.574010773162,-0.0120949674782,0.0,-0.00864274409549,0.00874171002782,-0.999924439885,0.0,0.656222692829,0.253858004233,0.303404838043,1.0,-0.01484,-0.019504,0.743
0.460886898792,0.516595343028,-0.124071631775,-1.40491814114,0.0767819852327,1.91216051533,0.152830349535,-0.00848033515873,-0.0746091280972,-0.000222905476059,-0.125911568274,-0.00120866807974,0.0486095122883,-0.0192546316589,0.574057726545,0.818800165096,0.00218246039439,0.0,0.818757381722,-0.573995495093,-0.0120941469464,0.0,-0.00865013362369,0.00872981213471,-0.999924479933,0.0,0.65590397173,0.253452421002,0.303402783632,1.0,-0.01526,-0.020056,0.764
0.460741118066,0.515538402725,-0.124083320875,-1.40659380952,0.0766780364683,1.91279596426,0.152601846156,-0.0104991119397,-0.082814680054,-0.00321534031747,-0.131111324362,-0.00708696758413,0.0453886250641,-0.0128066803639,0.574058886102,0.818799327921,0.00219152543823,0.0,0.818756729809,-0.573996683353,-0.0120818786886,0.0,-0.00863487206531,0.00873020410661,-0.999924608418,0.0,0.655706398342,0.253191306511,0.303401889104,1.0,-0.01552,-0.0203977142857,0.777
0.460513123261,0.513819133992,-0.124087587136,-1.40936844578,0.0765075030155,1.91377449912,0.152234294773,-0.00917883281239,-0.0832576393169,-0.000696242893087,-0.133288383744,-0.0120602655345,0.0462797601774,-0.017491952945,0.574047498904,0.818807488154,0.00212444001114,0.0,0.818763905652,-0.573985477811,-0.012127859046,0.0,-0.00871115180397,0.00870154948508,-0.999924196562,0.0,0.655355723279,0.252771542025,0.303371396825,1.0,-0.01594,-0.0209497142857,0.798
0.460370321482,0.51282383717,-0.12408983327,-1.41097712174,0.0764085868676,1.91433641372,0.151993273421,-0.0130794341219,-0.084000767065,-0.000826884049046,-0.136174997381,-0.00892490495624,0.0480255041617,-0.0291189466366,0.57402625922,0.818822491774,0.00208028663368,0.0,0.818778255523,-0.57396435803,-0.012158572863,0.0,-0.00876187123906,0.00868280072973,-0.999923916398,0.0,0.65515330655,0.252521008606,0.303351889615,1.0,-0.01618,-0.0212651428571,0.81
0.46013027294,0.511055961024,-0.124088314124,-1.41381197446,0.0762385894876,1.91540271434,0.151604085204,-0.0108020617374,-0.0811183810189,-0.000352811806393,-0.140268272245,-0.0127749373449,0.0507272843818,-0.0199447790162,0.574005793917,0.818836840719,0.00207935844804,0.0,0.81879252181,-0.573943829596,-0.0121669058443,0.0,-0.00876944463107,0.00868660484014,-0.999923816967,0.0,0.654806698893,0.252096338833,0.303333151511,1.0,-0.0166,-0.0218171428571,0.831
0.459974118796,0.509940224057,-0.124096796731,-1.41560116646,0.076128277387,1.9160814721,0.151342470947,-0.0145385953403,-0.0851289865954,-0.00147229857254,-0.135963796756,-0.0109397704073,0.0520819529436,-0.0221996054368,0.573989231353,0.818848449859,0.00207974891712,0.0,0.818804171642,-0.573927302696,-0.0121625088908,0.0,-0.00876579563405,0.00868422341705,-0.999923869647,0.0,0.654591849425,0.251819709434,0.303321729075,1.0,-0.01686,-0.0221588571429,0.844
0.459733860211,0.508155624998,-0.12409217428,-1.41840458909,0.0759500609355,1.91707620798,0.150969158798,-0.0120411457818,-0.0901965499641,0.00187453116768,-0.142094997262,-0.0125874562582,0.04440928673,-0.0180322227902,0.573974299129,0.818858972298,0.00205774830256,0.0,0.818814323689,-0.573912388208,-0.0121828110242,0.0,-0.00879520620726,0.00867770127634,-0.999923668011,0.0,0.654236418972,0.25139476761,0.303322113157,1.0,-0.01726,-0.0226845714286,0.864
0.459558023201,0.506887050737,-0.124097810662,-1.42038199876,0.0758224858975,1.91779273787,0.150682966048,-0.0118885367616,-0.0897190396846,0.000765972748485,-0.138372692771,-0.0121506411336,0.0504690194533,-0.0181900770705,0.573955819008,0.818871919725,0.00206005170957,0.0,0.818827327658,-0.573893926293,-0.0121784952107,0.0,-0.00879054583385,0.00867691188659,-0.999923715842,0.0,0.65399184581,0.251086558822,0.303330353666,1.0,-0.01754,-0.0230525714286,0.878
0.459295177402,0.505010695452,-0.124104017349,-1.4232760511,0.0756385857155,1.91890501183,0.150292287231,-0.0110099247424,-0.0962943835327,0.000818186531921,-0.145700033654,-0.0131179351555,0.0536221401948,-0.0282991356032,0.573955579008,0.81887189935,0.00213370119983,0.0,0.81882838684,-0.573893478486,-0.0121282792494,0.0,-0.00870715750097,0.00870839631404,-0.999924171746,0.0,0.653646690535,0.250638110836,0.303360962609,1.0,-0.01794,-0.0235782857143,0.898
0.459120989476,0.503714951002,-0.124107403457,-1.425179573,0.0755136963266,1.91961655335,0.150028071142,-0.0148330647189,-0.0977517834306,0.00136590742802,-0.145514736121,-0.0137358695169,0.0561254642605,-0.0288917039426,0.573948333858,0.818876753034,0.00221817586638,0.0,0.818834438635,-0.573885966991,-0.0120750112378,0.0,-0.00861513186118,0.00874691977689,-0.999924632609,0.0,0.653416874528,0.250341629573,0.303421801287,1.0,-0.0182,-0.02392,0.911
0.458848644409,0.501761195388,-0.124115324411,-1.42812216213,0.0753331176184,1.92070316514,0.149613723293,-0.0190053246952,-0.0942755658637,0.000768964254572,-0.14742004113,-0.00960436182987,0.046600789782,-0.0261845421501,0.573939770792,0.81888252567,0.00230120780289,0.0,0.818841301524,-0.573877063488,-0.0120326980593,0.0,-0.00853292008621,0.00879053720366,-0.999924955049,0.0,0.653057090385,0.249880296069,0.303479715963,1.0,-0.0186,-0.0244457142857,0.931
0.458658608756,0.500315826486,-0.124118869543,-1.43026671014,0.0751922808027,1.92145771103,0.14931488154,-0.013307336823,-0.0994796273975,3.78278729838e-05,-0.151559031938,-0.00725743792585,0.051328402918,-0.0280836540189,0.573924240776,0.81889328328,0.00234592195124,0.0,0.818852662984,-0.573861372451,-0.0120078488109,0.0,-0.00848707614978,0.00881272962141,-0.999925149866,0.0,0.652784890744,0.249547330719,0.30353297878,1.0,-0.01888,-0.0248137142857,0.945
0.458365328948,0.498372574383,-0.124120403309,-1.43334056294,0.0750013858311,1.92260341457,0.148868956773,-0.0146528703149,-0.0866693816696,-0.00213267964474,-0.155896410925,-0.00731389792069,0.0544663434167,-0.0213801784556,0.57390539693,0.8189064603,0.0023561737248,0.0,0.818865946758,-0.573842461085,-0.0120057485004,0.0,-0.00847967573873,0.00881972409345,-0.999925150982,0.0,0.65240662531,0.2490629642,0.303524658873,1.0,-0.01928,-0.0253394285714,0.965
0.458156567387,0.496973181261,-0.124121736304,-1.43554685338,0.0748691581712,1.92339307803,0.148547838823,-0.0197538464917,-0.0976378635726,-0.0024189530508,-0.153241177573,-0.0129630315937,0.0612289898579,-0.0271018196711,0.573890467178,0.818916958145,0.00234398092582,0.0,0.818876171248,-0.573827464564,-0.0120251393128,0.0,-0.00850271357927,0.00882071277018,-0.999924946628,0.0,0.652127043529,0.248715074309,0.303518532603,1.0,-0.01956,-0.0257074285714,0.979
0.457842063395,0.495006741098,-0.124117760762,-1.43873793721,0.0746706204515,1.92449991661,0.148089350817,-0.01352904577,-0.0998247713157,0.000167249995604,-0.165491623818,-0.0128806531548,0.0546364323665,-0.0199936863655,0.57387694086,0.818926714828,0.00224485901494,0.0,0.818884421139,-0.573814136499,-0.0120991103136,0.0,-0.0086203187921,0.00878184956671,-0.999924281744,0.0,0.651714745216,0.248203106367,0.303465638449,1.0,-0.01996,-0.0262331428571,0.999
0.457600011295,0.493564209869,-0.124155903395,-1.4410100657,0.0745309231065,1.92531431962,0.147767761251,-0.0224351174292,-0.132692243912,-0.00796351034911,-0.198128871734,-0.0137714209516,0.0735897283715,-0.0285311701672,0.573915773209,0.81889955739,0.00222420086876,0.0,0.818857076021,-0.573853135487,-0.0121002001072,0.0,-0.00863265007492,0.00876596709244,-0.999924314723,0.0,0.651440076088,0.247805428213,0.303460412837,1.0,-0.0300371428571,-0.0394773877551,1.012
0.457174546564,0.489846899798,-0.12425294173,-1.44665536157,0.074244341853,1.92749995354,0.146914495048,-0.0269421563721,-0.215123685836,-0.00448385442196,-0.344052120289,-0.0106231177148,0.136389434716,-0.0486715658168,0.573842361251,0.818950345965,0.0024540129814,0.0,0.818910846414,-0.573778762223,-0.0119876832036,0.0,-0.00840941868331,0.00888882942068,-0.999925132392,0.0,0.650743513092,0.246952901073,0.303551928551,1.0,-0.0483228571429,-0.0635100408163,1.032
0.456668617759,0.486230090684,-0.124284874251,-1.45236503967,0.0739366250409,1.92968642386,0.146060284182,-0.039976007366,-0.280001160049,-0.00195063389097,-0.439362208247,-0.0238425463609,0.174064296257,-0.0679554175773,0.573782309017,0.818992136646,0.0025473264618,0.0,0.818953597317,-0.573718072156,-0.0119718847449,0.0,-0.00834359288009,0.00895557026411,-0.999925088304,0.0,0.650029643458,0.246074441702,0.303538165214,1.0,-0.0611228571429,-0.0803328979592,1.046
0.455655855122,0.47952305116,-0.124479391653,-1.46308516005,0.0732992367875,1.93345824508,0.144415504928,-0.0549384399711,-0.368216769803,-0.0150028063772,-0.60111960878,-0.0387908830043,0.197782827392,-0.0896476842295,0.573759661131,0.819008676687,0.00232070520099,0.0,0.818967162132,-0.573696334065,-0.0120851367865,0.0,-0.00856661675477,0.0088347154356,-0.999924277573,0.0,0.648653580133,0.24427448617,0.303421490339,1.0,-0.0794085714286,-0.10436555102,1.066
0.454806327091,0.474130374121,-0.124612869091,-1.47157379243,0.0727798700959,1.93641917589,0.143187970355,-0.0731356085412,-0.435893919187,-0.0109962575495,-0.678905261546,-0.0405496619571,0.242750616685,-0.101865997376,0.573817111892,0.818968786944,0.00218975180442,0.0,0.818925545043,-0.573754321529,-0.0121522468276,0.0,-0.00869609870904,0.00876657965139,-0.999923759568,0.0,0.647554348337,0.242829153343,0.303375135264,1.0,-0.0912942857143,-0.11998677551,1.079
0.453262077455,0.464391314169,-0.124776588456,-1.48645388538,0.0719128197701,1.94187495703,0.140844732741,-0.0860518253625,-0.515641881759,-0.00116378140567,-0.785034852524,-0.0473301257135,0.2893998585,-0.13227858231,0.573750881754,0.819014414906,0.00246186180764,0.0,0.818974508947,-0.573686725251,-0.0120433328942,0.0,-0.0084514885228,0.00892624679024,-0.999924444376,0.0,0.64554524731,0.240193465002,0.303486669541,1.0,-0.110494285714,-0.145221061224,1.1
0.451951209699,0.456652695212,-0.124887150054,-1.49857315037,0.0711398060207,1.94611619294,0.138981052972,-0.0977280886197,-0.569982858751,-0.00934296748894,-0.909768308136,-0.0535322516496,0.303177346822,-0.142962419435,0.573736770496,0.819024586893,0.00236456050235,0.0,0.818983340132,-0.573672946228,-0.0120990186843,0.0,-0.008553074063,0.00887835850019,-0.99992400695,0.0,0.644169981193,0.238420688101,0.303435631369,1.0,-0.121465714286,-0.159640653061,1.112
0.449741327544,0.444042875272,-0.125102870157,-1.51774704091,0.0698396554182,1.95291591536,0.135995283036,-0.114845686266,-0.648154519209,-0.0132367115862,-0.991830229793,-0.0695549401486,0.352715246504,-0.154503194404,0.573768162793,0.819002249403,0.00248147920211,0.0,0.818963246442,-0.573704610474,-0.0119569142706,0.0,-0.00836926475877,0.00889290821308,-0.999925433015,0.0,0.641786229624,0.235223163402,0.303552982674,1.0,-0.138837142857,-0.182471673469,1.131
0.448109475787,0.435035455788,-0.125200945912,-1.53156720727,0.0689461766195,1.95762188548,0.13377938345,-0.131677990033,-0.715316520525,-0.00998288425032,-1.08731770075,-0.0733656622208,0.377134413047,-0.181483722644,0.573724774584,0.81903287569,0.00240384460393,0.0,0.818992222388,-0.573660871359,-0.0120702626217,0.0,-0.00850711410356,0.00889390997156,-0.999924260819,0.0,0.639451536595,0.232241736189,0.303542736916,1.0,-0.153465714286,-0.201697795918,1.147
0.445073278997,0.419008158345,-0.125409068456,-1.55571173829,0.067285230489,1.96596227822,0.129755585686,-0.150944356607,-0.777583252312,-0.0125994679957,-1.17318970131,-0.0779221003138,0.407078839214,-0.198922905524,0.573658791935,0.819078729023,0.00252448012794,0.0,0.819039792543,-0.573594556009,-0.0119937670903,0.0,-0.00837597270978,0.00894815189966,-0.999924884008,0.0,0.636262151469,0.228059214044,0.303670808437,1.0,-0.171751428571,-0.22573044898,1.167
0.442959825229,0.408247610857,-0.125535728579,-1.57166455779,0.0661304149497,1.97169176372,0.127101197912,-0.161760623987,-0.830510308572,-0.00860701370991,-1.26318447472,-0.0954742962584,0.435653894411,-0.213583690208,0.573647595355,0.819085268323,0.00291658378923,0.0,0.819052352843,-0.573582922771,-0.0116884947012,0.0,-0.00790112328542,0.00909408678285,-0.999927432285,0.0,0.634073926686,0.225125252664,0.303861460515,1.0,-0.183637142857,-0.241351673469,1.18
0.439264082962,0.390635615065,-0.125756454996,-1.59790134868,0.064371414501,1.98066383848,0.122610138219,-0.195683029202,-0.892297435935,-0.0122585974295,-1.34729689311,-0.100394528111,0.454030584986,-0.234416682953,0.573716642035,0.819035778504,0.00321793159128,0.0,0.819006167994,-0.573650243433,-0.0116207529356,0.0,-0.00767199289639,0.00930270427947,-0.999927297466,0.0,0.630326403225,0.220171011562,0.30401735481,1.0,-0.201922857143,-0.265384326531,1.2
0.436598162827,0.378455438371,-0.125904297979,-1.61603432314,0.0629440420016,1.98671351268,0.119353591832,-0.207535015587,-0.964492876974,-0.0109119816797,-1.41270746055,-0.119542141091,0.48856577611,-0.25247167831,0.5736252511,0.819099833503,0.00320639321302,0.0,0.819070834551,-0.573559825018,-0.011525711064,0.0,-0.00760179604147,0.0092378799259,-0.999928434575,0.0,0.627665723809,0.216658830178,0.304071598478,1.0,-0.213808571429,-0.28100555102,1.213
0.431804518659,0.357681524608,-0.126140308938,-1.64680918769,0.060618260814,1.99688528945,0.113822815773,-0.23609564072,-1.02171829294,-0.0122604401537,-1.51580019824,-0.11658575462,0.482306008551,-0.274754559901,0.573647301641,0.819084126711,0.00327316227327,0.0,0.819056118964,-0.573581824601,-0.0114765576848,0.0,-0.00752298468073,0.00926457830813,-0.999928783609,0.0,0.623045015193,0.210591404082,0.304136507674,1.0,-0.233008571429,-0.306239836735,1.234
0.42843504847,0.344198857311,-0.126342197015,-1.66669296534,0.0591276645529,2.00331732014,0.11003901507,-0.266741260171,-1.07291253019,-0.017394268845,-1.53511125193,-0.112716076847,0.524438601475,-0.294952896071,0.573713280478,0.819037922332,0.00327115984154,0.0,0.819009616542,-0.573647465923,-0.0115143281577,0.0,-0.00755432430178,0.00928521311646,-0.999928355934,0.0,0.620005629888,0.206498489677,0.304148550165,1.0,-0.244894285714,-0.321861061224,1.247
0.422618905075,0.321258398976,-0.126576372743,-1.70024781541,0.0564416049111,2.01409600573,0.103525556228,-0.285878121405,-1.11653863827,-0.0113612880693,-1.61635930291,-0.140394217944,0.510801861403,-0.323904937004,0.573610829865,0.819109497893,0.0033156032584,0.0,0.819081892444,-0.573545049277,-0.0114750521279,0.0,-0.00749782070882,0.00929814378338,-0.999928661059,0.0,0.614710442474,0.19961029295,0.304174339295,1.0,-0.264094285714,-0.347095346939,1.268
0.418691685307,0.306495704636,-0.126722814552,-1.72166358714,0.054730359904,2.0208675874,0.0992068298243,-0.299322993257,-1.16595375477,-0.0121295943717,-1.63119866307,-0.127932363241,0.549087063808,-0.346105351965,0.573538190425,0.8191600879,0.00338251624017,0.0,0.81913306137,-0.573471862646,-0.0114803059921,0.0,-0.00746457429313,0.0093553049258,-0.999928376635,0.0,0.611244039411,0.195124238986,0.304187383259,1.0,-0.27598,-0.362716571429,1.281
0.411688145015,0.281517320839,-0.126986715831,-1.75753142381,0.0516922172617,2.03177064643,0.0917436234356,-0.340900200459,-1.21050722722,-0.0149882858323,-1.72568505409,-0.141519594495,0.503710949918,-0.374130428399,0.573466999814,0.81921023443,0.00330739039597,0.0,0.819182122363,-0.573400767969,-0.0115306806017,0.0,-0.00754973672162,0.00932199937187,-0.999928048313,0.0,0.605553218085,0.187749027963,0.304204301236,1.0,-0.294265714286,-0.38674922449,1.301
0.407289142571,0.266665671282,-0.127189457691,-1.77854900936,0.0498999243837,2.03813781431,0.0871476069616,-0.369139745629,-1.2673728272,-0.0205842487359,-1.78129775188,-0.149583888117,0.544947569695,-0.381899447017,0.573422219724,0.819241096952,0.00342489309087,0.0,0.819214338259,-0.573355428657,-0.0114964046992,0.0,-0.00745478967837,0.00939819637292,-0.999928047419,0.0,0.601695393022,0.182692244822,0.304267358498,1.0,-0.306151428571,-0.40237044898,1.314
0.397570540055,0.236077856583,-0.127684557935,-1.82146075198,0.0460195068183,2.05068535794,0.0774066231206,-0.416202742585,-1.30607818757,-0.0181598858608,-1.76935892673,-0.154577605926,0.514781597017,-0.427305210859,0.573557546551,0.8191461998,0.00346280944669,0.0,0.819120344104,-0.573491148969,-0.0114241336829,0.0,-0.00737228706352,0.00938903652025,-0.99992874515,0.0,0.594230197956,0.172721347253,0.304339021069,1.0,-0.328094285714,-0.431209632653,1.338
0.391887611063,0.21889427373,-0.127860781966,-1.84535087598,0.0438561059766,2.05753049893,0.0716658461862,-0.454463308487,-1.30608317461,-0.0151323615802,-1.8339981798,-0.163861875943,0.503455025578,-0.447066254099,0.573443757454,0.819225508181,0.00354551595959,0.0,0.819200294779,-0.573376590756,-0.0114415518329,0.0,-0.00734043658743,0.00946575643854,-0.999928256149,0.0,0.589921623828,0.167152421995,0.304347962938,1.0,-0.33998,-0.446830857143,1.351
0.381887184836,0.190153480428,-0.128298117743,-1.88471036268,0.0400268737878,2.06838554005,0.0618034738302,-0.495341893436,-1.40509557379,-0.0252780178602,-1.91040671616,-0.185410847811,0.524933585099,-0.483201772539,0.573345914104,0.819293759833,0.00359788550165,0.0,0.819269639362,-0.573279154039,-0.0113585415104,0.0,-0.00724352888392,0.00946019386061,-0.999929015491,0.0,0.582638002199,0.157621667991,0.304406899998,1.0,-0.35918,-0.472065142857,1.372
0.375553142692,0.173304597249,-0.128672306731,-1.90748771579,0.0378327657527,2.07441902268,0.0557849991513,-0.540923400678,-1.42715827503,-0.0312781773892,-1.9229266487,-0.178767497723,0.524926616485,-0.507248229052,0.573521943489,0.819170312311,0.00365057067376,0.0,0.819146543242,-0.573454583342,-0.0113810561488,0.0,-0.00722972602976,0.00951782103721,-0.999928568521,0.0,0.578336958988,0.151810326974,0.304443134615,1.0,-0.370151428571,-0.486484734694,1.384
0.365564059932,0.147427158192,-0.129114529823,-1.94218891279,0.0342362727287,2.08328373116,0.0462662405679,-0.56399665511,-1.45482277017,-0.0225852761376,-1.95785446867,-0.21202726106,0.483933211893,-0.537778785023,0.573482099624,0.819198580056,0.00356577429334,0.0,0.819173761134,-0.573415041359,-0.0114143031034,0.0,-0.0073060529449,0.00946706951915,-0.999928495536,0.0,0.571552851433,0.142941122408,0.304433562736,1.0,-0.386608571429,-0.508114122449,1.402
0.357779784648,0.128295883295,-0.12946713085,-1.96739056452,0.0315959578188,2.08946818364,0.0389359185351,-0.607759990308,-1.47557138909,-0.0213112645569,-1.94821306297,-0.206952453049,0.4676017087,-0.567926939008,0.573485246783,0.819196185289,0.00360951954822,0.0,0.819171676517,-0.573417732316,-0.011428716382,0.0,-0.00729273875658,0.00951119953453,-0.999928173943,0.0,0.566504132507,0.136293111133,0.304479081006,1.0,-0.398494285714,-0.523735346939,1.415
0.34406980672,0.0965444799162,-0.130200805371,-2.00851865092,0.0269661420434,2.09918749161,0.0262798843883,-0.673459231826,-1.54128649689,-0.0300442811699,-1.95637852932,-0.23051678977,0.465008166775,-0.62770501235,0.573608091041,0.819109754612,0.00370333547543,0.0,0.819087493383,-0.573541677584,-0.0112414037477,0.0,-0.00708406261416,0.00948169846812,-0.999929954272,0.0,0.558069273027,0.124984127199,0.304592064121,1.0,-0.417694285714,-0.548969632653,1.436
0.335795825297,0.0780259974624,-0.130504081159,-2.03215534893,0.0244024891455,2.10436845527,0.0185536648263,-0.704974973414,-1.54344704472,-0.0293332313175,-1.93206063465,-0.205168520912,0.423174557279,-0.652855897609,0.573497338701,0.81918693853,0.0037827431345,0.0,0.819164609327,-0.573429266611,-0.011356316371,0.0,-0.00713394777018,0.00961169157303,-0.999928358521,0.0,0.553007616602,0.118482645319,0.30463766452,1.0,-0.41998,-0.551973714286,1.448
0.320283144268,0.0461633809004,-0.131169042683,-2.0726556798,0.0195405331218,2.11277341983,0.00467638022179,-0.761244362857,-1.50450630414,-0.0242804802162,-1.90562548454,-0.231401717365,0.363695596991,-0.660494775615,0.573666584025,0.819069839902,0.00346332746073,0.0,0.819043018398,-0.573598935357,-0.0115560491891,0.0,-0.00747879440493,0.00946611569233,-0.999927227496,0.0,0.544130122661,0.106732970127,0.304508418386,1.0,-0.41998,-0.551973714286,1.469
0.310293625949,0.0264321147,-0.131490132625,-2.09691867389,0.0166389373661,2.11753394727,-0.0041808868772,-0.768290807857,-1.51110483839,-0.0235618959952,-1.86854743252,-0.233352897505,0.344779253841,-0.696761990443,0.573750745793,0.819010122009,0.00363986948587,0.0,0.818985224998,-0.573682087552,-0.0115243463323,0.0,-0.00735056989187,0.00959328633328,-0.999926966323,0.0,0.538654012668,0.0995434870924,0.30460946185,1.0,-0.41998,-0.551973714286,1.482
0.293363036944,-0.0046922203537,-0.132121163221,-2.13457973189,0.0118432764048,2.12441542513,-0.0190894177774,-0.818651924408,-1.45550966204,-0.0246983511303,-1.73999019502,-0.221944570954,0.301388923216,-0.731694804889,0.573955706069,0.818865628551,0.00383102475237,0.0,0.818843577542,-0.573886972131,-0.0113879602115,0.0,-0.00712677121362,0.00967338100031,-0.999927814811,0.0,0.529935123164,0.0878067768744,0.304750745904,1.0,-0.41998,-0.551973714286,1.503
0.282632646348,-0.0238273986858,-0.132382930983,-2.15741443119,0.00884650471777,2.1283242308,-0.0286287321176,-0.844766135637,-1.46157158755,-0.0225083310264,-1.74714829285,-0.238255181257,0.276442631816,-0.746843674378,0.573838542842,0.818947186996,0.00394696857781,0.0,0.818926895451,-0.57376988019,-0.0112965213845,0.0,-0.00698673723904,0.00971484513522,-0.99992840108,0.0,0.524460191587,0.0806888155164,0.304806584373,1.0,-0.41998,-0.551973714286,1.516
0.265296709847,-0.05275043518,-0.132989510058,-2.1912481095,0.00434204867453,2.13352867295,-0.0437644841703,-0.875236786806,-1.45083595515,-0.0185583060852,-1.63155570474,-0.224285867184,0.26145888596,-0.761268991428,0.574064913027,0.818787419709,0.00416939545775,0.0,0.818769875738,-0.573995497195,-0.0112163579389,0.0,-0.00679072929917,0.00985288264406,-0.999928400786,0.0,0.516124983335,0.069556272737,0.304923190059,1.0,-0.41998,-0.551973714286,1.536
0.252831169612,-0.072628562866,-0.133320025271,-2.2143686434,0.00111603153047,2.13664870172,-0.0547773143678,-0.897595195779,-1.42272340198,-0.0242415996419,-1.60844444602,-0.218969016305,0.215129792292,-0.787271404126,0.5739703769,0.818854278598,0.00405262438332,0.0,0.818834744083,-0.573900572949,-0.0113375990657,0.0,-0.00695817201481,0.00982606484085,-0.999927513519,0.0,0.51020412815,0.0618667291403,0.304871959355,1.0,-0.41998,-0.551973714286,1.55
0.234279735063,-0.100788846754,-0.133861341629,-2.2463516915,-0.0034824306837,2.14057565992,-0.0711306776591,-0.934821646983,-1.4316705701,-0.0137673039914,-1.60972478286,-0.246623559144,0.202978135211,-0.83203775264,0.573901109455,0.818902587045,0.00410078019545,0.0,0.818883707431,-0.573831238617,-0.011310623019,0.0,-0.00690927569749,0.00984943082113,-0.999927622692,0.0,0.501792427824,0.0508249661155,0.304893000425,1.0,-0.41998,-0.551973714286,1.57
0.221861452706,-0.118596220543,-0.134191841262,-2.26638483793,-0.00642840013907,2.14261305298,-0.0820228657646,-0.96895749617,-1.37653141061,-0.0255863415577,-1.48914005149,-0.218963345035,0.158396334751,-0.839352012974,0.573883248938,0.818915766718,0.00396617074481,0.0,0.818894416088,-0.573812716855,-0.011473803964,0.0,-0.00712037684908,0.00983268828243,-0.999926306522,0.0,0.496330811376,0.0437040739756,0.304824900635,1.0,-0.41998,-0.551973714286,1.583
0.201036354899,-0.147216252928,-0.134755402253,-2.29793074593,-0.011191946405,2.14542674371,-0.100449634487,-1.00630768229,-1.34505070894,-0.0265888829278,-1.49164499096,-0.230660860134,0.130132196318,-0.89804693471,0.573735020729,0.819019943268,0.00389941272603,0.0,0.818997072627,-0.573663808774,-0.0115920848894,0.0,-0.0072573364783,0.00984458221062,-0.999925204837,0.0,0.487474346677,0.0321760266506,0.304759050132,1.0,-0.41998,-0.551973714286,1.604
0.187621344204,-0.164514042309,-0.135213597336,-2.31680209162,-0.0140884972351,2.14663626617,-0.112234610301,-1.03346223639,-1.32830090576,-0.0248401307504,-1.42568791853,-0.209483721522,0.0895856840698,-0.909038748608,0.573826276712,0.818956929337,0.00370120900725,0.0,0.818929782252,-0.573753450089,-0.0119053413387,0.0,-0.00762652718234,0.00986281786957,-0.999922277433,0.0,0.481966509872,0.0249669470361,0.304636908044,1.0,-0.41998,-0.551973714286,1.617
0.166352289551,-0.19101429655,-0.135850512117,-2.34484451489,-0.0185599793954,2.14804022722,-0.131076348537,-1.09637942716,-1.32458849155,-0.0404259228754,-1.34835425755,-0.219324969876,0.0620254075484,-0.953453437922,0.573774232986,0.818993550092,0.0036662473877,0.0,0.81896500342,-0.573700328511,-0.0120417249738,0.0,-0.00775891713799,0.00991195065083,-0.999920773081,0.0,0.473530103706,0.0139526857158,0.304618339659,1.0,-0.41998,-0.551973714286,1.637
0.152065879519,-0.208013995487,-0.136296217905,-2.36261525665,-0.0213877380759,2.14867586252,-0.143810107586,-1.11713927448,-1.2913023159,-0.0338196428354,-1.35851627393,-0.208311830063,0.0392451974496,-1.00066923561,0.573740142088,0.819017412419,0.00367075082412,0.0,0.818987708965,-0.573664677588,-0.0121949642895,0.0,-0.00788225976684,0.0100032329451,-0.999918899367,0.0,0.468005225149,0.00679581621426,0.304562953133,1.0,-0.41998,-0.551973714286,1.65
0.129296085662,-0.233696553365,-0.137071040295,-2.38872229629,-0.0258829456932,2.14908223666,-0.163966464762,-1.14594455757,-1.28491573875,-0.0302074208738,-1.30101436865,-0.225122570957,0.0206529062574,-1.02410387783,0.573830936223,0.818953745006,0.00368335099121,0.0,0.818924296194,-0.573755522044,-0.0121796932919,0.0,-0.00786141382019,0.0100056630627,-0.999919039162,0.0,0.459590838513,-0.00429853032037,0.304587718403,1.0,-0.41998,-0.551973714286,1.67
0.112811477465,-0.251380671125,-0.137675344154,-2.40613806036,-0.0287494010191,2.14909203332,-0.178665862012,-1.185335188,-1.24441057397,-0.048288665006,-1.2455696115,-0.196894772057,-0.0124843022624,-1.05556964358,0.57400597556,0.818829372648,0.00404294600682,0.0,0.81880458432,-0.57392910685,-0.0120490625249,0.0,-0.0075459071996,0.0102268135116,-0.999919232523,0.0,0.453775776388,-0.0120623140745,0.304710197311,1.0,-0.41998,-0.551973714286,1.684
0.0885704000872,-0.276095174618,-0.138468575032,-2.43013244054,-0.0330726054716,2.14877207801,-0.200412771253,-1.22941730367,-1.2298217313,-0.053457206903,-1.18044047747,-0.195035747239,-0.037710525053,-1.11276305106,0.574010686053,0.818824535588,0.00434270848161,0.0,0.818805508571,-0.57393539629,-0.0116810496144,0.0,-0.00707243207853,0.0102610784874,-0.999922342471,0.0,0.445459531475,-0.0231162169071,0.304839819931,1.0,-0.41998,-0.551973714286,1.704
0.0723775388352,-0.291659606271,-0.138935753558,-2.44515384552,-0.0357642004479,2.1480949328,-0.215070740926,-1.26272642045,-1.17519482719,-0.0420612086671,-1.128209711,-0.196978144643,-0.0576415916159,-1.14574292402,0.573936984408,0.818876170301,0.00434770537902,0.0,0.818856534737,-0.573860715551,-0.0117729166766,0.0,-0.00714572117888,0.010317257895,-0.999921243328,0.0,0.439993854892,-0.0302412349661,0.30482046689,1.0,-0.41998,-0.551973714286,1.717
0.0453345900011,-0.316258390881,-0.139812262326,-2.46827120518,-0.0400540756537,2.1467214002,-0.239561112987,-1.29533610636,-1.14417894076,-0.0423014669933,-1.08398606663,-0.191481317905,-0.0825019531204,-1.19685241131,0.573976963379,0.818847046109,0.00455054829728,0.0,0.818830425648,-0.573900606182,-0.0116436746317,0.0,-0.00692295944013,0.0104095288225,-0.999921854118,0.0,0.431226686575,-0.0418314308703,0.304883870629,1.0,-0.41998,-0.551973714286,1.738
0.0280633549094,-0.331051661633,-0.1403577611,-2.48188044432,-0.0426748627168,2.14562986518,-0.255244787019,-1.32595596387,-1.1153735061,-0.0309964956577,-1.04543988016,-0.21073217387,-0.0982289160896,-1.22387263366,0.574015588514,0.818819291092,0.00467114317193,0.0,0.818804795025,-0.573939723131,-0.0115173242594,0.0,-0.00674978262077,0.0104360790171,-0.999922761362,0.0,0.425813029258,-0.0490180909443,0.304937583664,1.0,-0.41998,-0.551973714286,1.751
0.000782582581145,-0.353140303307,-0.141204405402,-2.5019797956,-0.0466078899932,2.14346070066,-0.280235171946,-1.37950439717,-1.10364975825,-0.0367055819411,-0.970863128561,-0.196523800343,-0.123216809061,-1.28292037464,0.573985012468,0.81884052456,0.00470613441822,0.0,0.818825903563,-0.573908155167,-0.0115894775165,0.0,-0.00678917563972,0.0105058934351,-0.999921763588,0.0,0.417397405362,-0.0600370752582,0.304940223027,1.0,-0.41998,-0.551973714286,1.771
-0.0189126625015,-0.368069946852,-0.141884327221,-2.51536344491,-0.0492859900629,2.14180979989,-0.298351134538,-1.41990867595,-1.04183182934,-0.057604239325,-0.944283026768,-0.202717550287,-0.117975134603,-1.29875193728,0.574040313981,0.818801374333,0.00477223389255,0.0,0.818787186345,-0.573962588805,-0.0116291457428,0.0,-0.0067830073911,0.0105832461953,-0.999920989734,0.0,0.411500349366,-0.0677985464409,0.304926600251,1.0,-0.41998,-0.551973714286,1.785
-0.047719430021,-0.388642472633,-0.142753196467,-2.53335279913,-0.0530030218582,2.13918753293,-0.32498864796,-1.45382903981,-0.99957044659,-0.0385968867877,-0.875153076751,-0.189163612212,-0.120756657821,-1.34956109758,0.574024083447,0.818812067501,0.00488841894089,0.0,0.818799632171,-0.573946401673,-0.0115515048268,0.0,-0.0066529491789,0.0106336823327,-0.999921328439,0.0,0.403116418346,-0.0788057210365,0.304967857022,1.0,-0.41998,-0.551973714286,1.805
-0.066950752651,-0.401436115023,-0.14330810129,-2.54443685437,-0.0552913622554,2.13730618924,-0.342927842587,-1.48979360576,-0.978926402428,-0.0452900555755,-0.834097606464,-0.186271864023,-0.149533968598,-1.38198983752,0.573970254606,0.818849525169,0.00493445633576,0.0,0.818837000422,-0.573891345306,-0.0116377585258,0.0,-0.00669786021254,0.0107204490506,-0.999920102129,0.0,0.39763701427,-0.0859506612493,0.304950659394,1.0,-0.41998,-0.551973714286,1.818
-0.0987875466166,-0.421218519769,-0.144295665176,-2.5609405647,-0.0589063051158,2.13420930454,-0.372669055827,-1.5380354294,-0.926177563949,-0.0587713265645,-0.764230866773,-0.164303024988,-0.149350651679,-1.42743000451,0.574023728821,0.818810470568,0.00518834641529,0.0,0.818802595632,-0.573946334467,-0.0113429025926,0.0,-0.00630997648903,0.0107595339081,-0.999922205287,0.0,0.388896895931,-0.0975533255233,0.305090586244,1.0,-0.41998,-0.551973714286,1.839
-0.118995191332,-0.432686641739,-0.144829386599,-2.5706762312,-0.0610288275595,2.13210488005,-0.391728157255,-1.57614516464,-0.893781999648,-0.0502635890266,-0.747794276588,-0.161823874633,-0.173767729578,-1.49136327541,0.573933770345,0.818873843384,0.00513836363933,0.0,0.818863873591,-0.573854096807,-0.0115835662636,0.0,-0.00653693425731,0.0108560292255,-0.999919704336,0.0,0.383389351453,-0.104684751313,0.305013487737,1.0,-0.41998,-0.551973714286,1.852
-0.15073067828,-0.449397326696,-0.145769334361,-2.58424597692,-0.064199900131,2.1289908467,-0.421684371935,-1.60008842429,-0.786030538345,-0.0497525963207,-0.65704874703,-0.149662126417,-0.139899615911,-1.51455620946,0.573979567854,0.818840740153,0.00529573909571,0.0,0.81883366937,-0.573900890004,-0.0113990025695,0.0,-0.00629485951631,0.0108793335055,-0.999921004303,0.0,0.37506124359,-0.115733470281,0.305098545871,1.0,-0.41998,-0.551973714286,1.872
-0.173388391491,-0.460195898247,-0.146313535882,-2.59315279747,-0.066207672415,2.1266609704,-0.443265067696,-1.62937363002,-0.770713284942,-0.0387931269597,-0.611048005668,-0.129472373984,-0.174829141513,-1.54861363298,0.573899591724,0.818896897858,0.00527979152925,0.0,0.818887734391,-0.573817757775,-0.0116964194452,0.0,-0.00654864954468,0.0110363393514,-0.999917653811,0.0,0.369158610839,-0.123374209933,0.305019026021,1.0,-0.410837142857,-0.539957387755,1.886
-0.205796604603,-0.473992508722,-0.146715641876,-2.60431193422,-0.0687264628302,2.12370128719,-0.47387299449,-1.6137869077,-0.655543104011,-0.0158939348981,-0.517263202156,-0.129254255357,-0.141716991587,-1.51051621583,0.573946047743,0.818864223281,0.00529764202561,0.0,0.818854600756,-0.57386298348,-0.0117968603319,0.0,-0.00662003367079,0.0111089737913,-0.999916379432,0.0,0.361057484217,-0.134012544842,0.304974022095,1.0,-0.392551428572,-0.515924734694,1.906
-0.226627192667,-0.482127463217,-0.146865887716,-2.6105612687,-0.0700097854349,2.12192659233,-0.493589361677,-1.59481180909,-0.612376023735,-0.0140885538555,-0.473277497186,-0.0910516133293,-0.148456361998,-1.52106274482,0.574050891983,0.818789189864,0.00553017871306,0.0,0.818783488849,-0.573968594893,-0.0115929878177,0.0,-0.00631818584256,0.0111831993294,-0.999917504887,0.0,0.356021551689,-0.140707993067,0.305069998188,1.0,-0.380665714286,-0.500303510204,1.919
-0.259614027786,-0.493523127384,-0.146753944821,-2.61946651386,-0.0717938151923,2.11918695034,-0.524919005211,-1.55447510498,-0.506603346794,0.0106452590051,-0.389853306992,-0.0800837731401,-0.115789608024,-1.47947656852,0.574034415257,0.818799923145,0.00565003187211,0.0,0.818795420988,-0.573951102254,-0.0116162684228,0.0,-0.00626867836251,0.0112945755324,-0.999916564637,0.0,0.348144088156,-0.151018784819,0.3050889435,1.0,-0.361465714286,-0.47506922449,1.94
-0.278086692517,-0.499240330069,-0.14657294012,-2.62377156478,-0.0725262931815,2.1178536936,-0.542454384022,-1.53132245487,-0.455493850647,0.00274806297092,-0.344188390654,-0.0533408659681,-0.118273404167,-1.46312282349,0.574101593897,0.818751248678,0.00587363388107,0.0,0.81875046725,-0.57401909426,-0.0114236029358,0.0,-0.00598162633248,0.011367567999,-0.999917495869,0.0,0.343516706935,-0.157153251378,0.305168288149,1.0,-0.34958,-0.459448,1.953
-0.309367941644,-0.507749546101,-0.146167634924,-2.63000251816,-0.073688813925,2.11587885084,-0.572259150189,-1.47212196395,-0.379265598432,0.0199625753033,-0.259122546595,-0.0564926621361,-0.0733149621251,-1.3992045419,0.574141720913,0.818721622846,0.00607745777169,0.0,0.818726084674,-0.574063865195,-0.0109098053416,0.0,-0.00544334943659,0.0112397640201,-0.999922015785,0.0,0.33677826033,-0.166216578353,0.305343846456,1.0,-0.331294285714,-0.435415346939,1.973
-0.328193789503,-0.512287536994,-0.145767602671,-2.6330966178,-0.0742248344754,2.11485248159,-0.590266974035,-1.44954196831,-0.33539079905,0.0295919163233,-0.231643341847,-0.0414714174915,-0.0803436291303,-1.38867539087,0.574105861487,0.818745621059,0.00623014476945,0.0,0.818754663873,-0.574033427136,-0.0103523822102,0.0,-0.00489975058396,0.0110445360354,-0.99992700267,0.0,0.332629458672,-0.171875894148,0.30554211402,1.0,-0.319408571429,-0.419794122449,1.986
-0.357522102558,-0.518381736991,-0.145010687768,-2.63728337054,-0.0748239231318,2.11323319448,-0.618340155951,-1.38003168689,-0.264168561424,0.0286982899868,-0.179695777819,-0.0241296731583,-0.0738563993933,-1.31224871139,0.574080020705,0.818762525207,0.00638780436698,0.0,0.818775704401,-0.574012545472,-0.00983312896479,0.0,-0.00438440207056,0.0108753912848,-0.999931249078,0.0,0.326168873221,-0.180544643989,0.305769964904,1.0,-0.300208571429,-0.394559836735,2.007
-0.374876552886,-0.521416647727,-0.144410152441,-2.63938207919,-0.0750670821799,2.11247618129,-0.635016702721,-1.31799191283,-0.223235188086,0.0391904450941,-0.157364214053,-0.00789710832002,-0.0611561399275,-1.26478612429,0.573975252628,0.818835699167,0.00642293096176,0.0,0.818850653345,-0.573911202097,-0.00950192217228,0.0,-0.00409439988601,0.0107134956617,-0.999934226287,0.0,0.322402853582,-0.18560009246,0.305883580306,1.0,-0.288322857143,-0.378938612245,2.02
-0.400585462472,-0.525155118332,-0.143517214967,-2.64196231522,-0.0753039780521,2.11139612994,-0.659707979357,-1.25322529151,-0.165319421853,0.0492181327422,-0.121656051905,-0.00438067144266,-0.0547877291538,-1.18678496238,0.573915274396,0.818877560794,0.00644555224549,0.0,0.818893945073,-0.573854336122,-0.00920079008753,0.0,-0.0038355862864,0.0105589009658,-0.999936896953,0.0,0.316826681008,-0.193037455422,0.306013634898,1.0,-0.270037142857,-0.354905959184,2.04
-0.417827236725,-0.527081777421,-0.142880436588,-2.64336953489,-0.0754112648255,2.11074301961,-0.676229482029,-1.19996168191,-0.125588638271,0.0624882707086,-0.0816559761187,-0.00611833363497,-0.0517454361201,-1.19018054319,0.5739227064,0.81887275587,0.00639403424002,0.0,0.818888678427,-0.573862186412,-0.00917988300016,0.0,-0.00384793570662,0.0105047477935,-0.999937419874,0.0,0.313089128592,-0.197986322902,0.306040267136,1.0,-0.257237142857,-0.338083102041,2.054
-0.441162200458,-0.529018715694,-0.141931070764,-2.64505307909,-0.0754678450592,2.1101368179,-0.698634812452,-1.12894406164,-0.0517906312091,0.0551668644725,-0.0659745088911,-0.00733302584151,-0.03799305231,-1.10515936792,0.573888447554,0.818897683521,0.00627539553358,0.0,0.818911801472,-0.573826911315,-0.0093211673966,0.0,-0.00403216918422,0.0104885076843,-0.999936864416,0.0,0.308023709956,-0.204607348164,0.305956240089,1.0,-0.238951428572,-0.31405044898,2.074
-0.455451481554,-0.52982168945,-0.14120537371,-2.64579109857,-0.0754232392477,2.10974417836,-0.712384188193,-1.08022050795,-0.0694711764692,0.0580121418,-0.0536074291284,-0.00247051811989,-0.023565794254,-1.04683463713,0.57379353169,0.818965142229,0.00615026071119,0.0,0.818977139747,-0.573730488718,-0.00951408369211,0.0,-0.00426319290019,0.0104962446937,-0.999935824958,0.0,0.304948830935,-0.208609614715,0.305899631459,1.0,-0.227065714286,-0.29842922449,2.087
-0.476365934552,-0.530766999352,-0.140269683409,-2.64663704053,-0.0753013350643,2.10939447571,-0.73237201046,-1.01583850461,-0.0162764532806,0.056447234662,-0.0317084990994,0.0122221204737,-0.0121368272721,-0.980712542475,0.573893981443,0.818895341856,0.00607157733649,0.0,0.818906204692,-0.573830508228,-0.00958762978683,0.0,-0.00436729314706,0.0104745370514,-0.999935603339,0.0,0.300432835534,-0.21448354574,0.305855019281,1.0,-0.20878,-0.274396571429,2.107
-0.490139256161,-0.53106748071,-0.139543319419,-2.64688203435,-0.0751648643746,2.10923205464,-0.745464217374,-0.962147593466,-0.0267704477836,0.0537460780297,-0.0147729302845,0.00810434528765,-0.00391180336108,-0.921701933771,0.573982937216,0.818833683941,0.00597768591929,0.0,0.818843623946,-0.573919995893,-0.00957625909827,0.0,-0.00441073495788,0.0103915993962,-0.999936278009,0.0,0.297506900741,-0.218338740942,0.305858755186,1.0,-0.19598,-0.257573714286,2.121
-0.508131700321,-0.53114093843,-0.138244264889,-2.64704520542,-0.0747602034026,2.10908885561,-0.762861379273,-0.873050823895,0.0121673059348,0.0630566134211,0.000467028729003,0.0196249333346,-0.00442384715851,-0.839890536633,0.573717329253,0.819020788451,0.0058413270053,0.0,0.819028988693,-0.573654285476,-0.00964486066793,0.0,-0.00454852669253,0.0103178385036,-0.999936424536,0.0,0.293737233439,-0.223244267735,0.305833753153,1.0,-0.177694285714,-0.233541061225,2.141
-0.519154837148,-0.531163475372,-0.137515315256,-2.64703989669,-0.0744507310631,2.10908163569,-0.773327564356,-0.816264170204,0.00111380472956,0.064717743113,0.000503987990792,0.023368765945,0.00520328681292,-0.785377650611,0.57379098698,0.818969194231,0.00584029641777,0.0,0.818977893882,-0.573729100839,-0.00953284238443,0.0,-0.00445644203423,0.0102531301049,-0.999937504771,0.0,0.291420172263,-0.226260158746,0.305863230369,1.0,-0.165808571429,-0.217919836735,2.154
-0.53526153654,-0.530747817475,-0.136136747135,-2.64688526656,-0.0738019770508,2.10908831378,-0.788781548579,-0.745194865837,0.0140258070015,0.0551111245976,0.0125960219511,0.0321119764453,0.00381879352413,-0.70175464469,0.573638901614,0.819075967809,0.00580658374721,0.0,0.819083816522,-0.573576043591,-0.00964212793871,0.0,-0.0045672058735,0.0102873765205,-0.999936653251,0.0,0.288083929256,-0.230557642314,0.305818908255,1.0,-0.146608571429,-0.192685551021,2.175
-0.54450172476,-0.530482878746,-0.135396147294,-2.64673228923,-0.0734008500099,2.10909561048,-0.797499988291,-0.699104994463,0.0238468921712,0.0617468403908,0.0198182760165,0.0289254117989,0.00312655845837,-0.658022760676,0.573742581305,0.819003148571,0.00583437477364,0.0,0.819011256265,-0.573679517835,-0.00964986159681,0.0,-0.00455629344682,0.0103151537133,-0.999936416876,0.0,0.286286918532,-0.232851967608,0.305818117146,1.0,-0.135637142857,-0.178265959184,2.187
-0.557119758697,-0.529826695571,-0.134120890013,-2.64635975188,-0.0727085721968,2.10921061365,-0.809562040853,-0.61350682964,0.0299985780935,0.0516810287343,0.014352539351,0.0295167565349,0.0128898018975,-0.569576501884,0.573595183605,0.819106382285,0.00583495892553,0.0,0.81911416794,-0.573531402308,-0.00971891704807,0.0,-0.00461438364919,0.0103544208886,-0.999935744651,0.0,0.283590063552,-0.236337558298,0.305784854434,1.0,-0.116437142857,-0.15303167347,2.208
-0.564664643873,-0.529369978397,-0.133392630775,-2.64606841766,-0.0722832054427,2.10928020899,-0.816534894024,-0.570744264511,0.0371738083063,0.0551202900845,0.0295207241065,0.0366454912042,0.00596960903438,-0.522283887737,0.57374737753,0.818999645303,0.00585445739282,0.0,0.8190075132,-0.573683211551,-0.00974746163124,0.0,-0.00462465273849,0.0103876251329,-0.999935352826,0.0,0.28205080147,-0.238327288721,0.3057753494,1.0,-0.104551428572,-0.13741044898,2.221
-0.5756244663,-0.528568023118,-0.132075239895,-2.64554672509,-0.0715307374177,2.10943980325,-0.82680796627,-0.458050137695,0.0421509763085,0.0631971129002,0.024115082287,0.0381681898727,0.00798502016684,-0.42543945697,0.573729545464,0.819012132298,0.00585514403667,0.0,0.819019940154,-0.573665228511,-0.00976166628419,0.0,-0.0046361198361,0.0103962362385,-0.999935210234,0.0,0.279883999907,-0.24115462624,0.305767028292,1.0,-0.0844371428573,-0.110974530612,2.243
-0.580807360788,-0.528177229988,-0.131363807597,-2.64526178582,-0.0711211570398,2.10949579565,-0.831551502783,-0.425700106167,0.0294640772095,0.0583210866041,0.0223930860269,0.0309221651216,0.00469557085439,-0.384688797153,0.573777072433,0.81897884621,0.00585384588115,0.0,0.818986655595,-0.573712787275,-0.00975923031028,0.0,-0.00463426616665,0.0103940443748,-0.999935241612,0.0,0.278877619964,-0.242465281703,0.305776651055,1.0,-0.0734657142858,-0.0965549387757,2.255
-0.588199096126,-0.527617809678,-0.130146268596,-2.64486393942,-0.0704157771392,2.10964953094,-0.838135043182,-0.335319538348,0.0344205146533,0.0572215989071,0.0194697051251,0.0306336185524,0.00750488608753,-0.302502600258,0.573900999102,0.818892042685,0.00584915029307,0.0,0.818900146904,-0.573837488709,-0.00968673602883,0.0,-0.00457601744085,0.0103492967753,-0.999935974011,0.0,0.277493448617,-0.244275454732,0.305796928854,1.0,-0.0551800000001,-0.0725222857145,2.275
-0.592060314944,-0.527241736864,-0.129344749324,-2.64460973014,-0.0699351249602,2.10971728734,-0.841569855342,-0.281497638326,0.0271418122834,0.0656441248479,0.016781663241,0.0353321987094,0.00131489116705,-0.252163439241,0.57390241592,0.818891015821,0.00585389702697,0.0,0.818899141375,-0.573838820663,-0.00969283531435,0.0,-0.00457827053641,0.0103566922515,-0.999935887127,0.0,0.2768162299,-0.24517661139,0.305800828676,1.0,-0.0432942857144,-0.0569010612247,2.288
-0.596792103845,-0.526786687957,-0.127953098175,-2.64433535683,-0.0691311900433,2.10982387309,-0.845648272684,-0.187684238497,0.0219227143688,0.0682020148696,0.00561502356293,0.0412648079175,0.00752889799159,-0.153779588802,0.573811241686,0.818955014507,0.00583866684395,0.0,0.818962962893,-0.573747687277,-0.00969554821012,0.0,-0.00459038460571,0.0103452656336,-0.999935949873,0.0,0.276079634851,-0.246156614465,0.305802744424,1.0,-0.0240942857144,-0.0316667755104,2.309
-0.59886513819,-0.526631798476,-0.127121170872,-2.64424939655,-0.068690739123,2.10983550495,-0.847289476914,-0.153013302729,0.00763476822177,0.0583439476521,0.00407558124195,0.021295530164,-0.000346433497758,-0.10752415792,0.573769036676,0.818984856101,0.00580042496683,0.0,0.818992308972,-0.573705440775,-0.00971658225221,0.0,-0.00463008749887,0.0103257762784,-0.999935968267,0.0,0.275795975027,-0.246513105523,0.305806588838,1.0,-0.01981,-0.026036,2.322
-0.601319594893,-0.526411291473,-0.12628173412,-2.6440799208,-0.0682698593045,2.10985295159,-0.849407994225,-0.109911944056,0.0131091818306,0.0364033611535,0.00974097055675,0.0153924196322,0.0014377575877,-0.0910192882954,0.573629941589,0.819082771931,0.00573146916714,0.0,0.819089524183,-0.573566709665,-0.00971225199174,0.0,-0.00466784824189,0.0102660225485,-0.999936407965,0.0,0.275419854458,-0.247020314336,0.305826031924,1.0,-0.01939,-0.025484,2.343
-0.602777520923,-0.526251891175,-0.125950668217,-2.6439135065,-0.0681094839503,2.10993465055,-0.850802229244,-0.09843261206,0.0188748436492,0.0143217864753,0.0138811814623,0.00959150231769,0.00861650073882,-0.106873785209,0.573533795071,0.819150333285,0.00569774448081,0.0,0.819157217512,-0.573471786164,-0.00960782877686,0.0,-0.0046028490593,0.010177958973,-0.99993760952,0.0,0.275208364237,-0.247353363012,0.305857273798,1.0,-0.01913,-0.0251422857143,2.356
-0.604733622994,-0.525970652946,-0.125750825506,-2.64372303162,-0.0679221286135,2.11000368051,-0.852544624003,-0.105933253988,0.0231369675745,0.00986286992664,0.0109345124141,0.0069400932098,-0.00555457892249,-0.086112064502,0.573657446451,0.819063394838,0.00574771857323,0.0,0.819070786869,-0.57359518417,-0.00961029114654,0.0,-0.00457466207472,0.0102210002392,-0.999937299845,0.0,0.274831849925,-0.247877799529,0.305851641751,1.0,-0.01873,-0.0246165714286,2.376
-0.606027138764,-0.525804963113,-0.125639203453,-2.64364189682,-0.0678753138861,2.11000080703,-0.853795765639,-0.0919790267589,0.0107700619489,0.0026005467095,0.0026819292076,0.00879428049369,-0.00166269409116,-0.0834497336562,0.573637742347,0.819077287342,0.00573452844849,0.0,0.819084183498,-0.573574742804,-0.00968822283143,0.0,-0.00464631205189,0.0102547892608,-0.999936623532,0.0,0.274553300467,-0.248219893472,0.305830225851,1.0,-0.01845,-0.0242485714286,2.39
-0.607739133325,-0.525674784738,-0.12559849329,-2.64349308773,-0.0678341452459,2.11002339778,-0.85542943838,-0.083765918428,0.0177633479966,0.00169777605928,0.0103638423448,0.000260425677097,-0.000456082833448,-0.0767038138608,0.57369821024,0.819034846006,0.00574730339808,0.0,0.819042117256,-0.573635683342,-0.00963638204267,0.0,-0.00459576285291,0.0102358557467,-0.999937051129,0.0,0.274176231381,-0.248713640556,0.30585313787,1.0,-0.01805,-0.0237228571429,2.41
-0.60892390519,-0.525559653631,-0.125539775061,-2.64335844757,-0.067819977891,2.11003636091,-0.856594482748,-0.086016296984,0.00470891921284,-0.000393929418854,0.00518206216904,0.000636145819355,0.00108811559714,-0.0852305359727,0.573685755444,0.81904372155,0.00572565205487,0.0,0.819050949498,-0.573623726108,-0.0095973888807,0.0,-0.00457639934976,0.0101956823408,-0.999937550365,0.0,0.273926445312,-0.24905666072,0.305874702381,1.0,-0.01777,-0.0233548571429,2.424
-0.610425884989,-0.525348505789,-0.125510752937,-2.64320835832,-0.067789768326,2.11004720236,-0.858083793929,-0.0800079977354,0.0140063685074,0.00810575615507,0.00899469806566,-0.000717297330925,-0.00118069160957,-0.0816729689682,0.573696490967,0.819036143487,0.00573400511602,0.0,0.819043268966,-0.573634003928,-0.00963846459482,0.0,-0.00460511922045,0.0102261484959,-0.999937107404,0.0,0.273593504817,-0.24949327898,0.305867159566,1.0,-0.01739,-0.0228554285714,2.443
-0.611517402804,-0.525263751151,-0.12553208657,-2.64309211058,-0.0677717733992,2.1100745415,-0.859147795207,-0.0774907839363,0.00395386378073,-0.00576379117256,0.00739665517147,3.40301617651e-05,0.00299821389057,-0.0793046543628,0.573747605585,0.819000185913,0.00575564610005,0.0,0.819007833707,-0.573685684476,-0.00957343488482,0.0,-0.00453880056395,0.0102068510999,-0.999937607794,0.0,0.273348352741,-0.249825725666,0.305890818227,1.0,-0.01711,-0.0224874285714,2.457
-0.613113924959,-0.525102508112,-0.12553275909,-2.64294141785,-0.0677579261633,2.11012372886,-0.860729690905,-0.077925336763,0.00382875709923,-0.000990894824167,0.00352335949905,0.000181092005087,0.00359189758731,-0.0732302712167,0.573773765147,0.81898180831,0.00576289750052,0.0,0.818989745448,-0.573712293295,-0.00952618881836,0.0,-0.00449561675827,0.0101858272915,-0.999938017255,0.0,0.272990440883,-0.2503018632,0.305904434173,1.0,-0.01671,-0.0219617142857,2.477
-0.614101075367,-0.524964162882,-0.12551863261,-2.64284420798,-0.0677443595005,2.11016549585,-0.861668725453,-0.0713657942557,0.00757679231277,0.00142146125403,0.00687087321323,-0.00112182173256,0.00420657402438,-0.0717677890878,0.573814148116,0.818953516084,0.00576270924795,0.0,0.818961481091,-0.573752738151,-0.00952023398706,0.0,-0.00449034534053,0.0101824779002,-0.999938075054,0.0,0.272774149883,-0.250594139055,0.305901816192,1.0,-0.01645,-0.02162,2.49
-0.615616647577,-0.524787221439,-0.125481916436,-2.64267985475,-0.0677247074403,2.11019445569,-0.863247345186,-0.0700575159008,0.00861261718924,0.00256650036499,0.00471157097507,0.000347802934368,0.0053258268656,-0.0683824718252,0.573753439343,0.81899609619,0.0057560549075,0.0,0.819004101866,-0.573692314842,-0.00949504707717,0.0,-0.00447428816902,0.0101622441518,-0.999938352869,0.0,0.272443161492,-0.251038822901,0.305915028917,1.0,-0.01603,-0.021068,2.511
-0.616597114706,-0.524585405737,-0.125396226156,-2.64260104752,-0.0677110786802,2.11021183096,-0.864205899956,-0.0720575174899,0.0101112418139,0.00569401063641,0.00815150266702,0.00170186127485,7.00421779034e-05,-0.0710782075596,0.573721212916,0.819018892158,0.00572459942866,0.0,0.819026121939,-0.573659210721,-0.00959522989418,0.0,-0.00457479344695,0.0101937796647,-0.999937577112,0.0,0.272233053529,-0.251303890391,0.305880309149,1.0,-0.01575,-0.0207,2.525
-0.617900138419,-0.524432595843,-0.125323821633,-2.64253661594,-0.0676938099382,2.11023418422,-0.86550813076,-0.0669425318175,0.010263282464,0.00178291062092,0.00372849618633,0.000630389899376,-0.000432338363282,-0.0733617093928,0.573681709766,0.819046682907,0.00570736365124,0.0,0.819053465404,-0.573619191716,-0.00965352812998,0.0,-0.00463292606694,0.0102128851294,-0.999937114509,0.0,0.271937548224,-0.251656981167,0.305857154238,1.0,-0.01537,-0.0202005714286,2.544
-0.618926594852,-0.524291786084,-0.125327680644,-2.64245028651,-0.0676801275266,2.11023752175,-0.866598043143,-0.0684494751675,0.00402085756736,-0.00901512367986,0.00386291652218,0.000383182842208,-6.5305952585e-06,-0.0667819211333,0.573642980286,0.819073704651,0.00572227393463,0.0,0.819080428777,-0.573579934748,-0.00969827562814,0.0,-0.00466151078596,0.0102505476777,-0.999936596285,0.0,0.271697283983,-0.251955115875,0.305844920089,1.0,-0.01507,-0.0198062857143,2.559
-0.620254287671,-0.524111969272,-0.125320454636,-2.64234623932,-0.0676622002644,2.11027278548,-0.867883853892,-0.0674667095908,0.00970641337577,0.00179529553676,0.00625837134084,-0.000512717000437,0.00410030178233,-0.062077006532,0.573685490727,0.819043856228,0.00573290550763,0.0,0.819050538615,-0.573622057169,-0.00973127047987,0.0,-0.00468190639019,0.010278425916,-0.999936214822,0.0,0.27139189251,-0.25233997758,0.305829419379,1.0,-0.01469,-0.0193068571429,2.578
-0.621273673651,-0.524016040573,-0.125327224276,-2.64222976986,-0.0676465892559,2.11029639404,-0.868852303192,-0.0650361263296,0.0075015226353,-0.00101068546394,0.0069916484327,0.000728673111716,-0.00114316751054,-0.0650252223932,0.573744529624,0.819002421036,0.00574421141651,0.0,0.819009455514,-0.573681554113,-0.0096815881796,0.0,-0.00463398524457,0.0102595192483,-0.999936632215,0.0,0.271163603903,-0.252647096731,0.305849062504,1.0,-0.01439,-0.0189125714286,2.593
-0.622522419409,-0.523862664329,-0.12532755485,-2.64207727159,-0.0676268178894,2.11033213443,-0.870098065129,-0.0570616687753,0.00545782940057,0.00221268864472,0.00790633393261,0.00211114070368,0.00214832656705,-0.0625827432998,0.573763456544,0.818989094796,0.00575373283137,0.0,0.81899642162,-0.573700866708,-0.00963969989557,0.0,-0.00459397602769,0.010243391349,-0.999936982173,0.0,0.270887845163,-0.253024003139,0.30586518649,1.0,-0.01401,-0.0184131428571,2.612
-0.62333281676,-0.523788178362,-0.125318666749,-2.641986976,-0.0676185208579,2.11035886152,-0.870885369318,-0.0581837962709,0.0100569958531,0.00319506921943,0.00860003037186,0.000311003294153,0.000168701544767,-0.0594857556004,0.573784174224,0.818974594478,0.00575168773176,0.0,0.818982115498,-0.57372207135,-0.00959303090378,0.0,-0.00455666612496,0.0102150553731,-0.999937442762,0.0,0.270709224305,-0.25326559537,0.305881425692,1.0,-0.01375,-0.0180714285714,2.625
-0.624548108536,-0.523618612741,-0.125297343863,-2.64184271984,-0.0675979857274,2.11039479124,-0.872073876828,-0.0600529313148,0.0111897953312,0.00178868744292,0.00675920274863,-0.000917904366117,0.000644646061057,-0.066285455293,0.573807280457,0.818958406751,0.00575150477176,0.0,0.818966006407,-0.573745355371,-0.00957572147513,0.0,-0.00454230590704,0.0102051020717,-0.999937609728,0.0,0.270443492115,-0.253625766341,0.30588836652,1.0,-0.01335,-0.0175457142857,2.645
-0.625329442844,-0.523524186354,-0.125298418437,-2.64175115299,-0.067582041875,2.11040635823,-0.872898097998,-0.0555383028054,0.00878531460777,0.00115890324384,0.0083315649105,8.91806256827e-05,0.00373207014139,-0.0613321748418,0.57378441336,0.818974350153,0.00576261037145,0.0,0.818982123553,-0.573722577567,-0.00956201815474,0.0,-0.00452499504878,0.0102062083578,-0.999937676923,0.0,0.270267685933,-0.253858562725,0.305896312529,1.0,-0.01309,-0.017204,2.658
-0.626511169361,-0.523322222488,-0.125271712219,-2.64160382836,-0.067562845097,2.11044937393,-0.874039851709,-0.0599230530013,0.00855710883148,0.00373237243626,0.00989125700024,0.000782891405386,0.00357903294466,-0.0591707771281,0.573814228217,0.818953495957,0.00575759126561,0.0,0.818961195908,-0.573752360273,-0.00956742282797,0.0,-0.00453193004784,0.0102053636594,-0.999937654138,0.0,0.270011887087,-0.254209375077,0.305893456911,1.0,-0.01269,-0.0166782857143,2.678
-0.627393144272,-0.523181638374,-0.125226842726,-2.64152104962,-0.0675485691558,2.11047034465,-0.874934156448,-0.0549237094065,0.00819863766649,0.00472774615878,0.0022965918649,-2.84184306815e-05,0.00127009316708,-0.0554756864492,0.573782958684,0.818975486214,0.0057459729252,0.0,0.818982920235,-0.573720817967,-0.00959928618119,0.0,-0.00456508367289,0.0102139571625,-0.999937415587,0.0,0.269818038116,-0.254457319003,0.305882315523,1.0,-0.01237,-0.0162577142857,2.694
-0.628379661525,-0.523044511294,-0.125168886266,-2.64146875575,-0.0675307553867,2.11048504103,-0.875959645963,-0.0549027398408,0.00659502641317,0.00585472877392,0.00429804382185,-0.000129154199065,-0.000183905746479,-0.0549368903803,0.573720660076,0.819019196259,0.0057364851617,0.0,0.819026234592,-0.573657908125,-0.00966324981207,0.0,-0.00462369603695,0.010242535103,-0.999936853961,0.0,0.269592358665,-0.254721574024,0.305858336241,1.0,-0.01201,-0.0157845714286,2.712
-0.629237078483,-0.522938517119,-0.125147143334,-2.64139719277,-0.0675164940823,2.11049220315,-0.876833679628,-0.0572814640154,0.00714316333796,-0.000586257488288,0.0082435236627,0.000299223534092,-0.000498097006232,-0.0541329926432,0.573701552122,0.819032567389,0.0057384275305,0.0,0.81903952179,-0.573638564495,-0.00968534824013,0.0,-0.00464092165624,0.0102566957318,-0.999936629011,0.0,0.269395294143,-0.254963575341,0.305853066407,1.0,-0.01169,-0.015364,2.728
-0.630242903079,-0.522773526373,-0.125120887354,-2.64128595347,-0.0674986206466,2.11052498685,-0.877770088097,-0.0559298193263,0.0112310013866,0.00134533771177,0.00692445302858,-0.000358012717211,0.00184385199209,-0.0557476559012,0.573753363392,0.818996293191,0.005735558945,0.0,0.819003149127,-0.57369022834,-0.00970105805894,0.0,-0.00465478608855,0.0102636531349,-0.999936493179,0.0,0.269173511887,-0.255256531971,0.305846459994,1.0,-0.01131,-0.0148645714286,2.747
-0.631022550689,-0.522652505063,-0.125129177806,-2.6411632101,-0.0674834894027,2.11055155155,-0.878533552474,-0.053330341788,0.00724898924352,-0.000939000147672,0.0132806188531,0.000241022819942,0.00620307448151,-0.0512472576055,0.573786092673,0.818973313145,0.00574274432473,0.0,0.818980334939,-0.573723122482,-0.00968176711459,0.0,-0.00463445291292,0.0102586555043,-0.999936638909,0.0,0.269014069966,-0.255482306028,0.305855198896,1.0,-0.01103,-0.0144965714286,2.761
-0.631912988814,-0.522487750397,-0.125115994028,-2.64104727407,-0.0674617191805,2.1106041186,-0.87948099299,-0.0462321259303,0.00933216305509,0.0034077728838,0.00229991652408,0.000161693896313,0.00122341708894,-0.0522201386845,0.57374459161,0.819002345281,0.00574881931429,0.0,0.819009530863,-0.573681825122,-0.00965912944666,0.0,-0.00461294532716,0.0102504084414,-0.999936822935,0.0,0.268813232308,-0.255767172425,0.305856898412,1.0,-0.01065,-0.0139971428571,2.78
-0.632532206965,-0.522404197742,-0.12510322219,-2.6409768331,-0.0674499788372,2.11061059914,-0.880088120695,-0.0512427688281,0.00362951544329,0.000802615259122,0.00657237997689,-0.000326435329236,-0.000173799995553,-0.0450028989643,0.573754113228,0.818995664223,0.00575034257887,0.0,0.819002851855,-0.573691308028,-0.00966222784717,0.0,-0.00461449000112,0.0102534873529,-0.999936784241,0.0,0.26867419523,-0.255946820367,0.305859085129,1.0,-0.01039,-0.0136554285714,2.793
-0.633468806463,-0.522308889618,-0.125093975517,-2.64089903793,-0.0674331728379,2.11062805756,-0.880991942843,-0.0451109084766,0.00353957280431,-0.00402399743132,0.00506421867826,0.000383137342374,0.00108954150601,-0.0482538781949,0.573785615472,0.818973532942,0.00575905538489,0.0,0.818980837692,-0.573722826774,-0.00965672993536,0.0,-0.00460459334956,0.0102576462243,-0.999936787209,0.0,0.268456643323,-0.256215043458,0.305861153136,1.0,-0.00999,-0.0131297142857,2.813
-0.634108999596,-0.522215951535,-0.1250822877,-2.64083489576,-0.0674146447141,2.11064868068,-0.881623846511,-0.0428828352902,0.00899368774386,0.0026399558703,0.00385643079105,0.00404018649011,0.000311604389888,-0.0455078746411,0.573795415884,0.818966611953,0.00576681186152,0.0,0.818973978903,-0.573732551103,-0.00966067210833,0.0,-0.00460324885151,0.0102663158843,-0.999936704426,0.0,0.26831289351,-0.256399877237,0.30585820634,1.0,-0.00971,-0.0127617142857,2.827
-0.634966105039,-0.522063329988,-0.125049518919,-2.64071994327,-0.0673958669154,2.11066772191,-0.882519491851,-0.0382220669602,0.00630762415449,0.00140791321952,0.00730776099854,0.000175971919956,-0.000536466147804,-0.0436555674224,0.573754689494,0.818995180621,0.00576171016342,0.0,0.819002429273,-0.57369170805,-0.00967428867083,0.0,-0.00461783936013,0.010269720837,-0.999936602187,0.0,0.268128154031,-0.256649742655,0.305856781932,1.0,-0.00931,-0.012236,2.847
-0.635509043259,-0.521966423231,-0.125023257484,-2.64066022948,-0.0673803375482,2.11068886691,-0.883059815253,-0.0396570715559,0.00566956473246,0.00211983447318,0.0028233429913,-1.13597542976e-06,0.0034809178384,-0.0466983259066,0.573748055802,0.818999843917,0.00575942953025,0.0,0.81900700984,-0.573684954234,-0.0096870026031,0.0,-0.0046296446885,0.0102751098957,-0.999936492237,0.0,0.268010917449,-0.256804301828,0.305850739932,1.0,-0.00905,-0.0118942857143,2.86
-0.636298791844,-0.521865821394,-0.124989630209,-2.64060026929,-0.0673624867433,2.11071031202,-0.883818474298,-0.0378328431704,0.0082395133045,0.00248895533956,-7.45978778063e-05,0.000576072710126,0.00188997811099,-0.0411850026665,0.573760537296,0.818991112656,0.00575761532594,0.0,0.818998193588,-0.573697295023,-0.0097015197279,0.0,-0.00464241947909,0.0102820236838,-0.99993636194,0.0,0.267831976212,-0.257023094977,0.305843648772,1.0,-0.00865,-0.0113685714286,2.88
-0.63680202214,-0.521813469826,-0.124971783277,-2.64058539532,-0.0673506287889,2.11071830645,-0.884305763257,-0.0413344455851,0.00085143379564,-0.00069184719383,0.000670430856665,-0.000107552742508,0.00460709791753,-0.0320212707382,0.573768887821,0.818985226001,0.00576279990021,0.0,0.818992210448,-0.57370528863,-0.00973385458036,0.0,-0.00466582414486,0.0103048695461,-0.999936017827,0.0,0.267701751911,-0.257167107869,0.305830551361,1.0,-0.00837,-0.0110005714286,2.894
-0.637596578664,-0.521736750659,-0.124936658207,-2.64051578822,-0.0673303556343,2.11073223378,-0.885108283638,-0.0396501515812,0.00532477340024,0.00164353098381,0.00229841174244,0.000430407902551,-3.2041156055e-05,-0.036807068968,0.573747726289,0.819000064534,0.00576088290177,0.0,0.819007111725,-0.573684321811,-0.0097157991451,0.0,-0.00465240149945,0.0102928199036,-0.999936204474,0.0,0.267532697572,-0.257377776729,0.305837743087,1.0,-0.00797,-0.0104748571429,2.914
-0.638062228784,-0.521654705059,-0.124920647074,-2.64044624682,-0.0673179082585,2.11074979687,-0.885592946611,-0.0343865654201,0.00677193704931,-0.00110649857365,0.00654661471876,-2.26891536687e-06,0.000494194702919,-0.0357607418203,0.573729714743,0.819012693573,0.00575926105877,0.0,0.81901975913,-0.573666398313,-0.00970796076247,0.0,-0.00464713801645,0.0102868922187,-0.999936289949,0.0,0.267434502927,-0.257516209853,0.305841083939,1.0,-0.00771,-0.0101331428571,2.927
-0.638760644676,-0.521526403503,-0.124887254918,-2.64032460958,-0.067300053678,2.11077974232,-0.886285894499,-0.0376257577139,0.0074382918567,0.00289893734644,0.00597981841997,0.000190583920403,0.00192367550417,-0.0343023311589,0.573724221157,0.819016633708,0.00574618727326,0.0,0.81902366924,-0.573661197217,-0.00968539796441,0.0,-0.00463622662806,0.010263208387,-0.999936583967,0.0,0.267286861892,-0.257736203458,0.305851898216,1.0,-0.00729,-0.00958114285715,2.948
-0.639231735338,-0.521444696675,-0.124875492537,-2.64026711775,-0.0672823551374,2.11080600456,-0.886737063659,-0.0298395200502,0.00627354649938,0.00231988870326,0.00341632442491,0.000378285501948,-0.00062879416571,-0.0295072124328,0.573742918859,0.819003481304,0.00575391793963,0.0,0.819010641553,-0.573679956672,-0.00967591011315,0.0,-0.00462378569536,0.0102642025518,-0.999936631368,0.0,0.2671918995,-0.257864945036,0.305851205768,1.0,-0.00703,-0.00923942857143,2.961
-0.639875929639,-0.521346693378,-0.124853167729,-2.64020177539,-0.0672637812377,2.11082777297,-0.887359494623,-0.0259498067568,0.00493814400729,0.000400454879534,0.00385708703284,-4.28502069505e-06,0.00211232696318,-0.0299350865268,0.573756303794,0.818994088,0.00575626427479,0.0,0.819001241568,-0.573693260284,-0.00968278449366,0.0,-0.00462790233829,0.0102701439615,-0.999936551319,0.0,0.267048646202,-0.258048175565,0.305847264882,1.0,-0.00663,-0.00871371428572,2.981
-0.640255071881,-0.521278542194,-0.124831623375,-2.64017029956,-0.0672487991841,2.11083360121,-0.887739158071,-0.031613548478,0.00179544095836,-0.000543339002556,0.00219911201881,0.000275566577543,0.000609721645239,-0.0278771691391,0.573748756504,0.818999356018,0.00575900626452,0.0,0.819006407006,-0.573685411719,-0.00971084782044,0.0,-0.00464940974693,0.0102884479747,-0.999936263382,0.0,0.266963491306,-0.258150803135,0.30583751169,1.0,-0.00637,-0.00837200000001,2.994
-0.640839191394,-0.521190576652,-0.124805908951,-2.64014587193,-0.0672333913178,2.11083946478,-0.888338137772,-0.0305947228093,0.0024873022356,9.5595752932e-05,-0.000768405099164,0.000158829569974,0.00016911656727,-0.0247434597282,0.573726452973,0.819014946911,0.00576374849316,0.0,0.819021794888,-0.573662533833,-0.00976440865363,0.0,-0.00469084038332,0.0103229339268,-0.99993571446,0.0,0.26682423796,-0.258305032843,0.305817353197,1.0,-0.00595,-0.00782000000001,3.015
-0.64118580593,-0.521155922703,-0.12479565149,-2.64013163759,-0.0672237848814,2.11084834183,-0.888706108553,-0.0263417077458,-0.00109073493331,0.00012374755963,0.0031679450569,0.00330371793829,0.00533709578954,-0.033024377954,0.573706593521,0.819028824449,0.00576855037944,0.0,0.819035678466,-0.573642559255,-0.00977335728112,0.0,-0.00469566572813,0.0103318870076,-0.999935599343,0.0,0.266741706141,-0.258398539689,0.305812078978,1.0,-0.00569,-0.00747828571429,3.028
-0.641747892134,-0.521078817877,-0.124766905689,-2.64008670291,-0.0672058548879,2.11086218914,-0.8892413719,-0.0237529834797,0.00393148541094,0.00218406277382,0.00113998050497,-8.53652652283e-05,0.00205219156192,-0.0156153497754,0.573718252933,0.819020651282,0.0057693956209,0.0,0.819027445882,-0.573654062941,-0.00978804697585,0.0,-0.0047070659959,0.010341073668,-0.999935450779,0.0,0.266615130899,-0.25855234067,0.305806010589,1.0,-0.00527,-0.00692628571429,3.049
-0.642039986414,-0.521046594776,-0.124766403145,-2.6400468751,-0.0671938787073,2.11086922559,-0.889540699128,-0.0232344131745,0.000372114937265,-0.00184751413227,0.00422743541946,0.000332450401946,0.00191631672482,-0.0179207831876,0.573719060909,0.819020031864,0.00577697637169,0.0,0.819026984345,-0.573655010129,-0.00977113963736,0.0,-0.00468885793317,0.0103375876237,-0.999935572371,0.0,0.266550385686,-0.258639439823,0.305812892109,1.0,-0.00503,-0.00661085714286,3.061
-0.642519860325,-0.520972273876,-0.124741641801,-2.63995806792,-0.0671767356686,2.11088471515,-0.889996049757,-0.0203645652492,0.00339208207259,0.00311654892167,0.00525038294925,-8.38805841157e-05,0.000309339741236,-0.0130851350684,0.573733350974,0.819010056568,0.00577201204192,0.0,0.819017111457,-0.573669660377,-0.00973852170457,0.0,-0.00466480883639,0.0103148899146,-0.999935919249,0.0,0.26645446642,-0.258783620674,0.305827861157,1.0,-0.00461,-0.00605885714286,3.082
-0.642808098478,-0.520943881194,-0.124719051338,-2.63990840234,-0.067167711567,2.11090012089,-0.890264907441,-0.0247422339416,0.00257991220394,0.00599846576067,0.00592289809731,0.00332696549049,0.00231994275374,-0.0214679506025,0.573739482883,0.819005821564,0.00576341282387,0.0,0.81901296514,-0.573676223821,-0.00970051832856,0.0,-0.00463853738438,0.0102860782346,-0.999936338256,0.0,0.266398849224,-0.258868815463,0.305841869533,1.0,-0.00435,-0.00571714285715,3.095
-0.643220873907,-0.520900859714,-0.124683106729,-2.63985081175,-0.0671491407031,2.11091663241,-0.890641814547,-0.0217030250004,0.00214012826579,0.00169198113754,0.00507784166518,-0.000333114670802,-0.000611955117183,-0.0142620326614,0.573754146797,0.818995597185,0.00575653761325,0.0,0.819002826484,-0.573691264366,-0.00966696968797,0.0,-0.00461481912043,0.0102612820829,-0.999936702764,0.0,0.266316379493,-0.258985182198,0.305854512253,1.0,-0.00395,-0.00519142857143,3.115
-0.643388261322,-0.520885493258,-0.12467036185,-2.63984017571,-0.0671376756711,2.11092226037,-0.890801301905,-0.0196132330972,0.00520474061711,0.00136989493098,0.00427149415116,0.000202501722108,0.000265072310118,-0.0155245806719,0.573757020259,0.818993560668,0.00575987756554,0.0,0.819000835823,-0.573694147719,-0.00966450700689,0.0,-0.00461084972789,0.0102626208702,-0.999936707336,0.0,0.26627981749,-0.259029018031,0.305854483715,1.0,-0.00377,-0.00495485714286,3.124
-0.643828150837,-0.520843682591,-0.124637636099,-2.63982557101,-0.0671178921925,2.11092758517,-0.891214129015,-0.0222068291804,0.000170180163137,0.000545606365576,-4.44877760832e-06,-0.000326736146336,-0.000388796705496,-0.0152769767213,0.573765268447,0.818987759415,0.00576312008223,0.0,0.818994983162,-0.573702191202,-0.00968298852587,0.0,-0.00462402348469,0.0102759267891,-0.999936509852,0.0,0.266178001227,-0.259140682043,0.305846969795,1.0,-0.00327,-0.00429771428572,3.149
-0.644048078878,-0.520818094728,-0.124613865751,-2.63981612975,-0.0671027873884,2.11093171522,-0.891423004231,-0.0152578311824,0.00158227418082,0.00149075308829,0.000621412754938,-0.000128972564973,0.000857644500369,-0.0102734319607,0.573764449484,0.818988318481,0.00576520617752,0.0,0.818995517344,-0.573701259804,-0.00969298564595,0.0,-0.00463102512974,0.0102833665756,-0.999936400967,0.0,0.266129773069,-0.259195005357,0.305842765192,1.0,-0.00299,-0.00392971428572,3.163
-0.64433511415,-0.520766971948,-0.124587886901,-2.63980062603,-0.0670875288671,2.11094406587,-0.891698932058,-0.0137620784215,0.000472087562752,0.00171070009793,0.00189610938942,0.00146458318885,0.00483584344986,-0.00662876316595,0.573762569987,0.818989628894,0.00576610328575,0.0,0.818996739462,-0.573699160147,-0.00971397440819,0.0,-0.00464772516641,0.0102961329441,-0.999936192113,0.0,0.266066777316,-0.259268943644,0.305832669135,1.0,-0.00259,-0.00340400000001,3.183
-0.644476169028,-0.520737411954,-0.124565662092,-2.63978832426,-0.0670765230549,2.11094630456,-0.891849859852,-0.00984611996261,0.00537881000701,0.000669670409078,0.00229875689691,0.00225783575566,0.000554496222495,-0.0113984977973,0.573744117544,0.819002564603,0.00576486416681,0.0,0.819009597262,-0.573680572297,-0.00972766483609,0.0,-0.00465988159109,0.0103028679188,-0.999936066164,0.0,0.266038548732,-0.259303420667,0.305828100748,1.0,-0.00235,-0.00308857142858,3.195
-0.644730397629,-0.520701772698,-0.124521897839,-2.63978027987,-0.0670596352006,2.11095049468,-0.892098320146,-0.0123562714939,0.00186412176975,0.0053663185442,9.10104629459e-05,0.000134435492749,0.000434123335754,-0.0106864000727,0.573725538572,0.819015617664,0.00575945439095,0.0,0.819022493581,-0.573661798765,-0.00974897671974,0.0,-0.0046806753414,0.0103105581262,-0.99993588978,0.0,0.265985355201,-0.259361751215,0.305820033981,1.0,-0.00193,-0.00253657142858,3.216
-0.644873982466,-0.520690916811,-0.124506438742,-2.63977396078,-0.0670493425491,2.11095433267,-0.892228377888,-0.0146602723321,0.000332603775029,0.00243178995932,0.000656763379374,0.000349289253039,0.000282838183935,-0.0139654766712,0.573730377548,0.81901221826,0.00576082628906,0.0,0.819019111553,-0.573666637646,-0.00974836725915,0.0,-0.0046793281376,0.0103113597828,-0.999935887819,0.0,0.265954209908,-0.259397458099,0.305819610851,1.0,-0.00167,-0.00219485714286,3.229
-0.645083634177,-0.520673081053,-0.124473660458,-2.63975503693,-0.0670351563653,2.11096031893,-0.892398450001,-0.00985330755753,0.00373741143958,-0.000403534960977,0.000236821663015,0.000452296431473,-3.91135612353e-05,-0.00336556080642,0.573746549589,0.819000926683,0.00575550419287,0.0,0.819007806163,-0.573682922387,-0.00973986178653,0.0,-0.00467521137607,0.0103022133054,-0.999936001352,0.0,0.265913115568,-0.259449918875,0.305822948252,1.0,-0.00125,-0.00164285714286,3.25
-0.645202178571,-0.520670890809,-0.124457013033,-2.63973767855,-0.0670214265958,2.11096518367,-0.89249194716,-0.00751395010792,0.000898505763356,-0.00423090835424,0.00105184156934,-0.00012592365155,-0.000280748597566,-0.00106531570254,0.573761914156,0.818990153266,0.00575687574317,0.0,0.818997147314,-0.573698499712,-0.00971859149884,0.0,-0.00465680942229,0.0102912206103,-0.999936200417,0.0,0.265891913172,-0.25948144296,0.30583086088,1.0,-0.000990000000005,-0.00130114285715,3.263
-0.645365941268,-0.520658879938,-0.124444318666,-2.63972249078,-0.0670073646011,2.11097005551,-0.892540915644,-0.00399150709618,-0.000225768721407,0.00375392611701,0.000693281048735,9.41399387415e-05,9.0851459601e-05,0.000768649724716,0.573853664386,0.818925841028,0.00576070033816,0.0,0.818932924139,-0.573790327196,-0.00970943247089,0.0,-0.00464596046935,0.0102896186826,-0.999936267368,0.0,0.265857432037,-0.259525110348,0.305834074368,1.0,-0.000570000000005,-0.000749142857149,3.284
-0.645432900133,-0.520655815928,-0.124445852186,-2.63970824319,-0.0669966915604,2.11096964004,-0.892586413077,-0.00596343469694,-0.000690047810037,-3.95028087406e-05,0.000945421768864,0.000428352663886,-3.26959834736e-05,-0.00626165829944,0.573877538207,0.81890905216,0.0057690841978,0.0,0.818916278294,-0.573814284135,-0.00969759599581,0.0,-0.00463115539018,0.0102898275881,-0.999936333897,0.0,0.265843818505,-0.25954568176,0.305839365165,1.0,-0.000310000000005,-0.000407428571435,3.297
-0.645448398367,-0.520655960159,-0.124441939947,-2.63969844881,-0.0669786442903,2.11097356223,-0.892618640653,0.00105361277944,3.52169688107e-05,0.000176208011939,0.000199324871387,2.86868824454e-05,-0.000309759890568,0.00110122875447,0.573869188969,0.818914819504,0.00578093848789,0.0,0.818922238348,-0.573806038943,-0.00968215434287,0.0,-0.00461181105264,0.0102906272729,-0.999936415073,0.0,0.265845131741,-0.259550147939,0.305844316785,1.0,0.0,0.0,3.319
-0.64544836961,-0.520651053107,-0.124435707575,-2.63969825728,-0.0669720092845,2.11097567839,-0.892626071779,0.00292780485976,0.00234533715797,0.00140734321248,0.000774269466377,0.000343623275889,0.00459675936972,-0.00153650802227,0.573861514171,0.818920179966,0.00578345050411,0.0,0.818927614457,-0.573798331029,-0.00968423922354,0.0,-0.00461217347955,0.0102938376973,-0.999936380357,0.0,0.265847355897,-0.259548358552,0.305842928585,1.0,0.0,0.0,3.33
-0.645445104312,-0.520653216118,-0.124422412335,-2.63969495867,-0.066962875628,2.11097885736,-0.89262622034,-0.00317374152174,0.00130914569233,-0.000559213884597,-0.00128883821507,1.7698800614e-05,0.000142572924661,-6.00220757815e-05,0.573853320423,0.818925919919,0.00578370336133,0.0,0.818933398626,-0.57379023038,-0.00967507296672,0.0,-0.0046046241987,0.0102887386877,-0.999936467628,0.0,0.265853212722,-0.259544956468,0.30584581933,1.0,0.0,0.0,3.347
-0.645445585565,-0.520654714225,-0.124405387145,-2.63968712917,-0.0669520079693,2.11097768708,-0.892632641794,0.000119622594645,0.000423463978288,-8.82605166055e-05,0.000864371676011,5.32916464221e-05,0.000185669102923,0.00101463725527,0.573841366542,0.818934297922,0.00578347927251,0.0,0.818941813807,-0.573778367746,-0.00966629226198,0.0,-0.00459771149039,0.0102834493548,-0.999936553847,0.0,0.265859398959,-0.259542090307,0.305850243081,1.0,0.0,0.0,3.364
-0.645445582621,-0.520646824689,-0.124392982105,-2.63969408694,-0.0669470899111,2.11097816196,-0.892638910058,-0.000191070254453,-8.85798573634e-06,0.000773730418068,-0.000269680424476,2.39524804971e-05,7.28031955912e-05,-0.00115914834244,0.573829243861,0.818942797539,0.00578274580549,0.0,0.818950240375,-0.573766104047,-0.00968031705403,0.0,-0.00460977115016,0.0102908282132,-0.999936422411,0.0,0.265860831895,-0.259537027799,0.305844505183,1.0,0.0,0.0,3.384
-0.645445347146,-0.520643642042,-0.124381608513,-2.6396912967,-0.0669419452012,2.11097949759,-0.89264210789,-0.000325564389587,-0.000461905375847,0.00125490160527,0.000933492005449,0.000447648277824,0.000200290325059,-0.0020079814682,0.573820702035,0.81894879463,0.00578105455215,0.0,0.818956224867,-0.573757582136,-0.00967913185851,0.0,-0.00460987824099,0.0102887149396,-0.999936443664,0.0,0.265864604568,-0.259534785709,0.305844988457,1.0,0.0,0.0,3.398
-0.645443078929,-0.520644320852,-0.124372344121,-2.63968657202,-0.0669396378515,2.11098124737,-0.892636950234,0.00110705652891,0.000794290080972,0.000383022769508,-0.00036908753334,0.000397127191599,0.000303921620288,0.00135430490248,0.573817698412,0.818950924456,0.00577747554539,0.0,0.818958350382,-0.573754668036,-0.00967202917661,0.0,-0.00460615235463,0.0102816913175,-0.999936533078,0.0,0.265868789526,-0.259533368854,0.305847759196,1.0,0.0,0.0,3.414
-0.645445561963,-0.52064864339,-0.124365597678,-2.63968518817,-0.0669395835557,2.11098040755,-0.89264304069,-0.000478198296137,-0.00691668065173,0.000138717158387,0.000545327723242,0.000191895694706,-0.000132320176167,-0.000890516863297,0.573810030436,0.81895632186,0.00577397246639,0.0,0.818963733187,-0.573747065228,-0.00966725236391,0.0,-0.00460434632908,0.0102760382651,-0.999936599506,0.0,0.265869893049,-0.259532846121,0.305850068956,1.0,0.0,0.0,3.431
-0.645444631886,-0.520646111247,-0.124364940721,-2.63969074912,-0.066937467966,2.11098199812,-0.892638590085,-0.000208855361478,8.43171322051e-05,-0.000428184985828,-0.000728261700216,0.00030430130375,-0.000359916157879,0.000224097380756,0.573813100659,0.818954155667,0.00577609976547,0.0,0.818961560112,-0.573750061,-0.00967354446979,0.0,-0.0046082405737,0.0102814081708,-0.999936526368,0.0,0.265869382526,-0.259531003736,0.305846758033,1.0,0.0,0.0,3.451
-0.645445582608,-0.520643614422,-0.124367418675,-2.63968796506,-0.0669344855104,2.11098044682,-0.892640648178,0.000293740957731,-0.0014205596812,-0.000343528396465,9.90612164752e-05,-0.000134142145615,5.90172646695e-05,0.000317008947065,0.573815359073,0.818952547607,0.00577973714817,0.0,0.81895998517,-0.57375229272,-0.00967451238106,0.0,-0.00460691781868,0.0102849552622,-0.999936495985,0.0,0.265869203898,-0.259531949521,0.305846915474,1.0,0.0,0.0,3.464
-0.645448290139,-0.520651181891,-0.124365148894,-2.63968770618,-0.066934214049,2.11097881485,-0.892644778475,-0.000556236394947,-0.00174031747606,-0.00276813160416,0.00020590700933,-8.14385212744e-05,-0.00046727752618,7.55991924126e-05,0.573812678507,0.818954432705,0.00577875753135,0.0,0.818961888563,-0.573749680451,-0.0096683072775,0.0,-0.00460243142572,0.0102805774099,-0.999936561664,0.0,0.265868982525,-0.259532104781,0.305849735565,1.0,0.0,0.0,3.485
-0.645443439785,-0.520651399984,-0.124364903819,-2.63968795561,-0.0669292114235,2.11097963301,-0.892643239407,0.000358197995352,-0.00180123670857,-0.000116784092848,0.000345485733233,0.000367655213993,-5.04060858595e-05,0.00084344416794,0.573811906737,0.818954944911,0.00578280156915,0.0,0.818962447887,-0.573748902571,-0.0096670910995,0.0,-0.00459912455215,0.0102831872883,-0.999936550043,0.0,0.26587081687,-0.259530306301,0.305849781595,1.0,0.0,0.0,3.498
-0.645448369624,-0.520645851242,-0.1243645973,-2.63968238579,-0.0669294369619,2.11098081311,-0.892653244446,-0.00052044116283,0.000553999275326,0.000186368495186,0.000249867549535,4.79507031147e-05,0.000690339446345,-0.00164242498998,0.573807720251,0.818957885072,0.00578183017024,0.0,0.818965383087,-0.573744732478,-0.0096659277799,0.0,-0.00459878170842,0.0102817006984,-0.999936566907,0.0,0.265870933351,-0.259533064355,0.305850380441,1.0,0.0,0.0,3.519
-0.645445585569,-0.520643604593,-0.124364667473,-2.63968485656,-0.0669300867432,2.11097882503,-0.892648566574,0.000331576543108,0.000437424470257,0.000455020338325,-0.000203700621179,-0.00320507674367,-0.000253132335572,-0.000265883556553,0.573808941642,0.818957028742,0.0057819085763,0.0,0.818964496613,-0.573745884139,-0.00967267404303,0.0,-0.00460424679216,0.0102856427326,-0.999936501216,0.0,0.265870649536,-0.259531462933,0.305848255179,1.0,0.0,0.0,3.532
-0.645448369624,-0.520641227039,-0.124363938639,-2.63968486562,-0.0669266927981,2.11097967226,-0.892646580087,-0.00056086300985,0.00126799076555,0.000726976213911,-0.000443369692253,0.000157846836347,-0.000210978285772,0.000623913074884,0.573813784939,0.81895361766,0.00578439598289,0.0,0.818961105667,-0.573750703012,-0.0096739391786,0.0,-0.00460379486297,0.0102884330693,-0.999936474591,0.0,0.265870468027,-0.259531774429,0.30584746698,1.0,0.0,0.0,3.552
-0.645445585565,-0.52064052599,-0.12436446807,-2.63968542444,-0.0669283692471,2.11098044682,-0.892650907709,0.000393512656602,-0.000345124248844,-0.000972611551975,-0.00134373347756,5.73003532159e-05,-0.00215037972209,-0.00176931613885,0.57380760026,0.818957958765,0.00578330022281,0.0,0.818965432271,-0.573744517174,-0.0096745366367,0.0,-0.00460499064232,0.0102878436909,-0.999936475149,0.0,0.265870905648,-0.259531275483,0.305847007222,1.0,0.0,0.0,3.565
-0.645445585672,-0.520643187166,-0.124370190701,-2.63968235996,-0.0669233170186,2.11098126062,-0.892649380376,0.000980936502412,-0.000200733839809,-0.00116850076243,-0.000159807249504,8.92396716039e-05,0.000223509937338,-0.000668580868215,0.57381518388,0.818952599273,0.0057898008071,0.0,0.818960172605,-0.573752143328,-0.00966750298051,0.0,-0.00459540454763,0.0102891743672,-0.999936505558,0.0,0.265871005761,-0.259532956514,0.305849320929,1.0,0.0,0.0,3.586
